PerkyPenguin/Analysis-on-Approximated-Derivatives/Code_and_Data/PaperData/Real_Robot/Scene_1/set_interval/2/trajectory.csv
Commanded Joint 0 Position,Commanded Joint 1 Position,Commanded Joint 2 Position,Commanded Joint 3 Position,Commanded Joint 4 Position,Commanded Joint 5 Position,Commanded Joint 6 Position,Commanded Joint 0 Velocity,Commanded Joint 1 Velocity,Commanded Joint 2 Velocity,Commanded Joint 3 Velocity,Commanded Joint 4 Velocity,Commanded Joint 5 Velocity,Commanded Joint 6 Velocity,Commanded Joint 0 Torque,Commanded Joint 1 Torque,Commanded Joint 2 Torque,Commanded Joint 3 Torque,Commanded Joint 4 Torque,Commanded Joint 5 Torque,Commanded Joint 6 Torque,Actual Joint 0 Position,Actual Joint 1 Position,Actual Joint 2 Position,Actual Joint 3 Position,Actual Joint 4 Position,Actual Joint 5 Position,Actual Joint 6 Position,Actual Joint 0 Velocity,Actual Joint 1 Velocity,Actual Joint 2 Velocity,Actual Joint 3 Velocity,Actual Joint 4 Velocity,Actual Joint 5 Velocity,Actual Joint 6 Velocity,Actual Joint 0 Torque,Actual Joint 1 Torque,Actual Joint 2 Torque,Actual Joint 3 Torque,Actual Joint 4 Torque,Actual Joint 5 Torque,Actual Joint 6 Torque,EE ext force 0,EE ext force 1,EE ext force 2,EE ext force 3,EE ext force 4,EE ext force 5,joint ext torque 0,joint ext torque 1,joint ext torque 2,joint ext torque 3,joint ext torque 4,joint ext torque 5,joint ext torque 6,
0.0134401,-0.1967,-0.331684,-1.66084,-0.092537,-0.0899153,-0.383614,-0.00284566,0.0117032,-0.0126733,-0.148512,0.00561212,0.199928,-0.00212142,0,0,0,0,0,0,0,0.0134636,-0.196636,-0.33157,-1.65936,-0.092606,1.47889,0.401804,-0.000533888,-0.00275715,0.000214528,-0.000208922,0.00147709,-0.000822131,0.000782172,-0.0718349,-25.6117,1.86159,25.9076,0.484005,2.91405,-0.0630644,-1.35819,0.0359412,-0.42916,0.0141863,-0.481946,-0.17197,-0.08254,-0.0358775,-0.249733,-0.38417,-0.164574,-0.38844,-0.049033,
0.0134239,-0.196576,-0.331746,-1.66147,-0.0925201,-0.0890854,-0.383622,-0.00404652,0.030901,-0.0155215,-0.157816,0.00422474,0.20749,-0.00201801,0,0,0,0,0,0,0,0.0134636,-0.196636,-0.33157,-1.65936,-0.092606,1.47889,0.401804,-0.000533888,-0.00275715,0.000214528,-0.000208922,0.00147709,-0.000822131,0.000782172,-0.0718349,-25.6117,1.86159,25.9076,0.484005,2.91405,-0.0630644,-1.40561,0.104166,-0.37417,-0.0392199,-0.541953,-0.149527,-0.0594297,-0.0797198,-0.222188,-0.356899,-0.156004,-0.388093,-0.0489756,
0.013461,-0.196662,-0.331572,-1.65935,-0.0925906,-0.0919184,-0.383594,-0.00013694,-0.0012856,-0.000119915,0.000572384,0.000697936,-0.00048529,7.30777e-06,0,0,0,0,0,0,0,0.0134636,-0.196636,-0.33157,-1.65936,-0.092606,1.47889,0.401804,-0.000533888,-0.00275715,0.000214528,-0.000208922,0.00147709,-0.000822131,0.000782172,-0.0718349,-25.6117,1.86159,25.9076,0.484005,2.91405,-0.0630644,-1.40561,0.104166,-0.37417,-0.0392199,-0.541953,-0.149527,-0.0594297,-0.0797198,-0.222188,-0.356899,-0.156004,-0.388093,-0.0489756,
0.0134605,-0.196667,-0.331572,-1.65935,-0.0925884,-0.0919197,-0.383594,-0.000120531,-0.00113129,-0.000109734,0.000524343,0.000560791,-0.000311176,6.56102e-06,0,0,0,0,0,0,0,0.0134636,-0.196636,-0.33157,-1.65936,-0.092606,1.47889,0.401804,-0.000533888,-0.00275715,0.000214528,-0.000208922,0.00147709,-0.000822131,0.000782172,-0.0718349,-25.6117,1.86159,25.9076,0.484005,2.91405,-0.0630644,-1.22274,0.0109729,-0.465621,0.0342557,-0.373717,-0.158004,-0.0687468,0.0271113,-0.238328,-0.403299,-0.165466,-0.376839,-0.0499979,
0.0134601,-0.196671,-0.331572,-1.65934,-0.0925866,-0.0919204,-0.383594,-0.000105661,-0.00100261,-0.000100492,0.000476723,0.000445986,-0.000177616,5.80039e-06,0,0,0,0,0,0,0,0.0134642,-0.196688,-0.331569,-1.65951,-0.0926096,1.47904,0.401804,0.000872699,-0.00804084,0.0013771,-0.0232071,-0.00269713,0.0251449,0.000772854,-0.0956386,-24.8619,1.7624,24.1382,0.520626,3.07976,-0.0566557,-1.22274,0.0109729,-0.465621,0.0342557,-0.373717,-0.158004,-0.0687468,0.0271113,-0.238328,-0.403299,-0.165466,-0.376839,-0.0499979,
0.0134597,-0.196674,-0.331573,-1.65934,-0.0925852,-0.0919207,-0.383594,-9.24848e-05,-0.000893915,-9.22678e-05,0.000432829,0.000350331,-7.89879e-05,5.11192e-06,0,0,0,0,0,0,0,0.0134642,-0.196688,-0.331569,-1.65951,-0.0926096,1.47904,0.401804,0.000872699,-0.00804084,0.0013771,-0.0232071,-0.00269713,0.0251449,0.000772854,-0.0956386,-24.8619,1.7624,24.1382,0.520626,3.07976,-0.0566557,-2.35604,0.420705,-1.12042,-0.176746,-1.00615,-0.172263,-0.0808085,-0.226831,-0.239033,-0.514969,-0.158211,-0.386459,-0.0488237,
0.0134594,-0.196677,-0.331573,-1.65934,-0.0925841,-0.0919208,-0.383594,-8.09105e-05,-0.000801548,-8.50128e-05,0.000393361,0.000270796,-8.74355e-06,4.51684e-06,0,0,0,0,0,0,0,0.0134642,-0.196688,-0.331569,-1.65951,-0.0926096,1.47904,0.401804,0.000872699,-0.00804084,0.0013771,-0.0232071,-0.00269713,0.0251449,0.000772854,-0.0956386,-24.8619,1.7624,24.1382,0.520626,3.07976,-0.0566557,-2.35604,0.420705,-1.12042,-0.176746,-1.00615,-0.172263,-0.0808085,-0.226831,-0.239033,-0.514969,-0.158211,-0.386459,-0.0488237,
0.0134591,-0.19668,-0.331574,-1.65934,-0.0925833,-0.0919206,-0.383594,-7.07792e-05,-0.0007228,-7.86427e-05,0.000358191,0.000204733,3.90566e-05,4.0114e-06,0,0,0,0,0,0,0,0.0134642,-0.196688,-0.331569,-1.65951,-0.0926096,1.47904,0.401804,0.000872699,-0.00804084,0.0013771,-0.0232071,-0.00269713,0.0251449,0.000772854,-0.0956386,-24.8619,1.7624,24.1382,0.520626,3.07976,-0.0566557,-2.39933,0.221409,-1.26162,-0.029171,-1.04432,-0.267871,-0.168577,-0.252224,-0.3552,-0.501737,-0.170263,-0.324331,-0.0477564,
0.0134589,-0.196683,-0.331574,-1.65934,-0.0925827,-0.0919203,-0.383593,-6.19242e-05,-0.000655524,-7.30657e-05,0.000326953,0.000149899,6.93986e-05,3.58493e-06,0,0,0,0,0,0,0,0.0134642,-0.196688,-0.331569,-1.65951,-0.0926096,1.47904,0.401804,0.000872699,-0.00804084,0.0013771,-0.0232071,-0.00269713,0.0251449,0.000772854,-0.0956386,-24.8619,1.7624,24.1382,0.520626,3.07976,-0.0566557,-0.621768,-0.216016,-1.42699,0.322369,0.354705,-0.151619,-0.058586,0.552378,-0.278118,-0.739873,-0.166599,-0.278312,-0.0472599,
0.0134587,-0.196685,-0.331574,-1.65934,-0.0925823,-0.09192,-0.383593,-5.41893e-05,-0.000597957,-6.81932e-05,0.000299239,0.00010441,8.63409e-05,3.22595e-06,0,0,0,0,0,0,0,0.0134642,-0.196688,-0.331569,-1.65951,-0.0926096,1.47904,0.401804,0.000872699,-0.00804084,0.0013771,-0.0232071,-0.00269713,0.0251449,0.000772854,-0.0956386,-24.8619,1.7624,24.1382,0.520626,3.07976,-0.0566557,-0.621768,-0.216016,-1.42699,0.322369,0.354705,-0.151619,-0.058586,0.552378,-0.278118,-0.739873,-0.166599,-0.278312,-0.0472599,
0.0134585,-0.196688,-0.331574,-1.65934,-0.092582,-0.0919196,-0.383593,-4.74341e-05,-0.000548628,-6.39432e-05,0.000274661,6.66933e-05,9.31383e-05,2.924e-06,0,0,0,0,0,0,0,0.0134746,-0.19664,-0.331568,-1.65971,-0.0926068,1.47981,0.401805,0.000346755,0.00849621,-0.000568184,0.00462101,-0.0041198,0.00350736,0.0008433,-0.198788,-25.7347,1.83778,25.9076,0.507809,3.05321,-0.0767973,-0.995296,0.0225818,-0.961756,0.0683048,-0.1467,-0.109059,-0.0184716,0.177848,-0.199275,-0.481018,-0.152336,-0.240772,-0.0482264,
0.0134583,-0.19669,-0.331575,-1.65933,-0.0925819,-0.0919192,-0.383593,-4.15341e-05,-0.000506305,-6.02408e-05,0.000252866,3.54394e-05,9.23792e-05,2.67002e-06,0,0,0,0,0,0,0,0.0134746,-0.19664,-0.331568,-1.65971,-0.0926068,1.47981,0.401805,0.000346755,0.00849621,-0.000568184,0.00462101,-0.0041198,0.00350736,0.0008433,-0.198788,-25.7347,1.83778,25.9076,0.507809,3.05321,-0.0767973,-0.995296,0.0225818,-0.961756,0.0683048,-0.1467,-0.109059,-0.0184716,0.177848,-0.199275,-0.481018,-0.152336,-0.240772,-0.0482264,
0.0134582,-0.196691,-0.331575,-1.65933,-0.0925818,-0.0919189,-0.383593,-3.638e-05,-0.00046995,-5.70189e-05,0.00023354,9.55559e-06,8.61077e-05,2.45634e-06,0,0,0,0,0,0,0,0.0134746,-0.19664,-0.331568,-1.65971,-0.0926068,1.47981,0.401805,0.000346755,0.00849621,-0.000568184,0.00462101,-0.0041198,0.00350736,0.0008433,-0.198788,-25.7347,1.83778,25.9076,0.507809,3.05321,-0.0767973,-1.26908,0.00811476,-0.948764,0.0589929,-0.356138,-0.161857,-0.0628421,0.05921,-0.25512,-0.444842,-0.174649,-0.24297,-0.0492739,
0.013458,-0.196693,-0.331575,-1.65933,-0.0925819,-0.0919186,-0.383593,-3.1876e-05,-0.000438686,-5.42178e-05,0.000216402,-1.18676e-05,7.59282e-05,2.27649e-06,0,0,0,0,0,0,0,0.0134746,-0.19664,-0.331568,-1.65971,-0.0926068,1.47981,0.401805,0.000346755,0.00849621,-0.000568184,0.00462101,-0.0041198,0.00350736,0.0008433,-0.198788,-25.7347,1.83778,25.9076,0.507809,3.05321,-0.0767973,-1.26908,0.00811476,-0.948764,0.0589929,-0.356138,-0.161857,-0.0628421,0.05921,-0.25512,-0.444842,-0.174649,-0.24297,-0.0492739,
0.0134579,-0.196695,-0.331575,-1.65933,-0.092582,-0.0919183,-0.383593,-2.79386e-05,-0.00041177,-5.17843e-05,0.000201206,-2.95872e-05,6.3091e-05,2.12503e-06,0,0,0,0,0,0,0,0.0134746,-0.19664,-0.331568,-1.65971,-0.0926068,1.47981,0.401805,0.000346755,0.00849621,-0.000568184,0.00462101,-0.0041198,0.00350736,0.0008433,-0.198788,-25.7347,1.83778,25.9076,0.507809,3.05321,-0.0767973,-1.74166,0.184788,-1.09891,-0.0460552,-0.642916,-0.164622,-0.0608297,-0.0698162,-0.252573,-0.46838,-0.173721,-0.269965,-0.0496848,
0.0134578,-0.196696,-0.331575,-1.65933,-0.0925822,-0.0919181,-0.383593,-2.44947e-05,-0.000388577,-4.96718e-05,0.000187731,-4.42331e-05,4.85631e-05,1.99741e-06,0,0,0,0,0,0,0,0.0134642,-0.196568,-0.331573,-1.65967,-0.0925992,1.47983,0.401804,0.00145993,0.00220372,0.0010439,-0.00461616,-0.000966864,-0.000623412,0.000432141,-0.0956386,-26.1116,1.91316,26.3797,0.459286,2.96715,-0.0630644,-1.74166,0.184788,-1.09891,-0.0460552,-0.642916,-0.164622,-0.0608297,-0.0698162,-0.252573,-0.46838,-0.173721,-0.269965,-0.0496848,
0.0134577,-0.196698,-0.331576,-1.65933,-0.0925824,-0.091918,-0.383593,-2.14808e-05,-0.000368571,-4.78389e-05,0.000175783,-5.63291e-05,3.30845e-05,1.88981e-06,0,0,0,0,0,0,0,0.0134642,-0.196568,-0.331573,-1.65967,-0.0925992,1.47983,0.401804,0.00145993,0.00220372,0.0010439,-0.00461616,-0.000966864,-0.000623412,0.000432141,-0.0956386,-26.1116,1.91316,26.3797,0.459286,2.96715,-0.0630644,-1.68243,0.234313,-0.53067,-0.157768,-0.820079,-0.132212,-0.0319468,-0.265246,-0.198711,-0.253596,-0.157633,-0.260439,-0.0508299,
0.0134577,-0.196699,-0.331576,-1.65933,-0.0925827,-0.0919179,-0.383593,-1.88417e-05,-0.000351302,-4.62498e-05,0.000165189,-6.63107e-05,1.72151e-05,1.79901e-06,0,0,0,0,0,0,0,0.0134642,-0.196568,-0.331573,-1.65967,-0.0925992,1.47983,0.401804,0.00145993,0.00220372,0.0010439,-0.00461616,-0.000966864,-0.000623412,0.000432141,-0.0956386,-26.1116,1.91316,26.3797,0.459286,2.96715,-0.0630644,-1.26397,0.104134,-0.856372,-0.000463208,-0.346106,-0.116681,-0.0150645,0.0677373,-0.207693,-0.457161,-0.159402,-0.289953,-0.0512112,
0.0134576,-0.196701,-0.331576,-1.65933,-0.092583,-0.0919179,-0.383593,-1.65293e-05,-0.000336383,-4.48729e-05,0.000155797,-7.45398e-05,1.3719e-06,1.72235e-06,0,0,0,0,0,0,0,0.0134642,-0.196568,-0.331573,-1.65967,-0.0925992,1.47983,0.401804,0.00145993,0.00220372,0.0010439,-0.00461616,-0.000966864,-0.000623412,0.000432141,-0.0956386,-26.1116,1.91316,26.3797,0.459286,2.96715,-0.0630644,-1.26397,0.104134,-0.856372,-0.000463208,-0.346106,-0.116681,-0.0150645,0.0677373,-0.207693,-0.457161,-0.159402,-0.289953,-0.0512112,
0.0134575,-0.196702,-0.331576,-1.65933,-0.0925833,-0.091918,-0.383593,-1.45018e-05,-0.000323488,-4.36809e-05,0.000147471,-8.1317e-05,-1.4141e-05,1.65757e-06,0,0,0,0,0,0,0,0.0134642,-0.196568,-0.331573,-1.65967,-0.0925992,1.47983,0.401804,0.00145993,0.00220372,0.0010439,-0.00461616,-0.000966864,-0.000623412,0.000432141,-0.0956386,-26.1116,1.91316,26.3797,0.459286,2.96715,-0.0630644,-1.42517,0.101275,-0.863973,0.00121594,-0.45843,-0.147455,-0.0465084,0.00912765,-0.237317,-0.44933,-0.164588,-0.299249,-0.0505603,
0.0134575,-0.196703,-0.331576,-1.65933,-0.0925836,-0.0919181,-0.383593,-1.2723e-05,-0.000312335,-4.26497e-05,0.000140092,-8.68917e-05,-2.91077e-05,1.60278e-06,0,0,0,0,0,0,0,0.0134663,-0.196552,-0.331567,-1.65958,-0.0925838,1.47985,0.401801,0.000655591,0.00411725,0.000359218,0.00135483,0.000371813,0.00121822,-0.000362524,-0.0956386,-25.7109,1.86159,25.6815,0.331112,2.89391,-0.0429228,-1.42517,0.101275,-0.863973,0.00121594,-0.45843,-0.147455,-0.0465084,0.00912765,-0.237317,-0.44933,-0.164588,-0.299249,-0.0505603,
0.0134574,-0.196704,-0.331576,-1.65933,-0.092584,-0.0919183,-0.383593,-1.11612e-05,-0.000302686,-4.17586e-05,0.000133552,-9.14712e-05,-4.33815e-05,1.5564e-06,0,0,0,0,0,0,0,0.0134663,-0.196552,-0.331567,-1.65958,-0.0925838,1.47985,0.401801,0.000655591,0.00411725,0.000359218,0.00135483,0.000371813,0.00121822,-0.000362524,-0.0956386,-25.7109,1.86159,25.6815,0.331112,2.89391,-0.0429228,-2.15119,0.14805,-0.270826,-0.143002,-1.24313,-0.257892,-0.15661,-0.532114,-0.319425,-0.13068,-0.184595,-0.292122,-0.0484528,
0.0134574,-0.196706,-0.331577,-1.65933,-0.0925844,-0.0919185,-0.383593,-9.78907e-06,-0.000294335,-4.09896e-05,0.000127758,-9.5227e-05,-5.68689e-05,1.5171e-06,0,0,0,0,0,0,0,0.0134663,-0.196552,-0.331567,-1.65958,-0.0925838,1.47985,0.401801,0.000655591,0.00411725,0.000359218,0.00135483,0.000371813,0.00121822,-0.000362524,-0.0956386,-25.7109,1.86159,25.6815,0.331112,2.89391,-0.0429228,-1.33757,0.0637644,-0.522365,-0.0232494,-0.511121,-0.152854,-0.0605036,-0.0716939,-0.227903,-0.336758,-0.167739,-0.303297,-0.0489286,
0.0134574,-0.196707,-0.331577,-1.65933,-0.0925848,-0.0919188,-0.383593,-8.58272e-06,-0.000287108,-4.0327e-05,0.000122624,-9.83019e-05,-6.95169e-05,1.48379e-06,0,0,0,0,0,0,0,0.0134663,-0.196552,-0.331567,-1.65958,-0.0925838,1.47985,0.401801,0.000655591,0.00411725,0.000359218,0.00135483,0.000371813,0.00121822,-0.000362524,-0.0956386,-25.7109,1.86159,25.6815,0.331112,2.89391,-0.0429228,-1.33757,0.0637644,-0.522365,-0.0232494,-0.511121,-0.152854,-0.0605036,-0.0716939,-0.227903,-0.336758,-0.167739,-0.303297,-0.0489286,
0.0134573,-0.196708,-0.331577,-1.65933,-0.0925852,-0.0919191,-0.383593,-7.52139e-06,-0.000280855,-3.97571e-05,0.000118077,-0.000100814,-8.1304e-05,1.45551e-06,0,0,0,0,0,0,0,0.0134663,-0.196552,-0.331567,-1.65958,-0.0925838,1.47985,0.401801,0.000655591,0.00411725,0.000359218,0.00135483,0.000371813,0.00121822,-0.000362524,-0.0956386,-25.7109,1.86159,25.6815,0.331112,2.89391,-0.0429228,-1.4335,0.0451659,-0.494774,-0.00467798,-0.598883,-0.17746,-0.0913704,-0.127272,-0.248971,-0.314569,-0.158242,-0.303045,-0.0506298,
0.0134573,-0.196709,-0.331577,-1.65933,-0.0925856,-0.0919195,-0.383593,-6.58702e-06,-0.000275445,-3.92681e-05,0.000114051,-0.000102861,-9.2231e-05,1.4315e-06,0,0,0,0,0,0,0,0.0134663,-0.196552,-0.331567,-1.65958,-0.0925838,1.47985,0.401801,0.000655591,0.00411725,0.000359218,0.00135483,0.000371813,0.00121822,-0.000362524,-0.0956386,-25.7109,1.86159,25.6815,0.331112,2.89391,-0.0429228,-1.4335,0.0451659,-0.494774,-0.00467798,-0.598883,-0.17746,-0.0913704,-0.127272,-0.248971,-0.314569,-0.158242,-0.303045,-0.0506298,
0.0134573,-0.19671,-0.331577,-1.65933,-0.092586,-0.0919199,-0.383593,-5.76388e-06,-0.000270767,-3.88498e-05,0.000110487,-0.000104523,-0.000102316,1.4111e-06,0,0,0,0,0,0,0,0.0134778,-0.196554,-0.331553,-1.65958,-0.0926048,1.47987,0.401804,0.000592995,0.00229828,0.00126385,-0.000824129,-0.00331691,-0.000298263,0.000655844,-0.198788,-25.461,1.7624,25.983,0.520626,2.9406,-0.0566557,-1.19728,-0.0660931,-0.451231,0.0676417,-0.431277,-0.186934,-0.105628,-0.0385107,-0.261299,-0.325918,-0.164996,-0.300684,-0.0505844,
0.0133429,-0.196604,-0.331662,-1.65923,-0.0910922,-0.0928362,-0.383593,-0.0113805,0.00222712,-0.0101918,0.0100478,0.171688,-0.104912,0.000359885,0,0,0,0,0,0,0,0.0134778,-0.196554,-0.331553,-1.65958,-0.0926048,1.47987,0.401804,0.000592995,0.00229828,0.00126385,-0.000824129,-0.00331691,-0.000298263,0.000655844,-0.198788,-25.461,1.7624,25.983,0.520626,2.9406,-0.0566557,-0.9229,-0.0850965,-0.46994,0.0892307,-0.209467,-0.148328,-0.0711977,0.0919973,-0.22323,-0.369462,-0.160489,-0.303316,-0.0499791,
0.0133677,-0.196481,-0.331635,-1.65947,-0.0911432,-0.0918412,-0.383594,-0.0106136,0.00516383,-0.0094276,0.00861763,0.167609,-0.103504,0.000312665,0,0,0,0,0,0,0,0.0134778,-0.196554,-0.331553,-1.65958,-0.0926048,1.47987,0.401804,0.000592995,0.00229828,0.00126385,-0.000824129,-0.00331691,-0.000298263,0.000655844,-0.198788,-25.461,1.7624,25.983,0.520626,2.9406,-0.0566557,-0.9229,-0.0850965,-0.46994,0.0892307,-0.209467,-0.148328,-0.0711977,0.0919973,-0.22323,-0.369462,-0.160489,-0.303316,-0.0499791,
0.0133252,-0.196466,-0.331676,-1.65945,-0.0903468,-0.0923358,-0.383592,-0.0106158,0.00368655,-0.0101677,0.00714927,0.199112,-0.123666,0.000446371,0,0,0,0,0,0,0,0.0134778,-0.196554,-0.331553,-1.65958,-0.0926048,1.47987,0.401804,0.000592995,0.00229828,0.00126385,-0.000824129,-0.00331691,-0.000298263,0.000655844,-0.198788,-25.461,1.7624,25.983,0.520626,2.9406,-0.0566557,-1.15515,-0.119603,-0.31787,0.0804877,-0.46273,-0.205415,-0.127262,-0.0837335,-0.27564,-0.264682,-0.168674,-0.283747,-0.0492333,
0.0132848,-0.196457,-0.331716,-1.65942,-0.0894532,-0.0928968,-0.38359,-0.0100961,0.00236327,-0.0101244,0.00573788,0.223396,-0.140239,0.000521979,0,0,0,0,0,0,0,0.0134778,-0.196554,-0.331553,-1.65958,-0.0926048,1.47987,0.401804,0.000592995,0.00229828,0.00126385,-0.000824129,-0.00331691,-0.000298263,0.000655844,-0.198788,-25.461,1.7624,25.983,0.520626,2.9406,-0.0566557,-1.15515,-0.119603,-0.31787,0.0804877,-0.46273,-0.205415,-0.127262,-0.0837335,-0.27564,-0.264682,-0.168674,-0.283747,-0.0492333,
0.0132477,-0.196451,-0.331755,-1.6594,-0.0884841,-0.0935124,-0.383588,-0.00927698,0.00127397,-0.00959767,0.00451603,0.242271,-0.153899,0.000561688,0,0,0,0,0,0,0,0.0134515,-0.196566,-0.331577,-1.65954,-0.0922699,1.47986,0.401803,9.59488e-05,0.00259367,-0.00120837,0.00123607,0.0400665,-0.000381129,-0.000121984,0.0551182,-25.3856,2.01234,26.106,0.837399,2.95983,-0.050247,-0.769774,-0.338572,-0.617962,0.294065,-0.0453057,-0.235492,-0.158776,0.203587,-0.332054,-0.43241,-0.172504,-0.290292,-0.0497766,
0.0132145,-0.19645,-0.33179,-1.65939,-0.087456,-0.0941729,-0.383585,-0.00830048,0.000417402,-0.00878734,0.00349097,0.257042,-0.165127,0.000578323,0,0,0,0,0,0,0,0.0134515,-0.196566,-0.331577,-1.65954,-0.0922699,1.47986,0.401803,9.59488e-05,0.00259367,-0.00120837,0.00123607,0.0400665,-0.000381129,-0.000121984,0.0551182,-25.3856,2.01234,26.106,0.837399,2.95983,-0.050247,-0.827576,-0.145412,-0.320403,0.166042,-0.222794,-0.157782,-0.0806166,0.0461583,-0.243342,-0.311261,-0.101289,-0.289224,-0.0503927,
0.0131855,-0.196451,-0.331821,-1.65938,-0.0863813,-0.0948701,-0.383583,-0.0072581,-0.000233039,-0.00782629,0.00263724,0.268663,-0.174306,0.000580017,0,0,0,0,0,0,0,0.0134515,-0.196566,-0.331577,-1.65954,-0.0922699,1.47986,0.401803,9.59488e-05,0.00259367,-0.00120837,0.00123607,0.0400665,-0.000381129,-0.000121984,0.0551182,-25.3856,2.01234,26.106,0.837399,2.95983,-0.050247,-0.827576,-0.145412,-0.320403,0.166042,-0.222794,-0.157782,-0.0806166,0.0461583,-0.243342,-0.311261,-0.101289,-0.289224,-0.0503927,
0.0131607,-0.196454,-0.331848,-1.65937,-0.08527,-0.0955972,-0.383581,-0.00620849,-0.000709707,-0.00680213,0.00192519,0.277837,-0.181762,0.000572264,0,0,0,0,0,0,0,0.0134515,-0.196566,-0.331577,-1.65954,-0.0922699,1.47986,0.401803,9.59488e-05,0.00259367,-0.00120837,0.00123607,0.0400665,-0.000381129,-0.000121984,0.0551182,-25.3856,2.01234,26.106,0.837399,2.95983,-0.050247,-0.822632,-0.110336,-0.233516,0.198141,-0.280933,-0.137933,-0.0486707,-0.0150132,-0.242409,-0.273011,-0.0252007,-0.283677,-0.051064,
0.0131399,-0.196458,-0.331871,-1.65937,-0.0841296,-0.0963482,-0.383578,-0.00518843,-0.00104389,-0.00577153,0.00132879,0.285091,-0.18777,0.000558485,0,0,0,0,0,0,0,0.0134515,-0.196566,-0.331577,-1.65954,-0.0922699,1.47986,0.401803,9.59488e-05,0.00259367,-0.00120837,0.00123607,0.0400665,-0.000381129,-0.000121984,0.0551182,-25.3856,2.01234,26.106,0.837399,2.95983,-0.050247,-0.822632,-0.110336,-0.233516,0.198141,-0.280933,-0.137933,-0.0486707,-0.0150132,-0.242409,-0.273011,-0.0252007,-0.283677,-0.051064,
0.013123,-0.196463,-0.33189,-1.65936,-0.0829663,-0.0971185,-0.383576,-0.00421999,-0.00126354,-0.00477016,0.000826915,0.29082,-0.192565,0.000541201,0,0,0,0,0,0,0,0.0134515,-0.196566,-0.331577,-1.65954,-0.0922699,1.47986,0.401803,9.59488e-05,0.00259367,-0.00120837,0.00123607,0.0400665,-0.000381129,-0.000121984,0.0551182,-25.3856,2.01234,26.106,0.837399,2.95983,-0.050247,-0.744488,-0.477628,-0.399515,0.56993,-0.162132,-0.287486,-0.187785,0.0737503,-0.446754,-0.363811,0.0296243,-0.300943,-0.0517282,
0.0131098,-0.196468,-0.331906,-1.65936,-0.081785,-0.0979039,-0.383574,-0.00331535,-0.00139268,-0.00381941,0.000402825,0.295326,-0.196346,0.000522081,0,0,0,0,0,0,0,0.0133886,-0.196548,-0.331639,-1.65952,-0.0897901,1.47982,0.401803,0.000889979,-0.000531415,-0.00188851,-0.0014603,0.099634,-0.00516038,0.000139239,0.435978,-25.5602,2.31386,26.0822,0.923458,3.00011,-0.050247,-1.00375,-0.25929,-0.0846034,0.416797,-0.503182,-0.234233,-0.128819,-0.180289,-0.382979,-0.209783,0.0969673,-0.298589,-0.0510941,
0.0130998,-0.196474,-0.331917,-1.65936,-0.0805896,-0.098701,-0.383572,-0.00248016,-0.00145154,-0.00293107,4.32892e-05,0.298841,-0.199283,0.000502186,0,0,0,0,0,0,0,0.0133886,-0.196548,-0.331639,-1.65952,-0.0897901,1.47982,0.401803,0.000889979,-0.000531415,-0.00188851,-0.0014603,0.099634,-0.00516038,0.000139239,0.435978,-25.5602,2.31386,26.0822,0.923458,3.00011,-0.050247,-1.00375,-0.25929,-0.0846034,0.416797,-0.503182,-0.234233,-0.128819,-0.180289,-0.382979,-0.209783,0.0969673,-0.298589,-0.0510941,
0.013093,-0.19648,-0.331926,-1.65936,-0.0793835,-0.0995071,-0.38357,-0.00171578,-0.00145689,-0.00211054,-0.00026221,0.301545,-0.201518,0.000482207,0,0,0,0,0,0,0,0.0133886,-0.196548,-0.331639,-1.65952,-0.0897901,1.47982,0.401803,0.000889979,-0.000531415,-0.00188851,-0.0014603,0.099634,-0.00516038,0.000139239,0.435978,-25.5602,2.31386,26.0822,0.923458,3.00011,-0.050247,-0.50492,-0.127501,-0.16329,0.402265,-0.0977798,-0.0874046,0.0144715,0.0588334,-0.242239,-0.311726,0.175505,-0.31118,-0.0500958,
0.0130889,-0.196486,-0.331931,-1.65937,-0.0781691,-0.10032,-0.383568,-0.00102083,-0.00142243,-0.00135905,-0.000522072,0.30358,-0.203169,0.00046275,0,0,0,0,0,0,0,0.0133886,-0.196548,-0.331639,-1.65952,-0.0897901,1.47982,0.401803,0.000889979,-0.000531415,-0.00188851,-0.0014603,0.099634,-0.00516038,0.000139239,0.435978,-25.5602,2.31386,26.0822,0.923458,3.00011,-0.050247,-0.50492,-0.127501,-0.16329,0.402265,-0.0977798,-0.0874046,0.0144715,0.0588334,-0.242239,-0.311726,0.175505,-0.31118,-0.0500958,
0.0130873,-0.196491,-0.331934,-1.65937,-0.0769489,-0.101137,-0.383567,-0.000392285,-0.00135924,-0.000675188,-0.000743128,0.305058,-0.204335,0.00044407,0,0,0,0,0,0,0,0.0133886,-0.196548,-0.331639,-1.65952,-0.0897901,1.47982,0.401803,0.000889979,-0.000531415,-0.00188851,-0.0014603,0.099634,-0.00516038,0.000139239,0.435978,-25.5602,2.31386,26.0822,0.923458,3.00011,-0.050247,-0.439696,-0.0205113,-0.039507,0.394127,-0.0920304,-0.0291146,0.0702621,0.0426455,-0.188245,-0.301811,0.264951,-0.341082,-0.0488327,
0.013088,-0.196496,-0.331934,-1.65937,-0.0757246,-0.101958,-0.383565,0.000173878,-0.00127618,-5.59065e-05,-0.000930954,0.306069,-0.2051,0.000426248,0,0,0,0,0,0,0,0.0133811,-0.196555,-0.331646,-1.65951,-0.0864254,1.47978,0.4018,-0.000708564,-0.00319178,-0.00227557,0.0032232,0.1144,-0.00274386,-0.00101131,0.511356,-25.4372,2.31386,25.7806,1.01501,2.90673,-0.0227812,-0.439696,-0.0205113,-0.039507,0.394127,-0.0920304,-0.0291146,0.0702621,0.0426455,-0.188245,-0.301811,0.264951,-0.341082,-0.0488327,
0.0130908,-0.196501,-0.331932,-1.65938,-0.0744979,-0.10278,-0.383563,0.000682129,-0.00118027,0.000502753,-0.00109016,0.306685,-0.205533,0.000409488,0,0,0,0,0,0,0,0.0133811,-0.196555,-0.331646,-1.65951,-0.0864254,1.47978,0.4018,-0.000708564,-0.00319178,-0.00227557,0.0032232,0.1144,-0.00274386,-0.00101131,0.511356,-25.4372,2.31386,25.7806,1.01501,2.90673,-0.0227812,-0.727504,0.149651,0.0908511,0.31224,-0.355671,-0.00266763,0.0976702,-0.124886,-0.157698,-0.245502,0.328844,-0.370697,-0.0491033,
0.0130953,-0.196505,-0.331928,-1.65938,-0.07327,-0.103602,-0.383562,0.00113711,-0.00107697,0.00100519,-0.0012246,0.306968,-0.20569,0.000393775,0,0,0,0,0,0,0,0.0133811,-0.196555,-0.331646,-1.65951,-0.0864254,1.47978,0.4018,-0.000708564,-0.00319178,-0.00227557,0.0032232,0.1144,-0.00274386,-0.00101131,0.511356,-25.4372,2.31386,25.7806,1.01501,2.90673,-0.0227812,-0.592031,0.0357914,-0.0831039,0.488693,-0.162335,-0.0307906,0.0618452,0.0219996,-0.206086,-0.369755,0.38087,-0.412887,-0.0494718,
0.0131015,-0.196509,-0.331922,-1.65939,-0.0720422,-0.104425,-0.38356,0.00154342,-0.000970523,0.00145596,-0.00133751,0.306965,-0.20562,0.000379012,0,0,0,0,0,0,0,0.0133811,-0.196555,-0.331646,-1.65951,-0.0864254,1.47978,0.4018,-0.000708564,-0.00319178,-0.00227557,0.0032232,0.1144,-0.00274386,-0.00101131,0.511356,-25.4372,2.31386,25.7806,1.01501,2.90673,-0.0227812,-0.592031,0.0357914,-0.0831039,0.488693,-0.162335,-0.0307906,0.0618452,0.0219996,-0.206086,-0.369755,0.38087,-0.412887,-0.0494718,
0.0131091,-0.196513,-0.331915,-1.65939,-0.0708153,-0.105246,-0.383559,0.0019055,-0.000864114,0.00185956,-0.00143163,0.306718,-0.205361,0.000365235,0,0,0,0,0,0,0,0.0133811,-0.196555,-0.331646,-1.65951,-0.0864254,1.47978,0.4018,-0.000708564,-0.00319178,-0.00227557,0.0032232,0.1144,-0.00274386,-0.00101131,0.511356,-25.4372,2.31386,25.7806,1.01501,2.90673,-0.0227812,-0.931734,-0.0134547,0.173067,0.511261,-0.512998,-0.115014,-0.0251416,-0.215476,-0.286918,-0.247094,0.398609,-0.427666,-0.048039,
0.013118,-0.196516,-0.331906,-1.6594,-0.0695903,-0.106066,-0.383557,0.0022275,-0.000760119,0.00222031,-0.00150931,0.30626,-0.204946,0.000352485,0,0,0,0,0,0,0,0.0133811,-0.196555,-0.331646,-1.65951,-0.0864254,1.47978,0.4018,-0.000708564,-0.00319178,-0.00227557,0.0032232,0.1144,-0.00274386,-0.00101131,0.511356,-25.4372,2.31386,25.7806,1.01501,2.90673,-0.0227812,-0.931734,-0.0134547,0.173067,0.511261,-0.512998,-0.115014,-0.0251416,-0.215476,-0.286918,-0.247094,0.398609,-0.427666,-0.048039,
0.0131281,-0.196518,-0.331896,-1.6594,-0.0683678,-0.106884,-0.383556,0.00251334,-0.000660259,0.0025423,-0.00157256,0.305621,-0.204401,0.000340535,0,0,0,0,0,0,0,0.0134307,-0.196542,-0.331598,-1.65951,-0.08292,1.47967,0.401802,0.00296327,-0.00803674,0.00431074,0.00162781,0.119523,-0.00707792,0.000171325,-0.0440639,-25.6355,1.83778,25.9076,1.1679,2.68792,-0.0365141,-0.34066,-0.0129878,0.0070458,0.574237,0.026401,-0.0115346,0.0690813,0.126837,-0.190731,-0.411153,0.432488,-0.457105,-0.047923,
0.0131391,-0.196521,-0.331885,-1.65941,-0.0671485,-0.107699,-0.383555,0.00276661,-0.000565724,0.00282931,-0.00162312,0.304826,-0.20375,0.000329427,0,0,0,0,0,0,0,0.0134307,-0.196542,-0.331598,-1.65951,-0.08292,1.47967,0.401802,0.00296327,-0.00803674,0.00431074,0.00162781,0.119523,-0.00707792,0.000171325,-0.0440639,-25.6355,1.83778,25.9076,1.1679,2.68792,-0.0365141,-0.838256,0.0762416,0.295931,0.491907,-0.433038,-0.0613795,0.00935443,-0.165544,-0.220228,-0.282758,0.451226,-0.498743,-0.0473359,
0.0131511,-0.196522,-0.331872,-1.65942,-0.0659329,-0.108511,-0.383553,0.0029906,-0.0004773,0.00308484,-0.00166251,0.303894,-0.20301,0.000319034,0,0,0,0,0,0,0,0.0134307,-0.196542,-0.331598,-1.65951,-0.08292,1.47967,0.401802,0.00296327,-0.00803674,0.00431074,0.00162781,0.119523,-0.00707792,0.000171325,-0.0440639,-25.6355,1.83778,25.9076,1.1679,2.68792,-0.0365141,-0.838256,0.0762416,0.295931,0.491907,-0.433038,-0.0613795,0.00935443,-0.165544,-0.220228,-0.282758,0.451226,-0.498743,-0.0473359,
0.0131638,-0.196524,-0.331859,-1.65942,-0.0647215,-0.10932,-0.383552,0.00318831,-0.000395449,0.00331208,-0.00169204,0.302844,-0.202197,0.000309409,0,0,0,0,0,0,0,0.0134307,-0.196542,-0.331598,-1.65951,-0.08292,1.47967,0.401802,0.00296327,-0.00803674,0.00431074,0.00162781,0.119523,-0.00707792,0.000171325,-0.0440639,-25.6355,1.83778,25.9076,1.1679,2.68792,-0.0365141,-0.809695,-0.0904948,0.277023,0.604919,-0.375331,-0.132875,-0.0702117,-0.117593,-0.29479,-0.31589,0.424084,-0.519776,-0.0472204,
0.0131773,-0.196525,-0.331845,-1.65943,-0.0635148,-0.110125,-0.383551,0.00336247,-0.000320392,0.00351394,-0.00171285,0.301691,-0.201323,0.000300378,0,0,0,0,0,0,0,0.0134307,-0.196542,-0.331598,-1.65951,-0.08292,1.47967,0.401802,0.00296327,-0.00803674,0.00431074,0.00162781,0.119523,-0.00707792,0.000171325,-0.0440639,-25.6355,1.83778,25.9076,1.1679,2.68792,-0.0365141,-0.809695,-0.0904948,0.277023,0.604919,-0.375331,-0.132875,-0.0702117,-0.117593,-0.29479,-0.31589,0.424084,-0.519776,-0.0472204,
0.0131914,-0.196526,-0.33183,-1.65944,-0.062313,-0.110926,-0.38355,0.00351554,-0.000252164,0.00369305,-0.00172597,0.300448,-0.200399,0.000291873,0,0,0,0,0,0,0,0.0134559,-0.196555,-0.331569,-1.65952,-0.0773481,1.47945,0.4018,0.000694617,-0.000326961,-0.00135849,-0.00149305,0.145182,-0.00104838,-0.00123875,-0.119442,-25.4848,1.88936,26.0068,0.971981,2.70165,-0.0227812,-0.469291,-0.0566974,0.17847,0.602098,-0.0474564,-0.057603,-0.00494464,0.0974704,-0.214698,-0.422438,0.426987,-0.54774,-0.0480452,
0.0131948,-0.196383,-0.331751,-1.65915,-0.0880663,-0.0946762,-0.383563,-0.0260225,0.0102397,-0.0216495,0.0335534,0.520707,-0.420103,0.00327495,0,0,0,0,0,0,0,0.0134559,-0.196555,-0.331569,-1.65952,-0.0773481,1.47945,0.4018,0.000694617,-0.000326961,-0.00135849,-0.00149305,0.145182,-0.00104838,-0.00123875,-0.119442,-25.4848,1.88936,26.0068,0.971981,2.70165,-0.0227812,-0.469291,-0.0566974,0.17847,0.602098,-0.0474564,-0.057603,-0.00494464,0.0974704,-0.214698,-0.422438,0.426987,-0.54774,-0.0480452,
0.0132186,-0.19642,-0.331736,-1.65912,-0.0717064,-0.0949003,-0.38357,-0.0213238,0.00785805,-0.0175937,0.0313129,0.591692,-0.399524,0.00312802,0,0,0,0,0,0,0,0.0134559,-0.196555,-0.331569,-1.65952,-0.0773481,1.47945,0.4018,0.000694617,-0.000326961,-0.00135849,-0.00149305,0.145182,-0.00104838,-0.00123875,-0.119442,-25.4848,1.88936,26.0068,0.971981,2.70165,-0.0227812,-0.655024,-0.139554,0.495574,0.588008,-0.298895,-0.12864,-0.080224,-0.0913055,-0.272193,-0.281763,0.393807,-0.547396,-0.0475028,
0.0131396,-0.196407,-0.331806,-1.65902,-0.0689935,-0.0967871,-0.383556,-0.0197472,0.0031621,-0.01748,0.0251138,0.67824,-0.471692,0.00340685,0,0,0,0,0,0,0,0.0134559,-0.196555,-0.331569,-1.65952,-0.0773481,1.47945,0.4018,0.000694617,-0.000326961,-0.00135849,-0.00149305,0.145182,-0.00104838,-0.00123875,-0.119442,-25.4848,1.88936,26.0068,0.971981,2.70165,-0.0227812,-0.408294,-0.218213,0.323521,0.66363,-0.0303276,-0.121278,-0.0753643,0.0946116,-0.27292,-0.386181,0.379576,-0.556467,-0.0464221,
0.0130709,-0.19641,-0.331869,-1.65894,-0.0660061,-0.0989019,-0.383542,-0.0171643,-0.000713926,-0.0158518,0.0191191,0.746839,-0.528706,0.00355174,0,0,0,0,0,0,0,0.0134559,-0.196555,-0.331569,-1.65952,-0.0773481,1.47945,0.4018,0.000694617,-0.000326961,-0.00135849,-0.00149305,0.145182,-0.00104838,-0.00123875,-0.119442,-25.4848,1.88936,26.0068,0.971981,2.70165,-0.0227812,-0.408294,-0.218213,0.323521,0.66363,-0.0303276,-0.121278,-0.0753643,0.0946116,-0.27292,-0.386181,0.379576,-0.556467,-0.0464221,
0.0130147,-0.196425,-0.331923,-1.65889,-0.062799,-0.101197,-0.383527,-0.0140628,-0.00361655,-0.0133347,0.0138579,0.801764,-0.573805,0.00361758,0,0,0,0,0,0,0,0.0134074,-0.196526,-0.331609,-1.65945,-0.0716208,1.47907,0.401805,-0.00380831,-0.000249444,-0.00663066,0.000971116,0.255923,-0.028086,0.00123778,0.309024,-25.8101,2.21467,26.3043,1.42425,2.64214,-0.0703886,-0.42624,-0.485089,0.596514,0.814609,-0.125039,-0.244117,-0.198766,0.00509603,-0.404772,-0.298602,0.356337,-0.570571,-0.0466287,
0.0129717,-0.196447,-0.331964,-1.65885,-0.0594145,-0.103634,-0.383513,-0.0107406,-0.00564014,-0.0103379,0.0093831,0.846132,-0.609278,0.00363347,0,0,0,0,0,0,0,0.0134074,-0.196526,-0.331609,-1.65945,-0.0716208,1.47907,0.401805,-0.00380831,-0.000249444,-0.00663066,0.000971116,0.255923,-0.028086,0.00123778,0.309024,-25.8101,2.21467,26.3043,1.42425,2.64214,-0.0703886,-0.42624,-0.485089,0.596514,0.814609,-0.125039,-0.244117,-0.198766,0.00509603,-0.404772,-0.298602,0.356337,-0.570571,-0.0466287,
0.0129422,-0.196475,-0.331992,-1.65883,-0.0558855,-0.106182,-0.383498,-0.00738411,-0.00693849,-0.00713017,0.00561458,0.882254,-0.636893,0.00361662,0,0,0,0,0,0,0,0.0134074,-0.196526,-0.331609,-1.65945,-0.0716208,1.47907,0.401805,-0.00380831,-0.000249444,-0.00663066,0.000971116,0.255923,-0.028086,0.00123778,0.309024,-25.8101,2.21467,26.3043,1.42425,2.64214,-0.0703886,-0.544456,-0.767071,1.21384,0.948526,-0.439848,-0.387747,-0.334693,-0.271337,-0.559389,-0.0630755,0.357514,-0.577304,-0.048507,
0.0129257,-0.196506,-0.332008,-1.65882,-0.052238,-0.108814,-0.383484,-0.00411,-0.00766393,-0.00388648,0.00244774,0.911866,-0.658076,0.00357798,0,0,0,0,0,0,0,0.0134074,-0.196526,-0.331609,-1.65945,-0.0716208,1.47907,0.401805,-0.00380831,-0.000249444,-0.00663066,0.000971116,0.255923,-0.028086,0.00123778,0.309024,-25.8101,2.21467,26.3043,1.42425,2.64214,-0.0703886,0.267301,-0.42284,1.16042,0.834108,0.236132,-0.0811486,-0.0147594,0.133426,-0.271007,-0.248629,0.490189,-0.646707,-0.0510226,
0.0129218,-0.196537,-0.332011,-1.65882,-0.0484929,-0.11151,-0.38347,-0.000989011,-0.00794954,-0.000718372,-0.000214612,0.936288,-0.673991,0.00352519,0,0,0,0,0,0,0,0.0134074,-0.196526,-0.331609,-1.65945,-0.0716208,1.47907,0.401805,-0.00380831,-0.000249444,-0.00663066,0.000971116,0.255923,-0.028086,0.00123778,0.309024,-25.8101,2.21467,26.3043,1.42425,2.64214,-0.0703886,0.267301,-0.42284,1.16042,0.834108,0.236132,-0.0811486,-0.0147594,0.133426,-0.271007,-0.248629,0.490189,-0.646707,-0.0510226,
0.0129295,-0.196569,-0.332002,-1.65883,-0.0446668,-0.114252,-0.383456,0.00193853,-0.00790587,0.00230562,-0.00245504,0.956531,-0.685597,0.00346393,0,0,0,0,0,0,0,0.0134074,-0.196526,-0.331609,-1.65945,-0.0716208,1.47907,0.401805,-0.00380831,-0.000249444,-0.00663066,0.000971116,0.255923,-0.028086,0.00123778,0.309024,-25.8101,2.21467,26.3043,1.42425,2.64214,-0.0703886,-0.0895572,-0.40003,1.44607,0.895693,-0.080872,-0.126209,-0.0399683,-0.0669446,-0.344966,-0.198428,0.581222,-0.747521,-0.0513119,
0.0129481,-0.1966,-0.331981,-1.65885,-0.0407733,-0.117027,-0.383442,0.00465256,-0.00762244,0.00514616,-0.0043417,0.973377,-0.69368,0.0033975,0,0,0,0,0,0,0,0.0131825,-0.1965,-0.331946,-1.65927,-0.0589203,1.47687,0.401803,-0.0106174,-0.00225537,-0.016271,0.0105324,0.491866,-0.0969391,-5.49357e-05,1.01917,-25.9093,2.76216,25.7568,1.80236,2.17156,-0.050247,-0.0895572,-0.40003,1.44607,0.895693,-0.080872,-0.126209,-0.0399683,-0.0669446,-0.344966,-0.198428,0.581222,-0.747521,-0.0513119,
0.0129767,-0.196628,-0.33195,-1.65887,-0.0368235,-0.119823,-0.383429,0.00714643,-0.00717054,0.00778353,-0.00593056,0.987439,-0.698889,0.00332825,0,0,0,0,0,0,0,0.0131825,-0.1965,-0.331946,-1.65927,-0.0589203,1.47687,0.401803,-0.0106174,-0.00225537,-0.016271,0.0105324,0.491866,-0.0969391,-5.49357e-05,1.01917,-25.9093,2.76216,25.7568,1.80236,2.17156,-0.050247,-0.334294,-0.807948,1.61509,1.22559,-0.289612,-0.347474,-0.245611,-0.197591,-0.612733,-0.162849,0.597263,-0.800743,-0.0506893,
0.0130144,-0.196655,-0.331909,-1.6589,-0.0328267,-0.12263,-0.383416,0.00942222,-0.0066062,0.010211,-0.00726751,0.9992,-0.701754,0.0032586,0,0,0,0,0,0,0,0.0131825,-0.1965,-0.331946,-1.65927,-0.0589203,1.47687,0.401803,-0.0106174,-0.00225537,-0.016271,0.0105324,0.491866,-0.0969391,-5.49357e-05,1.01917,-25.9093,2.76216,25.7568,1.80236,2.17156,-0.050247,-0.334294,-0.807948,1.61509,1.22559,-0.289612,-0.347474,-0.245611,-0.197591,-0.612733,-0.162849,0.597263,-0.800743,-0.0506893,
0.0130604,-0.196679,-0.331859,-1.65893,-0.0287905,-0.125441,-0.383403,0.0114876,-0.00597286,0.0124304,-0.00839041,1.00904,-0.702712,0.00318891,0,0,0,0,0,0,0,0.0131825,-0.1965,-0.331946,-1.65927,-0.0589203,1.47687,0.401803,-0.0106174,-0.00225537,-0.016271,0.0105324,0.491866,-0.0969391,-5.49357e-05,1.01917,-25.9093,2.76216,25.7568,1.80236,2.17156,-0.050247,-0.124801,-0.460252,1.79824,1.05704,-0.15552,-0.145228,-0.0345532,-0.133124,-0.411784,-0.194238,0.709682,-0.878276,-0.0504483,
0.0131138,-0.1967,-0.331802,-1.65897,-0.0247214,-0.128249,-0.383391,0.0133534,-0.00530377,0.0144489,-0.00933062,1.01728,-0.702121,0.00312048,0,0,0,0,0,0,0,0.0131825,-0.1965,-0.331946,-1.65927,-0.0589203,1.47687,0.401803,-0.0106174,-0.00225537,-0.016271,0.0105324,0.491866,-0.0969391,-5.49357e-05,1.01917,-25.9093,2.76216,25.7568,1.80236,2.17156,-0.050247,-0.340772,0.0722866,2.04014,0.752555,-0.382968,0.0665314,0.189239,-0.287813,-0.18918,-0.146359,0.840494,-0.952874,-0.0500636,
0.0131739,-0.196718,-0.331736,-1.65901,-0.0206248,-0.13105,-0.383379,0.0150325,-0.00462393,0.0162769,-0.0101142,1.02416,-0.700273,0.00305387,0,0,0,0,0,0,0,0.0128154,-0.196529,-0.33242,-1.65919,-0.0403553,1.47224,0.401805,-0.0132899,-0.00250983,-0.0144134,0.00377591,0.614092,-0.171317,0.000592583,1.4516,-25.5364,3.13905,25.4315,2.15118,1.87951,-0.0630644,-0.340772,0.0722866,2.04014,0.752555,-0.382968,0.0665314,0.189239,-0.287813,-0.18918,-0.146359,0.840494,-0.952874,-0.0500636,
0.0132401,-0.196734,-0.331665,-1.65905,-0.0165053,-0.13384,-0.383367,0.0165384,-0.00395184,0.0179264,-0.0107631,1.02988,-0.697411,0.00298903,0,0,0,0,0,0,0,0.0128154,-0.196529,-0.33242,-1.65919,-0.0403553,1.47224,0.401805,-0.0132899,-0.00250983,-0.0144134,0.00377591,0.614092,-0.171317,0.000592583,1.4516,-25.5364,3.13905,25.4315,2.15118,1.87951,-0.0630644,-0.114212,0.384599,1.58128,0.68872,0.0237151,0.255852,0.388929,0.0422669,-0.0206978,-0.435651,0.927656,-1.04678,-0.0498258,
0.0133116,-0.196747,-0.331587,-1.6591,-0.0123668,-0.136615,-0.383355,0.0178848,-0.00330079,0.0194106,-0.0112957,1.03462,-0.693732,0.00292644,0,0,0,0,0,0,0,0.0128154,-0.196529,-0.33242,-1.65919,-0.0403553,1.47224,0.401805,-0.0132899,-0.00250983,-0.0144134,0.00377591,0.614092,-0.171317,0.000592583,1.4516,-25.5364,3.13905,25.4315,2.15118,1.87951,-0.0630644,-0.114212,0.384599,1.58128,0.68872,0.0237151,0.255852,0.388929,0.0422669,-0.0206978,-0.435651,0.927656,-1.04678,-0.0498258,
0.0133879,-0.196758,-0.331504,-1.65915,-0.00821277,-0.139372,-0.383343,0.0190851,-0.00268008,0.0207424,-0.0117276,1.03851,-0.689397,0.00286601,0,0,0,0,0,0,0,0.0128154,-0.196529,-0.33242,-1.65919,-0.0403553,1.47224,0.401805,-0.0132899,-0.00250983,-0.0144134,0.00377591,0.614092,-0.171317,0.000592583,1.4516,-25.5364,3.13905,25.4315,2.15118,1.87951,-0.0630644,-0.348965,0.335699,1.84049,0.72875,-0.242234,0.197689,0.338528,-0.146252,-0.088566,-0.335117,0.960468,-1.07089,-0.0469969,
0.0134685,-0.196766,-0.331416,-1.65919,-0.00404605,-0.142111,-0.383332,0.0201522,-0.00209582,0.0219346,-0.0120723,1.04168,-0.68454,0.00280785,0,0,0,0,0,0,0,0.0128154,-0.196529,-0.33242,-1.65919,-0.0403553,1.47224,0.401805,-0.0132899,-0.00250983,-0.0144134,0.00377591,0.614092,-0.171317,0.000592583,1.4516,-25.5364,3.13905,25.4315,2.15118,1.87951,-0.0630644,-0.306779,0.0822663,2.00029,0.904755,-0.26385,0.0953567,0.244762,-0.183523,-0.214022,-0.288605,0.958774,-1.0753,-0.0432346,
0.0135529,-0.196773,-0.331324,-1.65924,0.000130816,-0.144828,-0.383321,0.0210982,-0.00155174,0.0229996,-0.0123412,1.04422,-0.67927,0.00275175,0,0,0,0,0,0,0,0.0128154,-0.196529,-0.33242,-1.65919,-0.0403553,1.47224,0.401805,-0.0132899,-0.00250983,-0.0144134,0.00377591,0.614092,-0.171317,0.000592583,1.4516,-25.5364,3.13905,25.4315,2.15118,1.87951,-0.0630644,-0.306779,0.0822663,2.00029,0.904755,-0.26385,0.0953567,0.244762,-0.183523,-0.214022,-0.288605,0.958774,-1.0753,-0.0432346,
0.0136407,-0.196777,-0.331229,-1.65929,0.00431565,-0.147522,-0.38331,0.0219343,-0.00104975,0.0239487,-0.0125444,1.04621,-0.673674,0.00269763,0,0,0,0,0,0,0,0.0124885,-0.196547,-0.332703,-1.65912,-0.0206245,1.46591,0.401797,-0.00957644,0.00226868,-0.00766947,-0.00110814,0.65513,-0.227882,-0.000778321,1.40003,-25.3856,3.0121,25.6061,2.40753,1.87951,-0.0227812,0.0675722,0.393893,1.84893,0.741888,0.0980697,0.307841,0.460902,0.0542543,0.00228127,-0.420588,1.01107,-1.10903,-0.0413148,
0.0137314,-0.196779,-0.331129,-1.65935,0.00850655,-0.150194,-0.3833,0.0226709,-0.000590397,0.0247929,-0.0126906,1.04773,-0.667824,0.00264573,0,0,0,0,0,0,0,0.0124885,-0.196547,-0.332703,-1.65912,-0.0206245,1.46591,0.401797,-0.00957644,0.00226868,-0.00766947,-0.00110814,0.65513,-0.227882,-0.000778321,1.40003,-25.3856,3.0121,25.6061,2.40753,1.87951,-0.0227812,0.0675722,0.393893,1.84893,0.741888,0.0980697,0.307841,0.460902,0.0542543,0.00228127,-0.420588,1.01107,-1.10903,-0.0413148,
0.0138246,-0.19678,-0.331027,-1.6594,0.0127019,-0.152841,-0.383289,0.0233178,-0.000173169,0.0255419,-0.0127875,1.04883,-0.661778,0.00259543,0,0,0,0,0,0,0,0.0124885,-0.196547,-0.332703,-1.65912,-0.0206245,1.46591,0.401797,-0.00957644,0.00226868,-0.00766947,-0.00110814,0.65513,-0.227882,-0.000778321,1.40003,-25.3856,3.0121,25.6061,2.40753,1.87951,-0.0227812,-0.161666,0.117782,1.89685,0.881918,-0.0997695,0.148558,0.309131,-0.0682081,-0.16947,-0.354958,0.944378,-1.0848,-0.0396294,
0.0139202,-0.196779,-0.330922,-1.65945,0.0169002,-0.155463,-0.383279,0.0238836,0.000203154,0.026205,-0.0128416,1.04957,-0.655582,0.00254709,0,0,0,0,0,0,0,0.0124885,-0.196547,-0.332703,-1.65912,-0.0206245,1.46591,0.401797,-0.00957644,0.00226868,-0.00766947,-0.00110814,0.65513,-0.227882,-0.000778321,1.40003,-25.3856,3.0121,25.6061,2.40753,1.87951,-0.0227812,-0.161666,0.117782,1.89685,0.881918,-0.0997695,0.148558,0.309131,-0.0682081,-0.16947,-0.354958,0.944378,-1.0848,-0.0396294,
0.0140177,-0.196777,-0.330815,-1.6595,0.0211001,-0.15806,-0.383269,0.0243763,0.000540344,0.0267905,-0.0128587,1.05,-0.649273,0.00250038,0,0,0,0,0,0,0,0.0124885,-0.196547,-0.332703,-1.65912,-0.0206245,1.46591,0.401797,-0.00957644,0.00226868,-0.00766947,-0.00110814,0.65513,-0.227882,-0.000778321,1.40003,-25.3856,3.0121,25.6061,2.40753,1.87951,-0.0227812,0.180191,-0.0283183,1.75399,0.920987,0.209795,0.148656,0.310321,0.127604,-0.168975,-0.414029,0.856708,-1.04648,-0.0399947,
0.0141152,-0.19667,-0.330831,-1.65941,-0.0733594,-0.0968338,-0.383453,0.0779907,-0.0163155,0.0883701,0.00223056,0.419127,-0.633187,0.0120669,0,0,0,0,0,0,0,0.0122678,-0.19658,-0.332787,-1.6591,0.00221732,1.45744,0.4018,-0.0021716,0.000656949,0.00037865,-0.000805183,0.741332,-0.30193,-0.00122236,1.04694,-25.0881,2.91292,25.5069,1.77215,1.85296,-0.0227812,0.0741349,-0.23741,1.69713,0.969588,0.175972,0.042136,0.188345,0.130399,-0.256199,-0.413076,0.733831,-1.0336,-0.0407834,
0.0131337,-0.196778,-0.331893,-1.65919,0.0106933,-0.121032,-0.383443,0.0980628,-0.0220716,0.1061,-0.0142362,0.710433,-0.774454,0.0125051,0,0,0,0,0,0,0,0.0122678,-0.19658,-0.332787,-1.6591,0.00221732,1.45744,0.4018,-0.0021716,0.000656949,0.00037865,-0.000805183,0.741332,-0.30193,-0.00122236,1.04694,-25.0881,2.91292,25.5069,1.77215,1.85296,-0.0227812,0.0741349,-0.23741,1.69713,0.969588,0.175972,0.042136,0.188345,0.130399,-0.256199,-0.413076,0.733831,-1.0336,-0.0407834,
0.0136033,-0.196875,-0.331376,-1.65927,0.013611,-0.124537,-0.383395,0.117396,-0.0241749,0.129224,-0.0213739,0.729426,-0.876302,0.011882,0,0,0,0,0,0,0,0.0122678,-0.19658,-0.332787,-1.6591,0.00221732,1.45744,0.4018,-0.0021716,0.000656949,0.00037865,-0.000805183,0.741332,-0.30193,-0.00122236,1.04694,-25.0881,2.91292,25.5069,1.77215,1.85296,-0.0227812,-0.373972,-0.278608,1.71648,0.871671,-0.206102,-0.0539192,0.0802481,-0.10034,-0.317899,-0.28686,0.623043,-0.967804,-0.0398384,
0.0141364,-0.196973,-0.330784,-1.65939,0.0166253,-0.128376,-0.38335,0.133278,-0.0244484,0.147896,-0.0281925,0.753584,-0.959768,0.0113659,0,0,0,0,0,0,0,0.0122678,-0.19658,-0.332787,-1.6591,0.00221732,1.45744,0.4018,-0.0021716,0.000656949,0.00037865,-0.000805183,0.741332,-0.30193,-0.00122236,1.04694,-25.0881,2.91292,25.5069,1.77215,1.85296,-0.0227812,-0.373972,-0.278608,1.71648,0.871671,-0.206102,-0.0539192,0.0802481,-0.10034,-0.317899,-0.28686,0.623043,-0.967804,-0.0398384,
0.0147222,-0.197066,-0.330131,-1.65953,0.0197454,-0.132489,-0.383306,0.146465,-0.0234081,0.163165,-0.034504,0.78002,-1.02835,0.0109314,0,0,0,0,0,0,0,0.0122678,-0.19658,-0.332787,-1.6591,0.00221732,1.45744,0.4018,-0.0021716,0.000656949,0.00037865,-0.000805183,0.741332,-0.30193,-0.00122236,1.04694,-25.0881,2.91292,25.5069,1.77215,1.85296,-0.0227812,-0.476314,-0.152332,1.35511,0.757699,-0.164029,-0.0232464,0.108676,-0.0232372,-0.272115,-0.374773,0.561172,-0.934816,-0.031394,
0.0153523,-0.197152,-0.329428,-1.65969,0.0229729,-0.136829,-0.383264,0.157519,-0.0214618,0.175792,-0.0402382,0.806867,-1.08481,0.0105588,0,0,0,0,0,0,0,0.0122678,-0.19658,-0.332787,-1.6591,0.00221732,1.45744,0.4018,-0.0021716,0.000656949,0.00037865,-0.000805183,0.741332,-0.30193,-0.00122236,1.04694,-25.0881,2.91292,25.5069,1.77215,1.85296,-0.0227812,-0.476314,-0.152332,1.35511,0.757699,-0.164029,-0.0232464,0.108676,-0.0232372,-0.272115,-0.374773,0.561172,-0.934816,-0.031394,
0.0160197,-0.197228,-0.328683,-1.65987,0.0263047,-0.141354,-0.383223,0.166857,-0.01892,0.186338,-0.0453804,0.832961,-1.13133,0.0102301,0,0,0,0,0,0,0,0.0125027,-0.196565,-0.332481,-1.65916,0.0250787,1.4474,0.401801,0.0269428,0.0058344,0.0336721,-0.00314174,0.571652,-0.298438,-0.000694894,0.689884,-25.5879,2.81373,26.0822,0.923458,2.18438,-0.0301054,-0.863694,-0.857522,1.40055,1.02407,-0.46307,-0.411484,-0.295864,-0.192637,-0.644963,-0.249399,0.291597,-0.861667,-0.0262587,
0.0167189,-0.197292,-0.327902,-1.66007,0.0297352,-0.146033,-0.383183,0.174792,-0.0160158,0.195218,-0.0499448,0.857615,-1.16968,0.00993362,0,0,0,0,0,0,0,0.0125027,-0.196565,-0.332481,-1.65916,0.0250787,1.4474,0.401801,0.0269428,0.0058344,0.0336721,-0.00314174,0.571652,-0.298438,-0.000694894,0.689884,-25.5879,2.81373,26.0822,0.923458,2.18438,-0.0301054,-0.534012,-1.43957,1.39672,1.20601,-0.205537,-0.616981,-0.522051,-0.0434765,-0.827096,-0.212873,0.0353259,-0.774698,-0.024293,
0.0174452,-0.197344,-0.327091,-1.66028,0.033257,-0.150838,-0.383144,0.181564,-0.0129217,0.202743,-0.0539604,0.880454,-1.2013,0.00966319,0,0,0,0,0,0,0,0.0125027,-0.196565,-0.332481,-1.65916,0.0250787,1.4474,0.401801,0.0269428,0.0058344,0.0336721,-0.00314174,0.571652,-0.298438,-0.000694894,0.689884,-25.5879,2.81373,26.0822,0.923458,2.18438,-0.0301054,-0.534012,-1.43957,1.39672,1.20601,-0.205537,-0.616981,-0.522051,-0.0434765,-0.827096,-0.212873,0.0353259,-0.774698,-0.024293,
0.0181946,-0.197383,-0.326255,-1.66051,0.0368622,-0.155747,-0.383107,0.187359,-0.00976358,0.209149,-0.0574646,0.901314,-1.22735,0.00941032,0,0,0,0,0,0,0,0.0125027,-0.196565,-0.332481,-1.65916,0.0250787,1.4474,0.401801,0.0269428,0.0058344,0.0336721,-0.00314174,0.571652,-0.298438,-0.000694894,0.689884,-25.5879,2.81373,26.0822,0.923458,2.18438,-0.0301054,-0.614345,-1.27119,1.5123,1.01708,-0.270171,-0.549848,-0.475839,-0.0784739,-0.717558,-0.18442,-0.0104194,-0.802037,-0.0214087,
0.018964,-0.197411,-0.325396,-1.66076,0.040543,-0.160712,-0.38307,0.192347,-0.00711787,0.214709,-0.0620166,0.920199,-1.24113,0.00921082,0,0,0,0,0,0,0,0.0125027,-0.196565,-0.332481,-1.65916,0.0250787,1.4474,0.401801,0.0269428,0.0058344,0.0336721,-0.00314174,0.571652,-0.298438,-0.000694894,0.689884,-25.5879,2.81373,26.0822,0.923458,2.18438,-0.0301054,-0.614345,-1.27119,1.5123,1.01708,-0.270171,-0.549848,-0.475839,-0.0784739,-0.717558,-0.18442,-0.0104194,-0.802037,-0.0214087,
0.0197506,-0.19743,-0.324518,-1.66103,0.0442917,-0.165683,-0.383034,0.196663,-0.0046985,0.219495,-0.0669899,0.937158,-1.24282,0.00903624,0,0,0,0,0,0,0,0.0142162,-0.196681,-0.330316,-1.65909,0.0504393,1.42941,0.401806,0.052688,-0.00200345,0.0706651,-0.000629721,0.609591,-0.501355,0.000116054,2.26093,-25.0127,4.33717,24.7372,1.74743,1.64696,-0.0301054,-0.722844,-0.623961,1.47284,0.587627,-0.285314,-0.265356,-0.205395,-0.053961,-0.38493,-0.253258,0.0456013,-0.880633,-0.0216864,
0.0205521,-0.197438,-0.323623,-1.66131,0.0481006,-0.170632,-0.382998,0.200376,-0.00210009,0.223556,-0.0711777,0.952244,-1.2372,0.00885999,0,0,0,0,0,0,0,0.0142162,-0.196681,-0.330316,-1.65909,0.0504393,1.42941,0.401806,0.052688,-0.00200345,0.0706651,-0.000629721,0.609591,-0.501355,0.000116054,2.26093,-25.0127,4.33717,24.7372,1.74743,1.64696,-0.0301054,-1.07779,-0.767365,1.12604,0.72727,-0.36646,-0.379876,-0.316275,-0.0187162,-0.518237,-0.397501,0.00208311,-0.93555,-0.0211239,
0.0213663,-0.197436,-0.322715,-1.66161,0.0519628,-0.175539,-0.382964,0.203545,0.000633983,0.227007,-0.0744313,0.965538,-1.22678,0.00868464,0,0,0,0,0,0,0,0.0142162,-0.196681,-0.330316,-1.65909,0.0504393,1.42941,0.401806,0.052688,-0.00200345,0.0706651,-0.000629721,0.609591,-0.501355,0.000116054,2.26093,-25.0127,4.33717,24.7372,1.74743,1.64696,-0.0301054,-1.34475,-1.00466,1.29057,0.853775,-0.607552,-0.521063,-0.453768,-0.172149,-0.668684,-0.321727,-0.0397724,-0.949114,-0.0198786,
0.0221913,-0.197422,-0.321796,-1.66192,0.0558714,-0.180391,-0.38293,0.206235,0.00338402,0.229941,-0.0768669,0.977157,-1.21311,0.00851138,0,0,0,0,0,0,0,0.0142162,-0.196681,-0.330316,-1.65909,0.0504393,1.42941,0.401806,0.052688,-0.00200345,0.0706651,-0.000629721,0.609591,-0.501355,0.000116054,2.26093,-25.0127,4.33717,24.7372,1.74743,1.64696,-0.0301054,-1.34475,-1.00466,1.29057,0.853775,-0.607552,-0.521063,-0.453768,-0.172149,-0.668684,-0.321727,-0.0397724,-0.949114,-0.0198786,
0.0230253,-0.197398,-0.320866,-1.66223,0.0598204,-0.18518,-0.382896,0.208502,0.00604888,0.232428,-0.0786397,0.987242,-1.19721,0.00834109,0,0,0,0,0,0,0,0.0162768,-0.196781,-0.327718,-1.65914,0.0705369,1.41151,0.401804,0.0765132,-0.0016916,0.101961,-0.00174715,0.662518,-0.593365,-0.000684404,1.72931,-24.6874,3.71431,24.7849,2.27935,1.48858,-0.0163725,-1.05306,-0.974472,0.901928,0.927248,-0.135978,-0.438367,-0.371238,0.200567,-0.60464,-0.611769,-0.0290304,-1.05983,-0.0213815,
0.0238668,-0.197364,-0.319928,-1.66255,0.0638041,-0.189899,-0.382863,0.210395,0.00856105,0.234525,-0.079886,0.99594,-1.17976,0.00817546,0,0,0,0,0,0,0,0.0162768,-0.196781,-0.327718,-1.65914,0.0705369,1.41151,0.401804,0.0765132,-0.0016916,0.101961,-0.00174715,0.662518,-0.593365,-0.000684404,1.72931,-24.6874,3.71431,24.7849,2.27935,1.48858,-0.0163725,-1.79824,-1.08008,0.765887,1.1483,-0.594604,-0.601259,-0.532676,-0.0135872,-0.801224,-0.675227,0.0619065,-1.15842,-0.019447,
0.0247147,-0.19732,-0.318983,-1.66288,0.0678177,-0.194544,-0.382831,0.211957,0.0108813,0.236278,-0.0807152,1.0034,-1.16127,0.00801328,0,0,0,0,0,0,0,0.0162768,-0.196781,-0.327718,-1.65914,0.0705369,1.41151,0.401804,0.0765132,-0.0016916,0.101961,-0.00174715,0.662518,-0.593365,-0.000684404,1.72931,-24.6874,3.71431,24.7849,2.27935,1.48858,-0.0163725,-1.79824,-1.08008,0.765887,1.1483,-0.594604,-0.601259,-0.532676,-0.0135872,-0.801224,-0.675227,0.0619065,-1.15842,-0.019447,
0.0255675,-0.197268,-0.318032,-1.6632,0.0718567,-0.199113,-0.3828,0.213221,0.012992,0.237723,-0.0812114,1.00975,-1.14208,0.00785559,0,0,0,0,0,0,0,0.0162768,-0.196781,-0.327718,-1.65914,0.0705369,1.41151,0.401804,0.0765132,-0.0016916,0.101961,-0.00174715,0.662518,-0.593365,-0.000684404,1.72931,-24.6874,3.71431,24.7849,2.27935,1.48858,-0.0163725,-1.86319,-0.395621,0.772001,0.767454,-0.678549,-0.302724,-0.246295,-0.0731638,-0.468027,-0.674279,0.22495,-1.1794,-0.019783,
0.0264244,-0.197209,-0.317076,-1.66353,0.0759172,-0.203602,-0.382769,0.21422,0.0148885,0.238893,-0.0814403,1.01512,-1.12244,0.00770076,0,0,0,0,0,0,0,0.0162768,-0.196781,-0.327718,-1.65914,0.0705369,1.41151,0.401804,0.0765132,-0.0016916,0.101961,-0.00174715,0.662518,-0.593365,-0.000684404,1.72931,-24.6874,3.71431,24.7849,2.27935,1.48858,-0.0163725,-1.86319,-0.395621,0.772001,0.767454,-0.678549,-0.302724,-0.246295,-0.0731638,-0.468027,-0.674279,0.22495,-1.1794,-0.019783,
0.0272844,-0.197142,-0.316117,-1.66385,0.0799956,-0.208013,-0.382739,0.214981,0.0165759,0.239816,-0.0814527,1.01962,-1.10255,0.00755041,0,0,0,0,0,0,0,0.0162768,-0.196781,-0.327718,-1.65914,0.0705369,1.41151,0.401804,0.0765132,-0.0016916,0.101961,-0.00174715,0.662518,-0.593365,-0.000684404,1.72931,-24.6874,3.71431,24.7849,2.27935,1.48858,-0.0163725,-1.53277,0.726947,0.61365,0.0823609,-0.357873,0.262965,0.294669,0.144092,0.167834,-0.817592,0.396198,-1.24546,-0.0208186,
0.0281465,-0.19707,-0.315155,-1.66418,0.084089,-0.212343,-0.382709,0.215529,0.0180642,0.240518,-0.0812888,1.02335,-1.08253,0.00740368,0,0,0,0,0,0,0,0.0188121,-0.196757,-0.323982,-1.65933,0.090707,1.39189,0.401804,0.0868226,0.00347172,0.11329,-0.00845523,0.625674,-0.61113,-0.000868614,1.93164,-24.9889,3.78572,24.5627,2.62725,1.58745,-0.0163725,-1.53277,0.726947,0.61365,0.0823609,-0.357873,0.262965,0.294669,0.144092,0.167834,-0.817592,0.396198,-1.24546,-0.0208186,
0.02901,-0.196993,-0.314191,-1.6645,0.0881946,-0.216593,-0.38268,0.215885,0.0193668,0.241021,-0.0809799,1.0264,-1.06247,0.00726055,0,0,0,0,0,0,0,0.0188121,-0.196757,-0.323982,-1.65933,0.090707,1.39189,0.401804,0.0868226,0.00347172,0.11329,-0.00845523,0.625674,-0.61113,-0.000868614,1.93164,-24.9889,3.78572,24.5627,2.62725,1.58745,-0.0163725,-1.69053,0.803147,0.459818,0.169228,-0.457374,0.265135,0.300732,0.0943684,0.144933,-0.857771,0.525383,-1.24611,-0.0197889,
0.0298743,-0.196911,-0.313226,-1.66482,0.09231,-0.220762,-0.382652,0.216069,0.0204984,0.241344,-0.0805512,1.02885,-1.04245,0.00712139,0,0,0,0,0,0,0,0.0188121,-0.196757,-0.323982,-1.65933,0.090707,1.39189,0.401804,0.0868226,0.00347172,0.11329,-0.00845523,0.625674,-0.61113,-0.000868614,1.93164,-24.9889,3.78572,24.5627,2.62725,1.58745,-0.0163725,-1.63312,-0.0414814,0.345317,0.8827,-0.494165,-0.129519,-0.0721095,0.027899,-0.344774,-0.805094,0.590352,-1.12299,-0.018346,
0.0307387,-0.196825,-0.312259,-1.66514,0.0964331,-0.224853,-0.382624,0.2161,0.0214742,0.241507,-0.0800234,1.03076,-1.02253,0.00698492,0,0,0,0,0,0,0,0.0188121,-0.196757,-0.323982,-1.65933,0.090707,1.39189,0.401804,0.0868226,0.00347172,0.11329,-0.00845523,0.625674,-0.61113,-0.000868614,1.93164,-24.9889,3.78572,24.5627,2.62725,1.58745,-0.0163725,-1.63312,-0.0414814,0.345317,0.8827,-0.494165,-0.129519,-0.0721095,0.027899,-0.344774,-0.805094,0.590352,-1.12299,-0.018346,
0.0316027,-0.196736,-0.311293,-1.66546,0.100562,-0.228863,-0.382596,0.215994,0.0223089,0.241525,-0.0794134,1.03221,-1.00272,0.0068511,0,0,0,0,0,0,0,0.0188121,-0.196757,-0.323982,-1.65933,0.090707,1.39189,0.401804,0.0868226,0.00347172,0.11329,-0.00845523,0.625674,-0.61113,-0.000868614,1.93164,-24.9889,3.78572,24.5627,2.62725,1.58745,-0.0163725,-1.23386,0.546539,-0.0692837,0.629758,-0.100967,0.183556,0.240668,0.288349,-0.0273154,-0.97528,0.756639,-1.09903,-0.0200311,
0.0138777,-0.197142,-0.33114,-1.65973,0.00936933,-0.120663,-0.383429,0.180123,-0.0561417,0.193426,-0.0651496,0.573091,-0.743899,0.0136395,0,0,0,0,0,0,0,0.0219251,-0.196759,-0.31959,-1.65982,0.110039,1.37124,0.401808,0.104437,0.000741949,0.140079,-0.0157667,0.600271,-0.664244,0.000203164,1.83246,-24.8619,3.68654,24.7849,2.55401,2.06536,-0.050247,-1.23386,0.546539,-0.0692837,0.629758,-0.100967,0.183556,0.240668,0.288349,-0.0273154,-0.97528,0.756639,-1.09903,-0.0200311,
0.024377,-0.197167,-0.316909,-1.66071,0.117009,-0.209402,-0.383434,0.236263,-0.0387106,0.260893,-0.0870368,0.594151,-0.899442,0.0127046,0,0,0,0,0,0,0,0.0219251,-0.196759,-0.31959,-1.65982,0.110039,1.37124,0.401808,0.104437,0.000741949,0.140079,-0.0157667,0.600271,-0.664244,0.000203164,1.83246,-24.8619,3.68654,24.7849,2.55401,2.06536,-0.050247,-1.90683,1.06707,0.42878,0.194449,-0.936543,0.294449,0.341814,-0.317478,0.143212,-0.589473,0.835868,-0.988205,-0.021811,
0.0254164,-0.197318,-0.315754,-1.66109,0.119497,-0.213263,-0.383385,0.259851,-0.0377066,0.288682,-0.0932886,0.622034,-0.965207,0.0122009,0,0,0,0,0,0,0,0.0219251,-0.196759,-0.31959,-1.65982,0.110039,1.37124,0.401808,0.104437,0.000741949,0.140079,-0.0157667,0.600271,-0.664244,0.000203164,1.83246,-24.8619,3.68654,24.7849,2.55401,2.06536,-0.050247,-1.90683,1.06707,0.42878,0.194449,-0.936543,0.294449,0.341814,-0.317478,0.143212,-0.589473,0.835868,-0.988205,-0.021811,
0.0265334,-0.197459,-0.314509,-1.66148,0.122115,-0.217346,-0.383338,0.279235,-0.0351145,0.311287,-0.0982989,0.654572,-1.02063,0.0117527,0,0,0,0,0,0,0,0.0219251,-0.196759,-0.31959,-1.65982,0.110039,1.37124,0.401808,0.104437,0.000741949,0.140079,-0.0157667,0.600271,-0.664244,0.000203164,1.83246,-24.8619,3.68654,24.7849,2.55401,2.06536,-0.050247,-1.24074,1.58937,-0.275755,-0.101184,-0.252913,0.610496,0.648371,0.147171,0.482987,-0.837597,0.882798,-0.902134,-0.0226576,
0.0277146,-0.197586,-0.313189,-1.66189,0.12487,-0.221614,-0.383292,0.29532,-0.0317094,0.329861,-0.102632,0.688848,-1.06694,0.0113445,0,0,0,0,0,0,0,0.0219251,-0.196759,-0.31959,-1.65982,0.110039,1.37124,0.401808,0.104437,0.000741949,0.140079,-0.0157667,0.600271,-0.664244,0.000203164,1.83246,-24.8619,3.68654,24.7849,2.55401,2.06536,-0.050247,-2.03776,1.92133,-0.363789,-0.371873,-0.853119,0.625793,0.651469,-0.183271,0.540985,-0.747808,0.867977,-0.879699,-0.0184735,
0.0289499,-0.197699,-0.311808,-1.66232,0.127762,-0.226017,-0.383248,0.30882,-0.0282256,0.345331,-0.107343,0.722982,-1.10087,0.0109928,0,0,0,0,0,0,0,0.0259339,-0.196716,-0.314832,-1.66066,0.127627,1.35053,0.401813,0.136957,-0.00211084,0.160711,-0.0304892,0.421639,-0.577384,0.000597637,1.98322,-25.5879,3.8611,24.5865,1.5094,2.46911,-0.050247,-2.03776,1.92133,-0.363789,-0.371873,-0.853119,0.625793,0.651469,-0.183271,0.540985,-0.747808,0.867977,-0.879699,-0.0184735,
0.0302311,-0.197799,-0.310375,-1.66277,0.130785,-0.230486,-0.383206,0.320298,-0.02511,0.358396,-0.113223,0.75578,-1.11732,0.0107158,0,0,0,0,0,0,0,0.0259339,-0.196716,-0.314832,-1.66066,0.127627,1.35053,0.401813,0.136957,-0.00211084,0.160711,-0.0304892,0.421639,-0.577384,0.000597637,1.98322,-25.5879,3.8611,24.5865,1.5094,2.46911,-0.050247,-1.73774,0.915701,-0.554185,0.177743,-0.617462,0.213152,0.254126,-0.0546381,0.0807836,-0.722633,0.633861,-0.728812,-0.0157456,
0.0315511,-0.197885,-0.308897,-1.66324,0.133932,-0.234986,-0.383164,0.329987,-0.0215328,0.369314,-0.117875,0.786563,-1.125,0.0104061,0,0,0,0,0,0,0,0.0259339,-0.196716,-0.314832,-1.66066,0.127627,1.35053,0.401813,0.136957,-0.00211084,0.160711,-0.0304892,0.421639,-0.577384,0.000597637,1.98322,-25.5879,3.8611,24.5865,1.5094,2.46911,-0.050247,-1.73774,0.915701,-0.554185,0.177743,-0.617462,0.213152,0.254126,-0.0546381,0.0807836,-0.722633,0.633861,-0.728812,-0.0157456,
0.032904,-0.197957,-0.307383,-1.66373,0.137191,-0.239469,-0.383123,0.338225,-0.0180987,0.378571,-0.122457,0.814928,-1.12068,0.0101297,0,0,0,0,0,0,0,0.0259339,-0.196716,-0.314832,-1.66066,0.127627,1.35053,0.401813,0.136957,-0.00211084,0.160711,-0.0304892,0.421639,-0.577384,0.000597637,1.98322,-25.5879,3.8611,24.5865,1.5094,2.46911,-0.050247,-2.01228,0.539779,-0.177836,0.271935,-1.03272,0.00530379,0.0634602,-0.379338,-0.130009,-0.450315,0.507031,-0.623574,-0.0154944,
0.0342849,-0.198017,-0.305837,-1.66424,0.140554,-0.243891,-0.383084,0.34523,-0.0147554,0.386418,-0.126676,0.840705,-1.10559,0.00988555,0,0,0,0,0,0,0,0.0259339,-0.196716,-0.314832,-1.66066,0.127627,1.35053,0.401813,0.136957,-0.00211084,0.160711,-0.0304892,0.421639,-0.577384,0.000597637,1.98322,-25.5879,3.8611,24.5865,1.5094,2.46911,-0.050247,-1.47979,0.171286,-0.47814,0.564091,-0.474714,-0.0775921,-0.0351919,-0.00339888,-0.233021,-0.64934,0.469056,-0.63935,-0.014982,
0.0356893,-0.198061,-0.304265,-1.66476,0.14401,-0.24823,-0.383045,0.351112,-0.0112447,0.392996,-0.129685,0.863883,-1.08471,0.00964548,0,0,0,0,0,0,0,0.0259339,-0.196716,-0.314832,-1.66066,0.127627,1.35053,0.401813,0.136957,-0.00211084,0.160711,-0.0304892,0.421639,-0.577384,0.000597637,1.98322,-25.5879,3.8611,24.5865,1.5094,2.46911,-0.050247,-1.47979,0.171286,-0.47814,0.564091,-0.474714,-0.0775921,-0.0351919,-0.00339888,-0.233021,-0.64934,0.469056,-0.63935,-0.014982,
0.0371133,-0.198092,-0.302671,-1.66529,0.147548,-0.252472,-0.383008,0.355998,-0.00768667,0.398478,-0.131556,0.884544,-1.06056,0.00941223,0,0,0,0,0,0,0,0.0318589,-0.196998,-0.307049,-1.6624,0.145178,1.32602,0.40181,0.151205,0.00183472,0.219804,-0.043779,0.487064,-0.618268,-0.000231974,2.61798,-25.1357,4.36098,24.7095,2.40112,1.6607,-0.0227812,-1.34497,-0.0236856,-0.609891,0.680005,-0.320087,-0.139559,-0.0970549,0.10378,-0.30449,-0.70108,0.420647,-0.622434,-0.0180873,
0.0385534,-0.198109,-0.301059,-1.66582,0.151159,-0.256611,-0.382971,0.360013,-0.00423176,0.403016,-0.132536,0.902828,-1.03458,0.00918738,0,0,0,0,0,0,0,0.0318589,-0.196998,-0.307049,-1.6624,0.145178,1.32602,0.40181,0.151205,0.00183472,0.219804,-0.043779,0.487064,-0.618268,-0.000231974,2.61798,-25.1357,4.36098,24.7095,2.40112,1.6607,-0.0227812,-1.67427,0.100111,-0.564728,0.499832,-0.56626,-0.110565,-0.0573456,-0.0299548,-0.257282,-0.648038,0.342971,-0.630422,-0.0209729,
0.0400064,-0.198113,-0.299432,-1.66635,0.154835,-0.260641,-0.382935,0.363266,-0.000986532,0.406734,-0.132855,0.918908,-1.00762,0.00897128,0,0,0,0,0,0,0,0.0318589,-0.196998,-0.307049,-1.6624,0.145178,1.32602,0.40181,0.151205,0.00183472,0.219804,-0.043779,0.487064,-0.618268,-0.000231974,2.61798,-25.1357,4.36098,24.7095,2.40112,1.6607,-0.0227812,-1.67427,0.100111,-0.564728,0.499832,-0.56626,-0.110565,-0.0573456,-0.0299548,-0.257282,-0.648038,0.342971,-0.630422,-0.0209729,
0.0414698,-0.198105,-0.297793,-1.66688,0.158567,-0.264562,-0.3829,0.365853,0.00198946,0.409737,-0.132686,0.932968,-0.980229,0.00876606,0,0,0,0,0,0,0,0.0318589,-0.196998,-0.307049,-1.6624,0.145178,1.32602,0.40181,0.151205,0.00183472,0.219804,-0.043779,0.487064,-0.618268,-0.000231974,2.61798,-25.1357,4.36098,24.7095,2.40112,1.6607,-0.0227812,-2.08467,-0.544009,-0.876742,0.929394,-0.618205,-0.422772,-0.369113,0.0462413,-0.606111,-0.83454,0.199539,-0.738966,-0.020741,
0.0429413,-0.198086,-0.296145,-1.66741,0.162348,-0.268373,-0.382866,0.367855,0.00467048,0.412115,-0.132158,0.945196,-0.952735,0.00857041,0,0,0,0,0,0,0,0.0318589,-0.196998,-0.307049,-1.6624,0.145178,1.32602,0.40181,0.151205,0.00183472,0.219804,-0.043779,0.487064,-0.618268,-0.000231974,2.61798,-25.1357,4.36098,24.7095,2.40112,1.6607,-0.0227812,-2.08467,-0.544009,-0.876742,0.929394,-0.618205,-0.422772,-0.369113,0.0462413,-0.606111,-0.83454,0.199539,-0.738966,-0.020741,
0.0444186,-0.198058,-0.294489,-1.66793,0.166171,-0.272075,-0.382832,0.369345,0.00705417,0.413942,-0.13136,0.955768,-0.925357,0.00838508,0,0,0,0,0,0,0,0.0373884,-0.197057,-0.299802,-1.66392,0.163107,1.30655,0.401809,0.187982,0.00134853,0.235118,-0.0484893,0.58404,-0.564887,-0.00132796,2.54261,-25.0365,4.33717,24.9594,2.70691,1.7138,-0.0163725,-2.45159,0.405855,-1.00305,0.29221,-0.78063,-0.0231496,0.0245925,0.0167422,-0.146096,-0.926372,0.275553,-0.84644,-0.022642,
0.0459002,-0.198022,-0.292828,-1.66845,0.17003,-0.275667,-0.382799,0.370382,0.00915091,0.415285,-0.13036,0.964854,-0.89823,0.00820725,0,0,0,0,0,0,0,0.0373884,-0.197057,-0.299802,-1.66392,0.163107,1.30655,0.401809,0.187982,0.00134853,0.235118,-0.0484893,0.58404,-0.564887,-0.00132796,2.54261,-25.0365,4.33717,24.9594,2.70691,1.7138,-0.0163725,-2.45159,0.405855,-1.00305,0.29221,-0.78063,-0.0231496,0.0245925,0.0167422,-0.146096,-0.926372,0.275553,-0.84644,-0.022642,
0.0473843,-0.197978,-0.291163,-1.66897,0.17392,-0.279153,-0.382767,0.371022,0.0109793,0.416201,-0.129205,0.972608,-0.871434,0.00803787,0,0,0,0,0,0,0,0.0373884,-0.197057,-0.299802,-1.66392,0.163107,1.30655,0.401809,0.187982,0.00134853,0.235118,-0.0484893,0.58404,-0.564887,-0.00132796,2.54261,-25.0365,4.33717,24.9594,2.70691,1.7138,-0.0163725,-2.85324,0.189452,-0.574499,0.446098,-1.22691,-0.162832,-0.116383,-0.299682,-0.295759,-0.753925,0.311104,-0.875638,-0.0227613,
0.0488695,-0.197927,-0.289496,-1.66948,0.177837,-0.282533,-0.382736,0.371311,0.0125614,0.416742,-0.12793,0.979174,-0.845019,0.00787685,0,0,0,0,0,0,0,0.0373884,-0.197057,-0.299802,-1.66392,0.163107,1.30655,0.401809,0.187982,0.00134853,0.235118,-0.0484893,0.58404,-0.564887,-0.00132796,2.54261,-25.0365,4.33717,24.9594,2.70691,1.7138,-0.0163725,-2.76928,-0.624236,-0.785914,1.1197,-1.03367,-0.51336,-0.455297,-0.153029,-0.728855,-0.895721,0.313463,-0.907808,-0.0214527,
0.0503547,-0.197872,-0.287829,-1.66999,0.181776,-0.285809,-0.382705,0.371292,0.0139203,0.41695,-0.126562,0.984681,-0.819013,0.00772233,0,0,0,0,0,0,0,0.0373884,-0.197057,-0.299802,-1.66392,0.163107,1.30655,0.401809,0.187982,0.00134853,0.235118,-0.0484893,0.58404,-0.564887,-0.00132796,2.54261,-25.0365,4.33717,24.9594,2.70691,1.7138,-0.0163725,-2.76928,-0.624236,-0.785914,1.1197,-1.03367,-0.51336,-0.455297,-0.153029,-0.728855,-0.895721,0.313463,-0.907808,-0.0214527,
0.0518387,-0.197811,-0.286161,-1.67049,0.185733,-0.288983,-0.382674,0.371001,0.0150795,0.416867,-0.125121,0.989246,-0.793431,0.00757492,0,0,0,0,0,0,0,0.0443309,-0.197028,-0.291672,-1.66577,0.182103,1.28972,0.40181,0.211693,-0.00121627,0.273886,-0.0581287,0.601921,-0.473589,-0.000895911,2.08637,-25.2626,3.83729,24.9356,2.99987,1.82,-0.0227812,-3.08924,-0.545186,-0.974495,1.19105,-1.16777,-0.52037,-0.455283,-0.187175,-0.760352,-0.993242,0.414503,-0.967881,-0.020341,
0.0533206,-0.197747,-0.284495,-1.67098,0.189705,-0.292056,-0.382645,0.37047,0.0160606,0.416525,-0.123622,0.992974,-0.768278,0.00743351,0,0,0,0,0,0,0,0.0443309,-0.197028,-0.291672,-1.66577,0.182103,1.28972,0.40181,0.211693,-0.00121627,0.273886,-0.0581287,0.601921,-0.473589,-0.000895911,2.08637,-25.2626,3.83729,24.9356,2.99987,1.82,-0.0227812,-3.08924,-0.545186,-0.974495,1.19105,-1.16777,-0.52037,-0.455283,-0.187175,-0.760352,-0.993242,0.414503,-0.967881,-0.020341,
0.0547995,-0.19768,-0.282831,-1.67147,0.193689,-0.29503,-0.382616,0.369729,0.0168843,0.415955,-0.12208,0.995961,-0.743556,0.0072972,0,0,0,0,0,0,0,0.0443309,-0.197028,-0.291672,-1.66577,0.182103,1.28972,0.40181,0.211693,-0.00121627,0.273886,-0.0581287,0.601921,-0.473589,-0.000895911,2.08637,-25.2626,3.83729,24.9356,2.99987,1.82,-0.0227812,-2.27384,0.433188,-0.739617,0.577121,-0.739935,0.00600055,0.0706145,-0.0201445,-0.189043,-0.923871,0.622274,-0.902832,-0.022125,
0.0562747,-0.197609,-0.28117,-1.67195,0.197682,-0.297907,-0.382587,0.368803,0.0175693,0.415186,-0.120504,0.998291,-0.719262,0.00716589,0,0,0,0,0,0,0,0.0443309,-0.197028,-0.291672,-1.66577,0.182103,1.28972,0.40181,0.211693,-0.00121627,0.273886,-0.0581287,0.601921,-0.473589,-0.000895911,2.08637,-25.2626,3.83729,24.9356,2.99987,1.82,-0.0227812,-1.83898,1.34239,-0.723147,0.0275429,-0.469202,0.455203,0.521519,0.115779,0.297032,-0.940319,0.799712,-0.885256,-0.0226829,
0.0577455,-0.197537,-0.279513,-1.67243,0.201682,-0.300689,-0.382559,0.367714,0.0181325,0.41424,-0.118902,1.00004,-0.695391,0.0070409,0,0,0,0,0,0,0,0.0443309,-0.197028,-0.291672,-1.66577,0.182103,1.28972,0.40181,0.211693,-0.00121627,0.273886,-0.0581287,0.601921,-0.473589,-0.000895911,2.08637,-25.2626,3.83729,24.9356,2.99987,1.82,-0.0227812,-1.83898,1.34239,-0.723147,0.0275429,-0.469202,0.455203,0.521519,0.115779,0.297032,-0.940319,0.799712,-0.885256,-0.0226829,
0.0592115,-0.197463,-0.277861,-1.6729,0.205687,-0.303377,-0.382531,0.366483,0.0185891,0.41314,-0.117282,1.00128,-0.671938,0.00691944,0,0,0,0,0,0,0,0.0443309,-0.197028,-0.291672,-1.66577,0.182103,1.28972,0.40181,0.211693,-0.00121627,0.273886,-0.0581287,0.601921,-0.473589,-0.000895911,2.08637,-25.2626,3.83729,24.9356,2.99987,1.82,-0.0227812,-1.81854,1.61788,-0.893486,-0.0822001,-0.410421,0.567373,0.63587,0.167282,0.408217,-0.998358,0.893381,-0.875333,-0.0222521,
0.0249938,-0.197488,-0.316263,-1.66125,0.115995,-0.208099,-0.383447,0.304793,-0.0687165,0.335569,-0.138851,0.488486,-0.744582,0.0117057,0,0,0,0,0,0,0,0.0514724,-0.196943,-0.282669,-1.66764,0.200851,1.27509,0.401812,0.243086,0.00340493,0.28351,-0.051594,0.568528,-0.445206,-0.000505617,1.78089,-25.6355,3.26204,24.5111,3.11615,1.91247,-0.0429228,-1.81854,1.61788,-0.893486,-0.0822001,-0.410421,0.567373,0.63587,0.167282,0.408217,-0.998358,0.893381,-0.875333,-0.0222521,
0.0555385,-0.19735,-0.278147,-1.66913,0.207578,-0.301942,-0.383459,0.372128,-0.0384525,0.416034,-0.138866,0.575731,-0.560415,0.0105963,0,0,0,0,0,0,0,0.0514724,-0.196943,-0.282669,-1.66764,0.200851,1.27509,0.401812,0.243086,0.00340493,0.28351,-0.051594,0.568528,-0.445206,-0.000505617,1.78089,-25.6355,3.26204,24.5111,3.11615,1.91247,-0.0429228,-2.48833,1.12104,-0.811413,0.292821,-1.00354,0.239926,0.307946,-0.214519,0.0505766,-0.841574,0.901971,-0.811074,-0.0215506,
0.057125,-0.197497,-0.276367,-1.66971,0.209993,-0.304316,-0.383418,0.396611,-0.036655,0.444891,-0.144939,0.603856,-0.593477,0.0103309,0,0,0,0,0,0,0,0.0514724,-0.196943,-0.282669,-1.66764,0.200851,1.27509,0.401812,0.243086,0.00340493,0.28351,-0.051594,0.568528,-0.445206,-0.000505617,1.78089,-25.6355,3.26204,24.5111,3.11615,1.91247,-0.0429228,-2.33433,1.95277,-0.741216,-0.240588,-0.979584,0.616421,0.683535,-0.228948,0.470551,-0.785094,1.04241,-0.771336,-0.0222201,
0.0587912,-0.19763,-0.274494,-1.67031,0.212538,-0.306784,-0.383377,0.416567,-0.0334464,0.468246,-0.149371,0.63613,-0.617151,0.0100538,0,0,0,0,0,0,0,0.0514724,-0.196943,-0.282669,-1.66764,0.200851,1.27509,0.401812,0.243086,0.00340493,0.28351,-0.051594,0.568528,-0.445206,-0.000505617,1.78089,-25.6355,3.26204,24.5111,3.11615,1.91247,-0.0429228,-2.33433,1.95277,-0.741216,-0.240588,-0.979584,0.616421,0.683535,-0.228948,0.470551,-0.785094,1.04241,-0.771336,-0.0222201,
0.0605235,-0.197751,-0.272544,-1.67093,0.215217,-0.309289,-0.383338,0.433076,-0.03008,0.487415,-0.154042,0.66979,-0.626083,0.00988143,0,0,0,0,0,0,0,0.0514724,-0.196943,-0.282669,-1.66764,0.200851,1.27509,0.401812,0.243086,0.00340493,0.28351,-0.051594,0.568528,-0.445206,-0.000505617,1.78089,-25.6355,3.26204,24.5111,3.11615,1.91247,-0.0429228,-1.77618,2.51422,-0.531324,-0.648433,-0.693322,0.924171,0.968521,-0.115539,0.833461,-0.711392,1.1168,-0.718302,-0.0212591,
0.06231,-0.197855,-0.270532,-1.67155,0.218029,-0.311806,-0.383299,0.446609,-0.0259852,0.503052,-0.156977,0.703113,-0.629392,0.0096511,0,0,0,0,0,0,0,0.0591093,-0.196834,-0.27353,-1.66958,0.216204,1.26363,0.401815,0.247938,0.0042363,0.320893,-0.0620733,0.360443,-0.30096,0.000807777,-0.29797,-26.1592,0.937208,24.4357,1.89483,1.72021,-0.0703886,-1.77618,2.51422,-0.531324,-0.648433,-0.693322,0.924171,0.968521,-0.115539,0.833461,-0.711392,1.1168,-0.718302,-0.0212591,
0.0641412,-0.197943,-0.268468,-1.67219,0.220969,-0.314302,-0.383261,0.457803,-0.0219596,0.515931,-0.159531,0.734975,-0.623968,0.00943073,0,0,0,0,0,0,0,0.0591093,-0.196834,-0.27353,-1.66958,0.216204,1.26363,0.401815,0.247938,0.0042363,0.320893,-0.0620733,0.360443,-0.30096,0.000807777,-0.29797,-26.1592,0.937208,24.4357,1.89483,1.72021,-0.0703886,-2.25885,-1.13507,-1.25075,1.73727,-0.720043,-0.760423,-0.68997,-0.0550978,-1.07017,-0.887692,0.579288,-0.621415,-0.0162953,
0.0660094,-0.198015,-0.266362,-1.67284,0.224028,-0.316743,-0.383224,0.467064,-0.0181108,0.526559,-0.161719,0.764712,-0.610316,0.00924584,0,0,0,0,0,0,0,0.0591093,-0.196834,-0.27353,-1.66958,0.216204,1.26363,0.401815,0.247938,0.0042363,0.320893,-0.0620733,0.360443,-0.30096,0.000807777,-0.29797,-26.1592,0.937208,24.4357,1.89483,1.72021,-0.0703886,-2.25885,-1.13507,-1.25075,1.73727,-0.720043,-0.760423,-0.68997,-0.0550978,-1.07017,-0.887692,0.579288,-0.621415,-0.0162953,
0.0679079,-0.198072,-0.264221,-1.67349,0.227196,-0.319114,-0.383188,0.474617,-0.0142289,0.535248,-0.162882,0.792007,-0.592654,0.0090682,0,0,0,0,0,0,0,0.0591093,-0.196834,-0.27353,-1.66958,0.216204,1.26363,0.401815,0.247938,0.0042363,0.320893,-0.0620733,0.360443,-0.30096,0.000807777,-0.29797,-26.1592,0.937208,24.4357,1.89483,1.72021,-0.0703886,-2.80835,-1.39168,-1.34451,1.79539,-1.10222,-0.906925,-0.779763,-0.259584,-1.25444,-0.833109,0.432195,-0.595447,-0.0152353,
0.0698307,-0.198114,-0.262052,-1.67414,0.230463,-0.321406,-0.383153,0.480703,-0.0104283,0.542291,-0.163144,0.81675,-0.572934,0.00889864,0,0,0,0,0,0,0,0.0591093,-0.196834,-0.27353,-1.66958,0.216204,1.26363,0.401815,0.247938,0.0042363,0.320893,-0.0620733,0.360443,-0.30096,0.000807777,-0.29797,-26.1592,0.937208,24.4357,1.89483,1.72021,-0.0703886,-2.80835,-1.39168,-1.34451,1.79539,-1.10222,-0.906925,-0.779763,-0.259584,-1.25444,-0.833109,0.432195,-0.595447,-0.0152353,
0.0717728,-0.198141,-0.25986,-1.67479,0.233819,-0.323614,-0.383118,0.485534,-0.00683573,0.547938,-0.162744,0.838957,-0.552159,0.00873814,0,0,0,0,0,0,0,0.0591093,-0.196834,-0.27353,-1.66958,0.216204,1.26363,0.401815,0.247938,0.0042363,0.320893,-0.0620733,0.360443,-0.30096,0.000807777,-0.29797,-26.1592,0.937208,24.4357,1.89483,1.72021,-0.0703886,-2.6069,-0.545467,-1.18732,1.21591,-0.98187,-0.487126,-0.404234,-0.187949,-0.747473,-0.835619,0.538327,-0.648702,-0.0172811,
0.07373,-0.198155,-0.257651,-1.67544,0.237254,-0.325738,-0.383083,0.489293,-0.00353139,0.552396,-0.16188,0.85872,-0.530879,0.00858533,0,0,0,0,0,0,0,0.0682561,-0.196937,-0.261949,-1.6719,0.229653,1.25441,0.401814,0.293602,0.000116092,0.344372,-0.072855,0.40697,-0.247,0.00126506,3.30432,-25.4848,4.83705,24.6381,3.12164,1.42174,-0.0630644,-1.96755,0.723823,-1.30688,0.285377,-0.417221,0.186753,0.251848,0.196655,0.022576,-0.984447,0.595557,-0.705585,-0.0197143,
0.0756986,-0.198157,-0.255427,-1.67609,0.240759,-0.327776,-0.38305,0.492133,-0.000551355,0.555838,-0.160691,0.876179,-0.50941,0.00844317,0,0,0,0,0,0,0,0.0682561,-0.196937,-0.261949,-1.6719,0.229653,1.25441,0.401814,0.293602,0.000116092,0.344372,-0.072855,0.40697,-0.247,0.00126506,3.30432,-25.4848,4.83705,24.6381,3.12164,1.42174,-0.0630644,-1.96755,0.723823,-1.30688,0.285377,-0.417221,0.186753,0.251848,0.196655,0.022576,-0.984447,0.595557,-0.705585,-0.0197143,
0.0776753,-0.198149,-0.253194,-1.67672,0.244325,-0.329727,-0.383016,0.494183,0.00209762,0.558409,-0.159273,0.891497,-0.487935,0.00830927,0,0,0,0,0,0,0,0.0682561,-0.196937,-0.261949,-1.6719,0.229653,1.25441,0.401814,0.293602,0.000116092,0.344372,-0.072855,0.40697,-0.247,0.00126506,3.30432,-25.4848,4.83705,24.6381,3.12164,1.42174,-0.0630644,-1.97804,0.456447,-1.30712,0.253215,-0.385157,0.122856,0.172024,0.240258,-0.0034218,-0.979185,0.368492,-0.712965,-0.0213216,
0.0796575,-0.198131,-0.250953,-1.67735,0.247944,-0.331594,-0.382984,0.49555,0.00442762,0.56023,-0.157688,0.904851,-0.466568,0.00818554,0,0,0,0,0,0,0,0.0682561,-0.196937,-0.261949,-1.6719,0.229653,1.25441,0.401814,0.293602,0.000116092,0.344372,-0.072855,0.40697,-0.247,0.00126506,3.30432,-25.4848,4.83705,24.6381,3.12164,1.42174,-0.0630644,-1.97804,0.456447,-1.30712,0.253215,-0.385157,0.122856,0.172024,0.240258,-0.0034218,-0.979185,0.368492,-0.712965,-0.0213216,
0.0816428,-0.198105,-0.248707,-1.67798,0.25161,-0.333375,-0.382951,0.496328,0.0064596,0.561404,-0.155981,0.916417,-0.445379,0.00806852,0,0,0,0,0,0,0,0.0682561,-0.196937,-0.261949,-1.6719,0.229653,1.25441,0.401814,0.293602,0.000116092,0.344372,-0.072855,0.40697,-0.247,0.00126506,3.30432,-25.4848,4.83705,24.6381,3.12164,1.42174,-0.0630644,-1.79657,0.745629,-1.69574,-0.0372233,-0.0383382,0.314764,0.352626,0.539941,0.228133,-1.18399,0.276187,-0.764964,-0.0237836,
0.0836292,-0.198072,-0.246459,-1.67859,0.255315,-0.335073,-0.382919,0.496594,0.00821969,0.562018,-0.154179,0.926367,-0.424412,0.00795769,0,0,0,0,0,0,0,0.0776452,-0.197007,-0.25046,-1.67431,0.246188,1.24826,0.40181,0.29448,0.00425897,0.354819,-0.0793552,0.556491,-0.147228,-0.000705165,3.27655,-25.3856,4.53554,24.3127,3.53088,1.05096,-0.0227812,-1.96266,1.43447,-1.34747,-0.45485,-0.253182,0.632744,0.682413,0.394567,0.568554,-1.10603,0.424075,-0.844171,-0.0242169,
0.0856148,-0.198034,-0.244211,-1.6792,0.259055,-0.336688,-0.382888,0.496416,0.00973484,0.562146,-0.152306,0.934865,-0.403698,0.0078552,0,0,0,0,0,0,0,0.0776452,-0.197007,-0.25046,-1.67431,0.246188,1.24826,0.40181,0.29448,0.00425897,0.354819,-0.0793552,0.556491,-0.147228,-0.000705165,3.27655,-25.3856,4.53554,24.3127,3.53088,1.05096,-0.0227812,-1.96266,1.43447,-1.34747,-0.45485,-0.253182,0.632744,0.682413,0.394567,0.568554,-1.10603,0.424075,-0.844171,-0.0242169,
0.0875982,-0.197989,-0.241963,-1.6798,0.262823,-0.338221,-0.382857,0.495852,0.0110316,0.561852,-0.150377,0.942064,-0.38326,0.00775669,0,0,0,0,0,0,0,0.0776452,-0.197007,-0.25046,-1.67431,0.246188,1.24826,0.40181,0.29448,0.00425897,0.354819,-0.0793552,0.556491,-0.147228,-0.000705165,3.27655,-25.3856,4.53554,24.3127,3.53088,1.05096,-0.0227812,-2.42136,-1.18706,-1.21712,1.46314,-0.561909,-0.598508,-0.518157,0.150049,-0.866166,-1.07412,0.301953,-0.862573,-0.0186855,
0.089578,-0.197941,-0.239718,-1.6804,0.266615,-0.339673,-0.382826,0.494952,0.0121352,0.561192,-0.148405,0.948107,-0.363117,0.00766446,0,0,0,0,0,0,0,0.0776452,-0.197007,-0.25046,-1.67431,0.246188,1.24826,0.40181,0.29448,0.00425897,0.354819,-0.0793552,0.556491,-0.147228,-0.000705165,3.27655,-25.3856,4.53554,24.3127,3.53088,1.05096,-0.0227812,-2.42136,-1.18706,-1.21712,1.46314,-0.561909,-0.598508,-0.518157,0.150049,-0.866166,-1.07412,0.301953,-0.862573,-0.0186855,
0.091554,-0.197889,-0.237477,-1.68098,0.270419,-0.341046,-0.382796,0.493992,0.0130041,0.560328,-0.146308,0.951005,-0.343258,0.00754839,0,0,0,0,0,0,0,0.0776452,-0.197007,-0.25046,-1.67431,0.246188,1.24826,0.40181,0.29448,0.00425897,0.354819,-0.0793552,0.556491,-0.147228,-0.000705165,3.27655,-25.3856,4.53554,24.3127,3.53088,1.05096,-0.0227812,-2.06906,-2.04121,-1.4938,2.11859,-0.162141,-0.962725,-0.871963,0.395339,-1.30905,-1.2283,0.276805,-0.85287,-0.0176568,
0.0935285,-0.197835,-0.235238,-1.68156,0.274197,-0.342341,-0.382767,0.493611,0.0134669,0.559687,-0.143834,0.944344,-0.323628,0.0073392,0,0,0,0,0,0,0,0.0776452,-0.197007,-0.25046,-1.67431,0.246188,1.24826,0.40181,0.29448,0.00425897,0.354819,-0.0793552,0.556491,-0.147228,-0.000705165,3.27655,-25.3856,4.53554,24.3127,3.53088,1.05096,-0.0227812,-2.06906,-2.04121,-1.4938,2.11859,-0.162141,-0.962725,-0.871963,0.395339,-1.30905,-1.2283,0.276805,-0.85287,-0.0176568,
0.0955008,-0.19778,-0.233002,-1.68212,0.277924,-0.343558,-0.382738,0.493094,0.0136748,0.559173,-0.141255,0.931971,-0.304323,0.00715585,0,0,0,0,0,0,0,0.0911261,-0.196905,-0.23374,-1.67745,0.27009,1.24487,0.401814,0.337833,0.00400872,0.417595,-0.0713221,0.589618,-0.0444812,0.000407639,2.26093,-26.2584,3.51198,24.3127,3.2315,1.20934,-0.050247,-2.62002,-0.745771,-1.43958,1.28312,-0.591181,-0.408547,-0.317732,0.182251,-0.682891,-1.18693,0.461777,-0.909984,-0.0190648,
0.0974701,-0.197725,-0.230767,-1.68268,0.281589,-0.3447,-0.38271,0.492315,0.0137273,0.558546,-0.138684,0.916136,-0.285406,0.00699708,0,0,0,0,0,0,0,0.0911261,-0.196905,-0.23374,-1.67745,0.27009,1.24487,0.401814,0.337833,0.00400872,0.417595,-0.0713221,0.589618,-0.0444812,0.000407639,2.26093,-26.2584,3.51198,24.3127,3.2315,1.20934,-0.050247,-2.41135,-0.257071,-1.3455,1.01304,-0.471708,-0.173587,-0.10045,0.238689,-0.417491,-1.18243,0.593344,-0.917308,-0.0191445,
0.0994351,-0.197671,-0.228537,-1.68322,0.285182,-0.345767,-0.382683,0.491239,0.0136871,0.557689,-0.136166,0.898193,-0.26691,0.00685212,0,0,0,0,0,0,0,0.0911261,-0.196905,-0.23374,-1.67745,0.27009,1.24487,0.401814,0.337833,0.00400872,0.417595,-0.0713221,0.589618,-0.0444812,0.000407639,2.26093,-26.2584,3.51198,24.3127,3.2315,1.20934,-0.050247,-2.41135,-0.257071,-1.3455,1.01304,-0.471708,-0.173587,-0.10045,0.238689,-0.417491,-1.18243,0.593344,-0.917308,-0.0191445,
0.101395,-0.197616,-0.22631,-1.68376,0.288698,-0.346763,-0.382656,0.48987,0.0135928,0.556556,-0.133719,0.878973,-0.248845,0.00671823,0,0,0,0,0,0,0,0.0911261,-0.196905,-0.23374,-1.67745,0.27009,1.24487,0.401814,0.337833,0.00400872,0.417595,-0.0713221,0.589618,-0.0444812,0.000407639,2.26093,-26.2584,3.51198,24.3127,3.2315,1.20934,-0.050247,-2.2582,0.911233,-1.23839,0.296257,-0.403185,0.363376,0.400566,0.286324,0.203009,-1.17493,0.808649,-0.941419,-0.0211678,
0.103347,-0.197562,-0.22409,-1.68428,0.292134,-0.347687,-0.38263,0.488228,0.0134672,0.555146,-0.131349,0.85899,-0.231207,0.00659216,0,0,0,0,0,0,0,0.0911261,-0.196905,-0.23374,-1.67745,0.27009,1.24487,0.401814,0.337833,0.00400872,0.417595,-0.0713221,0.589618,-0.0444812,0.000407639,2.26093,-26.2584,3.51198,24.3127,3.2315,1.20934,-0.050247,-2.2582,0.911233,-1.23839,0.296257,-0.403185,0.363376,0.400566,0.286324,0.203009,-1.17493,0.808649,-0.941419,-0.0211678,
0.0560185,-0.197663,-0.277638,-1.66971,0.206876,-0.298818,-0.383459,0.424738,-0.0645509,0.473926,-0.187219,0.501723,-0.220708,0.0105331,0,0,0,0,0,0,0,0.102358,-0.196679,-0.220311,-1.68007,0.288087,1.24469,0.401817,0.339021,0.00746241,0.423006,-0.0771418,0.543371,-0.000463233,0.00128955,1.55078,-26.3854,2.23848,24.4357,3.5556,1.03081,-0.0630644,-2.8322,2.27768,-0.840077,-0.59221,-1.0378,0.948425,0.99571,-0.113627,0.860768,-0.947879,1.01954,-0.941434,-0.02317,
0.107673,-0.197041,-0.214307,-1.68195,0.294675,-0.32574,-0.383462,0.474437,-0.0330248,0.537031,-0.169279,0.56646,0.0205546,0.0098186,0,0,0,0,0,0,0,0.102358,-0.196679,-0.220311,-1.68007,0.288087,1.24469,0.401817,0.339021,0.00746241,0.423006,-0.0771418,0.543371,-0.000463233,0.00128955,1.55078,-26.3854,2.23848,24.4357,3.5556,1.03081,-0.0630644,-1.98693,1.78106,-1.23961,-0.156825,-0.227066,0.758247,0.824564,0.38293,0.594937,-1.18852,1.04956,-0.915622,-0.0207253,
0.109663,-0.197164,-0.21205,-1.68265,0.29705,-0.325693,-0.383423,0.497475,-0.0307065,0.56426,-0.173517,0.593692,0.0119355,0.00975384,0,0,0,0,0,0,0,0.102358,-0.196679,-0.220311,-1.68007,0.288087,1.24469,0.401817,0.339021,0.00746241,0.423006,-0.0771418,0.543371,-0.000463233,0.00128955,1.55078,-26.3854,2.23848,24.4357,3.5556,1.03081,-0.0630644,-1.98693,1.78106,-1.23961,-0.156825,-0.227066,0.758247,0.824564,0.38293,0.594937,-1.18852,1.04956,-0.915622,-0.0207253,
0.111726,-0.197272,-0.209706,-1.68335,0.299546,-0.325679,-0.383385,0.515922,-0.0268821,0.586049,-0.174974,0.624019,0.00328564,0.00962891,0,0,0,0,0,0,0,0.102358,-0.196679,-0.220311,-1.68007,0.288087,1.24469,0.401817,0.339021,0.00746241,0.423006,-0.0771418,0.543371,-0.000463233,0.00128955,1.55078,-26.3854,2.23848,24.4357,3.5556,1.03081,-0.0630644,-1.94813,0.915185,-0.969055,0.475161,-0.310955,0.354783,0.417421,0.247567,0.136884,-1.06792,1.03538,-0.873438,-0.0179277,
0.11385,-0.197363,-0.207292,-1.68405,0.302167,-0.325681,-0.383347,0.530869,-0.0228755,0.603607,-0.175851,0.655241,-0.000458288,0.00948687,0,0,0,0,0,0,0,0.102358,-0.196679,-0.220311,-1.68007,0.288087,1.24469,0.401817,0.339021,0.00746241,0.423006,-0.0771418,0.543371,-0.000463233,0.00128955,1.55078,-26.3854,2.23848,24.4357,3.5556,1.03081,-0.0630644,-1.94813,0.915185,-0.969055,0.475161,-0.310955,0.354783,0.417421,0.247567,0.136884,-1.06792,1.03538,-0.873438,-0.0179277,
0.116024,-0.19744,-0.204819,-1.68475,0.304886,-0.325674,-0.38331,0.543671,-0.0192089,0.618135,-0.176233,0.679681,0.00178675,0.00930218,0,0,0,0,0,0,0,0.113719,-0.196611,-0.206507,-1.68251,0.30166,1.24507,0.401812,0.347149,0.00468766,0.477124,-0.0898248,0.373821,0.0391252,-0.000180236,2.64179,-26.5083,3.13905,23.6383,3.05481,1.08391,-0.0429228,-2.25533,0.151282,-0.912575,0.922596,-0.572526,0.00530072,0.0465916,0.0656767,-0.221419,-0.982651,0.909187,-0.839829,-0.0201041,
0.118245,-0.197504,-0.202297,-1.68546,0.307648,-0.325647,-0.383274,0.555051,-0.0159079,0.630599,-0.175398,0.690719,0.00689964,0.00903099,0,0,0,0,0,0,0,0.113719,-0.196611,-0.206507,-1.68251,0.30166,1.24507,0.401812,0.347149,0.00468766,0.477124,-0.0898248,0.373821,0.0391252,-0.000180236,2.64179,-26.5083,3.13905,23.6383,3.05481,1.08391,-0.0429228,-2.8258,-1.22814,-1.53316,1.77277,-0.752823,-0.637098,-0.546097,0.0241742,-0.969748,-1.12922,0.662813,-0.803124,-0.0182303,
0.120502,-0.197555,-0.199732,-1.68615,0.310422,-0.325593,-0.383238,0.564462,-0.0129251,0.641208,-0.17388,0.693297,0.0134955,0.00879608,0,0,0,0,0,0,0,0.113719,-0.196611,-0.206507,-1.68251,0.30166,1.24507,0.401812,0.347149,0.00468766,0.477124,-0.0898248,0.373821,0.0391252,-0.000180236,2.64179,-26.5083,3.13905,23.6383,3.05481,1.08391,-0.0429228,-2.8258,-1.22814,-1.53316,1.77277,-0.752823,-0.637098,-0.546097,0.0241742,-0.969748,-1.12922,0.662813,-0.803124,-0.0182303,
0.122791,-0.197596,-0.197132,-1.68684,0.313183,-0.325509,-0.383204,0.572028,-0.0102493,0.649969,-0.172016,0.690354,0.0209288,0.00859175,0,0,0,0,0,0,0,0.113719,-0.196611,-0.206507,-1.68251,0.30166,1.24507,0.401812,0.347149,0.00468766,0.477124,-0.0898248,0.373821,0.0391252,-0.000180236,2.64179,-26.5083,3.13905,23.6383,3.05481,1.08391,-0.0429228,-3.0914,-0.381801,-1.80939,1.12372,-0.864512,-0.241672,-0.14991,0.0398956,-0.511036,-1.18778,0.673905,-0.801781,-0.0205622,
0.125102,-0.197628,-0.194504,-1.68752,0.315918,-0.325393,-0.38317,0.577943,-0.00786663,0.656999,-0.169997,0.683702,0.0288928,0.00840635,0,0,0,0,0,0,0,0.113719,-0.196611,-0.206507,-1.68251,0.30166,1.24507,0.401812,0.347149,0.00468766,0.477124,-0.0898248,0.373821,0.0391252,-0.000180236,2.64179,-26.5083,3.13905,23.6383,3.05481,1.08391,-0.0429228,-3.0914,-0.381801,-1.80939,1.12372,-0.864512,-0.241672,-0.14991,0.0398956,-0.511036,-1.18778,0.673905,-0.801781,-0.0205622,
0.127432,-0.197651,-0.191854,-1.68819,0.318616,-0.325244,-0.383137,0.582409,-0.00575623,0.662468,-0.16792,0.674483,0.0372344,0.00823926,0,0,0,0,0,0,0,0.113719,-0.196611,-0.206507,-1.68251,0.30166,1.24507,0.401812,0.347149,0.00468766,0.477124,-0.0898248,0.373821,0.0391252,-0.000180236,2.64179,-26.5083,3.13905,23.6383,3.05481,1.08391,-0.0429228,-2.83444,0.970997,-1.85879,0.104453,-0.654609,0.425096,0.468039,0.231989,0.291711,-1.23513,0.727096,-0.826885,-0.0255794,
0.129774,-0.197666,-0.189188,-1.68885,0.32127,-0.325061,-0.383105,0.585618,-0.00389471,0.66656,-0.165832,0.663447,0.0458774,0.00808251,0,0,0,0,0,0,0,0.125668,-0.196664,-0.191921,-1.68546,0.313519,1.2476,0.401812,0.388126,0.00203909,0.467003,-0.0943136,0.390829,0.109702,-0.000729438,2.11017,-25.9847,3.11128,24.3604,2.8598,1.36223,-0.0429228,-2.55607,0.816035,-2.22904,0.0544922,-0.35391,0.381885,0.415588,0.45002,0.271409,-1.32879,0.563278,-0.757033,-0.0275689,
0.132125,-0.197675,-0.18651,-1.68951,0.323874,-0.324842,-0.383073,0.587747,-0.00225679,0.669454,-0.163752,0.651112,0.0547733,0.00793839,0,0,0,0,0,0,0,0.125668,-0.196664,-0.191921,-1.68546,0.313519,1.2476,0.401812,0.388126,0.00203909,0.467003,-0.0943136,0.390829,0.109702,-0.000729438,2.11017,-25.9847,3.11128,24.3604,2.8598,1.36223,-0.0429228,-2.55607,0.816035,-2.22904,0.0544922,-0.35391,0.381885,0.415588,0.45002,0.271409,-1.32879,0.563278,-0.757033,-0.0275689,
0.134481,-0.197679,-0.183825,-1.69016,0.326426,-0.324586,-0.383042,0.588947,-0.000818479,0.671315,-0.161687,0.637863,0.0638856,0.00780124,0,0,0,0,0,0,0,0.125668,-0.196664,-0.191921,-1.68546,0.313519,1.2476,0.401812,0.388126,0.00203909,0.467003,-0.0943136,0.390829,0.109702,-0.000729438,2.11017,-25.9847,3.11128,24.3604,2.8598,1.36223,-0.0429228,-2.11103,-0.0348463,-2.51678,0.471451,-0.0121032,0.00254303,0.0370404,0.622379,-0.132432,-1.34689,0.333054,-0.613758,-0.0275838,
0.136839,-0.197677,-0.181136,-1.69079,0.328922,-0.324293,-0.383011,0.589351,0.000444611,0.672285,-0.159638,0.624033,0.0731804,0.00766791,0,0,0,0,0,0,0,0.125668,-0.196664,-0.191921,-1.68546,0.313519,1.2476,0.401812,0.388126,0.00203909,0.467003,-0.0943136,0.390829,0.109702,-0.000729438,2.11017,-25.9847,3.11128,24.3604,2.8598,1.36223,-0.0429228,-2.11103,-0.0348463,-2.51678,0.471451,-0.0121032,0.00254303,0.0370404,0.622379,-0.132432,-1.34689,0.333054,-0.613758,-0.0275838,
0.139195,-0.197671,-0.178446,-1.69142,0.331362,-0.323963,-0.382981,0.589063,0.00155712,0.672484,-0.15761,0.609983,0.0826193,0.0075418,0,0,0,0,0,0,0,0.125668,-0.196664,-0.191921,-1.68546,0.313519,1.2476,0.401812,0.388126,0.00203909,0.467003,-0.0943136,0.390829,0.109702,-0.000729438,2.11017,-25.9847,3.11128,24.3604,2.8598,1.36223,-0.0429228,-2.03286,-0.232084,-2.50147,0.594032,0.00166013,-0.0922861,-0.0542532,0.59985,-0.239838,-1.30243,0.320603,-0.560325,-0.0267321,
0.141548,-0.19766,-0.175758,-1.69205,0.333746,-0.323594,-0.382952,0.588158,0.00254731,0.672,-0.155614,0.596215,0.0921595,0.00741618,0,0,0,0,0,0,0,0.138752,-0.196594,-0.176363,-1.68835,0.327705,1.25089,0.401811,0.405159,0.00320653,0.505414,-0.0887435,0.434288,0.101274,-0.000966343,1.47541,-26.8099,2.36146,24.6381,2.77374,1.59386,-0.0227812,-2.03286,-0.232084,-2.50147,0.594032,0.00166013,-0.0922861,-0.0542532,0.59985,-0.239838,-1.30243,0.320603,-0.560325,-0.0267321,
0.143894,-0.197647,-0.173074,-1.69266,0.336081,-0.323187,-0.382922,0.586651,0.0034527,0.670889,-0.153683,0.583605,0.101745,0.00732033,0,0,0,0,0,0,0,0.138752,-0.196594,-0.176363,-1.68835,0.327705,1.25089,0.401811,0.405159,0.00320653,0.505414,-0.0887435,0.434288,0.101274,-0.000966343,1.47541,-26.8099,2.36146,24.6381,2.77374,1.59386,-0.0227812,-2.05548,0.0510286,-2.15617,0.395338,-0.233863,0.0232202,0.0601226,0.386475,-0.0997406,-1.08878,0.365933,-0.478246,-0.0259346,
0.146233,-0.19763,-0.170397,-1.69327,0.338366,-0.322742,-0.382893,0.584744,0.00426014,0.669292,-0.151743,0.571164,0.111346,0.00729157,0,0,0,0,0,0,0,0.138752,-0.196594,-0.176363,-1.68835,0.327705,1.25089,0.401811,0.405159,0.00320653,0.505414,-0.0887435,0.434288,0.101274,-0.000966343,1.47541,-26.8099,2.36146,24.6381,2.77374,1.59386,-0.0227812,-1.87299,-0.152645,-2.25108,0.49134,-0.123168,-0.0806069,-0.0357702,0.429351,-0.215601,-1.06983,0.314775,-0.39787,-0.02317,
0.148566,-0.19761,-0.167727,-1.69387,0.340575,-0.322258,-0.382865,0.583175,0.00480739,0.667621,-0.149439,0.552387,0.121026,0.00716266,0,0,0,0,0,0,0,0.138752,-0.196594,-0.176363,-1.68835,0.327705,1.25089,0.401811,0.405159,0.00320653,0.505414,-0.0887435,0.434288,0.101274,-0.000966343,1.47541,-26.8099,2.36146,24.6381,2.77374,1.59386,-0.0227812,-1.87299,-0.152645,-2.25108,0.49134,-0.123168,-0.0806069,-0.0357702,0.429351,-0.215601,-1.06983,0.314775,-0.39787,-0.02317,
0.150891,-0.19759,-0.165063,-1.69445,0.342698,-0.321735,-0.382836,0.581336,0.00517156,0.66588,-0.147102,0.530612,0.130717,0.00702782,0,0,0,0,0,0,0,0.138752,-0.196594,-0.176363,-1.68835,0.327705,1.25089,0.401811,0.405159,0.00320653,0.505414,-0.0887435,0.434288,0.101274,-0.000966343,1.47541,-26.8099,2.36146,24.6381,2.77374,1.59386,-0.0227812,-2.14737,-1.25018,-2.54712,1.25911,-0.238827,-0.615328,-0.576185,0.34242,-0.81218,-1.10956,0.242359,-0.336777,-0.0197068,
0.153208,-0.197568,-0.162407,-1.69503,0.344728,-0.321174,-0.382809,0.579183,0.00542261,0.663917,-0.144823,0.507534,0.140346,0.0069115,0,0,0,0,0,0,0,0.138752,-0.196594,-0.176363,-1.68835,0.327705,1.25089,0.401811,0.405159,0.00320653,0.505414,-0.0887435,0.434288,0.101274,-0.000966343,1.47541,-26.8099,2.36146,24.6381,2.77374,1.59386,-0.0227812,-2.14737,-1.25018,-2.54712,1.25911,-0.238827,-0.615328,-0.576185,0.34242,-0.81218,-1.10956,0.242359,-0.336777,-0.0197068,
0.155515,-0.197546,-0.159761,-1.6956,0.346664,-0.320574,-0.382782,0.576732,0.00560723,0.66168,-0.142621,0.484028,0.149862,0.00680277,0,0,0,0,0,0,0,0.156679,-0.196279,-0.155006,-1.69155,0.343458,1.25527,0.401812,0.430129,0.0117105,0.527213,-0.0717851,0.325885,0.110458,-0.00010442,1.85627,-27.1074,2.41304,24.4635,3.59863,1.41533,-0.0301054,-2.74943,0.399021,-2.35064,0.183375,-0.810744,0.13298,0.1602,0.0537314,0.0443517,-0.956002,0.460095,-0.332192,-0.0224878,
0.157811,-0.197523,-0.157124,-1.69617,0.348506,-0.319937,-0.382755,0.574019,0.00575325,0.659172,-0.14049,0.460537,0.159236,0.00669998,0,0,0,0,0,0,0,0.156679,-0.196279,-0.155006,-1.69155,0.343458,1.25527,0.401812,0.430129,0.0117105,0.527213,-0.0717851,0.325885,0.110458,-0.00010442,1.85627,-27.1074,2.41304,24.4635,3.59863,1.41533,-0.0301054,-2.23826,0.897091,-2.44323,-0.0803314,-0.398144,0.343177,0.367307,0.307112,0.264181,-1.02949,0.593476,-0.303746,-0.0215182,
0.160095,-0.197499,-0.154498,-1.69672,0.350255,-0.319263,-0.382728,0.571083,0.00587573,0.656419,-0.138422,0.437283,0.168454,0.00660192,0,0,0,0,0,0,0,0.156679,-0.196279,-0.155006,-1.69155,0.343458,1.25527,0.401812,0.430129,0.0117105,0.527213,-0.0717851,0.325885,0.110458,-0.00010442,1.85627,-27.1074,2.41304,24.4635,3.59863,1.41533,-0.0301054,-2.23826,0.897091,-2.44323,-0.0803314,-0.398144,0.343177,0.367307,0.307112,0.264181,-1.02949,0.593476,-0.303746,-0.0215182,
0.162367,-0.197475,-0.151884,-1.69727,0.351913,-0.318553,-0.382702,0.567963,0.00598266,0.653455,-0.136406,0.414371,0.177506,0.0065022,0,0,0,0,0,0,0,0.156679,-0.196279,-0.155006,-1.69155,0.343458,1.25527,0.401812,0.430129,0.0117105,0.527213,-0.0717851,0.325885,0.110458,-0.00010442,1.85627,-27.1074,2.41304,24.4635,3.59863,1.41533,-0.0301054,-2.68989,0.464007,-2.46895,0.245809,-0.731926,0.137522,0.143853,0.095671,0.0486475,-0.980556,0.600065,-0.285488,-0.020692,
0.108139,-0.197252,-0.213849,-1.68217,0.292084,-0.323703,-0.383469,0.522696,-0.0510335,0.588994,-0.184914,0.277942,0.238743,0.00918067,0,0,0,0,0,0,0,0.156679,-0.196279,-0.155006,-1.69155,0.343458,1.25527,0.401812,0.430129,0.0117105,0.527213,-0.0717851,0.325885,0.110458,-0.00010442,1.85627,-27.1074,2.41304,24.4635,3.59863,1.41533,-0.0301054,-2.68989,0.464007,-2.46895,0.245809,-0.731926,0.137522,0.143853,0.095671,0.0486475,-0.980556,0.600065,-0.285488,-0.020692,
0.163009,-0.196635,-0.147802,-1.69353,0.346496,-0.312511,-0.383475,0.55634,-0.0320159,0.63467,-0.178483,0.233458,0.280645,0.00932978,0,0,0,0,0,0,0,0.171188,-0.195773,-0.137582,-1.69348,0.351909,1.25874,0.401814,0.469054,0.0238538,0.540377,-0.0592251,0.215504,0.119222,0.000158816,0.134464,-27.3573,0.338148,24.5349,3.28735,1.54168,-0.0566557,-3.32393,0.667168,-2.3748,0.126652,-1.26279,0.24426,0.260749,-0.213119,0.165046,-0.865304,0.651482,-0.273153,-0.0216703,
0.165315,-0.196748,-0.145166,-1.69425,0.347408,-0.311342,-0.383439,0.576424,-0.0281623,0.659127,-0.180174,0.227786,0.2922,0.00914498,0,0,0,0,0,0,0,0.171188,-0.195773,-0.137582,-1.69348,0.351909,1.25874,0.401814,0.469054,0.0238538,0.540377,-0.0592251,0.215504,0.119222,0.000158816,0.134464,-27.3573,0.338148,24.5349,3.28735,1.54168,-0.0566557,-3.32393,0.667168,-2.3748,0.126652,-1.26279,0.24426,0.260749,-0.213119,0.165046,-0.865304,0.651482,-0.273153,-0.0216703,
0.167685,-0.196843,-0.142452,-1.69497,0.348302,-0.310133,-0.383403,0.592572,-0.0237652,0.67841,-0.18018,0.223671,0.302155,0.00900684,0,0,0,0,0,0,0,0.171188,-0.195773,-0.137582,-1.69348,0.351909,1.25874,0.401814,0.469054,0.0238538,0.540377,-0.0592251,0.215504,0.119222,0.000158816,0.134464,-27.3573,0.338148,24.5349,3.28735,1.54168,-0.0566557,-2.50049,0.0924081,-2.55439,0.569266,-0.554582,-0.0399105,-0.018838,0.168353,-0.180457,-1.01021,0.663944,-0.244041,-0.0215407,
0.170109,-0.196921,-0.139676,-1.69569,0.349154,-0.308892,-0.383368,0.606008,-0.0194939,0.693984,-0.17885,0.213026,0.310315,0.00878194,0,0,0,0,0,0,0,0.171188,-0.195773,-0.137582,-1.69348,0.351909,1.25874,0.401814,0.469054,0.0238538,0.540377,-0.0592251,0.215504,0.119222,0.000158816,0.134464,-27.3573,0.338148,24.5349,3.28735,1.54168,-0.0566557,-1.58421,2.03311,-2.76284,-0.794324,0.214032,0.846233,0.839344,0.751115,0.833424,-1.18824,0.819481,-0.253523,-0.0276559,
0.172575,-0.196983,-0.13685,-1.6964,0.349951,-0.307624,-0.383333,0.616575,-0.0155696,0.706506,-0.177073,0.199263,0.316957,0.00858013,0,0,0,0,0,0,0,0.171188,-0.195773,-0.137582,-1.69348,0.351909,1.25874,0.401814,0.469054,0.0238538,0.540377,-0.0592251,0.215504,0.119222,0.000158816,0.134464,-27.3573,0.338148,24.5349,3.28735,1.54168,-0.0566557,-1.58421,2.03311,-2.76284,-0.794324,0.214032,0.846233,0.839344,0.751115,0.833424,-1.18824,0.819481,-0.253523,-0.0276559,
0.175074,-0.197031,-0.133985,-1.6971,0.350688,-0.306335,-0.3833,0.624674,-0.0120495,0.716329,-0.175197,0.184035,0.322424,0.00840525,0,0,0,0,0,0,0,0.186517,-0.19569,-0.11939,-1.69567,0.355367,1.26375,0.401815,0.474324,-0.00421611,0.56926,-0.0794503,0.0594478,0.196854,0.000679727,1.4516,-27.1074,1.66322,24.3127,2.98156,1.6607,-0.0566557,-1.97022,-0.647095,-2.80819,0.977267,-0.0839902,-0.368758,-0.324021,0.420559,-0.56506,-1.10966,0.532072,-0.186954,-0.0242836,
0.177597,-0.197067,-0.13109,-1.69779,0.35136,-0.305026,-0.383267,0.630692,-0.00892667,0.723824,-0.173345,0.168149,0.327039,0.00824408,0,0,0,0,0,0,0,0.186517,-0.19569,-0.11939,-1.69567,0.355367,1.26375,0.401815,0.474324,-0.00421611,0.56926,-0.0794503,0.0594478,0.196854,0.000679727,1.4516,-27.1074,1.66322,24.3127,2.98156,1.6607,-0.0566557,-1.97022,-0.647095,-2.80819,0.977267,-0.0839902,-0.368758,-0.324021,0.420559,-0.56506,-1.10966,0.532072,-0.186954,-0.0242836,
0.180137,-0.197092,-0.128172,-1.69848,0.351968,-0.303702,-0.383234,0.634968,-0.00617048,0.729343,-0.171544,0.151995,0.331073,0.00810008,0,0,0,0,0,0,0,0.186517,-0.19569,-0.11939,-1.69567,0.355367,1.26375,0.401815,0.474324,-0.00421611,0.56926,-0.0794503,0.0594478,0.196854,0.000679727,1.4516,-27.1074,1.66322,24.3127,2.98156,1.6607,-0.0566557,-2.04959,-1.59745,-2.89598,1.59314,-0.105231,-0.78968,-0.716138,0.363449,-1.06062,-1.12462,0.431375,-0.173315,-0.0217845,
0.182688,-0.197107,-0.12524,-1.69916,0.352511,-0.302363,-0.383202,0.637793,-0.00374478,0.733205,-0.169788,0.135761,0.334737,0.00796193,0,0,0,0,0,0,0,0.186517,-0.19569,-0.11939,-1.69567,0.355367,1.26375,0.401815,0.474324,-0.00421611,0.56926,-0.0794503,0.0594478,0.196854,0.000679727,1.4516,-27.1074,1.66322,24.3127,2.98156,1.6607,-0.0566557,-2.04959,-1.59745,-2.89598,1.59314,-0.105231,-0.78968,-0.716138,0.363449,-1.06062,-1.12462,0.431375,-0.173315,-0.0217845,
0.185246,-0.197113,-0.122297,-1.69983,0.352989,-0.30101,-0.383171,0.639411,-0.00161281,0.735683,-0.168061,0.119538,0.338183,0.00783508,0,0,0,0,0,0,0,0.186517,-0.19569,-0.11939,-1.69567,0.355367,1.26375,0.401815,0.474324,-0.00421611,0.56926,-0.0794503,0.0594478,0.196854,0.000679727,1.4516,-27.1074,1.66322,24.3127,2.98156,1.6607,-0.0566557,-2.54222,-0.826199,-3.16818,0.988465,-0.358348,-0.396692,-0.375316,0.339938,-0.560772,-1.20052,0.455971,-0.210793,-0.0243214,
0.187806,-0.197112,-0.119349,-1.70049,0.353403,-0.299644,-0.38314,0.640027,0.000258909,0.737008,-0.166344,0.103385,0.341515,0.00771499,0,0,0,0,0,0,0,0.186517,-0.19569,-0.11939,-1.69567,0.355367,1.26375,0.401815,0.474324,-0.00421611,0.56926,-0.0794503,0.0594478,0.196854,0.000679727,1.4516,-27.1074,1.66322,24.3127,2.98156,1.6607,-0.0566557,-2.69321,0.611871,-3.12428,-0.114713,-0.548961,0.298884,0.297926,0.323722,0.264363,-1.13353,0.478649,-0.192641,-0.0270048,
0.190365,-0.197105,-0.116399,-1.70115,0.353752,-0.298265,-0.38311,0.639808,0.00190214,0.737373,-0.164627,0.0873736,0.344799,0.00759486,0,0,0,0,0,0,0,0.201944,-0.195715,-0.101039,-1.69807,0.35605,1.27119,0.401818,0.478304,-0.00352959,0.561,-0.0776479,0.0156513,0.251072,0.000891412,1.04694,-26.8099,1.43709,24.7095,2.40753,2.05804,-0.0703886,-2.69321,0.611871,-3.12428,-0.114713,-0.548961,0.298884,0.297926,0.323722,0.264363,-1.13353,0.478649,-0.192641,-0.0270048,
0.192921,-0.197091,-0.113452,-1.7018,0.354039,-0.296873,-0.38308,0.638885,0.00334792,0.73693,-0.162906,0.0716734,0.348071,0.00748173,0,0,0,0,0,0,0,0.201944,-0.195715,-0.101039,-1.69807,0.35605,1.27119,0.401818,0.478304,-0.00352959,0.561,-0.0776479,0.0156513,0.251072,0.000891412,1.04694,-26.8099,1.43709,24.7095,2.40753,2.05804,-0.0703886,-2.10343,1.36509,-3.27896,-0.778478,-0.125916,0.631708,0.627858,0.62939,0.662327,-1.18476,0.408704,-0.130188,-0.0282469,
0.19547,-0.197073,-0.110508,-1.70245,0.354266,-0.295467,-0.383051,0.637342,0.00463203,0.735782,-0.161197,0.0567452,0.351337,0.00734361,0,0,0,0,0,0,0,0.201944,-0.195715,-0.101039,-1.69807,0.35605,1.27119,0.401818,0.478304,-0.00352959,0.561,-0.0776479,0.0156513,0.251072,0.000891412,1.04694,-26.8099,1.43709,24.7095,2.40753,2.05804,-0.0703886,-2.10343,1.36509,-3.27896,-0.778478,-0.125916,0.631708,0.627858,0.62939,0.662327,-1.18476,0.408704,-0.130188,-0.0282469,
0.198011,-0.197049,-0.107573,-1.70309,0.354441,-0.294049,-0.383022,0.635155,0.00580512,0.733974,-0.159564,0.0438459,0.354564,0.00718199,0,0,0,0,0,0,0,0.201944,-0.195715,-0.101039,-1.69807,0.35605,1.27119,0.401818,0.478304,-0.00352959,0.561,-0.0776479,0.0156513,0.251072,0.000891412,1.04694,-26.8099,1.43709,24.7095,2.40753,2.05804,-0.0703886,-2.2115,1.72795,-3.54689,-1.11286,-0.124445,0.816142,0.806616,0.712064,0.886562,-1.26262,0.381934,-0.120955,-0.0287933,
0.20054,-0.197022,-0.104646,-1.70372,0.354573,-0.292618,-0.382993,0.632427,0.00688656,0.731618,-0.157977,0.0328174,0.357726,0.00717818,0,0,0,0,0,0,0,0.201944,-0.195715,-0.101039,-1.69807,0.35605,1.27119,0.401818,0.478304,-0.00352959,0.561,-0.0776479,0.0156513,0.251072,0.000891412,1.04694,-26.8099,1.43709,24.7095,2.40753,2.05804,-0.0703886,-2.2115,1.72795,-3.54689,-1.11286,-0.124445,0.816142,0.806616,0.712064,0.886562,-1.26262,0.381934,-0.120955,-0.0287933,
0.20306,-0.196991,-0.10173,-1.70434,0.354641,-0.291175,-0.382965,0.629967,0.00775849,0.729092,-0.15601,0.017073,0.360892,0.0070985,0,0,0,0,0,0,0,0.217458,-0.19568,-0.0825634,-1.70026,0.35607,1.27932,0.401818,0.496352,0.000651688,0.599634,-0.0672508,0.0106112,0.250525,0.000266545,-0.476498,-27.0836,-0.637804,24.1382,2.48718,1.8731,-0.0630644,-1.38228,-0.641924,-3.4403,0.536936,0.43632,-0.331809,-0.318646,0.806257,-0.434995,-1.24653,0.212359,-0.0428954,-0.0246268,
0.205569,-0.196957,-0.0988239,-1.70496,0.354639,-0.289718,-0.382937,0.627222,0.00845117,0.726447,-0.154025,-0.000401671,0.364071,0.0069877,0,0,0,0,0,0,0,0.217458,-0.19568,-0.0825634,-1.70026,0.35607,1.27932,0.401818,0.496352,0.000651688,0.599634,-0.0672508,0.0106112,0.250525,0.000266545,-0.476498,-27.0836,-0.637804,24.1382,2.48718,1.8731,-0.0630644,-1.42448,-1.24322,-3.4361,0.958299,0.409373,-0.597748,-0.570627,0.74241,-0.749745,-1.23745,0.187808,-0.0378945,-0.0259514,
