PerkyPenguin/Analysis-on-Approximated-Derivatives/Code_and_Data/PaperData/Real_Robot/Scene_1/set_interval/12/trajectory.csv
Commanded Joint 0 Position,Commanded Joint 1 Position,Commanded Joint 2 Position,Commanded Joint 3 Position,Commanded Joint 4 Position,Commanded Joint 5 Position,Commanded Joint 6 Position,Commanded Joint 0 Velocity,Commanded Joint 1 Velocity,Commanded Joint 2 Velocity,Commanded Joint 3 Velocity,Commanded Joint 4 Velocity,Commanded Joint 5 Velocity,Commanded Joint 6 Velocity,Commanded Joint 0 Torque,Commanded Joint 1 Torque,Commanded Joint 2 Torque,Commanded Joint 3 Torque,Commanded Joint 4 Torque,Commanded Joint 5 Torque,Commanded Joint 6 Torque,Actual Joint 0 Position,Actual Joint 1 Position,Actual Joint 2 Position,Actual Joint 3 Position,Actual Joint 4 Position,Actual Joint 5 Position,Actual Joint 6 Position,Actual Joint 0 Velocity,Actual Joint 1 Velocity,Actual Joint 2 Velocity,Actual Joint 3 Velocity,Actual Joint 4 Velocity,Actual Joint 5 Velocity,Actual Joint 6 Velocity,Actual Joint 0 Torque,Actual Joint 1 Torque,Actual Joint 2 Torque,Actual Joint 3 Torque,Actual Joint 4 Torque,Actual Joint 5 Torque,Actual Joint 6 Torque,EE ext force 0,EE ext force 1,EE ext force 2,EE ext force 3,EE ext force 4,EE ext force 5,joint ext torque 0,joint ext torque 1,joint ext torque 2,joint ext torque 3,joint ext torque 4,joint ext torque 5,joint ext torque 6,
0.0124534,-0.203914,-0.332284,-1.66002,-0.0925191,-0.0926315,-0.383039,-0.00289889,0.00846511,-0.0130177,-0.147724,0.00557692,0.198853,-0.00211732,0,0,0,0,0,0,0,0.0124714,-0.203819,-0.332174,-1.65855,-0.092575,1.47618,0.402384,2.33555e-05,-0.00132016,6.67357e-05,-0.00141833,0.000310495,0.000511805,-4.8028e-08,-0.0202602,-25.0365,1.96077,25.8084,0.386044,3.00652,-0.0566557,-1.1644,0.141055,-0.85514,-0.01903,-0.269659,-0.0918018,9.03407e-05,0.111556,-0.173402,-0.472435,-0.150929,-0.298746,-0.0444519,
0.012437,-0.203803,-0.332348,-1.66065,-0.0925028,-0.0918067,-0.383047,-0.00409903,0.0277089,-0.0159452,-0.15709,0.00407909,0.206187,-0.00201154,0,0,0,0,0,0,0,0.0124714,-0.203819,-0.332174,-1.65855,-0.092575,1.47618,0.402384,2.33555e-05,-0.00132016,6.67357e-05,-0.00141833,0.000310495,0.000511805,-4.8028e-08,-0.0202602,-25.0365,1.96077,25.8084,0.386044,3.00652,-0.0566557,-1.1644,0.141055,-0.85514,-0.01903,-0.269659,-0.0918018,9.03407e-05,0.111556,-0.173402,-0.472435,-0.150929,-0.298746,-0.0444519,
0.012471,-0.203826,-0.332175,-1.65855,-0.0925699,-0.0946185,-0.383014,-2.73497e-05,-0.000316339,-3.07359e-05,9.39969e-05,0.000244323,-0.000401405,1.06098e-06,0,0,0,0,0,0,0,0.0124714,-0.203819,-0.332174,-1.65855,-0.092575,1.47618,0.402384,2.33555e-05,-0.00132016,6.67357e-05,-0.00141833,0.000310495,0.000511805,-4.8028e-08,-0.0202602,-25.0365,1.96077,25.8084,0.386044,3.00652,-0.0566557,-1.36314,0.0699149,-0.786052,0.0200092,-0.448753,-0.157302,-0.066772,-0.00145913,-0.239215,-0.421724,-0.15789,-0.298203,-0.0465442,
0.0124709,-0.203828,-0.332175,-1.65855,-0.0925691,-0.0946198,-0.383014,-2.23364e-05,-0.000281434,-2.72875e-05,0.000102328,0.000194448,-0.000317451,1.16084e-06,0,0,0,0,0,0,0,0.0124714,-0.203819,-0.332174,-1.65855,-0.092575,1.47618,0.402384,2.33555e-05,-0.00132016,6.67357e-05,-0.00141833,0.000310495,0.000511805,-4.8028e-08,-0.0202602,-25.0365,1.96077,25.8084,0.386044,3.00652,-0.0566557,-1.36314,0.0699149,-0.786052,0.0200092,-0.448753,-0.157302,-0.066772,-0.00145913,-0.239215,-0.421724,-0.15789,-0.298203,-0.0465442,
0.0124709,-0.203829,-0.332175,-1.65855,-0.0925685,-0.0946207,-0.383014,-1.75409e-05,-0.000256745,-2.42684e-05,0.000102567,0.00015189,-0.000245256,1.04225e-06,0,0,0,0,0,0,0,0.0124695,-0.203813,-0.332173,-1.65854,-0.0925704,1.47618,0.40238,-0.00179468,-0.00425162,0.000238483,0.000224782,0.00389852,-0.00280998,-0.000800338,0.00751081,-25.0881,1.93696,25.4077,0.373226,3.11272,-0.0227812,-1.47583,0.0828891,-0.878888,0.00881168,-0.524649,-0.171114,-0.0796279,-0.0397922,-0.25205,-0.416696,-0.165489,-0.272705,-0.0459647,
0.0124708,-0.203829,-0.332175,-1.65855,-0.092568,-0.0946215,-0.383014,-1.33777e-05,-0.000238143,-2.17963e-05,0.000100465,0.000116077,-0.00018697,8.85092e-07,0,0,0,0,0,0,0,0.0124695,-0.203813,-0.332173,-1.65854,-0.0925704,1.47618,0.40238,-0.00179468,-0.00425162,0.000238483,0.000224782,0.00389852,-0.00280998,-0.000800338,0.00751081,-25.0881,1.93696,25.4077,0.373226,3.11272,-0.0227812,-1.47583,0.0828891,-0.878888,0.00881168,-0.524649,-0.171114,-0.0796279,-0.0397922,-0.25205,-0.416696,-0.165489,-0.272705,-0.0459647,
0.0124708,-0.20383,-0.332175,-1.65855,-0.0925677,-0.0946221,-0.383014,-9.89427e-06,-0.000223734,-1.98387e-05,9.79001e-05,8.6045e-05,-0.000141356,7.43003e-07,0,0,0,0,0,0,0,0.0124695,-0.203813,-0.332173,-1.65854,-0.0925704,1.47618,0.40238,-0.00179468,-0.00425162,0.000238483,0.000224782,0.00389852,-0.00280998,-0.000800338,0.00751081,-25.0881,1.93696,25.4077,0.373226,3.11272,-0.0227812,-2.51741,0.307234,-1.55354,-0.0624913,-1.07825,-0.25205,-0.156702,-0.246629,-0.334782,-0.54812,-0.168142,-0.285663,-0.0473472,
0.0124708,-0.203831,-0.332175,-1.65854,-0.0925675,-0.0946225,-0.383014,-7.02955e-06,-0.000212472,-1.83261e-05,9.54524e-05,6.08494e-05,-0.000106397,6.28256e-07,0,0,0,0,0,0,0,0.0124695,-0.203813,-0.332173,-1.65854,-0.0925704,1.47618,0.40238,-0.00179468,-0.00425162,0.000238483,0.000224782,0.00389852,-0.00280998,-0.000800338,0.00751081,-25.0881,1.93696,25.4077,0.373226,3.11272,-0.0227812,-2.03904,0.160416,-1.73858,0.071446,-0.676114,-0.231162,-0.130566,-0.00523654,-0.336525,-0.639262,-0.16448,-0.246377,-0.0469657,
0.0124707,-0.203832,-0.332175,-1.65854,-0.0925673,-0.0946228,-0.383014,-4.69867e-06,-0.000203668,-1.71872e-05,9.32746e-05,3.96742e-05,-8.01107e-05,5.40384e-07,0,0,0,0,0,0,0,0.0124695,-0.203813,-0.332173,-1.65854,-0.0925704,1.47618,0.40238,-0.00179468,-0.00425162,0.000238483,0.000224782,0.00389852,-0.00280998,-0.000800338,0.00751081,-25.0881,1.93696,25.4077,0.373226,3.11272,-0.0227812,-2.03904,0.160416,-1.73858,0.071446,-0.676114,-0.231162,-0.130566,-0.00523654,-0.336525,-0.639262,-0.16448,-0.246377,-0.0469657,
0.0124707,-0.203833,-0.332175,-1.65854,-0.0925672,-0.094623,-0.383014,-2.8189e-06,-0.00019682,-1.6358e-05,9.13821e-05,2.1839e-05,-6.07696e-05,4.75569e-07,0,0,0,0,0,0,0,0.0124786,-0.203823,-0.332171,-1.6589,-0.0925839,1.4769,0.402383,0.000258358,-0.00850025,-0.000760092,0.00438351,0.00355179,-0.00329386,-0.000511781,-0.119442,-25.1119,1.91316,26.1813,0.471188,3.24547,-0.050247,-1.15307,-0.0991308,-1.54995,0.23539,-0.0889215,-0.190333,-0.0924697,0.286025,-0.31059,-0.646065,-0.162389,-0.209609,-0.0470124,
0.0124707,-0.203834,-0.332175,-1.65854,-0.0925672,-0.0946232,-0.383014,-1.31674e-06,-0.000191536,-1.57836e-05,8.97499e-05,6.78275e-06,-4.69357e-05,4.29592e-07,0,0,0,0,0,0,0,0.0124786,-0.203823,-0.332171,-1.6589,-0.0925839,1.4769,0.402383,0.000258358,-0.00850025,-0.000760092,0.00438351,0.00355179,-0.00329386,-0.000511781,-0.119442,-25.1119,1.91316,26.1813,0.471188,3.24547,-0.050247,-1.15307,-0.0991308,-1.54995,0.23539,-0.0889215,-0.190333,-0.0924697,0.286025,-0.31059,-0.646065,-0.162389,-0.209609,-0.0470124,
0.0124707,-0.203834,-0.332175,-1.65854,-0.0925672,-0.0946234,-0.383014,-1.28928e-07,-0.000187507,-1.54175e-05,8.83446e-05,-5.9564e-06,-3.74323e-05,3.98675e-07,0,0,0,0,0,0,0,0.0124786,-0.203823,-0.332171,-1.6589,-0.0925839,1.4769,0.402383,0.000258358,-0.00850025,-0.000760092,0.00438351,0.00355179,-0.00329386,-0.000511781,-0.119442,-25.1119,1.91316,26.1813,0.471188,3.24547,-0.050247,-1.0793,0.107929,-1.41437,0.0662014,-0.0939583,-0.0855918,0.0112342,0.257731,-0.186859,-0.59445,-0.144352,-0.20078,-0.0458281,
0.0124707,-0.203835,-0.332175,-1.65854,-0.0925673,-0.0946235,-0.383014,7.9832e-07,-0.00018448,-1.52205e-05,8.71343e-05,-1.67595e-05,-3.13062e-05,3.79645e-07,0,0,0,0,0,0,0,0.0124786,-0.203823,-0.332171,-1.6589,-0.0925839,1.4769,0.402383,0.000258358,-0.00850025,-0.000760092,0.00438351,0.00355179,-0.00329386,-0.000511781,-0.119442,-25.1119,1.91316,26.1813,0.471188,3.24547,-0.050247,-1.0793,0.107929,-1.41437,0.0662014,-0.0939583,-0.0855918,0.0112342,0.257731,-0.186859,-0.59445,-0.144352,-0.20078,-0.0458281,
0.0124707,-0.203836,-0.332175,-1.65854,-0.0925674,-0.0946236,-0.383014,1.51051e-06,-0.000182253,-1.51593e-05,8.60907e-05,-2.59417e-05,-2.77894e-05,3.69902e-07,0,0,0,0,0,0,0,0.0124786,-0.203823,-0.332171,-1.6589,-0.0925839,1.4769,0.402383,0.000258358,-0.00850025,-0.000760092,0.00438351,0.00355179,-0.00329386,-0.000511781,-0.119442,-25.1119,1.91316,26.1813,0.471188,3.24547,-0.050247,-1.39835,0.0763984,-1.35824,0.0636078,-0.344534,-0.155265,-0.0443246,0.112578,-0.263932,-0.545829,-0.171722,-0.213202,-0.0454208,
0.0124707,-0.203837,-0.332176,-1.65854,-0.0925675,-0.0946237,-0.383014,2.04602e-06,-0.000180663,-1.52064e-05,8.51899e-05,-3.37642e-05,-2.62661e-05,3.67333e-07,0,0,0,0,0,0,0,0.0124767,-0.203758,-0.332174,-1.65883,-0.0925816,1.47692,0.40238,0.00131718,0.00414196,0.00110003,-0.00506006,-0.000779432,0.000141682,-9.61659e-05,-0.0956386,-25.7863,1.96077,26.3797,0.484005,3.02666,-0.0566557,-1.64175,0.191557,-1.4546,-9.61673e-05,-0.480204,-0.147233,-0.030083,0.0579132,-0.256074,-0.57174,-0.167505,-0.235002,-0.0442567,
0.0124707,-0.203837,-0.332176,-1.65854,-0.0925677,-0.0946238,-0.383014,2.43713e-06,-0.000179576,-1.53385e-05,8.44113e-05,-4.04439e-05,-2.62447e-05,3.70231e-07,0,0,0,0,0,0,0,0.0124767,-0.203758,-0.332174,-1.65883,-0.0925816,1.47692,0.40238,0.00131718,0.00414196,0.00110003,-0.00506006,-0.000779432,0.000141682,-9.61659e-05,-0.0956386,-25.7863,1.96077,26.3797,0.484005,3.02666,-0.0566557,-1.64175,0.191557,-1.4546,-9.61673e-05,-0.480204,-0.147233,-0.030083,0.0579132,-0.256074,-0.57174,-0.167505,-0.235002,-0.0442567,
0.0124708,-0.203838,-0.332176,-1.65854,-0.0925679,-0.0946239,-0.383014,2.71092e-06,-0.000178887,-1.55361e-05,8.37379e-05,-4.61615e-05,-2.73344e-05,3.77224e-07,0,0,0,0,0,0,0,0.0124767,-0.203758,-0.332174,-1.65883,-0.0925816,1.47692,0.40238,0.00131718,0.00414196,0.00110003,-0.00506006,-0.000779432,0.000141682,-9.61659e-05,-0.0956386,-25.7863,1.96077,26.3797,0.484005,3.02666,-0.0566557,-1.83859,0.269887,-0.956419,-0.121061,-0.819342,-0.146407,-0.0328102,-0.214298,-0.23241,-0.361961,-0.151787,-0.236187,-0.0464084,
0.0124708,-0.203839,-0.332176,-1.65854,-0.0925681,-0.0946241,-0.383014,2.89005e-06,-0.000178509,-1.57832e-05,8.31553e-05,-5.10675e-05,-2.92263e-05,3.87211e-07,0,0,0,0,0,0,0,0.0124767,-0.203758,-0.332174,-1.65883,-0.0925816,1.47692,0.40238,0.00131718,0.00414196,0.00110003,-0.00506006,-0.000779432,0.000141682,-9.61659e-05,-0.0956386,-25.7863,1.96077,26.3797,0.484005,3.02666,-0.0566557,-1.83859,0.269887,-0.956419,-0.121061,-0.819342,-0.146407,-0.0328102,-0.214298,-0.23241,-0.361961,-0.151787,-0.236187,-0.0464084,
0.0124708,-0.203839,-0.332176,-1.65854,-0.0925683,-0.0946242,-0.383014,2.99344e-06,-0.000178372,-1.60666e-05,8.2651e-05,-5.52875e-05,-3.16778e-05,3.99313e-07,0,0,0,0,0,0,0,0.0124767,-0.203758,-0.332174,-1.65883,-0.0925816,1.47692,0.40238,0.00131718,0.00414196,0.00110003,-0.00506006,-0.000779432,0.000141682,-9.61659e-05,-0.0956386,-25.7863,1.96077,26.3797,0.484005,3.02666,-0.0566557,-1.37857,0.197484,-1.29373,-0.00258551,-0.308714,-0.0979428,0.0105644,0.1423,-0.200606,-0.576601,-0.148172,-0.266635,-0.0465663,
0.0124708,-0.20384,-0.332176,-1.65854,-0.0925685,-0.0946243,-0.383014,3.0368e-06,-0.000178422,-1.63752e-05,8.22148e-05,-5.89266e-05,-3.44997e-05,4.12834e-07,0,0,0,0,0,0,0,0.0124767,-0.203758,-0.332174,-1.65883,-0.0925816,1.47692,0.40238,0.00131718,0.00414196,0.00110003,-0.00506006,-0.000779432,0.000141682,-9.61659e-05,-0.0956386,-25.7863,1.96077,26.3797,0.484005,3.02666,-0.0566557,-1.51309,0.189477,-1.29448,-0.00210059,-0.405186,-0.12538,-0.0176024,0.0907031,-0.226321,-0.566031,-0.156614,-0.272681,-0.0469344,
0.0124708,-0.203841,-0.332176,-1.65854,-0.0925688,-0.0946245,-0.383014,3.03317e-06,-0.000178615,-1.67003e-05,8.18376e-05,-6.20726e-05,-3.75455e-05,4.27225e-07,0,0,0,0,0,0,0,0.0124824,-0.203779,-0.332169,-1.65876,-0.0925621,1.47694,0.402382,0.00139111,-0.00199498,0.00108158,-0.00181634,0.00909851,-0.000222337,-0.000840667,-0.147213,-25.3856,1.88936,25.6577,0.318295,2.97356,-0.0365141,-1.51309,0.189477,-1.29448,-0.00210059,-0.405186,-0.12538,-0.0176024,0.0907031,-0.226321,-0.566031,-0.156614,-0.272681,-0.0469344,
0.0124708,-0.203842,-0.332176,-1.65854,-0.092569,-0.0946246,-0.383014,2.99329e-06,-0.000178914,-1.70348e-05,8.15118e-05,-6.4799e-05,-4.07032e-05,4.42059e-07,0,0,0,0,0,0,0,0.0124824,-0.203779,-0.332169,-1.65876,-0.0925621,1.47694,0.402382,0.00139111,-0.00199498,0.00108158,-0.00181634,0.00909851,-0.000222337,-0.000840667,-0.147213,-25.3856,1.88936,25.6577,0.318295,2.97356,-0.0365141,-2.23001,0.183193,-0.676405,-0.118136,-1.20026,-0.257048,-0.14969,-0.464156,-0.329639,-0.227489,-0.182709,-0.254774,-0.0464683,
0.0124708,-0.203842,-0.332176,-1.65854,-0.0925693,-0.0946248,-0.383014,2.92598e-06,-0.000179292,-1.73728e-05,8.12311e-05,-6.71676e-05,-4.38883e-05,4.57006e-07,0,0,0,0,0,0,0,0.0124824,-0.203779,-0.332169,-1.65876,-0.0925621,1.47694,0.402382,0.00139111,-0.00199498,0.00108158,-0.00181634,0.00909851,-0.000222337,-0.000840667,-0.147213,-25.3856,1.88936,25.6577,0.318295,2.97356,-0.0365141,-2.23001,0.183193,-0.676405,-0.118136,-1.20026,-0.257048,-0.14969,-0.464156,-0.329639,-0.227489,-0.182709,-0.254774,-0.0464683,
0.0124708,-0.203843,-0.332176,-1.65854,-0.0925696,-0.094625,-0.383014,2.83847e-06,-0.000179727,-1.771e-05,8.09896e-05,-6.92302e-05,-4.70381e-05,4.71816e-07,0,0,0,0,0,0,0,0.0124824,-0.203779,-0.332169,-1.65876,-0.0925621,1.47694,0.402382,0.00139111,-0.00199498,0.00108158,-0.00181634,0.00909851,-0.000222337,-0.000840667,-0.147213,-25.3856,1.88936,25.6577,0.318295,2.97356,-0.0365141,-1.51761,0.178834,-0.978698,-0.0457372,-0.524886,-0.131198,-0.0335448,-0.0262118,-0.213654,-0.44578,-0.159073,-0.270285,-0.0489491,
0.0124708,-0.203844,-0.332176,-1.65854,-0.0925699,-0.0946252,-0.383014,2.73662e-06,-0.000180201,-1.80428e-05,8.07826e-05,-7.10306e-05,-5.01071e-05,4.86301e-07,0,0,0,0,0,0,0,0.0124824,-0.203779,-0.332169,-1.65876,-0.0925621,1.47694,0.402382,0.00139111,-0.00199498,0.00108158,-0.00181634,0.00909851,-0.000222337,-0.000840667,-0.147213,-25.3856,1.88936,25.6577,0.318295,2.97356,-0.0365141,-1.4116,0.121205,-1.06665,0.0239434,-0.411403,-0.140508,-0.0516685,0.0519267,-0.225731,-0.494509,-0.146516,-0.272636,-0.0478232,
0.0124709,-0.203844,-0.332176,-1.65854,-0.0925701,-0.0946254,-0.383014,2.62516e-06,-0.000180702,-1.83686e-05,8.06058e-05,-7.26055e-05,-5.30635e-05,5.00328e-07,0,0,0,0,0,0,0,0.0124742,-0.203819,-0.332153,-1.65875,-0.0925721,1.47694,0.40238,-0.0023739,-0.0105321,0.00293689,0.00493179,0.00179495,-0.00229658,0.000285933,0.0313145,-24.8857,1.93696,25.6577,0.397946,3.03948,-0.050247,-1.4116,0.121205,-1.06665,0.0239434,-0.411403,-0.140508,-0.0516685,0.0519267,-0.225731,-0.494509,-0.146516,-0.272636,-0.0478232,
0.0124709,-0.203845,-0.332176,-1.65854,-0.0925704,-0.0946256,-0.383014,2.50789e-06,-0.000181219,-1.86855e-05,8.04556e-05,-7.3986e-05,-5.58861e-05,5.138e-07,0,0,0,0,0,0,0,0.0124742,-0.203819,-0.332153,-1.65875,-0.0925721,1.47694,0.40238,-0.0023739,-0.0105321,0.00293689,0.00493179,0.00179495,-0.00229658,0.000285933,0.0313145,-24.8857,1.93696,25.6577,0.397946,3.03948,-0.050247,-1.16687,-0.132745,-0.931817,0.1782,-0.267492,-0.210996,-0.121353,0.113374,-0.309662,-0.472089,-0.171247,-0.26759,-0.0481915,
0.0124709,-0.203846,-0.332176,-1.65854,-0.0925707,-0.0946259,-0.383014,2.38781e-06,-0.000181743,-1.89921e-05,8.03288e-05,-7.51984e-05,-5.85616e-05,5.26657e-07,0,0,0,0,0,0,0,0.0124742,-0.203819,-0.332153,-1.65875,-0.0925721,1.47694,0.40238,-0.0023739,-0.0105321,0.00293689,0.00493179,0.00179495,-0.00229658,0.000285933,0.0313145,-24.8857,1.93696,25.6577,0.397946,3.03948,-0.050247,-1.16687,-0.132745,-0.931817,0.1782,-0.267492,-0.210996,-0.121353,0.113374,-0.309662,-0.472089,-0.171247,-0.26759,-0.0481915,
0.0124709,-0.203847,-0.332176,-1.65854,-0.092571,-0.0946261,-0.383014,2.2673e-06,-0.000182269,-1.92873e-05,8.02226e-05,-7.6265e-05,-6.10834e-05,5.38862e-07,0,0,0,0,0,0,0,0.0124742,-0.203819,-0.332153,-1.65875,-0.0925721,1.47694,0.40238,-0.0023739,-0.0105321,0.00293689,0.00493179,0.00179495,-0.00229658,0.000285933,0.0313145,-24.8857,1.93696,25.6577,0.397946,3.03948,-0.050247,-0.797812,-0.133865,-0.998269,0.195595,0.0436364,-0.144852,-0.0584662,0.301612,-0.246089,-0.544328,-0.1629,-0.268306,-0.0496805,
0.0123516,-0.203773,-0.332266,-1.65843,-0.0910723,-0.0955084,-0.383013,-0.011299,0.00329023,-0.0101153,0.00916618,0.170781,-0.101524,0.000370936,0,0,0,0,0,0,0,0.0124742,-0.203819,-0.332153,-1.65875,-0.0925721,1.47694,0.40238,-0.0023739,-0.0105321,0.00293689,0.00493179,0.00179495,-0.00229658,0.000285933,0.0313145,-24.8857,1.93696,25.6577,0.397946,3.03948,-0.050247,-0.797812,-0.133865,-0.998269,0.195595,0.0436364,-0.144852,-0.0584662,0.301612,-0.246089,-0.544328,-0.1629,-0.268306,-0.0496805,
0.0123537,-0.203863,-0.332239,-1.65859,-0.091069,-0.0947376,-0.383017,-0.0113902,-0.00323415,-0.00987673,0.0126012,0.170441,-0.0992692,0.00036885,0,0,0,0,0,0,0,0.0124742,-0.203819,-0.332153,-1.65875,-0.0925721,1.47694,0.40238,-0.0023739,-0.0105321,0.00293689,0.00493179,0.00179495,-0.00229658,0.000285933,0.0313145,-24.8857,1.93696,25.6577,0.397946,3.03948,-0.050247,-1.05451,-0.0815336,-0.744243,0.111765,-0.268643,-0.170839,-0.0867431,0.0757728,-0.255582,-0.396961,-0.161925,-0.248642,-0.0461594,
0.0123084,-0.203877,-0.332282,-1.65855,-0.0902635,-0.0952108,-0.383015,-0.0113293,-0.00361911,-0.0106381,0.0106889,0.201379,-0.118293,0.000497494,0,0,0,0,0,0,0,0.0124735,-0.20383,-0.332154,-1.65872,-0.092588,1.47695,0.402386,-0.00139636,0.00145536,-0.00069799,0.00589163,-0.00506993,0.00121822,0.00087452,0.0313145,-25.0127,1.98854,25.6061,0.538937,2.97356,-0.0767973,-0.719007,-0.191399,-0.812951,0.205812,0.0132545,-0.158065,-0.0686755,0.244876,-0.259523,-0.460521,-0.1629,-0.243317,-0.047619,
0.0122654,-0.203893,-0.332324,-1.65851,-0.0893628,-0.0957469,-0.383013,-0.0107453,-0.0040055,-0.0105916,0.00888912,0.225161,-0.134033,0.000568175,0,0,0,0,0,0,0,0.0124735,-0.20383,-0.332154,-1.65872,-0.092588,1.47695,0.402386,-0.00139636,0.00145536,-0.00069799,0.00589163,-0.00506993,0.00121822,0.00087452,0.0313145,-25.0127,1.98854,25.6061,0.538937,2.97356,-0.0767973,-0.719007,-0.191399,-0.812951,0.205812,0.0132545,-0.158065,-0.0686755,0.244876,-0.259523,-0.460521,-0.1629,-0.243317,-0.047619,
0.012226,-0.20391,-0.332364,-1.65848,-0.0883884,-0.0963353,-0.383011,-0.00986398,-0.0042899,-0.0100473,0.00732517,0.243599,-0.147093,0.000603059,0,0,0,0,0,0,0,0.0124735,-0.20383,-0.332154,-1.65872,-0.092588,1.47695,0.402386,-0.00139636,0.00145536,-0.00069799,0.00589163,-0.00506993,0.00121822,0.00087452,0.0313145,-25.0127,1.98854,25.6061,0.538937,2.97356,-0.0767973,-1.03369,-0.134414,-0.649587,0.188912,-0.291583,-0.189855,-0.0919683,0.0442218,-0.2977,-0.375824,-0.116147,-0.26048,-0.0449854,
0.0121907,-0.203928,-0.332401,-1.65846,-0.0873564,-0.0969669,-0.383008,-0.00882888,-0.00445363,-0.0092112,0.00599767,0.257996,-0.157902,0.000615355,0,0,0,0,0,0,0,0.0124735,-0.20383,-0.332154,-1.65872,-0.092588,1.47695,0.402386,-0.00139636,0.00145536,-0.00069799,0.00589163,-0.00506993,0.00121822,0.00087452,0.0313145,-25.0127,1.98854,25.6061,0.538937,2.97356,-0.0767973,-1.03369,-0.134414,-0.649587,0.188912,-0.291583,-0.189855,-0.0919683,0.0442218,-0.2977,-0.375824,-0.116147,-0.26048,-0.0449854,
0.0121597,-0.203946,-0.332434,-1.65844,-0.0862792,-0.0976341,-0.383006,-0.00773235,-0.00450654,-0.0082205,0.00487597,0.2693,-0.166802,0.000613227,0,0,0,0,0,0,0,0.0124735,-0.20383,-0.332154,-1.65872,-0.092588,1.47695,0.402386,-0.00139636,0.00145536,-0.00069799,0.00589163,-0.00506993,0.00121822,0.00087452,0.0313145,-25.0127,1.98854,25.6061,0.538937,2.97356,-0.0767973,-1.02831,-0.334006,-0.395059,0.330553,-0.409161,-0.274415,-0.165991,-0.0768274,-0.404174,-0.263732,-0.0877771,-0.241253,-0.047014,
0.0121332,-0.203964,-0.332463,-1.65842,-0.0851664,-0.0983304,-0.383003,-0.00663332,-0.00446691,-0.00716535,0.00392615,0.278209,-0.174085,0.000601974,0,0,0,0,0,0,0,0.0124274,-0.203771,-0.33219,-1.65869,-0.0915166,1.47692,0.402379,-0.00125619,0.00348328,-0.00132738,-0.00099967,0.0717414,-0.00419242,-0.000388403,0.384403,-25.6871,2.23848,26.1575,1.27136,3.02025,-0.0227812,-1.02831,-0.334006,-0.395059,0.330553,-0.409161,-0.274415,-0.165991,-0.0768274,-0.404174,-0.263732,-0.0877771,-0.241253,-0.047014,
0.0121109,-0.203982,-0.332487,-1.65841,-0.0840254,-0.0990505,-0.383001,-0.00556853,-0.00435421,-0.00610409,0.00311857,0.285242,-0.180001,0.000585135,0,0,0,0,0,0,0,0.0124274,-0.203771,-0.33219,-1.65869,-0.0915166,1.47692,0.402379,-0.00125619,0.00348328,-0.00132738,-0.00099967,0.0717414,-0.00419242,-0.000388403,0.384403,-25.6871,2.23848,26.1575,1.27136,3.02025,-0.0227812,-0.744891,-0.342746,-0.457681,0.423131,-0.184681,-0.227465,-0.111437,0.0516328,-0.382993,-0.327725,-0.0101674,-0.246908,-0.0454272,
0.0120927,-0.203998,-0.332507,-1.6584,-0.0828623,-0.0997895,-0.382999,-0.0045598,-0.00418638,-0.00507332,0.00242899,0.29079,-0.184765,0.000565101,0,0,0,0,0,0,0,0.0124274,-0.203771,-0.33219,-1.65869,-0.0915166,1.47692,0.402379,-0.00125619,0.00348328,-0.00132738,-0.00099967,0.0717414,-0.00419242,-0.000388403,0.384403,-25.6871,2.23848,26.1575,1.27136,3.02025,-0.0227812,-0.910134,-0.332118,-0.362818,0.489102,-0.363991,-0.249411,-0.117893,-0.0745771,-0.431186,-0.283933,0.0752384,-0.260336,-0.0449013,
0.0120782,-0.204014,-0.332524,-1.65839,-0.0816817,-0.100544,-0.382997,-0.00361903,-0.00397904,-0.00409495,0.001838,0.295147,-0.188562,0.000543585,0,0,0,0,0,0,0,0.0124274,-0.203771,-0.33219,-1.65869,-0.0915166,1.47692,0.402379,-0.00125619,0.00348328,-0.00132738,-0.00099967,0.0717414,-0.00419242,-0.000388403,0.384403,-25.6871,2.23848,26.1575,1.27136,3.02025,-0.0227812,-0.910134,-0.332118,-0.362818,0.489102,-0.363991,-0.249411,-0.117893,-0.0745771,-0.431186,-0.283933,0.0752384,-0.260336,-0.0449013,
0.0120672,-0.204029,-0.332536,-1.65839,-0.0804875,-0.10131,-0.382994,-0.0027515,-0.00374526,-0.00318101,0.00132998,0.29854,-0.191547,0.000521657,0,0,0,0,0,0,0,0.0124274,-0.203771,-0.33219,-1.65869,-0.0915166,1.47692,0.402379,-0.00125619,0.00348328,-0.00132738,-0.00099967,0.0717414,-0.00419242,-0.000388403,0.384403,-25.6871,2.23848,26.1575,1.27136,3.02025,-0.0227812,-0.864713,-0.279902,-0.411779,0.516295,-0.327761,-0.218347,-0.0799685,-0.0544872,-0.415511,-0.309793,0.137086,-0.263315,-0.0424593,
0.0120594,-0.204043,-0.332546,-1.65838,-0.0792829,-0.102085,-0.382992,-0.00195824,-0.00349573,-0.00233697,0.000892375,0.301145,-0.193854,0.000499941,0,0,0,0,0,0,0,0.0124274,-0.203771,-0.33219,-1.65869,-0.0915166,1.47692,0.402379,-0.00125619,0.00348328,-0.00132738,-0.00099967,0.0717414,-0.00419242,-0.000388403,0.384403,-25.6871,2.23848,26.1575,1.27136,3.02025,-0.0227812,-0.864713,-0.279902,-0.411779,0.516295,-0.327761,-0.218347,-0.0799685,-0.0544872,-0.415511,-0.309793,0.137086,-0.263315,-0.0424593,
0.0120544,-0.204056,-0.332552,-1.65838,-0.0780705,-0.102868,-0.382991,-0.0012375,-0.00323897,-0.00156405,0.000514932,0.3031,-0.195593,0.00047889,0,0,0,0,0,0,0,0.0124144,-0.203787,-0.332223,-1.65867,-0.0884242,1.47688,0.402382,0.000663313,0.00235335,-0.000416228,-0.000521028,0.0989275,0.000469398,-9.75567e-05,0.336795,-25.4094,2.28609,25.8798,1.35101,2.88018,-0.0365141,-0.823861,-0.0106641,-0.410143,0.410963,-0.299899,-0.0894646,0.0463385,-0.0398544,-0.28395,-0.341082,0.240292,-0.29279,-0.0429055,
0.0120521,-0.204068,-0.332556,-1.65838,-0.0768525,-0.103655,-0.382989,-0.000585932,-0.00298165,-0.000860706,0.00018921,0.304513,-0.196859,0.000458883,0,0,0,0,0,0,0,0.0124144,-0.203787,-0.332223,-1.65867,-0.0884242,1.47688,0.402382,0.000663313,0.00235335,-0.000416228,-0.000521028,0.0989275,0.000469398,-9.75567e-05,0.336795,-25.4094,2.28609,25.8798,1.35101,2.88018,-0.0365141,-0.823861,-0.0106641,-0.410143,0.410963,-0.299899,-0.0894646,0.0463385,-0.0398544,-0.28395,-0.341082,0.240292,-0.29279,-0.0429055,
0.0120521,-0.204079,-0.332556,-1.65838,-0.0756306,-0.104446,-0.382987,7.60832e-07,-0.00272885,-0.000223788,-9.17913e-05,0.305472,-0.19773,0.000439833,0,0,0,0,0,0,0,0.0124144,-0.203787,-0.332223,-1.65867,-0.0884242,1.47688,0.402382,0.000663313,0.00235335,-0.000416228,-0.000521028,0.0989275,0.000469398,-9.75567e-05,0.336795,-25.4094,2.28609,25.8798,1.35101,2.88018,-0.0365141,-1.05367,0.184301,-0.114401,0.28973,-0.602324,-0.0416396,0.0963705,-0.265239,-0.226981,-0.209194,0.31665,-0.302093,-0.0432319,
0.0120542,-0.204089,-0.332555,-1.65838,-0.0744064,-0.105239,-0.382985,0.000527341,-0.00248434,0.000350807,-0.000333971,0.306047,-0.198272,0.000422045,0,0,0,0,0,0,0,0.0124144,-0.203787,-0.332223,-1.65867,-0.0884242,1.47688,0.402382,0.000663313,0.00235335,-0.000416228,-0.000521028,0.0989275,0.000469398,-9.75567e-05,0.336795,-25.4094,2.28609,25.8798,1.35101,2.88018,-0.0365141,-0.600971,0.20088,-0.29312,0.379728,-0.174744,0.0470184,0.181132,0.0106694,-0.156811,-0.364651,0.388066,-0.334474,-0.0440212,
0.0120582,-0.204098,-0.332552,-1.65839,-0.0731812,-0.106033,-0.382984,0.000998679,-0.00225081,0.00086763,-0.000542295,0.306297,-0.198539,0.000405329,0,0,0,0,0,0,0,0.0124144,-0.203787,-0.332223,-1.65867,-0.0884242,1.47688,0.402382,0.000663313,0.00235335,-0.000416228,-0.000521028,0.0989275,0.000469398,-9.75567e-05,0.336795,-25.4094,2.28609,25.8798,1.35101,2.88018,-0.0365141,-0.600971,0.20088,-0.29312,0.379728,-0.174744,0.0470184,0.181132,0.0106694,-0.156811,-0.364651,0.388066,-0.334474,-0.0440212,
0.0120639,-0.204106,-0.332546,-1.65839,-0.0719562,-0.106828,-0.382982,0.00141959,-0.00203008,0.00133138,-0.000721006,0.306268,-0.198578,0.000389794,0,0,0,0,0,0,0,0.0124367,-0.203819,-0.332199,-1.65865,-0.0836432,1.4766,0.402385,0.000749806,-0.00489131,0.000343666,0.00159205,0.115642,-0.00908433,0.000928072,0.106693,-25.0365,2.03615,25.6815,0.966488,2.92687,-0.0703886,-0.871986,0.121536,-0.195916,0.472678,-0.382969,-0.0395301,0.0824905,-0.107304,-0.244518,-0.345732,0.419437,-0.385754,-0.0433371,
0.012071,-0.204113,-0.332539,-1.65839,-0.0707322,-0.107621,-0.382981,0.00179469,-0.0018233,0.00174667,-0.000873756,0.306,-0.198426,0.000375354,0,0,0,0,0,0,0,0.0124367,-0.203819,-0.332199,-1.65865,-0.0836432,1.4766,0.402385,0.000749806,-0.00489131,0.000343666,0.00159205,0.115642,-0.00908433,0.000928072,0.106693,-25.0365,2.03615,25.6815,0.966488,2.92687,-0.0703886,-0.871986,0.121536,-0.195916,0.472678,-0.382969,-0.0395301,0.0824905,-0.107304,-0.244518,-0.345732,0.419437,-0.385754,-0.0433371,
0.0120796,-0.20412,-0.332531,-1.6584,-0.06951,-0.108414,-0.382979,0.00212835,-0.00163105,0.00211797,-0.00100368,0.305527,-0.198114,0.000361935,0,0,0,0,0,0,0,0.0124367,-0.203819,-0.332199,-1.65865,-0.0836432,1.4766,0.402385,0.000749806,-0.00489131,0.000343666,0.00159205,0.115642,-0.00908433,0.000928072,0.106693,-25.0365,2.03615,25.6815,0.966488,2.92687,-0.0703886,-0.860796,0.155411,-0.138735,0.457145,-0.374238,-0.0227215,0.085642,-0.101328,-0.215632,-0.351368,0.434122,-0.411408,-0.0450058,
0.0120893,-0.204126,-0.332521,-1.6584,-0.0682905,-0.109204,-0.382978,0.00242459,-0.0014535,0.00244947,-0.00111349,0.304876,-0.19767,0.00034947,0,0,0,0,0,0,0,0.0124367,-0.203819,-0.332199,-1.65865,-0.0836432,1.4766,0.402385,0.000749806,-0.00489131,0.000343666,0.00159205,0.115642,-0.00908433,0.000928072,0.106693,-25.0365,2.03615,25.6815,0.966488,2.92687,-0.0703886,-0.860796,0.155411,-0.138735,0.457145,-0.374238,-0.0227215,0.085642,-0.101328,-0.215632,-0.351368,0.434122,-0.411408,-0.0450058,
0.0121,-0.204131,-0.33251,-1.65841,-0.0670743,-0.109993,-0.382976,0.00268717,-0.00129051,0.00274504,-0.00120556,0.304071,-0.197115,0.000337888,0,0,0,0,0,0,0,0.0124367,-0.203819,-0.332199,-1.65865,-0.0836432,1.4766,0.402385,0.000749806,-0.00489131,0.000343666,0.00159205,0.115642,-0.00908433,0.000928072,0.106693,-25.0365,2.03615,25.6815,0.966488,2.92687,-0.0703886,-0.49369,0.102605,-0.233316,0.549016,-0.0219023,0.015735,0.10966,0.128815,-0.181441,-0.474057,0.461799,-0.452406,-0.0439434,
0.0121117,-0.204135,-0.332498,-1.65841,-0.0658617,-0.110779,-0.382975,0.00291948,-0.00114171,0.00300829,-0.00128197,0.303132,-0.196468,0.000327112,0,0,0,0,0,0,0,0.0124367,-0.203819,-0.332199,-1.65865,-0.0836432,1.4766,0.402385,0.000749806,-0.00489131,0.000343666,0.00159205,0.115642,-0.00908433,0.000928072,0.106693,-25.0365,2.03615,25.6815,0.966488,2.92687,-0.0703886,-0.733415,-0.261233,-0.0434225,0.773462,-0.244988,-0.194457,-0.11444,-0.0147967,-0.396098,-0.398237,0.4203,-0.47452,-0.0420018,
0.0121242,-0.204139,-0.332485,-1.65842,-0.0646534,-0.111562,-0.382974,0.00312463,-0.00100656,0.0032425,-0.00134453,0.302077,-0.195743,0.000317082,0,0,0,0,0,0,0,0.0124681,-0.203834,-0.332158,-1.65864,-0.0795584,1.47649,0.402379,-1.25233e-05,-0.00268116,0.000227252,0.00225694,0.13536,-0.00264186,-0.00097931,-0.119442,-24.9135,1.86159,25.6577,0.984799,2.80144,-0.0227812,-0.733415,-0.261233,-0.0434225,0.773462,-0.244988,-0.194457,-0.11444,-0.0147967,-0.396098,-0.398237,0.4203,-0.47452,-0.0420018,
0.0121374,-0.204143,-0.332471,-1.65842,-0.0634497,-0.112342,-0.382973,0.00330544,-0.000884394,0.00345065,-0.00139484,0.300921,-0.194954,0.000307728,0,0,0,0,0,0,0,0.0124681,-0.203834,-0.332158,-1.65864,-0.0795584,1.47649,0.402379,-1.25233e-05,-0.00268116,0.000227252,0.00225694,0.13536,-0.00264186,-0.00097931,-0.119442,-24.9135,1.86159,25.6577,0.984799,2.80144,-0.0227812,-0.474931,-0.222945,-0.0711207,0.73425,-0.0213394,-0.132542,-0.0677338,0.124157,-0.317623,-0.447809,0.407691,-0.481084,-0.0427817,
0.0121513,-0.204146,-0.332457,-1.65843,-0.062251,-0.113118,-0.382971,0.00346445,-0.000774495,0.00363544,-0.0014343,0.299675,-0.19411,0.000298984,0,0,0,0,0,0,0,0.0124681,-0.203834,-0.332158,-1.65864,-0.0795584,1.47649,0.402379,-1.25233e-05,-0.00268116,0.000227252,0.00225694,0.13536,-0.00264186,-0.00097931,-0.119442,-24.9135,1.86159,25.6577,0.984799,2.80144,-0.0227812,-0.474931,-0.222945,-0.0711207,0.73425,-0.0213394,-0.132542,-0.0677338,0.124157,-0.317623,-0.447809,0.407691,-0.481084,-0.0427817,
0.0121825,-0.203758,-0.332351,-1.65826,-0.0880013,-0.0976606,-0.382987,-0.0265295,0.0024644,-0.021619,0.038468,0.522467,-0.425838,0.00329778,0,0,0,0,0,0,0,0.0124681,-0.203834,-0.332158,-1.65864,-0.0795584,1.47649,0.402379,-1.25233e-05,-0.00268116,0.000227252,0.00225694,0.13536,-0.00264186,-0.00097931,-0.119442,-24.9135,1.86159,25.6577,0.984799,2.80144,-0.0227812,-0.473655,-0.182671,-0.0795543,0.699595,0.00344832,-0.115709,-0.0615689,0.149526,-0.28796,-0.468983,0.399149,-0.499104,-0.0425314,
0.0122303,-0.203721,-0.332318,-1.65822,-0.073995,-0.0979173,-0.382991,-0.0213088,0.00630087,-0.0171713,0.033328,0.586416,-0.40528,0.00310911,0,0,0,0,0,0,0,0.0124681,-0.203834,-0.332158,-1.65864,-0.0795584,1.47649,0.402379,-1.25233e-05,-0.00268116,0.000227252,0.00225694,0.13536,-0.00264186,-0.00097931,-0.119442,-24.9135,1.86159,25.6577,0.984799,2.80144,-0.0227812,-0.473655,-0.182671,-0.0795543,0.699595,0.00344832,-0.115709,-0.0615689,0.149526,-0.28796,-0.468983,0.399149,-0.499104,-0.0425314,
0.0121516,-0.203714,-0.332387,-1.65811,-0.0712996,-0.099832,-0.382977,-0.0196735,0.00187222,-0.0170894,0.0268252,0.673844,-0.478693,0.00338761,0,0,0,0,0,0,0,0.0124669,-0.20379,-0.332157,-1.65866,-0.0748267,1.47638,0.402382,0.000113741,0.00180617,0.000544145,-0.0019078,0.14788,-0.00016178,0.000345804,-0.0440639,-25.4848,1.93696,26.0306,1.27136,2.73461,-0.0429228,-0.785968,-0.194108,0.0847264,0.656504,-0.293815,-0.173809,-0.120424,-0.0431123,-0.334212,-0.366469,0.370612,-0.496542,-0.0446606,
0.0120835,-0.203721,-0.332449,-1.65803,-0.068327,-0.101979,-0.382963,-0.0170313,-0.00176039,-0.0154608,0.0205755,0.743145,-0.536811,0.00353197,0,0,0,0,0,0,0,0.0124669,-0.20379,-0.332157,-1.65866,-0.0748267,1.47638,0.402382,0.000113741,0.00180617,0.000544145,-0.0019078,0.14788,-0.00016178,0.000345804,-0.0440639,-25.4848,1.93696,26.0306,1.27136,2.73461,-0.0429228,-0.469532,-0.199228,0.113647,0.659605,-0.061124,-0.120394,-0.0717087,0.0844936,-0.278494,-0.393122,0.376705,-0.493982,-0.044095,
0.012028,-0.203739,-0.3325,-1.65797,-0.0651325,-0.104311,-0.382949,-0.0138738,-0.00444243,-0.0129248,0.0150949,0.798642,-0.582882,0.00359679,0,0,0,0,0,0,0,0.0124669,-0.20379,-0.332157,-1.65866,-0.0748267,1.47638,0.402382,0.000113741,0.00180617,0.000544145,-0.0019078,0.14788,-0.00016178,0.000345804,-0.0440639,-25.4848,1.93696,26.0306,1.27136,2.73461,-0.0429228,-0.469532,-0.199228,0.113647,0.659605,-0.061124,-0.120394,-0.0717087,0.0844936,-0.278494,-0.393122,0.376705,-0.493982,-0.044095,
0.011986,-0.203764,-0.33254,-1.65793,-0.0617585,-0.106788,-0.382934,-0.0105005,-0.00626637,-0.00989932,0.0104296,0.843482,-0.619211,0.0036111,0,0,0,0,0,0,0,0.0124669,-0.20379,-0.332157,-1.65866,-0.0748267,1.47638,0.402382,0.000113741,0.00180617,0.000544145,-0.0019078,0.14788,-0.00016178,0.000345804,-0.0440639,-25.4848,1.93696,26.0306,1.27136,2.73461,-0.0429228,-0.465187,-0.627874,0.692695,0.883761,-0.267477,-0.307421,-0.255414,-0.124523,-0.480481,-0.176586,0.349787,-0.488319,-0.0472011,
0.0119576,-0.203793,-0.332567,-1.6579,-0.0582385,-0.109378,-0.38292,-0.00709846,-0.00738415,-0.0066586,0.0064945,0.879999,-0.64758,0.0035923,0,0,0,0,0,0,0,0.0124669,-0.20379,-0.332157,-1.65866,-0.0748267,1.47638,0.402382,0.000113741,0.00180617,0.000544145,-0.0019078,0.14788,-0.00016178,0.000345804,-0.0440639,-25.4848,1.93696,26.0306,1.27136,2.73461,-0.0429228,-0.465187,-0.627874,0.692695,0.883761,-0.267477,-0.307421,-0.255414,-0.124523,-0.480481,-0.176586,0.349787,-0.488319,-0.0472011,
0.0119425,-0.203825,-0.33258,-1.65789,-0.0545987,-0.112056,-0.382906,-0.00378424,-0.00794639,-0.00338098,0.00318153,0.909946,-0.669428,0.0035522,0,0,0,0,0,0,0,0.0123262,-0.203737,-0.332303,-1.65851,-0.0658544,1.4748,0.402383,-0.010416,0.00458163,-0.00560979,0.00454313,0.377029,-0.0784684,0.000111299,1.07074,-25.9371,2.71455,25.983,2.37091,2.05804,-0.050247,-0.325904,-0.87982,1.07195,1.08242,-0.281857,-0.389107,-0.314695,-0.188181,-0.602389,-0.0884019,0.395115,-0.521637,-0.0480668,
0.0119399,-0.203857,-0.332581,-1.65789,-0.0508601,-0.114799,-0.382892,-0.000628351,-0.00808464,-0.000179951,0.000390713,0.934653,-0.685933,0.00349832,0,0,0,0,0,0,0,0.0123262,-0.203737,-0.332303,-1.65851,-0.0658544,1.4748,0.402383,-0.010416,0.00458163,-0.00560979,0.00454313,0.377029,-0.0784684,0.000111299,1.07074,-25.9371,2.71455,25.983,2.37091,2.05804,-0.050247,-0.159256,-0.910129,0.85639,1.28312,0.0032997,-0.364187,-0.261471,0.0372811,-0.640734,-0.307586,0.503679,-0.639814,-0.0489671,
0.0119493,-0.203889,-0.332569,-1.6579,-0.0470396,-0.117592,-0.382878,0.00232926,-0.00790811,0.00287491,-0.00196287,0.95514,-0.698063,0.00343578,0,0,0,0,0,0,0,0.0123262,-0.203737,-0.332303,-1.65851,-0.0658544,1.4748,0.402383,-0.010416,0.00458163,-0.00560979,0.00454313,0.377029,-0.0784684,0.000111299,1.07074,-25.9371,2.71455,25.983,2.37091,2.05804,-0.050247,-0.159256,-0.910129,0.85639,1.28312,0.0032997,-0.364187,-0.261471,0.0372811,-0.640734,-0.307586,0.503679,-0.639814,-0.0489671,
0.0119695,-0.203919,-0.332546,-1.65791,-0.0431508,-0.120418,-0.382864,0.00506902,-0.00750509,0.00574367,-0.00394932,0.972198,-0.706615,0.0033684,0,0,0,0,0,0,0,0.0123262,-0.203737,-0.332303,-1.65851,-0.0658544,1.4748,0.402383,-0.010416,0.00458163,-0.00560979,0.00454313,0.377029,-0.0784684,0.000111299,1.07074,-25.9371,2.71455,25.983,2.37091,2.05804,-0.050247,-0.315779,-0.412007,1.16927,0.968953,-0.196824,-0.16166,-0.0345461,-0.110565,-0.432665,-0.239318,0.606862,-0.712783,-0.0469372,
0.0119999,-0.203947,-0.332513,-1.65794,-0.039205,-0.123267,-0.382851,0.00758477,-0.00694573,0.00840635,-0.00562628,0.986442,-0.712244,0.00329807,0,0,0,0,0,0,0,0.0123262,-0.203737,-0.332303,-1.65851,-0.0658544,1.4748,0.402383,-0.010416,0.00458163,-0.00560979,0.00454313,0.377029,-0.0784684,0.000111299,1.07074,-25.9371,2.71455,25.983,2.37091,2.05804,-0.050247,-0.315779,-0.412007,1.16927,0.968953,-0.196824,-0.16166,-0.0345461,-0.110565,-0.432665,-0.239318,0.606862,-0.712783,-0.0469372,
0.0120394,-0.203972,-0.332469,-1.65796,-0.0352116,-0.126129,-0.382838,0.00987904,-0.00628505,0.0108563,-0.00704122,0.99836,-0.715488,0.00322725,0,0,0,0,0,0,0,0.0123262,-0.203737,-0.332303,-1.65851,-0.0658544,1.4748,0.402383,-0.010416,0.00458163,-0.00560979,0.00454313,0.377029,-0.0784684,0.000111299,1.07074,-25.9371,2.71455,25.983,2.37091,2.05804,-0.050247,-0.26739,-0.148115,1.2051,0.854034,-0.136735,-0.0275533,0.110247,-0.0669381,-0.30493,-0.293647,0.687884,-0.777047,-0.0472465,
0.0120872,-0.203994,-0.332417,-1.658,-0.0311782,-0.128996,-0.382826,0.0119598,-0.00556547,0.0130954,-0.00823319,1.00834,-0.716788,0.00315701,0,0,0,0,0,0,0,0.0119867,-0.203766,-0.332629,-1.65833,-0.0504455,1.47095,0.402383,-0.015112,0.000419042,-0.0135557,0.000587599,0.569817,-0.157633,0.000667577,1.32465,-25.5126,3.08748,25.7092,2.23632,1.9262,-0.050247,-0.507285,-0.0423368,1.53674,0.832956,-0.415558,-0.0151102,0.136173,-0.266908,-0.306583,-0.201982,0.782018,-0.840133,-0.0464061,
0.0121426,-0.204013,-0.332356,-1.65803,-0.0271114,-0.131862,-0.382813,0.0138384,-0.00481936,0.015131,-0.00923471,1.0167,-0.716505,0.00308794,0,0,0,0,0,0,0,0.0119867,-0.203766,-0.332629,-1.65833,-0.0504455,1.47095,0.402383,-0.015112,0.000419042,-0.0135557,0.000587599,0.569817,-0.157633,0.000667577,1.32465,-25.5126,3.08748,25.7092,2.23632,1.9262,-0.050247,-0.507285,-0.0423368,1.53674,0.832956,-0.415558,-0.0151102,0.136173,-0.266908,-0.306583,-0.201982,0.782018,-0.840133,-0.0464061,
0.0122047,-0.20403,-0.332289,-1.65807,-0.0230167,-0.134722,-0.382801,0.0155279,-0.00407089,0.0169736,-0.0100728,1.02368,-0.714937,0.00302056,0,0,0,0,0,0,0,0.0119867,-0.203766,-0.332629,-1.65833,-0.0504455,1.47095,0.402383,-0.015112,0.000419042,-0.0135557,0.000587599,0.569817,-0.157633,0.000667577,1.32465,-25.5126,3.08748,25.7092,2.23632,1.9262,-0.050247,-0.579445,0.104931,1.47143,0.845201,-0.405132,0.0453513,0.21295,-0.2342,-0.273479,-0.293543,0.878088,-0.918058,-0.0443143,
0.0122729,-0.204043,-0.332214,-1.65812,-0.0188988,-0.137571,-0.382789,0.0170421,-0.00333776,0.0186358,-0.0107702,1.02949,-0.712329,0.00295492,0,0,0,0,0,0,0,0.0119867,-0.203766,-0.332629,-1.65833,-0.0504455,1.47095,0.402383,-0.015112,0.000419042,-0.0135557,0.000587599,0.569817,-0.157633,0.000667577,1.32465,-25.5126,3.08748,25.7092,2.23632,1.9262,-0.050247,-0.579445,0.104931,1.47143,0.845201,-0.405132,0.0453513,0.21295,-0.2342,-0.273479,-0.293543,0.878088,-0.918058,-0.0443143,
0.0123464,-0.204054,-0.332133,-1.65816,-0.0147615,-0.140407,-0.382778,0.0183952,-0.0026325,0.0201307,-0.0113457,1.03431,-0.708882,0.00289174,0,0,0,0,0,0,0,0.0119867,-0.203766,-0.332629,-1.65833,-0.0504455,1.47095,0.402383,-0.015112,0.000419042,-0.0135557,0.000587599,0.569817,-0.157633,0.000667577,1.32465,-25.5126,3.08748,25.7092,2.23632,1.9262,-0.050247,-0.190564,0.408825,1.37084,0.724115,-0.0277771,0.257953,0.433494,0.0134089,-0.0684486,-0.444329,0.964754,-0.986223,-0.043294,
0.0124248,-0.204061,-0.332048,-1.65821,-0.0106085,-0.143226,-0.382767,0.0196006,-0.00196361,0.0214716,-0.0118151,1.03827,-0.704763,0.00283066,0,0,0,0,0,0,0,0.0115215,-0.203827,-0.332927,-1.65821,-0.0312493,1.46462,0.40238,-0.0147014,-0.00172821,-0.00658497,-0.000297508,0.628897,-0.219584,-0.00089204,1.40003,-24.8857,3.06367,25.5069,2.04132,2.03881,-0.0227812,-0.190564,0.408825,1.37084,0.724115,-0.0277771,0.257953,0.433494,0.0134089,-0.0684486,-0.444329,0.964754,-0.986223,-0.043294,
0.0125075,-0.204067,-0.331957,-1.65826,-0.00644248,-0.146026,-0.382755,0.0206716,-0.00133653,0.0226715,-0.012192,1.0415,-0.700111,0.002772,0,0,0,0,0,0,0,0.0115215,-0.203827,-0.332927,-1.65821,-0.0312493,1.46462,0.40238,-0.0147014,-0.00172821,-0.00658497,-0.000297508,0.628897,-0.219584,-0.00089204,1.40003,-24.8857,3.06367,25.5069,2.04132,2.03881,-0.0227812,-0.356747,0.502109,1.71009,0.628465,-0.276463,0.276414,0.463016,-0.179916,-0.0463495,-0.310115,0.988661,-0.999951,-0.0412633,
0.012594,-0.20407,-0.331862,-1.65831,-0.00226614,-0.148806,-0.382745,0.0216203,-0.000754399,0.0237428,-0.012488,1.04408,-0.69504,0.00271589,0,0,0,0,0,0,0,0.0115215,-0.203827,-0.332927,-1.65821,-0.0312493,1.46462,0.40238,-0.0147014,-0.00172821,-0.00658497,-0.000297508,0.628897,-0.219584,-0.00089204,1.40003,-24.8857,3.06367,25.5069,2.04132,2.03881,-0.0227812,0.135915,0.458614,1.58538,0.711158,0.168496,0.351543,0.547048,0.0997018,0.00530703,-0.443096,1.01246,-1.02415,-0.04101,
0.0126838,-0.204071,-0.331763,-1.65836,0.00191834,-0.151565,-0.382734,0.0224583,-0.000218783,0.0246971,-0.0127138,1.04612,-0.689642,0.00266156,0,0,0,0,0,0,0,0.0115215,-0.203827,-0.332927,-1.65821,-0.0312493,1.46462,0.40238,-0.0147014,-0.00172821,-0.00658497,-0.000297508,0.628897,-0.219584,-0.00089204,1.40003,-24.8857,3.06367,25.5069,2.04132,2.03881,-0.0227812,0.135915,0.458614,1.58538,0.711158,0.168496,0.351543,0.547048,0.0997018,0.00530703,-0.443096,1.01246,-1.02415,-0.04101,
0.0127766,-0.20407,-0.331661,-1.65841,0.00610905,-0.154301,-0.382724,0.0231958,0.000269989,0.0255453,-0.0128792,1.04768,-0.683989,0.00260918,0,0,0,0,0,0,0,0.0115215,-0.203827,-0.332927,-1.65821,-0.0312493,1.46462,0.40238,-0.0147014,-0.00172821,-0.00658497,-0.000297508,0.628897,-0.219584,-0.00089204,1.40003,-24.8857,3.06367,25.5069,2.04132,2.03881,-0.0227812,0.271377,0.166889,1.35927,0.963029,0.422126,0.252757,0.449591,0.306579,-0.124157,-0.606734,0.98109,-1.08229,-0.041115,
0.012872,-0.204067,-0.331556,-1.65846,0.0103043,-0.157014,-0.382713,0.0238427,0.000712611,0.0262975,-0.0129928,1.04881,-0.678135,0.00255905,0,0,0,0,0,0,0,0.0115215,-0.203827,-0.332927,-1.65821,-0.0312493,1.46462,0.40238,-0.0147014,-0.00172821,-0.00658497,-0.000297508,0.628897,-0.219584,-0.00089204,1.40003,-24.8857,3.06367,25.5069,2.04132,2.03881,-0.0227812,0.271377,0.166889,1.35927,0.963029,0.422126,0.252757,0.449591,0.306579,-0.124157,-0.606734,0.98109,-1.08229,-0.041115,
0.0129696,-0.204062,-0.331448,-1.65851,0.0145026,-0.159702,-0.382703,0.0244078,0.00111062,0.0269627,-0.0130621,1.04958,-0.672125,0.00251028,0,0,0,0,0,0,0,0.0111382,-0.203876,-0.333003,-1.65808,-0.0105657,1.45656,0.402382,-0.0115613,-0.00364246,-0.00315948,0.00537312,0.705667,-0.28272,-0.000847088,1.4278,-24.5366,3.0359,25.1855,1.75384,2.07177,-0.0365141,-0.134371,-0.100512,1.40564,1.06236,0.122075,0.0676198,0.26605,0.141527,-0.308522,-0.541569,0.870878,-1.08031,-0.0398507,
0.0130692,-0.204056,-0.331338,-1.65857,0.0187028,-0.162366,-0.382693,0.0248992,0.00146617,0.0275495,-0.0130932,1.05004,-0.665995,0.00246345,0,0,0,0,0,0,0,0.0111382,-0.203876,-0.333003,-1.65808,-0.0105657,1.45656,0.402382,-0.0115613,-0.00364246,-0.00315948,0.00537312,0.705667,-0.28272,-0.000847088,1.4278,-24.5366,3.0359,25.1855,1.75384,2.07177,-0.0365141,-0.134371,-0.100512,1.40564,1.06236,0.122075,0.0676198,0.26605,0.141527,-0.308522,-0.541569,0.870878,-1.08031,-0.0398507,
0.0131272,-0.20398,-0.331412,-1.65852,-0.0756461,-0.0997977,-0.382874,0.0778276,-0.0186193,0.0889076,0.00298187,0.414231,-0.63305,0.0120391,0,0,0,0,0,0,0,0.0111382,-0.203876,-0.333003,-1.65808,-0.0105657,1.45656,0.402382,-0.0115613,-0.00364246,-0.00315948,0.00537312,0.705667,-0.28272,-0.000847088,1.4278,-24.5366,3.0359,25.1855,1.75384,2.07177,-0.0365141,-0.151346,-0.15599,1.38056,1.00044,0.115607,0.0433468,0.231902,0.142283,-0.307761,-0.5136,0.770561,-1.04361,-0.0392267,
0.0119467,-0.204129,-0.332165,-1.65813,-0.00240188,-0.121762,-0.382859,0.0937403,-0.0264347,0.101956,-0.0115545,0.68895,-0.765053,0.0125992,0,0,0,0,0,0,0,0.0111382,-0.203876,-0.333003,-1.65808,-0.0105657,1.45656,0.402382,-0.0115613,-0.00364246,-0.00315948,0.00537312,0.705667,-0.28272,-0.000847088,1.4278,-24.5366,3.0359,25.1855,1.75384,2.07177,-0.0365141,-0.49114,-0.254169,1.58696,0.898172,-0.249908,-0.0593334,0.11059,-0.107338,-0.3649,-0.32555,0.640807,-0.972518,-0.0382624,
0.0124003,-0.204242,-0.331663,-1.6582,0.000444684,-0.12524,-0.382812,0.113393,-0.0282279,0.125568,-0.0191581,0.711641,-0.869322,0.0119607,0,0,0,0,0,0,0,0.0111382,-0.203876,-0.333003,-1.65808,-0.0105657,1.45656,0.402382,-0.0115613,-0.00364246,-0.00315948,0.00537312,0.705667,-0.28272,-0.000847088,1.4278,-24.5366,3.0359,25.1855,1.75384,2.07177,-0.0365141,-0.49114,-0.254169,1.58696,0.898172,-0.249908,-0.0593334,0.11059,-0.107338,-0.3649,-0.32555,0.640807,-0.972518,-0.0382624,
0.0129185,-0.204355,-0.331084,-1.65831,0.00340053,-0.129059,-0.382766,0.129558,-0.0281929,0.14465,-0.0263571,0.738962,-0.954763,0.0114334,0,0,0,0,0,0,0,0.0110397,-0.203835,-0.332994,-1.6581,0.0146403,1.44632,0.40238,-0.00324628,0.000134199,-0.000208103,-0.000375944,0.804312,-0.339957,-0.00090611,0.967594,-25.211,2.88911,25.733,1.45446,2.40319,-0.0227812,-0.0116405,-0.467997,1.12291,1.03105,0.271418,-0.0787429,0.0774919,0.254527,-0.385692,-0.506691,0.551224,-0.917707,-0.0323247,
0.0134905,-0.204463,-0.330443,-1.65844,0.00647294,-0.133158,-0.382722,0.143,-0.0268584,0.160267,-0.0329945,0.768102,-1.02495,0.0109891,0,0,0,0,0,0,0,0.0110397,-0.203835,-0.332994,-1.6581,0.0146403,1.44632,0.40238,-0.00324628,0.000134199,-0.000208103,-0.000375944,0.804312,-0.339957,-0.00090611,0.967594,-25.211,2.88911,25.733,1.45446,2.40319,-0.0227812,-0.0116405,-0.467997,1.12291,1.03105,0.271418,-0.0787429,0.0774919,0.254527,-0.385692,-0.506691,0.551224,-0.917707,-0.0323247,
0.0141076,-0.204561,-0.32975,-1.6586,0.009662,-0.137489,-0.382679,0.154283,-0.0246355,0.173194,-0.0390136,0.797264,-1.0827,0.0106067,0,0,0,0,0,0,0,0.0110397,-0.203835,-0.332994,-1.6581,0.0146403,1.44632,0.40238,-0.00324628,0.000134199,-0.000208103,-0.000375944,0.804312,-0.339957,-0.00090611,0.967594,-25.211,2.88911,25.733,1.45446,2.40319,-0.0227812,-0.843808,-0.487706,1.28829,0.914282,-0.421711,-0.241102,-0.0980118,-0.159321,-0.507906,-0.322487,0.444176,-0.897282,-0.0222641,
0.0147629,-0.204648,-0.329014,-1.65878,0.0129634,-0.14201,-0.382638,0.163826,-0.0218355,0.184,-0.0444064,0.825345,-1.13027,0.0102694,0,0,0,0,0,0,0,0.0110397,-0.203835,-0.332994,-1.6581,0.0146403,1.44632,0.40238,-0.00324628,0.000134199,-0.000208103,-0.000375944,0.804312,-0.339957,-0.00090611,0.967594,-25.211,2.88911,25.733,1.45446,2.40319,-0.0227812,-0.843808,-0.487706,1.28829,0.914282,-0.421711,-0.241102,-0.0980118,-0.159321,-0.507906,-0.322487,0.444176,-0.897282,-0.0222641,
0.0154507,-0.204723,-0.328242,-1.65897,0.0163702,-0.146688,-0.382598,0.171947,-0.0186914,0.193106,-0.0491921,0.851704,-1.16948,0.0099665,0,0,0,0,0,0,0,0.0110397,-0.203835,-0.332994,-1.6581,0.0146403,1.44632,0.40238,-0.00324628,0.000134199,-0.000208103,-0.000375944,0.804312,-0.339957,-0.00090611,0.967594,-25.211,2.88911,25.733,1.45446,2.40319,-0.0227812,-0.444637,-1.26018,1.10527,1.1969,-0.0415381,-0.522509,-0.412196,0.0898406,-0.761719,-0.341687,0.115523,-0.786609,-0.0199122,
0.0161663,-0.204785,-0.327438,-1.65919,0.0198742,-0.151495,-0.38256,0.178885,-0.0153753,0.200831,-0.0534039,0.876011,-1.2018,0.00968853,0,0,0,0,0,0,0,0.0110397,-0.203835,-0.332994,-1.6581,0.0146403,1.44632,0.40238,-0.00324628,0.000134199,-0.000208103,-0.000375944,0.804312,-0.339957,-0.00090611,0.967594,-25.211,2.88911,25.733,1.45446,2.40319,-0.0227812,-0.46462,-1.66386,1.14112,1.30148,-0.064548,-0.707777,-0.618976,0.075108,-0.919038,-0.271584,-0.0794347,-0.725711,-0.0172965,
0.0169056,-0.204833,-0.326609,-1.65941,0.0234668,-0.156409,-0.382522,0.184829,-0.0120125,0.207412,-0.0570818,0.898137,-1.22841,0.00942936,0,0,0,0,0,0,0,0.0122483,-0.203955,-0.331453,-1.65809,0.0396269,1.43077,0.402384,0.0511341,-0.0059608,0.0546802,0.00125237,0.5694,-0.443187,-5.38565e-05,1.70551,-24.8857,4.06343,24.9594,1.57074,1.58745,-0.0429228,-0.46462,-1.66386,1.14112,1.30148,-0.064548,-0.707777,-0.618976,0.075108,-0.919038,-0.271584,-0.0794347,-0.725711,-0.0172965,
0.0176653,-0.20487,-0.325756,-1.65966,0.0271393,-0.161373,-0.382485,0.189938,-0.00928912,0.213142,-0.0621426,0.918135,-1.24086,0.00923213,0,0,0,0,0,0,0,0.0122483,-0.203955,-0.331453,-1.65809,0.0396269,1.43077,0.402384,0.0511341,-0.0059608,0.0546802,0.00125237,0.5694,-0.443187,-5.38565e-05,1.70551,-24.8857,4.06343,24.9594,1.57074,1.58745,-0.0429228,-0.842014,-0.834152,1.24441,0.69145,-0.344024,-0.392586,-0.329165,-0.0732849,-0.521211,-0.245001,-0.0337948,-0.798791,-0.016711,
0.0184428,-0.204897,-0.324884,-1.65993,0.0308836,-0.16634,-0.382449,0.194356,-0.00666671,0.21804,-0.0672735,0.936066,-1.2419,0.00905016,0,0,0,0,0,0,0,0.0122483,-0.203955,-0.331453,-1.65809,0.0396269,1.43077,0.402384,0.0511341,-0.0059608,0.0546802,0.00125237,0.5694,-0.443187,-5.38565e-05,1.70551,-24.8857,4.06343,24.9594,1.57074,1.58745,-0.0429228,-0.842014,-0.834152,1.24441,0.69145,-0.344024,-0.392586,-0.329165,-0.0732849,-0.521211,-0.245001,-0.0337948,-0.798791,-0.016711,
0.0192354,-0.204912,-0.323995,-1.66022,0.0346915,-0.171284,-0.382413,0.198155,-0.00385999,0.222195,-0.0715261,0.951991,-1.23589,0.00886723,0,0,0,0,0,0,0,0.0122483,-0.203955,-0.331453,-1.65809,0.0396269,1.43077,0.402384,0.0511341,-0.0059608,0.0546802,0.00125237,0.5694,-0.443187,-5.38565e-05,1.70551,-24.8857,4.06343,24.9594,1.57074,1.58745,-0.0429228,-0.879104,-0.617966,1.14,0.54146,-0.320785,-0.295702,-0.237638,-0.0365237,-0.406076,-0.29197,-0.0312718,-0.815491,-0.0172934,
0.020041,-0.204916,-0.323092,-1.66052,0.0385556,-0.176185,-0.382379,0.201399,-0.000941281,0.22573,-0.0748247,0.966007,-1.22523,0.00868646,0,0,0,0,0,0,0,0.0122483,-0.203955,-0.331453,-1.65809,0.0396269,1.43077,0.402384,0.0511341,-0.0059608,0.0546802,0.00125237,0.5694,-0.443187,-5.38565e-05,1.70551,-24.8857,4.06343,24.9594,1.57074,1.58745,-0.0429228,-0.879104,-0.617966,1.14,0.54146,-0.320785,-0.295702,-0.237638,-0.0365237,-0.406076,-0.29197,-0.0312718,-0.815491,-0.0172934,
0.0208576,-0.204908,-0.322177,-1.66083,0.0424686,-0.18103,-0.382345,0.204157,0.00196678,0.22874,-0.0773036,0.978248,-1.21138,0.00850788,0,0,0,0,0,0,0,0.0141202,-0.20416,-0.329169,-1.65808,0.0592637,1.4134,0.402386,0.0635816,-0.00145742,0.087868,-0.000588821,0.626677,-0.55815,-0.000226295,1.83246,-24.4612,3.98805,24.7095,1.61377,1.46203,-0.0365141,-1.16802,-0.922347,0.920639,0.769287,-0.377333,-0.466239,-0.401967,0.000745749,-0.603913,-0.412476,-0.100913,-0.884677,-0.0160236,
0.0216836,-0.204889,-0.321252,-1.66114,0.046424,-0.185811,-0.382311,0.206487,0.00476649,0.231296,-0.0791204,0.988868,-1.19534,0.00833437,0,0,0,0,0,0,0,0.0141202,-0.20416,-0.329169,-1.65808,0.0592637,1.4134,0.402386,0.0635816,-0.00145742,0.087868,-0.000588821,0.626677,-0.55815,-0.000226295,1.83246,-24.4612,3.98805,24.7095,1.61377,1.46203,-0.0365141,-1.70663,-1.35115,1.12332,1.04271,-0.795916,-0.732536,-0.669477,-0.240543,-0.889382,-0.336945,-0.156411,-0.943203,-0.0150099,
0.0225173,-0.204859,-0.320318,-1.66146,0.0504162,-0.190523,-0.382279,0.208438,0.00739411,0.233458,-0.0804111,0.998029,-1.17778,0.00816433,0,0,0,0,0,0,0,0.0141202,-0.20416,-0.329169,-1.65808,0.0592637,1.4134,0.402386,0.0635816,-0.00145742,0.087868,-0.000588821,0.626677,-0.55815,-0.000226295,1.83246,-24.4612,3.98805,24.7095,1.61377,1.46203,-0.0365141,-1.70663,-1.35115,1.12332,1.04271,-0.795916,-0.732536,-0.669477,-0.240543,-0.889382,-0.336945,-0.156411,-0.943203,-0.0150099,
0.0233575,-0.20482,-0.319377,-1.66179,0.0544397,-0.195159,-0.382247,0.210052,0.00981455,0.235269,-0.0812828,1.00589,-1.15919,0.00799878,0,0,0,0,0,0,0,0.0141202,-0.20416,-0.329169,-1.65808,0.0592637,1.4134,0.402386,0.0635816,-0.00145742,0.087868,-0.000588821,0.626677,-0.55815,-0.000226295,1.83246,-24.4612,3.98805,24.7095,1.61377,1.46203,-0.0365141,-1.67597,-0.987591,0.909813,0.912718,-0.686182,-0.560176,-0.499922,-0.14127,-0.716618,-0.461464,-0.0375826,-0.990185,-0.0132117,
0.024203,-0.204772,-0.31843,-1.66212,0.05849,-0.199719,-0.382215,0.211366,0.0120124,0.236768,-0.081819,1.01258,-1.13991,0.00783758,0,0,0,0,0,0,0,0.0141202,-0.20416,-0.329169,-1.65808,0.0592637,1.4134,0.402386,0.0635816,-0.00145742,0.087868,-0.000588821,0.626677,-0.55815,-0.000226295,1.83246,-24.4612,3.98805,24.7095,1.61377,1.46203,-0.0365141,-1.67597,-0.987591,0.909813,0.912718,-0.686182,-0.560176,-0.499922,-0.14127,-0.716618,-0.461464,-0.0375826,-0.990185,-0.0132117,
0.0250526,-0.204716,-0.317478,-1.66245,0.062563,-0.2042,-0.382185,0.21241,0.0139854,0.237989,-0.0820845,1.01825,-1.1202,0.00768061,0,0,0,0,0,0,0,0.0166894,-0.204322,-0.325911,-1.65832,0.079626,1.39404,0.402388,0.0859437,-0.00297072,0.121878,-0.00154241,0.610042,-0.625576,0.00110899,1.67774,-24.0645,3.81349,24.3127,2.02301,1.58105,-0.050247,-1.47477,-0.561241,0.48981,0.845429,-0.330621,-0.329465,-0.270503,0.145519,-0.50562,-0.743071,0.148963,-1.09687,-0.0123155,
0.0259055,-0.204653,-0.316522,-1.66277,0.0666551,-0.208601,-0.382154,0.213212,0.0157401,0.238959,-0.0821304,1.02302,-1.10024,0.00752771,0,0,0,0,0,0,0,0.0166894,-0.204322,-0.325911,-1.65832,0.079626,1.39404,0.402388,0.0859437,-0.00297072,0.121878,-0.00154241,0.610042,-0.625576,0.00110899,1.67774,-24.0645,3.81349,24.3127,2.02301,1.58105,-0.050247,-1.69012,-0.598708,0.38099,1.00133,-0.430708,-0.378935,-0.323128,0.114404,-0.580194,-0.81617,0.247504,-1.15335,-0.0101577,
0.0267607,-0.204584,-0.315564,-1.6631,0.070763,-0.212921,-0.382125,0.213798,0.0172877,0.239704,-0.0819968,1.02697,-1.08015,0.00737877,0,0,0,0,0,0,0,0.0166894,-0.204322,-0.325911,-1.65832,0.079626,1.39404,0.402388,0.0859437,-0.00297072,0.121878,-0.00154241,0.610042,-0.625576,0.00110899,1.67774,-24.0645,3.81349,24.3127,2.02301,1.58105,-0.050247,-1.69012,-0.598708,0.38099,1.00133,-0.430708,-0.378935,-0.323128,0.114404,-0.580194,-0.81617,0.247504,-1.15335,-0.0101577,
0.0276174,-0.204509,-0.314603,-1.66343,0.0748839,-0.217161,-0.382096,0.214189,0.0186424,0.240246,-0.0817158,1.03022,-1.06002,0.00723325,0,0,0,0,0,0,0,0.0166894,-0.204322,-0.325911,-1.65832,0.079626,1.39404,0.402388,0.0859437,-0.00297072,0.121878,-0.00154241,0.610042,-0.625576,0.00110899,1.67774,-24.0645,3.81349,24.3127,2.02301,1.58105,-0.050247,-1.26278,0.499011,0.379383,0.356222,-0.227295,0.166822,0.210304,0.18048,0.0208371,-0.797041,0.500432,-1.1002,-0.0131367,
0.028475,-0.20443,-0.31364,-1.66375,0.0790153,-0.221321,-0.382068,0.214406,0.0198198,0.240606,-0.0813127,1.03285,-1.03994,0.0070915,0,0,0,0,0,0,0,0.0166894,-0.204322,-0.325911,-1.65832,0.079626,1.39404,0.402388,0.0859437,-0.00297072,0.121878,-0.00154241,0.610042,-0.625576,0.00110899,1.67774,-24.0645,3.81349,24.3127,2.02301,1.58105,-0.050247,-1.26278,0.499011,0.379383,0.356222,-0.227295,0.166822,0.210304,0.18048,0.0208371,-0.797041,0.500432,-1.1002,-0.0131367,
0.0293329,-0.204347,-0.312677,-1.66408,0.0831549,-0.225401,-0.38204,0.214467,0.0208359,0.240803,-0.0808083,1.03491,-1.01993,0.00695284,0,0,0,0,0,0,0,0.0166894,-0.204322,-0.325911,-1.65832,0.079626,1.39404,0.402388,0.0859437,-0.00297072,0.121878,-0.00154241,0.610042,-0.625576,0.00110899,1.67774,-24.0645,3.81349,24.3127,2.02301,1.58105,-0.050247,-1.18638,0.785077,0.148391,0.322724,-0.141898,0.291122,0.334891,0.238696,0.129535,-0.877369,0.670041,-1.08721,-0.0112959,
0.0301905,-0.20426,-0.311713,-1.6644,0.0873009,-0.229401,-0.382013,0.214388,0.0217062,0.240854,-0.0802193,1.03648,-1.00006,0.00681797,0,0,0,0,0,0,0,0.0194394,-0.204383,-0.321705,-1.65869,0.0984933,1.37372,0.402386,0.0880678,-0.00282917,0.13296,-0.0127099,0.571167,-0.651632,-0.00108395,1.95942,-24.2867,3.66273,24.3127,2.62085,1.85296,-0.0227812,-1.18638,0.785077,0.148391,0.322724,-0.141898,0.291122,0.334891,0.238696,0.129535,-0.877369,0.670041,-1.08721,-0.0112959,
0.0126964,-0.20449,-0.331406,-1.65868,-0.00373931,-0.121407,-0.382846,0.176291,-0.0600237,0.190045,-0.0630506,0.550359,-0.735936,0.0137693,0,0,0,0,0,0,0,0.0194394,-0.204383,-0.321705,-1.65869,0.0984933,1.37372,0.402386,0.0880678,-0.00282917,0.13296,-0.0127099,0.571167,-0.651632,-0.00108395,1.95942,-24.2867,3.66273,24.3127,2.62085,1.85296,-0.0227812,-1.63141,0.862608,0.132923,0.367857,-0.538409,0.243518,0.299242,-0.0125,0.0596352,-0.801842,0.783606,-1.05865,-0.0127964,
0.0217964,-0.204837,-0.31912,-1.65957,0.105152,-0.206837,-0.382851,0.229454,-0.042236,0.254249,-0.0862557,0.570978,-0.894964,0.0129671,0,0,0,0,0,0,0,0.0194394,-0.204383,-0.321705,-1.65869,0.0984933,1.37372,0.402386,0.0880678,-0.00282917,0.13296,-0.0127099,0.571167,-0.651632,-0.00108395,1.95942,-24.2867,3.66273,24.3127,2.62085,1.85296,-0.0227812,-1.63141,0.862608,0.132923,0.367857,-0.538409,0.243518,0.299242,-0.0125,0.0596352,-0.801842,0.783606,-1.05865,-0.0127964,
0.0228116,-0.205,-0.317987,-1.65994,0.107559,-0.210688,-0.382802,0.25379,-0.0408572,0.283089,-0.0928669,0.601651,-0.962634,0.0124294,0,0,0,0,0,0,0,0.0194394,-0.204383,-0.321705,-1.65869,0.0984933,1.37372,0.402386,0.0880678,-0.00282917,0.13296,-0.0127099,0.571167,-0.651632,-0.00108395,1.95942,-24.2867,3.66273,24.3127,2.62085,1.85296,-0.0227812,-1.29866,0.855152,-0.246166,0.501354,-0.240124,0.269402,0.328847,0.171157,0.0543506,-0.905913,0.884067,-0.976569,-0.0140348,
0.0239068,-0.205152,-0.316761,-1.66033,0.110106,-0.214766,-0.382754,0.273804,-0.0378846,0.30655,-0.0981904,0.636842,-1.01959,0.0119524,0,0,0,0,0,0,0,0.0194394,-0.204383,-0.321705,-1.65869,0.0984933,1.37372,0.402386,0.0880678,-0.00282917,0.13296,-0.0127099,0.571167,-0.651632,-0.00108395,1.95942,-24.2867,3.66273,24.3127,2.62085,1.85296,-0.0227812,-0.831586,2.11227,-0.607189,-0.323669,0.183175,0.885407,0.931157,0.448114,0.750075,-1.04526,1.02089,-0.947194,-0.0127557,
0.0250685,-0.205288,-0.315458,-1.66075,0.1128,-0.219035,-0.382708,0.290426,-0.0341098,0.325835,-0.102807,0.673583,-1.06712,0.0115205,0,0,0,0,0,0,0,0.0228829,-0.204411,-0.3172,-1.6593,0.115755,1.35375,0.402386,0.119591,-0.00904445,0.14147,-0.0311683,0.390568,-0.538569,-0.000234642,-0.702633,-25.1872,1.43709,25.856,1.35742,2.53594,-0.0227812,-0.831586,2.11227,-0.607189,-0.323669,0.183175,0.885407,0.931157,0.448114,0.750075,-1.04526,1.02089,-0.947194,-0.0127557,
0.0262858,-0.205408,-0.31409,-1.66117,0.11564,-0.223461,-0.382663,0.304329,-0.0299575,0.341821,-0.106886,0.709984,-1.10663,0.011126,0,0,0,0,0,0,0,0.0228829,-0.204411,-0.3172,-1.6593,0.115755,1.35375,0.402386,0.119591,-0.00904445,0.14147,-0.0311683,0.390568,-0.538569,-0.000234642,-0.702633,-25.1872,1.43709,25.856,1.35742,2.53594,-0.0227812,-1.44649,1.67229,-0.376576,-0.179182,-0.419472,0.584878,0.612652,0.0510479,0.472921,-0.799039,0.87322,-0.854201,-0.00946045,
0.0275505,-0.205514,-0.312669,-1.66162,0.11862,-0.227969,-0.38262,0.316162,-0.0265301,0.355373,-0.112874,0.744845,-1.12696,0.0108339,0,0,0,0,0,0,0,0.0228829,-0.204411,-0.3172,-1.6593,0.115755,1.35375,0.402386,0.119591,-0.00904445,0.14147,-0.0311683,0.390568,-0.538569,-0.000234642,-0.702633,-25.1872,1.43709,25.856,1.35742,2.53594,-0.0227812,-1.44649,1.67229,-0.376576,-0.179182,-0.419472,0.584878,0.612652,0.0510479,0.472921,-0.799039,0.87322,-0.854201,-0.00946045,
0.0288552,-0.205605,-0.311202,-1.6621,0.12173,-0.232519,-0.382578,0.326186,-0.0227404,0.366713,-0.117849,0.777495,-1.13741,0.0105059,0,0,0,0,0,0,0,0.0228829,-0.204411,-0.3172,-1.6593,0.115755,1.35375,0.402386,0.119591,-0.00904445,0.14147,-0.0311683,0.390568,-0.538569,-0.000234642,-0.702633,-25.1872,1.43709,25.856,1.35742,2.53594,-0.0227812,-1.54435,0.199456,-0.704345,0.671498,-0.422767,-0.0894376,-0.0348665,0.0689575,-0.28316,-0.77517,0.545343,-0.693201,-0.00861095,
0.0301942,-0.205682,-0.309697,-1.66259,0.12496,-0.237052,-0.382537,0.334742,-0.0192375,0.376366,-0.123141,0.807537,-1.13332,0.010229,0,0,0,0,0,0,0,0.0228829,-0.204411,-0.3172,-1.6593,0.115755,1.35375,0.402386,0.119591,-0.00904445,0.14147,-0.0311683,0.390568,-0.538569,-0.000234642,-0.702633,-25.1872,1.43709,25.856,1.35742,2.53594,-0.0227812,-1.85244,0.409309,-0.516182,0.374648,-0.745542,-0.0312531,0.019355,-0.146047,-0.17571,-0.62201,0.452548,-0.654557,-0.0109803,
0.0315623,-0.205745,-0.308159,-1.6631,0.128299,-0.241527,-0.382497,0.342016,-0.0156785,0.384528,-0.127725,0.834815,-1.11867,0.00997401,0,0,0,0,0,0,0,0.0228829,-0.204411,-0.3172,-1.6593,0.115755,1.35375,0.402386,0.119591,-0.00904445,0.14147,-0.0311683,0.390568,-0.538569,-0.000234642,-0.702633,-25.1872,1.43709,25.856,1.35742,2.53594,-0.0227812,-1.85244,0.409309,-0.516182,0.374648,-0.745542,-0.0312531,0.019355,-0.146047,-0.17571,-0.62201,0.452548,-0.654557,-0.0109803,
0.0329548,-0.205793,-0.306593,-1.66362,0.131736,-0.24592,-0.382458,0.348133,-0.0119232,0.391377,-0.130979,0.859325,-1.09819,0.0097226,0,0,0,0,0,0,0,0.0274326,-0.20472,-0.31169,-1.6605,0.128205,1.33552,0.402389,0.153958,-0.0120708,0.177777,-0.038349,0.406282,-0.588437,-0.000272446,2.08637,-24.7389,4.26179,24.5627,2.85339,1.58745,-0.0163725,-1.38321,0.929272,-0.668958,0.0587217,-0.314832,0.27107,0.294377,0.133449,0.170638,-0.758941,0.529004,-0.686645,-0.0116354,
0.0343677,-0.205825,-0.305005,-1.66416,0.135261,-0.250217,-0.38242,0.353228,-0.00812669,0.397098,-0.133044,0.881162,-1.07436,0.00948042,0,0,0,0,0,0,0,0.0274326,-0.20472,-0.31169,-1.6605,0.128205,1.33552,0.402389,0.153958,-0.0120708,0.177777,-0.038349,0.406282,-0.588437,-0.000272446,2.08637,-24.7389,4.26179,24.5627,2.85339,1.58745,-0.0163725,-1.38321,0.929272,-0.668958,0.0587217,-0.314832,0.27107,0.294377,0.133449,0.170638,-0.758941,0.529004,-0.686645,-0.0116354,
0.0357974,-0.205843,-0.303397,-1.66469,0.138863,-0.254411,-0.382383,0.357431,-0.00444925,0.40185,-0.13419,0.90048,-1.04861,0.00924528,0,0,0,0,0,0,0,0.0274326,-0.20472,-0.31169,-1.6605,0.128205,1.33552,0.402389,0.153958,-0.0120708,0.177777,-0.038349,0.406282,-0.588437,-0.000272446,2.08637,-24.7389,4.26179,24.5627,2.85339,1.58745,-0.0163725,-2.06422,0.512825,-0.267479,0.206696,-0.993794,-0.00131078,0.0371669,-0.320505,-0.108157,-0.494036,0.407998,-0.647952,-0.0119339,
0.0372408,-0.205847,-0.301774,-1.66523,0.142533,-0.258499,-0.382347,0.360855,-0.000999312,0.405762,-0.134652,0.917466,-1.0218,0.00902226,0,0,0,0,0,0,0,0.0274326,-0.20472,-0.31169,-1.6605,0.128205,1.33552,0.402389,0.153958,-0.0120708,0.177777,-0.038349,0.406282,-0.588437,-0.000272446,2.08637,-24.7389,4.26179,24.5627,2.85339,1.58745,-0.0163725,-2.06422,0.512825,-0.267479,0.206696,-0.993794,-0.00131078,0.0371669,-0.320505,-0.108157,-0.494036,0.407998,-0.647952,-0.0119339,
0.0386952,-0.205838,-0.300138,-1.66577,0.146262,-0.262477,-0.382312,0.363598,0.00216329,0.40894,-0.134608,0.932322,-0.99449,0.00880897,0,0,0,0,0,0,0,0.0274326,-0.20472,-0.31169,-1.6605,0.128205,1.33552,0.402389,0.153958,-0.0120708,0.177777,-0.038349,0.406282,-0.588437,-0.000272446,2.08637,-24.7389,4.26179,24.5627,2.85339,1.58745,-0.0163725,-2.18749,-1.00167,-1.06057,1.2011,-0.681595,-0.66694,-0.616191,0.0156591,-0.871528,-0.816002,0.0913296,-0.663737,-0.0114728,
0.0401582,-0.205818,-0.298493,-1.66631,0.150043,-0.266345,-0.382278,0.365743,0.00501432,0.411477,-0.134188,0.945245,-0.967038,0.00860612,0,0,0,0,0,0,0,0.0324912,-0.20513,-0.305045,-1.66206,0.144123,1.31615,0.40239,0.166831,-0.0103189,0.233421,-0.0510187,0.586056,-0.609127,0.000277045,2.49103,-24.5644,4.53554,24.6103,2.65197,1.31554,-0.0227812,-2.42997,-0.674871,-1.19929,0.981714,-0.714015,-0.527114,-0.481915,0.0665822,-0.70778,-0.942444,0.0910714,-0.77582,-0.0118733,
0.0416276,-0.205788,-0.296839,-1.66684,0.153869,-0.270103,-0.382244,0.367362,0.00755189,0.41345,-0.133485,0.956428,-0.939666,0.00841297,0,0,0,0,0,0,0,0.0324912,-0.20513,-0.305045,-1.66206,0.144123,1.31615,0.40239,0.166831,-0.0103189,0.233421,-0.0510187,0.586056,-0.609127,0.000277045,2.49103,-24.5644,4.53554,24.6103,2.65197,1.31554,-0.0227812,-2.42997,-0.674871,-1.19929,0.981714,-0.714015,-0.527114,-0.481915,0.0665822,-0.70778,-0.942444,0.0910714,-0.77582,-0.0118733,
0.0431017,-0.205749,-0.295179,-1.66737,0.157733,-0.273753,-0.382211,0.368517,0.00978793,0.414925,-0.132567,0.966049,-0.91252,0.00822975,0,0,0,0,0,0,0,0.0324912,-0.20513,-0.305045,-1.66206,0.144123,1.31615,0.40239,0.166831,-0.0103189,0.233421,-0.0510187,0.586056,-0.609127,0.000277045,2.49103,-24.5644,4.53554,24.6103,2.65197,1.31554,-0.0227812,-2.35477,0.464997,-0.661606,0.200255,-0.857014,0.00642174,0.0521,-0.0886605,-0.103158,-0.789149,0.27558,-0.834406,-0.0129394,
0.0445788,-0.205702,-0.293515,-1.6679,0.16163,-0.277296,-0.382179,0.369265,0.0117419,0.415962,-0.131482,0.974274,-0.885688,0.00805456,0,0,0,0,0,0,0,0.0324912,-0.20513,-0.305045,-1.66206,0.144123,1.31615,0.40239,0.166831,-0.0103189,0.233421,-0.0510187,0.586056,-0.609127,0.000277045,2.49103,-24.5644,4.53554,24.6103,2.65197,1.31554,-0.0227812,-2.35477,0.464997,-0.661606,0.200255,-0.857014,0.00642174,0.0521,-0.0886605,-0.103158,-0.789149,0.27558,-0.834406,-0.0129394,
0.0460574,-0.205648,-0.291849,-1.66842,0.165555,-0.280733,-0.382147,0.369652,0.0134369,0.416612,-0.130269,0.981252,-0.859222,0.00788781,0,0,0,0,0,0,0,0.0324912,-0.20513,-0.305045,-1.66206,0.144123,1.31615,0.40239,0.166831,-0.0103189,0.233421,-0.0510187,0.586056,-0.609127,0.000277045,2.49103,-24.5644,4.53554,24.6103,2.65197,1.31554,-0.0227812,-1.91433,0.0342077,-0.814041,0.597738,-0.448222,-0.127178,-0.0707121,0.16244,-0.296701,-0.920151,0.314266,-0.842554,-0.0105332,
0.0475363,-0.205589,-0.290181,-1.66893,0.169504,-0.284066,-0.382116,0.369722,0.0148971,0.416921,-0.128955,0.98712,-0.833153,0.0077281,0,0,0,0,0,0,0,0.0324912,-0.20513,-0.305045,-1.66206,0.144123,1.31615,0.40239,0.166831,-0.0103189,0.233421,-0.0510187,0.586056,-0.609127,0.000277045,2.49103,-24.5644,4.53554,24.6103,2.65197,1.31554,-0.0227812,-2.15441,-0.839824,-0.928023,1.27009,-0.544263,-0.543507,-0.47921,0.129504,-0.78823,-0.97673,0.27767,-0.866205,-0.0112365,
0.0490143,-0.205524,-0.288513,-1.66944,0.173472,-0.287296,-0.382086,0.369512,0.0161468,0.416928,-0.127561,0.992002,-0.807498,0.00757558,0,0,0,0,0,0,0,0.0402875,-0.205479,-0.295501,-1.66436,0.167867,1.29359,0.40239,0.229041,-0.00617933,0.25013,-0.0531889,0.595134,-0.522016,-0.000439728,2.23713,-24.489,3.98805,24.5865,3.07312,1.84655,-0.0227812,-2.15441,-0.839824,-0.928023,1.27009,-0.544263,-0.543507,-0.47921,0.129504,-0.78823,-0.97673,0.27767,-0.866205,-0.0112365,
0.0504905,-0.205455,-0.286847,-1.66995,0.177456,-0.290425,-0.382056,0.369055,0.0172087,0.416669,-0.126104,0.996008,-0.782264,0.00742836,0,0,0,0,0,0,0,0.0402875,-0.205479,-0.295501,-1.66436,0.167867,1.29359,0.40239,0.229041,-0.00617933,0.25013,-0.0531889,0.595134,-0.522016,-0.000439728,2.23713,-24.489,3.98805,24.5865,3.07312,1.84655,-0.0227812,-2.31346,-0.637132,-0.937712,1.25435,-0.691808,-0.491961,-0.426573,0.0304685,-0.748448,-0.964565,0.42595,-0.866128,-0.0111162,
0.0519641,-0.205383,-0.285182,-1.67045,0.181453,-0.293455,-0.382027,0.368383,0.0181044,0.416176,-0.124597,0.999238,-0.757453,0.00728822,0,0,0,0,0,0,0,0.0402875,-0.205479,-0.295501,-1.66436,0.167867,1.29359,0.40239,0.229041,-0.00617933,0.25013,-0.0531889,0.595134,-0.522016,-0.000439728,2.23713,-24.489,3.98805,24.5865,3.07312,1.84655,-0.0227812,-2.31346,-0.637132,-0.937712,1.25435,-0.691808,-0.491961,-0.426573,0.0304685,-0.748448,-0.964565,0.42595,-0.866128,-0.0111162,
0.0534341,-0.205307,-0.28352,-1.67094,0.18546,-0.296387,-0.381999,0.36752,0.0188533,0.415476,-0.123052,1.00178,-0.733066,0.00715237,0,0,0,0,0,0,0,0.0402875,-0.205479,-0.295501,-1.66436,0.167867,1.29359,0.40239,0.229041,-0.00617933,0.25013,-0.0531889,0.595134,-0.522016,-0.000439728,2.23713,-24.489,3.98805,24.5865,3.07312,1.84655,-0.0227812,-1.74929,0.477726,-0.69543,0.601305,-0.426307,0.0576902,0.11109,0.118676,-0.143888,-0.912648,0.69757,-0.849183,-0.0138497,
0.0549001,-0.205229,-0.281862,-1.67142,0.189475,-0.299223,-0.38197,0.36649,0.0194731,0.414594,-0.121478,1.00372,-0.7091,0.00702256,0,0,0,0,0,0,0,0.0402875,-0.205479,-0.295501,-1.66436,0.167867,1.29359,0.40239,0.229041,-0.00617933,0.25013,-0.0531889,0.595134,-0.522016,-0.000439728,2.23713,-24.489,3.98805,24.5865,3.07312,1.84655,-0.0227812,-1.35291,1.44022,-0.761155,0.0190571,-0.12075,0.530351,0.586367,0.302359,0.368455,-0.988854,0.870837,-0.865303,-0.0150391,
0.0224196,-0.20515,-0.318467,-1.66009,0.10412,-0.205741,-0.382867,0.298605,-0.071754,0.329875,-0.137316,0.46357,-0.76148,0.0118249,0,0,0,0,0,0,0,0.0471363,-0.205477,-0.286951,-1.66614,0.185689,1.27853,0.402392,0.217181,0.00530789,0.282897,-0.0491299,0.568615,-0.462912,-7.36186e-05,2.36408,-24.9135,3.83729,24.761,3.62884,1.62041,-0.0429228,-1.35291,1.44022,-0.761155,0.0190571,-0.12075,0.530351,0.586367,0.302359,0.368455,-0.988854,0.870837,-0.865303,-0.0150391,
0.0511186,-0.205892,-0.282511,-1.66764,0.192308,-0.29878,-0.382875,0.366817,-0.0394602,0.411053,-0.140617,0.565727,-0.585236,0.0107552,0,0,0,0,0,0,0,0.0471363,-0.205477,-0.286951,-1.66614,0.185689,1.27853,0.402392,0.217181,0.00530789,0.282897,-0.0491299,0.568615,-0.462912,-7.36186e-05,2.36408,-24.9135,3.83729,24.761,3.62884,1.62041,-0.0429228,-1.38206,1.83716,-0.767537,-0.165649,-0.172986,0.689556,0.76057,0.260376,0.522612,-0.978851,1.00277,-0.856158,-0.016766,
0.0526877,-0.206043,-0.280746,-1.66823,0.194685,-0.301254,-0.382833,0.392285,-0.0376415,0.441344,-0.147373,0.594225,-0.618373,0.0104738,0,0,0,0,0,0,0,0.0471363,-0.205477,-0.286951,-1.66614,0.185689,1.27853,0.402392,0.217181,0.00530789,0.282897,-0.0491299,0.568615,-0.462912,-7.36186e-05,2.36408,-24.9135,3.83729,24.761,3.62884,1.62041,-0.0429228,-1.38206,1.83716,-0.767537,-0.165649,-0.172986,0.689556,0.76057,0.260376,0.522612,-0.978851,1.00277,-0.856158,-0.016766,
0.0543393,-0.206178,-0.278883,-1.66884,0.197195,-0.303838,-0.382793,0.412913,-0.0339159,0.465707,-0.151441,0.627415,-0.646096,0.0101463,0,0,0,0,0,0,0,0.0471363,-0.205477,-0.286951,-1.66614,0.185689,1.27853,0.402392,0.217181,0.00530789,0.282897,-0.0491299,0.568615,-0.462912,-7.36186e-05,2.36408,-24.9135,3.83729,24.761,3.62884,1.62041,-0.0429228,-0.940396,2.62837,-0.620804,-0.66385,0.0471775,1.0779,1.14732,0.344578,0.950573,-0.933746,1.15919,-0.819657,-0.0159208,
0.0560593,-0.206299,-0.27694,-1.66946,0.199844,-0.306468,-0.382753,0.429979,-0.0302703,0.485695,-0.15631,0.662267,-0.657456,0.00995714,0,0,0,0,0,0,0,0.0471363,-0.205477,-0.286951,-1.66614,0.185689,1.27853,0.402392,0.217181,0.00530789,0.282897,-0.0491299,0.568615,-0.462912,-7.36186e-05,2.36408,-24.9135,3.83729,24.761,3.62884,1.62041,-0.0429228,-0.940396,2.62837,-0.620804,-0.66385,0.0471775,1.0779,1.14732,0.344578,0.950573,-0.933746,1.15919,-0.819657,-0.0159208,
0.0578352,-0.206403,-0.274932,-1.6701,0.202632,-0.309118,-0.382714,0.443985,-0.0259175,0.501985,-0.159513,0.696897,-0.66242,0.00969447,0,0,0,0,0,0,0,0.0548577,-0.205534,-0.277802,-1.66803,0.20069,1.26602,0.402394,0.25682,0.00265669,0.308946,-0.0671568,0.352638,-0.340217,0.000431776,2.23713,-25.5126,3.71431,24.4357,2.26654,1.77971,-0.0301054,-1.17367,1.86136,-0.563651,-0.191685,-0.191936,0.694206,0.740279,0.172386,0.552013,-0.817497,1.05418,-0.737888,-0.0147801,
0.0596577,-0.20649,-0.27287,-1.67075,0.205552,-0.311743,-0.382676,0.455613,-0.021777,0.515436,-0.16269,0.730069,-0.656247,0.00947033,0,0,0,0,0,0,0,0.0548577,-0.205534,-0.277802,-1.66803,0.20069,1.26602,0.402394,0.25682,0.00265669,0.308946,-0.0671568,0.352638,-0.340217,0.000431776,2.23713,-25.5126,3.71431,24.4357,2.26654,1.77971,-0.0301054,-2.21936,-0.219608,-0.710439,1.07622,-0.932926,-0.34136,-0.246126,-0.256646,-0.615742,-0.682502,0.67717,-0.64186,-0.0106543,
0.0615185,-0.206561,-0.270764,-1.67141,0.208596,-0.314311,-0.382639,0.465219,-0.0176704,0.526515,-0.165174,0.761074,-0.64211,0.00927396,0,0,0,0,0,0,0,0.0548577,-0.205534,-0.277802,-1.66803,0.20069,1.26602,0.402394,0.25682,0.00265669,0.308946,-0.0671568,0.352638,-0.340217,0.000431776,2.23713,-25.5126,3.71431,24.4357,2.26654,1.77971,-0.0301054,-2.21936,-0.219608,-0.710439,1.07622,-0.932926,-0.34136,-0.246126,-0.256646,-0.615742,-0.682502,0.67717,-0.64186,-0.0106543,
0.0634108,-0.206615,-0.268622,-1.67208,0.211754,-0.316807,-0.382603,0.47306,-0.0135052,0.535574,-0.166522,0.789562,-0.623993,0.00908283,0,0,0,0,0,0,0,0.0548577,-0.205534,-0.277802,-1.66803,0.20069,1.26602,0.402394,0.25682,0.00265669,0.308946,-0.0671568,0.352638,-0.340217,0.000431776,2.23713,-25.5126,3.71431,24.4357,2.26654,1.77971,-0.0301054,-2.6504,-0.669441,-0.781834,1.31621,-1.21166,-0.570957,-0.465956,-0.400419,-0.865348,-0.658252,0.559955,-0.637664,-0.0108798,
0.0653283,-0.206653,-0.26645,-1.67274,0.215016,-0.319222,-0.382567,0.479392,-0.00943092,0.542929,-0.166925,0.815404,-0.603796,0.00890432,0,0,0,0,0,0,0,0.0548577,-0.205534,-0.277802,-1.66803,0.20069,1.26602,0.402394,0.25682,0.00265669,0.308946,-0.0671568,0.352638,-0.340217,0.000431776,2.23713,-25.5126,3.71431,24.4357,2.26654,1.77971,-0.0301054,-2.6504,-0.669441,-0.781834,1.31621,-1.21166,-0.570957,-0.465956,-0.400419,-0.865348,-0.658252,0.559955,-0.637664,-0.0108798,
0.0672661,-0.206675,-0.264255,-1.67341,0.21837,-0.321552,-0.382532,0.484437,-0.0055849,0.548842,-0.16664,0.838608,-0.582518,0.00873166,0,0,0,0,0,0,0,0.0548577,-0.205534,-0.277802,-1.66803,0.20069,1.26602,0.402394,0.25682,0.00265669,0.308946,-0.0671568,0.352638,-0.340217,0.000431776,2.23713,-25.5126,3.71431,24.4357,2.26654,1.77971,-0.0301054,-2.04868,0.131687,-0.969751,0.775787,-0.620838,-0.12649,-0.0648979,0.00611617,-0.342694,-0.86062,0.632808,-0.712698,-0.0116539,
0.0692196,-0.206683,-0.262041,-1.67407,0.221808,-0.323795,-0.382498,0.488385,-0.00204924,0.553532,-0.165872,0.859266,-0.560717,0.0085726,0,0,0,0,0,0,0,0.0634263,-0.205745,-0.266865,-1.67042,0.213007,1.25643,0.402392,0.276672,-0.00595093,0.339657,-0.0829192,0.400384,-0.257432,-0.000949957,3.20118,-24.9135,4.76167,24.5111,2.7005,1.39519,-0.0301054,-2.46933,0.0336817,-0.618425,0.686893,-1.0482,-0.170816,-0.105541,-0.275136,-0.360729,-0.684501,0.508503,-0.725419,-0.0137645,
0.0711852,-0.206679,-0.259812,-1.67473,0.225318,-0.32595,-0.382464,0.491391,0.00113978,0.557176,-0.164765,0.877521,-0.538716,0.0084219,0,0,0,0,0,0,0,0.0634263,-0.205745,-0.266865,-1.67042,0.213007,1.25643,0.402392,0.276672,-0.00595093,0.339657,-0.0829192,0.400384,-0.257432,-0.000949957,3.20118,-24.9135,4.76167,24.5111,2.7005,1.39519,-0.0301054,-2.46933,0.0336817,-0.618425,0.686893,-1.0482,-0.170816,-0.105541,-0.275136,-0.360729,-0.684501,0.508503,-0.725419,-0.0137645,
0.0731595,-0.206663,-0.257572,-1.67539,0.228892,-0.328017,-0.382431,0.493589,0.00397717,0.559925,-0.163416,0.893545,-0.516708,0.00828131,0,0,0,0,0,0,0,0.0634263,-0.205745,-0.266865,-1.67042,0.213007,1.25643,0.402392,0.276672,-0.00595093,0.339657,-0.0829192,0.400384,-0.257432,-0.000949957,3.20118,-24.9135,4.76167,24.5111,2.7005,1.39519,-0.0301054,-2.31779,-0.585669,-1.17241,0.946192,-0.69458,-0.39507,-0.325976,0.0215792,-0.598128,-0.881163,0.240189,-0.69799,-0.0127494,
0.0751399,-0.206637,-0.255325,-1.67603,0.232522,-0.329996,-0.382399,0.495087,0.00647594,0.561904,-0.16189,0.90752,-0.494811,0.00814966,0,0,0,0,0,0,0,0.0634263,-0.205745,-0.266865,-1.67042,0.213007,1.25643,0.402392,0.276672,-0.00595093,0.339657,-0.0829192,0.400384,-0.257432,-0.000949957,3.20118,-24.9135,4.76167,24.5111,2.7005,1.39519,-0.0301054,-2.31779,-0.585669,-1.17241,0.946192,-0.69458,-0.39507,-0.325976,0.0215792,-0.598128,-0.881163,0.240189,-0.69799,-0.0127494,
0.0771238,-0.206602,-0.253072,-1.67668,0.2362,-0.331888,-0.382367,0.495982,0.00865911,0.563217,-0.160231,0.919631,-0.4731,0.00802664,0,0,0,0,0,0,0,0.0634263,-0.205745,-0.266865,-1.67042,0.213007,1.25643,0.402392,0.276672,-0.00595093,0.339657,-0.0829192,0.400384,-0.257432,-0.000949957,3.20118,-24.9135,4.76167,24.5111,2.7005,1.39519,-0.0301054,-2.00229,-0.408796,-1.36838,0.796607,-0.341108,-0.258011,-0.194918,0.273778,-0.444123,-1.01894,0.218192,-0.730906,-0.0146616,
0.0791092,-0.20656,-0.250816,-1.67731,0.239921,-0.333695,-0.382335,0.496352,0.0105541,0.563955,-0.15847,0.930059,-0.451622,0.00791076,0,0,0,0,0,0,0,0.072654,-0.205933,-0.25576,-1.67298,0.22947,1.24942,0.402395,0.301842,-0.00156111,0.366135,-0.0799672,0.58172,-0.19271,-0.000122245,2.49103,-24.7389,4.03566,24.4357,2.8717,1.39519,-0.0365141,-2.00229,-0.408796,-1.36838,0.796607,-0.341108,-0.258011,-0.194918,0.273778,-0.444123,-1.01894,0.218192,-0.730906,-0.0146616,
0.0810943,-0.206511,-0.248559,-1.67794,0.243677,-0.335417,-0.382304,0.496268,0.0121893,0.564192,-0.15663,0.938974,-0.43041,0.00780223,0,0,0,0,0,0,0,0.072654,-0.205933,-0.25576,-1.67298,0.22947,1.24942,0.402395,0.301842,-0.00156111,0.366135,-0.0799672,0.58172,-0.19271,-0.000122245,2.49103,-24.7389,4.03566,24.4357,2.8717,1.39519,-0.0365141,-1.55793,0.538877,-1.00939,0.157706,-0.115727,0.231823,0.289414,0.373297,0.104323,-0.978006,0.361406,-0.785385,-0.015042,
0.0830774,-0.206457,-0.246303,-1.67855,0.247463,-0.337054,-0.382273,0.495788,0.0135927,0.563997,-0.154729,0.946536,-0.409485,0.00769919,0,0,0,0,0,0,0,0.072654,-0.205933,-0.25576,-1.67298,0.22947,1.24942,0.402395,0.301842,-0.00156111,0.366135,-0.0799672,0.58172,-0.19271,-0.000122245,2.49103,-24.7389,4.03566,24.4357,2.8717,1.39519,-0.0365141,-1.30667,0.502455,-1.43957,0.223959,0.273444,0.24383,0.317992,0.671609,0.0861485,-1.19553,0.363589,-0.808325,-0.0133154,
0.0850573,-0.206398,-0.24405,-1.67917,0.251274,-0.33861,-0.382243,0.494963,0.0147908,0.563424,-0.152779,0.952893,-0.388866,0.00760301,0,0,0,0,0,0,0,0.072654,-0.205933,-0.25576,-1.67298,0.22947,1.24942,0.402395,0.301842,-0.00156111,0.366135,-0.0799672,0.58172,-0.19271,-0.000122245,2.49103,-24.7389,4.03566,24.4357,2.8717,1.39519,-0.0365141,-1.30667,0.502455,-1.43957,0.223959,0.273444,0.24383,0.317992,0.671609,0.0861485,-1.19553,0.363589,-0.808325,-0.0133154,
0.0870327,-0.206334,-0.241799,-1.67977,0.255107,-0.340084,-0.382212,0.49384,0.0158077,0.562523,-0.150793,0.95818,-0.368566,0.00750965,0,0,0,0,0,0,0,0.072654,-0.205933,-0.25576,-1.67298,0.22947,1.24942,0.402395,0.301842,-0.00156111,0.366135,-0.0799672,0.58172,-0.19271,-0.000122245,2.49103,-24.7389,4.03566,24.4357,2.8717,1.39519,-0.0365141,-1.63761,-0.612764,-1.39126,1.05079,0.00755502,-0.297974,-0.213765,0.477204,-0.543241,-1.1355,0.327117,-0.782441,-0.0131596,
0.0890025,-0.206268,-0.239554,-1.68036,0.258957,-0.341479,-0.382183,0.492456,0.0166653,0.561337,-0.148778,0.96252,-0.348594,0.00742344,0,0,0,0,0,0,0,0.072654,-0.205933,-0.25576,-1.67298,0.22947,1.24942,0.402395,0.301842,-0.00156111,0.366135,-0.0799672,0.58172,-0.19271,-0.000122245,2.49103,-24.7389,4.03566,24.4357,2.8717,1.39519,-0.0365141,-1.63761,-0.612764,-1.39126,1.05079,0.00755502,-0.297974,-0.213765,0.477204,-0.543241,-1.1355,0.327117,-0.782441,-0.0131596,
0.0909668,-0.206198,-0.237314,-1.68095,0.262812,-0.342794,-0.382154,0.491089,0.0173168,0.560022,-0.146648,0.963816,-0.328937,0.00730912,0,0,0,0,0,0,0,0.086343,-0.205935,-0.239049,-1.6762,0.253778,1.2437,0.402393,0.330748,0.00272087,0.440133,-0.0759354,0.564749,-0.0953624,-5.94445e-05,1.75708,-25.4094,2.86134,24.2889,3.85498,1.13061,-0.0163725,-1.51398,-1.25268,-1.27302,1.638,0.0564358,-0.604634,-0.52993,0.450211,-0.911782,-1.11189,0.431514,-0.7658,-0.012522,
0.0929282,-0.206128,-0.235078,-1.68153,0.266636,-0.344033,-0.382125,0.49034,0.017599,0.55898,-0.144168,0.955982,-0.309543,0.00710647,0,0,0,0,0,0,0,0.086343,-0.205935,-0.239049,-1.6762,0.253778,1.2437,0.402393,0.330748,0.00272087,0.440133,-0.0759354,0.564749,-0.0953624,-5.94445e-05,1.75708,-25.4094,2.86134,24.2889,3.85498,1.13061,-0.0163725,-1.47642,-0.322692,-1.22843,1.14016,0.0895579,-0.192213,-0.115231,0.483142,-0.472444,-1.15144,0.66793,-0.819357,-0.0138095,
0.0948862,-0.206057,-0.232846,-1.68209,0.270407,-0.345195,-0.382097,0.489497,0.0176564,0.558111,-0.141598,0.942717,-0.290499,0.00693041,0,0,0,0,0,0,0,0.086343,-0.205935,-0.239049,-1.6762,0.253778,1.2437,0.402393,0.330748,0.00272087,0.440133,-0.0759354,0.564749,-0.0953624,-5.94445e-05,1.75708,-25.4094,2.86134,24.2889,3.85498,1.13061,-0.0163725,-1.47642,-0.322692,-1.22843,1.14016,0.0895579,-0.192213,-0.115231,0.483142,-0.472444,-1.15144,0.66793,-0.819357,-0.0138095,
0.0968399,-0.205987,-0.230617,-1.68265,0.274112,-0.346282,-0.38207,0.488435,0.0175821,0.557173,-0.13904,0.926177,-0.271864,0.00677385,0,0,0,0,0,0,0,0.086343,-0.205935,-0.239049,-1.6762,0.253778,1.2437,0.402393,0.330748,0.00272087,0.440133,-0.0759354,0.564749,-0.0953624,-5.94445e-05,1.75708,-25.4094,2.86134,24.2889,3.85498,1.13061,-0.0163725,-2.11295,1.02709,-0.940817,0.261516,-0.530441,0.37255,0.462168,0.111871,0.16436,-0.979336,0.874837,-0.843041,-0.0185725,
0.0516069,-0.206203,-0.281993,-1.66822,0.191588,-0.295756,-0.382878,0.420322,-0.0654495,0.47001,-0.189832,0.489935,-0.255809,0.0105024,0,0,0,0,0,0,0,0.086343,-0.205935,-0.239049,-1.6762,0.253778,1.2437,0.402393,0.330748,0.00272087,0.440133,-0.0759354,0.564749,-0.0953624,-5.94445e-05,1.75708,-25.4094,2.86134,24.2889,3.85498,1.13061,-0.0163725,-2.11295,1.02709,-0.940817,0.261516,-0.530441,0.37255,0.462168,0.111871,0.16436,-0.979336,0.874837,-0.843041,-0.0185725,
0.0917269,-0.206369,-0.232956,-1.67813,0.260542,-0.327688,-0.382889,0.480287,-0.038271,0.544441,-0.174064,0.580573,-0.0548791,0.0095752,0,0,0,0,0,0,0,0.0971994,-0.2058,-0.225867,-1.67871,0.271339,1.24229,0.402397,0.357215,0.00710436,0.428481,-0.085554,0.554754,-0.00571578,-0.000292004,1.40003,-25.9371,2.41304,24.5627,3.5556,1.06377,-0.0429228,-2.31663,0.100444,-0.987706,0.998837,-0.622023,-0.0681227,0.0178813,0.0447835,-0.350547,-1.00993,0.887591,-0.857058,-0.0161097,
0.0937389,-0.206509,-0.23067,-1.67884,0.262974,-0.327927,-0.382851,0.50301,-0.0350656,0.571544,-0.178574,0.607903,-0.0598842,0.00952252,0,0,0,0,0,0,0,0.0971994,-0.2058,-0.225867,-1.67871,0.271339,1.24229,0.402397,0.357215,0.00710436,0.428481,-0.085554,0.554754,-0.00571578,-0.000292004,1.40003,-25.9371,2.41304,24.5627,3.5556,1.06377,-0.0429228,-2.31663,0.100444,-0.987706,0.998837,-0.622023,-0.0681227,0.0178813,0.0447835,-0.350547,-1.00993,0.887591,-0.857058,-0.0161097,
0.0958235,-0.20663,-0.228297,-1.67956,0.265528,-0.328188,-0.382813,0.521148,-0.0303631,0.593135,-0.18017,0.638483,-0.0650959,0.00937443,0,0,0,0,0,0,0,0.0971994,-0.2058,-0.225867,-1.67871,0.271339,1.24229,0.402397,0.357215,0.00710436,0.428481,-0.085554,0.554754,-0.00571578,-0.000292004,1.40003,-25.9371,2.41304,24.5627,3.5556,1.06377,-0.0429228,-2.04544,2.14547,-0.726653,-0.371228,-0.508253,0.898795,0.973388,0.133696,0.744381,-0.980975,1.14515,-0.918515,-0.0214521,
0.0979669,-0.206733,-0.225855,-1.68029,0.268208,-0.328442,-0.382776,0.535847,-0.0256908,0.610515,-0.181504,0.669981,-0.0636587,0.00924593,0,0,0,0,0,0,0,0.0971994,-0.2058,-0.225867,-1.67871,0.271339,1.24229,0.402397,0.357215,0.00710436,0.428481,-0.085554,0.554754,-0.00571578,-0.000292004,1.40003,-25.9371,2.41304,24.5627,3.5556,1.06377,-0.0429228,-0.839906,2.67055,-1.07444,-0.756706,0.541003,1.21558,1.2695,0.799643,1.10087,-1.22834,1.16306,-0.899639,-0.0196492,
0.100158,-0.206818,-0.223357,-1.68102,0.271011,-0.328671,-0.382739,0.547716,-0.0211153,0.624512,-0.18234,0.700878,-0.0571169,0.00914702,0,0,0,0,0,0,0,0.0971994,-0.2058,-0.225867,-1.67871,0.271339,1.24229,0.402397,0.357215,0.00710436,0.428481,-0.085554,0.554754,-0.00571578,-0.000292004,1.40003,-25.9371,2.41304,24.5627,3.5556,1.06377,-0.0429228,-0.839906,2.67055,-1.07444,-0.756706,0.541003,1.21558,1.2695,0.799643,1.10087,-1.22834,1.16306,-0.899639,-0.0196492,
0.102387,-0.206884,-0.220814,-1.68175,0.273932,-0.328864,-0.382703,0.557198,-0.0166092,0.635721,-0.182357,0.730262,-0.0483348,0.00904876,0,0,0,0,0,0,0,0.0971994,-0.2058,-0.225867,-1.67871,0.271339,1.24229,0.402397,0.357215,0.00710436,0.428481,-0.085554,0.554754,-0.00571578,-0.000292004,1.40003,-25.9371,2.41304,24.5627,3.5556,1.06377,-0.0429228,-2.40856,-1.02449,-1.24712,1.69616,-0.541316,-0.544119,-0.470343,0.1094,-0.874542,-1.09807,0.724832,-0.845687,-0.0130989,
0.104649,-0.206934,-0.218234,-1.68248,0.276933,-0.329018,-0.382668,0.565519,-0.0125342,0.645028,-0.181386,0.750144,-0.0383834,0.00886745,0,0,0,0,0,0,0,0.108864,-0.205839,-0.211888,-1.68144,0.285006,1.24263,0.402395,0.382588,-0.00190064,0.477738,-0.0845996,0.382035,0.0228578,-9.14208e-05,2.38788,-25.8101,3.21443,23.9636,3.01818,1.26244,-0.0301054,-2.40856,-1.02449,-1.24712,1.69616,-0.541316,-0.544119,-0.470343,0.1094,-0.874542,-1.09807,0.724832,-0.845687,-0.0130989,
0.106941,-0.20697,-0.215621,-1.68319,0.279961,-0.329129,-0.382633,0.57298,-0.00908262,0.653114,-0.179594,0.757122,-0.027762,0.00861842,0,0,0,0,0,0,0,0.108864,-0.205839,-0.211888,-1.68144,0.285006,1.24263,0.402395,0.382588,-0.00190064,0.477738,-0.0845996,0.382035,0.0228578,-9.14208e-05,2.38788,-25.8101,3.21443,23.9636,3.01818,1.26244,-0.0301054,-2.81046,-1.4088,-1.10383,1.88533,-0.934633,-0.722442,-0.607855,-0.16283,-1.09059,-0.952745,0.633638,-0.798959,-0.0108923,
0.109257,-0.206995,-0.212981,-1.6839,0.282986,-0.329196,-0.3826,0.579051,-0.00614426,0.660002,-0.177458,0.756034,-0.0168173,0.00840791,0,0,0,0,0,0,0,0.108864,-0.205839,-0.211888,-1.68144,0.285006,1.24263,0.402395,0.382588,-0.00190064,0.477738,-0.0845996,0.382035,0.0228578,-9.14208e-05,2.38788,-25.8101,3.21443,23.9636,3.01818,1.26244,-0.0301054,-2.20789,0.132258,-1.48216,0.743806,-0.311474,0.0426982,0.116739,0.326318,-0.189571,-1.18377,0.695726,-0.844233,-0.0171156,
0.111592,-0.207009,-0.210319,-1.6846,0.285985,-0.329219,-0.382567,0.583774,-0.00362661,0.665602,-0.175197,0.74976,-0.005733,0.00822178,0,0,0,0,0,0,0,0.108864,-0.205839,-0.211888,-1.68144,0.285006,1.24263,0.402395,0.382588,-0.00190064,0.477738,-0.0845996,0.382035,0.0228578,-9.14208e-05,2.38788,-25.8101,3.21443,23.9636,3.01818,1.26244,-0.0301054,-2.20789,0.132258,-1.48216,0.743806,-0.311474,0.0426982,0.116739,0.326318,-0.189571,-1.18377,0.695726,-0.844233,-0.0171156,
0.113941,-0.207015,-0.207639,-1.6853,0.288945,-0.329197,-0.382535,0.587269,-0.00145632,0.669944,-0.172909,0.740071,0.00540216,0.00805555,0,0,0,0,0,0,0,0.108864,-0.205839,-0.211888,-1.68144,0.285006,1.24263,0.402395,0.382588,-0.00190064,0.477738,-0.0845996,0.382035,0.0228578,-9.14208e-05,2.38788,-25.8101,3.21443,23.9636,3.01818,1.26244,-0.0301054,-2.77598,0.631691,-1.59197,0.246658,-0.696304,0.284967,0.333106,0.169739,0.141187,-1.16235,0.602736,-0.866407,-0.0172256,
0.1163,-0.207014,-0.204947,-1.68598,0.291857,-0.329131,-0.382503,0.589672,0.00042296,0.673127,-0.170634,0.728087,0.0165447,0.00790318,0,0,0,0,0,0,0,0.120663,-0.205925,-0.197378,-1.68454,0.29735,1.24463,0.402397,0.388273,-0.00264013,0.453169,-0.100918,0.460064,0.0763679,3.86827e-05,2.43946,-25.5879,3.51198,24.3881,2.46887,1.59386,-0.050247,-2.77598,0.631691,-1.59197,0.246658,-0.696304,0.284967,0.333106,0.169739,0.141187,-1.16235,0.602736,-0.866407,-0.0172256,
0.118664,-0.207005,-0.202246,-1.68665,0.294715,-0.329021,-0.382472,0.591122,0.00205519,0.675272,-0.168389,0.714532,0.0276736,0.00776205,0,0,0,0,0,0,0,0.120663,-0.205925,-0.197378,-1.68454,0.29735,1.24463,0.402397,0.388273,-0.00264013,0.453169,-0.100918,0.460064,0.0763679,3.86827e-05,2.43946,-25.5879,3.51198,24.3881,2.46887,1.59386,-0.050247,-2.22724,0.192554,-2.01855,0.351461,-0.201794,0.122666,0.169215,0.48221,-0.0159661,-1.26383,0.370275,-0.750218,-0.0188275,
0.121031,-0.206992,-0.19954,-1.68732,0.297515,-0.328865,-0.382441,0.591747,0.00347555,0.676506,-0.166176,0.699905,0.0387765,0.00762793,0,0,0,0,0,0,0,0.120663,-0.205925,-0.197378,-1.68454,0.29735,1.24463,0.402397,0.388273,-0.00264013,0.453169,-0.100918,0.460064,0.0763679,3.86827e-05,2.43946,-25.5879,3.51198,24.3881,2.46887,1.59386,-0.050247,-2.22724,0.192554,-2.01855,0.351461,-0.201794,0.122666,0.169215,0.48221,-0.0159661,-1.26383,0.370275,-0.750218,-0.0188275,
0.123398,-0.206973,-0.196832,-1.68797,0.300253,-0.328666,-0.382411,0.591663,0.00471299,0.676948,-0.163993,0.684572,0.0498426,0.00750111,0,0,0,0,0,0,0,0.120663,-0.205925,-0.197378,-1.68454,0.29735,1.24463,0.402397,0.388273,-0.00264013,0.453169,-0.100918,0.460064,0.0763679,3.86827e-05,2.43946,-25.5879,3.51198,24.3881,2.46887,1.59386,-0.050247,-1.85476,-0.521817,-2.32268,0.79692,0.172808,-0.194244,-0.152859,0.702316,-0.370863,-1.37055,0.264979,-0.690735,-0.0167328,
0.125762,-0.206949,-0.194125,-1.68862,0.302929,-0.328423,-0.382382,0.590968,0.00579299,0.676705,-0.161837,0.668847,0.060859,0.00737693,0,0,0,0,0,0,0,0.120663,-0.205925,-0.197378,-1.68454,0.29735,1.24463,0.402397,0.388273,-0.00264013,0.453169,-0.100918,0.460064,0.0763679,3.86827e-05,2.43946,-25.5879,3.51198,24.3881,2.46887,1.59386,-0.050247,-1.82607,-0.298346,-2.28799,0.629171,0.131773,-0.098017,-0.0518971,0.66143,-0.261222,-1.31076,0.288717,-0.639901,-0.0168523,
0.128121,-0.206923,-0.191422,-1.68926,0.305541,-0.328135,-0.382353,0.589739,0.00674028,0.675866,-0.159711,0.65307,0.0718076,0.00725899,0,0,0,0,0,0,0,0.120663,-0.205925,-0.197378,-1.68454,0.29735,1.24463,0.402397,0.388273,-0.00264013,0.453169,-0.100918,0.460064,0.0763679,3.86827e-05,2.43946,-25.5879,3.51198,24.3881,2.46887,1.59386,-0.050247,-1.82607,-0.298346,-2.28799,0.629171,0.131773,-0.098017,-0.0518971,0.66143,-0.261222,-1.31076,0.288717,-0.639901,-0.0168523,
0.130473,-0.206892,-0.188724,-1.68989,0.308092,-0.327805,-0.382324,0.588027,0.00758196,0.674494,-0.157626,0.637724,0.0826646,0.00713882,0,0,0,0,0,0,0,0.133641,-0.205867,-0.182053,-1.68743,0.312735,1.24701,0.402392,0.417595,-0.000214406,0.488061,-0.0851071,0.455395,0.0768096,-0.000553325,1.72931,-26.1354,2.73836,24.3365,2.45605,1.74035,-0.0365141,-1.06243,-0.952488,-2.37392,1.03168,0.62896,-0.409699,-0.361395,0.873715,-0.612885,-1.28773,0.197348,-0.485233,-0.0153854,
0.132816,-0.206859,-0.186033,-1.69051,0.310587,-0.327431,-0.382296,0.585828,0.00835412,0.672621,-0.155611,0.623665,0.093396,0.00705212,0,0,0,0,0,0,0,0.133641,-0.205867,-0.182053,-1.68743,0.312735,1.24701,0.402392,0.417595,-0.000214406,0.488061,-0.0851071,0.455395,0.0768096,-0.000553325,1.72931,-26.1354,2.73836,24.3365,2.45605,1.74035,-0.0365141,-1.06243,-0.952488,-2.37392,1.03168,0.62896,-0.409699,-0.361395,0.873715,-0.612885,-1.28773,0.197348,-0.485233,-0.0153854,
0.135149,-0.206823,-0.183352,-1.69113,0.313026,-0.327015,-0.382268,0.583344,0.00903732,0.670379,-0.153591,0.609759,0.103994,0.00702375,0,0,0,0,0,0,0,0.133641,-0.205867,-0.182053,-1.68743,0.312735,1.24701,0.402392,0.417595,-0.000214406,0.488061,-0.0851071,0.455395,0.0768096,-0.000553325,1.72931,-26.1354,2.73836,24.3365,2.45605,1.74035,-0.0365141,-1.61939,-0.0660089,-2.56402,0.423393,0.204206,-0.0424947,-0.00201104,0.677809,-0.177291,-1.23526,0.291443,-0.427241,-0.0182263,
0.137474,-0.206785,-0.180679,-1.69173,0.315385,-0.326557,-0.38224,0.581274,0.00947329,0.668155,-0.151255,0.589824,0.114528,0.00689719,0,0,0,0,0,0,0,0.133641,-0.205867,-0.182053,-1.68743,0.312735,1.24701,0.402392,0.417595,-0.000214406,0.488061,-0.0851071,0.455395,0.0768096,-0.000553325,1.72931,-26.1354,2.73836,24.3365,2.45605,1.74035,-0.0365141,-2.21732,0.236522,-2.0191,0.308238,-0.525386,0.0586747,0.105152,0.152569,-0.0653405,-0.910763,0.435183,-0.366691,-0.0155368,
0.13979,-0.206746,-0.178015,-1.69233,0.317653,-0.326057,-0.382213,0.579004,0.00974567,0.665939,-0.148895,0.567077,0.124944,0.00676907,0,0,0,0,0,0,0,0.133641,-0.205867,-0.182053,-1.68743,0.312735,1.24701,0.402392,0.417595,-0.000214406,0.488061,-0.0851071,0.455395,0.0768096,-0.000553325,1.72931,-26.1354,2.73836,24.3365,2.45605,1.74035,-0.0365141,-2.21732,0.236522,-2.0191,0.308238,-0.525386,0.0586747,0.105152,0.152569,-0.0653405,-0.910763,0.435183,-0.366691,-0.0155368,
0.142096,-0.206706,-0.175361,-1.69291,0.319826,-0.325517,-0.382187,0.576483,0.00992128,0.663567,-0.146594,0.543143,0.135187,0.00665368,0,0,0,0,0,0,0,0.147347,-0.205628,-0.165606,-1.68996,0.325858,1.24941,0.402401,0.450747,0.00606608,0.514807,-0.0758211,0.345826,0.0774571,0.0013548,0.487552,-26.7345,1.13954,24.3881,3.33587,1.614,-0.083206,-1.89975,0.000109198,-2.16005,0.578831,-0.254278,-0.0834386,-0.0500112,0.285802,-0.23721,-0.961625,0.529713,-0.309684,-0.0165609,
0.144391,-0.206666,-0.172717,-1.69349,0.321901,-0.324936,-0.38216,0.573715,0.0100433,0.660979,-0.14437,0.51886,0.145224,0.00654948,0,0,0,0,0,0,0,0.147347,-0.205628,-0.165606,-1.68996,0.325858,1.24941,0.402401,0.450747,0.00606608,0.514807,-0.0758211,0.345826,0.0774571,0.0013548,0.487552,-26.7345,1.13954,24.3881,3.33587,1.614,-0.083206,-1.89975,0.000109198,-2.16005,0.578831,-0.254278,-0.0834386,-0.0500112,0.285802,-0.23721,-0.961625,0.529713,-0.309684,-0.0165609,
0.146674,-0.206625,-0.170084,-1.69406,0.32388,-0.324315,-0.382135,0.570721,0.0101374,0.65817,-0.142221,0.494654,0.155041,0.00645113,0,0,0,0,0,0,0,0.147347,-0.205628,-0.165606,-1.68996,0.325858,1.24941,0.402401,0.450747,0.00606608,0.514807,-0.0758211,0.345826,0.0774571,0.0013548,0.487552,-26.7345,1.13954,24.3881,3.33587,1.614,-0.083206,-2.54674,1.34658,-1.99878,-0.319213,-0.856369,0.521915,0.551341,-0.0291321,0.461309,-0.800555,0.695056,-0.287538,-0.0184744,
0.148944,-0.206584,-0.167464,-1.69462,0.325763,-0.323657,-0.382109,0.567539,0.0102165,0.655155,-0.140138,0.470732,0.164636,0.00634814,0,0,0,0,0,0,0,0.147347,-0.205628,-0.165606,-1.68996,0.325858,1.24941,0.402401,0.450747,0.00606608,0.514807,-0.0758211,0.345826,0.0774571,0.0013548,0.487552,-26.7345,1.13954,24.3881,3.33587,1.614,-0.083206,-2.54674,1.34658,-1.99878,-0.319213,-0.856369,0.521915,0.551341,-0.0291321,0.461309,-0.800555,0.695056,-0.287538,-0.0184744,
0.0921355,-0.206562,-0.232536,-1.67843,0.259141,-0.325615,-0.382887,0.524508,-0.0540308,0.592562,-0.197254,0.41946,0.166576,0.0095714,0,0,0,0,0,0,0,0.147347,-0.205628,-0.165606,-1.68996,0.325858,1.24941,0.402401,0.450747,0.00606608,0.514807,-0.0758211,0.345826,0.0774571,0.0013548,0.487552,-26.7345,1.13954,24.3881,3.33587,1.614,-0.083206,-2.28356,0.887289,-2.30458,0.00235218,-0.545174,0.302467,0.339796,0.163672,0.19875,-0.920251,0.665734,-0.250693,-0.0170413,
0.153685,-0.20601,-0.158365,-1.69204,0.329962,-0.318818,-0.38288,0.55761,-0.0326326,0.63836,-0.187489,0.343077,0.241712,0.00978517,0,0,0,0,0,0,0,0.165965,-0.205102,-0.143357,-1.69287,0.337828,1.25325,0.402396,0.428045,0.00938616,0.532888,-0.0664743,0.234131,0.113283,0.000485946,0.741459,-26.6829,1.06416,24.6103,2.96325,1.78612,-0.0429228,-1.93792,1.22806,-2.5178,-0.192181,-0.174999,0.453171,0.468851,0.427987,0.372291,-1.05576,0.750203,-0.261158,-0.0196025,
0.156002,-0.206122,-0.155709,-1.6928,0.331349,-0.317801,-0.382842,0.579121,-0.0278919,0.664004,-0.189302,0.346818,0.254151,0.00948078,0,0,0,0,0,0,0,0.165965,-0.205102,-0.143357,-1.69287,0.337828,1.25325,0.402396,0.428045,0.00938616,0.532888,-0.0664743,0.234131,0.113283,0.000485946,0.741459,-26.6829,1.06416,24.6103,2.96325,1.78612,-0.0429228,-1.93792,1.22806,-2.5178,-0.192181,-0.174999,0.453171,0.468851,0.427987,0.372291,-1.05576,0.750203,-0.261158,-0.0196025,
0.158387,-0.206212,-0.152972,-1.69356,0.332756,-0.316742,-0.382805,0.596244,-0.0226622,0.684458,-0.189313,0.35167,0.264725,0.00921239,0,0,0,0,0,0,0,0.165965,-0.205102,-0.143357,-1.69287,0.337828,1.25325,0.402396,0.428045,0.00938616,0.532888,-0.0664743,0.234131,0.113283,0.000485946,0.741459,-26.6829,1.06416,24.6103,2.96325,1.78612,-0.0429228,-2.05173,2.03582,-2.31274,-0.73756,-0.345736,0.833002,0.843432,0.342655,0.807862,-0.967077,0.847183,-0.264966,-0.0196982,
0.160825,-0.206282,-0.150169,-1.69431,0.334189,-0.315649,-0.382769,0.609562,-0.0174484,0.700602,-0.188481,0.358278,0.273354,0.00904262,0,0,0,0,0,0,0,0.165965,-0.205102,-0.143357,-1.69287,0.337828,1.25325,0.402396,0.428045,0.00938616,0.532888,-0.0664743,0.234131,0.113283,0.000485946,0.741459,-26.6829,1.06416,24.6103,2.96325,1.78612,-0.0429228,-2.05173,2.03582,-2.31274,-0.73756,-0.345736,0.833002,0.843432,0.342655,0.807862,-0.967077,0.847183,-0.264966,-0.0196982,
0.163307,-0.206333,-0.147315,-1.69506,0.335627,-0.314527,-0.382733,0.620475,-0.0126832,0.713483,-0.186909,0.359676,0.280482,0.00888612,0,0,0,0,0,0,0,0.165965,-0.205102,-0.143357,-1.69287,0.337828,1.25325,0.402396,0.428045,0.00938616,0.532888,-0.0664743,0.234131,0.113283,0.000485946,0.741459,-26.6829,1.06416,24.6103,2.96325,1.78612,-0.0429228,-1.44798,-0.383538,-2.64048,0.872561,0.24172,-0.288012,-0.301283,0.583556,-0.444394,-1.11307,0.596455,-0.20472,-0.0185746,
0.165825,-0.206367,-0.144419,-1.6958,0.337036,-0.313381,-0.382699,0.629585,-0.00858692,0.723993,-0.184777,0.352188,0.286579,0.00865948,0,0,0,0,0,0,0,0.165965,-0.205102,-0.143357,-1.69287,0.337828,1.25325,0.402396,0.428045,0.00938616,0.532888,-0.0664743,0.234131,0.113283,0.000485946,0.741459,-26.6829,1.06416,24.6103,2.96325,1.78612,-0.0429228,-2.37024,-1.2723,-2.47425,1.47584,-0.51386,-0.650696,-0.588761,0.0814731,-0.909175,-0.953608,0.515332,-0.209062,-0.0168957,
0.168372,-0.206388,-0.14149,-1.69653,0.338396,-0.312213,-0.382665,0.636626,-0.0050939,0.73243,-0.182576,0.339946,0.29194,0.00846468,0,0,0,0,0,0,0,0.180284,-0.205059,-0.126063,-1.69531,0.343393,1.25769,0.402394,0.445311,-0.00235012,0.558377,-0.0869063,0.142406,0.16626,-3.57212e-05,1.88404,-26.8099,2.06392,24.4635,3.05481,1.77331,-0.0227812,-2.37024,-1.2723,-2.47425,1.47584,-0.51386,-0.650696,-0.588761,0.0814731,-0.909175,-0.953608,0.515332,-0.209062,-0.0168957,
0.170939,-0.206396,-0.138534,-1.69725,0.339696,-0.311026,-0.382632,0.641835,-0.00210465,0.738935,-0.180445,0.325112,0.29678,0.00829074,0,0,0,0,0,0,0,0.180284,-0.205059,-0.126063,-1.69531,0.343393,1.25769,0.402394,0.445311,-0.00235012,0.558377,-0.0869063,0.142406,0.16626,-3.57212e-05,1.88404,-26.8099,2.06392,24.4635,3.05481,1.77331,-0.0227812,-2.14898,-0.285577,-2.71066,0.760831,-0.234008,-0.184148,-0.0977315,0.349013,-0.403976,-1.09208,0.583808,-0.236585,-0.0165591,
0.173521,-0.206394,-0.135559,-1.69797,0.340932,-0.309821,-0.382599,0.645472,0.000469329,0.743717,-0.178406,0.308849,0.301272,0.00813486,0,0,0,0,0,0,0,0.180284,-0.205059,-0.126063,-1.69531,0.343393,1.25769,0.402394,0.445311,-0.00235012,0.558377,-0.0869063,0.142406,0.16626,-3.57212e-05,1.88404,-26.8099,2.06392,24.4635,3.05481,1.77331,-0.0227812,-2.14898,-0.285577,-2.71066,0.760831,-0.234008,-0.184148,-0.0977315,0.349013,-0.403976,-1.09208,0.583808,-0.236585,-0.0165591,
0.176112,-0.206383,-0.132571,-1.69867,0.342099,-0.308599,-0.382567,0.647776,0.00269771,0.747007,-0.176443,0.291792,0.30555,0.00799048,0,0,0,0,0,0,0,0.180284,-0.205059,-0.126063,-1.69531,0.343393,1.25769,0.402394,0.445311,-0.00235012,0.558377,-0.0869063,0.142406,0.16626,-3.57212e-05,1.88404,-26.8099,2.06392,24.4635,3.05481,1.77331,-0.0227812,-2.84241,0.236374,-2.65,0.334911,-0.782844,0.0989547,0.110783,0.0829581,-0.00100252,-1.00697,0.590308,-0.264974,-0.0198886,
0.178708,-0.206365,-0.129575,-1.69937,0.343196,-0.30736,-0.382536,0.64896,0.00463456,0.749024,-0.174531,0.274297,0.309709,0.0078572,0,0,0,0,0,0,0,0.180284,-0.205059,-0.126063,-1.69531,0.343393,1.25769,0.402394,0.445311,-0.00235012,0.558377,-0.0869063,0.142406,0.16626,-3.57212e-05,1.88404,-26.8099,2.06392,24.4635,3.05481,1.77331,-0.0227812,-2.84241,0.236374,-2.65,0.334911,-0.782844,0.0989547,0.110783,0.0829581,-0.00100252,-1.00697,0.590308,-0.264974,-0.0198886,
0.181305,-0.20634,-0.126575,-1.70006,0.344223,-0.306105,-0.382505,0.649205,0.00632226,0.749969,-0.172648,0.256574,0.313813,0.00772901,0,0,0,0,0,0,0,0.19479,-0.205095,-0.108953,-1.698,0.347395,1.26429,0.402397,0.462993,-0.00593577,0.554792,-0.0863577,0.132055,0.223946,0.000197983,1.27307,-26.3616,1.68703,24.6103,2.70691,1.96557,-0.0630644,-2.59001,0.0632249,-2.70031,0.324104,-0.631539,0.0270394,0.0119065,0.16087,-0.0375644,-0.994356,0.460991,-0.212946,-0.0181735,
0.183899,-0.206308,-0.123575,-1.70074,0.345178,-0.304833,-0.382475,0.648669,0.00779479,0.750014,-0.170779,0.23876,0.317902,0.00760878,0,0,0,0,0,0,0,0.19479,-0.205095,-0.108953,-1.698,0.347395,1.26429,0.402397,0.462993,-0.00593577,0.554792,-0.0863577,0.132055,0.223946,0.000197983,1.27307,-26.3616,1.68703,24.6103,2.70691,1.96557,-0.0630644,-1.5946,0.240404,-3.1046,0.0718431,0.217186,0.0702667,0.0497237,0.704225,0.0267993,-1.18811,0.367137,-0.144749,-0.0192064,
0.186489,-0.206272,-0.120578,-1.70142,0.346061,-0.303545,-0.382445,0.647479,0.00908111,0.749305,-0.168913,0.220983,0.321998,0.0074882,0,0,0,0,0,0,0,0.19479,-0.205095,-0.108953,-1.698,0.347395,1.26429,0.402397,0.462993,-0.00593577,0.554792,-0.0863577,0.132055,0.223946,0.000197983,1.27307,-26.3616,1.68703,24.6103,2.70691,1.96557,-0.0630644,-1.5946,0.240404,-3.1046,0.0718431,0.217186,0.0702667,0.0497237,0.704225,0.0267993,-1.18811,0.367137,-0.144749,-0.0192064,
0.189072,-0.206231,-0.117586,-1.70209,0.346875,-0.302241,-0.382415,0.645735,0.0102088,0.747958,-0.167051,0.203451,0.326103,0.00737573,0,0,0,0,0,0,0,0.19479,-0.205095,-0.108953,-1.698,0.347395,1.26429,0.402397,0.462993,-0.00593577,0.554792,-0.0863577,0.132055,0.223946,0.000197983,1.27307,-26.3616,1.68703,24.6103,2.70691,1.96557,-0.0630644,-1.77383,1.07137,-3.25865,-0.494214,0.161228,0.461055,0.451558,0.765023,0.456568,-1.25286,0.467989,-0.167141,-0.0169215,
0.191646,-0.206186,-0.114602,-1.70275,0.347622,-0.30092,-0.382386,0.643495,0.0112095,0.746046,-0.165208,0.186648,0.330202,0.00723311,0,0,0,0,0,0,0,0.19479,-0.205095,-0.108953,-1.698,0.347395,1.26429,0.402397,0.462993,-0.00593577,0.554792,-0.0863577,0.132055,0.223946,0.000197983,1.27307,-26.3616,1.68703,24.6103,2.70691,1.96557,-0.0630644,-1.77383,1.07137,-3.25865,-0.494214,0.161228,0.461055,0.451558,0.765023,0.456568,-1.25286,0.467989,-0.167141,-0.0169215,
0.194209,-0.206138,-0.111627,-1.7034,0.348309,-0.299583,-0.382358,0.640712,0.0121303,0.743592,-0.16345,0.171846,0.334251,0.00707809,0,0,0,0,0,0,0,0.19479,-0.205095,-0.108953,-1.698,0.347395,1.26429,0.402397,0.462993,-0.00593577,0.554792,-0.0863577,0.132055,0.223946,0.000197983,1.27307,-26.3616,1.68703,24.6103,2.70691,1.96557,-0.0630644,-1.52099,2.0406,-3.27635,-1.18111,0.322796,0.891845,0.889751,0.916193,0.940336,-1.25637,0.543818,-0.134239,-0.0213803,
