PerkyPenguin/Analysis-on-Approximated-Derivatives/Code_and_Data/PaperData/Real_Robot/Scene_2/contact_change/11/trajectory.csv
Commanded Joint 0 Position,Commanded Joint 1 Position,Commanded Joint 2 Position,Commanded Joint 3 Position,Commanded Joint 4 Position,Commanded Joint 5 Position,Commanded Joint 6 Position,Commanded Joint 0 Velocity,Commanded Joint 1 Velocity,Commanded Joint 2 Velocity,Commanded Joint 3 Velocity,Commanded Joint 4 Velocity,Commanded Joint 5 Velocity,Commanded Joint 6 Velocity,Commanded Joint 0 Torque,Commanded Joint 1 Torque,Commanded Joint 2 Torque,Commanded Joint 3 Torque,Commanded Joint 4 Torque,Commanded Joint 5 Torque,Commanded Joint 6 Torque,Actual Joint 0 Position,Actual Joint 1 Position,Actual Joint 2 Position,Actual Joint 3 Position,Actual Joint 4 Position,Actual Joint 5 Position,Actual Joint 6 Position,Actual Joint 0 Velocity,Actual Joint 1 Velocity,Actual Joint 2 Velocity,Actual Joint 3 Velocity,Actual Joint 4 Velocity,Actual Joint 5 Velocity,Actual Joint 6 Velocity,Actual Joint 0 Torque,Actual Joint 1 Torque,Actual Joint 2 Torque,Actual Joint 3 Torque,Actual Joint 4 Torque,Actual Joint 5 Torque,Actual Joint 6 Torque,EE ext force 0,EE ext force 1,EE ext force 2,EE ext force 3,EE ext force 4,EE ext force 5,joint ext torque 0,joint ext torque 1,joint ext torque 2,joint ext torque 3,joint ext torque 4,joint ext torque 5,joint ext torque 6,
0.0213004,-0.0528805,0.515,-1.55952,0.0434057,-0.0111652,0.532865,0.0108751,0.031138,0.0151073,-0.144056,-0.0716947,0.198576,-0.00124528,0,0,0,0,0,0,0,0.0212237,-0.0530309,0.514896,-1.55808,0.0439209,1.55766,1.31828,0.000491051,-0.0013795,0.000742026,-0.000137138,-0.00954515,-0.000518789,-5.94566e-05,0.134464,-27.2344,-0.812364,26.8518,1.24115,3.06603,0.104477,2.08639,1.88914,1.99456,-0.93556,1.25372,0.195061,0.208555,0.565205,0.197596,0.113292,0.235056,-0.355865,0.093908,
0.021358,-0.0526754,0.515078,-1.56014,0.0430428,-0.0103381,0.53286,0.0144106,0.051272,0.0194189,-0.15487,-0.0907446,0.206771,-0.00133908,0,0,0,0,0,0,0,0.0212237,-0.0530309,0.514896,-1.55808,0.0439209,1.55766,1.31828,0.000491051,-0.0013795,0.000742026,-0.000137138,-0.00954515,-0.000518789,-5.94566e-05,0.134464,-27.2344,-0.812364,26.8518,1.24115,3.06603,0.104477,2.16893,1.89102,1.98397,-0.9505,1.31398,0.171134,0.183416,0.59826,0.175507,0.100979,0.2222,-0.356048,0.094677,
0.0212261,-0.0530463,0.5149,-1.55808,0.0438386,-0.013142,0.532879,-4.54308e-06,-0.000776074,6.19822e-05,0.000165169,-0.0033779,-0.000344047,-8.25895e-06,0,0,0,0,0,0,0,0.0212237,-0.0530309,0.514896,-1.55808,0.0439209,1.55766,1.31828,0.000491051,-0.0013795,0.000742026,-0.000137138,-0.00954515,-0.000518789,-5.94566e-05,0.134464,-27.2344,-0.812364,26.8518,1.24115,3.06603,0.104477,2.16893,1.89102,1.98397,-0.9505,1.31398,0.171134,0.183416,0.59826,0.175507,0.100979,0.2222,-0.356048,0.094677,
0.0212259,-0.053049,0.5149,-1.55808,0.043828,-0.0131432,0.532879,-5.11374e-05,-0.000685729,1.78992e-05,0.000177453,-0.00266177,-0.000283762,-4.65907e-06,0,0,0,0,0,0,0,0.0212237,-0.0530309,0.514896,-1.55808,0.0439209,1.55766,1.31828,0.000491051,-0.0013795,0.000742026,-0.000137138,-0.00954515,-0.000518789,-5.94566e-05,0.134464,-27.2344,-0.812364,26.8518,1.24115,3.06603,0.104477,1.85568,1.81386,2.19386,-0.818883,0.982501,0.224592,0.234975,0.368908,0.225398,0.23871,0.235234,-0.331497,0.0950419,
0.0212255,-0.0530515,0.5149,-1.55808,0.0438195,-0.0131441,0.532879,-7.96637e-05,-0.000611359,-7.37193e-06,0.000180871,-0.00211705,-0.000233517,-2.19963e-06,0,0,0,0,0,0,0,0.0212237,-0.0530309,0.514896,-1.55808,0.0439209,1.55766,1.31828,0.000491051,-0.0013795,0.000742026,-0.000137138,-0.00954515,-0.000518789,-5.94566e-05,0.134464,-27.2344,-0.812364,26.8518,1.24115,3.06603,0.104477,1.85568,1.81386,2.19386,-0.818883,0.982501,0.224592,0.234975,0.368908,0.225398,0.23871,0.235234,-0.331497,0.0950419,
0.0212251,-0.0530537,0.5149,-1.55808,0.0438127,-0.0131449,0.532879,-9.57951e-05,-0.000550389,-1.99031e-05,0.00017875,-0.00169961,-0.000194364,-5.35603e-07,0,0,0,0,0,0,0,0.0212228,-0.0531416,0.514894,-1.55863,0.0439246,1.5584,1.31828,3.82306e-05,-0.000770348,-0.000579194,-0.0323054,0.00341361,0.0540081,8.72656e-05,0.158268,-26.5837,-0.736986,26.9272,0.886837,3.13286,0.0843355,1.46961,1.27325,1.63407,-0.551538,0.88508,0.0864472,0.0989146,0.398246,0.0809198,0.097119,0.21712,-0.321661,0.0951882,
0.0212247,-0.0530557,0.514899,-1.55807,0.0438072,-0.0131455,0.532879,-0.000103523,-0.000500619,-2.3942e-05,0.000173314,-0.00137722,-0.000165981,5.77524e-07,0,0,0,0,0,0,0,0.0212228,-0.0531416,0.514894,-1.55863,0.0439246,1.5584,1.31828,3.82306e-05,-0.000770348,-0.000579194,-0.0323054,0.00341361,0.0540081,8.72656e-05,0.158268,-26.5837,-0.736986,26.9272,0.886837,3.13286,0.0843355,1.19139,1.45525,0.977049,-0.843328,0.905125,0.245468,0.250908,0.515671,0.258445,-0.116318,0.211491,-0.305966,0.0954261,
0.0212243,-0.0530575,0.514899,-1.55807,0.0438027,-0.0131461,0.532879,-0.000105645,-0.00046017,-2.24456e-05,0.00016605,-0.00112623,-0.000147328,1.31134e-06,0,0,0,0,0,0,0,0.0212228,-0.0531416,0.514894,-1.55863,0.0439246,1.5584,1.31828,3.82306e-05,-0.000770348,-0.000579194,-0.0323054,0.00341361,0.0540081,8.72656e-05,0.158268,-26.5837,-0.736986,26.9272,0.886837,3.13286,0.0843355,1.19139,1.45525,0.977049,-0.843328,0.905125,0.245468,0.250908,0.515671,0.258445,-0.116318,0.211491,-0.305966,0.0954261,
0.0217449,-0.0531601,0.515409,-1.55762,0.0299009,-0.0216322,0.532835,0.00570258,-0.00614457,0.00584436,0.00230114,-0.372661,-0.235638,-0.00105751,0,0,0,0,0,0,0,0.0212228,-0.0531416,0.514894,-1.55863,0.0439246,1.5584,1.31828,3.82306e-05,-0.000770348,-0.000579194,-0.0323054,0.00341361,0.0540081,8.72656e-05,0.158268,-26.5837,-0.736986,26.9272,0.886837,3.13286,0.0843355,2.11615,2.3067,0.803053,-1.48379,1.64751,0.371016,0.372455,0.957409,0.40594,-0.264357,0.24001,-0.2629,0.0952191,
0.0217237,-0.0530153,0.515397,-1.55836,0.0306985,-0.0201441,0.532842,0.00511408,-0.00378868,0.00529865,0.00107983,-0.35293,-0.224397,-0.000965496,0,0,0,0,0,0,0,0.0212228,-0.0531416,0.514894,-1.55863,0.0439246,1.5584,1.31828,3.82306e-05,-0.000770348,-0.000579194,-0.0323054,0.00341361,0.0540081,8.72656e-05,0.158268,-26.5837,-0.736986,26.9272,0.886837,3.13286,0.0843355,2.11615,2.3067,0.803053,-1.48379,1.64751,0.371016,0.372455,0.957409,0.40594,-0.264357,0.24001,-0.2629,0.0952191,
0.0217402,-0.0530305,0.515414,-1.55836,0.0292729,-0.0210553,0.532838,0.00411821,-0.0037945,0.00429594,0.000584582,-0.356415,-0.227787,-0.000942879,0,0,0,0,0,0,0,0.0212358,-0.0531176,0.51491,-1.55875,0.043865,1.55863,1.31828,0.00102356,0.000477113,0.000598495,-0.00142181,-0.00217964,-0.00422777,0.00122976,-0.119442,-27.4565,-1.01073,27.2287,0.855709,3.14568,0.0706026,2.66399,1.95783,1.30506,-1.11257,1.81788,0.0541177,0.0530691,0.939866,0.0784439,-0.0715113,0.198806,-0.22131,0.0970857,
0.021753,-0.0530453,0.515428,-1.55836,0.027837,-0.0219767,0.532835,0.00319844,-0.00370027,0.00336897,0.000152577,-0.35898,-0.23034,-0.000921018,0,0,0,0,0,0,0,0.0212358,-0.0531176,0.51491,-1.55875,0.043865,1.55863,1.31828,0.00102356,0.000477113,0.000598495,-0.00142181,-0.00217964,-0.00422777,0.00122976,-0.119442,-27.4565,-1.01073,27.2287,0.855709,3.14568,0.0706026,2.66399,1.95783,1.30506,-1.11257,1.81788,0.0541177,0.0530691,0.939866,0.0784439,-0.0715113,0.198806,-0.22131,0.0970857,
0.0217624,-0.0530594,0.515438,-1.55836,0.0263938,-0.0229055,0.532831,0.00235346,-0.00353399,0.00251677,-0.000225569,-0.36079,-0.232201,-0.000900086,0,0,0,0,0,0,0,0.0212358,-0.0531176,0.51491,-1.55875,0.043865,1.55863,1.31828,0.00102356,0.000477113,0.000598495,-0.00142181,-0.00217964,-0.00422777,0.00122976,-0.119442,-27.4565,-1.01073,27.2287,0.855709,3.14568,0.0706026,2.57171,2.35815,1.42419,-1.36082,1.71842,0.26193,0.256251,0.873433,0.296541,-0.0344865,0.231762,-0.221526,0.0980957,
0.0217687,-0.0530727,0.515445,-1.55836,0.0249459,-0.0238394,0.532827,0.00158035,-0.00331767,0.00173663,-0.000557303,-0.361979,-0.23349,-0.000880156,0,0,0,0,0,0,0,0.0212358,-0.0531176,0.51491,-1.55875,0.043865,1.55863,1.31828,0.00102356,0.000477113,0.000598495,-0.00142181,-0.00217964,-0.00422777,0.00122976,-0.119442,-27.4565,-1.01073,27.2287,0.855709,3.14568,0.0706026,1.79361,2.56994,1.47731,-1.53596,1.11244,0.575125,0.561296,0.528723,0.622943,0.0345309,0.213181,-0.239122,0.0991269,
0.0217722,-0.0530849,0.515449,-1.55837,0.0234953,-0.0247767,0.532824,0.000875274,-0.00306844,0.00102479,-0.000848631,-0.362651,-0.234308,-0.000861233,0,0,0,0,0,0,0,0.0212358,-0.0531176,0.51491,-1.55875,0.043865,1.55863,1.31828,0.00102356,0.000477113,0.000598495,-0.00142181,-0.00217964,-0.00422777,0.00122976,-0.119442,-27.4565,-1.01073,27.2287,0.855709,3.14568,0.0706026,1.79361,2.56994,1.47731,-1.53596,1.11244,0.575125,0.561296,0.528723,0.622943,0.0345309,0.213181,-0.239122,0.0991269,
0.0221965,-0.0530544,0.515789,-1.55697,0.00241333,-0.0548746,0.532356,0.00206315,-0.00857351,0.00112476,0.000820234,-1.13773,-1.17354,-0.0108919,0,0,0,0,0,0,0,0.0212358,-0.0531176,0.51491,-1.55875,0.043865,1.55863,1.31828,0.00102356,0.000477113,0.000598495,-0.00142181,-0.00217964,-0.00422777,0.00122976,-0.119442,-27.4565,-1.01073,27.2287,0.855709,3.14568,0.0706026,1.74456,2.13037,1.79525,-1.26025,0.917768,0.38328,0.364386,0.347459,0.429498,0.142793,0.07852,-0.274535,0.0990357,
0.0222816,-0.053229,0.515878,-1.55709,0.0023034,-0.0512487,0.532415,0.00426949,-0.0100454,0.00350014,0.00142352,-1.13911,-1.06968,-0.00969997,0,0,0,0,0,0,0,0.0213384,-0.0531154,0.515005,-1.55874,0.0396323,1.55848,1.31828,0.00324077,-3.25254e-05,0.00346208,-0.00354543,-0.195052,-0.00869727,0.000859137,-0.67883,-27.4565,-1.61376,27.2009,0.599362,2.95342,0.0779268,1.74456,2.13037,1.79525,-1.26025,0.917768,0.38328,0.364386,0.347459,0.429498,0.142793,0.07852,-0.274535,0.0990357,
0.0222861,-0.0532618,0.51588,-1.5571,-0.00232226,-0.0555741,0.532376,0.00112224,-0.00820896,0.000386611,-0.00193321,-1.15641,-1.08135,-0.00956425,0,0,0,0,0,0,0,0.0213384,-0.0531154,0.515005,-1.55874,0.0396323,1.55848,1.31828,0.00324077,-3.25254e-05,0.00346208,-0.00354543,-0.195052,-0.00869727,0.000859137,-0.67883,-27.4565,-1.61376,27.2009,0.599362,2.95342,0.0779268,1.87908,2.32259,1.77935,-1.4886,1.05455,0.430824,0.409466,0.442927,0.487861,0.0502679,0.0260386,-0.339949,0.0979738,
0.0222789,-0.0532867,0.51587,-1.55712,-0.00700564,-0.0599313,0.532339,-0.00180524,-0.00622584,-0.00251512,-0.00486266,-1.17084,-1.08929,-0.00942912,0,0,0,0,0,0,0,0.0213384,-0.0531154,0.515005,-1.55874,0.0396323,1.55848,1.31828,0.00324077,-3.25254e-05,0.00346208,-0.00354543,-0.195052,-0.00869727,0.000859137,-0.67883,-27.4565,-1.61376,27.2009,0.599362,2.95342,0.0779268,3.23894,2.67663,2.06759,-1.75345,1.90617,0.198228,0.178293,0.845432,0.261857,0.0384646,-0.0678566,-0.313501,0.100338,
0.0222608,-0.0533035,0.515849,-1.55715,-0.0117373,-0.0643078,0.532301,-0.00451571,-0.00417705,-0.00520642,-0.00741733,-1.18291,-1.09413,-0.00929525,0,0,0,0,0,0,0,0.0213384,-0.0531154,0.515005,-1.55874,0.0396323,1.55848,1.31828,0.00324077,-3.25254e-05,0.00346208,-0.00354543,-0.195052,-0.00869727,0.000859137,-0.67883,-27.4565,-1.61376,27.2009,0.599362,2.95342,0.0779268,3.23894,2.67663,2.06759,-1.75345,1.90617,0.198228,0.178293,0.845432,0.261857,0.0384646,-0.0678566,-0.313501,0.100338,
0.0222327,-0.0533119,0.515818,-1.55719,-0.0165094,-0.0686934,0.532265,-0.00701611,-0.00212309,-0.00769318,-0.00964189,-1.19303,-1.0964,-0.00916302,0,0,0,0,0,0,0,0.0213384,-0.0531154,0.515005,-1.55874,0.0396323,1.55848,1.31828,0.00324077,-3.25254e-05,0.00346208,-0.00354543,-0.195052,-0.00869727,0.000859137,-0.67883,-27.4565,-1.61376,27.2009,0.599362,2.95342,0.0779268,3.6824,3.60455,2.56396,-2.30127,2.0114,0.484796,0.460562,0.808709,0.565217,0.198446,-0.0556587,-0.257431,0.105572,
0.0221955,-0.0533124,0.515778,-1.55723,-0.0213155,-0.0730795,0.532229,-0.0093159,-0.000108238,-0.0099841,-0.0115747,-1.20153,-1.09653,-0.0090326,0,0,0,0,0,0,0,0.0217297,-0.0531482,0.515316,-1.5582,0.026922,1.55355,1.31827,0.0232826,0.000360652,0.015737,0.0355181,-0.654898,-0.318921,-0.00161405,-1.59131,-27.282,-2.21282,25.3839,-1.81855,0.971304,0.11821,3.6824,3.60455,2.56396,-2.30127,2.0114,0.484796,0.460562,0.808709,0.565217,0.198446,-0.0556587,-0.257431,0.105572,
0.0165377,-0.0520237,0.509758,-1.56074,0.00940924,-0.0549344,0.528238,-0.161127,0.0532673,-0.170682,-0.0854975,-1.03383,-1.22721,-0.0915015,0,0,0,0,0,0,0,0.0217297,-0.0531482,0.515316,-1.5582,0.026922,1.55355,1.31827,0.0232826,0.000360652,0.015737,0.0355181,-0.654898,-0.318921,-0.00161405,-1.59131,-27.282,-2.21282,25.3839,-1.81855,0.971304,0.11821,3.31342,3.11808,2.80968,-2.39274,1.77013,0.346015,0.3169,0.695932,0.444421,-0.0300952,-0.435281,-0.635076,0.105981,
0.0166465,-0.0524432,0.509831,-1.56032,-0.0167588,-0.0644836,0.528712,-0.164969,0.052123,-0.173886,-0.0813185,-1.08796,-1.25186,-0.0808033,0,0,0,0,0,0,0,0.0217297,-0.0531482,0.515316,-1.5582,0.026922,1.55355,1.31827,0.0232826,0.000360652,0.015737,0.0355181,-0.654898,-0.318921,-0.00161405,-1.59131,-27.282,-2.21282,25.3839,-1.81855,0.971304,0.11821,3.2809,2.24729,2.94036,-2.20828,1.75667,-0.0623606,-0.0900099,0.695755,0.0403396,-0.251363,-0.843508,-0.947363,0.1042,
0.0159629,-0.0522097,0.509112,-1.56066,-0.0211921,-0.0695662,0.528393,-0.1709,0.0583757,-0.179811,-0.085316,-1.10831,-1.27065,-0.0797587,0,0,0,0,0,0,0,0.0217297,-0.0531482,0.515316,-1.5582,0.026922,1.55355,1.31827,0.0232826,0.000360652,0.015737,0.0355181,-0.654898,-0.318921,-0.00161405,-1.59131,-27.282,-2.21282,25.3839,-1.81855,0.971304,0.11821,3.2809,2.24729,2.94036,-2.20828,1.75667,-0.0623606,-0.0900099,0.695755,0.0403396,-0.251363,-0.843508,-0.947363,0.1042,
0.0152581,-0.0519529,0.508372,-1.56102,-0.025698,-0.074711,0.528078,-0.17619,0.0642027,-0.185094,-0.0888155,-1.12647,-1.28622,-0.0787237,0,0,0,0,0,0,0,0.0217297,-0.0531482,0.515316,-1.5582,0.026922,1.55355,1.31827,0.0232826,0.000360652,0.015737,0.0355181,-0.654898,-0.318921,-0.00161405,-1.59131,-27.282,-2.21282,25.3839,-1.81855,0.971304,0.11821,2.15481,2.68108,3.74363,-2.30245,0.629985,0.454935,0.424585,-0.0560174,0.558642,0.138681,-0.786074,-0.949137,0.0955135,
0.0145345,-0.0516745,0.507612,-1.56139,-0.0302686,-0.0799074,0.527767,-0.180907,0.0695969,-0.189806,-0.0918578,-1.14265,-1.29908,-0.0776962,0,0,0,0,0,0,0,0.0224124,-0.0532167,0.515943,-1.55736,0.00346838,1.54093,1.31815,0.00567883,-0.00924447,-0.00237588,0.000124876,-0.770093,-0.461257,-0.0166391,-3.77331,-26.1592,-4.91057,24.6619,-0.493778,0.871512,0.0303194,2.15481,2.68108,3.74363,-2.30245,0.629985,0.454935,0.424585,-0.0560174,0.558642,0.138681,-0.786074,-0.949137,0.0955135,
0.0137941,-0.0513763,0.506836,-1.56176,-0.0348967,-0.0851461,0.527461,-0.185108,0.0745614,-0.194006,-0.094482,-1.15704,-1.30968,-0.0766745,0,0,0,0,0,0,0,0.0224124,-0.0532167,0.515943,-1.55736,0.00346838,1.54093,1.31815,0.00567883,-0.00924447,-0.00237588,0.000124876,-0.770093,-0.461257,-0.0166391,-3.77331,-26.1592,-4.91057,24.6619,-0.493778,0.871512,0.0303194,1.83475,2.74156,3.8454,-2.33426,0.514593,0.587929,0.576233,-0.064035,0.674592,0.0586665,-0.70912,-1.09489,0.0724576,
0.0130387,-0.0510599,0.506045,-1.56215,-0.039576,-0.0904196,0.527158,-0.188844,0.0791062,-0.197744,-0.0967251,-1.16982,-1.31837,-0.0756575,0,0,0,0,0,0,0,0.0224124,-0.0532167,0.515943,-1.55736,0.00346838,1.54093,1.31815,0.00567883,-0.00924447,-0.00237588,0.000124876,-0.770093,-0.461257,-0.0166391,-3.77331,-26.1592,-4.91057,24.6619,-0.493778,0.871512,0.0303194,1.83475,2.74156,3.8454,-2.33426,0.514593,0.587929,0.576233,-0.064035,0.674592,0.0586665,-0.70912,-1.09489,0.0724576,
0.0112212,-0.0513678,0.504235,-1.56365,-0.0102572,-0.0625709,0.524794,-0.320299,0.109715,-0.3337,-0.157832,-0.993243,-1.21667,-0.157248,0,0,0,0,0,0,0,0.0224124,-0.0532167,0.515943,-1.55736,0.00346838,1.54093,1.31815,0.00567883,-0.00924447,-0.00237588,0.000124876,-0.770093,-0.461257,-0.0166391,-3.77331,-26.1592,-4.91057,24.6619,-0.493778,0.871512,0.0303194,2.10384,0.67357,3.91636,-1.10941,0.796159,-0.423753,-0.413479,0.115864,-0.385515,-0.123426,-0.974399,-1.37378,0.0485196,
0.0119181,-0.0513639,0.504928,-1.56262,-0.0365045,-0.0779524,0.525632,-0.311896,0.105883,-0.324279,-0.145502,-1.01567,-1.2326,-0.137146,0,0,0,0,0,0,0,0.0224124,-0.0532167,0.515943,-1.55736,0.00346838,1.54093,1.31815,0.00567883,-0.00924447,-0.00237588,0.000124876,-0.770093,-0.461257,-0.0166391,-3.77331,-26.1592,-4.91057,24.6619,-0.493778,0.871512,0.0303194,3.55233,-0.362351,3.56292,-0.566534,2.07656,-1.30092,-1.28742,0.909156,-1.27596,-0.475207,-1.09304,-1.50367,0.0330005,
0.0106357,-0.0509034,0.503596,-1.56322,-0.0406775,-0.0829474,0.525091,-0.320588,0.11512,-0.333015,-0.149471,-1.04325,-1.24875,-0.135197,0,0,0,0,0,0,0,0.0224124,-0.0532167,0.515943,-1.55736,0.00346838,1.54093,1.31815,0.00567883,-0.00924447,-0.00237588,0.000124876,-0.770093,-0.461257,-0.0166391,-3.77331,-26.1592,-4.91057,24.6619,-0.493778,0.871512,0.0303194,3.55233,-0.362351,3.56292,-0.566534,2.07656,-1.30092,-1.28742,0.909156,-1.27596,-0.475207,-1.09304,-1.50367,0.0330005,
0.00932269,-0.0504092,0.502233,-1.56383,-0.0449512,-0.0879959,0.524558,-0.328252,0.123564,-0.340718,-0.152913,-1.06842,-1.26213,-0.133264,0,0,0,0,0,0,0,0.0224143,-0.0535327,0.515925,-1.55746,-0.0197315,1.52517,1.31701,-0.00765577,-0.00428718,-0.000998356,-0.00444944,-0.760089,-0.542037,-0.0325982,-3.97564,-25.1872,-5.13671,24.6857,-1.01838,1.01067,-0.0969389,2.46483,-0.14994,3.15378,-0.765286,1.54678,-0.877895,-0.862285,0.744673,-0.848586,-0.622557,-0.965568,-1.5897,0.00460357,
0.00798267,-0.0498842,0.500843,-1.56445,-0.0493163,-0.0930887,0.524033,-0.335007,0.131252,-0.347509,-0.155861,-1.09128,-1.2732,-0.131344,0,0,0,0,0,0,0,0.0224143,-0.0535327,0.515925,-1.55746,-0.0197315,1.52517,1.31701,-0.00765577,-0.00428718,-0.000998356,-0.00444944,-0.760089,-0.542037,-0.0325982,-3.97564,-25.1872,-5.13671,24.6857,-1.01838,1.01067,-0.0969389,2.46483,-0.14994,3.15378,-0.765286,1.54678,-0.877895,-0.862285,0.744673,-0.848586,-0.622557,-0.965568,-1.5897,0.00460357,
0.00661886,-0.0493313,0.499429,-1.56508,-0.0537642,-0.0982179,0.523515,-0.340952,0.138224,-0.353489,-0.158351,-1.11197,-1.28231,-0.129434,0,0,0,0,0,0,0,0.0224143,-0.0535327,0.515925,-1.55746,-0.0197315,1.52517,1.31701,-0.00765577,-0.00428718,-0.000998356,-0.00444944,-0.760089,-0.542037,-0.0325982,-3.97564,-25.1872,-5.13671,24.6857,-1.01838,1.01067,-0.0969389,0.465502,-0.275613,2.75588,-0.697744,0.300573,-0.347322,-0.338896,0.163203,-0.312983,-0.640133,-0.841275,-1.65088,-0.0263981,
0.00523417,-0.0487532,0.497994,-1.56573,-0.0582868,-0.103377,0.523005,-0.346171,0.144521,-0.358745,-0.160419,-1.13064,-1.28976,-0.127533,0,0,0,0,0,0,0,0.0224143,-0.0535327,0.515925,-1.55746,-0.0197315,1.52517,1.31701,-0.00765577,-0.00428718,-0.000998356,-0.00444944,-0.760089,-0.542037,-0.0325982,-3.97564,-25.1872,-5.13671,24.6857,-1.01838,1.01067,-0.0969389,0.465502,-0.275613,2.75588,-0.697744,0.300573,-0.347322,-0.338896,0.163203,-0.312983,-0.640133,-0.841275,-1.65088,-0.0263981,
0.00692703,-0.0504837,0.499858,-1.56567,-0.030652,-0.0760881,0.521883,-0.453872,0.15611,-0.468708,-0.214813,-0.931698,-1.19848,-0.210102,0,0,0,0,0,0,0,0.0224143,-0.0535327,0.515925,-1.55746,-0.0197315,1.52517,1.31701,-0.00765577,-0.00428718,-0.000998356,-0.00444944,-0.760089,-0.542037,-0.0325982,-3.97564,-25.1872,-5.13671,24.6857,-1.01838,1.01067,-0.0969389,0.525483,-0.574079,2.78708,-0.399123,0.353756,-0.479498,-0.474823,0.191339,-0.452006,-0.603142,-0.77603,-1.63379,-0.0544224,
0.00751627,-0.0509115,0.500498,-1.56496,-0.0546138,-0.0932635,0.52215,-0.434496,0.144212,-0.447878,-0.191764,-0.940658,-1.20644,-0.180556,0,0,0,0,0,0,0,0.0204814,-0.0540554,0.513357,-1.55898,-0.0500493,1.50058,1.31519,-0.0692752,-0.0199294,-0.0847263,-0.0523486,-0.719907,-0.659515,-0.0414018,-5.77679,-23.1917,-6.68791,24.4635,-0.670475,1.98571,-0.177505,2.16159,0.189072,2.73156,-0.893201,1.52559,-0.560093,-0.549644,0.823234,-0.525449,-0.687711,-0.737494,-1.50616,-0.0857607,
0.00573336,-0.050288,0.498662,-1.56574,-0.0585191,-0.098149,0.521439,-0.445729,0.155884,-0.459192,-0.195687,-0.976313,-1.22136,-0.177711,0,0,0,0,0,0,0,0.0204814,-0.0540554,0.513357,-1.55898,-0.0500493,1.50058,1.31519,-0.0692752,-0.0199294,-0.0847263,-0.0523486,-0.719907,-0.659515,-0.0414018,-5.77679,-23.1917,-6.68791,24.4635,-0.670475,1.98571,-0.177505,2.16159,0.189072,2.73156,-0.893201,1.52559,-0.560093,-0.549644,0.823234,-0.525449,-0.687711,-0.737494,-1.50616,-0.0857607,
0.00391104,-0.0496221,0.496785,-1.56654,-0.0625553,-0.103084,0.52074,-0.455578,0.16648,-0.469112,-0.199061,-1.00906,-1.2337,-0.174889,0,0,0,0,0,0,0,0.0204814,-0.0540554,0.513357,-1.55898,-0.0500493,1.50058,1.31519,-0.0692752,-0.0199294,-0.0847263,-0.0523486,-0.719907,-0.659515,-0.0414018,-5.77679,-23.1917,-6.68791,24.4635,-0.670475,1.98571,-0.177505,2.62346,0.711652,2.2163,-1.25663,1.96992,-0.414782,-0.411302,1.11695,-0.363536,-0.782802,-0.653166,-1.3364,-0.111397,
0.00205422,-0.0489178,0.494874,-1.56735,-0.0667113,-0.108059,0.520051,-0.464207,0.176062,-0.477804,-0.201912,-1.03899,-1.24387,-0.172086,0,0,0,0,0,0,0,0.0204814,-0.0540554,0.513357,-1.55898,-0.0500493,1.50058,1.31519,-0.0692752,-0.0199294,-0.0847263,-0.0523486,-0.719907,-0.659515,-0.0414018,-5.77679,-23.1917,-6.68791,24.4635,-0.670475,1.98571,-0.177505,2.62346,0.711652,2.2163,-1.25663,1.96992,-0.414782,-0.411302,1.11695,-0.363536,-0.782802,-0.653166,-1.3364,-0.111397,
0.00016721,-0.048179,0.492932,-1.56816,-0.0709762,-0.113068,0.519374,-0.471751,0.184697,-0.485407,-0.204275,-1.06622,-1.25221,-0.169299,0,0,0,0,0,0,0,0.0204814,-0.0540554,0.513357,-1.55898,-0.0500493,1.50058,1.31519,-0.0692752,-0.0199294,-0.0847263,-0.0523486,-0.719907,-0.659515,-0.0414018,-5.77679,-23.1917,-6.68791,24.4635,-0.670475,1.98571,-0.177505,1.00468,0.502062,1.96076,-0.936276,0.806094,-0.023439,-0.0321369,0.485744,0.0259175,-0.569443,-0.475082,-1.18561,-0.13876,
-0.0017461,-0.0474092,0.490964,-1.56899,-0.0753398,-0.118104,0.518708,-0.478328,0.192446,-0.492042,-0.206185,-1.0909,-1.259,-0.166526,0,0,0,0,0,0,0,0.0204814,-0.0540554,0.513357,-1.55898,-0.0500493,1.50058,1.31519,-0.0692752,-0.0199294,-0.0847263,-0.0523486,-0.719907,-0.659515,-0.0414018,-5.77679,-23.1917,-6.68791,24.4635,-0.670475,1.98571,-0.177505,1.00468,0.502062,1.96076,-0.936276,0.806094,-0.023439,-0.0321369,0.485744,0.0259175,-0.569443,-0.475082,-1.18561,-0.13876,
0.0028436,-0.0501056,0.495807,-1.56777,-0.0492377,-0.0914488,0.518543,-0.566791,0.190806,-0.581331,-0.255076,-0.864237,-1.17325,-0.250602,0,0,0,0,0,0,0,0.0169804,-0.0543976,0.509087,-1.56133,-0.0714279,1.47845,1.31297,-0.132078,-0.00636774,-0.160855,-0.0970014,-0.675665,-0.736904,-0.0885269,-5.97912,-23.8146,-6.96166,24.9594,-0.450748,2.05163,-0.150955,0.119985,-0.0893635,2.33713,-0.163654,-0.114166,-0.0139645,-0.0281441,-0.151205,0.0103473,-0.102551,-0.323545,-0.970437,-0.164454,
-0.00429328,-0.0495678,0.487284,-1.57123,-0.105353,-0.142062,0.516422,-0.566302,0.199222,-0.579602,-0.23465,-0.934201,-1.18418,-0.211521,0,0,0,0,0,0,0,0.0169804,-0.0543976,0.509087,-1.56133,-0.0714279,1.47845,1.31297,-0.132078,-0.00636774,-0.160855,-0.0970014,-0.675665,-0.736904,-0.0885269,-5.97912,-23.8146,-6.96166,24.9594,-0.450748,2.05163,-0.150955,1.01663,0.241244,2.44315,-0.231109,0.429614,-0.0817278,-0.0917244,0.0932687,-0.0635525,-0.000487939,-0.233069,-0.808109,-0.185598,
-0.00660213,-0.0487239,0.484921,-1.57218,-0.109237,-0.146841,0.515591,-0.577214,0.210955,-0.590622,-0.237593,-0.970855,-1.19473,-0.207853,0,0,0,0,0,0,0,0.0169804,-0.0543976,0.509087,-1.56133,-0.0714279,1.47845,1.31297,-0.132078,-0.00636774,-0.160855,-0.0970014,-0.675665,-0.736904,-0.0885269,-5.97912,-23.8146,-6.96166,24.9594,-0.450748,2.05163,-0.150955,1.01663,0.241244,2.44315,-0.231109,0.429614,-0.0817278,-0.0917244,0.0932687,-0.0635525,-0.000487939,-0.233069,-0.808109,-0.185598,
-0.00894889,-0.0478381,0.482521,-1.57314,-0.113255,-0.151654,0.514774,-0.586689,0.221465,-0.600193,-0.240023,-1.00449,-1.20341,-0.204211,0,0,0,0,0,0,0,0.0169804,-0.0543976,0.509087,-1.56133,-0.0714279,1.47845,1.31297,-0.132078,-0.00636774,-0.160855,-0.0970014,-0.675665,-0.736904,-0.0885269,-5.97912,-23.8146,-6.96166,24.9594,-0.450748,2.05163,-0.150955,0.791486,0.919995,1.61054,-0.859406,0.614995,0.319041,0.307404,0.3592,0.359458,-0.314762,-0.141771,-0.791676,-0.211894,
-0.0113285,-0.0469147,0.480087,-1.57411,-0.117395,-0.156496,0.513971,-0.594893,0.230841,-0.608485,-0.241969,-1.03518,-1.2105,-0.200593,0,0,0,0,0,0,0,0.0169804,-0.0543976,0.509087,-1.56133,-0.0714279,1.47845,1.31297,-0.132078,-0.00636774,-0.160855,-0.0970014,-0.675665,-0.736904,-0.0885269,-5.97912,-23.8146,-6.96166,24.9594,-0.450748,2.05163,-0.150955,0.791486,0.919995,1.61054,-0.859406,0.614995,0.319041,0.307404,0.3592,0.359458,-0.314762,-0.141771,-0.791676,-0.211894,
-0.0137363,-0.0459581,0.477624,-1.57508,-0.121648,-0.161361,0.513183,-0.601966,0.239168,-0.615641,-0.24346,-1.06308,-1.21625,-0.196996,0,0,0,0,0,0,0,0.011625,-0.0544197,0.502383,-1.56469,-0.0931489,1.45355,1.31031,-0.19778,-0.000203472,-0.244813,-0.115594,-0.664453,-0.799977,-0.0943522,-7.24865,-23.3901,-8.31053,24.1898,-0.670475,1.83922,-0.250748,-0.213045,1.2648,1.09177,-1.07184,0.0132414,0.780816,0.755704,0.0917439,0.838681,-0.309188,-0.0120424,-0.66155,-0.232509,
-0.0161684,-0.0449719,0.475137,-1.57606,-0.126001,-0.166245,0.51241,-0.608029,0.246526,-0.621783,-0.244531,-1.08834,-1.22085,-0.193418,0,0,0,0,0,0,0,0.011625,-0.0544197,0.502383,-1.56469,-0.0931489,1.45355,1.31031,-0.19778,-0.000203472,-0.244813,-0.115594,-0.664453,-0.799977,-0.0943522,-7.24865,-23.3901,-8.31053,24.1898,-0.670475,1.83922,-0.250748,0.443899,0.907113,0.89789,-0.780477,0.557951,0.454755,0.425569,0.414361,0.507417,-0.375957,0.028579,-0.610855,-0.246374,
-0.00863394,-0.0488193,0.483403,-1.57392,-0.100731,-0.140164,0.512957,-0.685657,0.241623,-0.70038,-0.29509,-0.863689,-1.15012,-0.278756,0,0,0,0,0,0,0,0.011625,-0.0544197,0.502383,-1.56469,-0.0931489,1.45355,1.31031,-0.19778,-0.000203472,-0.244813,-0.115594,-0.664453,-0.799977,-0.0943522,-7.24865,-23.3901,-8.31053,24.1898,-0.670475,1.83922,-0.250748,0.443899,0.907113,0.89789,-0.780477,0.557951,0.454755,0.425569,0.414361,0.507417,-0.375957,0.028579,-0.610855,-0.246374,
-0.0142625,-0.0485711,0.475979,-1.57591,-0.125925,-0.166679,0.512617,-0.66887,0.229501,-0.68191,-0.261029,-0.921592,-1.15798,-0.231004,0,0,0,0,0,0,0,0.011625,-0.0544197,0.502383,-1.56469,-0.0931489,1.45355,1.31031,-0.19778,-0.000203472,-0.244813,-0.115594,-0.664453,-0.799977,-0.0943522,-7.24865,-23.3901,-8.31053,24.1898,-0.670475,1.83922,-0.250748,0.581907,1.02781,0.909688,-0.935041,0.711896,0.477491,0.454456,0.522085,0.530411,-0.46859,-0.00504557,-0.687371,-0.260085,
-0.0169823,-0.0476042,0.473207,-1.57696,-0.129768,-0.171348,0.511711,-0.679957,0.241731,-0.693097,-0.263657,-0.960662,-1.1672,-0.226586,0,0,0,0,0,0,0,0.011625,-0.0544197,0.502383,-1.56469,-0.0931489,1.45355,1.31031,-0.19778,-0.000203472,-0.244813,-0.115594,-0.664453,-0.799977,-0.0943522,-7.24865,-23.3901,-8.31053,24.1898,-0.670475,1.83922,-0.250748,0.581907,1.02781,0.909688,-0.935041,0.711896,0.477491,0.454456,0.522085,0.530411,-0.46859,-0.00504557,-0.687371,-0.260085,
-0.0197402,-0.046594,0.470396,-1.57802,-0.133754,-0.176047,0.510822,-0.689473,0.252564,-0.702699,-0.265738,-0.996565,-1.17478,-0.222209,0,0,0,0,0,0,0,0.011625,-0.0544197,0.502383,-1.56469,-0.0931489,1.45355,1.31031,-0.19778,-0.000203472,-0.244813,-0.115594,-0.664453,-0.799977,-0.0943522,-7.24865,-23.3901,-8.31053,24.1898,-0.670475,1.83922,-0.250748,0.70875,1.52625,0.118823,-1.56574,1.18642,0.682191,0.661287,0.954574,0.75753,-0.900228,-0.040895,-0.780684,-0.268246,
-0.0225306,-0.0455455,0.467552,-1.57909,-0.137872,-0.180771,0.50995,-0.697595,0.262109,-0.710897,-0.267296,-1.02938,-1.18098,-0.217868,0,0,0,0,0,0,0,0.00340767,-0.0542127,0.493689,-1.56873,-0.115192,1.42783,1.30748,-0.298885,0.00754209,-0.307556,-0.131739,-0.636322,-0.769886,-0.10297,-6.99475,-23.3147,-8.06059,24.0152,-0.93964,1.59386,-0.244339,0.70875,1.52625,0.118823,-1.56574,1.18642,0.682191,0.661287,0.954574,0.75753,-0.900228,-0.040895,-0.780684,-0.268246,
-0.0253494,-0.0444662,0.46468,-1.58017,-0.142107,-0.185478,0.509096,-0.704694,0.269824,-0.718088,-0.270174,-1.05877,-1.17679,-0.213543,0,0,0,0,0,0,0,0.00340767,-0.0542127,0.493689,-1.56873,-0.115192,1.42783,1.30748,-0.298885,0.00754209,-0.307556,-0.131739,-0.636322,-0.769886,-0.10297,-6.99475,-23.3147,-8.06059,24.0152,-0.93964,1.59386,-0.244339,0.377558,1.37614,0.0432091,-1.47086,1.02816,0.699509,0.678633,0.902993,0.772222,-0.946299,-0.0198202,-0.833687,-0.277786,
-0.0281938,-0.0433647,0.461781,-1.58128,-0.146445,-0.190075,0.508259,-0.711107,0.275386,-0.72461,-0.276047,-1.08449,-1.14927,-0.209202,0,0,0,0,0,0,0,0.00340767,-0.0542127,0.493689,-1.56873,-0.115192,1.42783,1.30748,-0.298885,0.00754209,-0.307556,-0.131739,-0.636322,-0.769886,-0.10297,-6.99475,-23.3147,-8.06059,24.0152,-0.93964,1.59386,-0.244339,0.00150509,-0.493644,0.369264,-0.159951,0.580506,-0.0679588,-0.0931112,0.578493,-0.0269763,-0.762731,-0.197185,-0.893558,-0.284181,
-0.0159305,-0.0471717,0.475383,-1.57837,-0.124436,-0.165175,0.509273,-0.724541,0.278535,-0.715816,-0.321636,-0.879247,-1.13213,-0.296513,0,0,0,0,0,0,0,0.00340767,-0.0542127,0.493689,-1.56873,-0.115192,1.42783,1.30748,-0.298885,0.00754209,-0.307556,-0.131739,-0.636322,-0.769886,-0.10297,-6.99475,-23.3147,-8.06059,24.0152,-0.93964,1.59386,-0.244339,0.00150509,-0.493644,0.369264,-0.159951,0.580506,-0.0679588,-0.0931112,0.578493,-0.0269763,-0.762731,-0.197185,-0.893558,-0.284181,
-0.0258732,-0.0471636,0.464945,-1.58094,-0.148562,-0.189398,0.509151,-0.745955,0.24875,-0.737532,-0.301856,-0.908318,-0.936883,-0.241039,0,0,0,0,0,0,0,0.00340767,-0.0542127,0.493689,-1.56873,-0.115192,1.42783,1.30748,-0.298885,0.00754209,-0.307556,-0.131739,-0.636322,-0.769886,-0.10297,-6.99475,-23.3147,-8.06059,24.0152,-0.93964,1.59386,-0.244339,0.388132,-2.13437,0.495242,0.861779,0.765084,-0.924404,-0.948635,0.635542,-0.908309,-0.750425,-0.446464,-0.967789,-0.285395,
-0.0289134,-0.0461235,0.461937,-1.58217,-0.152328,-0.192881,0.508207,-0.76004,0.26001,-0.751867,-0.307876,-0.941616,-0.870661,-0.236045,0,0,0,0,0,0,0,-0.00640384,-0.0534587,0.482835,-1.57335,-0.134385,1.40505,1.3039,-0.343444,0.0363721,-0.359743,-0.155086,-0.587572,-0.701848,-0.114795,-7.04236,-23.2393,-7.98522,23.6899,-1.92292,1.15624,-0.26448,0.388132,-2.13437,0.495242,0.861779,0.765084,-0.924404,-0.948635,0.635542,-0.908309,-0.750425,-0.446464,-0.967789,-0.285395,
-0.0319915,-0.045042,0.45887,-1.58342,-0.156221,-0.196077,0.507282,-0.769529,0.270373,-0.766795,-0.312127,-0.973023,-0.798989,-0.231098,0,0,0,0,0,0,0,-0.00640384,-0.0534587,0.482835,-1.57335,-0.134385,1.40505,1.3039,-0.343444,0.0363721,-0.359743,-0.155086,-0.587572,-0.701848,-0.114795,-7.04236,-23.2393,-7.98522,23.6899,-1.92292,1.15624,-0.26448,0.571151,-1.52533,0.295571,0.291817,0.999307,-0.680593,-0.700766,0.806185,-0.648858,-0.909925,-0.503971,-1.00209,-0.287439,
-0.0350992,-0.0439238,0.455748,-1.58468,-0.160229,-0.198966,0.506377,-0.776934,0.279552,-0.78044,-0.315192,-1.00206,-0.722373,-0.226246,0,0,0,0,0,0,0,-0.00640384,-0.0534587,0.482835,-1.57335,-0.134385,1.40505,1.3039,-0.343444,0.0363721,-0.359743,-0.155086,-0.587572,-0.701848,-0.114795,-7.04236,-23.2393,-7.98522,23.6899,-1.92292,1.15624,-0.26448,1.18404,-0.0801746,-0.565891,-0.916504,1.89142,-0.149713,-0.164117,1.48381,-0.0859652,-1.39646,-0.417461,-1.03846,-0.289889,
-0.0382303,-0.042774,0.452577,-1.58595,-0.164343,-0.201531,0.505491,-0.782761,0.28746,-0.792767,-0.3174,-1.0285,-0.641113,-0.221487,0,0,0,0,0,0,0,-0.00640384,-0.0534587,0.482835,-1.57335,-0.134385,1.40505,1.3039,-0.343444,0.0363721,-0.359743,-0.155086,-0.587572,-0.701848,-0.114795,-7.04236,-23.2393,-7.98522,23.6899,-1.92292,1.15624,-0.26448,1.18404,-0.0801746,-0.565891,-0.916504,1.89142,-0.149713,-0.164117,1.48381,-0.0859652,-1.39646,-0.417461,-1.03846,-0.289889,
-0.0256444,-0.0454863,0.465135,-1.58312,-0.148723,-0.189744,0.505906,-0.73908,0.307971,-0.730922,-0.34004,-0.913768,-1.11085,-0.304798,0,0,0,0,0,0,0,-0.00640384,-0.0534587,0.482835,-1.57335,-0.134385,1.40505,1.3039,-0.343444,0.0363721,-0.359743,-0.155086,-0.587572,-0.701848,-0.114795,-7.04236,-23.2393,-7.98522,23.6899,-1.92292,1.15624,-0.26448,0.850292,-0.0438153,-0.592087,-0.966182,1.64792,-0.0442702,-0.0631958,1.34669,0.0255426,-1.37742,-0.444774,-1.03443,-0.289574,
-0.036744,-0.045289,0.452992,-1.58733,-0.168078,-0.194577,0.505292,-0.759356,0.265668,-0.75124,-0.338723,-0.906895,-0.177487,-0.245023,0,0,0,0,0,0,0,-0.00640384,-0.0534587,0.482835,-1.57335,-0.134385,1.40505,1.3039,-0.343444,0.0363721,-0.359743,-0.155086,-0.587572,-0.701848,-0.114795,-7.04236,-23.2393,-7.98522,23.6899,-1.92292,1.15624,-0.26448,0.850292,-0.0438153,-0.592087,-0.966182,1.64792,-0.0442702,-0.0631958,1.34669,0.0255426,-1.37742,-0.444774,-1.03443,-0.289574,
-0.0398306,-0.0441805,0.449937,-1.58867,-0.171827,-0.194957,0.504333,-0.771642,0.277117,-0.763759,-0.335491,-0.937306,-0.094783,-0.239871,0,0,0,0,0,0,0,-0.018475,-0.0525137,0.470122,-1.57905,-0.152076,1.38593,1.30009,-0.431414,0.0374308,-0.43863,-0.199365,-0.549288,-0.527284,-0.118369,-6.53851,-24.0129,-7.38616,23.5153,-1.62995,1.72021,-0.291031,-1.86497,1.15696,-0.442291,-1.70062,-0.415013,1.16412,1.14117,0.175448,1.2518,-1.07483,-0.317683,-0.966922,-0.286509,
-0.0429607,-0.0430348,0.446837,-1.59,-0.175685,-0.195059,0.503393,-0.782535,0.286432,-0.774902,-0.331213,-0.964586,-0.0254799,-0.234936,0,0,0,0,0,0,0,-0.018475,-0.0525137,0.470122,-1.57905,-0.152076,1.38593,1.30009,-0.431414,0.0374308,-0.43863,-0.199365,-0.549288,-0.527284,-0.118369,-6.53851,-24.0129,-7.38616,23.5153,-1.62995,1.72021,-0.291031,-1.86497,1.15696,-0.442291,-1.70062,-0.415013,1.16412,1.14117,0.175448,1.2518,-1.07483,-0.317683,-0.966922,-0.286509,
-0.0461297,-0.0418606,0.443697,-1.5913,-0.179641,-0.194926,0.502473,-0.792258,0.29356,-0.784888,-0.326643,-0.988862,0.0330599,-0.230097,0,0,0,0,0,0,0,-0.018475,-0.0525137,0.470122,-1.57905,-0.152076,1.38593,1.30009,-0.431414,0.0374308,-0.43863,-0.199365,-0.549288,-0.527284,-0.118369,-6.53851,-24.0129,-7.38616,23.5153,-1.62995,1.72021,-0.291031,-0.255373,0.111297,-0.134274,-0.939725,0.519855,0.30353,0.279448,0.579281,0.372404,-0.970581,-0.470042,-0.885776,-0.27802,
-0.0493336,-0.040666,0.440522,-1.59259,-0.183682,-0.194595,0.501571,-0.800961,0.298643,-0.793859,-0.322075,-1.01039,0.0827235,-0.225334,0,0,0,0,0,0,0,-0.018475,-0.0525137,0.470122,-1.57905,-0.152076,1.38593,1.30009,-0.431414,0.0374308,-0.43863,-0.199365,-0.549288,-0.527284,-0.118369,-6.53851,-24.0129,-7.38616,23.5153,-1.62995,1.72021,-0.291031,2.9403,-1.99789,-0.266581,0.432544,2.79834,-1.39984,-1.41932,1.80983,-1.36538,-1.16701,-0.715474,-0.848754,-0.27715,
-0.0525686,-0.0394586,0.437314,-1.59386,-0.1878,-0.194095,0.500689,-0.808764,0.301839,-0.801932,-0.317688,-1.02944,0.125036,-0.220646,0,0,0,0,0,0,0,-0.018475,-0.0525137,0.470122,-1.57905,-0.152076,1.38593,1.30009,-0.431414,0.0374308,-0.43863,-0.199365,-0.549288,-0.527284,-0.118369,-6.53851,-24.0129,-7.38616,23.5153,-1.62995,1.72021,-0.291031,2.9403,-1.99789,-0.266581,0.432544,2.79834,-1.39984,-1.41932,1.80983,-1.36538,-1.16701,-0.715474,-0.848754,-0.27715,
-0.0364548,-0.0435695,0.453243,-1.58891,-0.16849,-0.205849,0.502126,-0.754679,0.315888,-0.747008,-0.389853,-0.917084,-0.614857,-0.306866,0,0,0,0,0,0,0,-0.0381715,-0.0503153,0.450284,-1.58902,-0.175968,1.3712,1.29444,-0.499198,0.0671784,-0.519386,-0.278083,-0.590387,-0.155435,-0.157655,-4.20575,-25.5879,-5.06133,25.6577,-1.7215,2.92687,-0.230606,0.78734,-0.247974,1.07463,-0.319378,0.524363,-0.0670392,-0.0919153,0.245972,-0.0227449,-0.276024,-0.490121,-0.57713,-0.27794,
-0.0715352,-0.0398417,0.417313,-1.60377,-0.213905,-0.202155,0.49577,-0.784253,0.28722,-0.777611,-0.308856,-0.964056,0.0291327,-0.244257,0,0,0,0,0,0,0,-0.0381715,-0.0503153,0.450284,-1.58902,-0.175968,1.3712,1.29444,-0.499198,0.0671784,-0.519386,-0.278083,-0.590387,-0.155435,-0.157655,-4.20575,-25.5879,-5.06133,25.6577,-1.7215,2.92687,-0.230606,0.78734,-0.247974,1.07463,-0.319378,0.524363,-0.0670392,-0.0919153,0.245972,-0.0227449,-0.276024,-0.490121,-0.57713,-0.27794,
-0.0747095,-0.0386751,0.414164,-1.605,-0.217849,-0.201996,0.494814,-0.793553,0.291656,-0.787235,-0.306176,-0.986045,0.0396776,-0.238974,0,0,0,0,0,0,0,-0.0381715,-0.0503153,0.450284,-1.58902,-0.175968,1.3712,1.29444,-0.499198,0.0671784,-0.519386,-0.278083,-0.590387,-0.155435,-0.157655,-4.20575,-25.5879,-5.06133,25.6577,-1.7215,2.92687,-0.230606,0.283261,0.425898,1.53404,-0.608845,-0.173109,0.391565,0.368995,-0.28785,0.435263,0.103109,-0.424551,-0.385786,-0.276142,
-0.0779191,-0.0375016,0.410979,-1.60623,-0.221869,-0.201727,0.493878,-0.802421,0.293387,-0.7964,-0.307228,-1.005,0.0670816,-0.234154,0,0,0,0,0,0,0,-0.0381715,-0.0503153,0.450284,-1.58902,-0.175968,1.3712,1.29444,-0.499198,0.0671784,-0.519386,-0.278083,-0.590387,-0.155435,-0.157655,-4.20575,-25.5879,-5.06133,25.6577,-1.7215,2.92687,-0.230606,0.875082,0.064611,1.54643,-0.335529,0.160943,0.109614,0.0873588,-0.146133,0.146004,0.163759,-0.459184,-0.29521,-0.271902,
-0.0811478,-0.0363222,0.407752,-1.60745,-0.225963,-0.201337,0.49296,-0.807153,0.294841,-0.806682,-0.30722,-1.02335,0.0976073,-0.229398,0,0,0,0,0,0,0,-0.0381715,-0.0503153,0.450284,-1.58902,-0.175968,1.3712,1.29444,-0.499198,0.0671784,-0.519386,-0.278083,-0.590387,-0.155435,-0.157655,-4.20575,-25.5879,-5.06133,25.6577,-1.7215,2.92687,-0.230606,0.875082,0.064611,1.54643,-0.335529,0.160943,0.109614,0.0873588,-0.146133,0.146004,0.163759,-0.459184,-0.29521,-0.271902,
-0.0843803,-0.035137,0.404485,-1.60868,-0.230131,-0.200835,0.492061,-0.808146,0.296313,-0.81677,-0.305472,-1.04203,0.125495,-0.224726,0,0,0,0,0,0,0,-0.0381715,-0.0503153,0.450284,-1.58902,-0.175968,1.3712,1.29444,-0.499198,0.0671784,-0.519386,-0.278083,-0.590387,-0.155435,-0.157655,-4.20575,-25.5879,-5.06133,25.6577,-1.7215,2.92687,-0.230606,2.20195,1.8298,-0.0446706,-1.73378,1.80999,0.729599,0.714015,1.01456,0.799472,-0.530748,-0.277997,-0.202064,-0.268664,
-0.0876246,-0.0339472,0.401205,-1.60989,-0.234379,-0.200227,0.491181,-0.811062,0.297447,-0.820075,-0.30295,-1.06199,0.151892,-0.220122,0,0,0,0,0,0,0,-0.0543848,-0.0475092,0.433872,-1.5972,-0.195625,1.36959,1.28978,-0.527097,0.0986065,-0.548835,-0.248357,-0.667273,-0.00747725,-0.132481,-6.00293,-26.3616,-6.73552,25.9314,-1.94672,2.65496,-0.278213,2.20195,1.8298,-0.0446706,-1.73378,1.80999,0.729599,0.714015,1.01456,0.799472,-0.530748,-0.277997,-0.202064,-0.268664,
-0.0713355,-0.0384685,0.417484,-1.6056,-0.214274,-0.209138,0.492804,-0.782035,0.331206,-0.775667,-0.365482,-0.970121,-0.100465,-0.301994,0,0,0,0,0,0,0,-0.0543848,-0.0475092,0.433872,-1.5972,-0.195625,1.36959,1.28978,-0.527097,0.0986065,-0.548835,-0.248357,-0.667273,-0.00747725,-0.132481,-6.00293,-26.3616,-6.73552,25.9314,-1.94672,2.65496,-0.278213,3.06671,0.563548,-0.826778,-0.996564,2.66654,-0.01332,-0.0428193,1.59404,0.0566553,-0.790239,-0.386149,-0.13999,-0.26598,
-0.0885655,-0.0374879,0.39999,-1.61176,-0.235159,-0.192887,0.4913,-0.782208,0.270134,-0.790448,-0.297863,-0.981927,0.294031,-0.241827,0,0,0,0,0,0,0,-0.0543848,-0.0475092,0.433872,-1.5972,-0.195625,1.36959,1.28978,-0.527097,0.0986065,-0.548835,-0.248357,-0.667273,-0.00747725,-0.132481,-6.00293,-26.3616,-6.73552,25.9314,-1.94672,2.65496,-0.278213,3.03774,0.781497,-1.50309,-1.2404,2.87834,0.147963,0.122524,1.79855,0.221249,-0.988033,-0.384995,-0.0694785,-0.261634,
-0.0917082,-0.0363884,0.396812,-1.61293,-0.239195,-0.19174,0.490353,-0.785679,0.274878,-0.794372,-0.292819,-1.00897,0.286604,-0.236719,0,0,0,0,0,0,0,-0.0543848,-0.0475092,0.433872,-1.5972,-0.195625,1.36959,1.28978,-0.527097,0.0986065,-0.548835,-0.248357,-0.667273,-0.00747725,-0.132481,-6.00293,-26.3616,-6.73552,25.9314,-1.94672,2.65496,-0.278213,3.03774,0.781497,-1.50309,-1.2404,2.87834,0.147963,0.122524,1.79855,0.221249,-0.988033,-0.384995,-0.0694785,-0.261634,
-0.0948622,-0.0352818,0.393623,-1.6141,-0.243327,-0.190562,0.489425,-0.788516,0.276629,-0.797306,-0.292446,-1.033,0.294567,-0.232096,0,0,0,0,0,0,0,-0.0543848,-0.0475092,0.433872,-1.5972,-0.195625,1.36959,1.28978,-0.527097,0.0986065,-0.548835,-0.248357,-0.667273,-0.00747725,-0.132481,-6.00293,-26.3616,-6.73552,25.9314,-1.94672,2.65496,-0.278213,2.40962,-0.607881,-0.611343,-0.145059,2.05274,-0.437372,-0.458715,1.222,-0.397581,-0.599171,-0.457971,-0.130246,-0.25597,
-0.0980231,-0.034173,0.390427,-1.61527,-0.247547,-0.189309,0.488514,-0.790216,0.277202,-0.799079,-0.293347,-1.05499,0.313281,-0.227591,0,0,0,0,0,0,0,-0.0713993,-0.0438673,0.416345,-1.60475,-0.217557,1.37033,1.28576,-0.562282,0.128529,-0.579509,-0.235102,-0.727361,0.0423598,-0.132246,-3.01159,-26.8575,-3.73625,23.317,-0.926822,1.82641,-0.23793,2.40962,-0.607881,-0.611343,-0.145059,2.05274,-0.437372,-0.458715,1.222,-0.397581,-0.599171,-0.457971,-0.130246,-0.25597,
-0.101186,-0.0330645,0.387228,-1.61645,-0.251848,-0.187946,0.487622,-0.790707,0.277141,-0.799633,-0.294454,-1.07529,0.340661,-0.223225,0,0,0,0,0,0,0,-0.0713993,-0.0438673,0.416345,-1.60475,-0.217557,1.37033,1.28576,-0.562282,0.128529,-0.579509,-0.235102,-0.727361,0.0423598,-0.132246,-3.01159,-26.8575,-3.73625,23.317,-0.926822,1.82641,-0.23793,1.87296,0.938364,-1.9371,-1.31669,2.39159,0.432491,0.41795,1.68569,0.493195,-1.19357,-0.24634,-0.19823,-0.260677,
-0.104345,-0.0319561,0.384033,-1.61763,-0.256226,-0.186472,0.486745,-0.789759,0.277101,-0.798742,-0.294101,-1.09448,0.368527,-0.219045,0,0,0,0,0,0,0,-0.0713993,-0.0438673,0.416345,-1.60475,-0.217557,1.37033,1.28576,-0.562282,0.128529,-0.579509,-0.235102,-0.727361,0.0423598,-0.132246,-3.01159,-26.8575,-3.73625,23.317,-0.926822,1.82641,-0.23793,1.87296,0.938364,-1.9371,-1.31669,2.39159,0.432491,0.41795,1.68569,0.493195,-1.19357,-0.24634,-0.19823,-0.260677,
-0.0884029,-0.036125,0.400184,-1.61343,-0.235539,-0.200254,0.488437,-0.790738,0.311575,-0.785057,-0.350926,-0.981083,0.135165,-0.2979,0,0,0,0,0,0,0,-0.0713993,-0.0438673,0.416345,-1.60475,-0.217557,1.37033,1.28576,-0.562282,0.128529,-0.579509,-0.235102,-0.727361,0.0423598,-0.132246,-3.01159,-26.8575,-3.73625,23.317,-0.926822,1.82641,-0.23793,0.343114,0.438677,-1.75313,-0.928569,1.23487,0.445844,0.423981,1.05185,0.50076,-1.03157,-0.255164,-0.240535,-0.258066,
-0.10627,-0.0339673,0.381581,-1.61923,-0.258832,-0.187293,0.487382,-0.776908,0.259228,-0.786839,-0.293728,-1.01967,0.410335,-0.241153,0,0,0,0,0,0,0,-0.0713993,-0.0438673,0.416345,-1.60475,-0.217557,1.37033,1.28576,-0.562282,0.128529,-0.579509,-0.235102,-0.727361,0.0423598,-0.132246,-3.01159,-26.8575,-3.73625,23.317,-0.926822,1.82641,-0.23793,-0.940694,-0.876626,-1.20262,-0.0480363,0.122691,-0.0294515,-0.0556556,0.403786,0.00923241,-0.803367,-0.404656,-0.366636,-0.251503,
-0.109372,-0.0329137,0.378439,-1.62039,-0.263025,-0.185644,0.486437,-0.775496,0.263409,-0.78534,-0.28949,-1.04833,0.412269,-0.236243,0,0,0,0,0,0,0,-0.0896607,-0.0391784,0.39775,-1.61189,-0.240635,1.37589,1.28193,-0.606778,0.178391,-0.614436,-0.228423,-0.765669,0.271419,-0.10965,-2.15069,-28.8808,-2.78807,25.5823,-1.14106,1.99853,-0.217789,-0.940694,-0.876626,-1.20262,-0.0480363,0.122691,-0.0294515,-0.0556556,0.403786,0.00923241,-0.803367,-0.404656,-0.366636,-0.251503,
-0.112469,-0.0318543,0.375304,-1.62155,-0.267313,-0.183949,0.48551,-0.7741,0.264844,-0.783884,-0.288706,-1.07177,0.423712,-0.231912,0,0,0,0,0,0,0,-0.0896607,-0.0391784,0.39775,-1.61189,-0.240635,1.37589,1.28193,-0.606778,0.178391,-0.614436,-0.228423,-0.765669,0.271419,-0.10965,-2.15069,-28.8808,-2.78807,25.5823,-1.14106,1.99853,-0.217789,-2.10346,-0.449563,0.285573,-0.138731,-1.3627,0.330067,0.310082,-0.686819,0.356716,-0.149712,-0.399332,-0.358123,-0.243977,
-0.115561,-0.0307956,0.372173,-1.6227,-0.271643,-0.182179,0.484599,-0.773122,0.264681,-0.782804,-0.289016,-1.08273,0.442517,-0.227699,0,0,0,0,0,0,0,-0.0896607,-0.0391784,0.39775,-1.61189,-0.240635,1.37589,1.28193,-0.606778,0.178391,-0.614436,-0.228423,-0.765669,0.271419,-0.10965,-2.15069,-28.8808,-2.78807,25.5823,-1.14106,1.99853,-0.217789,-2.10346,-0.449563,0.285573,-0.138731,-1.3627,0.330067,0.310082,-0.686819,0.356716,-0.149712,-0.399332,-0.358123,-0.243977,
-0.118655,-0.0297434,0.369041,-1.62386,-0.275916,-0.180305,0.483704,-0.773507,0.263055,-0.783028,-0.289658,-1.06809,0.468455,-0.223601,0,0,0,0,0,0,0,-0.0896607,-0.0391784,0.39775,-1.61189,-0.240635,1.37589,1.28193,-0.606778,0.178391,-0.614436,-0.228423,-0.765669,0.271419,-0.10965,-2.15069,-28.8808,-2.78807,25.5823,-1.14106,1.99853,-0.217789,-0.473177,0.621873,-0.288462,-0.967627,0.0964931,0.622735,0.613177,0.175791,0.658234,-0.517667,-0.372415,-0.344632,-0.243511,
-0.10633,-0.0328313,0.381703,-1.62098,-0.25895,-0.19172,0.484623,-0.800802,0.291429,-0.795953,-0.346663,-0.991325,0.326438,-0.295683,0,0,0,0,0,0,0,-0.0896607,-0.0391784,0.39775,-1.61189,-0.240635,1.37589,1.28193,-0.606778,0.178391,-0.614436,-0.228423,-0.765669,0.271419,-0.10965,-2.15069,-28.8808,-2.78807,25.5823,-1.14106,1.99853,-0.217789,-0.248629,0.384713,-1.28171,-0.951029,0.779123,0.465815,0.459448,0.768987,0.50039,-0.995838,-0.388051,-0.427559,-0.244012,
-0.125069,-0.0289047,0.362163,-1.62633,-0.282215,-0.172417,0.483608,-0.773241,0.247346,-0.784094,-0.291819,-0.891091,0.558222,-0.241708,0,0,0,0,0,0,0,-0.0896607,-0.0391784,0.39775,-1.61189,-0.240635,1.37589,1.28193,-0.606778,0.178391,-0.614436,-0.228423,-0.765669,0.271419,-0.10965,-2.15069,-28.8808,-2.78807,25.5823,-1.14106,1.99853,-0.217789,-0.248629,0.384713,-1.28171,-0.951029,0.779123,0.465815,0.459448,0.768987,0.50039,-0.995838,-0.388051,-0.427559,-0.244012,
-0.128157,-0.0279073,0.359031,-1.62748,-0.285639,-0.170181,0.482661,-0.772185,0.249348,-0.782903,-0.286658,-0.85594,0.55884,-0.236926,0,0,0,0,0,0,0,-0.10802,-0.0335372,0.378982,-1.61853,-0.263169,1.38594,1.27764,-0.590273,0.198565,-0.619717,-0.206796,-0.753746,0.385007,-0.156446,-3.36865,-30.8009,-3.93462,25.3839,-1.78192,1.9262,-0.177505,0.1388,-2.42648,-1.60716,0.801323,1.14559,-1.02326,-1.02858,1.09132,-1.01531,-1.11002,-0.656447,-0.481237,-0.237007,
-0.131242,-0.026909,0.355904,-1.62861,-0.288888,-0.16795,0.48173,-0.771093,0.249579,-0.781717,-0.282871,-0.812291,0.557713,-0.232757,0,0,0,0,0,0,0,-0.10802,-0.0335372,0.378982,-1.61853,-0.263169,1.38594,1.27764,-0.590273,0.198565,-0.619717,-0.206796,-0.753746,0.385007,-0.156446,-3.36865,-30.8009,-3.93462,25.3839,-1.78192,1.9262,-0.177505,0.1388,-2.42648,-1.60716,0.801323,1.14559,-1.02326,-1.02858,1.09132,-1.01531,-1.11002,-0.656447,-0.481237,-0.237007,
-0.13432,-0.0259139,0.352784,-1.62973,-0.291938,-0.165733,0.480815,-0.769636,0.248791,-0.780195,-0.279446,-0.762394,0.554241,-0.228704,0,0,0,0,0,0,0,-0.10802,-0.0335372,0.378982,-1.61853,-0.263169,1.38594,1.27764,-0.590273,0.198565,-0.619717,-0.206796,-0.753746,0.385007,-0.156446,-3.36865,-30.8009,-3.93462,25.3839,-1.78192,1.9262,-0.177505,-0.519806,-2.2037,-1.29355,0.692369,0.506973,-0.819432,-0.810781,0.67018,-0.825662,-0.909705,-0.662018,-0.434073,-0.237766,
-0.137391,-0.0249248,0.349671,-1.63084,-0.294768,-0.163539,0.479916,-0.767659,0.24727,-0.778173,-0.276129,-0.707608,0.548626,-0.22476,0,0,0,0,0,0,0,-0.10802,-0.0335372,0.378982,-1.61853,-0.263169,1.38594,1.27764,-0.590273,0.198565,-0.619717,-0.206796,-0.753746,0.385007,-0.156446,-3.36865,-30.8009,-3.93462,25.3839,-1.78192,1.9262,-0.177505,-0.519806,-2.2037,-1.29355,0.692369,0.506973,-0.819432,-0.810781,0.67018,-0.825662,-0.909705,-0.662018,-0.434073,-0.237766,
-0.125491,-0.0278577,0.362096,-1.62796,-0.283247,-0.175966,0.480927,-0.800636,0.278614,-0.812392,-0.340018,-1.00302,0.493179,-0.294795,0,0,0,0,0,0,0,-0.10802,-0.0335372,0.378982,-1.61853,-0.263169,1.38594,1.27764,-0.590273,0.198565,-0.619717,-0.206796,-0.753746,0.385007,-0.156446,-3.36865,-30.8009,-3.93462,25.3839,-1.78192,1.9262,-0.177505,0.15644,0.098139,-2.52848,-0.86757,1.59275,0.308773,0.317356,1.42191,0.325613,-1.44324,-0.43884,-0.358477,-0.240939,
-0.142871,-0.0237008,0.343601,-1.63247,-0.294722,-0.15961,0.479315,-0.75904,0.227732,-0.770972,-0.27932,-0.463343,0.513663,-0.242872,0,0,0,0,0,0,0,-0.135526,-0.0245284,0.350777,-1.62743,-0.293499,1.40663,1.27067,-0.617435,0.208962,-0.647979,-0.202066,-0.579217,0.529084,-0.145742,-1.92059,-31.8761,-2.38738,24.6619,-1.09253,1.47484,-0.197647,-0.281898,-0.585832,-2.09888,-0.351937,0.993818,0.0197508,0.0202374,1.0045,0.0343966,-1.14832,-0.502227,-0.277825,-0.237214,
-0.145892,-0.0227855,0.340533,-1.63358,-0.296426,-0.157563,0.478362,-0.755248,0.228824,-0.767047,-0.276751,-0.426216,0.511759,-0.23838,0,0,0,0,0,0,0,-0.135526,-0.0245284,0.350777,-1.62743,-0.293499,1.40663,1.27067,-0.617435,0.208962,-0.647979,-0.202066,-0.579217,0.529084,-0.145742,-1.92059,-31.8761,-2.38738,24.6619,-1.09253,1.47484,-0.197647,-0.281898,-0.585832,-2.09888,-0.351937,0.993818,0.0197508,0.0202374,1.0045,0.0343966,-1.14832,-0.502227,-0.277825,-0.237214,
-0.148898,-0.0218721,0.33748,-1.63468,-0.297973,-0.155504,0.477424,-0.751494,0.228359,-0.763177,-0.275758,-0.386553,0.514602,-0.234454,0,0,0,0,0,0,0,-0.135526,-0.0245284,0.350777,-1.62743,-0.293499,1.40663,1.27067,-0.617435,0.208962,-0.647979,-0.202066,-0.579217,0.529084,-0.145742,-1.92059,-31.8761,-2.38738,24.6619,-1.09253,1.47484,-0.197647,-0.901622,-2.24172,-1.81238,0.791864,0.381043,-0.791111,-0.789122,0.681188,-0.793303,-0.94914,-0.595506,-0.283566,-0.233162,
-0.151888,-0.020964,0.334444,-1.63578,-0.299352,-0.153417,0.476501,-0.747589,0.227015,-0.759175,-0.27533,-0.344942,0.521866,-0.230656,0,0,0,0,0,0,0,-0.135526,-0.0245284,0.350777,-1.62743,-0.293499,1.40663,1.27067,-0.617435,0.208962,-0.647979,-0.202066,-0.579217,0.529084,-0.145742,-1.92059,-31.8761,-2.38738,24.6619,-1.09253,1.47484,-0.197647,-0.901622,-2.24172,-1.81238,0.791864,0.381043,-0.791111,-0.789122,0.681188,-0.793303,-0.94914,-0.595506,-0.283566,-0.233162,
-0.154862,-0.0200639,0.331424,-1.63688,-0.300558,-0.15128,0.475593,-0.743464,0.22504,-0.754967,-0.27521,-0.301511,0.534166,-0.226993,0,0,0,0,0,0,0,-0.135526,-0.0245284,0.350777,-1.62743,-0.293499,1.40663,1.27067,-0.617435,0.208962,-0.647979,-0.202066,-0.579217,0.529084,-0.145742,-1.92059,-31.8761,-2.38738,24.6619,-1.09253,1.47484,-0.197647,-1.21468,-1.94974,-1.79463,0.713843,0.120267,-0.61799,-0.609593,0.52903,-0.627147,-0.863876,-0.488721,-0.212927,-0.230564,
-0.143796,-0.0228889,0.343188,-1.63413,-0.302558,-0.161597,0.476748,-0.801432,0.253581,-0.814726,-0.324157,-0.770427,0.492387,-0.292944,0,0,0,0,0,0,0,-0.135526,-0.0245284,0.350777,-1.62743,-0.293499,1.40663,1.27067,-0.617435,0.208962,-0.647979,-0.202066,-0.579217,0.529084,-0.145742,-1.92059,-31.8761,-2.38738,24.6619,-1.09253,1.47484,-0.197647,-2.54316,1.07686,-1.7785,-1.0911,-0.750186,1.07503,1.08932,-0.0176964,1.07264,-0.815006,-0.146729,-0.153145,-0.233565,
-0.170036,-0.0150173,0.315658,-1.64112,-0.308928,-0.135254,0.47233,-0.730714,0.211654,-0.743639,-0.277014,-0.116649,0.584298,-0.245821,0,0,0,0,0,0,0,-0.156427,-0.0177683,0.329247,-1.63417,-0.309456,1.42427,1.2665,-0.666782,0.22031,-0.688973,-0.205325,-0.385947,0.555751,-0.128313,-0.198788,-33.3479,-0.562425,25.8084,0.294491,1.5609,-0.258072,-2.54316,1.07686,-1.7785,-1.0911,-0.750186,1.07503,1.08932,-0.0176964,1.07264,-0.815006,-0.146729,-0.153145,-0.233565,
-0.172935,-0.0141706,0.312709,-1.64222,-0.309286,-0.132929,0.471365,-0.724576,0.211678,-0.737356,-0.274703,-0.0895437,0.581187,-0.241468,0,0,0,0,0,0,0,-0.156427,-0.0177683,0.329247,-1.63417,-0.309456,1.42427,1.2665,-0.666782,0.22031,-0.688973,-0.205325,-0.385947,0.555751,-0.128313,-0.198788,-33.3479,-0.562425,25.8084,0.294491,1.5609,-0.258072,-1.08173,-1.32708,-1.84922,0.597545,0.312423,-0.378946,-0.369859,0.689477,-0.389526,-0.902612,-0.176298,-0.207827,-0.231168,
-0.175809,-0.013327,0.309784,-1.64331,-0.309532,-0.130627,0.470414,-0.718478,0.210884,-0.731126,-0.272436,-0.061528,0.575719,-0.237756,0,0,0,0,0,0,0,-0.156427,-0.0177683,0.329247,-1.63417,-0.309456,1.42427,1.2665,-0.666782,0.22031,-0.688973,-0.205325,-0.385947,0.555751,-0.128313,-0.198788,-33.3479,-0.562425,25.8084,0.294491,1.5609,-0.258072,-1.08173,-1.32708,-1.84922,0.597545,0.312423,-0.378946,-0.369859,0.689477,-0.389526,-0.902612,-0.176298,-0.207827,-0.231168,
-0.178658,-0.012489,0.306885,-1.64439,-0.309662,-0.128358,0.469477,-0.712318,0.20951,-0.724847,-0.269921,-0.0325656,0.567229,-0.234181,0,0,0,0,0,0,0,-0.156427,-0.0177683,0.329247,-1.63417,-0.309456,1.42427,1.2665,-0.666782,0.22031,-0.688973,-0.205325,-0.385947,0.555751,-0.128313,-0.198788,-33.3479,-0.562425,25.8084,0.294491,1.5609,-0.258072,-0.14152,-0.987414,-1.53745,0.50927,0.828638,-0.302659,-0.288447,0.894016,-0.317502,-0.810514,-0.0612827,-0.174744,-0.231868,
-0.181482,-0.0116587,0.304011,-1.64546,-0.309671,-0.126131,0.468554,-0.706081,0.207563,-0.718507,-0.267353,-0.00234225,0.55662,-0.230736,0,0,0,0,0,0,0,-0.156427,-0.0177683,0.329247,-1.63417,-0.309456,1.42427,1.2665,-0.666782,0.22031,-0.688973,-0.205325,-0.385947,0.555751,-0.128313,-0.198788,-33.3479,-0.562425,25.8084,0.294491,1.5609,-0.258072,-0.14152,-0.987414,-1.53745,0.50927,0.828638,-0.302659,-0.288447,0.894016,-0.317502,-0.810514,-0.0612827,-0.174744,-0.231868,
-0.184281,-0.0108384,0.301163,-1.64652,-0.309553,-0.123953,0.467644,-0.699742,0.205086,-0.712084,-0.264822,0.0295559,0.544596,-0.227468,0,0,0,0,0,0,0,-0.176776,-0.0112717,0.308195,-1.64068,-0.319578,1.44215,1.26242,-0.663028,0.210333,-0.697469,-0.208554,-0.222121,0.606331,-0.138224,1.1977,-33.8954,1.01259,26.1298,0.733944,1.40893,-0.190323,0.162668,-0.703865,-0.981975,0.368243,0.862975,-0.212067,-0.193569,0.819998,-0.230297,-0.685263,-0.0384311,-0.245253,-0.236698,
-0.171729,-0.0143521,0.314187,-1.6425,-0.316644,-0.136587,0.469899,-0.791572,0.235474,-0.805871,-0.311069,-0.271046,0.564777,-0.292743,0,0,0,0,0,0,0,-0.176776,-0.0112717,0.308195,-1.64068,-0.319578,1.44215,1.26242,-0.663028,0.210333,-0.697469,-0.208554,-0.222121,0.606331,-0.138224,1.1977,-33.8954,1.01259,26.1298,0.733944,1.40893,-0.190323,-0.694787,2.20068,-1.04289,-1.30271,0.454403,1.34136,1.36584,0.57014,1.32295,-0.798837,0.344641,-0.303837,-0.240436,
-0.210911,-0.00193083,0.273377,-1.65396,-0.317596,-0.100302,0.464038,-0.696767,0.198943,-0.710504,-0.269929,0.18771,0.505558,-0.248125,0,0,0,0,0,0,0,-0.176776,-0.0112717,0.308195,-1.64068,-0.319578,1.44215,1.26242,-0.663028,0.210333,-0.697469,-0.208554,-0.222121,0.606331,-0.138224,1.1977,-33.8954,1.01259,26.1298,0.733944,1.40893,-0.190323,-0.694787,2.20068,-1.04289,-1.30271,0.454403,1.34136,1.36584,0.57014,1.32295,-0.798837,0.344641,-0.303837,-0.240436,
-0.213666,-0.00113895,0.270568,-1.65503,-0.316793,-0.0983154,0.463062,-0.688671,0.197968,-0.702283,-0.267999,0.200643,0.496634,-0.243975,0,0,0,0,0,0,0,-0.176776,-0.0112717,0.308195,-1.64068,-0.319578,1.44215,1.26242,-0.663028,0.210333,-0.697469,-0.208554,-0.222121,0.606331,-0.138224,1.1977,-33.8954,1.01259,26.1298,0.733944,1.40893,-0.190323,-0.381859,-0.494967,-1.28992,0.507173,0.770383,-0.150598,-0.135101,0.946537,-0.167024,-0.890576,0.25942,-0.366407,-0.23634,
-0.216391,-0.000355475,0.267789,-1.6561,-0.315932,-0.0963424,0.4621,-0.681221,0.19587,-0.694718,-0.2674,0.215355,0.493254,-0.240426,0,0,0,0,0,0,0,-0.176776,-0.0112717,0.308195,-1.64068,-0.319578,1.44215,1.26242,-0.663028,0.210333,-0.697469,-0.208554,-0.222121,0.606331,-0.138224,1.1977,-33.8954,1.01259,26.1298,0.733944,1.40893,-0.190323,-0.381859,-0.494967,-1.28992,0.507173,0.770383,-0.150598,-0.135101,0.946537,-0.167024,-0.890576,0.25942,-0.366407,-0.23634,
-0.219088,0.000417334,0.265039,-1.65717,-0.315005,-0.0943625,0.461152,-0.674206,0.193202,-0.687595,-0.267263,0.231658,0.494968,-0.237002,0,0,0,0,0,0,0,-0.176776,-0.0112717,0.308195,-1.64068,-0.319578,1.44215,1.26242,-0.663028,0.210333,-0.697469,-0.208554,-0.222121,0.606331,-0.138224,1.1977,-33.8954,1.01259,26.1298,0.733944,1.40893,-0.190323,-0.115036,0.637597,-1.8127,-0.160738,1.19195,0.460223,0.483577,1.21675,0.438062,-1.09175,0.388591,-0.311106,-0.235832,
-0.221757,0.00117989,0.262317,-1.65823,-0.314008,-0.0923825,0.460217,-0.667258,0.19064,-0.680542,-0.265955,0.249286,0.494998,-0.233726,0,0,0,0,0,0,0,-0.197775,-0.00467406,0.286607,-1.64653,-0.323358,1.46142,1.25826,-0.660259,0.208875,-0.695203,-0.177726,-0.0575701,0.614854,-0.146786,0.0551182,-33.8478,0.0644055,25.1102,0.0564539,1.07751,-0.163772,-0.436554,1.46513,-2.29982,-0.705852,1.29591,0.908604,0.931393,1.36705,0.88715,-1.36861,0.423738,-0.390377,-0.233765,
-0.209671,-0.00250004,0.274608,-1.65387,-0.316495,-0.10273,0.462939,-0.757157,0.210381,-0.772542,-0.303044,0.245326,0.514564,-0.30423,0,0,0,0,0,0,0,-0.197775,-0.00467406,0.286607,-1.64653,-0.323358,1.46142,1.25826,-0.660259,0.208875,-0.695203,-0.177726,-0.0575701,0.614854,-0.146786,0.0551182,-33.8478,0.0644055,25.1102,0.0564539,1.07751,-0.163772,-0.436554,1.46513,-2.29982,-0.705852,1.29591,0.908604,0.931393,1.36705,0.88715,-1.36861,0.423738,-0.390377,-0.233765,
-0.228192,0.00293753,0.255544,-1.65824,-0.310174,-0.0835754,0.460694,-0.672151,0.172,-0.686177,-0.268677,0.439897,0.519067,-0.261787,0,0,0,0,0,0,0,-0.197775,-0.00467406,0.286607,-1.64653,-0.323358,1.46142,1.25826,-0.660259,0.208875,-0.695203,-0.177726,-0.0575701,0.614854,-0.146786,0.0551182,-33.8478,0.0644055,25.1102,0.0564539,1.07751,-0.163772,-0.25393,0.291597,-2.34983,0.0661013,1.40355,0.271437,0.293089,1.48957,0.250138,-1.35673,0.35323,-0.381292,-0.232415,
-0.230844,0.00362092,0.252835,-1.65931,-0.308395,-0.0815522,0.459648,-0.663052,0.170846,-0.677182,-0.267147,0.444605,0.505811,-0.261727,0,0,0,0,0,0,0,-0.197775,-0.00467406,0.286607,-1.64653,-0.323358,1.46142,1.25826,-0.660259,0.208875,-0.695203,-0.177726,-0.0575701,0.614854,-0.146786,0.0551182,-33.8478,0.0644055,25.1102,0.0564539,1.07751,-0.163772,-0.25393,0.291597,-2.34983,0.0661013,1.40355,0.271437,0.293089,1.48957,0.250138,-1.35673,0.35323,-0.381292,-0.232415,
-0.233453,0.0043078,0.250171,-1.66036,-0.306618,-0.0795895,0.458647,-0.652257,0.171721,-0.666009,-0.261321,0.444457,0.490681,-0.250017,0,0,0,0,0,0,0,-0.197775,-0.00467406,0.286607,-1.64653,-0.323358,1.46142,1.25826,-0.660259,0.208875,-0.695203,-0.177726,-0.0575701,0.614854,-0.146786,0.0551182,-33.8478,0.0644055,25.1102,0.0564539,1.07751,-0.163772,-0.498886,-1.31827,-2.13332,1.11171,1.03735,-0.587759,-0.573168,1.32109,-0.601427,-1.17042,0.250533,-0.334767,-0.228051,
-0.236024,0.00498837,0.247546,-1.6614,-0.304829,-0.077656,0.457663,-0.642692,0.170141,-0.656356,-0.259378,0.447113,0.483369,-0.246015,0,0,0,0,0,0,0,-0.218754,0.00185853,0.264978,-1.65197,-0.322267,1.4812,1.25323,-0.677451,0.208176,-0.694606,-0.17686,0.0793555,0.624048,-0.181113,0.816837,-34.9468,0.663466,24.1898,-0.615543,1.03081,-0.183914,-1.04346,0.201363,-2.26766,0.132228,0.782992,0.250282,0.273816,1.14692,0.226886,-1.26122,0.307577,-0.353606,-0.232658,
-0.23856,0.00565941,0.244955,-1.66243,-0.303023,-0.0757401,0.456693,-0.633962,0.167762,-0.647539,-0.258217,0.451562,0.478975,-0.242621,0,0,0,0,0,0,0,-0.218754,0.00185853,0.264978,-1.65197,-0.322267,1.4812,1.25323,-0.677451,0.208176,-0.694606,-0.17686,0.0793555,0.624048,-0.181113,0.816837,-34.9468,0.663466,24.1898,-0.615543,1.03081,-0.183914,-1.04346,0.201363,-2.26766,0.132228,0.782992,0.250282,0.273816,1.14692,0.226886,-1.26122,0.307577,-0.353606,-0.232658,
-0.241063,0.00632085,0.242399,-1.66345,-0.301194,-0.0738556,0.455735,-0.625655,0.165359,-0.639139,-0.256083,0.457236,0.471133,-0.239352,0,0,0,0,0,0,0,-0.218754,0.00185853,0.264978,-1.65197,-0.322267,1.4812,1.25323,-0.677451,0.208176,-0.694606,-0.17686,0.0793555,0.624048,-0.181113,0.816837,-34.9468,0.663466,24.1898,-0.615543,1.03081,-0.183914,-1.48081,1.43234,-1.47684,-0.641786,0.0264465,0.935855,0.961475,0.467891,0.90871,-0.85812,0.350013,-0.245684,-0.232609,
-0.232345,0.00376107,0.25127,-1.66036,-0.306053,-0.082424,0.45748,-0.707174,0.18049,-0.722436,-0.293498,0.507112,0.486152,-0.303618,0,0,0,0,0,0,0,-0.218754,0.00185853,0.264978,-1.65197,-0.322267,1.4812,1.25323,-0.677451,0.208176,-0.694606,-0.17686,0.0793555,0.624048,-0.181113,0.816837,-34.9468,0.663466,24.1898,-0.615543,1.03081,-0.183914,-1.48081,1.43234,-1.47684,-0.641786,0.0264465,0.935855,0.961475,0.467891,0.90871,-0.85812,0.350013,-0.245684,-0.232609,
-0.25041,0.00931844,0.232624,-1.66434,-0.301598,-0.0638458,0.454629,-0.619466,0.143426,-0.633565,-0.256117,0.561823,0.42486,-0.261023,0,0,0,0,0,0,0,-0.218754,0.00185853,0.264978,-1.65197,-0.322267,1.4812,1.25323,-0.677451,0.208176,-0.694606,-0.17686,0.0793555,0.624048,-0.181113,0.816837,-34.9468,0.663466,24.1898,-0.615543,1.03081,-0.183914,-2.12871,0.49816,-1.45555,-0.0147245,-0.500046,0.423236,0.442231,0.239032,0.404999,-0.756195,0.314696,-0.203907,-0.226817,
-0.252842,0.00989232,0.230137,-1.66534,-0.299357,-0.0622253,0.453626,-0.608109,0.14347,-0.621865,-0.250372,0.560285,0.405125,-0.250619,0,0,0,0,0,0,0,-0.246219,0.00997549,0.236624,-1.66005,-0.313971,1.50622,1.24716,-0.669704,0.186388,-0.673781,-0.196916,0.26139,0.572848,-0.137807,2.21332,-36.0179,2.08772,26.1298,0.129696,1.85937,-0.204056,-1.50893,-1.77574,-2.28702,1.3851,0.41217,-0.849123,-0.836119,1.08127,-0.856089,-1.19543,0.138818,-0.346747,-0.22364,
-0.255234,0.0104578,0.22769,-1.66634,-0.29712,-0.0606544,0.452639,-0.597869,0.141382,-0.611561,-0.248307,0.559205,0.392718,-0.246861,0,0,0,0,0,0,0,-0.246219,0.00997549,0.236624,-1.66005,-0.313971,1.50622,1.24716,-0.669704,0.186388,-0.673781,-0.196916,0.26139,0.572848,-0.137807,2.21332,-36.0179,2.08772,26.1298,0.129696,1.85937,-0.204056,-1.50893,-1.77574,-2.28702,1.3851,0.41217,-0.849123,-0.836119,1.08127,-0.856089,-1.19543,0.138818,-0.346747,-0.22364,
-0.257588,0.0110119,0.225282,-1.66733,-0.294887,-0.0591138,0.451664,-0.588509,0.138522,-0.602139,-0.247434,0.558285,0.385146,-0.24364,0,0,0,0,0,0,0,-0.246219,0.00997549,0.236624,-1.66005,-0.313971,1.50622,1.24716,-0.669704,0.186388,-0.673781,-0.196916,0.26139,0.572848,-0.137807,2.21332,-36.0179,2.08772,26.1298,0.129696,1.85937,-0.204056,-0.590508,-0.504887,-2.14171,0.604412,0.935452,-0.139151,-0.116583,1.20561,-0.159666,-1.13956,0.210566,-0.272948,-0.221259,
-0.259907,0.0115533,0.222908,-1.66832,-0.292656,-0.0575858,0.450702,-0.579836,0.135339,-0.593404,-0.247004,0.55763,0.382008,-0.240535,0,0,0,0,0,0,0,-0.246219,0.00997549,0.236624,-1.66005,-0.313971,1.50622,1.24716,-0.669704,0.186388,-0.673781,-0.196916,0.26139,0.572848,-0.137807,2.21332,-36.0179,2.08772,26.1298,0.129696,1.85937,-0.204056,-0.590508,-0.504887,-2.14171,0.604412,0.935452,-0.139151,-0.116583,1.20561,-0.159666,-1.13956,0.210566,-0.272948,-0.221259,
-0.262194,0.0120812,0.220567,-1.6693,-0.290426,-0.0560511,0.449752,-0.571721,0.131981,-0.58523,-0.246835,0.557526,0.383682,-0.237553,0,0,0,0,0,0,0,-0.246219,0.00997549,0.236624,-1.66005,-0.313971,1.50622,1.24716,-0.669704,0.186388,-0.673781,-0.196916,0.26139,0.572848,-0.137807,2.21332,-36.0179,2.08772,26.1298,0.129696,1.85937,-0.204056,-0.451303,0.649677,-1.16827,-0.105799,0.530954,0.479789,0.511368,0.686769,0.447448,-0.734574,0.288114,-0.219543,-0.219647,
-0.251962,0.00947061,0.23101,-1.66523,-0.296465,-0.0650015,0.452545,-0.662887,0.153365,-0.678027,-0.279429,0.688137,0.394089,-0.301263,0,0,0,0,0,0,0,-0.246219,0.00997549,0.236624,-1.66005,-0.313971,1.50622,1.24716,-0.669704,0.186388,-0.673781,-0.196916,0.26139,0.572848,-0.137807,2.21332,-36.0179,2.08772,26.1298,0.129696,1.85937,-0.204056,-0.451303,0.649677,-1.16827,-0.105799,0.530954,0.479789,0.511368,0.686769,0.447448,-0.734574,0.288114,-0.219543,-0.219647,
-0.276173,0.0165331,0.205973,-1.67218,-0.287322,-0.0425425,0.448572,-0.578028,0.121005,-0.592159,-0.25046,0.654727,0.393636,-0.262507,0,0,0,0,0,0,0,-0.266908,0.0160919,0.215265,-1.66616,-0.303836,1.52328,1.24309,-0.607196,0.196346,-0.649916,-0.179202,0.335715,0.491371,-0.120621,2.13398,-37.3152,2.21467,26.2805,0.0866663,1.69366,-0.157364,-1.2932,-1.46736,-0.220287,1.18298,-0.437555,-0.766381,-0.740028,0.176686,-0.781531,-0.390306,0.15408,-0.342551,-0.217252,
-0.278441,0.0170156,0.20365,-1.67315,-0.284705,-0.041023,0.447563,-0.567037,0.120624,-0.580759,-0.244291,0.654412,0.379882,-0.252107,0,0,0,0,0,0,0,-0.266908,0.0160919,0.215265,-1.66616,-0.303836,1.52328,1.24309,-0.607196,0.196346,-0.649916,-0.179202,0.335715,0.491371,-0.120621,2.13398,-37.3152,2.21467,26.2805,0.0866663,1.69366,-0.157364,-1.17275,-1.52521,-0.59567,1.24206,-0.120742,-0.813911,-0.787226,0.458507,-0.828627,-0.599125,0.155727,-0.3995,-0.214678,
-0.280668,0.017489,0.201368,-1.67412,-0.282094,-0.0395348,0.446569,-0.556905,0.118351,-0.570576,-0.241675,0.652628,0.372046,-0.248463,0,0,0,0,0,0,0,-0.266908,0.0160919,0.215265,-1.66616,-0.303836,1.52328,1.24309,-0.607196,0.196346,-0.649916,-0.179202,0.335715,0.491371,-0.120621,2.13398,-37.3152,2.21467,26.2805,0.0866663,1.69366,-0.157364,-1.17275,-1.52521,-0.59567,1.24206,-0.120742,-0.813911,-0.787226,0.458507,-0.828627,-0.599125,0.155727,-0.3995,-0.214678,
-0.282859,0.0179507,0.199123,-1.67508,-0.279495,-0.038063,0.445588,-0.54754,0.115422,-0.561166,-0.240285,0.649666,0.367945,-0.245367,0,0,0,0,0,0,0,-0.266908,0.0160919,0.215265,-1.66616,-0.303836,1.52328,1.24309,-0.607196,0.196346,-0.649916,-0.179202,0.335715,0.491371,-0.120621,2.13398,-37.3152,2.21467,26.2805,0.0866663,1.69366,-0.157364,-1.17156,0.698865,-0.56917,-0.0903953,-0.114236,0.402568,0.438029,0.304484,0.368312,-0.621872,0.315406,-0.379059,-0.216967,
-0.285014,0.0183998,0.196914,-1.67604,-0.276911,-0.0365966,0.444618,-0.538789,0.112282,-0.552368,-0.239266,0.646001,0.366616,-0.242388,0,0,0,0,0,0,0,-0.266908,0.0160919,0.215265,-1.66616,-0.303836,1.52328,1.24309,-0.607196,0.196346,-0.649916,-0.179202,0.335715,0.491371,-0.120621,2.13398,-37.3152,2.21467,26.2805,0.0866663,1.69366,-0.157364,-1.17156,0.698865,-0.56917,-0.0903953,-0.114236,0.402568,0.438029,0.304484,0.368312,-0.621872,0.315406,-0.379059,-0.216967,
-0.287135,0.0188377,0.194738,-1.67699,-0.274344,-0.0351517,0.44366,-0.530355,0.109475,-0.543877,-0.237033,0.64187,0.361224,-0.239538,0,0,0,0,0,0,0,-0.286926,0.0219676,0.194689,-1.67185,-0.291785,1.53866,1.23829,-0.606366,0.16876,-0.625378,-0.174745,0.41185,0.47227,-0.18065,2.2887,-37.343,2.31386,26.3043,0.27618,1.77331,-0.157364,-0.391228,0.746299,-1.37868,0.0118618,0.836393,0.458089,0.495833,1.00081,0.420007,-1.00917,0.398177,-0.41595,-0.217135,
-0.277496,0.0164535,0.204577,-1.673,-0.279495,-0.0437975,0.446587,-0.612242,0.124071,-0.627509,-0.272007,0.844411,0.358933,-0.30078,0,0,0,0,0,0,0,-0.286926,0.0219676,0.194689,-1.67185,-0.291785,1.53866,1.23829,-0.606366,0.16876,-0.625378,-0.174745,0.41185,0.47227,-0.18065,2.2887,-37.343,2.31386,26.3043,0.27618,1.77331,-0.157364,-0.391228,0.746299,-1.37868,0.0118618,0.836393,0.458089,0.495833,1.00081,0.420007,-1.00917,0.398177,-0.41595,-0.217135,
-0.314265,0.027219,0.16664,-1.68347,-0.2588,-0.0129303,0.439693,-0.523326,0.0929398,-0.537461,-0.237784,0.743215,0.309627,-0.262114,0,0,0,0,0,0,0,-0.286926,0.0219676,0.194689,-1.67185,-0.291785,1.53866,1.23829,-0.606366,0.16876,-0.625378,-0.174745,0.41185,0.47227,-0.18065,2.2887,-37.343,2.31386,26.3043,0.27618,1.77331,-0.157364,-0.903554,-2.31374,-1.88936,1.92266,0.76797,-1.27346,-1.25075,1.35696,-1.27591,-1.21564,0.211997,-0.508479,-0.210849,
-0.316316,0.0275895,0.164535,-1.6844,-0.255872,-0.0117603,0.438682,-0.512746,0.0926208,-0.526473,-0.231789,0.732016,0.292484,-0.252663,0,0,0,0,0,0,0,-0.286926,0.0219676,0.194689,-1.67185,-0.291785,1.53866,1.23829,-0.606366,0.16876,-0.625378,-0.174745,0.41185,0.47227,-0.18065,2.2887,-37.343,2.31386,26.3043,0.27618,1.77331,-0.157364,-1.4587,-1.46294,-2.04054,1.44748,0.452757,-0.843931,-0.816041,1.18089,-0.854034,-1.25828,0.283132,-0.489681,-0.208104,
-0.318328,0.0279514,0.162468,-1.68532,-0.252991,-0.0106337,0.437685,-0.503029,0.0904886,-0.516747,-0.229338,0.720166,0.281664,-0.249217,0,0,0,0,0,0,0,-0.286926,0.0219676,0.194689,-1.67185,-0.291785,1.53866,1.23829,-0.606366,0.16876,-0.625378,-0.174745,0.41185,0.47227,-0.18065,2.2887,-37.343,2.31386,26.3043,0.27618,1.77331,-0.157364,-1.4587,-1.46294,-2.04054,1.44748,0.452757,-0.843931,-0.816041,1.18089,-0.854034,-1.25828,0.283132,-0.489681,-0.208104,
-0.320305,0.0283024,0.160436,-1.68623,-0.25016,-0.00953416,0.4367,-0.494105,0.0877546,-0.507812,-0.228111,0.707759,0.274881,-0.246264,0,0,0,0,0,0,0,-0.286926,0.0219676,0.194689,-1.67185,-0.291785,1.53866,1.23829,-0.606366,0.16876,-0.625378,-0.174745,0.41185,0.47227,-0.18065,2.2887,-37.343,2.31386,26.3043,0.27618,1.77331,-0.157364,-1.4494,1.16827,-1.84855,-0.0922139,0.252632,0.616915,0.649832,0.790551,0.585729,-1.10065,0.505096,-0.347445,-0.205682,
-0.322248,0.0286417,0.158438,-1.68714,-0.24738,-0.00844708,0.435727,-0.485832,0.0848151,-0.499522,-0.227388,0.69512,0.271769,-0.243423,0,0,0,0,0,0,0,-0.305825,0.0274879,0.174959,-1.67699,-0.277648,1.55262,1.23264,-0.584131,0.163745,-0.619102,-0.167348,0.482816,0.411775,-0.180579,2.01099,-37.4898,1.98854,25.4593,0.148007,1.6607,-0.23793,-1.4494,1.16827,-1.84855,-0.0922139,0.252632,0.616915,0.649832,0.790551,0.585729,-1.10065,0.505096,-0.347445,-0.205682,
-0.324161,0.0289689,0.156471,-1.68805,-0.244649,-0.00735637,0.434764,-0.478108,0.0818001,-0.491777,-0.226981,0.682656,0.272678,-0.240696,0,0,0,0,0,0,0,-0.305825,0.0274879,0.174959,-1.67699,-0.277648,1.55262,1.23264,-0.584131,0.163745,-0.619102,-0.167348,0.482816,0.411775,-0.180579,2.01099,-37.4898,1.98854,25.4593,0.148007,1.6607,-0.23793,-1.30442,0.659999,-2.18527,0.268989,0.459347,0.353625,0.386551,1.00083,0.326747,-1.19061,0.489812,-0.307254,-0.204042,
-0.315402,0.0269104,0.165431,-1.68407,-0.248006,-0.0145443,0.437841,-0.551203,0.0883674,-0.566313,-0.253508,1.03746,0.262111,-0.297692,0,0,0,0,0,0,0,-0.305825,0.0274879,0.174959,-1.67699,-0.277648,1.55262,1.23264,-0.584131,0.163745,-0.619102,-0.167348,0.482816,0.411775,-0.180579,2.01099,-37.4898,1.98854,25.4593,0.148007,1.6607,-0.23793,-1.30442,0.659999,-2.18527,0.268989,0.459347,0.353625,0.386551,1.00083,0.326747,-1.19061,0.489812,-0.307254,-0.204042,
-0.331416,0.0317216,0.148676,-1.68815,-0.241033,-0.00300012,0.434109,-0.477477,0.0653252,-0.491582,-0.228535,0.81055,0.258872,-0.262019,0,0,0,0,0,0,0,-0.305825,0.0274879,0.174959,-1.67699,-0.277648,1.55262,1.23264,-0.584131,0.163745,-0.619102,-0.167348,0.482816,0.411775,-0.180579,2.01099,-37.4898,1.98854,25.4593,0.148007,1.6607,-0.23793,-1.31446,-2.49218,-2.09663,2.15286,0.388855,-1.39561,-1.3734,1.19991,-1.38544,-1.10966,0.276963,-0.324787,-0.198467,
-0.333286,0.0319789,0.146751,-1.68904,-0.237786,-0.00200976,0.433098,-0.467384,0.0643221,-0.481213,-0.22235,0.811776,0.24759,-0.252873,0,0,0,0,0,0,0,-0.305825,0.0274879,0.174959,-1.67699,-0.277648,1.55262,1.23264,-0.584131,0.163745,-0.619102,-0.167348,0.482816,0.411775,-0.180579,2.01099,-37.4898,1.98854,25.4593,0.148007,1.6607,-0.23793,-2.1455,-1.76426,-1.61467,1.67799,-0.443167,-1.0851,-1.05917,0.604937,-1.07929,-0.866659,0.321087,-0.281757,-0.192766,
-0.335117,0.0322263,0.144864,-1.68992,-0.234547,-0.00104642,0.4321,-0.457944,0.0618524,-0.471748,-0.219373,0.809831,0.240836,-0.249557,0,0,0,0,0,0,0,-0.324059,0.0320877,0.156154,-1.68286,-0.261911,1.56433,1.22724,-0.556405,0.141051,-0.580231,-0.19284,0.518211,0.34524,-0.165203,2.54261,-38.1642,2.5638,26.0068,0.660702,1.75316,-0.204056,-2.1455,-1.76426,-1.61467,1.67799,-0.443167,-1.0851,-1.05917,0.604937,-1.07929,-0.866659,0.321087,-0.281757,-0.192766,
-0.336914,0.0324622,0.143013,-1.69079,-0.231331,-9.95767e-05,0.431113,-0.449024,0.0589657,-0.462787,-0.217573,0.804038,0.23671,-0.24671,0,0,0,0,0,0,0,-0.324059,0.0320877,0.156154,-1.68286,-0.261911,1.56433,1.22724,-0.556405,0.141051,-0.580231,-0.19284,0.518211,0.34524,-0.165203,2.54261,-38.1642,2.5638,26.0068,0.660702,1.75316,-0.204056,-1.76487,1.18137,-1.97928,-0.00271805,-0.0560404,0.572654,0.608825,0.629705,0.543387,-1.02193,0.541953,-0.221432,-0.194348,
-0.338676,0.0326861,0.141196,-1.69166,-0.228149,0.000840422,0.430137,-0.440579,0.0559796,-0.454312,-0.216309,0.795552,0.235,-0.243977,0,0,0,0,0,0,0,-0.324059,0.0320877,0.156154,-1.68286,-0.261911,1.56433,1.22724,-0.556405,0.141051,-0.580231,-0.19284,0.518211,0.34524,-0.165203,2.54261,-38.1642,2.5638,26.0068,0.660702,1.75316,-0.204056,-1.76487,1.18137,-1.97928,-0.00271805,-0.0560404,0.572654,0.608825,0.629705,0.543387,-1.02193,0.541953,-0.221432,-0.194348,
-0.340406,0.0328981,0.13941,-1.69252,-0.225007,0.00178444,0.429172,-0.432582,0.0529967,-0.446293,-0.215384,0.785372,0.236003,-0.241354,0,0,0,0,0,0,0,-0.324059,0.0320877,0.156154,-1.68286,-0.261911,1.56433,1.22724,-0.556405,0.141051,-0.580231,-0.19284,0.518211,0.34524,-0.165203,2.54261,-38.1642,2.5638,26.0068,0.660702,1.75316,-0.204056,-0.959288,0.915844,-2.49412,0.287227,0.702316,0.502214,0.534411,1.15996,0.478219,-1.23499,0.594177,-0.212604,-0.19232,
-0.332057,0.031335,0.147971,-1.68878,-0.234268,-0.00421631,0.432356,-0.495654,0.0571424,-0.51072,-0.243675,1.04548,0.226542,-0.295832,0,0,0,0,0,0,0,-0.324059,0.0320877,0.156154,-1.68286,-0.261911,1.56433,1.22724,-0.556405,0.141051,-0.580231,-0.19284,0.518211,0.34524,-0.165203,2.54261,-38.1642,2.5638,26.0068,0.660702,1.75316,-0.204056,-1.07222,-0.655336,-2.02475,1.14801,0.390994,-0.383782,-0.355459,1.01634,-0.388561,-1.01648,0.458843,-0.212347,-0.188507,
-0.347376,0.0352709,0.132158,-1.69376,-0.222636,0.00567283,0.428775,-0.423013,0.0389112,-0.437018,-0.216749,0.863847,0.178153,-0.260329,0,0,0,0,0,0,0,-0.324059,0.0320877,0.156154,-1.68286,-0.261911,1.56433,1.22724,-0.556405,0.141051,-0.580231,-0.19284,0.518211,0.34524,-0.165203,2.54261,-38.1642,2.5638,26.0068,0.660702,1.75316,-0.204056,-1.07222,-0.655336,-2.02475,1.14801,0.390994,-0.383782,-0.355459,1.01634,-0.388561,-1.01648,0.458843,-0.212347,-0.188507,
-0.349024,0.0354217,0.130456,-1.69461,-0.219229,0.00632452,0.427767,-0.411872,0.0377067,-0.425532,-0.210365,0.851732,0.162921,-0.252049,0,0,0,0,0,0,0,-0.341109,0.0357541,0.138308,-1.68861,-0.24447,1.57376,1.22201,-0.527765,0.113282,-0.544554,-0.179073,0.567565,0.27366,-0.156957,2.89569,-38.3388,2.91292,26.9034,0.672604,1.99212,-0.210464,-0.897594,-1.15446,-1.93344,1.41922,0.504423,-0.650853,-0.621605,1.10771,-0.652788,-1.01861,0.39332,-0.256083,-0.186086,
-0.35063,0.035562,0.128795,-1.69543,-0.215881,0.00693478,0.426771,-0.401537,0.0350584,-0.415234,-0.207305,0.836909,0.152565,-0.24895,0,0,0,0,0,0,0,-0.341109,0.0357541,0.138308,-1.68861,-0.24447,1.57376,1.22201,-0.527765,0.113282,-0.544554,-0.179073,0.567565,0.27366,-0.156957,2.89569,-38.3388,2.91292,26.9034,0.672604,1.99212,-0.210464,-0.897594,-1.15446,-1.93344,1.41922,0.504423,-0.650853,-0.621605,1.10771,-0.652788,-1.01861,0.39332,-0.256083,-0.186086,
-0.352198,0.0356901,0.127172,-1.69626,-0.212602,0.00751509,0.425786,-0.392003,0.0320224,-0.405738,-0.205463,0.819869,0.145079,-0.246283,0,0,0,0,0,0,0,-0.341109,0.0357541,0.138308,-1.68861,-0.24447,1.57376,1.22201,-0.527765,0.113282,-0.544554,-0.179073,0.567565,0.27366,-0.156957,2.89569,-38.3388,2.91292,26.9034,0.672604,1.99212,-0.210464,-0.525934,0.0931094,-1.17067,0.559895,0.319312,0.0774237,0.117889,0.667891,0.0516275,-0.67081,0.435981,-0.179319,-0.183186,
-0.35373,0.0358058,0.125584,-1.69707,-0.209397,0.00807585,0.424811,-0.383164,0.0289369,-0.396931,-0.204177,0.801181,0.140189,-0.243721,0,0,0,0,0,0,0,-0.341109,0.0357541,0.138308,-1.68861,-0.24447,1.57376,1.22201,-0.527765,0.113282,-0.544554,-0.179073,0.567565,0.27366,-0.156957,2.89569,-38.3388,2.91292,26.9034,0.672604,1.99212,-0.210464,-0.525934,0.0931094,-1.17067,0.559895,0.319312,0.0774237,0.117889,0.667891,0.0516275,-0.67081,0.435981,-0.179319,-0.183186,
-0.35523,0.0359094,0.124029,-1.69789,-0.206272,0.00862903,0.423846,-0.374934,0.025906,-0.388731,-0.203268,0.781392,0.138295,-0.241263,0,0,0,0,0,0,0,-0.341109,0.0357541,0.138308,-1.68861,-0.24447,1.57376,1.22201,-0.527765,0.113282,-0.544554,-0.179073,0.567565,0.27366,-0.156957,2.89569,-38.3388,2.91292,26.9034,0.672604,1.99212,-0.210464,-0.0165743,0.424969,-1.08321,0.347977,0.613253,0.321059,0.361956,0.75087,0.289565,-0.65134,0.440522,-0.178485,-0.1808,
-0.348066,0.0349306,0.131391,-1.69436,-0.218781,0.00561011,0.427073,-0.44563,0.0314144,-0.460873,-0.229865,1.03488,0.175757,-0.293198,0,0,0,0,0,0,0,-0.357825,0.0390213,0.121065,-1.69436,-0.2251,1.58125,1.21688,-0.50411,0.10174,-0.520605,-0.179023,0.596042,0.197434,-0.163088,3.83594,-39.037,3.73811,27.6492,0.862118,2.32995,-0.163772,-0.581666,0.0719045,-0.708575,0.498133,0.0636497,0.0403915,0.0812911,0.42584,0.0152334,-0.491944,0.401592,-0.187838,-0.176203,
-0.37863,0.0407102,0.0995754,-1.70479,-0.184485,0.0186826,0.41847,-0.374135,0.0129007,-0.388315,-0.210176,0.853567,0.168223,-0.260367,0,0,0,0,0,0,0,-0.357825,0.0390213,0.121065,-1.69436,-0.2251,1.58125,1.21688,-0.50411,0.10174,-0.520605,-0.179023,0.596042,0.197434,-0.163088,3.83594,-39.037,3.73811,27.6492,0.862118,2.32995,-0.163772,-0.581666,0.0719045,-0.708575,0.498133,0.0636497,0.0403915,0.0812911,0.42584,0.0152334,-0.491944,0.401592,-0.187838,-0.176203,
-0.380086,0.0407594,0.0980636,-1.7056,-0.181131,0.0193346,0.417461,-0.363941,0.0123046,-0.377933,-0.203877,0.838441,0.16298,-0.252362,0,0,0,0,0,0,0,-0.357825,0.0390213,0.121065,-1.69436,-0.2251,1.58125,1.21688,-0.50411,0.10174,-0.520605,-0.179023,0.596042,0.197434,-0.163088,3.83594,-39.037,3.73811,27.6492,0.862118,2.32995,-0.163772,-0.905948,-0.977185,-1.1805,1.10757,0.104286,-0.566395,-0.523008,0.660293,-0.585322,-0.673234,0.260915,-0.206684,-0.172285,
-0.381506,0.0408009,0.0965874,-1.70641,-0.177825,0.0199734,0.416463,-0.354893,0.0103625,-0.369043,-0.200354,0.826608,0.159701,-0.24947,0,0,0,0,0,0,0,-0.357825,0.0390213,0.121065,-1.69436,-0.2251,1.58125,1.21688,-0.50411,0.10174,-0.520605,-0.179023,0.596042,0.197434,-0.163088,3.83594,-39.037,3.73811,27.6492,0.862118,2.32995,-0.163772,-0.905948,-0.977185,-1.1805,1.10757,0.104286,-0.566395,-0.523008,0.660293,-0.585322,-0.673234,0.260915,-0.206684,-0.172285,
-0.382893,0.0408328,0.0951426,-1.7072,-0.174554,0.0206013,0.415475,-0.346916,0.00798612,-0.361202,-0.197895,0.817853,0.156973,-0.246981,0,0,0,0,0,0,0,-0.357825,0.0390213,0.121065,-1.69436,-0.2251,1.58125,1.21688,-0.50411,0.10174,-0.520605,-0.179023,0.596042,0.197434,-0.163088,3.83594,-39.037,3.73811,27.6492,0.862118,2.32995,-0.163772,-0.801494,-0.800176,-1.70002,1.04912,0.428499,-0.445826,-0.401545,0.932724,-0.469599,-0.888852,0.238784,-0.211801,-0.172022,
-0.384253,0.0408548,0.0937257,-1.70798,-0.171305,0.0212201,0.414497,-0.339833,0.00549743,-0.354232,-0.195951,0.812103,0.154711,-0.244568,0,0,0,0,0,0,0,-0.357825,0.0390213,0.121065,-1.69436,-0.2251,1.58125,1.21688,-0.50411,0.10174,-0.520605,-0.179023,0.596042,0.197434,-0.163088,3.83594,-39.037,3.73811,27.6492,0.862118,2.32995,-0.163772,-0.956255,-0.208579,-2.03924,0.791301,0.458378,-0.15371,-0.105612,0.988435,-0.185257,-1.01829,0.312221,-0.201712,-0.170031,
-0.385584,0.0408673,0.0923367,-1.70876,-0.168102,0.0218321,0.413528,-0.332909,0.00311129,-0.347245,-0.194297,0.800764,0.153002,-0.242116,0,0,0,0,0,0,0,-0.377674,0.0425902,0.10077,-1.70078,-0.199665,1.58722,1.2099,-0.473217,0.0680701,-0.482253,-0.155372,0.668011,0.137394,-0.156258,3.80817,-38.7395,3.81349,26.6772,0.269772,2.31072,-0.183914,-0.956255,-0.208579,-2.03924,0.791301,0.458378,-0.15371,-0.105612,0.988435,-0.185257,-1.01829,0.312221,-0.201712,-0.170031,
-0.37854,0.0402236,0.0996193,-1.70523,-0.181934,0.0186614,0.416939,-0.37533,-8.47933e-05,-0.390537,-0.219,1.02073,0.169259,-0.290152,0,0,0,0,0,0,0,-0.377674,0.0425902,0.10077,-1.70078,-0.199665,1.58722,1.2099,-0.473217,0.0680701,-0.482253,-0.155372,0.668011,0.137394,-0.156258,3.80817,-38.7395,3.81349,26.6772,0.269772,2.31072,-0.183914,-1.05229,0.299952,-2.15898,0.495086,0.402387,0.116187,0.162789,0.920517,0.0813733,-1.02503,0.327356,-0.154822,-0.172692,
-0.395884,0.0428286,0.0818925,-1.71053,-0.158752,0.0242947,0.411634,-0.31386,-0.0137467,-0.328244,-0.196022,0.845381,0.162727,-0.256514,0,0,0,0,0,0,0,-0.377674,0.0425902,0.10077,-1.70078,-0.199665,1.58722,1.2099,-0.473217,0.0680701,-0.482253,-0.155372,0.668011,0.137394,-0.156258,3.80817,-38.7395,3.81349,26.6772,0.269772,2.31072,-0.183914,-1.05229,0.299952,-2.15898,0.495086,0.402387,0.116187,0.162789,0.920517,0.0813733,-1.02503,0.327356,-0.154822,-0.172692,
-0.397099,0.0427728,0.0806204,-1.71129,-0.155448,0.0249277,0.410634,-0.303705,-0.0139561,-0.318013,-0.190554,0.825851,0.158252,-0.250017,0,0,0,0,0,0,0,-0.377674,0.0425902,0.10077,-1.70078,-0.199665,1.58722,1.2099,-0.473217,0.0680701,-0.482253,-0.155372,0.668011,0.137394,-0.156258,3.80817,-38.7395,3.81349,26.6772,0.269772,2.31072,-0.183914,-1.31882,0.304031,-2.58565,0.548839,0.431644,0.0740427,0.119589,1.05191,0.0405883,-1.19563,0.308567,-0.162362,-0.170989,
-0.398277,0.0427114,0.0793839,-1.71204,-0.152215,0.0255487,0.409645,-0.29465,-0.0153345,-0.309137,-0.187476,0.80841,0.155232,-0.247373,0,0,0,0,0,0,0,-0.377674,0.0425902,0.10077,-1.70078,-0.199665,1.58722,1.2099,-0.473217,0.0680701,-0.482253,-0.155372,0.668011,0.137394,-0.156258,3.80817,-38.7395,3.81349,26.6772,0.269772,2.31072,-0.183914,-1.64682,-0.805639,-2.25571,1.13224,0.0534749,-0.588866,-0.542902,0.886393,-0.608708,-1.0293,0.222927,-0.146781,-0.166805,
-0.399424,0.042643,0.0781788,-1.71278,-0.149042,0.0261589,0.408664,-0.286624,-0.0171037,-0.30127,-0.185338,0.793121,0.152563,-0.245041,0,0,0,0,0,0,0,-0.391446,0.0444501,0.0863173,-1.70573,-0.179985,1.59071,1.20513,-0.43825,0.0446742,-0.444866,-0.171137,0.639964,0.105057,-0.161916,3.20118,-38.188,3.16286,26.5027,0.984799,2.44988,-0.197647,-1.64682,-0.805639,-2.25571,1.13224,0.0534749,-0.588866,-0.542902,0.886393,-0.608708,-1.0293,0.222927,-0.146781,-0.166805,
-0.400542,0.0425671,0.0770017,-1.71351,-0.145921,0.02676,0.407693,-0.279479,-0.0189834,-0.294265,-0.183672,0.780206,0.150265,-0.242779,0,0,0,0,0,0,0,-0.391446,0.0444501,0.0863173,-1.70573,-0.179985,1.59071,1.20513,-0.43825,0.0446742,-0.444866,-0.171137,0.639964,0.105057,-0.161916,3.20118,-38.188,3.16286,26.5027,0.984799,2.44988,-0.197647,-1.12304,-1.40558,-2.56299,1.59874,0.493691,-0.827773,-0.785418,1.23692,-0.836968,-1.12275,0.257532,-0.116643,-0.166659,
-0.401634,0.0424836,0.0758497,-1.71424,-0.142842,0.027355,0.406731,-0.27309,-0.0208606,-0.287999,-0.182342,0.769871,0.148756,-0.240587,0,0,0,0,0,0,0,-0.391446,0.0444501,0.0863173,-1.70573,-0.179985,1.59071,1.20513,-0.43825,0.0446742,-0.444866,-0.171137,0.639964,0.105057,-0.161916,3.20118,-38.188,3.16286,26.5027,0.984799,2.44988,-0.197647,-1.12304,-1.40558,-2.56299,1.59874,0.493691,-0.827773,-0.785418,1.23692,-0.836968,-1.12275,0.257532,-0.116643,-0.166659,
-0.396036,0.0422771,0.0816694,-1.71106,-0.15638,0.0255302,0.410158,-0.323096,-0.0282324,-0.338978,-0.205496,1.01135,0.192483,-0.285265,0,0,0,0,0,0,0,-0.391446,0.0444501,0.0863173,-1.70573,-0.179985,1.59071,1.20513,-0.43825,0.0446742,-0.444866,-0.171137,0.639964,0.105057,-0.161916,3.20118,-38.188,3.16286,26.5027,0.984799,2.44988,-0.197647,-0.810943,-2.21239,-2.74546,2.12742,0.752247,-1.20676,-1.16912,1.48343,-1.2027,-1.16317,0.239222,-0.0893714,-0.16494,
-0.407726,0.0438408,0.0693386,-1.71525,-0.139157,0.026964,0.407011,-0.273768,-0.0302229,-0.288673,-0.183049,0.888584,0.135746,-0.25015,0,0,0,0,0,0,0,-0.391446,0.0444501,0.0863173,-1.70573,-0.179985,1.59071,1.20513,-0.43825,0.0446742,-0.444866,-0.171137,0.639964,0.105057,-0.161916,3.20118,-38.188,3.16286,26.5027,0.984799,2.44988,-0.197647,-0.663084,-0.0326271,-2.88382,0.899845,0.893829,-0.0164495,0.0339641,1.37472,-0.0492437,-1.25672,0.371818,-0.100909,-0.168258,
-0.408783,0.0437136,0.0682214,-1.71597,-0.135656,0.0274805,0.40602,-0.264254,-0.031815,-0.279311,-0.179751,0.875155,0.129142,-0.247627,0,0,0,0,0,0,0,-0.391446,0.0444501,0.0863173,-1.70573,-0.179985,1.59071,1.20513,-0.43825,0.0446742,-0.444866,-0.171137,0.639964,0.105057,-0.161916,3.20118,-38.188,3.16286,26.5027,0.984799,2.44988,-0.197647,-0.663084,-0.0326271,-2.88382,0.899845,0.893829,-0.0164495,0.0339641,1.37472,-0.0492437,-1.25672,0.371818,-0.100909,-0.168258,
-0.409806,0.0435786,0.0671378,-1.71668,-0.13221,0.0279717,0.405039,-0.255708,-0.0337531,-0.270909,-0.177445,0.861622,0.12279,-0.24536,0,0,0,0,0,0,0,-0.40414,0.0453057,0.0730703,-1.71101,-0.160911,1.59302,1.20018,-0.40904,0.0218032,-0.42397,-0.163156,0.57208,0.0608812,-0.173564,4.47071,-38.4142,4.33717,27.1771,1.21643,2.55608,-0.137222,-0.697306,0.976047,-2.43114,0.256459,0.610985,0.501984,0.557238,1.00475,0.455269,-1.06154,0.448304,-0.0748282,-0.165956,
-0.410798,0.0434355,0.0660843,-1.71738,-0.128816,0.0284386,0.404066,-0.248025,-0.0357636,-0.263358,-0.175648,0.848528,0.116723,-0.243155,0,0,0,0,0,0,0,-0.40414,0.0453057,0.0730703,-1.71101,-0.160911,1.59302,1.20018,-0.40904,0.0218032,-0.42397,-0.163156,0.57208,0.0608812,-0.173564,4.47071,-38.4142,4.33717,27.1771,1.21643,2.55608,-0.137222,-0.697306,0.976047,-2.43114,0.256459,0.610985,0.501984,0.557238,1.00475,0.455269,-1.06154,0.448304,-0.0748282,-0.165956,
-0.411763,0.0432845,0.0650581,-1.71808,-0.125471,0.0288843,0.403102,-0.241106,-0.0377429,-0.256558,-0.174226,0.836283,0.111438,-0.241013,0,0,0,0,0,0,0,-0.40414,0.0453057,0.0730703,-1.71101,-0.160911,1.59302,1.20018,-0.40904,0.0218032,-0.42397,-0.163156,0.57208,0.0608812,-0.173564,4.47071,-38.4142,4.33717,27.1771,1.21643,2.55608,-0.137222,-0.567413,-1.15419,-2.38662,1.51284,0.691539,-0.617793,-0.56866,1.25955,-0.634862,-1.02418,0.342018,-0.0774538,-0.160391,
-0.40747,0.0433121,0.0695555,-1.71572,-0.138073,0.028487,0.405612,-0.269287,-0.0443487,-0.285297,-0.190898,0.990839,0.174108,-0.277509,0,0,0,0,0,0,0,-0.40414,0.0453057,0.0730703,-1.71101,-0.160911,1.59302,1.20018,-0.40904,0.0218032,-0.42397,-0.163156,0.57208,0.0608812,-0.173564,4.47071,-38.4142,4.33717,27.1771,1.21643,2.55608,-0.137222,-0.567413,-1.15419,-2.38662,1.51284,0.691539,-0.617793,-0.56866,1.25955,-0.634862,-1.02418,0.342018,-0.0774538,-0.160391,
-0.418536,0.0437729,0.0579791,-1.7201,-0.123368,0.027582,0.402219,-0.226622,-0.0488815,-0.24178,-0.179657,0.777827,0.142217,-0.24809,0,0,0,0,0,0,0,-0.40414,0.0453057,0.0730703,-1.71101,-0.160911,1.59302,1.20018,-0.40904,0.0218032,-0.42397,-0.163156,0.57208,0.0608812,-0.173564,4.47071,-38.4142,4.33717,27.1771,1.21643,2.55608,-0.137222,-0.392027,-1.12777,-2.19243,1.5209,0.689677,-0.582275,-0.531434,1.2141,-0.599393,-0.947025,0.397337,-0.074781,-0.159919,
-0.419402,0.0435738,0.0570516,-1.7208,-0.12035,0.0281698,0.401236,-0.216508,-0.0497633,-0.231863,-0.176267,0.754585,0.146959,-0.245687,0,0,0,0,0,0,0,-0.416733,0.045686,0.0600307,-1.71635,-0.141243,1.5945,1.19411,-0.376005,0.0111782,-0.362843,-0.154575,0.56927,0.0240232,-0.184488,3.65741,-38.4657,3.56355,27.6254,1.32629,2.622,-0.150955,-0.392027,-1.12777,-2.19243,1.5209,0.689677,-0.582275,-0.531434,1.2141,-0.599393,-0.947025,0.397337,-0.074781,-0.159919,
-0.420232,0.04337,0.0561596,-1.7215,-0.117425,0.0287661,0.400262,-0.207462,-0.0509558,-0.222999,-0.173445,0.731096,0.149072,-0.243533,0,0,0,0,0,0,0,-0.416733,0.045686,0.0600307,-1.71635,-0.141243,1.5945,1.19411,-0.376005,0.0111782,-0.362843,-0.154575,0.56927,0.0240232,-0.184488,3.65741,-38.4657,3.56355,27.6254,1.32629,2.622,-0.150955,-0.640858,-0.741503,-1.52931,1.19688,0.17365,-0.436709,-0.388982,0.741488,-0.451333,-0.655868,0.444852,-0.0441519,-0.161273,
-0.42103,0.0431608,0.0552993,-1.72218,-0.114594,0.0293629,0.399296,-0.199379,-0.052299,-0.215081,-0.171021,0.707852,0.149194,-0.241419,0,0,0,0,0,0,0,-0.416733,0.045686,0.0600307,-1.71635,-0.141243,1.5945,1.19411,-0.376005,0.0111782,-0.362843,-0.154575,0.56927,0.0240232,-0.184488,3.65741,-38.4657,3.56355,27.6254,1.32629,2.622,-0.150955,-1.39023,-2.15049,-1.23456,1.92411,-0.404585,-1.32917,-1.2881,0.550741,-1.31916,-0.531732,0.319595,-0.0568284,-0.164944,
-0.421799,0.042946,0.0544672,-1.72286,-0.111852,0.0299551,0.398339,-0.192166,-0.0537032,-0.208019,-0.168949,0.685382,0.148069,-0.239336,0,0,0,0,0,0,0,-0.416733,0.045686,0.0600307,-1.71635,-0.141243,1.5945,1.19411,-0.376005,0.0111782,-0.362843,-0.154575,0.56927,0.0240232,-0.184488,3.65741,-38.4657,3.56355,27.6254,1.32629,2.622,-0.150955,-1.39023,-2.15049,-1.23456,1.92411,-0.404585,-1.32917,-1.2881,0.550741,-1.31916,-0.531732,0.319595,-0.0568284,-0.164944,
-0.422541,0.0427255,0.0536603,-1.72353,-0.109195,0.0305412,0.39739,-0.18574,-0.0551085,-0.201734,-0.167229,0.664257,0.146506,-0.237292,0,0,0,0,0,0,0,-0.416733,0.045686,0.0600307,-1.71635,-0.141243,1.5945,1.19411,-0.376005,0.0111782,-0.362843,-0.154575,0.56927,0.0240232,-0.184488,3.65741,-38.4657,3.56355,27.6254,1.32629,2.622,-0.150955,-1.05843,-1.03853,-1.55192,1.38875,-0.0821252,-0.676573,-0.631301,0.678651,-0.682574,-0.672218,0.432919,-0.0577567,-0.172605,
-0.418614,0.0432048,0.0578352,-1.72066,-0.120736,0.0303413,0.400847,-0.234592,-0.0636742,-0.251277,-0.188537,0.972794,0.208625,-0.274916,0,0,0,0,0,0,0,-0.427225,0.0457814,0.0491013,-1.72096,-0.123316,1.59493,1.1892,-0.33523,0.000675607,-0.33307,-0.142557,0.546075,0.00924947,-0.131813,3.96289,-38.4142,3.88887,27.3517,0.788876,2.58904,-0.224197,-1.05843,-1.03853,-1.55192,1.38875,-0.0821252,-0.676573,-0.631301,0.678651,-0.682574,-0.672218,0.432919,-0.0577567,-0.172605,
-0.438883,0.0432537,0.0366862,-1.72978,-0.0868974,0.0313407,0.391348,-0.186105,-0.0652822,-0.202465,-0.169557,0.778474,0.169677,-0.24621,0,0,0,0,0,0,0,-0.427225,0.0457814,0.0491013,-1.72096,-0.123316,1.59493,1.1892,-0.33523,0.000675607,-0.33307,-0.142557,0.546075,0.00924947,-0.131813,3.96289,-38.4142,3.88887,27.3517,0.788876,2.58904,-0.224197,-0.78838,0.384842,-1.43696,0.527873,-0.0266714,0.135958,0.18482,0.488411,0.109551,-0.599304,0.508028,-0.0145819,-0.181388,
-0.439597,0.04299,0.0359069,-1.73044,-0.0838365,0.0320026,0.390372,-0.17846,-0.0659328,-0.194823,-0.166071,0.765237,0.165469,-0.24385,0,0,0,0,0,0,0,-0.427225,0.0457814,0.0491013,-1.72096,-0.123316,1.59493,1.1892,-0.33523,0.000675607,-0.33307,-0.142557,0.546075,0.00924947,-0.131813,3.96289,-38.4142,3.88887,27.3517,0.788876,2.58904,-0.224197,-1.42438,-0.192001,-1.74897,0.862447,-0.232583,-0.289101,-0.241184,0.555299,-0.308051,-0.746333,0.39722,-0.0491303,-0.187748,
-0.440282,0.0427223,0.0351562,-1.73109,-0.0808491,0.032641,0.389406,-0.171278,-0.0669329,-0.187674,-0.163402,0.746852,0.159606,-0.241673,0,0,0,0,0,0,0,-0.427225,0.0457814,0.0491013,-1.72096,-0.123316,1.59493,1.1892,-0.33523,0.000675607,-0.33307,-0.142557,0.546075,0.00924947,-0.131813,3.96289,-38.4142,3.88887,27.3517,0.788876,2.58904,-0.224197,-1.42438,-0.192001,-1.74897,0.862447,-0.232583,-0.289101,-0.241184,0.555299,-0.308051,-0.746333,0.39722,-0.0491303,-0.187748,
-0.44094,0.04245,0.034432,-1.73174,-0.0779496,0.0332509,0.388447,-0.164611,-0.0680645,-0.181062,-0.16122,0.724871,0.152465,-0.239542,0,0,0,0,0,0,0,-0.427225,0.0457814,0.0491013,-1.72096,-0.123316,1.59493,1.1892,-0.33523,0.000675607,-0.33307,-0.142557,0.546075,0.00924947,-0.131813,3.96289,-38.4142,3.88887,27.3517,0.788876,2.58904,-0.224197,-1.56872,-0.0841994,-2.03329,0.837213,-0.209409,-0.259215,-0.202744,0.626317,-0.288101,-0.846058,0.385077,-0.0370057,-0.192764,
-0.441574,0.0421731,0.033732,-1.73238,-0.075147,0.0338296,0.387498,-0.158489,-0.0692255,-0.175008,-0.159427,0.700642,0.14469,-0.237447,0,0,0,0,0,0,0,-0.427225,0.0457814,0.0491013,-1.72096,-0.123316,1.59493,1.1892,-0.33523,0.000675607,-0.33307,-0.142557,0.546075,0.00924947,-0.131813,3.96289,-38.4142,3.88887,27.3517,0.788876,2.58904,-0.224197,-1.56872,-0.0841994,-2.03329,0.837213,-0.209409,-0.259215,-0.202744,0.626317,-0.288101,-0.846058,0.385077,-0.0370057,-0.192764,
-0.442186,0.0418917,0.0330539,-1.73301,-0.0724454,0.0343781,0.386556,-0.152929,-0.0703583,-0.169527,-0.158019,0.6754,0.137114,-0.235388,0,0,0,0,0,0,0,-0.439793,0.0455989,0.0356946,-1.7263,-0.101968,1.59513,1.18357,-0.284057,-0.00921986,-0.295457,-0.116171,0.52396,0.000493599,-0.138617,2.87189,-36.8153,2.86134,26.828,1.25305,2.82799,-0.210464,-1.37854,-0.518082,-2.31084,1.15744,0.0147273,-0.44091,-0.380105,0.848537,-0.4699,-0.930678,0.379093,-0.0137304,-0.198318,
-0.438508,0.0427229,0.0370367,-1.73021,-0.0831544,0.0347196,0.39012,-0.176687,-0.0792496,-0.193711,-0.174831,0.974961,0.250576,-0.270151,0,0,0,0,0,0,0,-0.439793,0.0455989,0.0356946,-1.7263,-0.101968,1.59513,1.18357,-0.284057,-0.00921986,-0.295457,-0.116171,0.52396,0.000493599,-0.138617,2.87189,-36.8153,2.86134,26.828,1.25305,2.82799,-0.210464,-0.981299,-0.70389,-2.53334,1.34432,0.311089,-0.44657,-0.389498,1.05227,-0.469895,-0.97504,0.416679,0.0315255,-0.205642,
-0.4492,0.0423913,0.0255248,-1.7346,-0.0689517,0.031173,0.385942,-0.14058,-0.0784099,-0.157344,-0.163854,0.668017,0.170778,-0.242231,0,0,0,0,0,0,0,-0.439793,0.0455989,0.0356946,-1.7263,-0.101968,1.59513,1.18357,-0.284057,-0.00921986,-0.295457,-0.116171,0.52396,0.000493599,-0.138617,2.87189,-36.8153,2.86134,26.828,1.25305,2.82799,-0.210464,-0.981299,-0.70389,-2.53334,1.34432,0.311089,-0.44657,-0.389498,1.05227,-0.469895,-0.97504,0.416679,0.0315255,-0.205642,
-0.449736,0.0420777,0.0249222,-1.73525,-0.0663418,0.0318679,0.384982,-0.133928,-0.0784192,-0.150655,-0.160923,0.652476,0.173731,-0.239985,0,0,0,0,0,0,0,-0.439793,0.0455989,0.0356946,-1.7263,-0.101968,1.59513,1.18357,-0.284057,-0.00921986,-0.295457,-0.116171,0.52396,0.000493599,-0.138617,2.87189,-36.8153,2.86134,26.828,1.25305,2.82799,-0.210464,-1.32626,-0.868442,-2.51359,1.42272,0.0738084,-0.606631,-0.554467,0.953888,-0.62154,-0.954528,0.39385,0.0408929,-0.210596,
-0.450246,0.0417629,0.024345,-1.73588,-0.0638192,0.0325598,0.384031,-0.127566,-0.0786898,-0.144297,-0.158248,0.630632,0.172978,-0.237867,0,0,0,0,0,0,0,-0.439793,0.0455989,0.0356946,-1.7263,-0.101968,1.59513,1.18357,-0.284057,-0.00921986,-0.295457,-0.116171,0.52396,0.000493599,-0.138617,2.87189,-36.8153,2.86134,26.828,1.25305,2.82799,-0.210464,-1.32626,-0.868442,-2.51359,1.42272,0.0738084,-0.606631,-0.554467,0.953888,-0.62154,-0.954528,0.39385,0.0408929,-0.210596,
-0.450733,0.0414463,0.0237914,-1.7365,-0.0614008,0.0332383,0.383087,-0.121619,-0.0791611,-0.138389,-0.155913,0.604601,0.169618,-0.23578,0,0,0,0,0,0,0,-0.447555,0.0453011,0.0274107,-1.72956,-0.0862876,1.59538,1.1794,-0.239339,-0.0163706,-0.256875,-0.109283,0.526053,0.0195004,-0.148063,2.64179,-37.3152,2.46461,26.1575,1.30157,2.50298,-0.177505,-1.96828,-1.72577,-2.56527,1.91612,-0.264999,-1.19386,-1.14022,0.933301,-1.19883,-0.995778,0.316988,0.0109175,-0.21659,
-0.451197,0.0411272,0.0232594,-1.73712,-0.0590954,0.0338968,0.382153,-0.116182,-0.0797596,-0.133016,-0.153948,0.576347,0.164633,-0.233708,0,0,0,0,0,0,0,-0.447555,0.0453011,0.0274107,-1.72956,-0.0862876,1.59538,1.1794,-0.239339,-0.0163706,-0.256875,-0.109283,0.526053,0.0195004,-0.148063,2.64179,-37.3152,2.46461,26.1575,1.30157,2.50298,-0.177505,-2.10707,-1.55154,-2.6871,1.8848,-0.329083,-1.14618,-1.08985,0.931485,-1.15302,-1.04258,0.373626,0.0128853,-0.219904,
-0.451643,0.0408056,0.0227463,-1.73773,-0.0569039,0.0345329,0.381226,-0.111338,-0.0804161,-0.128259,-0.152386,0.547875,0.15901,-0.231638,0,0,0,0,0,0,0,-0.447555,0.0453011,0.0274107,-1.72956,-0.0862876,1.59538,1.1794,-0.239339,-0.0163706,-0.256875,-0.109283,0.526053,0.0195004,-0.148063,2.64179,-37.3152,2.46461,26.1575,1.30157,2.50298,-0.177505,-2.10707,-1.55154,-2.6871,1.8848,-0.329083,-1.14618,-1.08985,0.931485,-1.15302,-1.04258,0.373626,0.0128853,-0.219904,
-0.449188,0.0417782,0.0254865,-1.7352,-0.0622615,0.0357394,0.384745,-0.140602,-0.0940072,-0.158085,-0.171313,0.950223,0.278113,-0.26531,0,0,0,0,0,0,0,-0.447555,0.0453011,0.0274107,-1.72956,-0.0862876,1.59538,1.1794,-0.239339,-0.0163706,-0.256875,-0.109283,0.526053,0.0195004,-0.148063,2.64179,-37.3152,2.46461,26.1575,1.30157,2.50298,-0.177505,-2.00917,-0.379268,-2.76751,1.22829,-0.279004,-0.520567,-0.459815,0.833354,-0.544007,-1.06715,0.446419,0.0277308,-0.226023,
-0.455269,0.0416274,0.0188988,-1.73773,-0.0553229,0.03336,0.381987,-0.115951,-0.0877921,-0.133842,-0.159455,0.673276,0.201727,-0.238261,0,0,0,0,0,0,0,-0.447555,0.0453011,0.0274107,-1.72956,-0.0862876,1.59538,1.1794,-0.239339,-0.0163706,-0.256875,-0.109283,0.526053,0.0195004,-0.148063,2.64179,-37.3152,2.46461,26.1575,1.30157,2.50298,-0.177505,-2.00917,-0.379268,-2.76751,1.22829,-0.279004,-0.520567,-0.459815,0.833354,-0.544007,-1.06715,0.446419,0.0277308,-0.226023,
-0.455717,0.0412766,0.0183803,-1.73835,-0.0525822,0.0341569,0.381043,-0.111983,-0.0877028,-0.129609,-0.156394,0.685176,0.199214,-0.236092,0,0,0,0,0,0,0,-0.447555,0.0453011,0.0274107,-1.72956,-0.0862876,1.59538,1.1794,-0.239339,-0.0163706,-0.256875,-0.109283,0.526053,0.0195004,-0.148063,2.64179,-37.3152,2.46461,26.1575,1.30157,2.50298,-0.177505,-1.85288,1.37341,-2.56652,0.165171,-0.304632,0.413316,0.485408,0.554466,0.359247,-1.00319,0.529744,0.0228147,-0.230345,
-0.456147,0.0409249,0.0178804,-1.73897,-0.0498424,0.0349297,0.380107,-0.107533,-0.0879074,-0.124985,-0.153671,0.684947,0.193206,-0.233996,0,0,0,0,0,0,0,-0.454957,0.0447378,0.019662,-1.73309,-0.0721008,1.59594,1.1746,-0.230281,-0.0141539,-0.234232,-0.105715,0.40137,0.0285266,-0.157999,3.20118,-37.343,2.96449,26.3559,1.30798,2.45629,-0.177505,-1.85288,1.37341,-2.56652,0.165171,-0.304632,0.413316,0.485408,0.554466,0.359247,-1.00319,0.529744,0.0228147,-0.230345,
-0.456559,0.0405716,0.0173994,-1.73957,-0.0471395,0.0356688,0.379179,-0.102903,-0.0883293,-0.120258,-0.151332,0.675729,0.184768,-0.231968,0,0,0,0,0,0,0,-0.454957,0.0447378,0.019662,-1.73309,-0.0721008,1.59594,1.1746,-0.230281,-0.0141539,-0.234232,-0.105715,0.40137,0.0285266,-0.157999,3.20118,-37.343,2.96449,26.3559,1.30798,2.45629,-0.177505,-2.23645,1.66278,-2.25638,-0.0714015,-0.657507,0.46009,0.534465,0.291501,0.402213,-0.919487,0.522505,-0.0162297,-0.231071,
-0.456952,0.040216,0.0169369,-1.74017,-0.0444998,0.0363684,0.378259,-0.0983035,-0.0888903,-0.115614,-0.149395,0.65992,0.174898,-0.229997,0,0,0,0,0,0,0,-0.454957,0.0447378,0.019662,-1.73309,-0.0721008,1.59594,1.1746,-0.230281,-0.0141539,-0.234232,-0.105715,0.40137,0.0285266,-0.157999,3.20118,-37.343,2.96449,26.3559,1.30798,2.45629,-0.177505,-1.91508,0.565985,-2.60464,0.678629,-0.294078,-0.0275892,0.0423083,0.692822,-0.0699353,-1.04761,0.501872,-0.0117598,-0.235687,
-0.457328,0.039858,0.0164922,-1.74076,-0.0419423,0.037027,0.377347,-0.0938731,-0.0895226,-0.111173,-0.147885,0.639377,0.164652,-0.228076,0,0,0,0,0,0,0,-0.454957,0.0447378,0.019662,-1.73309,-0.0721008,1.59594,1.1746,-0.230281,-0.0141539,-0.234232,-0.105715,0.40137,0.0285266,-0.157999,3.20118,-37.343,2.96449,26.3559,1.30798,2.45629,-0.177505,-1.91508,0.565985,-2.60464,0.678629,-0.294078,-0.0275892,0.0423083,0.692822,-0.0699353,-1.04761,0.501872,-0.0117598,-0.235687,
-0.455026,0.0410961,0.0191194,-1.73824,-0.0475834,0.0375786,0.380839,-0.104126,-0.101608,-0.122245,-0.16485,0.918073,0.298595,-0.260398,0,0,0,0,0,0,0,-0.454957,0.0447378,0.019662,-1.73309,-0.0721008,1.59594,1.1746,-0.230281,-0.0141539,-0.234232,-0.105715,0.40137,0.0285266,-0.157999,3.20118,-37.343,2.96449,26.3559,1.30798,2.45629,-0.177505,-2.25249,-0.670584,-3.11644,1.5407,-0.272882,-0.748229,-0.687495,1.01418,-0.765441,-1.24369,0.472014,-0.0135214,-0.23736,
-0.461706,0.0409222,0.0121274,-1.7411,-0.0432279,0.0334071,0.377376,-0.0844231,-0.0934047,-0.101493,-0.156313,0.548295,0.183579,-0.23463,0,0,0,0,0,0,0,-0.460936,0.0438884,0.0127022,-1.73668,-0.0585507,1.5974,1.17074,-0.176266,-0.0295082,-0.198608,-0.108678,0.430203,0.0425602,-0.106631,2.89569,-37.1684,2.73836,26.4789,1.19171,2.50298,-0.230606,-2.25249,-0.670584,-3.11644,1.5407,-0.272882,-0.748229,-0.687495,1.01418,-0.765441,-1.24369,0.472014,-0.0135214,-0.23736,
-0.462016,0.0405475,0.0117489,-1.74172,-0.0411598,0.0341412,0.376445,-0.0775141,-0.093675,-0.0946301,-0.153357,0.517037,0.183534,-0.232578,0,0,0,0,0,0,0,-0.460936,0.0438884,0.0127022,-1.73668,-0.0585507,1.5974,1.17074,-0.176266,-0.0295082,-0.198608,-0.108678,0.430203,0.0425602,-0.106631,2.89569,-37.1684,2.73836,26.4789,1.19171,2.50298,-0.230606,-3.06038,-0.907322,-2.8754,1.60112,-0.870735,-1.06606,-1.00906,0.713539,-1.07375,-1.15968,0.426095,-0.0269788,-0.242486,
-0.462301,0.0401709,0.0113955,-1.74232,-0.039236,0.0348612,0.375523,-0.0711634,-0.0941625,-0.0883399,-0.15069,0.480941,0.179999,-0.230614,0,0,0,0,0,0,0,-0.460936,0.0438884,0.0127022,-1.73668,-0.0585507,1.5974,1.17074,-0.176266,-0.0295082,-0.198608,-0.108678,0.430203,0.0425602,-0.106631,2.89569,-37.1684,2.73836,26.4789,1.19171,2.50298,-0.230606,-3.06038,-0.907322,-2.8754,1.60112,-0.870735,-1.06606,-1.00906,0.713539,-1.07375,-1.15968,0.426095,-0.0269788,-0.242486,
-0.462562,0.0397916,0.0110648,-1.74291,-0.0374699,0.0355586,0.374608,-0.0654228,-0.0948186,-0.082672,-0.148446,0.44153,0.174361,-0.228638,0,0,0,0,0,0,0,-0.460936,0.0438884,0.0127022,-1.73668,-0.0585507,1.5974,1.17074,-0.176266,-0.0295082,-0.198608,-0.108678,0.430203,0.0425602,-0.106631,2.89569,-37.1684,2.73836,26.4789,1.19171,2.50298,-0.230606,-3.47169,-0.452415,-2.5832,1.27857,-1.23668,-0.93786,-0.875486,0.43449,-0.953852,-1.08693,0.434343,-0.0672448,-0.251527,
