PerkyPenguin/Analysis-on-Approximated-Derivatives/Code_and_Data/PaperData/Real_Robot/Scene_1/set_interval/11/trajectory.csv
Commanded Joint 0 Position,Commanded Joint 1 Position,Commanded Joint 2 Position,Commanded Joint 3 Position,Commanded Joint 4 Position,Commanded Joint 5 Position,Commanded Joint 6 Position,Commanded Joint 0 Velocity,Commanded Joint 1 Velocity,Commanded Joint 2 Velocity,Commanded Joint 3 Velocity,Commanded Joint 4 Velocity,Commanded Joint 5 Velocity,Commanded Joint 6 Velocity,Commanded Joint 0 Torque,Commanded Joint 1 Torque,Commanded Joint 2 Torque,Commanded Joint 3 Torque,Commanded Joint 4 Torque,Commanded Joint 5 Torque,Commanded Joint 6 Torque,Actual Joint 0 Position,Actual Joint 1 Position,Actual Joint 2 Position,Actual Joint 3 Position,Actual Joint 4 Position,Actual Joint 5 Position,Actual Joint 6 Position,Actual Joint 0 Velocity,Actual Joint 1 Velocity,Actual Joint 2 Velocity,Actual Joint 3 Velocity,Actual Joint 4 Velocity,Actual Joint 5 Velocity,Actual Joint 6 Velocity,Actual Joint 0 Torque,Actual Joint 1 Torque,Actual Joint 2 Torque,Actual Joint 3 Torque,Actual Joint 4 Torque,Actual Joint 5 Torque,Actual Joint 6 Torque,EE ext force 0,EE ext force 1,EE ext force 2,EE ext force 3,EE ext force 4,EE ext force 5,joint ext torque 0,joint ext torque 1,joint ext torque 2,joint ext torque 3,joint ext torque 4,joint ext torque 5,joint ext torque 6,
0.0132645,-0.19633,-0.33125,-1.66255,-0.0921525,-0.0937062,-0.384078,-0.00273606,0.0152876,-0.0126636,-0.150168,0.00345259,0.201115,-0.00213851,0,0,0,0,0,0,0,0.0132906,-0.196325,-0.331142,-1.66104,-0.0921799,1.47509,0.401341,0.00247403,0.00445169,0.000875872,-0.00146386,-0.00393469,5.44086e-05,-0.000474324,-0.0956386,-25.7625,1.83778,26.0544,0.550839,2.93328,-0.0365141,-0.992659,-0.075609,-0.405394,0.0944399,-0.265951,-0.153797,-0.0610527,0.0576074,-0.2434,-0.36409,-0.148448,-0.330358,-0.0500048,
0.0132488,-0.196194,-0.331312,-1.66318,-0.0921431,-0.0928716,-0.384086,-0.00392555,0.034028,-0.0154758,-0.159358,0.00234873,0.208647,-0.00203784,0,0,0,0,0,0,0,0.0132906,-0.196325,-0.331142,-1.66104,-0.0921799,1.47509,0.401341,0.00247403,0.00445169,0.000875872,-0.00146386,-0.00393469,5.44086e-05,-0.000474324,-0.0956386,-25.7625,1.83778,26.0544,0.550839,2.93328,-0.0365141,-1.20431,-0.0337194,-0.27044,0.0362657,-0.48507,-0.176473,-0.0793315,-0.0907386,-0.260369,-0.280818,-0.153612,-0.324204,-0.0452073,
0.0133068,-0.196275,-0.331126,-1.66106,-0.092204,-0.0957139,-0.384058,0.000779809,0.00249782,0.000784663,-0.00122507,-0.000651986,-0.000460212,-3.44811e-05,0,0,0,0,0,0,0,0.0132906,-0.196325,-0.331142,-1.66104,-0.0921799,1.47509,0.401341,0.00247403,0.00445169,0.000875872,-0.00146386,-0.00393469,5.44086e-05,-0.000474324,-0.0956386,-25.7625,1.83778,26.0544,0.550839,2.93328,-0.0365141,-1.20431,-0.0337194,-0.27044,0.0362657,-0.48507,-0.176473,-0.0793315,-0.0907386,-0.260369,-0.280818,-0.153612,-0.324204,-0.0452073,
0.0133095,-0.196266,-0.331123,-1.66107,-0.0922053,-0.0957161,-0.384058,0.000675402,0.00217154,0.000667056,-0.00109404,-0.000347112,-0.000568944,-2.89575e-05,0,0,0,0,0,0,0,0.013281,-0.196387,-0.331142,-1.66115,-0.0921597,1.47519,0.401344,-0.000528996,-0.00817512,0.0010396,-0.0200708,-0.00109116,0.016704,-0.000358896,-0.0202602,-24.8619,1.78621,24.2136,0.397946,2.87377,-0.0566557,-0.963167,-0.0468982,-0.404009,0.0656543,-0.263083,-0.138246,-0.04201,0.0506672,-0.227338,-0.346279,-0.148869,-0.309872,-0.0462573,
0.0133119,-0.196259,-0.331121,-1.66107,-0.0922059,-0.0957187,-0.384058,0.000589278,0.0018854,0.00057223,-0.000972742,-0.00013606,-0.000645055,-2.45077e-05,0,0,0,0,0,0,0,0.013281,-0.196387,-0.331142,-1.66115,-0.0921597,1.47519,0.401344,-0.000528996,-0.00817512,0.0010396,-0.0200708,-0.00109116,0.016704,-0.000358896,-0.0202602,-24.8619,1.78621,24.2136,0.397946,2.87377,-0.0566557,-0.963167,-0.0468982,-0.404009,0.0656543,-0.263083,-0.138246,-0.04201,0.0506672,-0.227338,-0.346279,-0.148869,-0.309872,-0.0462573,
0.0133139,-0.196252,-0.331119,-1.66107,-0.0922059,-0.0957215,-0.384058,0.000517326,0.00163418,0.000494624,-0.000862053,7.28717e-06,-0.000693832,-2.08863e-05,0,0,0,0,0,0,0,0.013281,-0.196387,-0.331142,-1.66115,-0.0921597,1.47519,0.401344,-0.000528996,-0.00817512,0.0010396,-0.0200708,-0.00109116,0.016704,-0.000358896,-0.0202602,-24.8619,1.78621,24.2136,0.397946,2.87377,-0.0566557,-1.52171,0.236833,-0.743122,-0.0988576,-0.567475,-0.104453,-0.00890867,-0.0666151,-0.179696,-0.408339,-0.143772,-0.31509,-0.0495916,
0.0133158,-0.196247,-0.331117,-1.66108,-0.0922055,-0.0957244,-0.384058,0.000456486,0.00141354,0.00043019,-0.000761796,0.000101881,-0.000720599,-1.79083e-05,0,0,0,0,0,0,0,0.013281,-0.196387,-0.331142,-1.66115,-0.0921597,1.47519,0.401344,-0.000528996,-0.00817512,0.0010396,-0.0200708,-0.00109116,0.016704,-0.000358896,-0.0202602,-24.8619,1.78621,24.2136,0.397946,2.87377,-0.0566557,-2.74362,0.312238,-0.919057,-0.148485,-1.46273,-0.284404,-0.180168,-0.55513,-0.357518,-0.308411,-0.160522,-0.299605,-0.0488777,
0.0133174,-0.196242,-0.331115,-1.66108,-0.0922048,-0.0957273,-0.384058,0.000404479,0.00121972,0.000375972,-0.000671394,0.000161466,-0.000730124,-1.54327e-05,0,0,0,0,0,0,0,0.013281,-0.196387,-0.331142,-1.66115,-0.0921597,1.47519,0.401344,-0.000528996,-0.00817512,0.0010396,-0.0200708,-0.00109116,0.016704,-0.000358896,-0.0202602,-24.8619,1.78621,24.2136,0.397946,2.87377,-0.0566557,-2.74362,0.312238,-0.919057,-0.148485,-1.46273,-0.284404,-0.180168,-0.55513,-0.357518,-0.308411,-0.160522,-0.299605,-0.0488777,
0.0133188,-0.196237,-0.331114,-1.66108,-0.092204,-0.0957302,-0.384058,0.000359597,0.00104944,0.000329797,-0.000590129,0.000196015,-0.000726473,-1.3353e-05,0,0,0,0,0,0,0,0.013281,-0.196387,-0.331142,-1.66115,-0.0921597,1.47519,0.401344,-0.000528996,-0.00817512,0.0010396,-0.0200708,-0.00109116,0.016704,-0.000358896,-0.0202602,-24.8619,1.78621,24.2136,0.397946,2.87377,-0.0566557,-0.305992,-0.283883,-1.43389,0.39546,0.58796,-0.125045,-0.0284859,0.679637,-0.265211,-0.773713,-0.143224,-0.269803,-0.0471272,
0.0133201,-0.196234,-0.331113,-1.66108,-0.0922032,-0.095733,-0.384058,0.000320547,0.000899791,0.000290055,-0.000517241,0.000212775,-0.00071302,-1.15889e-05,0,0,0,0,0,0,0,0.0132958,-0.196378,-0.331134,-1.66148,-0.092157,1.47588,0.401344,0.00016501,-0.00323366,0.000944826,0.0027415,0.0055732,0.00200457,0.000467105,-0.171017,-25.1872,1.7624,26.2051,0.373226,3.27202,-0.0630644,-0.305992,-0.283883,-1.43389,0.39546,0.58796,-0.125045,-0.0284859,0.679637,-0.265211,-0.773713,-0.143224,-0.269803,-0.0471272,
0.0133213,-0.196231,-0.331112,-1.66109,-0.0922023,-0.0957358,-0.384058,0.00028634,0.000768229,0.000255537,-0.000451979,0.000217015,-0.000692516,-1.00794e-05,0,0,0,0,0,0,0,0.0132958,-0.196378,-0.331134,-1.66148,-0.092157,1.47588,0.401344,0.00016501,-0.00323366,0.000944826,0.0027415,0.0055732,0.00200457,0.000467105,-0.171017,-25.1872,1.7624,26.2051,0.373226,3.27202,-0.0630644,-0.855144,-0.128279,-0.659709,0.151352,-0.175691,-0.151068,-0.0571065,0.101509,-0.249512,-0.364896,-0.134673,-0.218496,-0.0484091,
0.0133223,-0.196228,-0.331111,-1.66109,-0.0922015,-0.0957385,-0.384058,0.000256206,0.000652517,0.000225327,-0.000393624,0.000212571,-0.000667171,-8.77797e-06,0,0,0,0,0,0,0,0.0132958,-0.196378,-0.331134,-1.66148,-0.092157,1.47588,0.401344,0.00016501,-0.00323366,0.000944826,0.0027415,0.0055732,0.00200457,0.000467105,-0.171017,-25.1872,1.7624,26.2051,0.373226,3.27202,-0.0630644,-0.855144,-0.128279,-0.659709,0.151352,-0.175691,-0.151068,-0.0571065,0.101509,-0.249512,-0.364896,-0.134673,-0.218496,-0.0484091,
0.0133232,-0.196226,-0.33111,-1.66109,-0.0922006,-0.095741,-0.384058,0.000229538,0.000550697,0.000198721,-0.000341504,0.000202234,-0.000638733,-7.64853e-06,0,0,0,0,0,0,0,0.0132958,-0.196378,-0.331134,-1.66148,-0.092157,1.47588,0.401344,0.00016501,-0.00323366,0.000944826,0.0027415,0.0055732,0.00200457,0.000467105,-0.171017,-25.1872,1.7624,26.2051,0.373226,3.27202,-0.0630644,-0.436357,-0.130126,-0.781965,0.161035,0.187065,-0.0735603,0.0241489,0.324431,-0.179044,-0.451671,-0.140874,-0.207793,-0.0517057,
0.013324,-0.196224,-0.331109,-1.66109,-0.0921999,-0.0957435,-0.384058,0.00020585,0.000461054,0.000175167,-0.000294992,0.000188034,-0.000608569,-6.66286e-06,0,0,0,0,0,0,0,0.0132958,-0.196378,-0.331134,-1.66148,-0.092157,1.47588,0.401344,0.00016501,-0.00323366,0.000944826,0.0027415,0.0055732,0.00200457,0.000467105,-0.171017,-25.1872,1.7624,26.2051,0.373226,3.27202,-0.0630644,-1.48562,0.137515,-0.826228,-0.0397845,-0.57576,-0.138837,-0.0281627,-0.0882878,-0.231281,-0.371826,-0.154649,-0.242171,-0.0492951,
0.0133248,-0.196223,-0.331109,-1.66109,-0.0921992,-0.0957458,-0.384058,0.000184748,0.000382087,0.000154229,-0.000253515,0.000171445,-0.000577727,-5.79861e-06,0,0,0,0,0,0,0,0.01328,-0.196254,-0.33115,-1.66139,-0.0921642,1.47592,0.401339,0.00162675,0.00510119,-0.00145799,0.00274538,0.0013455,-0.00203189,-0.000337556,-0.0202602,-26.06,1.98854,25.856,0.447384,2.95983,-0.0163725,-1.48562,0.137515,-0.826228,-0.0397845,-0.57576,-0.138837,-0.0281627,-0.0882878,-0.231281,-0.371826,-0.154649,-0.242171,-0.0492951,
0.0133254,-0.196221,-0.331108,-1.66109,-0.0921986,-0.095748,-0.384058,0.000165905,0.000312485,0.000135554,-0.000216551,0.00015353,-0.000546998,-5.03782e-06,0,0,0,0,0,0,0,0.01328,-0.196254,-0.33115,-1.66139,-0.0921642,1.47592,0.401339,0.00162675,0.00510119,-0.00145799,0.00274538,0.0013455,-0.00203189,-0.000337556,-0.0202602,-26.06,1.98854,25.856,0.447384,2.95983,-0.0163725,-1.80022,0.113523,-0.514011,-0.0717052,-0.938871,-0.210901,-0.0988026,-0.346217,-0.294739,-0.212036,-0.159242,-0.237952,-0.0440127,
0.013326,-0.19622,-0.331108,-1.66109,-0.0921981,-0.09575,-0.384058,0.00014905,0.000251102,0.000118854,-0.000183623,0.000135052,-0.000516964,-4.36592e-06,0,0,0,0,0,0,0,0.01328,-0.196254,-0.33115,-1.66139,-0.0921642,1.47592,0.401339,0.00162675,0.00510119,-0.00145799,0.00274538,0.0013455,-0.00203189,-0.000337556,-0.0202602,-26.06,1.98854,25.856,0.447384,2.95983,-0.0163725,-1.80022,0.113523,-0.514011,-0.0717052,-0.938871,-0.210901,-0.0988026,-0.346217,-0.294739,-0.212036,-0.159242,-0.237952,-0.0440127,
0.0133266,-0.19622,-0.331107,-1.66109,-0.0921976,-0.095752,-0.384058,0.00013395,0.000196935,0.00010389,-0.000154304,0.000116555,-0.000488041,-3.7709e-06,0,0,0,0,0,0,0,0.01328,-0.196254,-0.33115,-1.66139,-0.0921642,1.47592,0.401339,0.00162675,0.00510119,-0.00145799,0.00274538,0.0013455,-0.00203189,-0.000337556,-0.0202602,-26.06,1.98854,25.856,0.447384,2.95983,-0.0163725,-1.0599,0.103794,-0.743509,0.00390217,-0.254374,-0.0877715,0.015161,0.0913857,-0.181399,-0.42198,-0.131687,-0.271639,-0.0427129,
0.013327,-0.196219,-0.331107,-1.66109,-0.0921972,-0.0957538,-0.384058,0.000120409,0.000149108,9.04587e-05,-0.000128204,9.84166e-05,-0.000460513,-3.24279e-06,0,0,0,0,0,0,0,0.01328,-0.196254,-0.33115,-1.66139,-0.0921642,1.47592,0.401339,0.00162675,0.00510119,-0.00145799,0.00274538,0.0013455,-0.00203189,-0.000337556,-0.0202602,-26.06,1.98854,25.856,0.447384,2.95983,-0.0163725,-1.22842,0.119799,-0.634353,-0.0291296,-0.43123,-0.108301,-0.00322613,-0.0291479,-0.197647,-0.353877,-0.134569,-0.264954,-0.0444288,
0.0133275,-0.196219,-0.331107,-1.6611,-0.0921969,-0.0957556,-0.384058,0.000108256,0.000106853,7.83893e-05,-0.000104978,8.08962e-05,-0.000434561,-2.77319e-06,0,0,0,0,0,0,0,0.01328,-0.196254,-0.33115,-1.66139,-0.0921642,1.47592,0.401339,0.00162675,0.00510119,-0.00145799,0.00274538,0.0013455,-0.00203189,-0.000337556,-0.0202602,-26.06,1.98854,25.856,0.447384,2.95983,-0.0163725,-1.22842,0.119799,-0.634353,-0.0291296,-0.43123,-0.108301,-0.00322613,-0.0291479,-0.197647,-0.353877,-0.134569,-0.264954,-0.0444288,
0.0133279,-0.196218,-0.331106,-1.6611,-0.0921966,-0.0957572,-0.384058,9.7342e-05,6.94999e-05,6.75328e-05,-8.43128e-05,6.41638e-05,-0.000410286,-2.35498e-06,0,0,0,0,0,0,0,0.013281,-0.196212,-0.331143,-1.66137,-0.0921562,1.47593,0.401346,-0.00403489,0.00102334,-0.000132719,0.00506365,0.00335719,-0.000989187,0.000778549,0.00751081,-25.7625,1.88936,25.6339,0.404354,2.90673,-0.0767973,-1.84926,-0.0442359,-0.448132,0.0394887,-0.967817,-0.289155,-0.17991,-0.359457,-0.380457,-0.214223,-0.17176,-0.269546,-0.0472972,
0.0133282,-0.196218,-0.331106,-1.6611,-0.0921964,-0.0957588,-0.384058,8.75357e-05,3.64601e-05,5.77603e-05,-6.59292e-05,4.8324e-05,-0.000387729,-1.98206e-06,0,0,0,0,0,0,0,0.013281,-0.196212,-0.331143,-1.66137,-0.0921562,1.47593,0.401346,-0.00403489,0.00102334,-0.000132719,0.00506365,0.00335719,-0.000989187,0.000778549,0.00751081,-25.7625,1.88936,25.6339,0.404354,2.90673,-0.0767973,-1.84926,-0.0442359,-0.448132,0.0394887,-0.967817,-0.289155,-0.17991,-0.359457,-0.380457,-0.214223,-0.17176,-0.269546,-0.0472972,
0.0133285,-0.196218,-0.331106,-1.6611,-0.0921963,-0.0957602,-0.384058,7.8722e-05,7.21842e-06,4.89584e-05,-4.95774e-05,3.3434e-05,-0.000366886,-1.6492e-06,0,0,0,0,0,0,0,0.013281,-0.196212,-0.331143,-1.66137,-0.0921562,1.47593,0.401346,-0.00403489,0.00102334,-0.000132719,0.00506365,0.00335719,-0.000989187,0.000778549,0.00751081,-25.7625,1.88936,25.6339,0.404354,2.90673,-0.0767973,-1.5582,-0.0693659,-0.36105,0.0507209,-0.761574,-0.251204,-0.152728,-0.249462,-0.334944,-0.230518,-0.1689,-0.282491,-0.0474707,
0.0133288,-0.196218,-0.331106,-1.6611,-0.0921962,-0.0957616,-0.384058,7.07988e-05,-1.86771e-05,4.10275e-05,-3.50343e-05,1.95161e-05,-0.000347717,-1.35182e-06,0,0,0,0,0,0,0,0.013281,-0.196212,-0.331143,-1.66137,-0.0921562,1.47593,0.401346,-0.00403489,0.00102334,-0.000132719,0.00506365,0.00335719,-0.000989187,0.000778549,0.00751081,-25.7625,1.88936,25.6339,0.404354,2.90673,-0.0767973,-1.5582,-0.0693659,-0.36105,0.0507209,-0.761574,-0.251204,-0.152728,-0.249462,-0.334944,-0.230518,-0.1689,-0.282491,-0.0474707,
0.0133291,-0.196218,-0.331106,-1.6611,-0.0921962,-0.0957629,-0.384058,6.3675e-05,-4.16228e-05,3.38788e-05,-2.21005e-05,6.56758e-06,-0.000330163,-1.08595e-06,0,0,0,0,0,0,0,0.013281,-0.196212,-0.331143,-1.66137,-0.0921562,1.47593,0.401346,-0.00403489,0.00102334,-0.000132719,0.00506365,0.00335719,-0.000989187,0.000778549,0.00751081,-25.7625,1.88936,25.6339,0.404354,2.90673,-0.0767973,-1.32469,0.0608642,-0.413666,-0.0264257,-0.577884,-0.152853,-0.0634792,-0.142497,-0.224411,-0.266175,-0.145204,-0.270794,-0.0465812,
0.0133293,-0.196219,-0.331106,-1.6611,-0.0921962,-0.0957642,-0.384058,5.72694e-05,-6.19671e-05,2.74336e-05,-1.05984e-05,-5.43191e-06,-0.000314144,-8.48121e-07,0,0,0,0,0,0,0,0.0133093,-0.196178,-0.331122,-1.66138,-0.0921795,1.47594,0.401342,-0.000805869,-0.00105262,-0.000855764,0.00214829,-0.000549121,0.00164015,-0.00056676,-0.119442,-25.7109,1.81398,26.0306,0.575558,2.8875,-0.0429228,-0.67394,-0.108089,-0.57877,0.135952,-0.00919911,-0.111843,-0.0244767,0.208183,-0.204053,-0.413118,-0.138682,-0.274936,-0.0493112,
0.0133295,-0.196219,-0.331106,-1.6611,-0.0921963,-0.0957654,-0.384058,5.15093e-05,-8.00158e-05,2.16213e-05,-3.69554e-07,-1.6515e-05,-0.000299575,-6.35258e-07,0,0,0,0,0,0,0,0.0133093,-0.196178,-0.331122,-1.66138,-0.0921795,1.47594,0.401342,-0.000805869,-0.00105262,-0.000855764,0.00214829,-0.000549121,0.00164015,-0.00056676,-0.119442,-25.7109,1.81398,26.0306,0.575558,2.8875,-0.0429228,-0.67394,-0.108089,-0.57877,0.135952,-0.00919911,-0.111843,-0.0244767,0.208183,-0.204053,-0.413118,-0.138682,-0.274936,-0.0493112,
0.0133297,-0.196219,-0.331105,-1.6611,-0.0921964,-0.0957665,-0.384058,4.63298e-05,-9.6038e-05,1.6379e-05,8.72706e-06,-2.67223e-05,-0.00028636,-4.44663e-07,0,0,0,0,0,0,0,0.0133093,-0.196178,-0.331122,-1.66138,-0.0921795,1.47594,0.401342,-0.000805869,-0.00105262,-0.000855764,0.00214829,-0.000549121,0.00164015,-0.00056676,-0.119442,-25.7109,1.81398,26.0306,0.575558,2.8875,-0.0429228,-1.02167,-0.167217,-0.282351,0.124989,-0.388229,-0.201828,-0.110005,-0.054952,-0.289456,-0.256858,-0.15331,-0.271901,-0.0474169,
0.0133299,-0.19622,-0.331105,-1.6611,-0.0921965,-0.0957676,-0.384058,4.16725e-05,-0.00011027,1.16501e-05,1.68171e-05,-3.60997e-05,-0.000274406,-2.73944e-07,0,0,0,0,0,0,0,0.0133093,-0.196178,-0.331122,-1.66138,-0.0921795,1.47594,0.401342,-0.000805869,-0.00105262,-0.000855764,0.00214829,-0.000549121,0.00164015,-0.00056676,-0.119442,-25.7109,1.81398,26.0306,0.575558,2.8875,-0.0429228,-1.02167,-0.167217,-0.282351,0.124989,-0.388229,-0.201828,-0.110005,-0.054952,-0.289456,-0.256858,-0.15331,-0.271901,-0.0474169,
0.0131839,-0.196231,-0.331221,-1.66094,-0.090686,-0.0966481,-0.384056,-0.0104369,0.00667699,-0.00924661,0.00822486,0.171379,-0.106397,0.000322571,0,0,0,0,0,0,0,0.0133093,-0.196178,-0.331122,-1.66138,-0.0921795,1.47594,0.401342,-0.000805869,-0.00105262,-0.000855764,0.00214829,-0.000549121,0.00164015,-0.00056676,-0.119442,-25.7109,1.81398,26.0306,0.575558,2.8875,-0.0429228,-0.84475,-0.194918,-0.424353,0.158747,-0.212792,-0.185434,-0.0986402,0.0615735,-0.274164,-0.315207,-0.156275,-0.255353,-0.0450872,
0.0131842,-0.19614,-0.33122,-1.66125,-0.0906928,-0.0957591,-0.384055,-0.0116867,0.00259811,-0.0105514,0.0102831,0.169558,-0.103148,0.000366466,0,0,0,0,0,0,0,0.0133073,-0.196215,-0.331122,-1.66134,-0.092179,1.47594,0.401344,7.75196e-05,0.00940442,0.000383851,0.000880505,-0.0039313,0.00276064,0.000410842,-0.0956386,-25.4094,1.86159,25.856,0.575558,2.90673,-0.0630644,-0.691982,-0.129924,-0.643153,0.155761,0.00490172,-0.126277,-0.0421102,0.228352,-0.217983,-0.437152,-0.14618,-0.277001,-0.0483338,
0.013138,-0.196134,-0.331265,-1.66121,-0.0898885,-0.0962545,-0.384053,-0.0115578,0.00140425,-0.0111483,0.00861419,0.201056,-0.123839,0.000491107,0,0,0,0,0,0,0,0.0133073,-0.196215,-0.331122,-1.66134,-0.092179,1.47594,0.401344,7.75196e-05,0.00940442,0.000383851,0.000880505,-0.0039313,0.00276064,0.000410842,-0.0956386,-25.4094,1.86159,25.856,0.575558,2.90673,-0.0630644,-0.691982,-0.129924,-0.643153,0.155761,0.00490172,-0.126277,-0.0421102,0.228352,-0.217983,-0.437152,-0.14618,-0.277001,-0.0483338,
0.0130943,-0.196133,-0.331308,-1.66118,-0.088987,-0.096818,-0.384051,-0.010928,0.000337444,-0.0109877,0.00703045,0.225389,-0.140879,0.000559376,0,0,0,0,0,0,0,0.0133073,-0.196215,-0.331122,-1.66134,-0.092179,1.47594,0.401344,7.75196e-05,0.00940442,0.000383851,0.000880505,-0.0039313,0.00276064,0.000410842,-0.0956386,-25.4094,1.86159,25.856,0.575558,2.90673,-0.0630644,-0.991144,-0.114487,-0.356,0.110894,-0.34893,-0.170498,-0.0794752,-0.025792,-0.258724,-0.281631,-0.133824,-0.265671,-0.0492422,
0.0130542,-0.196135,-0.33135,-1.66116,-0.0880096,-0.0974378,-0.384049,-0.0100151,-0.000522587,-0.0103631,0.00565675,0.244343,-0.154946,0.000593335,0,0,0,0,0,0,0,0.0133073,-0.196215,-0.331122,-1.66134,-0.092179,1.47594,0.401344,7.75196e-05,0.00940442,0.000383851,0.000880505,-0.0039313,0.00276064,0.000410842,-0.0956386,-25.4094,1.86159,25.856,0.575558,2.90673,-0.0630644,-0.991144,-0.114487,-0.356,0.110894,-0.34893,-0.170498,-0.0794752,-0.025792,-0.258724,-0.281631,-0.133824,-0.265671,-0.0492422,
0.0130184,-0.19614,-0.331388,-1.66114,-0.0869728,-0.0981039,-0.384046,-0.0089576,-0.00117522,-0.00946973,0.0044969,0.259207,-0.16653,0.000605371,0,0,0,0,0,0,0,0.0133073,-0.196215,-0.331122,-1.66134,-0.092179,1.47594,0.401344,7.75196e-05,0.00940442,0.000383851,0.000880505,-0.0039313,0.00276064,0.000410842,-0.0956386,-25.4094,1.86159,25.856,0.575558,2.90673,-0.0630644,-0.713193,-0.362872,-0.320976,0.333085,-0.177724,-0.233862,-0.136581,0.0505766,-0.353467,-0.285001,-0.0936713,-0.246936,-0.0478171,
0.012987,-0.196146,-0.331422,-1.66113,-0.0858891,-0.098808,-0.384044,-0.0078447,-0.00164467,-0.00843745,0.00352333,0.270926,-0.176021,0.000603343,0,0,0,0,0,0,0,0.0133073,-0.196215,-0.331122,-1.66134,-0.092179,1.47594,0.401344,7.75196e-05,0.00940442,0.000383851,0.000880505,-0.0039313,0.00276064,0.000410842,-0.0956386,-25.4094,1.86159,25.856,0.575558,2.90673,-0.0630644,-0.713193,-0.362872,-0.320976,0.333085,-0.177724,-0.233862,-0.136581,0.0505766,-0.353467,-0.285001,-0.0936713,-0.246936,-0.0478171,
0.01296,-0.196154,-0.331451,-1.66112,-0.0847683,-0.099543,-0.384041,-0.00673325,-0.00196089,-0.00735153,0.00270475,0.280198,-0.183749,0.000592347,0,0,0,0,0,0,0,0.0132353,-0.196182,-0.331179,-1.66132,-0.0906207,1.47588,0.40134,-0.00441409,-0.00237731,-0.000951188,-0.000444342,0.0911782,-0.0054855,-0.00041063,0.435978,-25.7347,2.26228,26.2567,0.855709,3.07244,-0.0227812,-0.805687,-0.474295,-0.0775315,0.441878,-0.365417,-0.29836,-0.191231,-0.107937,-0.438586,-0.177075,-0.0329817,-0.241145,-0.0488578,
0.0129374,-0.196163,-0.331476,-1.66111,-0.0836181,-0.100303,-0.384039,-0.00565871,-0.00215293,-0.00626697,0.00201375,0.287545,-0.189996,0.000575968,0,0,0,0,0,0,0,0.0132353,-0.196182,-0.331179,-1.66132,-0.0906207,1.47588,0.40134,-0.00441409,-0.00237731,-0.000951188,-0.000444342,0.0911782,-0.0054855,-0.00041063,0.435978,-25.7347,2.26228,26.2567,0.855709,3.07244,-0.0227812,-0.805687,-0.474295,-0.0775315,0.441878,-0.365417,-0.29836,-0.191231,-0.107937,-0.438586,-0.177075,-0.0329817,-0.241145,-0.0488578,
0.0129188,-0.196172,-0.331497,-1.66111,-0.0824447,-0.101083,-0.384037,-0.00464205,-0.0022467,-0.00521814,0.00142795,0.293361,-0.194999,0.000556487,0,0,0,0,0,0,0,0.0132353,-0.196182,-0.331179,-1.66132,-0.0906207,1.47588,0.40134,-0.00441409,-0.00237731,-0.000951188,-0.000444342,0.0911782,-0.0054855,-0.00041063,0.435978,-25.7347,2.26228,26.2567,0.855709,3.07244,-0.0227812,-0.635312,-0.387522,-0.0425484,0.442394,-0.268922,-0.229486,-0.111245,-0.0692982,-0.386209,-0.18463,0.0423735,-0.24232,-0.0465977,
0.0129041,-0.196181,-0.331514,-1.6611,-0.0812529,-0.101879,-0.384035,-0.00369464,-0.00226442,-0.00422545,0.000929439,0.297948,-0.198963,0.000535407,0,0,0,0,0,0,0,0.0132353,-0.196182,-0.331179,-1.66132,-0.0906207,1.47588,0.40134,-0.00441409,-0.00237731,-0.000951188,-0.000444342,0.0911782,-0.0054855,-0.00041063,0.435978,-25.7347,2.26228,26.2567,0.855709,3.07244,-0.0227812,-0.381722,-0.46712,-0.274728,0.623788,0.0121234,-0.22025,-0.0961585,0.124883,-0.412691,-0.327516,0.122335,-0.267628,-0.0460978,
0.0128928,-0.19619,-0.331527,-1.6611,-0.0800467,-0.102687,-0.384033,-0.0028214,-0.00222467,-0.00329991,0.000503973,0.301535,-0.20206,0.000513832,0,0,0,0,0,0,0,0.0132353,-0.196182,-0.331179,-1.66132,-0.0906207,1.47588,0.40134,-0.00441409,-0.00237731,-0.000951188,-0.000444342,0.0911782,-0.0054855,-0.00041063,0.435978,-25.7347,2.26228,26.2567,0.855709,3.07244,-0.0227812,-0.381722,-0.46712,-0.274728,0.623788,0.0121234,-0.22025,-0.0961585,0.124883,-0.412691,-0.327516,0.122335,-0.267628,-0.0460978,
0.0128847,-0.196198,-0.331537,-1.6611,-0.0788295,-0.103505,-0.384031,-0.00202313,-0.00214277,-0.00244629,0.000140111,0.304305,-0.204433,0.000492493,0,0,0,0,0,0,0,0.0132234,-0.196202,-0.331192,-1.66129,-0.0873868,1.4758,0.40134,-0.00176179,-0.00267849,-0.000400979,0.00333215,0.116727,-0.00526779,-0.000655773,0.435978,-25.461,2.1869,25.7806,1.08825,2.89391,-0.0227812,-0.631521,-0.213817,-0.117646,0.478541,-0.248357,-0.149149,-0.0252879,-0.0515913,-0.330414,-0.251095,0.19716,-0.282764,-0.0470301,
0.0128795,-0.196206,-0.331543,-1.6611,-0.0776039,-0.10433,-0.384029,-0.00129795,-0.00203111,-0.0016653,-0.000171413,0.306398,-0.206205,0.000471852,0,0,0,0,0,0,0,0.0132234,-0.196202,-0.331192,-1.66129,-0.0873868,1.4758,0.40134,-0.00176179,-0.00267849,-0.000400979,0.00333215,0.116727,-0.00526779,-0.000655773,0.435978,-25.461,2.1869,25.7806,1.08825,2.89391,-0.0227812,-0.630476,-0.0169409,-0.0284581,0.39386,-0.281172,-0.0622712,0.0594272,-0.0843637,-0.239468,-0.240374,0.276141,-0.307375,-0.0453306,
0.0128769,-0.196214,-0.331547,-1.6611,-0.0763722,-0.10516,-0.384027,-0.000642403,-0.00189965,-0.000955079,-0.000438156,0.307926,-0.207477,0.000452051,0,0,0,0,0,0,0,0.0132234,-0.196202,-0.331192,-1.66129,-0.0873868,1.4758,0.40134,-0.00176179,-0.00267849,-0.000400979,0.00333215,0.116727,-0.00526779,-0.000655773,0.435978,-25.461,2.1869,25.7806,1.08825,2.89391,-0.0227812,-0.630476,-0.0169409,-0.0284581,0.39386,-0.281172,-0.0622712,0.0594272,-0.0843637,-0.239468,-0.240374,0.276141,-0.307375,-0.0453306,
0.0128767,-0.196221,-0.331549,-1.6611,-0.0751363,-0.105993,-0.384025,-5.21309e-05,-0.00175621,-0.000312226,-0.000666363,0.308982,-0.208332,0.000433255,0,0,0,0,0,0,0,0.0132234,-0.196202,-0.331192,-1.66129,-0.0873868,1.4758,0.40134,-0.00176179,-0.00267849,-0.000400979,0.00333215,0.116727,-0.00526779,-0.000655773,0.435978,-25.461,2.1869,25.7806,1.08825,2.89391,-0.0227812,-0.293713,0.113211,-0.0111086,0.388457,-0.032047,0.0575429,0.1775,0.0522135,-0.128162,-0.298358,0.373279,-0.33212,-0.0473009,
0.0128786,-0.196227,-0.331547,-1.66111,-0.0738977,-0.106828,-0.384024,0.000477688,-0.00160693,0.000267522,-0.000861256,0.309637,-0.208843,0.000415677,0,0,0,0,0,0,0,0.0132234,-0.196202,-0.331192,-1.66129,-0.0873868,1.4758,0.40134,-0.00176179,-0.00267849,-0.000400979,0.00333215,0.116727,-0.00526779,-0.000655773,0.435978,-25.461,2.1869,25.7806,1.08825,2.89391,-0.0227812,-0.293713,0.113211,-0.0111086,0.388457,-0.032047,0.0575429,0.1775,0.0522135,-0.128162,-0.298358,0.373279,-0.33212,-0.0473009,
0.0128824,-0.196233,-0.331544,-1.66111,-0.0726579,-0.107664,-0.384022,0.000951957,-0.00145647,0.00078886,-0.00102721,0.309952,-0.209067,0.000399197,0,0,0,0,0,0,0,0.0132453,-0.196177,-0.331177,-1.66129,-0.0838867,1.47546,0.40134,0.000686639,0.000297012,0.000927476,1.51845e-05,0.113396,-0.0108101,-0.000124618,0.158268,-25.7863,2.01234,26.0068,1.33819,2.71447,-0.0163725,-0.619441,0.111701,0.109453,0.409283,-0.310963,-0.000653639,0.119602,-0.118538,-0.188967,-0.24273,0.402133,-0.361727,-0.0477013,
0.0128879,-0.196238,-0.331539,-1.66112,-0.071418,-0.108501,-0.38402,0.00137552,-0.00130835,0.00125658,-0.00116792,0.309978,-0.209053,0.000383746,0,0,0,0,0,0,0,0.0132453,-0.196177,-0.331177,-1.66129,-0.0838867,1.47546,0.40134,0.000686639,0.000297012,0.000927476,1.51845e-05,0.113396,-0.0108101,-0.000124618,0.158268,-25.7863,2.01234,26.0068,1.33819,2.71447,-0.0163725,-0.486197,0.110266,0.0216308,0.472274,-0.142809,0.0174996,0.125904,0.00519362,-0.173556,-0.337127,0.44029,-0.407506,-0.0450887,
0.012895,-0.196243,-0.331533,-1.66112,-0.070179,-0.109336,-0.384019,0.00175304,-0.00116514,0.00167538,-0.00128656,0.309754,-0.208842,0.000369482,0,0,0,0,0,0,0,0.0132453,-0.196177,-0.331177,-1.66129,-0.0838867,1.47546,0.40134,0.000686639,0.000297012,0.000927476,1.51845e-05,0.113396,-0.0108101,-0.000124618,0.158268,-25.7863,2.01234,26.0068,1.33819,2.71447,-0.0163725,-0.486197,0.110266,0.0216308,0.472274,-0.142809,0.0174996,0.125904,0.00519362,-0.173556,-0.337127,0.44029,-0.407506,-0.0450887,
0.0129033,-0.196247,-0.331524,-1.66113,-0.0689417,-0.11017,-0.384017,0.00208887,-0.00102866,0.00204979,-0.00138585,0.309316,-0.208466,0.000356173,0,0,0,0,0,0,0,0.0132453,-0.196177,-0.331177,-1.66129,-0.0838867,1.47546,0.40134,0.000686639,0.000297012,0.000927476,1.51845e-05,0.113396,-0.0108101,-0.000124618,0.158268,-25.7863,2.01234,26.0068,1.33819,2.71447,-0.0163725,-0.658744,-0.0662975,0.254533,0.590056,-0.333403,-0.0947849,-0.00138126,-0.12776,-0.282077,-0.263129,0.446275,-0.440363,-0.04584,
0.0129129,-0.196251,-0.331515,-1.66113,-0.067707,-0.111002,-0.384016,0.0023871,-0.000900145,0.00238404,-0.00146813,0.308692,-0.207954,0.00034373,0,0,0,0,0,0,0,0.0132453,-0.196177,-0.331177,-1.66129,-0.0838867,1.47546,0.40134,0.000686639,0.000297012,0.000927476,1.51845e-05,0.113396,-0.0108101,-0.000124618,0.158268,-25.7863,2.01234,26.0068,1.33819,2.71447,-0.0163725,-0.658744,-0.0662975,0.254533,0.590056,-0.333403,-0.0947849,-0.00138126,-0.12776,-0.282077,-0.263129,0.446275,-0.440363,-0.04584,
0.0129235,-0.196254,-0.331504,-1.66114,-0.0664753,-0.111831,-0.384015,0.00265146,-0.000780344,0.00268206,-0.00153544,0.307909,-0.207329,0.000332279,0,0,0,0,0,0,0,0.0132453,-0.196177,-0.331177,-1.66129,-0.0838867,1.47546,0.40134,0.000686639,0.000297012,0.000927476,1.51845e-05,0.113396,-0.0108101,-0.000124618,0.158268,-25.7863,2.01234,26.0068,1.33819,2.71447,-0.0163725,-0.454348,-0.181508,0.24134,0.679697,-0.144922,-0.109068,-0.0285484,-0.0071984,-0.295409,-0.317207,0.438968,-0.463212,-0.049377,
0.012935,-0.196257,-0.331492,-1.66115,-0.0652474,-0.112657,-0.384013,0.00288539,-0.000669658,0.0029475,-0.00158953,0.306986,-0.20661,0.00032151,0,0,0,0,0,0,0,0.0132905,-0.196199,-0.331127,-1.6613,-0.0800635,1.47525,0.401339,-0.000598928,0.00147832,0.000944351,0.000358469,0.12701,-0.00479766,-0.000676046,-0.171017,-25.5126,1.68703,26.0068,1.29608,2.70165,-0.0163725,-0.454348,-0.181508,0.24134,0.679697,-0.144922,-0.109068,-0.0285484,-0.0071984,-0.295409,-0.317207,0.438968,-0.463212,-0.049377,
0.0129474,-0.196259,-0.33148,-1.66115,-0.0640236,-0.113481,-0.384012,0.00309202,-0.000568216,0.00318365,-0.00163198,0.305942,-0.205812,0.000311573,0,0,0,0,0,0,0,0.0132905,-0.196199,-0.331127,-1.6613,-0.0800635,1.47525,0.401339,-0.000598928,0.00147832,0.000944351,0.000358469,0.12701,-0.00479766,-0.000676046,-0.171017,-25.5126,1.68703,26.0068,1.29608,2.70165,-0.0163725,-0.0867609,-0.127467,0.213416,0.658736,0.168413,-0.0239318,0.0414108,0.184762,-0.198981,-0.393635,0.453149,-0.484769,-0.0470575,
0.0129605,-0.196261,-0.331466,-1.66116,-0.0628044,-0.114301,-0.384011,0.00327417,-0.000475927,0.00339354,-0.00166412,0.304793,-0.204949,0.000302233,0,0,0,0,0,0,0,0.0132905,-0.196199,-0.331127,-1.6613,-0.0800635,1.47525,0.401339,-0.000598928,0.00147832,0.000944351,0.000358469,0.12701,-0.00479766,-0.000676046,-0.171017,-25.5126,1.68703,26.0068,1.29608,2.70165,-0.0163725,-0.384834,-0.215526,0.419987,0.6589,-0.120547,-0.11881,-0.0636428,-0.00387982,-0.277249,-0.287124,0.411938,-0.490931,-0.0456766,
0.013011,-0.196046,-0.331337,-1.66094,-0.0876309,-0.0985,-0.384024,-0.027173,0.0074064,-0.0229533,0.0341094,0.520986,-0.409226,0.0033805,0,0,0,0,0,0,0,0.0132905,-0.196199,-0.331127,-1.6613,-0.0800635,1.47525,0.401339,-0.000598928,0.00147832,0.000944351,0.000358469,0.12701,-0.00479766,-0.000676046,-0.171017,-25.5126,1.68703,26.0068,1.29608,2.70165,-0.0163725,-0.384834,-0.215526,0.419987,0.6589,-0.120547,-0.11881,-0.0636428,-0.00387982,-0.277249,-0.287124,0.411938,-0.490931,-0.0456766,
0.0130501,-0.196058,-0.331295,-1.66091,-0.0745555,-0.0990438,-0.384029,-0.0217784,0.00825997,-0.0180398,0.0302757,0.583382,-0.391782,0.00317987,0,0,0,0,0,0,0,0.0132905,-0.196199,-0.331127,-1.6613,-0.0800635,1.47525,0.401339,-0.000598928,0.00147832,0.000944351,0.000358469,0.12701,-0.00479766,-0.000676046,-0.171017,-25.5126,1.68703,26.0068,1.29608,2.70165,-0.0163725,-0.438655,-0.304086,0.229834,0.742845,-0.056839,-0.165531,-0.115692,0.0774036,-0.329299,-0.382078,0.388969,-0.520266,-0.0486748,
0.0129688,-0.196044,-0.331368,-1.66081,-0.0718679,-0.100893,-0.384016,-0.0203396,0.00352602,-0.0181374,0.0241336,0.671907,-0.462254,0.00345841,0,0,0,0,0,0,0,0.0132844,-0.196187,-0.331131,-1.66128,-0.0753135,1.47497,0.401344,0.000549808,0.0040145,0.000648053,-0.00330003,0.156056,-0.0133246,0.000800056,0.00751081,-25.6871,1.88936,26.0822,1.20453,2.622,-0.0630644,-0.438655,-0.304086,0.229834,0.742845,-0.056839,-0.165531,-0.115692,0.0774036,-0.329299,-0.382078,0.388969,-0.520266,-0.0486748,
0.0128974,-0.196046,-0.331434,-1.66074,-0.0688998,-0.102965,-0.384001,-0.0178418,-0.000390854,-0.0166411,0.0182437,0.742023,-0.517956,0.00360322,0,0,0,0,0,0,0,0.0132844,-0.196187,-0.331131,-1.66128,-0.0753135,1.47497,0.401344,0.000549808,0.0040145,0.000648053,-0.00330003,0.156056,-0.0133246,0.000800056,0.00751081,-25.6871,1.88936,26.0822,1.20453,2.622,-0.0630644,-0.637071,-0.360555,0.372405,0.766556,-0.250586,-0.226609,-0.176667,-0.0503548,-0.389895,-0.317737,0.384889,-0.533003,-0.0476515,
0.0128382,-0.196059,-0.331491,-1.66069,-0.0657073,-0.105213,-0.383987,-0.0147878,-0.00334503,-0.014201,0.0130961,0.798123,-0.562015,0.00366855,0,0,0,0,0,0,0,0.0132844,-0.196187,-0.331131,-1.66128,-0.0753135,1.47497,0.401344,0.000549808,0.0040145,0.000648053,-0.00330003,0.156056,-0.0133246,0.000800056,0.00751081,-25.6871,1.88936,26.0822,1.20453,2.622,-0.0630644,-0.637071,-0.360555,0.372405,0.766556,-0.250586,-0.226609,-0.176667,-0.0503548,-0.389895,-0.317737,0.384889,-0.533003,-0.0476515,
0.0127923,-0.196081,-0.331536,-1.66065,-0.0623337,-0.107599,-0.383972,-0.0114872,-0.00542904,-0.0112441,0.00873099,0.843409,-0.596651,0.00368321,0,0,0,0,0,0,0,0.0132844,-0.196187,-0.331131,-1.66128,-0.0753135,1.47497,0.401344,0.000549808,0.0040145,0.000648053,-0.00330003,0.156056,-0.0133246,0.000800056,0.00751081,-25.6871,1.88936,26.0822,1.20453,2.622,-0.0630644,-0.319708,-0.644997,0.81927,0.888441,-0.168625,-0.298999,-0.249485,-0.0744105,-0.465777,-0.182572,0.352623,-0.523322,-0.046863,
0.0127598,-0.196108,-0.331568,-1.66063,-0.0588127,-0.110094,-0.383957,-0.00813536,-0.00679304,-0.00805167,0.00506429,0.880256,-0.623586,0.00366478,0,0,0,0,0,0,0,0.0132844,-0.196187,-0.331131,-1.66128,-0.0753135,1.47497,0.401344,0.000549808,0.0040145,0.000648053,-0.00330003,0.156056,-0.0133246,0.000800056,0.00751081,-25.6871,1.88936,26.0822,1.20453,2.622,-0.0630644,0.219832,-1.07983,0.972476,1.24506,0.211552,-0.395074,-0.333374,0.12263,-0.612109,-0.224982,0.382827,-0.553297,-0.0489043,
0.0127403,-0.196138,-0.331587,-1.66063,-0.0551709,-0.112671,-0.383943,-0.00485505,-0.00758614,-0.00480733,0.00199027,0.910447,-0.644214,0.00362459,0,0,0,0,0,0,0,0.0132844,-0.196187,-0.331131,-1.66128,-0.0753135,1.47497,0.401344,0.000549808,0.0040145,0.000648053,-0.00330003,0.156056,-0.0133246,0.000800056,0.00751081,-25.6871,1.88936,26.0822,1.20453,2.622,-0.0630644,0.219832,-1.07983,0.972476,1.24506,0.211552,-0.395074,-0.333374,0.12263,-0.612109,-0.224982,0.382827,-0.553297,-0.0489043,
0.0127335,-0.19617,-0.331594,-1.66063,-0.0514296,-0.115309,-0.383928,-0.00172134,-0.00793891,-0.00162861,-0.000588132,0.935335,-0.659673,0.00357059,0,0,0,0,0,0,0,0.013151,-0.196145,-0.331247,-1.66118,-0.0670248,1.47374,0.401344,-0.00891459,0.000624712,-0.00718079,0.00166736,0.366733,-0.0634795,0.00123064,0.995365,-25.9093,2.5876,25.9076,1.98639,2.08459,-0.0566557,0.0319719,-0.85659,1.367,1.12703,-0.053688,-0.323142,-0.235833,-0.0811795,-0.554335,-0.112976,0.479495,-0.614055,-0.0468499,
0.0127383,-0.196202,-0.331588,-1.66064,-0.0476057,-0.117993,-0.383914,0.00122266,-0.00796021,0.0014118,-0.002753,0.955957,-0.670903,0.00350754,0,0,0,0,0,0,0,0.013151,-0.196145,-0.331247,-1.66118,-0.0670248,1.47374,0.401344,-0.00891459,0.000624712,-0.00718079,0.00166736,0.366733,-0.0634795,0.00123064,0.995365,-25.9093,2.5876,25.9076,1.98639,2.08459,-0.0566557,0.0319719,-0.85659,1.367,1.12703,-0.053688,-0.323142,-0.235833,-0.0811795,-0.554335,-0.112976,0.479495,-0.614055,-0.0468499,
0.0127542,-0.196233,-0.331571,-1.66066,-0.0437133,-0.120708,-0.383901,0.00395486,-0.00773847,0.0042719,-0.00457189,0.973115,-0.678677,0.00343971,0,0,0,0,0,0,0,0.013151,-0.196145,-0.331247,-1.66118,-0.0670248,1.47374,0.401344,-0.00891459,0.000624712,-0.00718079,0.00166736,0.366733,-0.0634795,0.00123064,0.995365,-25.9093,2.5876,25.9076,1.98639,2.08459,-0.0566557,-0.383432,-0.919576,1.47879,1.24874,-0.360364,-0.41688,-0.303631,-0.252441,-0.687414,-0.103502,0.540765,-0.69627,-0.047386,
0.01278,-0.196262,-0.331543,-1.66068,-0.0397635,-0.123442,-0.383887,0.0064674,-0.0073443,0.00693012,-0.00610008,0.987435,-0.683631,0.00336902,0,0,0,0,0,0,0,0.013151,-0.196145,-0.331247,-1.66118,-0.0670248,1.47374,0.401344,-0.00891459,0.000624712,-0.00718079,0.00166736,0.366733,-0.0634795,0.00123064,0.995365,-25.9093,2.5876,25.9076,1.98639,2.08459,-0.0566557,0.0415838,-0.653478,1.45611,1.16647,0.0024044,-0.216666,-0.0915203,-0.0319869,-0.502915,-0.222168,0.649098,-0.757306,-0.0463416,
0.0128151,-0.19629,-0.331506,-1.66071,-0.0357659,-0.126187,-0.383874,0.00876161,-0.0068334,0.00937856,-0.00738282,0.99941,-0.686289,0.00329797,0,0,0,0,0,0,0,0.013151,-0.196145,-0.331247,-1.66118,-0.0670248,1.47374,0.401344,-0.00891459,0.000624712,-0.00718079,0.00166736,0.366733,-0.0634795,0.00123064,0.995365,-25.9093,2.5876,25.9076,1.98639,2.08459,-0.0566557,0.0415838,-0.653478,1.45611,1.16647,0.0024044,-0.216666,-0.0915203,-0.0319869,-0.502915,-0.222168,0.649098,-0.757306,-0.0463416,
0.0128585,-0.196315,-0.331459,-1.66074,-0.0317281,-0.128936,-0.383861,0.0108446,-0.0062491,0.0116183,-0.00845739,1.00943,-0.687079,0.00322697,0,0,0,0,0,0,0,0.012854,-0.196165,-0.331612,-1.66106,-0.0520437,1.47042,0.401345,-0.012435,-0.00610035,-0.0119222,-6.71558e-05,0.554572,-0.142191,0.000340199,1.14612,-25.5879,2.91292,25.6577,1.96167,2.07177,-0.0365141,-0.206221,-0.427664,1.82248,1.01285,-0.319288,-0.154628,-0.0161409,-0.271003,-0.437635,-0.0826671,0.71853,-0.786941,-0.0431423,
0.0129094,-0.196337,-0.331405,-1.66078,-0.0276569,-0.131681,-0.383848,0.012727,-0.00562469,0.0136561,-0.00935461,1.01782,-0.686352,0.00315775,0,0,0,0,0,0,0,0.012854,-0.196165,-0.331612,-1.66106,-0.0520437,1.47042,0.401345,-0.012435,-0.00610035,-0.0119222,-6.71558e-05,0.554572,-0.142191,0.000340199,1.14612,-25.5879,2.91292,25.6577,1.96167,2.07177,-0.0365141,-0.206221,-0.427664,1.82248,1.01285,-0.319288,-0.154628,-0.0161409,-0.271003,-0.437635,-0.0826671,0.71853,-0.786941,-0.0431423,
0.0129671,-0.196357,-0.331343,-1.66082,-0.0235576,-0.134419,-0.383836,0.0144215,-0.00498538,0.015502,-0.0101002,1.02483,-0.684399,0.00309036,0,0,0,0,0,0,0,0.012854,-0.196165,-0.331612,-1.66106,-0.0520437,1.47042,0.401345,-0.012435,-0.00610035,-0.0119222,-6.71558e-05,0.554572,-0.142191,0.000340199,1.14612,-25.5879,2.91292,25.6577,1.96167,2.07177,-0.0365141,0.0883392,0.18087,1.62484,0.72096,0.0209715,0.179038,0.324197,-0.0281367,-0.099184,-0.270761,0.854447,-0.871964,-0.0429393,
0.0130308,-0.196375,-0.331274,-1.66087,-0.0194349,-0.137144,-0.383824,0.0159416,-0.00434983,0.0171683,-0.0107156,1.03066,-0.681454,0.00302442,0,0,0,0,0,0,0,0.012854,-0.196165,-0.331612,-1.66106,-0.0520437,1.47042,0.401345,-0.012435,-0.00610035,-0.0119222,-6.71558e-05,0.554572,-0.142191,0.000340199,1.14612,-25.5879,2.91292,25.6577,1.96167,2.07177,-0.0365141,0.0883392,0.18087,1.62484,0.72096,0.0209715,0.179038,0.324197,-0.0281367,-0.099184,-0.270761,0.854447,-0.871964,-0.0429393,
0.0131,-0.19639,-0.331199,-1.66091,-0.015293,-0.139855,-0.383812,0.0173011,-0.00373168,0.0186677,-0.011219,1.03549,-0.67771,0.00296136,0,0,0,0,0,0,0,0.012854,-0.196165,-0.331612,-1.66106,-0.0520437,1.47042,0.401345,-0.012435,-0.00610035,-0.0119222,-6.71558e-05,0.554572,-0.142191,0.000340199,1.14612,-25.5879,2.91292,25.6577,1.96167,2.07177,-0.0365141,-0.234581,0.174438,1.69753,0.786209,-0.218279,0.122124,0.278026,-0.161265,-0.17604,-0.262978,0.907141,-0.930383,-0.0385048,
0.0131741,-0.196402,-0.331119,-1.66096,-0.0111351,-0.142549,-0.383801,0.0185133,-0.00314042,0.0200134,-0.0116258,1.03946,-0.673326,0.0029006,0,0,0,0,0,0,0,0.0123853,-0.196178,-0.332066,-1.66103,-0.0268547,1.46263,0.40134,-0.0127734,0.00186549,-0.00795072,-0.00655523,0.648108,-0.215165,-0.000640996,1.4278,-25.5126,3.0121,25.7806,2.38281,1.95275,-0.0163725,-0.315855,0.302166,1.84516,0.721121,-0.315486,0.173635,0.338728,-0.231718,-0.128742,-0.234135,0.953793,-0.967674,-0.0390712,
0.0132524,-0.196412,-0.331035,-1.661,-0.0069643,-0.145222,-0.383789,0.0195912,-0.00258248,0.0212182,-0.0119491,1.0427,-0.668429,0.00284181,0,0,0,0,0,0,0,0.0123853,-0.196178,-0.332066,-1.66103,-0.0268547,1.46263,0.40134,-0.0127734,0.00186549,-0.00795072,-0.00655523,0.648108,-0.215165,-0.000640996,1.4278,-25.5126,3.0121,25.7806,2.38281,1.95275,-0.0163725,-0.315855,0.302166,1.84516,0.721121,-0.315486,0.173635,0.338728,-0.231718,-0.128742,-0.234135,0.953793,-0.967674,-0.0390712,
0.0133346,-0.196421,-0.330945,-1.66105,-0.00278313,-0.147875,-0.383778,0.0205471,-0.0020618,0.0222945,-0.0122002,1.04529,-0.663126,0.00278536,0,0,0,0,0,0,0,0.0123853,-0.196178,-0.332066,-1.66103,-0.0268547,1.46263,0.40134,-0.0127734,0.00186549,-0.00795072,-0.00655523,0.648108,-0.215165,-0.000640996,1.4278,-25.5126,3.0121,25.7806,2.38281,1.95275,-0.0163725,0.055674,0.418803,1.81698,0.702615,-0.0119273,0.297357,0.47408,-0.052807,-0.0217369,-0.314789,1.01684,-0.994036,-0.0368382,
0.0134202,-0.196427,-0.330852,-1.6611,0.00140621,-0.150505,-0.383767,0.0213921,-0.0015805,0.023254,-0.0123886,1.04734,-0.6575,0.00273087,0,0,0,0,0,0,0,0.0123853,-0.196178,-0.332066,-1.66103,-0.0268547,1.46263,0.40134,-0.0127734,0.00186549,-0.00795072,-0.00655523,0.648108,-0.215165,-0.000640996,1.4278,-25.5126,3.0121,25.7806,2.38281,1.95275,-0.0163725,0.055674,0.418803,1.81698,0.702615,-0.0119273,0.297357,0.47408,-0.052807,-0.0217369,-0.314789,1.01684,-0.994036,-0.0368382,
0.0135087,-0.196432,-0.330756,-1.66115,0.00560179,-0.153111,-0.383756,0.022137,-0.00113932,0.0241076,-0.0125229,1.04889,-0.651623,0.00267855,0,0,0,0,0,0,0,0.0123853,-0.196178,-0.332066,-1.66103,-0.0268547,1.46263,0.40134,-0.0127734,0.00186549,-0.00795072,-0.00655523,0.648108,-0.215165,-0.000640996,1.4278,-25.5126,3.0121,25.7806,2.38281,1.95275,-0.0163725,-0.0157665,0.264624,1.79552,0.79885,-0.00719506,0.225984,0.412884,-0.0254564,-0.109136,-0.357731,0.9731,-1.03501,-0.0377411,
0.0135999,-0.196434,-0.330656,-1.6612,0.00980193,-0.155693,-0.383746,0.0227915,-0.000737908,0.0248652,-0.0126101,1.05003,-0.645549,0.0026283,0,0,0,0,0,0,0,0.0123853,-0.196178,-0.332066,-1.66103,-0.0268547,1.46263,0.40134,-0.0127734,0.00186549,-0.00795072,-0.00655523,0.648108,-0.215165,-0.000640996,1.4278,-25.5126,3.0121,25.7806,2.38281,1.95275,-0.0163725,0.0339041,0.124019,1.52421,0.909306,0.179228,0.178588,0.366322,0.143723,-0.168973,-0.500248,0.920608,-1.06766,-0.0368747,
0.0136934,-0.196436,-0.330554,-1.66125,0.0140052,-0.158251,-0.383736,0.0233643,-0.00037523,0.0255361,-0.0126565,1.05081,-0.639324,0.00257944,0,0,0,0,0,0,0,0.0121007,-0.196204,-0.332187,-1.66099,-0.00399466,1.45428,0.401344,-0.00636594,0.00200303,-0.000976147,-0.000823279,0.730437,-0.267337,0.00052849,1.30085,-25.2626,3.0121,25.6061,1.8399,2.01867,-0.0566557,0.0339041,0.124019,1.52421,0.909306,0.179228,0.178588,0.366322,0.143723,-0.168973,-0.500248,0.920608,-1.06766,-0.0368747,
0.0137888,-0.196436,-0.33045,-1.66131,0.0182102,-0.160783,-0.383725,0.0238635,-4.96317e-05,0.0261289,-0.0126674,1.05126,-0.632985,0.00253232,0,0,0,0,0,0,0,0.0121007,-0.196204,-0.332187,-1.66099,-0.00399466,1.45428,0.401344,-0.00636594,0.00200303,-0.000976147,-0.000823279,0.730437,-0.267337,0.00052849,1.30085,-25.2626,3.0121,25.6061,1.8399,2.01867,-0.0566557,-0.208598,0.019718,1.60743,0.906707,-0.0346971,0.0963337,0.283602,0.011037,-0.241745,-0.423982,0.851201,-1.04963,-0.0375754,
0.0139475,-0.196305,-0.33039,-1.66119,-0.0762046,-0.101047,-0.383914,0.0776339,-0.0156797,0.0879645,0.00227552,0.411164,-0.633243,0.0119989,0,0,0,0,0,0,0,0.0121007,-0.196204,-0.332187,-1.66099,-0.00399466,1.45428,0.401344,-0.00636594,0.00200303,-0.000976147,-0.000823279,0.730437,-0.267337,0.00052849,1.30085,-25.2626,3.0121,25.6061,1.8399,2.01867,-0.0566557,-0.208598,0.019718,1.60743,0.906707,-0.0346971,0.0963337,0.283602,0.011037,-0.241745,-0.423982,0.851201,-1.04963,-0.0375754,
0.0129431,-0.19639,-0.33132,-1.66106,0.00438859,-0.123924,-0.383899,0.0963484,-0.0213657,0.104019,-0.0126184,0.704149,-0.756321,0.0124561,0,0,0,0,0,0,0,0.0121007,-0.196204,-0.332187,-1.66099,-0.00399466,1.45428,0.401344,-0.00636594,0.00200303,-0.000976147,-0.000823279,0.730437,-0.267337,0.00052849,1.30085,-25.2626,3.0121,25.6061,1.8399,2.01867,-0.0566557,-0.505139,-0.134006,1.66303,0.875869,-0.289698,-0.0215344,0.156937,-0.143669,-0.333572,-0.321001,0.71846,-1.00022,-0.0354255,
0.0134065,-0.196486,-0.330811,-1.66114,0.00728587,-0.127369,-0.383852,0.115852,-0.0238009,0.127339,-0.0198256,0.724321,-0.861278,0.0118341,0,0,0,0,0,0,0,0.0121007,-0.196204,-0.332187,-1.66099,-0.00399466,1.45428,0.401344,-0.00636594,0.00200303,-0.000976147,-0.000823279,0.730437,-0.267337,0.00052849,1.30085,-25.2626,3.0121,25.6061,1.8399,2.01867,-0.0566557,-0.505139,-0.134006,1.66303,0.875869,-0.289698,-0.0215344,0.156937,-0.143669,-0.333572,-0.321001,0.71846,-1.00022,-0.0354255,
0.013934,-0.196583,-0.330226,-1.66125,0.0102839,-0.131158,-0.383806,0.131876,-0.0243534,0.146174,-0.026733,0.749507,-0.947234,0.0113194,0,0,0,0,0,0,0,0.0121469,-0.196205,-0.332116,-1.66101,0.0192624,1.44519,0.40135,0.0109624,-0.00851055,0.00788205,0.00334906,0.661594,-0.304288,0.000246932,0.793033,-25.2864,2.93672,25.8798,0.1535,2.7282,-0.0703886,0.0634849,0.121345,1.33218,0.669658,0.237382,0.192846,0.352586,0.196754,-0.0846978,-0.459103,0.682434,-0.950229,-0.03589,
0.0145148,-0.196677,-0.32958,-1.66138,0.0133913,-0.13523,-0.383763,0.145183,-0.0235399,0.161577,-0.0331313,0.776841,-1.01782,0.0108876,0,0,0,0,0,0,0,0.0121469,-0.196205,-0.332116,-1.66101,0.0192624,1.44519,0.40135,0.0109624,-0.00851055,0.00788205,0.00334906,0.661594,-0.304288,0.000246932,0.793033,-25.2864,2.93672,25.8798,0.1535,2.7282,-0.0703886,-0.859163,-0.0389297,1.78556,0.61357,-0.658941,-0.042849,0.111303,-0.390741,-0.288606,-0.131672,0.57718,-0.900072,-0.029975,
0.0151401,-0.196764,-0.328882,-1.66154,0.0166092,-0.139533,-0.383721,0.156338,-0.0217741,0.174317,-0.0389442,0.804475,-1.0759,0.0105159,0,0,0,0,0,0,0,0.0121469,-0.196205,-0.332116,-1.66101,0.0192624,1.44519,0.40135,0.0109624,-0.00851055,0.00788205,0.00334906,0.661594,-0.304288,0.000246932,0.793033,-25.2864,2.93672,25.8798,0.1535,2.7282,-0.0703886,-0.859163,-0.0389297,1.78556,0.61357,-0.658941,-0.042849,0.111303,-0.390741,-0.288606,-0.131672,0.57718,-0.900072,-0.029975,
0.0158032,-0.196842,-0.328143,-1.66171,0.0199342,-0.144028,-0.38368,0.165761,-0.0193747,0.184958,-0.0441557,0.831257,-1.12373,0.0101889,0,0,0,0,0,0,0,0.0121469,-0.196205,-0.332116,-1.66101,0.0192624,1.44519,0.40135,0.0109624,-0.00851055,0.00788205,0.00334906,0.661594,-0.304288,0.000246932,0.793033,-25.2864,2.93672,25.8798,0.1535,2.7282,-0.0703886,-0.666729,-0.985542,1.49348,1.08284,-0.370507,-0.439489,-0.309895,-0.166671,-0.687421,-0.206559,0.272138,-0.827761,-0.0247228,
0.0164982,-0.196908,-0.327367,-1.66191,0.0233602,-0.148681,-0.38364,0.17377,-0.0165818,0.193919,-0.0487809,0.856512,-1.16315,0.00989465,0,0,0,0,0,0,0,0.0121469,-0.196205,-0.332116,-1.66101,0.0192624,1.44519,0.40135,0.0109624,-0.00851055,0.00788205,0.00334906,0.661594,-0.304288,0.000246932,0.793033,-25.2864,2.93672,25.8798,0.1535,2.7282,-0.0703886,-0.666729,-0.985542,1.49348,1.08284,-0.370507,-0.439489,-0.309895,-0.166671,-0.687421,-0.206559,0.272138,-0.827761,-0.0247228,
0.0172207,-0.196962,-0.326561,-1.66212,0.0268797,-0.153463,-0.383602,0.180607,-0.0135737,0.201514,-0.0528495,0.879876,-1.19563,0.00962544,0,0,0,0,0,0,0,0.0121469,-0.196205,-0.332116,-1.66101,0.0192624,1.44519,0.40135,0.0109624,-0.00851055,0.00788205,0.00334906,0.661594,-0.304288,0.000246932,0.793033,-25.2864,2.93672,25.8798,0.1535,2.7282,-0.0703886,-0.738924,-1.65605,1.62301,1.29982,-0.472993,-0.756572,-0.654081,-0.243404,-0.974121,-0.0690428,0.00190219,-0.736498,-0.019425,
0.0179665,-0.197005,-0.325729,-1.66235,0.0304846,-0.158336,-0.383564,0.186467,-0.0107514,0.208029,-0.057249,0.901217,-1.2181,0.00939498,0,0,0,0,0,0,0,0.013173,-0.196255,-0.330836,-1.66099,0.0375607,1.43394,0.401347,0.0485067,-0.00282062,0.0454312,0.00446288,0.602126,-0.430866,0.000285603,1.90784,-25.0603,4.11104,24.9594,1.24115,1.56823,-0.0429228,-0.738924,-1.65605,1.62301,1.29982,-0.472993,-0.756572,-0.654081,-0.243404,-0.974121,-0.0690428,0.00190219,-0.736498,-0.019425,
0.0187326,-0.197039,-0.324874,-1.6626,0.0341668,-0.163237,-0.383527,0.191523,-0.00837906,0.213671,-0.0627887,0.920541,-1.22544,0.00921656,0,0,0,0,0,0,0,0.013173,-0.196255,-0.330836,-1.66099,0.0375607,1.43394,0.401347,0.0485067,-0.00282062,0.0454312,0.00446288,0.602126,-0.430866,0.000285603,1.90784,-25.0603,4.11104,24.9594,1.24115,1.56823,-0.0429228,-0.289102,-1.02649,1.34566,0.853987,0.0599899,-0.383845,-0.3084,0.144354,-0.5405,-0.300214,-0.00953002,-0.821213,-0.0197585,
0.0195162,-0.197062,-0.324,-1.66287,0.0379182,-0.168133,-0.383491,0.195888,-0.00579189,0.218458,-0.0676301,0.937859,-1.22379,0.00903504,0,0,0,0,0,0,0,0.013173,-0.196255,-0.330836,-1.66099,0.0375607,1.43394,0.401347,0.0485067,-0.00282062,0.0454312,0.00446288,0.602126,-0.430866,0.000285603,1.90784,-25.0603,4.11104,24.9594,1.24115,1.56823,-0.0429228,-0.320512,-0.599134,1.13324,0.611043,0.158012,-0.191614,-0.127278,0.254695,-0.323191,-0.431458,0.0373773,-0.8841,-0.0173154,
0.0203147,-0.197074,-0.32311,-1.66316,0.0417311,-0.172998,-0.383456,0.199628,-0.00299218,0.222529,-0.0714655,0.953222,-1.2163,0.00885451,0,0,0,0,0,0,0,0.013173,-0.196255,-0.330836,-1.66099,0.0375607,1.43394,0.401347,0.0485067,-0.00282062,0.0454312,0.00446288,0.602126,-0.430866,0.000285603,1.90784,-25.0603,4.11104,24.9594,1.24115,1.56823,-0.0429228,-0.320512,-0.599134,1.13324,0.611043,0.158012,-0.191614,-0.127278,0.254695,-0.323191,-0.431458,0.0373773,-0.8841,-0.0173154,
0.021126,-0.197074,-0.322206,-1.66345,0.045598,-0.177817,-0.383421,0.20282,-0.000112998,0.225999,-0.0743855,0.96673,-1.20484,0.0086778,0,0,0,0,0,0,0,0.013173,-0.196255,-0.330836,-1.66099,0.0375607,1.43394,0.401347,0.0485067,-0.00282062,0.0454312,0.00446288,0.602126,-0.430866,0.000285603,1.90784,-25.0603,4.11104,24.9594,1.24115,1.56823,-0.0429228,-1.06923,-0.839531,1.33442,0.698196,-0.468757,-0.415085,-0.346663,-0.123376,-0.546243,-0.274344,-0.0403473,-0.887769,-0.0182392,
0.0219481,-0.197064,-0.32129,-1.66376,0.0495121,-0.18258,-0.383387,0.205531,0.00272218,0.228957,-0.076556,0.978522,-1.19064,0.00850348,0,0,0,0,0,0,0,0.0148378,-0.196422,-0.328749,-1.66099,0.0570551,1.4178,0.40135,0.0675269,-0.00700716,0.0801909,0.00137091,0.643221,-0.561658,-0.000949932,2.21332,-24.7865,4.23799,24.7849,1.40594,1.41533,-0.0301054,-1.06923,-0.839531,1.33442,0.698196,-0.468757,-0.415085,-0.346663,-0.123376,-0.546243,-0.274344,-0.0403473,-0.887769,-0.0182392,
0.0227794,-0.197042,-0.320364,-1.66407,0.0534671,-0.187278,-0.383354,0.207821,0.00542709,0.231471,-0.0781298,0.988751,-1.17452,0.00833335,0,0,0,0,0,0,0,0.0148378,-0.196422,-0.328749,-1.66099,0.0570551,1.4178,0.40135,0.0675269,-0.00700716,0.0801909,0.00137091,0.643221,-0.561658,-0.000949932,2.21332,-24.7865,4.23799,24.7849,1.40594,1.41533,-0.0301054,-1.40319,-1.55285,1.00929,1.22693,-0.485952,-0.772993,-0.703492,-0.0341296,-0.954938,-0.456495,-0.150748,-0.975735,-0.0185278,
0.0236183,-0.19701,-0.31943,-1.66439,0.0574574,-0.191906,-0.383321,0.209736,0.00794949,0.233593,-0.0792304,0.997573,-1.15708,0.00816802,0,0,0,0,0,0,0,0.0148378,-0.196422,-0.328749,-1.66099,0.0570551,1.4178,0.40135,0.0675269,-0.00700716,0.0801909,0.00137091,0.643221,-0.561658,-0.000949932,2.21332,-24.7865,4.23799,24.7849,1.40594,1.41533,-0.0301054,-1.40319,-1.55285,1.00929,1.22693,-0.485952,-0.772993,-0.703492,-0.0341296,-0.954938,-0.456495,-0.150748,-0.975735,-0.0185278,
0.0244636,-0.196969,-0.318489,-1.66471,0.061478,-0.196461,-0.383289,0.211318,0.0102618,0.23537,-0.0799546,1.00514,-1.13874,0.00800643,0,0,0,0,0,0,0,0.0148378,-0.196422,-0.328749,-1.66099,0.0570551,1.4178,0.40135,0.0675269,-0.00700716,0.0801909,0.00137091,0.643221,-0.561658,-0.000949932,2.21332,-24.7865,4.23799,24.7849,1.40594,1.41533,-0.0301054,-1.70242,-0.992202,1.05205,0.919735,-0.68669,-0.559982,-0.494757,-0.133665,-0.718603,-0.485487,-0.0312351,-1.06581,-0.0152695,
0.025314,-0.19692,-0.317541,-1.66503,0.0655243,-0.20094,-0.383258,0.212602,0.0123544,0.236838,-0.0803765,1.01159,-1.1198,0.00784878,0,0,0,0,0,0,0,0.0148378,-0.196422,-0.328749,-1.66099,0.0570551,1.4178,0.40135,0.0675269,-0.00700716,0.0801909,0.00137091,0.643221,-0.561658,-0.000949932,2.21332,-24.7865,4.23799,24.7849,1.40594,1.41533,-0.0301054,-1.81435,-1.04731,1.13552,1.04865,-0.822848,-0.600478,-0.534882,-0.234853,-0.779863,-0.452953,0.0680635,-1.07549,-0.0151561,
0.0261685,-0.196863,-0.316589,-1.66535,0.0695925,-0.205342,-0.383227,0.213619,0.0142284,0.238029,-0.0805537,1.01705,-1.10047,0.00769523,0,0,0,0,0,0,0,0.0148378,-0.196422,-0.328749,-1.66099,0.0570551,1.4178,0.40135,0.0675269,-0.00700716,0.0801909,0.00137091,0.643221,-0.561658,-0.000949932,2.21332,-24.7865,4.23799,24.7849,1.40594,1.41533,-0.0301054,-1.81435,-1.04731,1.13552,1.04865,-0.822848,-0.600478,-0.534882,-0.234853,-0.779863,-0.452953,0.0680635,-1.07549,-0.0151561,
0.0270261,-0.196799,-0.315633,-1.66568,0.0736791,-0.209666,-0.383197,0.214397,0.0158921,0.238972,-0.0805314,1.02163,-1.08092,0.00754578,0,0,0,0,0,0,0,0.0172203,-0.196456,-0.325584,-1.66117,0.0781872,1.39897,0.401348,0.0765231,-0.000213862,0.122598,-0.00613504,0.63075,-0.608841,-0.000340664,1.88404,-24.8103,3.78572,24.5349,2.21161,1.21667,-0.00996382,-1.40028,-0.579713,0.57117,0.939214,-0.246452,-0.318616,-0.255229,0.202279,-0.511754,-0.804497,0.224617,-1.17372,-0.0116159,
0.0278859,-0.19673,-0.314674,-1.666,0.0777808,-0.213911,-0.383167,0.214961,0.017358,0.239691,-0.0803453,1.02544,-1.06127,0.00740102,0,0,0,0,0,0,0,0.0172203,-0.196456,-0.325584,-1.66117,0.0781872,1.39897,0.401348,0.0765231,-0.000213862,0.122598,-0.00613504,0.63075,-0.608841,-0.000340664,1.88404,-24.8103,3.78572,24.5349,2.21161,1.21667,-0.00996382,-1.40028,-0.579713,0.57117,0.939214,-0.246452,-0.318616,-0.255229,0.202279,-0.511754,-0.804497,0.224617,-1.17372,-0.0116159,
0.0287473,-0.196655,-0.313714,-1.66632,0.0818951,-0.218077,-0.383138,0.215333,0.0186404,0.240211,-0.0800239,1.02856,-1.04159,0.00725872,0,0,0,0,0,0,0,0.0172203,-0.196456,-0.325584,-1.66117,0.0781872,1.39897,0.401348,0.0765231,-0.000213862,0.122598,-0.00613504,0.63075,-0.608841,-0.000340664,1.88404,-24.8103,3.78572,24.5349,2.21161,1.21667,-0.00996382,-1.47737,0.0347525,0.612345,0.602291,-0.372336,-0.0595324,-0.00901098,0.104669,-0.220676,-0.768316,0.386745,-1.17225,-0.0128353,
0.0296094,-0.196576,-0.312751,-1.66664,0.0860193,-0.222165,-0.38311,0.215532,0.0197548,0.24055,-0.0795902,1.03107,-1.02195,0.00711986,0,0,0,0,0,0,0,0.0172203,-0.196456,-0.325584,-1.66117,0.0781872,1.39897,0.401348,0.0765231,-0.000213862,0.122598,-0.00613504,0.63075,-0.608841,-0.000340664,1.88404,-24.8103,3.78572,24.5349,2.21161,1.21667,-0.00996382,-1.25486,0.630595,0.600088,0.297674,-0.332174,0.223631,0.274251,0.07208,0.0777022,-0.70742,0.581106,-1.08889,-0.0128745,
0.0304717,-0.196493,-0.311788,-1.66695,0.0901515,-0.226175,-0.383082,0.215577,0.0207167,0.240727,-0.0790627,1.03304,-1.00241,0.0069843,0,0,0,0,0,0,0,0.0172203,-0.196456,-0.325584,-1.66117,0.0781872,1.39897,0.401348,0.0765231,-0.000213862,0.122598,-0.00613504,0.63075,-0.608841,-0.000340664,1.88404,-24.8103,3.78572,24.5349,2.21161,1.21667,-0.00996382,-1.25486,0.630595,0.600088,0.297674,-0.332174,0.223631,0.274251,0.07208,0.0777022,-0.70742,0.581106,-1.08889,-0.0128745,
0.0313336,-0.196407,-0.310825,-1.66727,0.0942896,-0.230107,-0.383054,0.215484,0.0215409,0.24076,-0.0784572,1.03453,-0.982986,0.00685236,0,0,0,0,0,0,0,0.0209846,-0.196437,-0.320201,-1.66159,0.104054,1.37258,0.401354,0.103675,-0.00214905,0.137022,-0.0159866,0.598965,-0.648102,0.00131299,1.85627,-24.9373,3.58735,24.761,2.70691,1.95916,-0.0630644,-1.15304,0.979831,0.195482,0.238042,-0.127197,0.387873,0.446766,0.240894,0.220188,-0.887605,0.737857,-1.10936,-0.0140913,
0.0321947,-0.196318,-0.309863,-1.66758,0.0984319,-0.233962,-0.383027,0.215268,0.0222416,0.240662,-0.0777866,1.03559,-0.963715,0.00672296,0,0,0,0,0,0,0,0.0209846,-0.196437,-0.320201,-1.66159,0.104054,1.37258,0.401354,0.103675,-0.00214905,0.137022,-0.0159866,0.598965,-0.648102,0.00131299,1.85627,-24.9373,3.58735,24.761,2.70691,1.95916,-0.0630644,-1.15304,0.979831,0.195482,0.238042,-0.127197,0.387873,0.446766,0.240894,0.220188,-0.887605,0.737857,-1.10936,-0.0140913,
0.013686,-0.196755,-0.33057,-1.66161,0.0030688,-0.123566,-0.383885,0.178283,-0.0555749,0.191092,-0.0633831,0.567211,-0.726875,0.0136241,0,0,0,0,0,0,0,0.0209846,-0.196437,-0.320201,-1.66159,0.104054,1.37258,0.401354,0.103675,-0.00214905,0.137022,-0.0159866,0.598965,-0.648102,0.00131299,1.85627,-24.9373,3.58735,24.761,2.70691,1.95916,-0.0630644,-1.5174,0.968026,0.31561,0.293976,-0.548596,0.306843,0.374364,-0.0613985,0.124434,-0.724425,0.824162,-1.03086,-0.0144503,
0.0234166,-0.19687,-0.317546,-1.66247,0.111016,-0.207955,-0.383887,0.234662,-0.0406491,0.258798,-0.0851711,0.593807,-0.892617,0.0126919,0,0,0,0,0,0,0,0.0209846,-0.196437,-0.320201,-1.66159,0.104054,1.37258,0.401354,0.103675,-0.00214905,0.137022,-0.0159866,0.598965,-0.648102,0.00131299,1.85627,-24.9373,3.58735,24.761,2.70691,1.95916,-0.0630644,-1.24335,1.0775,0.153,0.266003,-0.408477,0.373923,0.43676,-0.0131635,0.192194,-0.6961,0.897465,-0.908442,-0.0170318,
0.0244499,-0.197028,-0.316399,-1.66283,0.113504,-0.211794,-0.383839,0.258326,-0.0396845,0.286662,-0.0914971,0.62194,-0.959783,0.01219,0,0,0,0,0,0,0,0.0209846,-0.196437,-0.320201,-1.66159,0.104054,1.37258,0.401354,0.103675,-0.00214905,0.137022,-0.0159866,0.598965,-0.648102,0.00131299,1.85627,-24.9373,3.58735,24.761,2.70691,1.95916,-0.0630644,-1.24335,1.0775,0.153,0.266003,-0.408477,0.373923,0.43676,-0.0131635,0.192194,-0.6961,0.897465,-0.908442,-0.0170318,
0.025561,-0.197177,-0.315162,-1.66322,0.116122,-0.215859,-0.383792,0.277781,-0.0371296,0.309332,-0.0966127,0.654715,-1.01629,0.0117414,0,0,0,0,0,0,0,0.0209846,-0.196437,-0.320201,-1.66159,0.104054,1.37258,0.401354,0.103675,-0.00214905,0.137022,-0.0159866,0.598965,-0.648102,0.00131299,1.85627,-24.9373,3.58735,24.761,2.70691,1.95916,-0.0630644,-1.2217,2.25675,-0.162121,-0.523459,-0.291941,0.900727,0.95293,0.10577,0.79475,-0.811862,0.99354,-0.92588,-0.0159903,
0.0267368,-0.197312,-0.31385,-1.66362,0.118879,-0.220113,-0.383746,0.29393,-0.0337506,0.327967,-0.101055,0.689214,-1.06343,0.0113347,0,0,0,0,0,0,0,0.0244151,-0.196414,-0.315816,-1.66227,0.121677,1.35308,0.401355,0.124827,-0.00313794,0.133581,-0.0313277,0.444998,-0.553076,-0.000457923,-0.0956386,-25.3856,1.93696,26.0068,1.22833,2.75475,-0.0301054,-1.2217,2.25675,-0.162121,-0.523459,-0.291941,0.900727,0.95293,0.10577,0.79475,-0.811862,0.99354,-0.92588,-0.0159903,
0.0279669,-0.197434,-0.312476,-1.66405,0.121773,-0.224492,-0.383702,0.307526,-0.0304948,0.343547,-0.106479,0.723546,-1.09486,0.0110056,0,0,0,0,0,0,0,0.0244151,-0.196414,-0.315816,-1.66227,0.121677,1.35308,0.401355,0.124827,-0.00313794,0.133581,-0.0313277,0.444998,-0.553076,-0.000457923,-0.0956386,-25.3856,1.93696,26.0068,1.22833,2.75475,-0.0301054,-2.25402,1.91312,0.140705,-0.444738,-1.23895,0.581559,0.622103,-0.49609,0.501335,-0.500804,0.862363,-0.843806,-0.0129749,
0.0292431,-0.197543,-0.311049,-1.6645,0.1248,-0.228937,-0.383659,0.319048,-0.0272289,0.356632,-0.112193,0.756533,-1.11128,0.010707,0,0,0,0,0,0,0,0.0244151,-0.196414,-0.315816,-1.66227,0.121677,1.35308,0.401355,0.124827,-0.00313794,0.133581,-0.0313277,0.444998,-0.553076,-0.000457923,-0.0956386,-25.3856,1.93696,26.0068,1.22833,2.75475,-0.0301054,-2.25402,1.91312,0.140705,-0.444738,-1.23895,0.581559,0.622103,-0.49609,0.501335,-0.500804,0.862363,-0.843806,-0.0129749,
0.0305583,-0.197638,-0.309579,-1.66497,0.12795,-0.233402,-0.383618,0.328813,-0.0237339,0.367629,-0.117283,0.787473,-1.11605,0.0103982,0,0,0,0,0,0,0,0.0244151,-0.196414,-0.315816,-1.66227,0.121677,1.35308,0.401355,0.124827,-0.00313794,0.133581,-0.0313277,0.444998,-0.553076,-0.000457923,-0.0956386,-25.3856,1.93696,26.0068,1.22833,2.75475,-0.0301054,-1.35992,0.571744,-0.0541746,0.316049,-0.553665,0.113599,0.173678,-0.118561,-0.0375023,-0.525288,0.582766,-0.665607,-0.0117243,
0.0319069,-0.19772,-0.308071,-1.66546,0.131213,-0.237827,-0.383577,0.337149,-0.0204454,0.376986,-0.122558,0.815963,-1.10629,0.0101485,0,0,0,0,0,0,0,0.0244151,-0.196414,-0.315816,-1.66227,0.121677,1.35308,0.401355,0.124827,-0.00313794,0.133581,-0.0313277,0.444998,-0.553076,-0.000457923,-0.0956386,-25.3856,1.93696,26.0068,1.22833,2.75475,-0.0301054,-1.59553,0.373612,-0.084856,0.368061,-0.695399,0.00377349,0.0614094,-0.181994,-0.139972,-0.508189,0.475442,-0.663094,-0.0140859,
0.0332837,-0.197787,-0.306532,-1.66596,0.134581,-0.242182,-0.383538,0.344192,-0.0168706,0.384847,-0.126542,0.841846,-1.08873,0.00989928,0,0,0,0,0,0,0,0.0290382,-0.196564,-0.310232,-1.66346,0.134954,1.33468,0.401356,0.155797,-0.0100631,0.182012,-0.0358823,0.423038,-0.592203,-8.67985e-05,2.0586,-25.0127,4.13881,24.761,2.55401,1.78612,-0.0365141,-1.59553,0.373612,-0.084856,0.368061,-0.695399,0.00377349,0.0614094,-0.181994,-0.139972,-0.508189,0.475442,-0.663094,-0.0140859,
0.034684,-0.19784,-0.304966,-1.66648,0.138041,-0.246449,-0.383499,0.350088,-0.0131243,0.391431,-0.129195,0.865112,-1.06674,0.00965561,0,0,0,0,0,0,0,0.0290382,-0.196564,-0.310232,-1.66346,0.134954,1.33468,0.401356,0.155797,-0.0100631,0.182012,-0.0358823,0.423038,-0.592203,-8.67985e-05,2.0586,-25.0127,4.13881,24.761,2.55401,1.78612,-0.0365141,-1.75709,0.378329,-0.282806,0.387444,-0.704654,-0.0122232,0.0296707,-0.137825,-0.146496,-0.60064,0.466189,-0.700404,-0.014908,
0.036104,-0.197877,-0.303378,-1.667,0.141585,-0.250617,-0.383461,0.354983,-0.00939753,0.396921,-0.130779,0.885846,-1.04218,0.00942146,0,0,0,0,0,0,0,0.0290382,-0.196564,-0.310232,-1.66346,0.134954,1.33468,0.401356,0.155797,-0.0100631,0.182012,-0.0358823,0.423038,-0.592203,-8.67985e-05,2.0586,-25.0127,4.13881,24.761,2.55401,1.78612,-0.0365141,-1.75709,0.378329,-0.282806,0.387444,-0.704654,-0.0122232,0.0296707,-0.137825,-0.146496,-0.60064,0.466189,-0.700404,-0.014908,
0.03754,-0.1979,-0.301772,-1.66753,0.145201,-0.254682,-0.383425,0.35901,-0.00583572,0.40147,-0.131563,0.904193,-1.01616,0.00919614,0,0,0,0,0,0,0,0.0290382,-0.196564,-0.310232,-1.66346,0.134954,1.33468,0.401356,0.155797,-0.0100631,0.182012,-0.0358823,0.423038,-0.592203,-8.67985e-05,2.0586,-25.0127,4.13881,24.761,2.55401,1.78612,-0.0365141,-1.64175,0.0806252,-0.561279,0.544793,-0.502865,-0.117591,-0.0688325,0.0223638,-0.268058,-0.697485,0.359911,-0.675317,-0.017453,
0.0389891,-0.197911,-0.300151,-1.66806,0.148883,-0.25864,-0.383389,0.362277,-0.00252707,0.405202,-0.131758,0.92033,-0.989392,0.00898092,0,0,0,0,0,0,0,0.0290382,-0.196564,-0.310232,-1.66346,0.134954,1.33468,0.401356,0.155797,-0.0100631,0.182012,-0.0358823,0.423038,-0.592203,-8.67985e-05,2.0586,-25.0127,4.13881,24.761,2.55401,1.78612,-0.0365141,-1.75492,-0.733057,-0.930904,1.02987,-0.374248,-0.475265,-0.42559,0.180575,-0.662143,-0.850573,0.152981,-0.691293,-0.017009,
0.0404486,-0.197909,-0.298519,-1.66858,0.15262,-0.262489,-0.383354,0.364882,0.000484941,0.408222,-0.131517,0.934444,-0.962314,0.00877664,0,0,0,0,0,0,0,0.033923,-0.196688,-0.303593,-1.66475,0.150707,1.31618,0.401355,0.165821,-0.00155938,0.21594,-0.0435583,0.570868,-0.600512,-2.67805e-05,2.82032,-24.7112,4.68629,24.5349,2.68219,1.36223,-0.0301054,-1.75492,-0.733057,-0.930904,1.02987,-0.374248,-0.475265,-0.42559,0.180575,-0.662143,-0.850573,0.152981,-0.691293,-0.017009,
0.0419163,-0.197896,-0.296876,-1.66911,0.156407,-0.26623,-0.383319,0.366904,0.00318603,0.410617,-0.130952,0.946721,-0.935209,0.00858186,0,0,0,0,0,0,0,0.033923,-0.196688,-0.303593,-1.66475,0.150707,1.31618,0.401355,0.165821,-0.00155938,0.21594,-0.0435583,0.570868,-0.600512,-2.67805e-05,2.82032,-24.7112,4.68629,24.5349,2.68219,1.36223,-0.0301054,-2.28736,0.346528,-1.00846,0.282841,-0.666119,-0.0357227,0.0102582,0.0783285,-0.151623,-0.919866,0.221564,-0.816809,-0.0184851,
0.0433899,-0.197874,-0.295226,-1.66963,0.160237,-0.269863,-0.383286,0.368416,0.00558105,0.412465,-0.130143,0.95734,-0.908257,0.00839675,0,0,0,0,0,0,0,0.033923,-0.196688,-0.303593,-1.66475,0.150707,1.31618,0.401355,0.165821,-0.00155938,0.21594,-0.0435583,0.570868,-0.600512,-2.67805e-05,2.82032,-24.7112,4.68629,24.5349,2.68219,1.36223,-0.0301054,-2.28736,0.346528,-1.00846,0.282841,-0.666119,-0.0357227,0.0102582,0.0783285,-0.151623,-0.919866,0.221564,-0.816809,-0.0184851,
0.0448678,-0.197843,-0.293571,-1.67014,0.164103,-0.273389,-0.383253,0.369476,0.00768538,0.41383,-0.129146,0.96647,-0.88157,0.00821949,0,0,0,0,0,0,0,0.033923,-0.196688,-0.303593,-1.66475,0.150707,1.31618,0.401355,0.165821,-0.00155938,0.21594,-0.0435583,0.570868,-0.600512,-2.67805e-05,2.82032,-24.7112,4.68629,24.5349,2.68219,1.36223,-0.0301054,-2.62236,-0.0911155,-0.681346,0.581821,-1.02513,-0.27002,-0.219567,-0.175627,-0.413356,-0.782444,0.217341,-0.831026,-0.0162915,
0.0463484,-0.197805,-0.291912,-1.67066,0.168,-0.27681,-0.383221,0.37014,0.00952006,0.414769,-0.128006,0.974268,-0.855216,0.0080503,0,0,0,0,0,0,0,0.033923,-0.196688,-0.303593,-1.66475,0.150707,1.31618,0.401355,0.165821,-0.00155938,0.21594,-0.0435583,0.570868,-0.600512,-2.67805e-05,2.82032,-24.7112,4.68629,24.5349,2.68219,1.36223,-0.0301054,-2.62236,-0.0911155,-0.681346,0.581821,-1.02513,-0.27002,-0.219567,-0.175627,-0.413356,-0.782444,0.217341,-0.831026,-0.0162915,
0.0478302,-0.19776,-0.290251,-1.67116,0.171923,-0.280127,-0.383189,0.370455,0.011109,0.415334,-0.126751,0.980874,-0.829239,0.00789029,0,0,0,0,0,0,0,0.033923,-0.196688,-0.303593,-1.66475,0.150707,1.31618,0.401355,0.165821,-0.00155938,0.21594,-0.0435583,0.570868,-0.600512,-2.67805e-05,2.82032,-24.7112,4.68629,24.5349,2.68219,1.36223,-0.0301054,-2.47514,-0.434369,-0.615533,0.855924,-0.948435,-0.405999,-0.353216,-0.155523,-0.579945,-0.767406,0.238072,-0.813809,-0.0146941,
0.049312,-0.19771,-0.288588,-1.67166,0.175869,-0.283341,-0.383158,0.370461,0.012476,0.415567,-0.125408,0.98642,-0.80366,0.00773634,0,0,0,0,0,0,0,0.0398951,-0.196689,-0.296332,-1.66633,0.169063,1.29891,0.401355,0.219521,-0.00137153,0.241139,-0.0540853,0.592703,-0.538504,-0.000971776,2.2887,-24.7627,3.8611,24.5865,2.95684,1.48858,-0.0227812,-2.58475,-0.693749,-0.934164,1.16938,-0.88471,-0.541571,-0.477242,-0.0669861,-0.767547,-0.918071,0.303231,-0.847415,-0.0151169,
0.0507928,-0.197656,-0.286926,-1.67216,0.179833,-0.286455,-0.383128,0.370196,0.0136447,0.415508,-0.123995,0.991021,-0.778493,0.00758825,0,0,0,0,0,0,0,0.0398951,-0.196689,-0.296332,-1.66633,0.169063,1.29891,0.401355,0.219521,-0.00137153,0.241139,-0.0540853,0.592703,-0.538504,-0.000971776,2.2887,-24.7627,3.8611,24.5865,2.95684,1.48858,-0.0227812,-2.58475,-0.693749,-0.934164,1.16938,-0.88471,-0.541571,-0.477242,-0.0669861,-0.767547,-0.918071,0.303231,-0.847415,-0.0151169,
0.0522716,-0.197597,-0.285265,-1.67265,0.183812,-0.28947,-0.383098,0.369691,0.0146373,0.415192,-0.122527,0.994785,-0.753742,0.00744663,0,0,0,0,0,0,0,0.0398951,-0.196689,-0.296332,-1.66633,0.169063,1.29891,0.401355,0.219521,-0.00137153,0.241139,-0.0540853,0.592703,-0.538504,-0.000971776,2.2887,-24.7627,3.8611,24.5865,2.95684,1.48858,-0.0227812,-2.37206,-0.219538,-0.763483,0.946971,-0.847014,-0.319578,-0.247411,-0.09997,-0.543552,-0.853358,0.485518,-0.822775,-0.0143412,
0.0537475,-0.197535,-0.283607,-1.67313,0.187803,-0.292388,-0.383069,0.368976,0.0154741,0.414648,-0.121015,0.997805,-0.729409,0.00731026,0,0,0,0,0,0,0,0.0398951,-0.196689,-0.296332,-1.66633,0.169063,1.29891,0.401355,0.219521,-0.00137153,0.241139,-0.0540853,0.592703,-0.538504,-0.000971776,2.2887,-24.7627,3.8611,24.5865,2.95684,1.48858,-0.0227812,-2.37206,-0.219538,-0.763483,0.946971,-0.847014,-0.319578,-0.247411,-0.09997,-0.543552,-0.853358,0.485518,-0.822775,-0.0143412,
0.0552198,-0.197471,-0.281951,-1.67361,0.191804,-0.29521,-0.38304,0.368076,0.0161736,0.413904,-0.11947,1.00017,-0.705491,0.00717938,0,0,0,0,0,0,0,0.0398951,-0.196689,-0.296332,-1.66633,0.169063,1.29891,0.401355,0.219521,-0.00137153,0.241139,-0.0540853,0.592703,-0.538504,-0.000971776,2.2887,-24.7627,3.8611,24.5865,2.95684,1.48858,-0.0227812,-1.56575,0.99203,-0.912556,0.242225,-0.239712,0.308771,0.369596,0.250933,0.137987,-0.975236,0.728034,-0.810194,-0.0182473,
0.0566879,-0.197404,-0.280299,-1.67408,0.195812,-0.297938,-0.383012,0.367013,0.0167527,0.412984,-0.1179,1.00195,-0.681984,0.00705328,0,0,0,0,0,0,0,0.0469169,-0.196629,-0.287638,-1.66808,0.188035,1.28337,0.401358,0.215787,0.000790586,0.278932,-0.0576926,0.588789,-0.448808,-0.000937994,2.56641,-25.3856,4.01185,24.8602,3.21319,1.52154,-0.00996382,-1.63436,1.90366,-0.642332,-0.322665,-0.441876,0.696292,0.765395,0.0825612,0.563339,-0.853025,0.915392,-0.806851,-0.0170868,
0.0240359,-0.197186,-0.316898,-1.66299,0.109996,-0.206735,-0.3839,0.3035,-0.0703876,0.333785,-0.13651,0.487452,-0.746348,0.0117429,0,0,0,0,0,0,0,0.0469169,-0.196629,-0.287638,-1.66808,0.188035,1.28337,0.401358,0.215787,0.000790586,0.278932,-0.0576926,0.588789,-0.448808,-0.000937994,2.56641,-25.3856,4.01185,24.8602,3.21319,1.52154,-0.00996382,-1.63436,1.90366,-0.642332,-0.322665,-0.441876,0.696292,0.765395,0.0825612,0.563339,-0.853025,0.915392,-0.806851,-0.0170868,
0.0508789,-0.197065,-0.283245,-1.66958,0.194804,-0.293794,-0.383909,0.365311,-0.0409368,0.407171,-0.138694,0.575089,-0.573477,0.0108636,0,0,0,0,0,0,0,0.0469169,-0.196629,-0.287638,-1.66808,0.188035,1.28337,0.401358,0.215787,0.000790586,0.278932,-0.0576926,0.588789,-0.448808,-0.000937994,2.56641,-25.3856,4.01185,24.8602,3.21319,1.52154,-0.00996382,-1.73416,1.56897,-1.03305,-0.000744376,-0.360512,0.519026,0.595165,0.185158,0.3417,-0.997009,0.932052,-0.802889,-0.015426,
0.0524427,-0.197222,-0.281495,-1.67015,0.197209,-0.296226,-0.383867,0.390946,-0.0392215,0.437468,-0.144411,0.60132,-0.607979,0.0105338,0,0,0,0,0,0,0,0.0469169,-0.196629,-0.287638,-1.66808,0.188035,1.28337,0.401358,0.215787,0.000790586,0.278932,-0.0576926,0.588789,-0.448808,-0.000937994,2.56641,-25.3856,4.01185,24.8602,3.21319,1.52154,-0.00996382,-1.73416,1.56897,-1.03305,-0.000744376,-0.360512,0.519026,0.595165,0.185158,0.3417,-0.997009,0.932052,-0.802889,-0.015426,
0.0540902,-0.197367,-0.279647,-1.67075,0.19974,-0.298745,-0.383825,0.411874,-0.0362804,0.462006,-0.149262,0.632665,-0.629724,0.010263,0,0,0,0,0,0,0,0.0469169,-0.196629,-0.287638,-1.66808,0.188035,1.28337,0.401358,0.215787,0.000790586,0.278932,-0.0576926,0.588789,-0.448808,-0.000937994,2.56641,-25.3856,4.01185,24.8602,3.21319,1.52154,-0.00996382,-2.00236,2.0564,-1.12848,-0.260747,-0.545172,0.694537,0.766716,0.094244,0.536683,-1.00519,1.04758,-0.808524,-0.0179512,
0.0558065,-0.197498,-0.277719,-1.67137,0.202404,-0.301303,-0.383785,0.429084,-0.0327078,0.482026,-0.153502,0.66606,-0.639615,0.0100403,0,0,0,0,0,0,0,0.0469169,-0.196629,-0.287638,-1.66808,0.188035,1.28337,0.401358,0.215787,0.000790586,0.278932,-0.0576926,0.588789,-0.448808,-0.000937994,2.56641,-25.3856,4.01185,24.8602,3.21319,1.52154,-0.00996382,-2.00236,2.0564,-1.12848,-0.260747,-0.545172,0.694537,0.766716,0.094244,0.536683,-1.00519,1.04758,-0.808524,-0.0179512,
0.0575795,-0.197612,-0.275725,-1.67199,0.205202,-0.303869,-0.383746,0.443243,-0.0285956,0.498389,-0.156585,0.699519,-0.641485,0.00976487,0,0,0,0,0,0,0,0.0570999,-0.19656,-0.275615,-1.67056,0.209092,1.26718,0.40136,0.247567,0.00291116,0.321548,-0.0660041,0.369642,-0.301486,0.000682488,1.57856,-26.0362,2.86134,24.4119,2.31598,1.64696,-0.0301054,-2.53053,2.01741,-0.532375,-0.309751,-1.23949,0.608185,0.666252,-0.420269,0.48156,-0.65397,1.05285,-0.738933,-0.0161222,
0.0593995,-0.197711,-0.273678,-1.67263,0.208129,-0.306397,-0.383708,0.455007,-0.0246691,0.511913,-0.15971,0.731744,-0.631802,0.00955756,0,0,0,0,0,0,0,0.0570999,-0.19656,-0.275615,-1.67056,0.209092,1.26718,0.40136,0.247567,0.00291116,0.321548,-0.0660041,0.369642,-0.301486,0.000682488,1.57856,-26.0362,2.86134,24.4119,2.31598,1.64696,-0.0301054,-2.75659,-0.170572,-0.986394,1.07896,-1.19854,-0.386119,-0.295213,-0.345989,-0.651037,-0.763505,0.689063,-0.669163,-0.00944925,
0.0612582,-0.197793,-0.271586,-1.67328,0.211177,-0.308862,-0.383671,0.464676,-0.020552,0.52301,-0.161694,0.762002,-0.616458,0.00935683,0,0,0,0,0,0,0,0.0570999,-0.19656,-0.275615,-1.67056,0.209092,1.26718,0.40136,0.247567,0.00291116,0.321548,-0.0660041,0.369642,-0.301486,0.000682488,1.57856,-26.0362,2.86134,24.4119,2.31598,1.64696,-0.0301054,-2.75659,-0.170572,-0.986394,1.07896,-1.19854,-0.386119,-0.295213,-0.345989,-0.651037,-0.763505,0.689063,-0.669163,-0.00944925,
0.0631485,-0.197858,-0.269457,-1.67393,0.214337,-0.311255,-0.383634,0.472555,-0.0163867,0.532072,-0.16259,0.789905,-0.598141,0.00916364,0,0,0,0,0,0,0,0.0570999,-0.19656,-0.275615,-1.67056,0.209092,1.26718,0.40136,0.247567,0.00291116,0.321548,-0.0660041,0.369642,-0.301486,0.000682488,1.57856,-26.0362,2.86134,24.4119,2.31598,1.64696,-0.0301054,-2.90033,-0.477422,-1.30297,1.22393,-1.15337,-0.514885,-0.405876,-0.259732,-0.802035,-0.871044,0.565444,-0.672495,-0.00924609,
0.0650641,-0.197908,-0.2673,-1.67458,0.217598,-0.313568,-0.383598,0.478917,-0.0123543,0.539427,-0.162668,0.815292,-0.578226,0.00898299,0,0,0,0,0,0,0,0.0570999,-0.19656,-0.275615,-1.67056,0.209092,1.26718,0.40136,0.247567,0.00291116,0.321548,-0.0660041,0.369642,-0.301486,0.000682488,1.57856,-26.0362,2.86134,24.4119,2.31598,1.64696,-0.0301054,-2.90033,-0.477422,-1.30297,1.22393,-1.15337,-0.514885,-0.405876,-0.259732,-0.802035,-0.871044,0.565444,-0.672495,-0.00924609,
0.0670001,-0.197942,-0.265118,-1.67523,0.220951,-0.315798,-0.383563,0.483992,-0.00858,0.545342,-0.162169,0.83814,-0.557466,0.00881258,0,0,0,0,0,0,0,0.0661226,-0.196635,-0.264248,-1.67277,0.221828,1.25812,0.401361,0.288888,-0.00278212,0.345167,-0.0708795,0.413136,-0.229646,-0.00014989,2.82032,-25.211,4.31337,24.6857,3.0429,1.38878,-0.0365141,-2.74176,-0.645292,-1.22852,1.30266,-1.00822,-0.543228,-0.463587,-0.170645,-0.81017,-0.900051,0.527258,-0.712179,-0.0142367,
0.068952,-0.197963,-0.262918,-1.67587,0.224385,-0.317943,-0.383528,0.487967,-0.0051297,0.550035,-0.161267,0.858523,-0.536296,0.0086525,0,0,0,0,0,0,0,0.0661226,-0.196635,-0.264248,-1.67277,0.221828,1.25812,0.401361,0.288888,-0.00278212,0.345167,-0.0708795,0.413136,-0.229646,-0.00014989,2.82032,-25.211,4.31337,24.6857,3.0429,1.38878,-0.0365141,-2.74176,-0.645292,-1.22852,1.30266,-1.00822,-0.543228,-0.463587,-0.170645,-0.81017,-0.900051,0.527258,-0.712179,-0.0142367,
0.070916,-0.197971,-0.260704,-1.67651,0.227891,-0.320003,-0.383494,0.491003,-0.00202776,0.553687,-0.160079,0.876566,-0.514972,0.00850366,0,0,0,0,0,0,0,0.0661226,-0.196635,-0.264248,-1.67277,0.221828,1.25812,0.401361,0.288888,-0.00278212,0.345167,-0.0708795,0.413136,-0.229646,-0.00014989,2.82032,-25.211,4.31337,24.6857,3.0429,1.38878,-0.0365141,-2.30492,0.309039,-1.30457,0.533286,-0.615959,-0.0211263,0.0436398,0.104112,-0.200885,-0.995545,0.505328,-0.753718,-0.0179448,
0.0728889,-0.197968,-0.258478,-1.67715,0.231461,-0.321977,-0.383461,0.493229,0.00072729,0.556447,-0.158685,0.892429,-0.493652,0.00836455,0,0,0,0,0,0,0,0.0661226,-0.196635,-0.264248,-1.67277,0.221828,1.25812,0.401361,0.288888,-0.00278212,0.345167,-0.0708795,0.413136,-0.229646,-0.00014989,2.82032,-25.211,4.31337,24.6857,3.0429,1.38878,-0.0365141,-1.93079,0.653365,-1.3395,0.128542,-0.327909,0.215261,0.276586,0.286097,0.0879833,-1.0111,0.384896,-0.72992,-0.0226098,
0.0748679,-0.197955,-0.256244,-1.67778,0.235086,-0.323867,-0.383428,0.494758,0.00315251,0.558439,-0.157136,0.906283,-0.472434,0.00823497,0,0,0,0,0,0,0,0.0661226,-0.196635,-0.264248,-1.67277,0.221828,1.25812,0.401361,0.288888,-0.00278212,0.345167,-0.0708795,0.413136,-0.229646,-0.00014989,2.82032,-25.211,4.31337,24.6857,3.0429,1.38878,-0.0365141,-1.93079,0.653365,-1.3395,0.128542,-0.327909,0.215261,0.276586,0.286097,0.0879833,-1.0111,0.384896,-0.72992,-0.0226098,
0.0768506,-0.197934,-0.254005,-1.6784,0.238759,-0.325673,-0.383395,0.495683,0.0052721,0.559769,-0.15547,0.918305,-0.451382,0.00811285,0,0,0,0,0,0,0,0.0661226,-0.196635,-0.264248,-1.67277,0.221828,1.25812,0.401361,0.288888,-0.00278212,0.345167,-0.0708795,0.413136,-0.229646,-0.00014989,2.82032,-25.211,4.31337,24.6857,3.0429,1.38878,-0.0365141,-2.08176,0.384047,-1.6532,0.274352,-0.272007,0.103471,0.162689,0.386919,-0.0322583,-1.14416,0.296,-0.761751,-0.0226501,
0.078835,-0.197906,-0.251763,-1.67901,0.242474,-0.327395,-0.383363,0.496083,0.00711356,0.560526,-0.153714,0.92867,-0.43054,0.00799687,0,0,0,0,0,0,0,0.0752307,-0.196684,-0.253181,-1.675,0.23786,1.25206,0.401361,0.296058,0.00530168,0.369562,-0.0782107,0.552881,-0.147569,0.000463021,2.76874,-25.2348,4.11104,24.5111,3.01818,1.30273,-0.0365141,-2.08176,0.384047,-1.6532,0.274352,-0.272007,0.103471,0.162689,0.386919,-0.0322583,-1.14416,0.296,-0.761751,-0.0226501,
0.0808191,-0.197871,-0.24952,-1.67962,0.246224,-0.329035,-0.383332,0.496028,0.0087052,0.560784,-0.151885,0.937543,-0.40994,0.00788964,0,0,0,0,0,0,0,0.0752307,-0.196684,-0.253181,-1.675,0.23786,1.25206,0.401361,0.296058,0.00530168,0.369562,-0.0782107,0.552881,-0.147569,0.000463021,2.76874,-25.2348,4.11104,24.5111,3.01818,1.30273,-0.0365141,-2.00534,0.370419,-1.55232,0.300226,-0.232288,0.116841,0.187094,0.397505,-0.033221,-1.13693,0.326247,-0.78106,-0.0212844,
0.0828014,-0.197831,-0.247277,-1.68022,0.250004,-0.330593,-0.383301,0.495577,0.0100738,0.56061,-0.15,0.945081,-0.389605,0.00778812,0,0,0,0,0,0,0,0.0752307,-0.196684,-0.253181,-1.675,0.23786,1.25206,0.401361,0.296058,0.00530168,0.369562,-0.0782107,0.552881,-0.147569,0.000463021,2.76874,-25.2348,4.11104,24.5111,3.01818,1.30273,-0.0365141,-2.00534,0.370419,-1.55232,0.300226,-0.232288,0.116841,0.187094,0.397505,-0.033221,-1.13693,0.326247,-0.78106,-0.0212844,
0.0847805,-0.197786,-0.245037,-1.68081,0.25381,-0.332071,-0.38327,0.494781,0.0112452,0.560059,-0.148071,0.951427,-0.369555,0.00769145,0,0,0,0,0,0,0,0.0752307,-0.196684,-0.253181,-1.675,0.23786,1.25206,0.401361,0.296058,0.00530168,0.369562,-0.0782107,0.552881,-0.147569,0.000463021,2.76874,-25.2348,4.11104,24.5111,3.01818,1.30273,-0.0365141,-2.12614,-0.316137,-1.6815,0.831364,-0.264895,-0.213743,-0.135506,0.378428,-0.423255,-1.17541,0.319503,-0.767419,-0.0195646,
0.0867553,-0.197737,-0.2428,-1.6814,0.257637,-0.33347,-0.383239,0.493685,0.0122424,0.559181,-0.146106,0.956715,-0.349805,0.00759998,0,0,0,0,0,0,0,0.0752307,-0.196684,-0.253181,-1.675,0.23786,1.25206,0.401361,0.296058,0.00530168,0.369562,-0.0782107,0.552881,-0.147569,0.000463021,2.76874,-25.2348,4.11104,24.5111,3.01818,1.30273,-0.0365141,-2.45409,-1.63173,-1.77192,1.84052,-0.446267,-0.857932,-0.782204,0.255873,-1.16277,-1.19781,0.301411,-0.762954,-0.0159319,
0.0887262,-0.197685,-0.240567,-1.68197,0.261466,-0.334792,-0.38321,0.492741,0.0129713,0.558225,-0.143956,0.957277,-0.330328,0.00746312,0,0,0,0,0,0,0,0.0855939,-0.19661,-0.240671,-1.67744,0.256159,1.24869,0.401367,0.327776,0.00186001,0.418766,-0.0792646,0.580119,-0.0693371,7.82407e-05,1.4278,-25.9609,2.5876,24.5111,3.17657,1.31554,-0.0630644,-2.45409,-1.63173,-1.77192,1.84052,-0.446267,-0.857932,-0.782204,0.255873,-1.16277,-1.19781,0.301411,-0.762954,-0.0159319,
0.0906952,-0.197631,-0.238337,-1.68254,0.265263,-0.336036,-0.38318,0.492238,0.0133377,0.557505,-0.141497,0.949171,-0.311105,0.0072641,0,0,0,0,0,0,0,0.0855939,-0.19661,-0.240671,-1.67744,0.256159,1.24869,0.401367,0.327776,0.00186001,0.418766,-0.0792646,0.580119,-0.0693371,7.82407e-05,1.4278,-25.9609,2.5876,24.5111,3.17657,1.31554,-0.0630644,-2.22717,-0.746219,-1.46305,1.30508,-0.416222,-0.437255,-0.363186,0.227154,-0.701445,-1.10715,0.4932,-0.768994,-0.0203549,
0.0926615,-0.197578,-0.23611,-1.68309,0.269006,-0.337205,-0.383152,0.491591,0.0134819,0.556883,-0.138958,0.935877,-0.292224,0.00708854,0,0,0,0,0,0,0,0.0855939,-0.19661,-0.240671,-1.67744,0.256159,1.24869,0.401367,0.327776,0.00186001,0.418766,-0.0792646,0.580119,-0.0693371,7.82407e-05,1.4278,-25.9609,2.5876,24.5111,3.17657,1.31554,-0.0630644,-2.22717,-0.746219,-1.46305,1.30508,-0.416222,-0.437255,-0.363186,0.227154,-0.701445,-1.10715,0.4932,-0.768994,-0.0203549,
0.0946243,-0.197524,-0.233885,-1.68364,0.272684,-0.3383,-0.383124,0.490691,0.0134937,0.55614,-0.136436,0.919441,-0.273737,0.00693448,0,0,0,0,0,0,0,0.0855939,-0.19661,-0.240671,-1.67744,0.256159,1.24869,0.401367,0.327776,0.00186001,0.418766,-0.0792646,0.580119,-0.0693371,7.82407e-05,1.4278,-25.9609,2.5876,24.5111,3.17657,1.31554,-0.0630644,-2.13448,0.827115,-1.24037,0.289741,-0.464935,0.283975,0.367755,0.188671,0.0942752,-1.03213,0.728984,-0.782604,-0.0212873,
0.0965823,-0.19747,-0.231665,-1.68418,0.276288,-0.339323,-0.383097,0.489509,0.0134284,0.555173,-0.13397,0.901097,-0.255671,0.00679138,0,0,0,0,0,0,0,0.0855939,-0.19661,-0.240671,-1.67744,0.256159,1.24869,0.401367,0.327776,0.00186001,0.418766,-0.0792646,0.580119,-0.0693371,7.82407e-05,1.4278,-25.9609,2.5876,24.5111,3.17657,1.31554,-0.0630644,-2.36095,0.14025,-1.14482,0.887425,-0.643202,-0.0607218,0.0309753,0.048653,-0.320441,-1.00389,0.801348,-0.793064,-0.0181262,
0.0985345,-0.197417,-0.229449,-1.6847,0.279815,-0.340275,-0.383071,0.488049,0.0133199,0.553942,-0.131575,0.881601,-0.238031,0.00665953,0,0,0,0,0,0,0,0.0855939,-0.19661,-0.240671,-1.67744,0.256159,1.24869,0.401367,0.327776,0.00186001,0.418766,-0.0792646,0.580119,-0.0693371,7.82407e-05,1.4278,-25.9609,2.5876,24.5111,3.17657,1.31554,-0.0630644,-2.36095,0.14025,-1.14482,0.887425,-0.643202,-0.0607218,0.0309753,0.048653,-0.320441,-1.00389,0.801348,-0.793064,-0.0181262,
0.0513671,-0.197372,-0.282729,-1.67014,0.194081,-0.290924,-0.383911,0.418948,-0.0668443,0.466003,-0.186582,0.499015,-0.260831,0.0106309,0,0,0,0,0,0,0,0.0962763,-0.196534,-0.227663,-1.68016,0.273726,1.24788,0.401362,0.359902,0.00179189,0.423189,-0.0847431,0.552693,-0.00235377,-0.00026304,1.12232,-26.1116,2.1869,24.4357,3.13446,1.32287,-0.050247,-1.93844,0.815198,-1.14009,0.473649,-0.325826,0.278207,0.358621,0.240156,0.0548818,-1.05275,0.924816,-0.799688,-0.0201569,
0.10168,-0.196915,-0.221575,-1.68204,0.280443,-0.32288,-0.383923,0.480937,-0.0343468,0.543303,-0.16916,0.577236,-0.0129469,0.00951807,0,0,0,0,0,0,0,0.0962763,-0.196534,-0.227663,-1.68016,0.273726,1.24788,0.401362,0.359902,0.00179189,0.423189,-0.0847431,0.552693,-0.00235377,-0.00026304,1.12232,-26.1116,2.1869,24.4357,3.13446,1.32287,-0.050247,-1.93844,0.815198,-1.14009,0.473649,-0.325826,0.278207,0.358621,0.240156,0.0548818,-1.05275,0.924816,-0.799688,-0.0201569,
0.103693,-0.197043,-0.219296,-1.68274,0.282861,-0.322985,-0.383885,0.503404,-0.0318448,0.569846,-0.173213,0.60439,-0.0264165,0.00948601,0,0,0,0,0,0,0,0.0962763,-0.196534,-0.227663,-1.68016,0.273726,1.24788,0.401362,0.359902,0.00179189,0.423189,-0.0847431,0.552693,-0.00235377,-0.00026304,1.12232,-26.1116,2.1869,24.4357,3.13446,1.32287,-0.050247,-1.75278,2.45397,-1.26551,-0.638127,-0.125981,1.05242,1.11721,0.433571,0.934241,-1.14744,1.08908,-0.846721,-0.0212201,
0.105779,-0.197155,-0.216931,-1.68344,0.285399,-0.323133,-0.383848,0.521476,-0.0280596,0.591126,-0.17501,0.634555,-0.0368103,0.00933882,0,0,0,0,0,0,0,0.0962763,-0.196534,-0.227663,-1.68016,0.273726,1.24788,0.401362,0.359902,0.00179189,0.423189,-0.0847431,0.552693,-0.00235377,-0.00026304,1.12232,-26.1116,2.1869,24.4357,3.13446,1.32287,-0.050247,-1.72069,3.08419,-1.00768,-1.0419,-0.200041,1.34935,1.40172,0.369814,1.27451,-1.06392,1.20083,-0.860944,-0.0224403,
0.107924,-0.197252,-0.214498,-1.68414,0.288061,-0.323287,-0.383811,0.536209,-0.024269,0.608357,-0.176689,0.66553,-0.0385159,0.00925087,0,0,0,0,0,0,0,0.0962763,-0.196534,-0.227663,-1.68016,0.273726,1.24788,0.401362,0.359902,0.00179189,0.423189,-0.0847431,0.552693,-0.00235377,-0.00026304,1.12232,-26.1116,2.1869,24.4357,3.13446,1.32287,-0.050247,-1.72069,3.08419,-1.00768,-1.0419,-0.200041,1.34935,1.40172,0.369814,1.27451,-1.06392,1.20083,-0.860944,-0.0224403,
0.110116,-0.197333,-0.212009,-1.68485,0.290845,-0.323431,-0.383774,0.548093,-0.0202903,0.622257,-0.177424,0.695896,-0.036065,0.00916604,0,0,0,0,0,0,0,0.107278,-0.196398,-0.214789,-1.68263,0.288706,1.24808,0.401363,0.377348,-0.00495633,0.410695,-0.0852865,0.360344,0.0133939,-0.000656843,-2.83307,-26.4092,-1.8875,23.4637,1.96167,1.09032,-0.0227812,-2.56077,-0.778235,-1.15415,1.5615,-0.710828,-0.460468,-0.407251,-0.00514196,-0.751035,-1.02999,0.803591,-0.816442,-0.014861,
0.112347,-0.197399,-0.209475,-1.68556,0.293744,-0.323556,-0.383738,0.557606,-0.016312,0.633415,-0.177338,0.724798,-0.0313003,0.00907981,0,0,0,0,0,0,0,0.107278,-0.196398,-0.214789,-1.68263,0.288706,1.24808,0.401363,0.377348,-0.00495633,0.410695,-0.0852865,0.360344,0.0133939,-0.000656843,-2.83307,-26.4092,-1.8875,23.4637,1.96167,1.09032,-0.0227812,-2.56077,-0.778235,-1.15415,1.5615,-0.710828,-0.460468,-0.407251,-0.00514196,-0.751035,-1.02999,0.803591,-0.816442,-0.014861,
0.114612,-0.19745,-0.206904,-1.68627,0.296711,-0.323656,-0.383702,0.566231,-0.0127961,0.642835,-0.176183,0.741706,-0.024952,0.00887348,0,0,0,0,0,0,0,0.107278,-0.196398,-0.214789,-1.68263,0.288706,1.24808,0.401363,0.377348,-0.00495633,0.410695,-0.0852865,0.360344,0.0133939,-0.000656843,-2.83307,-26.4092,-1.8875,23.4637,1.96167,1.09032,-0.0227812,-3.32197,-1.56728,-1.36145,1.96912,-1.20359,-0.81873,-0.693312,-0.267159,-1.18689,-1.00511,0.593266,-0.797936,-0.0155803,
0.116907,-0.197489,-0.204299,-1.68696,0.299698,-0.323726,-0.383668,0.573747,-0.00983239,0.65103,-0.174337,0.746914,-0.0174902,0.00864295,0,0,0,0,0,0,0,0.107278,-0.196398,-0.214789,-1.68263,0.288706,1.24808,0.401363,0.377348,-0.00495633,0.410695,-0.0852865,0.360344,0.0133939,-0.000656843,-2.83307,-26.4092,-1.8875,23.4637,1.96167,1.09032,-0.0227812,-2.71195,-0.897348,-1.7626,1.44552,-0.593625,-0.463091,-0.348808,0.167304,-0.779688,-1.20413,0.587132,-0.789333,-0.0181888,
0.119226,-0.197518,-0.201668,-1.68765,0.302677,-0.323763,-0.383634,0.579843,-0.00732281,0.657955,-0.172218,0.744756,-0.00926785,0.00844246,0,0,0,0,0,0,0,0.107278,-0.196398,-0.214789,-1.68263,0.288706,1.24808,0.401363,0.377348,-0.00495633,0.410695,-0.0852865,0.360344,0.0133939,-0.000656843,-2.83307,-26.4092,-1.8875,23.4637,1.96167,1.09032,-0.0227812,-2.71195,-0.897348,-1.7626,1.44552,-0.593625,-0.463091,-0.348808,0.167304,-0.779688,-1.20413,0.587132,-0.789333,-0.0181888,
0.121564,-0.197539,-0.199013,-1.68833,0.305629,-0.323765,-0.383601,0.584587,-0.00518005,0.66356,-0.170005,0.737837,-0.000508574,0.00826664,0,0,0,0,0,0,0,0.123132,-0.196402,-0.195085,-1.68647,0.304923,1.25131,0.401363,0.383824,-0.000484139,0.455808,-0.100696,0.439502,0.105218,-0.000632888,2.69336,-26.3338,3.76192,24.7095,2.93304,1.36223,-0.050247,-3.20823,0.581533,-1.76837,0.340892,-0.930106,0.243464,0.29123,0.0700573,0.0927666,-1.20387,0.653409,-0.87224,-0.023814,
0.123917,-0.197552,-0.196342,-1.689,0.30854,-0.32373,-0.383568,0.588103,-0.00333617,0.6679,-0.167779,0.727773,0.00865073,0.00810767,0,0,0,0,0,0,0,0.123132,-0.196402,-0.195085,-1.68647,0.304923,1.25131,0.401363,0.383824,-0.000484139,0.455808,-0.100696,0.439502,0.105218,-0.000632888,2.69336,-26.3338,3.76192,24.7095,2.93304,1.36223,-0.050247,-3.20823,0.581533,-1.76837,0.340892,-0.930106,0.243464,0.29123,0.0700573,0.0927666,-1.20387,0.653409,-0.87224,-0.023814,
0.126279,-0.197559,-0.193657,-1.68967,0.311402,-0.323658,-0.383536,0.590533,-0.00173927,0.671081,-0.165569,0.715592,0.0181193,0.00796211,0,0,0,0,0,0,0,0.123132,-0.196402,-0.195085,-1.68647,0.304923,1.25131,0.401363,0.383824,-0.000484139,0.455808,-0.100696,0.439502,0.105218,-0.000632888,2.69336,-26.3338,3.76192,24.7095,2.93304,1.36223,-0.050247,-2.54961,0.697903,-1.84769,0.105073,-0.488227,0.339744,0.381832,0.313779,0.224306,-1.19825,0.526505,-0.77328,-0.0259998,
0.128647,-0.197561,-0.190965,-1.69032,0.31421,-0.323547,-0.383505,0.592012,-0.000350262,0.673228,-0.163386,0.701977,0.0278332,0.00782613,0,0,0,0,0,0,0,0.123132,-0.196402,-0.195085,-1.68647,0.304923,1.25131,0.401363,0.383824,-0.000484139,0.455808,-0.100696,0.439502,0.105218,-0.000632888,2.69336,-26.3338,3.76192,24.7095,2.93304,1.36223,-0.050247,-2.54961,0.697903,-1.84769,0.105073,-0.488227,0.339744,0.381832,0.313779,0.224306,-1.19825,0.526505,-0.77328,-0.0259998,
0.131018,-0.197557,-0.188267,-1.69096,0.31696,-0.323396,-0.383474,0.592667,0.000861895,0.674469,-0.161233,0.687416,0.0377412,0.00769431,0,0,0,0,0,0,0,0.123132,-0.196402,-0.195085,-1.68647,0.304923,1.25131,0.401363,0.383824,-0.000484139,0.455808,-0.100696,0.439502,0.105218,-0.000632888,2.69336,-26.3338,3.76192,24.7095,2.93304,1.36223,-0.050247,-2.33255,-0.0213672,-2.48811,0.462285,-0.163167,-6.53643e-05,0.0381998,0.547694,-0.134852,-1.34432,0.323214,-0.646488,-0.0210127,
0.133388,-0.19755,-0.185567,-1.6916,0.319649,-0.323204,-0.383444,0.592607,0.00192385,0.674919,-0.159107,0.672308,0.0477962,0.00756962,0,0,0,0,0,0,0,0.123132,-0.196402,-0.195085,-1.68647,0.304923,1.25131,0.401363,0.383824,-0.000484139,0.455808,-0.100696,0.439502,0.105218,-0.000632888,2.69336,-26.3338,3.76192,24.7095,2.93304,1.36223,-0.050247,-2.33051,-0.36559,-2.72001,0.67349,-0.10386,-0.1654,-0.119264,0.590126,-0.324462,-1.38789,0.277326,-0.594429,-0.0192184,
0.135756,-0.197538,-0.182868,-1.69223,0.322277,-0.322973,-0.383414,0.591921,0.00286025,0.674675,-0.157013,0.657065,0.0579556,0.0074486,0,0,0,0,0,0,0,0.136045,-0.19633,-0.179811,-1.68922,0.320047,1.25426,0.401362,0.410703,0.00402493,0.49784,-0.0845656,0.459135,0.0889603,-0.000917902,1.50318,-26.9328,2.41304,24.6619,2.90191,1.6607,-0.00996382,-2.33051,-0.36559,-2.72001,0.67349,-0.10386,-0.1654,-0.119264,0.590126,-0.324462,-1.38789,0.277326,-0.594429,-0.0192184,
0.138118,-0.197523,-0.180173,-1.69285,0.324846,-0.3227,-0.383385,0.590667,0.0036997,0.673808,-0.154964,0.64226,0.0681683,0.00732943,0,0,0,0,0,0,0,0.136045,-0.19633,-0.179811,-1.68922,0.320047,1.25426,0.401362,0.410703,0.00402493,0.49784,-0.0845656,0.459135,0.0889603,-0.000917902,1.50318,-26.9328,2.41304,24.6619,2.90191,1.6607,-0.00996382,-1.97137,-0.439725,-2.02902,0.7506,-0.22825,-0.221941,-0.177902,0.338547,-0.382369,-1.0369,0.334112,-0.455253,-0.0166292,
0.140474,-0.197505,-0.177484,-1.69346,0.327362,-0.322386,-0.383356,0.588832,0.00448039,0.672359,-0.152998,0.628894,0.0783785,0.00725849,0,0,0,0,0,0,0,0.136045,-0.19633,-0.179811,-1.68922,0.320047,1.25426,0.401362,0.410703,0.00402493,0.49784,-0.0845656,0.459135,0.0889603,-0.000917902,1.50318,-26.9328,2.41304,24.6619,2.90191,1.6607,-0.00996382,-1.97137,-0.439725,-2.02902,0.7506,-0.22825,-0.221941,-0.177902,0.338547,-0.382369,-1.0369,0.334112,-0.455253,-0.0166292,
0.142821,-0.197485,-0.174801,-1.69406,0.329818,-0.322032,-0.383327,0.586831,0.00513697,0.67055,-0.150934,0.614081,0.088586,0.00720704,0,0,0,0,0,0,0,0.136045,-0.19633,-0.179811,-1.68922,0.320047,1.25426,0.401362,0.410703,0.00402493,0.49784,-0.0845656,0.459135,0.0889603,-0.000917902,1.50318,-26.9328,2.41304,24.6619,2.90191,1.6607,-0.00996382,-2.25958,0.359003,-2.04496,0.233684,-0.515385,0.117379,0.163262,0.182365,0.00231867,-0.946081,0.448131,-0.389559,-0.0191999,
0.145161,-0.197463,-0.172127,-1.69466,0.332193,-0.321637,-0.383299,0.585052,0.00556213,0.668702,-0.148594,0.593707,0.0988226,0.00707916,0,0,0,0,0,0,0,0.136045,-0.19633,-0.179811,-1.68922,0.320047,1.25426,0.401362,0.410703,0.00402493,0.49784,-0.0845656,0.459135,0.0889603,-0.000917902,1.50318,-26.9328,2.41304,24.6619,2.90191,1.6607,-0.00996382,-2.72399,-0.440673,-2.01327,0.829345,-0.903347,-0.274836,-0.210226,-0.0995171,-0.455275,-0.849727,0.434381,-0.33894,-0.0162426,
0.147493,-0.197439,-0.16946,-1.69524,0.334476,-0.321201,-0.383271,0.583015,0.00583222,0.666774,-0.146244,0.570742,0.109022,0.00695066,0,0,0,0,0,0,0,0.149331,-0.196052,-0.163866,-1.69156,0.33295,1.25625,0.401367,0.450436,0.0124774,0.520317,-0.0707198,0.383168,0.0575233,0.000704338,0.384403,-27.0836,1.16334,24.2374,2.92022,1.7138,-0.0767973,-2.72399,-0.440673,-2.01327,0.829345,-0.903347,-0.274836,-0.210226,-0.0995171,-0.455275,-0.849727,0.434381,-0.33894,-0.0162426,
0.149816,-0.197415,-0.166801,-1.69582,0.336663,-0.320724,-0.383244,0.580684,0.00601044,0.664632,-0.14396,0.546698,0.119118,0.0068398,0,0,0,0,0,0,0,0.149331,-0.196052,-0.163866,-1.69156,0.33295,1.25625,0.401367,0.450436,0.0124774,0.520317,-0.0707198,0.383168,0.0575233,0.000704338,0.384403,-27.0836,1.16334,24.2374,2.92022,1.7138,-0.0767973,-2.38833,-0.648166,-2.38645,1.00915,-0.525233,-0.391318,-0.346939,0.144633,-0.580989,-0.990518,0.461339,-0.28962,-0.0184167,
0.152128,-0.197391,-0.164152,-1.69639,0.338752,-0.320208,-0.383217,0.578077,0.00613731,0.662233,-0.141753,0.522352,0.12907,0.00673316,0,0,0,0,0,0,0,0.149331,-0.196052,-0.163866,-1.69156,0.33295,1.25625,0.401367,0.450436,0.0124774,0.520317,-0.0707198,0.383168,0.0575233,0.000704338,0.384403,-27.0836,1.16334,24.2374,2.92022,1.7138,-0.0767973,-2.38833,-0.648166,-2.38645,1.00915,-0.525233,-0.391318,-0.346939,0.144633,-0.580989,-0.990518,0.461339,-0.28962,-0.0184167,
0.154429,-0.197366,-0.161514,-1.69695,0.340745,-0.319653,-0.38319,0.575228,0.00623653,0.65958,-0.13962,0.498098,0.138854,0.00663444,0,0,0,0,0,0,0,0.149331,-0.196052,-0.163866,-1.69156,0.33295,1.25625,0.401367,0.450436,0.0124774,0.520317,-0.0707198,0.383168,0.0575233,0.000704338,0.384403,-27.0836,1.16334,24.2374,2.92022,1.7138,-0.0767973,-2.37938,1.49384,-2.53303,-0.42307,-0.456453,0.599594,0.62703,0.319291,0.541308,-1.07243,0.699876,-0.326985,-0.0207841,
0.156718,-0.197341,-0.158887,-1.6975,0.342641,-0.319059,-0.383164,0.572174,0.00632006,0.656702,-0.13755,0.47413,0.148459,0.00653553,0,0,0,0,0,0,0,0.149331,-0.196052,-0.163866,-1.69156,0.33295,1.25625,0.401367,0.450436,0.0124774,0.520317,-0.0707198,0.383168,0.0575233,0.000704338,0.384403,-27.0836,1.16334,24.2374,2.92022,1.7138,-0.0767973,-2.37938,1.49384,-2.53303,-0.42307,-0.456453,0.599594,0.62703,0.319291,0.541308,-1.07243,0.699876,-0.326985,-0.0207841,
0.102125,-0.197124,-0.221131,-1.68229,0.278283,-0.32082,-0.383924,0.527855,-0.0520824,0.593846,-0.188009,0.334632,0.208666,0.00931321,0,0,0,0,0,0,0,0.149331,-0.196052,-0.163866,-1.69156,0.33295,1.25625,0.401367,0.450436,0.0124774,0.520317,-0.0707198,0.383168,0.0575233,0.000704338,0.384403,-27.0836,1.16334,24.2374,2.92022,1.7138,-0.0767973,-2.64452,0.614831,-2.54904,0.217504,-0.642124,0.188957,0.21463,0.166202,0.0762016,-1.04209,0.676221,-0.304755,-0.019574,
0.155736,-0.196421,-0.156601,-1.69359,0.336786,-0.312094,-0.383919,0.562713,-0.0333002,0.64011,-0.181685,0.300324,0.235373,0.00938901,0,0,0,0,0,0,0,0.163606,-0.195651,-0.146931,-1.69359,0.34331,1.25841,0.401365,0.445129,0.0103995,0.541365,-0.0553413,0.283405,0.0836329,1.57143e-06,0.0551182,-27.2344,0.488905,24.4119,3.15277,1.59386,-0.0365141,-2.37155,1.32116,-2.72807,-0.248381,-0.346173,0.519915,0.539021,0.404976,0.443949,-1.15573,0.772497,-0.320255,-0.0219984,
0.15807,-0.19654,-0.153941,-1.69432,0.337951,-0.311085,-0.383883,0.583466,-0.0297873,0.665021,-0.183608,0.291217,0.252164,0.00915332,0,0,0,0,0,0,0,0.163606,-0.195651,-0.146931,-1.69359,0.34331,1.25841,0.401365,0.445129,0.0103995,0.541365,-0.0553413,0.283405,0.0836329,1.57143e-06,0.0551182,-27.2344,0.488905,24.4119,3.15277,1.59386,-0.0365141,-2.37155,1.32116,-2.72807,-0.248381,-0.346173,0.519915,0.539021,0.404976,0.443949,-1.15573,0.772497,-0.320255,-0.0219984,
0.160469,-0.196641,-0.151203,-1.69505,0.339099,-0.310025,-0.383847,0.599688,-0.025301,0.684552,-0.183376,0.286945,0.265118,0.00892499,0,0,0,0,0,0,0,0.163606,-0.195651,-0.146931,-1.69359,0.34331,1.25841,0.401365,0.445129,0.0103995,0.541365,-0.0553413,0.283405,0.0836329,1.57143e-06,0.0551182,-27.2344,0.488905,24.4119,3.15277,1.59386,-0.0365141,-2.04706,1.45142,-2.53143,-0.312166,-0.166744,0.583313,0.605433,0.477385,0.504152,-1.1186,0.824278,-0.317359,-0.0189492,
0.162917,-0.196724,-0.148404,-1.69578,0.340248,-0.308923,-0.383812,0.61207,-0.0206272,0.6997,-0.182364,0.287339,0.27531,0.00882053,0,0,0,0,0,0,0,0.163606,-0.195651,-0.146931,-1.69359,0.34331,1.25841,0.401365,0.445129,0.0103995,0.541365,-0.0553413,0.283405,0.0836329,1.57143e-06,0.0551182,-27.2344,0.488905,24.4119,3.15277,1.59386,-0.0365141,-2.04706,1.45142,-2.53143,-0.312166,-0.166744,0.583313,0.605433,0.477385,0.504152,-1.1186,0.824278,-0.317359,-0.0189492,
0.165407,-0.196789,-0.145557,-1.69651,0.341376,-0.307789,-0.383777,0.62238,-0.0163471,0.711726,-0.180536,0.281828,0.28363,0.0086566,0,0,0,0,0,0,0,0.163606,-0.195651,-0.146931,-1.69359,0.34331,1.25841,0.401365,0.445129,0.0103995,0.541365,-0.0553413,0.283405,0.0836329,1.57143e-06,0.0551182,-27.2344,0.488905,24.4119,3.15277,1.59386,-0.0365141,-1.90021,-0.125834,-2.57101,0.718793,-0.0612168,-0.144173,-0.138996,0.443219,-0.293606,-1.10185,0.654032,-0.261522,-0.0200348,
0.16793,-0.19684,-0.142671,-1.69722,0.342455,-0.306626,-0.383743,0.63073,-0.0126384,0.72144,-0.17832,0.269805,0.290677,0.00846386,0,0,0,0,0,0,0,0.17804,-0.195474,-0.129543,-1.69565,0.349526,1.26215,0.401363,0.440534,0.00213446,0.558305,-0.0754135,0.128171,0.15491,-0.000287964,2.61798,-27.282,2.43684,23.8644,3.01178,1.5078,-0.0227812,-1.90021,-0.125834,-2.57101,0.718793,-0.0612168,-0.144173,-0.138996,0.443219,-0.293606,-1.10185,0.654032,-0.261522,-0.0200348,
0.170478,-0.196877,-0.139755,-1.69792,0.343473,-0.305439,-0.38371,0.637068,-0.0094495,0.729096,-0.176105,0.254548,0.296808,0.00829221,0,0,0,0,0,0,0,0.17804,-0.195474,-0.129543,-1.69565,0.349526,1.26215,0.401363,0.440534,0.00213446,0.558305,-0.0754135,0.128171,0.15491,-0.000287964,2.61798,-27.282,2.43684,23.8644,3.01178,1.5078,-0.0227812,-2.90669,-0.170503,-2.78501,0.662347,-0.736754,-0.103803,-0.0242709,0.11568,-0.292674,-1.08526,0.576182,-0.279563,-0.0215194,
0.173044,-0.196904,-0.136815,-1.69862,0.344424,-0.30423,-0.383678,0.641653,-0.00669731,0.734876,-0.173988,0.237725,0.302276,0.00814092,0,0,0,0,0,0,0,0.17804,-0.195474,-0.129543,-1.69565,0.349526,1.26215,0.401363,0.440534,0.00213446,0.558305,-0.0754135,0.128171,0.15491,-0.000287964,2.61798,-27.282,2.43684,23.8644,3.01178,1.5078,-0.0227812,-2.90669,-0.170503,-2.78501,0.662347,-0.736754,-0.103803,-0.0242709,0.11568,-0.292674,-1.08526,0.576182,-0.279563,-0.0215194,
0.175623,-0.196922,-0.133859,-1.69931,0.345305,-0.303001,-0.383646,0.644746,-0.0043087,0.739009,-0.171972,0.22019,0.307278,0.00800244,0,0,0,0,0,0,0,0.17804,-0.195474,-0.129543,-1.69565,0.349526,1.26215,0.401363,0.440534,0.00213446,0.558305,-0.0754135,0.128171,0.15491,-0.000287964,2.61798,-27.282,2.43684,23.8644,3.01178,1.5078,-0.0227812,-2.32957,-0.672644,-2.95456,0.951421,-0.238165,-0.34104,-0.268907,0.390805,-0.553799,-1.1908,0.499197,-0.255245,-0.0188119,
0.17821,-0.19693,-0.130892,-1.69999,0.346114,-0.301753,-0.383614,0.646582,-0.00222532,0.741731,-0.170033,0.20238,0.311962,0.0078744,0,0,0,0,0,0,0,0.17804,-0.195474,-0.129543,-1.69565,0.349526,1.26215,0.401363,0.440534,0.00213446,0.558305,-0.0754135,0.128171,0.15491,-0.000287964,2.61798,-27.282,2.43684,23.8644,3.01178,1.5078,-0.0227812,-2.7121,-0.358536,-2.91228,0.646345,-0.586936,-0.16626,-0.156177,0.209481,-0.282818,-1.09997,0.460611,-0.233571,-0.0222723,
0.180799,-0.196932,-0.127919,-1.70066,0.346852,-0.300487,-0.383583,0.647367,-0.000402327,0.74326,-0.168146,0.184521,0.316436,0.00775601,0,0,0,0,0,0,0,0.17804,-0.195474,-0.129543,-1.69565,0.349526,1.26215,0.401363,0.440534,0.00213446,0.558305,-0.0754135,0.128171,0.15491,-0.000287964,2.61798,-27.282,2.43684,23.8644,3.01178,1.5078,-0.0227812,-2.7121,-0.358536,-2.91228,0.646345,-0.586936,-0.16626,-0.156177,0.209481,-0.282818,-1.09997,0.460611,-0.233571,-0.0222723,
0.183388,-0.196927,-0.124944,-1.70132,0.347519,-0.299204,-0.383552,0.647276,0.00119605,0.743789,-0.166287,0.166742,0.320778,0.00763829,0,0,0,0,0,0,0,0.193653,-0.1955,-0.110916,-1.69816,0.352138,1.26889,0.401366,0.462534,0.00442974,0.574075,-0.0779213,0.064254,0.220017,0.000707569,1.37622,-26.9844,1.71083,24.6103,2.79205,1.91247,-0.0429228,-2.0889,0.315159,-3.23359,0.0154172,-0.0696512,0.131148,0.124086,0.590694,0.0886367,-1.21754,0.370815,-0.171509,-0.0212688,
0.185974,-0.196917,-0.12197,-1.70198,0.348116,-0.297904,-0.383522,0.646453,0.00260047,0.743479,-0.164444,0.149165,0.325033,0.0075259,0,0,0,0,0,0,0,0.193653,-0.1955,-0.110916,-1.69816,0.352138,1.26889,0.401366,0.462534,0.00442974,0.574075,-0.0779213,0.064254,0.220017,0.000707569,1.37622,-26.9844,1.71083,24.6103,2.79205,1.91247,-0.0429228,-2.0889,0.315159,-3.23359,0.0154172,-0.0696512,0.131148,0.124086,0.590694,0.0886367,-1.21754,0.370815,-0.171509,-0.0212688,
0.188554,-0.196901,-0.119,-1.70263,0.348644,-0.296587,-0.383493,0.645009,0.00383972,0.742457,-0.162613,0.132007,0.329228,0.00741478,0,0,0,0,0,0,0,0.193653,-0.1955,-0.110916,-1.69816,0.352138,1.26889,0.401366,0.462534,0.00442974,0.574075,-0.0779213,0.064254,0.220017,0.000707569,1.37622,-26.9844,1.71083,24.6103,2.79205,1.91247,-0.0429228,-1.73052,0.544447,-3.47518,-0.251462,0.218699,0.22202,0.224759,0.793264,0.198307,-1.27496,0.295898,-0.101459,-0.0225008,
0.191126,-0.196882,-0.116037,-1.70328,0.349107,-0.295254,-0.383464,0.643005,0.00494915,0.740804,-0.160813,0.115836,0.333359,0.0072653,0,0,0,0,0,0,0,0.193653,-0.1955,-0.110916,-1.69816,0.352138,1.26889,0.401366,0.462534,0.00442974,0.574075,-0.0779213,0.064254,0.220017,0.000707569,1.37622,-26.9844,1.71083,24.6103,2.79205,1.91247,-0.0429228,-1.86346,1.05303,-3.50864,-0.593418,0.125452,0.464323,0.474761,0.780443,0.463316,-1.27096,0.362045,-0.0965482,-0.0231453,
0.193688,-0.196858,-0.113083,-1.70391,0.349516,-0.293904,-0.383435,0.640365,0.00598138,0.738546,-0.159126,0.102173,0.337392,0.00714963,0,0,0,0,0,0,0,0.193653,-0.1955,-0.110916,-1.69816,0.352138,1.26889,0.401366,0.462534,0.00442974,0.574075,-0.0779213,0.064254,0.220017,0.000707569,1.37622,-26.9844,1.71083,24.6103,2.79205,1.91247,-0.0429228,-1.86346,1.05303,-3.50864,-0.593418,0.125452,0.464323,0.474761,0.780443,0.463316,-1.27096,0.362045,-0.0965482,-0.0231453,
0.196237,-0.19683,-0.110139,-1.70454,0.349871,-0.292539,-0.383407,0.637443,0.006911,0.735865,-0.157378,0.0887606,0.341329,0.00712872,0,0,0,0,0,0,0,0.208621,-0.195499,-0.093301,-1.70027,0.353377,1.27613,0.401366,0.481593,0.00155416,0.576589,-0.0682853,0.00125567,0.244914,0.00044351,1.47541,-26.9606,1.61165,24.4635,2.76184,1.7669,-0.0429228,-1.67168,0.534259,-3.3477,-0.229633,0.190592,0.21724,0.235262,0.741459,0.177255,-1.20324,0.335107,-0.0645691,-0.0208852,
