PerkyPenguin/Analysis-on-Approximated-Derivatives/Code_and_Data/PaperData/Real_Robot/Scene_2/contact_change/10/trajectory.csv
Commanded Joint 0 Position,Commanded Joint 1 Position,Commanded Joint 2 Position,Commanded Joint 3 Position,Commanded Joint 4 Position,Commanded Joint 5 Position,Commanded Joint 6 Position,Commanded Joint 0 Velocity,Commanded Joint 1 Velocity,Commanded Joint 2 Velocity,Commanded Joint 3 Velocity,Commanded Joint 4 Velocity,Commanded Joint 5 Velocity,Commanded Joint 6 Velocity,Commanded Joint 0 Torque,Commanded Joint 1 Torque,Commanded Joint 2 Torque,Commanded Joint 3 Torque,Commanded Joint 4 Torque,Commanded Joint 5 Torque,Commanded Joint 6 Torque,Actual Joint 0 Position,Actual Joint 1 Position,Actual Joint 2 Position,Actual Joint 3 Position,Actual Joint 4 Position,Actual Joint 5 Position,Actual Joint 6 Position,Actual Joint 0 Velocity,Actual Joint 1 Velocity,Actual Joint 2 Velocity,Actual Joint 3 Velocity,Actual Joint 4 Velocity,Actual Joint 5 Velocity,Actual Joint 6 Velocity,Actual Joint 0 Torque,Actual Joint 1 Torque,Actual Joint 2 Torque,Actual Joint 3 Torque,Actual Joint 4 Torque,Actual Joint 5 Torque,Actual Joint 6 Torque,EE ext force 0,EE ext force 1,EE ext force 2,EE ext force 3,EE ext force 4,EE ext force 5,joint ext torque 0,joint ext torque 1,joint ext torque 2,joint ext torque 3,joint ext torque 4,joint ext torque 5,joint ext torque 6,
0.251723,-0.228823,0.318292,-1.87088,0.110889,0.12506,0.462144,0.00602413,0.0241756,0.018169,-0.156311,-0.0704238,0.226602,-0.00130845,0,0,0,0,0,0,0,0.251708,-0.228967,0.318159,-1.86933,0.111362,1.69358,1.24756,0.00056786,-0.0028811,0.000856889,-0.00105187,-0.0137502,-0.00173226,-0.000238448,0.0828892,-24.7627,-2.61351,27.3279,0.923458,3.22533,0.11821,-0.311844,0.551688,0.129204,-0.553451,-0.111607,0.204176,0.205081,0.084604,0.279546,-0.167808,-0.0793386,-0.228096,0.111171,
0.251756,-0.228655,0.318384,-1.87155,0.110523,0.125995,0.462139,0.00825334,0.0421901,0.0229146,-0.167076,-0.091407,0.233634,-0.00136048,0,0,0,0,0,0,0,0.251708,-0.228967,0.318159,-1.86933,0.111362,1.69358,1.24756,0.00056786,-0.0028811,0.000856889,-0.00105187,-0.0137502,-0.00173226,-0.000238448,0.0828892,-24.7627,-2.61351,27.3279,0.923458,3.22533,0.11821,0.19342,0.630352,-0.147001,-0.695516,0.334164,0.0920485,0.0980037,0.382648,0.175738,-0.314833,-0.0980632,-0.235873,0.111238,
0.251709,-0.228992,0.318164,-1.86933,0.111241,0.122761,0.46216,-5.703e-05,-0.00116206,5.89664e-05,0.000131763,-0.00501247,-0.00125929,-2.36392e-05,0,0,0,0,0,0,0,0.251708,-0.228967,0.318159,-1.86933,0.111362,1.69358,1.24756,0.00056786,-0.0028811,0.000856889,-0.00105187,-0.0137502,-0.00173226,-0.000238448,0.0828892,-24.7627,-2.61351,27.3279,0.923458,3.22533,0.11821,0.0132169,0.497586,0.130932,-0.524079,0.0986169,0.0904521,0.0960421,0.180897,0.156512,-0.175401,-0.0972675,-0.215253,0.110768,
0.251709,-0.228996,0.318164,-1.86933,0.111225,0.122757,0.46216,-0.000103508,-0.000985424,-1.17931e-05,0.000147544,-0.00394097,-0.00101216,-1.61223e-05,0,0,0,0,0,0,0,0.251708,-0.228967,0.318159,-1.86933,0.111362,1.69358,1.24756,0.00056786,-0.0028811,0.000856889,-0.00105187,-0.0137502,-0.00173226,-0.000238448,0.0828892,-24.7627,-2.61351,27.3279,0.923458,3.22533,0.11821,0.0132169,0.497586,0.130932,-0.524079,0.0986169,0.0904521,0.0960421,0.180897,0.156512,-0.175401,-0.0972675,-0.215253,0.110768,
0.251708,-0.228999,0.318164,-1.86933,0.111213,0.122754,0.46216,-0.000130068,-0.00084577,-5.35376e-05,0.000150401,-0.00312492,-0.000808379,-1.05973e-05,0,0,0,0,0,0,0,0.251713,-0.228973,0.318158,-1.86937,0.111391,1.69366,1.24756,0.00196576,-0.00836658,0.00124695,-0.0129682,-0.00149159,0.0173197,-0.000295405,0.0551182,-24.612,-2.51036,26.0068,0.6488,3.21892,0.110886,-0.315242,0.441612,-0.31567,-0.589727,0.0191377,0.160034,0.164805,0.230859,0.241832,-0.33561,-0.0933135,-0.222471,0.110446,
0.251708,-0.229002,0.318163,-1.86933,0.111203,0.122752,0.46216,-0.000142944,-0.00073454,-7.53613e-05,0.000147008,-0.00250076,-0.000645917,-6.6346e-06,0,0,0,0,0,0,0,0.251713,-0.228973,0.318158,-1.86937,0.111391,1.69366,1.24756,0.00196576,-0.00836658,0.00124695,-0.0129682,-0.00149159,0.0173197,-0.000295405,0.0551182,-24.612,-2.51036,26.0068,0.6488,3.21892,0.110886,-0.315242,0.441612,-0.31567,-0.589727,0.0191377,0.160034,0.164805,0.230859,0.241832,-0.33561,-0.0933135,-0.222471,0.110446,
0.251707,-0.229005,0.318163,-1.86933,0.111194,0.12275,0.46216,-0.000146649,-0.000645754,-8.37976e-05,0.000140518,-0.00202081,-0.000519686,-3.83158e-06,0,0,0,0,0,0,0,0.251713,-0.228973,0.318158,-1.86937,0.111391,1.69366,1.24756,0.00196576,-0.00836658,0.00124695,-0.0129682,-0.00149159,0.0173197,-0.000295405,0.0551182,-24.612,-2.51036,26.0068,0.6488,3.21892,0.110886,-1.07536,-0.0973725,-0.373826,-0.231542,-0.519395,0.153344,0.144685,-0.0909823,0.223753,-0.303071,-0.10791,-0.21242,0.112646,
0.251707,-0.229007,0.318163,-1.86933,0.111188,0.122748,0.46216,-0.000144383,-0.000574897,-8.34622e-05,0.000132573,-0.00164953,-0.000423982,-1.86694e-06,0,0,0,0,0,0,0,0.251713,-0.228973,0.318158,-1.86937,0.111391,1.69366,1.24756,0.00196576,-0.00836658,0.00124695,-0.0129682,-0.00149159,0.0173197,-0.000295405,0.0551182,-24.612,-2.51036,26.0068,0.6488,3.21892,0.110886,-1.07536,-0.0973725,-0.373826,-0.231542,-0.519395,0.153344,0.144685,-0.0909823,0.223753,-0.303071,-0.10791,-0.21242,0.112646,
0.251706,-0.229009,0.318162,-1.86933,0.111182,0.122746,0.46216,-0.000138387,-0.000518422,-7.75769e-05,0.000124093,-0.00136048,-0.000353383,-5.0021e-07,0,0,0,0,0,0,0,0.251713,-0.228973,0.318158,-1.86937,0.111391,1.69366,1.24756,0.00196576,-0.00836658,0.00124695,-0.0129682,-0.00149159,0.0173197,-0.000295405,0.0551182,-24.612,-2.51036,26.0068,0.6488,3.21892,0.110886,-0.448943,0.620971,-0.734552,-0.802981,0.0407263,0.262584,0.247616,0.331736,0.388648,-0.466436,-0.0894253,-0.199563,0.111743,
0.252175,-0.229161,0.318573,-1.86884,0.0949422,0.115011,0.462146,0.00277222,-0.00538594,0.00319729,0.00228309,-0.395623,-0.194313,-0.000672776,0,0,0,0,0,0,0,0.251713,-0.228966,0.318165,-1.86974,0.111368,1.69433,1.24756,-0.000211349,0.00926409,0.000590714,0.00143746,0.000721739,0.00312443,-0.000481433,0.0313145,-25.5126,-2.66112,27.7008,0.850216,3.28484,0.11821,0.549848,0.644992,-0.488134,-0.768302,0.607788,-0.00975882,-0.00557174,0.549555,0.0842111,-0.38361,-0.12794,-0.148652,0.111684,
0.252139,-0.228971,0.318547,-1.86934,0.0960739,0.116237,0.462148,0.00248987,-0.00405223,0.00296448,0.00154008,-0.372624,-0.184791,-0.000604125,0,0,0,0,0,0,0,0.251713,-0.228966,0.318165,-1.86974,0.111368,1.69433,1.24756,-0.000211349,0.00926409,0.000590714,0.00143746,0.000721739,0.00312443,-0.000481433,0.0313145,-25.5126,-2.66112,27.7008,0.850216,3.28484,0.11821,0.549848,0.644992,-0.488134,-0.768302,0.607788,-0.00975882,-0.00557174,0.549555,0.0842111,-0.38361,-0.12794,-0.148652,0.111684,
0.252145,-0.228987,0.318555,-1.86933,0.0945742,0.11549,0.462146,0.00164397,-0.00383204,0.00210192,0.0009844,-0.374937,-0.186736,-0.00059617,0,0,0,0,0,0,0,0.251713,-0.228966,0.318165,-1.86974,0.111368,1.69433,1.24756,-0.000211349,0.00926409,0.000590714,0.00143746,0.000721739,0.00312443,-0.000481433,0.0313145,-25.5126,-2.66112,27.7008,0.850216,3.28484,0.11821,0.453032,0.624592,-0.318617,-0.696511,0.482013,0.00825207,0.00279166,0.442041,0.101121,-0.301176,-0.11242,-0.138317,0.111938,
0.252149,-0.229001,0.318561,-1.86933,0.0930683,0.114738,0.462143,0.000876727,-0.00357282,0.00131236,0.000496862,-0.376473,-0.188166,-0.000586892,0,0,0,0,0,0,0,0.251713,-0.228966,0.318165,-1.86974,0.111368,1.69433,1.24756,-0.000211349,0.00926409,0.000590714,0.00143746,0.000721739,0.00312443,-0.000481433,0.0313145,-25.5126,-2.66112,27.7008,0.850216,3.28484,0.11821,0.453032,0.624592,-0.318617,-0.696511,0.482013,0.00825207,0.00279166,0.442041,0.101121,-0.301176,-0.11242,-0.138317,0.111938,
0.25215,-0.229014,0.318563,-1.86933,0.0915588,0.113981,0.462141,0.000184221,-0.0032913,0.000594294,6.87998e-05,-0.377375,-0.189171,-0.000576907,0,0,0,0,0,0,0,0.251713,-0.228966,0.318165,-1.86974,0.111368,1.69433,1.24756,-0.000211349,0.00926409,0.000590714,0.00143746,0.000721739,0.00312443,-0.000481433,0.0313145,-25.5126,-2.66112,27.7008,0.850216,3.28484,0.11821,-0.0480491,0.890874,-0.62099,-0.956707,0.253592,0.253956,0.237212,0.424392,0.39117,-0.41174,-0.0978719,-0.164426,0.11325,
0.252148,-0.229026,0.318563,-1.86933,0.0900478,0.113222,0.462139,-0.000438369,-0.00300003,-5.55023e-05,-0.000307042,-0.377756,-0.189821,-0.000566622,0,0,0,0,0,0,0,0.251713,-0.228966,0.318165,-1.86974,0.111368,1.69433,1.24756,-0.000211349,0.00926409,0.000590714,0.00143746,0.000721739,0.00312443,-0.000481433,0.0313145,-25.5126,-2.66112,27.7008,0.850216,3.28484,0.11821,-0.0480491,0.890874,-0.62099,-0.956707,0.253592,0.253956,0.237212,0.424392,0.39117,-0.41174,-0.0978719,-0.164426,0.11325,
0.252144,-0.229037,0.31856,-1.86933,0.0885369,0.112461,0.462136,-0.000996291,-0.00270824,-0.000641242,-0.000636809,-0.377708,-0.190177,-0.000556305,0,0,0,0,0,0,0,0.251775,-0.228994,0.318213,-1.86963,0.109278,1.69417,1.24756,0.00176315,-0.00669028,0.00531614,-0.00487346,-0.125884,-0.00811578,0.00115512,-0.603451,-25.0603,-3.161,27.6016,0.27618,3.11913,0.0779268,-0.126393,0.723576,-0.542128,-0.92069,0.126037,0.204031,0.191238,0.33136,0.349139,-0.391766,-0.207724,-0.177788,0.114947,
0.25234,-0.229252,0.318538,-1.86783,0.0688274,0.087099,0.461864,-0.00532363,-0.0138678,-0.00690258,0.00658666,-1.16418,-0.99389,-0.00698874,0,0,0,0,0,0,0,0.251775,-0.228994,0.318213,-1.86963,0.109278,1.69417,1.24756,0.00176315,-0.00669028,0.00531614,-0.00487346,-0.125884,-0.00811578,0.00115512,-0.603451,-25.0603,-3.161,27.6016,0.27618,3.11913,0.0779268,-0.474823,0.848577,-0.022531,-0.944375,-0.315413,0.349907,0.322912,0.0106123,0.517911,-0.178259,-0.268758,-0.188246,0.11447,
0.25239,-0.229459,0.318602,-1.86786,0.0649313,0.0896579,0.4619,-0.00507543,-0.0139378,-0.00653207,0.00630353,-1.1738,-0.914235,-0.00622912,0,0,0,0,0,0,0,0.251775,-0.228994,0.318213,-1.86963,0.109278,1.69417,1.24756,0.00176315,-0.00669028,0.00531614,-0.00487346,-0.125884,-0.00811578,0.00115512,-0.603451,-25.0603,-3.161,27.6016,0.27618,3.11913,0.0779268,-0.474823,0.848577,-0.022531,-0.944375,-0.315413,0.349907,0.322912,0.0106123,0.517911,-0.178259,-0.268758,-0.188246,0.11447,
0.252359,-0.229507,0.318566,-1.86785,0.0601759,0.0859604,0.461875,-0.00773192,-0.0120655,-0.00912615,0.00281506,-1.18884,-0.924388,-0.00616035,0,0,0,0,0,0,0,0.251775,-0.228994,0.318213,-1.86963,0.109278,1.69417,1.24756,0.00176315,-0.00669028,0.00531614,-0.00487346,-0.125884,-0.00811578,0.00115512,-0.603451,-25.0603,-3.161,27.6016,0.27618,3.11913,0.0779268,-0.0444425,0.876812,-0.296583,-1.14102,0.0862348,0.235778,0.201819,0.307007,0.439197,-0.376639,-0.356354,-0.25245,0.114095,
0.252318,-0.229547,0.31852,-1.86785,0.055371,0.0822341,0.461851,-0.0101476,-0.0101197,-0.011507,-0.000250661,-1.20124,-0.931574,-0.00608711,0,0,0,0,0,0,0,0.251775,-0.228994,0.318213,-1.86963,0.109278,1.69417,1.24756,0.00176315,-0.00669028,0.00531614,-0.00487346,-0.125884,-0.00811578,0.00115512,-0.603451,-25.0603,-3.161,27.6016,0.27618,3.11913,0.0779268,-0.15609,1.38734,0.319846,-1.3264,-0.226251,0.468572,0.437755,0.0445561,0.682346,-0.0861232,-0.351165,-0.210006,0.118134,
0.252269,-0.22958,0.318465,-1.86786,0.0505252,0.0784889,0.461826,-0.0123357,-0.00816772,-0.0136811,-0.00294179,-1.21145,-0.936292,-0.00601126,0,0,0,0,0,0,0,0.251875,-0.229012,0.318267,-1.86931,0.102199,1.69224,1.24756,0.014,-0.00689753,0.00914437,0.0266212,-0.48601,-0.208489,-0.000496367,-1.18664,-25.0127,-3.51012,26.106,-0.530399,2.39678,0.104477,-0.15609,1.38734,0.319846,-1.3264,-0.226251,0.468572,0.437755,0.0445561,0.682346,-0.0861232,-0.351165,-0.210006,0.118134,
0.252212,-0.229605,0.318402,-1.86788,0.0456457,0.0747331,0.461803,-0.0143113,-0.00625808,-0.0156587,-0.00530041,-1.21987,-0.938951,-0.00593402,0,0,0,0,0,0,0,0.251875,-0.229012,0.318267,-1.86931,0.102199,1.69224,1.24756,0.014,-0.00689753,0.00914437,0.0266212,-0.48601,-0.208489,-0.000496367,-1.18664,-25.0127,-3.51012,26.106,-0.530399,2.39678,0.104477,0.842171,3.02824,0.320573,-2.42758,0.512504,0.835383,0.802399,0.576877,1.14051,-0.138202,-0.286343,-0.204325,0.126448,
0.252147,-0.229623,0.318333,-1.86791,0.0407385,0.0709736,0.461779,-0.0160902,-0.00442452,-0.0174524,-0.00736347,-1.2268,-0.939892,-0.00585625,0,0,0,0,0,0,0,0.251875,-0.229012,0.318267,-1.86931,0.102199,1.69224,1.24756,0.014,-0.00689753,0.00914437,0.0266212,-0.48601,-0.208489,-0.000496367,-1.18664,-25.0127,-3.51012,26.106,-0.530399,2.39678,0.104477,0.842171,3.02824,0.320573,-2.42758,0.512504,0.835383,0.802399,0.576877,1.14051,-0.138202,-0.286343,-0.204325,0.126448,
0.246402,-0.229375,0.311811,-1.8709,0.0713223,0.0795136,0.459154,-0.174895,0.0101888,-0.199742,-0.0705529,-1.0867,-1.23726,-0.0591865,0,0,0,0,0,0,0,0.251875,-0.229012,0.318267,-1.86931,0.102199,1.69224,1.24756,0.014,-0.00689753,0.00914437,0.0266212,-0.48601,-0.208489,-0.000496367,-1.18664,-25.0127,-3.51012,26.106,-0.530399,2.39678,0.104477,0.640906,1.14088,0.661611,-1.61985,0.306311,0.119252,0.0760963,0.396573,0.419865,-0.36304,-0.765608,-0.565942,0.129363,
0.246454,-0.2296,0.311899,-1.87055,0.0591971,0.0748826,0.459449,-0.171788,0.00934028,-0.195995,-0.0666387,-1.115,-1.25307,-0.0524354,0,0,0,0,0,0,0,0.251875,-0.229012,0.318267,-1.86931,0.102199,1.69224,1.24756,0.014,-0.00689753,0.00914437,0.0266212,-0.48601,-0.208489,-0.000496367,-1.18664,-25.0127,-3.51012,26.106,-0.530399,2.39678,0.104477,0.640906,1.14088,0.661611,-1.61985,0.306311,0.119252,0.0760963,0.396573,0.419865,-0.36304,-0.765608,-0.565942,0.129363,
0.245745,-0.229543,0.311093,-1.87084,0.0546503,0.0697931,0.459242,-0.177194,0.0141845,-0.2016,-0.0710407,-1.13669,-1.27236,-0.0517504,0,0,0,0,0,0,0,0.251875,-0.229012,0.318267,-1.86931,0.102199,1.69224,1.24756,0.014,-0.00689753,0.00914437,0.0266212,-0.48601,-0.208489,-0.000496367,-1.18664,-25.0127,-3.51012,26.106,-0.530399,2.39678,0.104477,0.880311,-0.16893,0.624694,-1.16134,0.53669,-0.489112,-0.548086,0.535748,-0.172752,-0.682155,-1.11822,-0.852521,0.13054,
0.245018,-0.229468,0.310267,-1.87114,0.0500277,0.0646397,0.459038,-0.181903,0.0187567,-0.206474,-0.0748953,-1.15565,-1.28834,-0.0510759,0,0,0,0,0,0,0,0.252639,-0.229078,0.318689,-1.86802,0.0790882,1.68272,1.24756,0.0227345,-0.0096694,0.0177445,0.0401671,-0.770624,-0.337674,-0.000169018,-1.74603,-24.7627,-4.23613,25.983,-0.450748,1.95916,0.124619,0.274776,0.810981,1.31515,-1.59404,-0.0646786,0.0775544,0.00405584,0.174866,0.438753,-0.367411,-1.01116,-0.84755,0.125082,
0.244274,-0.229376,0.309424,-1.87145,0.0453389,0.0594334,0.458836,-0.185999,0.0230242,-0.210711,-0.0782516,-1.1722,-1.30158,-0.0504098,0,0,0,0,0,0,0,0.252639,-0.229078,0.318689,-1.86802,0.0790882,1.68272,1.24756,0.0227345,-0.0096694,0.0177445,0.0401671,-0.770624,-0.337674,-0.000169018,-1.74603,-24.7627,-4.23613,25.983,-0.450748,1.95916,0.124619,0.274776,0.810981,1.31515,-1.59404,-0.0646786,0.0775544,0.00405584,0.174866,0.438753,-0.367411,-1.01116,-0.84755,0.125082,
0.243516,-0.229268,0.308567,-1.87177,0.0405924,0.0541834,0.458637,-0.189553,0.0269699,-0.214391,-0.0811554,-1.18663,-1.31251,-0.0497504,0,0,0,0,0,0,0,0.252639,-0.229078,0.318689,-1.86802,0.0790882,1.68272,1.24756,0.0227345,-0.0096694,0.0177445,0.0401671,-0.770624,-0.337674,-0.000169018,-1.74603,-24.7627,-4.23613,25.983,-0.450748,1.95916,0.124619,-0.415312,0.815697,2.15339,-1.39161,-0.709945,0.298584,0.222689,-0.27871,0.635164,-0.0925181,-0.947235,-0.944132,0.0987013,
0.241079,-0.229511,0.30592,-1.87372,0.0648234,0.0761747,0.456857,-0.324566,0.0324228,-0.367239,-0.138502,-1.04107,-1.2296,-0.102349,0,0,0,0,0,0,0,0.252639,-0.229078,0.318689,-1.86802,0.0790882,1.68272,1.24756,0.0227345,-0.0096694,0.0177445,0.0401671,-0.770624,-0.337674,-0.000169018,-1.74603,-24.7627,-4.23613,25.983,-0.450748,1.95916,0.124619,-0.415312,0.815697,2.15339,-1.39161,-0.709945,0.298584,0.222689,-0.27871,0.635164,-0.0925181,-0.947235,-0.944132,0.0987013,
0.242131,-0.229733,0.306717,-1.87208,0.0376547,0.0650188,0.45745,-0.313805,0.0292678,-0.355699,-0.126195,-1.06011,-1.23619,-0.0894779,0,0,0,0,0,0,0,0.252639,-0.229078,0.318689,-1.86802,0.0790882,1.68272,1.24756,0.0227345,-0.0096694,0.0177445,0.0401671,-0.770624,-0.337674,-0.000169018,-1.74603,-24.7627,-4.23613,25.983,-0.450748,1.95916,0.124619,0.444335,-1.13605,2.20065,-0.351077,0.019757,-0.704329,-0.715345,0.0571554,-0.508667,-0.430785,-1.17988,-1.2501,0.0749757,
0.240844,-0.229588,0.30526,-1.8726,0.0333037,0.0600048,0.457097,-0.321711,0.0362408,-0.364119,-0.130457,-1.08775,-1.25351,-0.0881756,0,0,0,0,0,0,0,0.252603,-0.2296,0.318418,-1.86777,0.0545111,1.66826,1.24735,-0.00692188,-0.0205394,-0.012275,0.00189816,-0.720138,-0.506269,-0.0129926,-3.4956,-24.0129,-6.63634,25.3323,-1.18409,1.03722,0.0376436,0.444335,-1.13605,2.20065,-0.351077,0.019757,-0.704329,-0.715345,0.0571554,-0.508667,-0.430785,-1.17988,-1.2501,0.0749757,
0.23953,-0.229417,0.303775,-1.87314,0.0288535,0.0549335,0.456749,-0.328508,0.0426557,-0.371342,-0.13415,-1.11256,-1.26783,-0.0868964,0,0,0,0,0,0,0,0.252603,-0.2296,0.318418,-1.86777,0.0545111,1.66826,1.24735,-0.00692188,-0.0205394,-0.012275,0.00189816,-0.720138,-0.506269,-0.0129926,-3.4956,-24.0129,-6.63634,25.3323,-1.18409,1.03722,0.0376436,1.52025,-1.67488,2.02068,-0.162336,0.940861,-1.21222,-1.17293,0.603617,-1.08044,-0.73015,-1.26134,-1.41651,0.0620371,
0.238193,-0.229223,0.302265,-1.87369,0.0243146,0.0498148,0.456407,-0.33434,0.0485158,-0.377534,-0.137319,-1.13472,-1.27966,-0.0856349,0,0,0,0,0,0,0,0.252603,-0.2296,0.318418,-1.86777,0.0545111,1.66826,1.24735,-0.00692188,-0.0205394,-0.012275,0.00189816,-0.720138,-0.506269,-0.0129926,-3.4956,-24.0129,-6.63634,25.3323,-1.18409,1.03722,0.0376436,-0.52879,-1.06676,1.81224,-0.492673,-0.179789,-0.38138,-0.375907,0.208347,-0.189405,-0.826605,-0.997605,-1.56017,0.0421854,
0.236835,-0.229008,0.300733,-1.87425,0.0196969,0.0446571,0.456069,-0.33933,0.0538354,-0.382834,-0.140005,-1.15444,-1.28942,-0.084387,0,0,0,0,0,0,0,0.252603,-0.2296,0.318418,-1.86777,0.0545111,1.66826,1.24735,-0.00692188,-0.0205394,-0.012275,0.00189816,-0.720138,-0.506269,-0.0129926,-3.4956,-24.0129,-6.63634,25.3323,-1.18409,1.03722,0.0376436,-0.52879,-1.06676,1.81224,-0.492673,-0.179789,-0.38138,-0.375907,0.208347,-0.189405,-0.826605,-0.997605,-1.56017,0.0421854,
0.238916,-0.229631,0.303234,-1.874,0.0468193,0.0711506,0.4555,-0.44408,0.047004,-0.500856,-0.181097,-0.951207,-1.19098,-0.139463,0,0,0,0,0,0,0,0.252603,-0.2296,0.318418,-1.86777,0.0545111,1.66826,1.24735,-0.00692188,-0.0205394,-0.012275,0.00189816,-0.720138,-0.506269,-0.0129926,-3.4956,-24.0129,-6.63634,25.3323,-1.18409,1.03722,0.0376436,-0.955683,-1.51656,1.74654,-0.135484,-0.390241,-0.436386,-0.440249,0.0892064,-0.276701,-0.856427,-0.913453,-1.59308,0.0282611,
0.239056,-0.229921,0.303107,-1.87354,0.0216103,0.0537327,0.456072,-0.429752,0.0475577,-0.485729,-0.167662,-0.963448,-1.21082,-0.1221,0,0,0,0,0,0,0,0.252603,-0.2296,0.318418,-1.86777,0.0545111,1.66826,1.24735,-0.00692188,-0.0205394,-0.012275,0.00189816,-0.720138,-0.506269,-0.0129926,-3.4956,-24.0129,-6.63634,25.3323,-1.18409,1.03722,0.0376436,-0.955683,-1.51656,1.74654,-0.135484,-0.390241,-0.436386,-0.440249,0.0892064,-0.276701,-0.856427,-0.913453,-1.59308,0.0282611,
0.23729,-0.229695,0.301113,-1.87422,0.0176024,0.0488221,0.455592,-0.441469,0.0566908,-0.498389,-0.171966,-1.00198,-1.22765,-0.12016,0,0,0,0,0,0,0,0.251522,-0.230344,0.316678,-1.86827,0.0322966,1.65204,1.24664,-0.0494961,-0.0250259,-0.0835175,-0.0219025,-0.700833,-0.534071,-0.0301623,-4.50726,-23.1163,-7.90984,25.1578,-1.28113,1.12328,-0.0365141,0.0105067,-1.82766,1.69008,0.0180911,0.317976,-0.820911,-0.790392,0.453399,-0.713332,-0.9677,-0.962116,-1.62647,0.011913,
0.235484,-0.229434,0.299076,-1.87493,0.0134543,0.0438563,0.455119,-0.451504,0.0650427,-0.509202,-0.17569,-1.03702,-1.24144,-0.118259,0,0,0,0,0,0,0,0.251522,-0.230344,0.316678,-1.86827,0.0322966,1.65204,1.24664,-0.0494961,-0.0250259,-0.0835175,-0.0219025,-0.700833,-0.534071,-0.0301623,-4.50726,-23.1163,-7.90984,25.1578,-1.28113,1.12328,-0.0365141,0.573341,-0.615814,1.75139,-0.656007,0.69576,-0.481958,-0.458064,0.70433,-0.327818,-0.881919,-0.82295,-1.52877,-0.00382767,
0.233644,-0.229144,0.297003,-1.87564,0.00917961,0.0388454,0.454653,-0.460086,0.0726337,-0.518436,-0.178868,-1.06867,-1.25272,-0.116388,0,0,0,0,0,0,0,0.251522,-0.230344,0.316678,-1.86827,0.0322966,1.65204,1.24664,-0.0494961,-0.0250259,-0.0835175,-0.0219025,-0.700833,-0.534071,-0.0301623,-4.50726,-23.1163,-7.90984,25.1578,-1.28113,1.12328,-0.0365141,0.573341,-0.615814,1.75139,-0.656007,0.69576,-0.481958,-0.458064,0.70433,-0.327818,-0.881919,-0.82295,-1.52877,-0.00382767,
0.231774,-0.228826,0.294897,-1.87637,0.00479122,0.0337976,0.454195,-0.467405,0.079494,-0.526313,-0.181536,-1.0971,-1.26195,-0.114542,0,0,0,0,0,0,0,0.251522,-0.230344,0.316678,-1.86827,0.0322966,1.65204,1.24664,-0.0494961,-0.0250259,-0.0835175,-0.0219025,-0.700833,-0.534071,-0.0301623,-4.50726,-23.1163,-7.90984,25.1578,-1.28113,1.12328,-0.0365141,1.60648,-0.355782,1.00084,-0.847198,1.62071,-0.645377,-0.630363,1.29177,-0.48827,-1.09882,-0.707083,-1.393,-0.0214637,
0.234932,-0.229798,0.298628,-1.87578,0.0260712,0.0549418,0.453821,-0.55775,0.0687406,-0.626947,-0.222356,-0.893363,-1.18658,-0.169542,0,0,0,0,0,0,0,0.251522,-0.230344,0.316678,-1.86827,0.0322966,1.65204,1.24664,-0.0494961,-0.0250259,-0.0835175,-0.0219025,-0.700833,-0.534071,-0.0301623,-4.50726,-23.1163,-7.90984,25.1578,-1.28113,1.12328,-0.0365141,1.60648,-0.355782,1.00084,-0.847198,1.62071,-0.645377,-0.630363,1.29177,-0.48827,-1.09882,-0.707083,-1.393,-0.0214637,
0.233655,-0.2303,0.296575,-1.87549,0.00187694,0.0381691,0.454155,-0.543915,0.0664646,-0.613061,-0.199736,-0.925672,-1.18517,-0.14646,0,0,0,0,0,0,0,0.247728,-0.232007,0.31083,-1.87049,0.00363236,1.62698,1.24559,-0.119787,-0.0282986,-0.177521,-0.0562409,-0.695809,-0.665275,-0.0414039,-5.97912,-22.5173,-9.33409,24.9356,-0.50568,1.77331,-0.00996382,0.117456,-0.943563,1.44842,-0.103632,0.392352,-0.446607,-0.422909,0.446676,-0.382281,-0.693473,-0.538218,-1.25274,-0.0413269,
0.231427,-0.229993,0.294066,-1.87631,-0.00199977,0.0333645,0.453579,-0.55692,0.0767394,-0.627183,-0.20384,-0.969177,-1.20114,-0.143937,0,0,0,0,0,0,0,0.247728,-0.232007,0.31083,-1.87049,0.00363236,1.62698,1.24559,-0.119787,-0.0282986,-0.177521,-0.0562409,-0.695809,-0.665275,-0.0414039,-5.97912,-22.5173,-9.33409,24.9356,-0.50568,1.77331,-0.00996382,0.117456,-0.943563,1.44842,-0.103632,0.392352,-0.446607,-0.422909,0.446676,-0.382281,-0.693473,-0.538218,-1.25274,-0.0413269,
0.229155,-0.229648,0.291509,-1.87714,-0.0060352,0.0285078,0.453014,-0.567999,0.0860612,-0.639184,-0.207356,-1.00886,-1.21417,-0.141462,0,0,0,0,0,0,0,0.247728,-0.232007,0.31083,-1.87049,0.00363236,1.62698,1.24559,-0.119787,-0.0282986,-0.177521,-0.0562409,-0.695809,-0.665275,-0.0414039,-5.97912,-22.5173,-9.33409,24.9356,-0.50568,1.77331,-0.00996382,-0.778875,-0.513064,1.35138,-0.233913,-0.234702,-0.00753919,0.0130422,0.124158,0.0634352,-0.550413,-0.389087,-1.12281,-0.0605434,
0.226845,-0.229271,0.288912,-1.87798,-0.0102144,0.0236086,0.452457,-0.577414,0.0944698,-0.649374,-0.210313,-1.04479,-1.2248,-0.139026,0,0,0,0,0,0,0,0.247728,-0.232007,0.31083,-1.87049,0.00363236,1.62698,1.24559,-0.119787,-0.0282986,-0.177521,-0.0562409,-0.695809,-0.665275,-0.0414039,-5.97912,-22.5173,-9.33409,24.9356,-0.50568,1.77331,-0.00996382,-0.778875,-0.513064,1.35138,-0.233913,-0.234702,-0.00753919,0.0130422,0.124158,0.0634352,-0.550413,-0.389087,-1.12281,-0.0605434,
0.224504,-0.228863,0.28628,-1.87883,-0.014523,0.0186748,0.451911,-0.585385,0.102012,-0.658006,-0.212746,-1.07716,-1.23346,-0.136621,0,0,0,0,0,0,0,0.247728,-0.232007,0.31083,-1.87049,0.00363236,1.62698,1.24559,-0.119787,-0.0282986,-0.177521,-0.0562409,-0.695809,-0.665275,-0.0414039,-5.97912,-22.5173,-9.33409,24.9356,-0.50568,1.77331,-0.00996382,-0.773483,0.599267,0.845699,-0.900873,-0.171303,0.468473,0.463848,0.253245,0.611539,-0.527454,-0.244884,-0.897199,-0.0842034,
0.222135,-0.228428,0.283619,-1.87969,-0.0189476,0.0137129,0.451374,-0.592096,0.108739,-0.66529,-0.214694,-1.10616,-1.24048,-0.134242,0,0,0,0,0,0,0,0.247728,-0.232007,0.31083,-1.87049,0.00363236,1.62698,1.24559,-0.119787,-0.0282986,-0.177521,-0.0562409,-0.695809,-0.665275,-0.0414039,-5.97912,-22.5173,-9.33409,24.9356,-0.50568,1.77331,-0.00996382,-1.09514,0.377281,0.640731,-0.588413,-0.394201,0.490351,0.487602,0.0821174,0.584394,-0.428805,-0.108442,-0.736941,-0.104857,
0.226532,-0.229528,0.291728,-1.87846,0.00157373,0.0346954,0.451202,-0.678693,0.104341,-0.718226,-0.253341,-0.917224,-1.17713,-0.189833,0,0,0,0,0,0,0,0.241511,-0.233033,0.303051,-1.87311,-0.0180423,1.60314,1.24471,-0.229389,-0.0238796,-0.262073,-0.0869381,-0.655712,-0.757168,-0.0320648,-6.20923,-22.3665,-9.71099,25.4077,-0.499271,2.33727,-0.143631,-1.09514,0.377281,0.640731,-0.588413,-0.394201,0.490351,0.487602,0.0821174,0.584394,-0.428805,-0.108442,-0.736941,-0.104857,
0.214833,-0.231006,0.27416,-1.88288,-0.0537459,-0.0175984,0.450859,-0.672591,0.113323,-0.753502,-0.23211,-0.98769,-1.17815,-0.158459,0,0,0,0,0,0,0,0.241511,-0.233033,0.303051,-1.87311,-0.0180423,1.60314,1.24471,-0.229389,-0.0238796,-0.262073,-0.0869381,-0.655712,-0.757168,-0.0320648,-6.20923,-22.3665,-9.71099,25.4077,-0.499271,2.33727,-0.143631,-1.25167,0.211982,0.844708,-0.296032,-0.605596,0.481759,0.500044,-0.128557,0.513517,-0.245393,-0.0213836,-0.640775,-0.121848,
0.212105,-0.23052,0.271095,-1.88382,-0.0578416,-0.0223478,0.450237,-0.682018,0.121691,-0.766094,-0.234371,-1.02393,-1.18736,-0.155501,0,0,0,0,0,0,0,0.241511,-0.233033,0.303051,-1.87311,-0.0180423,1.60314,1.24471,-0.229389,-0.0238796,-0.262073,-0.0869381,-0.655712,-0.757168,-0.0320648,-6.20923,-22.3665,-9.71099,25.4077,-0.499271,2.33727,-0.143631,-1.25167,0.211982,0.844708,-0.296032,-0.605596,0.481759,0.500044,-0.128557,0.513517,-0.245393,-0.0213836,-0.640775,-0.121848,
0.209342,-0.230003,0.267992,-1.88476,-0.0620701,-0.0271274,0.449627,-0.690676,0.129134,-0.775825,-0.236056,-1.05713,-1.1949,-0.152562,0,0,0,0,0,0,0,0.241511,-0.233033,0.303051,-1.87311,-0.0180423,1.60314,1.24471,-0.229389,-0.0238796,-0.262073,-0.0869381,-0.655712,-0.757168,-0.0320648,-6.20923,-22.3665,-9.71099,25.4077,-0.499271,2.33727,-0.143631,-0.621442,-0.0664533,0.864453,-0.146654,-0.217722,0.220297,0.251278,0.0312959,0.225931,-0.255731,-0.0955564,-0.622895,-0.141599,
0.20655,-0.229463,0.264856,-1.88572,-0.0664181,-0.0318857,0.449028,-0.697972,0.135084,-0.783972,-0.239556,-1.08699,-1.18958,-0.149623,0,0,0,0,0,0,0,0.241511,-0.233033,0.303051,-1.87311,-0.0180423,1.60314,1.24471,-0.229389,-0.0238796,-0.262073,-0.0869381,-0.655712,-0.757168,-0.0320648,-6.20923,-22.3665,-9.71099,25.4077,-0.499271,2.33727,-0.143631,-0.298279,0.445936,-0.134091,-0.725969,0.436108,0.356035,0.390348,0.657238,0.417484,-0.737306,-0.0530145,-0.693482,-0.158742,
0.203734,-0.228904,0.261693,-1.8867,-0.0708721,-0.0365392,0.448442,-0.704112,0.13965,-0.79085,-0.245535,-1.11348,-1.16337,-0.146674,0,0,0,0,0,0,0,0.233175,-0.233603,0.293373,-1.8762,-0.0390414,1.57923,1.24394,-0.293824,-0.0134351,-0.353581,-0.10229,-0.654145,-0.783128,-0.0337227,-7.93103,-22.3427,-11.1352,24.9118,-1.10443,2.19079,-0.170181,-0.298279,0.445936,-0.134091,-0.725969,0.436108,0.356035,0.390348,0.657238,0.417484,-0.737306,-0.0530145,-0.693482,-0.158742,
0.200897,-0.228329,0.258507,-1.88771,-0.0754208,-0.0410326,0.447867,-0.709134,0.143859,-0.796465,-0.251397,-1.13719,-1.12334,-0.143742,0,0,0,0,0,0,0,0.233175,-0.233603,0.293373,-1.8762,-0.0390414,1.57923,1.24394,-0.293824,-0.0134351,-0.353581,-0.10229,-0.654145,-0.783128,-0.0337227,-7.93103,-22.3427,-11.1352,24.9118,-1.10443,2.19079,-0.170181,-0.658097,-0.0894649,-0.0340815,-0.304309,0.117469,0.234949,0.244409,0.40478,0.277236,-0.642031,-0.0487626,-0.658267,-0.169768,
0.211371,-0.230353,0.275031,-1.88487,-0.0523817,-0.0163257,0.44851,-0.769049,0.140796,-0.739798,-0.279595,-0.963229,-1.15845,-0.204197,0,0,0,0,0,0,0,0.233175,-0.233603,0.293373,-1.8762,-0.0390414,1.57923,1.24394,-0.293824,-0.0134351,-0.353581,-0.10229,-0.654145,-0.783128,-0.0337227,-7.93103,-22.3427,-11.1352,24.9118,-1.10443,2.19079,-0.170181,-0.658097,-0.0894649,-0.0340815,-0.304309,0.117469,0.234949,0.244409,0.40478,0.277236,-0.642031,-0.0487626,-0.658267,-0.169768,
0.201758,-0.230773,0.263579,-1.88725,-0.0755384,-0.0357605,0.449552,-0.765982,0.13013,-0.763686,-0.280268,-0.993526,-0.758634,-0.166742,0,0,0,0,0,0,0,0.233175,-0.233603,0.293373,-1.8762,-0.0390414,1.57923,1.24394,-0.293824,-0.0134351,-0.353581,-0.10229,-0.654145,-0.783128,-0.0337227,-7.93103,-22.3427,-11.1352,24.9118,-1.10443,2.19079,-0.170181,-0.880914,-0.926515,-0.0973197,0.111097,-0.0307293,-0.0373092,-0.0257421,0.300913,-0.0161586,-0.723464,-0.201499,-0.730125,-0.186908,
0.198664,-0.230217,0.260472,-1.88839,-0.0796449,-0.0384934,0.448899,-0.773543,0.138901,-0.776815,-0.284951,-1.02662,-0.683243,-0.163416,0,0,0,0,0,0,0,0.233175,-0.233603,0.293373,-1.8762,-0.0390414,1.57923,1.24394,-0.293824,-0.0134351,-0.353581,-0.10229,-0.654145,-0.783128,-0.0337227,-7.93103,-22.3427,-11.1352,24.9118,-1.10443,2.19079,-0.170181,-0.880914,-0.926515,-0.0973197,0.111097,-0.0307293,-0.0373092,-0.0257421,0.300913,-0.0161586,-0.723464,-0.201499,-0.730125,-0.186908,
0.195546,-0.22963,0.257319,-1.88954,-0.0838698,-0.0409273,0.448258,-0.779588,0.14689,-0.788289,-0.287663,-1.05623,-0.608475,-0.160139,0,0,0,0,0,0,0,0.233175,-0.233603,0.293373,-1.8762,-0.0390414,1.57923,1.24394,-0.293824,-0.0134351,-0.353581,-0.10229,-0.654145,-0.783128,-0.0337227,-7.93103,-22.3427,-11.1352,24.9118,-1.10443,2.19079,-0.170181,-0.966466,-0.166084,-0.290447,-0.566737,0.0319312,0.309305,0.346956,0.48492,0.389963,-0.886399,-0.278922,-0.81497,-0.20113,
0.192409,-0.229014,0.254125,-1.89069,-0.0881996,-0.0430629,0.44763,-0.784238,0.15385,-0.798446,-0.28919,-1.08245,-0.533896,-0.156931,0,0,0,0,0,0,0,0.222098,-0.233639,0.28056,-1.87984,-0.0610429,1.55491,1.24326,-0.403347,0.0019673,-0.414086,-0.126429,-0.643919,-0.716796,-0.0269495,-5.57446,-22.4181,-8.65965,24.3604,-1.07422,1.41533,-0.230606,-0.905212,-1.58819,-0.4987,0.237765,0.190104,-0.292129,-0.235749,0.546415,-0.292743,-1.08539,-0.403851,-0.936591,-0.213918,
0.189258,-0.228375,0.250895,-1.89185,-0.0926215,-0.0448999,0.447015,-0.78764,0.159742,-0.807488,-0.289921,-1.10547,-0.459241,-0.153789,0,0,0,0,0,0,0,0.222098,-0.233639,0.28056,-1.87984,-0.0610429,1.55491,1.24326,-0.403347,0.0019673,-0.414086,-0.126429,-0.643919,-0.716796,-0.0269495,-5.57446,-22.4181,-8.65965,24.3604,-1.07422,1.41533,-0.230606,-0.905212,-1.58819,-0.4987,0.237765,0.190104,-0.292129,-0.235749,0.546415,-0.292743,-1.08539,-0.403851,-0.936591,-0.213918,
0.201655,-0.229549,0.26375,-1.88851,-0.0755122,-0.0392526,0.447236,-0.782173,0.166591,-0.754808,-0.305408,-0.989919,-1.03712,-0.212209,0,0,0,0,0,0,0,0.222098,-0.233639,0.28056,-1.87984,-0.0610429,1.55491,1.24326,-0.403347,0.0019673,-0.414086,-0.126429,-0.643919,-0.716796,-0.0269495,-5.57446,-22.4181,-8.65965,24.3604,-1.07422,1.41533,-0.230606,-2.70121,-1.45666,-0.651094,0.129723,-0.949473,0.193664,0.211717,0.0274938,0.253934,-1.10162,-0.36347,-0.981734,-0.230393,
0.188932,-0.229404,0.249152,-1.89241,-0.0992227,-0.0377314,0.448586,-0.798587,0.156883,-0.772504,-0.301852,-0.998388,-0.0684021,-0.173733,0,0,0,0,0,0,0,0.222098,-0.233639,0.28056,-1.87984,-0.0610429,1.55491,1.24326,-0.403347,0.0019673,-0.414086,-0.126429,-0.643919,-0.716796,-0.0269495,-5.57446,-22.4181,-8.65965,24.3604,-1.07422,1.41533,-0.230606,-2.70121,-1.45666,-0.651094,0.129723,-0.949473,0.193664,0.211717,0.0274938,0.253934,-1.10162,-0.36347,-0.981734,-0.230393,
0.185697,-0.228751,0.246018,-1.89363,-0.103318,-0.0375777,0.447903,-0.808661,0.163373,-0.783393,-0.305915,-1.02393,0.0384245,-0.170701,0,0,0,0,0,0,0,0.222098,-0.233639,0.28056,-1.87984,-0.0610429,1.55491,1.24326,-0.403347,0.0019673,-0.414086,-0.126429,-0.643919,-0.716796,-0.0269495,-5.57446,-22.4181,-8.65965,24.3604,-1.07422,1.41533,-0.230606,-3.17397,-1.60676,-0.693822,0.138598,-1.36752,0.253369,0.234328,-0.223323,0.365819,-1.04026,-0.495571,-0.92281,-0.241292,
0.182428,-0.228069,0.242848,-1.89485,-0.107507,-0.0370687,0.447239,-0.817132,0.170508,-0.792599,-0.304053,-1.04724,0.127255,-0.166125,0,0,0,0,0,0,0,0.207571,-0.23324,0.266205,-1.88474,-0.0816701,1.53751,1.24203,-0.4733,0.0173796,-0.491265,-0.176888,-0.636399,-0.413298,-0.051122,-5.32055,-22.791,-8.15978,24.9832,-1.62354,1.85937,-0.244339,-3.17397,-1.60676,-0.693822,0.138598,-1.36752,0.253369,0.234328,-0.223323,0.365819,-1.04026,-0.495571,-0.92281,-0.241292,
0.179131,-0.227361,0.239646,-1.89605,-0.111779,-0.0362816,0.446587,-0.824311,0.176878,-0.800476,-0.299005,-1.06798,0.19677,-0.163025,0,0,0,0,0,0,0,0.207571,-0.23324,0.266205,-1.88474,-0.0816701,1.53751,1.24203,-0.4733,0.0173796,-0.491265,-0.176888,-0.636399,-0.413298,-0.051122,-5.32055,-22.791,-8.15978,24.9832,-1.62354,1.85937,-0.244339,-1.59088,-3.16535,-0.819018,1.01246,-0.354548,-0.757173,-0.758451,0.179755,-0.735786,-1.13231,-0.745614,-0.892766,-0.246722,
0.175809,-0.226634,0.236416,-1.89722,-0.116124,-0.0352738,0.445946,-0.83048,0.181766,-0.807324,-0.292969,-1.08606,0.251958,-0.160193,0,0,0,0,0,0,0,0.207571,-0.23324,0.266205,-1.88474,-0.0816701,1.53751,1.24203,-0.4733,0.0173796,-0.491265,-0.176888,-0.636399,-0.413298,-0.051122,-5.32055,-22.791,-8.15978,24.9832,-1.62354,1.85937,-0.244339,-1.34716,-1.84547,-1.41747,0.0984463,0.0640118,-0.250202,-0.229496,0.605304,-0.169735,-1.34064,-0.636138,-0.84226,-0.257072,
0.192253,-0.229173,0.252307,-1.89205,-0.0954874,-0.0496711,0.447157,-0.785921,0.178147,-0.759315,-0.338319,-0.978616,-0.518801,-0.222284,0,0,0,0,0,0,0,0.207571,-0.23324,0.266205,-1.88474,-0.0816701,1.53751,1.24203,-0.4733,0.0173796,-0.491265,-0.176888,-0.636399,-0.413298,-0.051122,-5.32055,-22.791,-8.15978,24.9832,-1.62354,1.85937,-0.244339,-1.34716,-1.84547,-1.41747,0.0984463,0.0640118,-0.250202,-0.229496,0.605304,-0.169735,-1.34064,-0.636138,-0.84226,-0.257072,
0.176343,-0.228525,0.236451,-1.89699,-0.117191,-0.0323422,0.447624,-0.797826,0.166654,-0.772972,-0.285909,-0.98587,0.229318,-0.189906,0,0,0,0,0,0,0,0.207571,-0.23324,0.266205,-1.88474,-0.0816701,1.53751,1.24203,-0.4733,0.0173796,-0.491265,-0.176888,-0.636399,-0.413298,-0.051122,-5.32055,-22.791,-8.15978,24.9832,-1.62354,1.85937,-0.244339,-2.27194,-0.807499,-1.43573,-0.464791,-0.667757,0.41915,0.428636,0.22815,0.55983,-1.13549,-0.542976,-0.660539,-0.270655,
0.173115,-0.227843,0.233318,-1.89813,-0.121237,-0.0313438,0.446869,-0.807031,0.1705,-0.783088,-0.285171,-1.01165,0.24959,-0.188722,0,0,0,0,0,0,0,0.191294,-0.23266,0.250628,-1.89123,-0.101592,1.53013,1.24026,-0.548194,0.0284723,-0.536243,-0.228333,-0.663625,-0.0625751,-0.054168,-5.2174,-22.8426,-7.6361,25.6577,-1.39099,3.34435,-0.250748,-2.27194,-0.807499,-1.43573,-0.464791,-0.667757,0.41915,0.428636,0.22815,0.55983,-1.13549,-0.542976,-0.660539,-0.270655,
0.169855,-0.22715,0.23015,-1.89927,-0.125376,-0.0302767,0.446114,-0.815043,0.173248,-0.791933,-0.283933,-1.03474,0.26677,-0.188811,0,0,0,0,0,0,0,0.191294,-0.23266,0.250628,-1.89123,-0.101592,1.53013,1.24026,-0.548194,0.0284723,-0.536243,-0.228333,-0.663625,-0.0625751,-0.054168,-5.2174,-22.8426,-7.6361,25.6577,-1.39099,3.34435,-0.250748,-2.41745,-0.980206,-0.904656,-0.167594,-1.1872,0.404596,0.405407,-0.284333,0.519777,-0.674524,-0.582053,-0.407677,-0.278462,
0.166567,-0.226445,0.226952,-1.90039,-0.129599,-0.0291579,0.445354,-0.821931,0.17624,-0.799579,-0.280226,-1.05558,0.279708,-0.19001,0,0,0,0,0,0,0,0.191294,-0.23266,0.250628,-1.89123,-0.101592,1.53013,1.24026,-0.548194,0.0284723,-0.536243,-0.228333,-0.663625,-0.0625751,-0.054168,-5.2174,-22.8426,-7.6361,25.6577,-1.39099,3.34435,-0.250748,0.45583,-2.24362,-1.38067,0.528974,0.860871,-0.730373,-0.694659,0.738841,-0.723002,-0.918023,-0.735616,-0.340673,-0.279798,
0.163313,-0.225704,0.223699,-1.90144,-0.133924,-0.0281312,0.444652,-0.813636,0.185233,-0.813371,-0.26292,-1.08146,0.256668,-0.17553,0,0,0,0,0,0,0,0.191294,-0.23266,0.250628,-1.89123,-0.101592,1.53013,1.24026,-0.548194,0.0284723,-0.536243,-0.228333,-0.663625,-0.0625751,-0.054168,-5.2174,-22.8426,-7.6361,25.6577,-1.39099,3.34435,-0.250748,0.45583,-2.24362,-1.38067,0.528974,0.860871,-0.730373,-0.694659,0.738841,-0.723002,-0.918023,-0.735616,-0.340673,-0.279798,
0.160062,-0.224954,0.220414,-1.90247,-0.138327,-0.0270916,0.443964,-0.812604,0.187528,-0.82107,-0.257986,-1.10076,0.259906,-0.171841,0,0,0,0,0,0,0,0.191294,-0.23266,0.250628,-1.89123,-0.101592,1.53013,1.24026,-0.548194,0.0284723,-0.536243,-0.228333,-0.663625,-0.0625751,-0.054168,-5.2174,-22.8426,-7.6361,25.6577,-1.39099,3.34435,-0.250748,1.3248,-1.27298,-1.31353,0.0293519,1.39305,-0.480175,-0.446197,1.00783,-0.446588,-0.804486,-0.614527,-0.206367,-0.283951,
0.173248,-0.226798,0.233394,-1.8991,-0.121547,-0.0434558,0.444613,-0.806304,0.203113,-0.782529,-0.326099,-1.02046,-0.0222614,-0.23255,0,0,0,0,0,0,0,0.191294,-0.23266,0.250628,-1.89123,-0.101592,1.53013,1.24026,-0.548194,0.0284723,-0.536243,-0.228333,-0.663625,-0.0625751,-0.054168,-5.2174,-22.8426,-7.6361,25.6577,-1.39099,3.34435,-0.250748,1.3248,-1.27298,-1.31353,0.0293519,1.39305,-0.480175,-0.446197,1.00783,-0.446588,-0.804486,-0.614527,-0.206367,-0.283951,
0.15582,-0.226604,0.216576,-1.90394,-0.143061,-0.0346334,0.444677,-0.815858,0.172765,-0.794097,-0.269929,-1.03135,0.262087,-0.196398,0,0,0,0,0,0,0,0.167599,-0.230795,0.227921,-1.90073,-0.12961,1.53032,1.23757,-0.60709,0.0726397,-0.596284,-0.222151,-0.712455,0.0343644,-0.0552154,-2.22607,-24.3382,-4.58525,26.828,-1.29944,2.50298,-0.331314,0.174146,1.05806,-0.566724,-1.17798,0.194953,0.789799,0.778116,0.272784,0.959475,-0.210432,-0.406797,0.0673118,-0.286576,
0.152553,-0.225903,0.213354,-1.90501,-0.147276,-0.0334808,0.443892,-0.816668,0.175176,-0.805656,-0.269821,-1.05372,0.288149,-0.196342,0,0,0,0,0,0,0,0.167599,-0.230795,0.227921,-1.90073,-0.12961,1.53032,1.23757,-0.60709,0.0726397,-0.596284,-0.222151,-0.712455,0.0343644,-0.0552154,-2.22607,-24.3382,-4.58525,26.828,-1.29944,2.50298,-0.331314,0.00853918,0.377732,0.136111,-0.617907,-0.239279,0.534287,0.533555,-0.159794,0.640139,0.116989,-0.461555,0.110374,-0.288891,
0.149321,-0.225191,0.210072,-1.90609,-0.151587,-0.0322271,0.443104,-0.80805,0.178155,-0.82031,-0.267744,-1.07773,0.313428,-0.196969,0,0,0,0,0,0,0,0.167599,-0.230795,0.227921,-1.90073,-0.12961,1.53032,1.23757,-0.60709,0.0726397,-0.596284,-0.222151,-0.712455,0.0343644,-0.0552154,-2.22607,-24.3382,-4.58525,26.828,-1.29944,2.50298,-0.331314,0.00853918,0.377732,0.136111,-0.617907,-0.239279,0.534287,0.533555,-0.159794,0.640139,0.116989,-0.461555,0.110374,-0.288891,
0.146157,-0.224437,0.206737,-1.90706,-0.156012,-0.0311988,0.442372,-0.791081,0.18845,-0.833788,-0.24421,-1.10606,0.257069,-0.183005,0,0,0,0,0,0,0,0.167599,-0.230795,0.227921,-1.90073,-0.12961,1.53032,1.23757,-0.60709,0.0726397,-0.596284,-0.222151,-0.712455,0.0343644,-0.0552154,-2.22607,-24.3382,-4.58525,26.828,-1.29944,2.50298,-0.331314,0.855552,-0.844963,-0.032342,0.176105,0.470133,-0.182738,-0.162417,0.200252,-0.178855,-0.0555921,-0.462254,0.027978,-0.287624,
0.143008,-0.223677,0.203384,-1.90801,-0.160512,-0.0302685,0.441654,-0.787038,0.190022,-0.838213,-0.236933,-1.12503,0.232579,-0.179554,0,0,0,0,0,0,0,0.167599,-0.230795,0.227921,-1.90073,-0.12961,1.53032,1.23757,-0.60709,0.0726397,-0.596284,-0.222151,-0.712455,0.0343644,-0.0552154,-2.22607,-24.3382,-4.58525,26.828,-1.29944,2.50298,-0.331314,0.855552,-0.844963,-0.032342,0.176105,0.470133,-0.182738,-0.162417,0.200252,-0.178855,-0.0555921,-0.462254,0.027978,-0.287624,
0.159194,-0.226399,0.219816,-1.90386,-0.139137,-0.0418565,0.443433,-0.806693,0.200854,-0.784287,-0.308254,-1.01442,0.0892035,-0.240805,0,0,0,0,0,0,0,0.148151,-0.227754,0.208876,-1.90733,-0.154223,1.53328,1.23531,-0.634668,0.110456,-0.610023,-0.18877,-0.790948,0.155636,-0.085455,-2.63073,-26.06,-4.83519,26.6296,-0.988163,2.15142,-0.278213,1.41563,-1.40198,-0.652195,0.496915,1.15683,-0.537576,-0.506585,0.674871,-0.580754,-0.373104,-0.408171,-0.0293697,-0.290531,
0.114444,-0.220923,0.176183,-1.91851,-0.194975,-0.0263044,0.440073,-0.819461,0.183131,-0.808967,-0.264659,-1.04486,0.3198,-0.206258,0,0,0,0,0,0,0,0.148151,-0.227754,0.208876,-1.90733,-0.154223,1.53328,1.23531,-0.634668,0.110456,-0.610023,-0.18877,-0.790948,0.155636,-0.085455,-2.63073,-26.06,-4.83519,26.6296,-0.988163,2.15142,-0.278213,1.41563,-1.40198,-0.652195,0.496915,1.15683,-0.537576,-0.506585,0.674871,-0.580754,-0.373104,-0.408171,-0.0293697,-0.290531,
0.111175,-0.220184,0.1729,-1.91958,-0.199232,-0.024848,0.439254,-0.817283,0.184648,-0.820855,-0.267454,-1.06418,0.364109,-0.204588,0,0,0,0,0,0,0,0.148151,-0.227754,0.208876,-1.90733,-0.154223,1.53328,1.23531,-0.634668,0.110456,-0.610023,-0.18877,-0.790948,0.155636,-0.085455,-2.63073,-26.06,-4.83519,26.6296,-0.988163,2.15142,-0.278213,-1.11871,0.168628,-1.39107,-0.563096,-0.0947606,0.590156,0.598993,0.347498,0.670101,-0.714782,-0.214346,-0.158573,-0.297453,
0.107926,-0.21944,0.169572,-1.92065,-0.203564,-0.0232216,0.438438,-0.812171,0.186055,-0.831839,-0.268326,-1.08295,0.406591,-0.20397,0,0,0,0,0,0,0,0.148151,-0.227754,0.208876,-1.90733,-0.154223,1.53328,1.23531,-0.634668,0.110456,-0.610023,-0.18877,-0.790948,0.155636,-0.085455,-2.63073,-26.06,-4.83519,26.6296,-0.988163,2.15142,-0.278213,-1.83457,-0.69705,-1.44999,-0.0669331,-0.46937,0.294248,0.305305,0.181514,0.337591,-0.840678,-0.27883,-0.292064,-0.296189,
0.104711,-0.21869,0.166204,-1.92172,-0.207969,-0.0214538,0.437619,-0.80388,0.187436,-0.842118,-0.266804,-1.10126,0.441967,-0.204754,0,0,0,0,0,0,0,0.148151,-0.227754,0.208876,-1.90733,-0.154223,1.53328,1.23531,-0.634668,0.110456,-0.610023,-0.18877,-0.790948,0.155636,-0.085455,-2.63073,-26.06,-4.83519,26.6296,-0.988163,2.15142,-0.278213,-1.83457,-0.69705,-1.44999,-0.0669331,-0.46937,0.294248,0.305305,0.181514,0.337591,-0.840678,-0.27883,-0.292064,-0.296189,
0.101544,-0.217933,0.162795,-1.92277,-0.212446,-0.0195929,0.436794,-0.791739,0.189253,-0.852073,-0.261916,-1.11945,0.465208,-0.206435,0,0,0,0,0,0,0,0.148151,-0.227754,0.208876,-1.90733,-0.154223,1.53328,1.23531,-0.634668,0.110456,-0.610023,-0.18877,-0.790948,0.155636,-0.085455,-2.63073,-26.06,-4.83519,26.6296,-0.988163,2.15142,-0.278213,-1.48453,-0.288414,-2.1391,-0.43194,0.170675,0.393484,0.412933,0.729006,0.461985,-1.24365,-0.23993,-0.4048,-0.29798,
0.0984511,-0.217155,0.159348,-1.92375,-0.217004,-0.0178163,0.436025,-0.773197,0.194591,-0.861958,-0.245728,-1.13947,0.444161,-0.192057,0,0,0,0,0,0,0,0.128773,-0.223731,0.188903,-1.91251,-0.179429,1.54038,1.23265,-0.628839,0.127704,-0.643334,-0.171952,-0.821068,0.31188,-0.0890099,-4.30493,-25.9093,-5.75957,25.1855,-1.00006,1.99853,-0.278213,-1.48453,-0.288414,-2.1391,-0.43194,0.170675,0.393484,0.412933,0.729006,0.461985,-1.24365,-0.23993,-0.4048,-0.29798,
0.111156,-0.219275,0.172963,-1.92071,-0.199286,-0.0238466,0.437203,-0.830202,0.212976,-0.813343,-0.298575,-1.05926,0.417716,-0.244673,0,0,0,0,0,0,0,0.128773,-0.223731,0.188903,-1.91251,-0.179429,1.54038,1.23265,-0.628839,0.127704,-0.643334,-0.171952,-0.821068,0.31188,-0.0890099,-4.30493,-25.9093,-5.75957,25.1855,-1.00006,1.99853,-0.278213,-1.67366,-1.73533,-2.39069,0.419483,0.157359,-0.255923,-0.2611,0.728968,-0.231728,-1.39892,-0.348494,-0.478004,-0.296023,
0.0924241,-0.216182,0.152102,-1.92426,-0.225059,-0.00293435,0.436301,-0.766344,0.179882,-0.837108,-0.240048,-1.0793,0.629546,-0.213254,0,0,0,0,0,0,0,0.128773,-0.223731,0.188903,-1.91251,-0.179429,1.54038,1.23265,-0.628839,0.127704,-0.643334,-0.171952,-0.821068,0.31188,-0.0890099,-4.30493,-25.9093,-5.75957,25.1855,-1.00006,1.99853,-0.278213,-3.02742,-0.181304,-1.93163,-0.499567,-0.951924,0.65061,0.647459,0.121101,0.7557,-1.12854,-0.294093,-0.407861,-0.296823,
0.0893928,-0.215463,0.148721,-1.92521,-0.229447,-0.000408606,0.435445,-0.757823,0.179853,-0.845412,-0.238274,-1.0971,0.631435,-0.213875,0,0,0,0,0,0,0,0.128773,-0.223731,0.188903,-1.91251,-0.179429,1.54038,1.23265,-0.628839,0.127704,-0.643334,-0.171952,-0.821068,0.31188,-0.0890099,-4.30493,-25.9093,-5.75957,25.1855,-1.00006,1.99853,-0.278213,-3.02742,-0.181304,-1.93163,-0.499567,-0.951924,0.65061,0.647459,0.121101,0.7557,-1.12854,-0.294093,-0.407861,-0.296823,
0.0863857,-0.214743,0.145335,-1.92615,-0.23391,0.0021169,0.434584,-0.751793,0.179949,-0.84638,-0.235171,-1.11563,0.631376,-0.215222,0,0,0,0,0,0,0,0.128773,-0.223731,0.188903,-1.91251,-0.179429,1.54038,1.23265,-0.628839,0.127704,-0.643334,-0.171952,-0.821068,0.31188,-0.0890099,-4.30493,-25.9093,-5.75957,25.1855,-1.00006,1.99853,-0.278213,-1.71876,-0.937163,-2.29653,-0.122696,0.0461737,0.113836,0.143865,0.663733,0.162023,-1.30057,-0.421069,-0.400176,-0.293725,
0.0834076,-0.214012,0.141975,-1.92705,-0.238462,0.00455485,0.433779,-0.744508,0.182902,-0.840049,-0.224604,-1.13798,0.609489,-0.201444,0,0,0,0,0,0,0,0.10802,-0.21924,0.167175,-1.91835,-0.205776,1.55385,1.22985,-0.646195,0.138242,-0.679738,-0.190037,-0.821379,0.46386,-0.0911132,-2.24987,-26.31,-3.91081,25.011,-0.951542,1.98571,-0.270889,-1.71876,-0.937163,-2.29653,-0.122696,0.0461737,0.113836,0.143865,0.663733,0.162023,-1.30057,-0.421069,-0.400176,-0.293725,
0.080452,-0.213283,0.13864,-1.92793,-0.24308,0.00695345,0.432987,-0.738915,0.182246,-0.833755,-0.220578,-1.15468,0.59965,-0.198008,0,0,0,0,0,0,0,0.10802,-0.21924,0.167175,-1.91835,-0.205776,1.55385,1.22985,-0.646195,0.138242,-0.679738,-0.190037,-0.821379,0.46386,-0.0911132,-2.24987,-26.31,-3.91081,25.011,-0.951542,1.98571,-0.270889,-0.960579,-2.19045,-2.90895,0.549857,0.78504,-0.571799,-0.534946,1.11946,-0.579134,-1.57908,-0.54993,-0.42834,-0.288581,
0.0775178,-0.212562,0.135329,-1.92881,-0.247751,0.00934228,0.432205,-0.733547,0.180195,-0.827806,-0.219081,-1.16772,0.597206,-0.195437,0,0,0,0,0,0,0,0.10802,-0.21924,0.167175,-1.91835,-0.205776,1.55385,1.22985,-0.646195,0.138242,-0.679738,-0.190037,-0.821379,0.46386,-0.0911132,-2.24987,-26.31,-3.91081,25.011,-0.951542,1.98571,-0.270889,-1.10908,-2.60054,-2.59557,0.79742,0.486234,-0.74132,-0.710727,0.859839,-0.75658,-1.39049,-0.65194,-0.370421,-0.28407,
0.0914411,-0.215265,0.152543,-1.9251,-0.224771,-0.00465834,0.43432,-0.830627,0.207061,-0.816258,-0.265606,-1.05528,0.601298,-0.252058,0,0,0,0,0,0,0,0.10802,-0.21924,0.167175,-1.91835,-0.205776,1.55385,1.22985,-0.646195,0.138242,-0.679738,-0.190037,-0.821379,0.46386,-0.0911132,-2.24987,-26.31,-3.91081,25.011,-0.951542,1.98571,-0.270889,-1.10908,-2.60054,-2.59557,0.79742,0.486234,-0.74132,-0.710727,0.859839,-0.75658,-1.39049,-0.65194,-0.370421,-0.28407,
0.0729507,-0.211497,0.129507,-1.92946,-0.252547,0.0125223,0.433214,-0.731922,0.174787,-0.826429,-0.228288,-1.1022,0.679122,-0.223707,0,0,0,0,0,0,0,0.10802,-0.21924,0.167175,-1.91835,-0.205776,1.55385,1.22985,-0.646195,0.138242,-0.679738,-0.190037,-0.821379,0.46386,-0.0911132,-2.24987,-26.31,-3.91081,25.011,-0.951542,1.98571,-0.270889,-0.666657,-0.941433,-2.59756,-0.240105,0.69503,0.000965935,0.0166509,0.963696,0.0848148,-1.26346,-0.613055,-0.203118,-0.28169,
0.0700427,-0.210797,0.126225,-1.93036,-0.257041,0.0152393,0.432312,-0.727019,0.174963,-0.820454,-0.224659,-1.12341,0.679256,-0.225609,0,0,0,0,0,0,0,0.10802,-0.21924,0.167175,-1.91835,-0.205776,1.55385,1.22985,-0.646195,0.138242,-0.679738,-0.190037,-0.821379,0.46386,-0.0911132,-2.24987,-26.31,-3.91081,25.011,-0.951542,1.98571,-0.270889,-0.666657,-0.941433,-2.59756,-0.240105,0.69503,0.000965935,0.0166509,0.963696,0.0848148,-1.26346,-0.613055,-0.203118,-0.28169,
0.0671681,-0.210092,0.122977,-1.93123,-0.261625,0.0179378,0.431466,-0.718639,0.176218,-0.811908,-0.218177,-1.14593,0.674632,-0.211525,0,0,0,0,0,0,0,0.0883548,-0.21449,0.144993,-1.92375,-0.231053,1.57052,1.22687,-0.617682,0.159075,-0.756801,-0.17223,-0.830893,0.557896,-0.0917023,-0.908932,-27.032,-2.16124,26.5027,-1.28754,2.39037,-0.217789,0.0949834,-0.576396,-1.81553,-0.390768,0.778554,0.094443,0.105159,0.792944,0.19091,-0.834907,-0.639736,-0.0569362,-0.275979,
0.0643156,-0.209392,0.119759,-1.93209,-0.266224,0.0206374,0.430633,-0.713134,0.17507,-0.80467,-0.214884,-1.14985,0.674877,-0.208214,0,0,0,0,0,0,0,0.0883548,-0.21449,0.144993,-1.92375,-0.231053,1.57052,1.22687,-0.617682,0.159075,-0.756801,-0.17223,-0.830893,0.557896,-0.0917023,-0.908932,-27.032,-2.16124,26.5027,-1.28754,2.39037,-0.217789,0.885873,-0.901644,-1.86413,-0.218621,1.26974,-0.123859,-0.107087,1.01197,-0.0444794,-0.809779,-0.709137,0.00247741,-0.274379,
0.0614776,-0.2087,0.116562,-1.93293,-0.270744,0.0233225,0.42981,-0.7095,0.17303,-0.799173,-0.211352,-1.12999,0.671279,-0.205855,0,0,0,0,0,0,0,0.0883548,-0.21449,0.144993,-1.92375,-0.231053,1.57052,1.22687,-0.617682,0.159075,-0.756801,-0.17223,-0.830893,0.557896,-0.0917023,-0.908932,-27.032,-2.16124,26.5027,-1.28754,2.39037,-0.217789,0.885873,-0.901644,-1.86413,-0.218621,1.26974,-0.123859,-0.107087,1.01197,-0.0444794,-0.809779,-0.709137,0.00247741,-0.274379,
0.0586518,-0.208018,0.113383,-1.93376,-0.275116,0.0259742,0.428995,-0.70644,0.170453,-0.794844,-0.207419,-1.0929,0.662931,-0.203608,0,0,0,0,0,0,0,0.0883548,-0.21449,0.144993,-1.92375,-0.231053,1.57052,1.22687,-0.617682,0.159075,-0.756801,-0.17223,-0.830893,0.557896,-0.0917023,-0.908932,-27.032,-2.16124,26.5027,-1.28754,2.39037,-0.217789,1.22925,-1.84509,-1.91741,0.399206,1.4875,-0.597223,-0.574269,1.09106,-0.576824,-0.80145,-0.740386,0.0236792,-0.270883,
0.0707628,-0.210824,0.129992,-1.93038,-0.251705,0.0128051,0.431308,-0.788378,0.196814,-0.84095,-0.253642,-1.07583,0.70215,-0.260786,0,0,0,0,0,0,0,0.0883548,-0.21449,0.144993,-1.92375,-0.231053,1.57052,1.22687,-0.617682,0.159075,-0.756801,-0.17223,-0.830893,0.557896,-0.0917023,-0.908932,-27.032,-2.16124,26.5027,-1.28754,2.39037,-0.217789,1.22925,-1.84509,-1.91741,0.399206,1.4875,-0.597223,-0.574269,1.09106,-0.576824,-0.80145,-0.740386,0.0236792,-0.270883,
0.0544307,-0.206857,0.107007,-1.93419,-0.276583,0.0325223,0.429965,-0.718139,0.159821,-0.805963,-0.205358,-0.851298,0.637115,-0.230744,0,0,0,0,0,0,0,0.0618786,-0.207371,0.115297,-1.93033,-0.265543,1.59423,1.22263,-0.626486,0.189225,-0.722385,-0.141945,-0.864193,0.604368,-0.0952166,-0.857357,-29.1307,-1.78832,26.705,-0.8783,1.82641,-0.190323,-0.190101,-0.878671,-1.00243,-0.0876139,0.152237,-0.00884662,0.0247945,0.239856,0.0354577,-0.372451,-0.667684,0.0777984,-0.270404,
0.0515688,-0.206226,0.103799,-1.935,-0.279715,0.0349811,0.429034,-0.715484,0.157673,-0.802068,-0.201365,-0.783089,0.614711,-0.232705,0,0,0,0,0,0,0,0.0618786,-0.207371,0.115297,-1.93033,-0.265543,1.59423,1.22263,-0.626486,0.189225,-0.722385,-0.141945,-0.864193,0.604368,-0.0952166,-0.857357,-29.1307,-1.78832,26.705,-0.8783,1.82641,-0.190323,-0.190101,-0.878671,-1.00243,-0.0876139,0.152237,-0.00884662,0.0247945,0.239856,0.0354577,-0.372451,-0.667684,0.0777984,-0.270404,
0.0487352,-0.205597,0.100618,-1.93578,-0.282608,0.0373323,0.428157,-0.708388,0.157211,-0.795208,-0.194417,-0.723107,0.587788,-0.219371,0,0,0,0,0,0,0,0.0618786,-0.207371,0.115297,-1.93033,-0.265543,1.59423,1.22263,-0.626486,0.189225,-0.722385,-0.141945,-0.864193,0.604368,-0.0952166,-0.857357,-29.1307,-1.78832,26.705,-0.8783,1.82641,-0.190323,-0.444223,-0.484475,-0.883119,-0.295617,0.050052,0.162424,0.199441,0.223946,0.215551,-0.417442,-0.605232,-0.0138808,-0.271303,
0.045927,-0.204978,0.0974647,-1.93654,-0.28526,0.0395958,0.427293,-0.702066,0.154913,-0.788403,-0.190893,-0.662954,0.565887,-0.215985,0,0,0,0,0,0,0,0.0618786,-0.207371,0.115297,-1.93033,-0.265543,1.59423,1.22263,-0.626486,0.189225,-0.722385,-0.141945,-0.864193,0.604368,-0.0952166,-0.857357,-29.1307,-1.78832,26.705,-0.8783,1.82641,-0.190323,-0.935492,-2.00977,-1.09481,0.655491,-0.0871712,-0.576832,-0.539949,0.225805,-0.598932,-0.611819,-0.641885,-0.165505,-0.268853,
0.0431435,-0.20437,0.0943376,-1.93729,-0.287673,0.041785,0.426439,-0.695871,0.151873,-0.781783,-0.188841,-0.60328,0.547287,-0.213431,0,0,0,0,0,0,0,0.0618786,-0.207371,0.115297,-1.93033,-0.265543,1.59423,1.22263,-0.626486,0.189225,-0.722385,-0.141945,-0.864193,0.604368,-0.0952166,-0.857357,-29.1307,-1.78832,26.705,-0.8783,1.82641,-0.190323,-0.935492,-2.00977,-1.09481,0.655491,-0.0871712,-0.576832,-0.539949,0.225805,-0.598932,-0.611819,-0.641885,-0.165505,-0.268853,
0.0521889,-0.20613,0.106802,-1.93492,-0.27781,0.0327642,0.428138,-0.75177,0.184985,-0.845728,-0.22759,-1.04954,0.656507,-0.265971,0,0,0,0,0,0,0,0.0618786,-0.207371,0.115297,-1.93033,-0.265543,1.59423,1.22263,-0.626486,0.189225,-0.722385,-0.141945,-0.864193,0.604368,-0.0952166,-0.857357,-29.1307,-1.78832,26.705,-0.8783,1.82641,-0.190323,-2.17976,-1.47029,-1.03046,0.402242,-0.847712,-0.269249,-0.246876,-0.117175,-0.266957,-0.644071,-0.530307,-0.231802,-0.27289,
0.0288369,-0.199958,0.0781282,-1.93997,-0.295377,0.0531963,0.425401,-0.693233,0.143581,-0.77853,-0.203594,-0.33336,0.633565,-0.239343,0,0,0,0,0,0,0,0.0411856,-0.201142,0.0921,-1.93472,-0.290906,1.61499,1.21948,-0.64677,0.202708,-0.733245,-0.12141,-0.695071,0.675799,-0.1011,0.94379,-30.1543,0.0644055,27.1771,0.354916,1.91247,-0.197647,-2.17976,-1.47029,-1.03046,0.402242,-0.847712,-0.269249,-0.246876,-0.117175,-0.266957,-0.644071,-0.530307,-0.231802,-0.27289,
0.0260865,-0.19939,0.0750407,-1.94078,-0.296474,0.0557637,0.424431,-0.687603,0.14199,-0.771867,-0.200925,-0.274434,0.641836,-0.242303,0,0,0,0,0,0,0,0.0411856,-0.201142,0.0921,-1.93472,-0.290906,1.61499,1.21948,-0.64677,0.202708,-0.733245,-0.12141,-0.695071,0.675799,-0.1011,0.94379,-30.1543,0.0644055,27.1771,0.354916,1.91247,-0.197647,-1.15355,-0.91832,-1.80408,0.179202,0.286753,-0.115553,-0.0821142,0.675935,-0.124142,-1.05708,-0.340109,-0.30834,-0.274222,
0.0233752,-0.198824,0.0719915,-1.94156,-0.297384,0.0583231,0.423519,-0.677836,0.141528,-0.762296,-0.195199,-0.227303,0.639869,-0.228053,0,0,0,0,0,0,0,0.0411856,-0.201142,0.0921,-1.93472,-0.290906,1.61499,1.21948,-0.64677,0.202708,-0.733245,-0.12141,-0.695071,0.675799,-0.1011,0.94379,-30.1543,0.0644055,27.1771,0.354916,1.91247,-0.197647,-1.08902,0.496197,-1.83227,-0.591266,0.413443,0.544227,0.591405,0.789873,0.569223,-1.10947,-0.177925,-0.315379,-0.277294,
0.0206994,-0.198265,0.06898,-1.94232,-0.298114,0.0608734,0.42262,-0.668956,0.139772,-0.752871,-0.191498,-0.182594,0.637572,-0.224714,0,0,0,0,0,0,0,0.0411856,-0.201142,0.0921,-1.93472,-0.290906,1.61499,1.21948,-0.64677,0.202708,-0.733245,-0.12141,-0.695071,0.675799,-0.1011,0.94379,-30.1543,0.0644055,27.1771,0.354916,1.91247,-0.197647,-1.08902,0.496197,-1.83227,-0.591266,0.413443,0.544227,0.591405,0.789873,0.569223,-1.10947,-0.177925,-0.315379,-0.277294,
0.0180574,-0.197715,0.0660047,-1.94308,-0.298673,0.0634138,0.421731,-0.660477,0.137355,-0.743833,-0.188849,-0.139813,0.635097,-0.222287,0,0,0,0,0,0,0,0.0411856,-0.201142,0.0921,-1.93472,-0.290906,1.61499,1.21948,-0.64677,0.202708,-0.733245,-0.12141,-0.695071,0.675799,-0.1011,0.94379,-30.1543,0.0644055,27.1771,0.354916,1.91247,-0.197647,-1.53359,-1.5404,-1.5088,0.722468,0.0317214,-0.477393,-0.418213,0.539334,-0.564991,-1.03939,-0.238122,-0.428675,-0.273417,
0.0154483,-0.197177,0.0630644,-1.94383,-0.299066,0.0659406,0.420851,-0.652277,0.134633,-0.735084,-0.186577,-0.0983337,0.631689,-0.220087,0,0,0,0,0,0,0,0.0205345,-0.195148,0.0684625,-1.93834,-0.309312,1.63715,1.21554,-0.643108,0.192791,-0.72489,-0.11215,-0.421741,0.719391,-0.148928,1.2215,-30.428,0.611891,25.8322,0.685421,1.31554,-0.183914,-1.53359,-1.5404,-1.5088,0.722468,0.0317214,-0.477393,-0.418213,0.539334,-0.564991,-1.03939,-0.238122,-0.428675,-0.273417,
0.0272813,-0.199383,0.0768917,-1.94071,-0.303134,0.0547715,0.423668,-0.742997,0.16174,-0.832812,-0.220853,-0.512729,0.687642,-0.272914,0,0,0,0,0,0,0,0.0205345,-0.195148,0.0684625,-1.93834,-0.309312,1.63715,1.21554,-0.643108,0.192791,-0.72489,-0.11215,-0.421741,0.719391,-0.148928,1.2215,-30.428,0.611891,25.8322,0.685421,1.31554,-0.183914,-2.01153,-1.78152,-1.77958,0.985151,-0.0421624,-0.635466,-0.57704,0.623525,-0.753882,-1.26402,-0.123421,-0.558634,-0.272319,
-0.0111983,-0.188345,0.0326515,-1.94727,-0.31415,0.101785,0.417959,-0.639909,0.128241,-0.724322,-0.179527,0.105492,0.623672,-0.246126,0,0,0,0,0,0,0,0.0205345,-0.195148,0.0684625,-1.93834,-0.309312,1.63715,1.21554,-0.643108,0.192791,-0.72489,-0.11215,-0.421741,0.719391,-0.148928,1.2215,-30.428,0.611891,25.8322,0.685421,1.31554,-0.183914,-2.01153,-1.78152,-1.77958,0.985151,-0.0421624,-0.635466,-0.57704,0.623525,-0.753882,-1.26402,-0.123421,-0.558634,-0.272319,
-0.0137221,-0.187842,0.0297959,-1.94798,-0.313656,0.104169,0.416963,-0.630968,0.125653,-0.713894,-0.177386,0.123516,0.595857,-0.24883,0,0,0,0,0,0,0,0.0205345,-0.195148,0.0684625,-1.93834,-0.309312,1.63715,1.21554,-0.643108,0.192791,-0.72489,-0.11215,-0.421741,0.719391,-0.148928,1.2215,-30.428,0.611891,25.8322,0.685421,1.31554,-0.183914,-1.94035,-0.173449,-1.75107,0.188482,0.0354191,0.120672,0.185339,0.682118,0.034095,-1.26892,0.117593,-0.527671,-0.276785,
-0.0162005,-0.187345,0.0269887,-1.94867,-0.313111,0.106435,0.416021,-0.6196,0.124339,-0.701799,-0.172844,0.136036,0.566526,-0.235724,0,0,0,0,0,0,0,0.0205345,-0.195148,0.0684625,-1.93834,-0.309312,1.63715,1.21554,-0.643108,0.192791,-0.72489,-0.11215,-0.421741,0.719391,-0.148928,1.2215,-30.428,0.611891,25.8322,0.685421,1.31554,-0.183914,-1.94035,-0.173449,-1.75107,0.188482,0.0354191,0.120672,0.185339,0.682118,0.034095,-1.26892,0.117593,-0.527671,-0.276785,
-0.0186398,-0.186858,0.024225,-1.94936,-0.312509,0.108611,0.41509,-0.609818,0.121768,-0.690915,-0.170964,0.150607,0.543982,-0.232732,0,0,0,0,0,0,0,-0.000555774,-0.189587,0.0446772,-1.94181,-0.318331,1.66034,1.21145,-0.661217,0.157484,-0.742535,-0.109759,-0.237579,0.710911,-0.116939,0.412174,-29.579,0.187391,25.5069,0.471188,1.76049,-0.230606,-1.01826,1.44635,-2.19004,-0.646928,0.751755,0.913732,0.990359,1.0921,0.85953,-1.35282,0.318322,-0.374333,-0.274215,
-0.0210437,-0.186383,0.0215005,-1.95004,-0.311842,0.110717,0.414167,-0.600982,0.118769,-0.681133,-0.170211,0.166779,0.526572,-0.230612,0,0,0,0,0,0,0,-0.000555774,-0.189587,0.0446772,-1.94181,-0.318331,1.66034,1.21145,-0.661217,0.157484,-0.742535,-0.109759,-0.237579,0.710911,-0.116939,0.412174,-29.579,0.187391,25.5069,0.471188,1.76049,-0.230606,-0.468091,-0.403781,-3.00728,0.483811,1.47738,-0.0164715,0.0399121,1.63686,-0.129853,-1.71179,0.232757,-0.450273,-0.267927,
-0.0234153,-0.18592,0.0188118,-1.95072,-0.311104,0.112773,0.413252,-0.592881,0.115641,-0.672185,-0.170046,0.184516,0.514073,-0.228762,0,0,0,0,0,0,0,-0.000555774,-0.189587,0.0446772,-1.94181,-0.318331,1.66034,1.21145,-0.661217,0.157484,-0.742535,-0.109759,-0.237579,0.710911,-0.116939,0.412174,-29.579,0.187391,25.5069,0.471188,1.76049,-0.230606,-0.468091,-0.403781,-3.00728,0.483811,1.47738,-0.0164715,0.0399121,1.63686,-0.129853,-1.71179,0.232757,-0.450273,-0.267927,
-0.0125339,-0.187886,0.0312095,-1.94749,-0.311716,0.099917,0.41635,-0.678933,0.142449,-0.766861,-0.188483,0.187969,0.578342,-0.277011,0,0,0,0,0,0,0,-0.000555774,-0.189587,0.0446772,-1.94181,-0.318331,1.66034,1.21145,-0.661217,0.157484,-0.742535,-0.109759,-0.237579,0.710911,-0.116939,0.412174,-29.579,0.187391,25.5069,0.471188,1.76049,-0.230606,-0.979059,-0.174957,-2.6306,0.392676,0.983922,0.0858091,0.136484,1.31559,-0.0195151,-1.56445,0.262037,-0.451187,-0.266049,
-0.030886,-0.183934,0.0104884,-1.94958,-0.308826,0.116913,0.413548,-0.589304,0.106606,-0.666279,-0.164467,0.409153,0.472184,-0.258898,0,0,0,0,0,0,0,-0.000555774,-0.189587,0.0446772,-1.94181,-0.318331,1.66034,1.21145,-0.661217,0.157484,-0.742535,-0.109759,-0.237579,0.710911,-0.116939,0.412174,-29.579,0.187391,25.5069,0.471188,1.76049,-0.230606,-0.979059,-0.174957,-2.6306,0.392676,0.983922,0.0858091,0.136484,1.31559,-0.0195151,-1.56445,0.262037,-0.451187,-0.266049,
-0.0331942,-0.18351,0.00787504,-1.95022,-0.307135,0.118707,0.412565,-0.577062,0.105909,-0.653347,-0.160335,0.422647,0.448704,-0.245651,0,0,0,0,0,0,0,-0.000555774,-0.189587,0.0446772,-1.94181,-0.318331,1.66034,1.21145,-0.661217,0.157484,-0.742535,-0.109759,-0.237579,0.710911,-0.116939,0.412174,-29.579,0.187391,25.5069,0.471188,1.76049,-0.230606,-0.23491,0.121711,-2.44614,0.326767,1.29319,0.241701,0.323735,1.37991,0.101799,-1.38998,0.353447,-0.331204,-0.256323,
-0.0354595,-0.183094,0.00530856,-1.95086,-0.305393,0.120427,0.411595,-0.566322,0.104085,-0.641619,-0.158454,0.435429,0.429787,-0.242612,0,0,0,0,0,0,0,-0.0213394,-0.184629,0.0209823,-1.94495,-0.319557,1.68264,1.20763,-0.660493,0.140338,-0.733013,-0.098691,0.0140428,0.64609,-0.126499,2.2887,-30.2535,2.11152,25.7092,0.123287,2.09832,-0.197647,-0.23491,0.121711,-2.44614,0.326767,1.29319,0.241701,0.323735,1.37991,0.101799,-1.38998,0.353447,-0.331204,-0.256323,
-0.0376859,-0.182686,0.00278452,-1.95149,-0.303603,0.122083,0.410633,-0.556591,0.101839,-0.631011,-0.157524,0.447719,0.414171,-0.240416,0,0,0,0,0,0,0,-0.0213394,-0.184629,0.0209823,-1.94495,-0.319557,1.68264,1.20763,-0.660493,0.140338,-0.733013,-0.098691,0.0140428,0.64609,-0.126499,2.2887,-30.2535,2.11152,25.7092,0.123287,2.09832,-0.197647,0.121505,1.37221,-2.69107,-0.318831,1.5415,0.891414,0.97089,1.50513,0.787959,-1.40411,0.490099,-0.201999,-0.25124,
-0.0398767,-0.182289,0.000299265,-1.95212,-0.301763,0.12369,0.409679,-0.547697,0.0994338,-0.621313,-0.157084,0.459931,0.401768,-0.238421,0,0,0,0,0,0,0,-0.0213394,-0.184629,0.0209823,-1.94495,-0.319557,1.68264,1.20763,-0.660493,0.140338,-0.733013,-0.098691,0.0140428,0.64609,-0.126499,2.2887,-30.2535,2.11152,25.7092,0.123287,2.09832,-0.197647,-1.09071,-1.37436,-1.88132,1.25764,0.299284,-0.494581,-0.441341,0.691177,-0.673943,-0.982561,0.280552,-0.193536,-0.237939,
-0.0420347,-0.181901,-0.00215016,-1.95274,-0.299873,0.125262,0.408733,-0.539502,0.0969674,-0.612356,-0.156997,0.472552,0.392998,-0.236643,0,0,0,0,0,0,0,-0.0213394,-0.184629,0.0209823,-1.94495,-0.319557,1.68264,1.20763,-0.660493,0.140338,-0.733013,-0.098691,0.0140428,0.64609,-0.126499,2.2887,-30.2535,2.11152,25.7092,0.123287,2.09832,-0.197647,-1.09071,-1.37436,-1.88132,1.25764,0.299284,-0.494581,-0.441341,0.691177,-0.673943,-0.982561,0.280552,-0.193536,-0.237939,
-0.0321913,-0.183663,0.00906811,-1.94996,-0.304949,0.116718,0.412001,-0.625144,0.116105,-0.705895,-0.176085,0.508723,0.472585,-0.288454,0,0,0,0,0,0,0,-0.0213394,-0.184629,0.0209823,-1.94495,-0.319557,1.68264,1.20763,-0.660493,0.140338,-0.733013,-0.098691,0.0140428,0.64609,-0.126499,2.2887,-30.2535,2.11152,25.7092,0.123287,2.09832,-0.197647,-0.132871,-0.503219,-2.03737,0.7643,1.00736,-0.0543683,-0.00120962,1.07606,-0.199861,-1.06212,0.334823,-0.181407,-0.233286,
-0.0497946,-0.179877,-0.0111226,-1.95214,-0.300144,0.135784,0.409466,-0.534609,0.0878192,-0.60681,-0.154198,0.5167,0.403274,-0.26427,0,0,0,0,0,0,0,-0.0416607,-0.179977,-0.00211188,-1.94786,-0.316489,1.70156,1.20349,-0.614546,0.132739,-0.722916,-0.0941366,0.176075,0.542769,-0.13231,2.97107,-31.0033,3.18666,26.5781,0.226742,2.09191,-0.197647,-0.132871,-0.503219,-2.03737,0.7643,1.00736,-0.0543683,-0.00120962,1.07606,-0.199861,-1.06212,0.334823,-0.181407,-0.233286,
-0.0518822,-0.179527,-0.0134951,-1.95274,-0.298101,0.137311,0.408458,-0.521903,0.0873821,-0.593142,-0.150176,0.51067,0.381684,-0.252107,0,0,0,0,0,0,0,-0.0416607,-0.179977,-0.00211188,-1.94786,-0.316489,1.70156,1.20349,-0.614546,0.132739,-0.722916,-0.0941366,0.176075,0.542769,-0.13231,2.97107,-31.0033,3.18666,26.5781,0.226742,2.09191,-0.197647,0.285575,1.01751,-1.69093,-0.144307,1.10505,0.714215,0.760478,1.0184,0.635863,-0.904364,0.402718,-0.114963,-0.231133,
-0.0539262,-0.179184,-0.0158194,-1.95333,-0.296074,0.13877,0.40746,-0.51099,0.0858304,-0.581077,-0.14835,0.506699,0.364831,-0.249365,0,0,0,0,0,0,0,-0.0416607,-0.179977,-0.00211188,-1.94786,-0.316489,1.70156,1.20349,-0.614546,0.132739,-0.722916,-0.0941366,0.176075,0.542769,-0.13231,2.97107,-31.0033,3.18666,26.5781,0.226742,2.09191,-0.197647,0.285575,1.01751,-1.69093,-0.144307,1.10505,0.714215,0.760478,1.0184,0.635863,-0.904364,0.402718,-0.114963,-0.231133,
-0.0559313,-0.178849,-0.0181011,-1.95392,-0.294058,0.140176,0.406471,-0.501288,0.0838592,-0.570409,-0.147461,0.504164,0.351396,-0.247412,0,0,0,0,0,0,0,-0.0416607,-0.179977,-0.00211188,-1.94786,-0.316489,1.70156,1.20349,-0.614546,0.132739,-0.722916,-0.0941366,0.176075,0.542769,-0.13231,2.97107,-31.0033,3.18666,26.5781,0.226742,2.09191,-0.197647,-0.989991,1.10185,-0.925505,-0.238562,-0.0944496,0.69749,0.7247,0.242027,0.642027,-0.569602,0.381095,-0.0922715,-0.22203,
-0.0579016,-0.178522,-0.0203444,-1.95451,-0.292046,0.141541,0.405488,-0.492563,0.0817322,-0.560844,-0.147079,0.502834,0.341285,-0.245681,0,0,0,0,0,0,0,-0.0416607,-0.179977,-0.00211188,-1.94786,-0.316489,1.70156,1.20349,-0.614546,0.132739,-0.722916,-0.0941366,0.176075,0.542769,-0.13231,2.97107,-31.0033,3.18666,26.5781,0.226742,2.09191,-0.197647,-1.55359,-1.32317,-1.34203,1.18276,-0.159422,-0.586335,-0.571714,0.40309,-0.715635,-0.84988,0.219241,-0.293847,-0.20843,
-0.0509012,-0.17954,-0.0123068,-1.9523,-0.294515,0.134078,0.407989,-0.563397,0.0987236,-0.63854,-0.162362,0.654267,0.362607,-0.292398,0,0,0,0,0,0,0,-0.0416607,-0.179977,-0.00211188,-1.94786,-0.316489,1.70156,1.20349,-0.614546,0.132739,-0.722916,-0.0941366,0.176075,0.542769,-0.13231,2.97107,-31.0033,3.18666,26.5781,0.226742,2.09191,-0.197647,-1.55359,-1.32317,-1.34203,1.18276,-0.159422,-0.586335,-0.571714,0.40309,-0.715635,-0.84988,0.219241,-0.293847,-0.20843,
-0.0678554,-0.175693,-0.031707,-1.95453,-0.294226,0.149389,0.405045,-0.48481,0.0775317,-0.550334,-0.139168,0.579205,0.296669,-0.261136,0,0,0,0,0,0,0,-0.0610703,-0.175673,-0.0244206,-1.9505,-0.308789,1.71696,1.19853,-0.59252,0.125432,-0.666324,-0.071121,0.282772,0.440106,-0.174733,4.01447,-31.4992,4.08723,27.0779,0.422665,2.26403,-0.163772,-0.643797,-0.882691,-1.38701,0.922407,0.485938,-0.346049,-0.317278,0.741405,-0.466913,-0.900448,0.225898,-0.314573,-0.201106,
-0.0697525,-0.175389,-0.0338634,-1.95508,-0.291893,0.150498,0.404012,-0.474278,0.0760647,-0.539091,-0.137043,0.583186,0.277183,-0.258323,0,0,0,0,0,0,0,-0.0610703,-0.175673,-0.0244206,-1.9505,-0.308789,1.71696,1.19853,-0.59252,0.125432,-0.666324,-0.071121,0.282772,0.440106,-0.174733,4.01447,-31.4992,4.08723,27.0779,0.422665,2.26403,-0.163772,-0.643797,-0.882691,-1.38701,0.922407,0.485938,-0.346049,-0.317278,0.741405,-0.466913,-0.900448,0.225898,-0.314573,-0.201106,
-0.071611,-0.175092,-0.0359785,-1.95563,-0.289557,0.151534,0.402987,-0.464624,0.0742752,-0.528767,-0.135674,0.584003,0.258937,-0.256228,0,0,0,0,0,0,0,-0.0610703,-0.175673,-0.0244206,-1.9505,-0.308789,1.71696,1.19853,-0.59252,0.125432,-0.666324,-0.071121,0.282772,0.440106,-0.174733,4.01447,-31.4992,4.08723,27.0779,0.422665,2.26403,-0.163772,-0.0787738,1.00991,-1.30994,-0.178833,0.787539,0.625665,0.647609,0.82318,0.580285,-0.857143,0.332938,-0.242191,-0.193962,
-0.073434,-0.174802,-0.0380554,-1.95616,-0.287227,0.152502,0.40197,-0.455752,0.0723547,-0.519248,-0.134733,0.582525,0.242176,-0.254312,0,0,0,0,0,0,0,-0.0610703,-0.175673,-0.0244206,-1.9505,-0.308789,1.71696,1.19853,-0.59252,0.125432,-0.666324,-0.071121,0.282772,0.440106,-0.174733,4.01447,-31.4992,4.08723,27.0779,0.422665,2.26403,-0.163772,-0.57642,-0.372678,-1.51811,0.625523,0.603867,-0.108641,-0.0905471,0.833322,-0.197519,-0.980646,0.227414,-0.33282,-0.18927,
-0.0752243,-0.174521,-0.0400972,-1.9567,-0.284909,0.153413,0.40096,-0.447575,0.0703774,-0.510433,-0.134138,0.57953,0.227587,-0.252583,0,0,0,0,0,0,0,-0.0610703,-0.175673,-0.0244206,-1.9505,-0.308789,1.71696,1.19853,-0.59252,0.125432,-0.666324,-0.071121,0.282772,0.440106,-0.174733,4.01447,-31.4992,4.08723,27.0779,0.422665,2.26403,-0.163772,-0.57642,-0.372678,-1.51811,0.625523,0.603867,-0.108641,-0.0905471,0.833322,-0.197519,-0.980646,0.227414,-0.33282,-0.18927,
-0.0769843,-0.174247,-0.0421061,-1.95724,-0.282606,0.154277,0.399955,-0.440011,0.0683748,-0.502227,-0.133909,0.575737,0.216134,-0.251113,0,0,0,0,0,0,0,-0.084697,-0.170856,-0.0515098,-1.95354,-0.295015,1.73317,1.19094,-0.531326,0.105632,-0.59772,-0.0675929,0.370213,0.343824,-0.159905,3.25275,-31.1025,3.81349,26.7526,0.294491,2.23107,-0.210464,-1.06896,-2.10102,-1.13484,1.58259,0.123136,-1.01597,-0.997257,0.55244,-1.16036,-0.806607,0.095384,-0.371227,-0.185427,
-0.0689939,-0.175531,-0.0329232,-1.95475,-0.285449,0.148367,0.403621,-0.511835,0.0838787,-0.580513,-0.148307,0.78937,0.273381,-0.288074,0,0,0,0,0,0,0,-0.084697,-0.170856,-0.0515098,-1.95354,-0.295015,1.73317,1.19094,-0.531326,0.105632,-0.59772,-0.0675929,0.370213,0.343824,-0.159905,3.25275,-31.1025,3.81349,26.7526,0.294491,2.23107,-0.210464,-1.06896,-2.10102,-1.13484,1.58259,0.123136,-1.01597,-0.997257,0.55244,-1.16036,-0.806607,0.095384,-0.371227,-0.185427,
-0.107673,-0.167594,-0.0775898,-1.95974,-0.264731,0.175701,0.392256,-0.433788,0.0607465,-0.494789,-0.139849,0.688814,0.267811,-0.266269,0,0,0,0,0,0,0,-0.084697,-0.170856,-0.0515098,-1.95354,-0.295015,1.73317,1.19094,-0.531326,0.105632,-0.59772,-0.0675929,0.370213,0.343824,-0.159905,3.25275,-31.1025,3.81349,26.7526,0.294491,2.23107,-0.210464,-0.81773,-1.87515,-0.958159,1.41766,0.19131,-0.885057,-0.862898,0.533338,-1.01854,-0.713705,0.0799934,-0.342162,-0.185432,
-0.109377,-0.167351,-0.0795352,-1.9603,-0.261963,0.176787,0.391201,-0.425898,0.0606408,-0.486355,-0.138011,0.6922,0.271373,-0.263697,0,0,0,0,0,0,0,-0.084697,-0.170856,-0.0515098,-1.95354,-0.295015,1.73317,1.19094,-0.531326,0.105632,-0.59772,-0.0675929,0.370213,0.343824,-0.159905,3.25275,-31.1025,3.81349,26.7526,0.294491,2.23107,-0.210464,-0.81773,-1.87515,-0.958159,1.41766,0.19131,-0.885057,-0.862898,0.533338,-1.01854,-0.713705,0.0799934,-0.342162,-0.185432,
-0.111049,-0.16711,-0.0814482,-1.96084,-0.259202,0.177868,0.390155,-0.418073,0.0602533,-0.478246,-0.135959,0.690125,0.270388,-0.261616,0,0,0,0,0,0,0,-0.084697,-0.170856,-0.0515098,-1.95354,-0.295015,1.73317,1.19094,-0.531326,0.105632,-0.59772,-0.0675929,0.370213,0.343824,-0.159905,3.25275,-31.1025,3.81349,26.7526,0.294491,2.23107,-0.210464,-0.0423755,0.236908,-1.27988,0.22214,0.79825,0.24539,0.258757,0.837455,0.19322,-0.841719,0.198768,-0.27005,-0.192775,
-0.112691,-0.166872,-0.0833298,-1.96138,-0.256465,0.178935,0.389116,-0.410598,0.0595445,-0.4704,-0.134046,0.684268,0.266707,-0.259709,0,0,0,0,0,0,0,-0.084697,-0.170856,-0.0515098,-1.95354,-0.295015,1.73317,1.19094,-0.531326,0.105632,-0.59772,-0.0675929,0.370213,0.343824,-0.159905,3.25275,-31.1025,3.81349,26.7526,0.294491,2.23107,-0.210464,-0.397013,-0.950379,-1.68691,1.01884,0.71429,-0.363034,-0.348836,0.913444,-0.472411,-0.975983,0.197492,-0.277112,-0.194008,
-0.114305,-0.166638,-0.0851812,-1.96191,-0.253761,0.179982,0.388084,-0.403506,0.0585555,-0.462867,-0.132413,0.67594,0.261756,-0.257981,0,0,0,0,0,0,0,-0.101386,-0.167862,-0.0708123,-1.95555,-0.281944,1.74183,1.18637,-0.50592,0.084996,-0.580253,-0.0565287,0.452251,0.242845,-0.148888,1.30085,-31.0509,1.83778,26.4551,0.465695,2.66869,-0.197647,-0.397013,-0.950379,-1.68691,1.01884,0.71429,-0.363034,-0.348836,0.913444,-0.472411,-0.975983,0.197492,-0.277112,-0.194008,
-0.115892,-0.166409,-0.0870039,-1.96243,-0.251097,0.181009,0.387058,-0.396794,0.0573476,-0.455659,-0.131124,0.666213,0.256747,-0.256485,0,0,0,0,0,0,0,-0.101386,-0.167862,-0.0708123,-1.95555,-0.281944,1.74183,1.18637,-0.50592,0.084996,-0.580253,-0.0565287,0.452251,0.242845,-0.148888,1.30085,-31.0509,1.83778,26.4551,0.465695,2.66869,-0.197647,-0.754594,-1.51657,-1.79667,1.42541,0.462814,-0.661935,-0.651979,0.808685,-0.800211,-0.961348,0.230486,-0.232192,-0.196781,
-0.108301,-0.1676,-0.078225,-1.95976,-0.252994,0.173161,0.391002,-0.444375,0.0616024,-0.506901,-0.144915,0.99572,0.202349,-0.289753,0,0,0,0,0,0,0,-0.101386,-0.167862,-0.0708123,-1.95555,-0.281944,1.74183,1.18637,-0.50592,0.084996,-0.580253,-0.0565287,0.452251,0.242845,-0.148888,1.30085,-31.0509,1.83778,26.4551,0.465695,2.66869,-0.197647,-0.754594,-1.51657,-1.79667,1.42541,0.462814,-0.661935,-0.651979,0.808685,-0.800211,-0.961348,0.230486,-0.232192,-0.196781,
-0.122379,-0.165582,-0.0946775,-1.96114,-0.245925,0.183225,0.387599,-0.380821,0.0448722,-0.437002,-0.118568,0.795439,0.196489,-0.268175,0,0,0,0,0,0,0,-0.101386,-0.167862,-0.0708123,-1.95555,-0.281944,1.74183,1.18637,-0.50592,0.084996,-0.580253,-0.0565287,0.452251,0.242845,-0.148888,1.30085,-31.0509,1.83778,26.4551,0.465695,2.66869,-0.197647,-1.27338,-2.47878,-1.91482,2.02509,0.131036,-1.17759,-1.15131,0.686375,-1.37128,-0.95585,0.201611,-0.209135,-0.197913,
-0.123867,-0.165404,-0.0963876,-1.9616,-0.242754,0.183943,0.386536,-0.372069,0.0445138,-0.427532,-0.116388,0.792705,0.179439,-0.265814,0,0,0,0,0,0,0,-0.101386,-0.167862,-0.0708123,-1.95555,-0.281944,1.74183,1.18637,-0.50592,0.084996,-0.580253,-0.0565287,0.452251,0.242845,-0.148888,1.30085,-31.0509,1.83778,26.4551,0.465695,2.66869,-0.197647,-0.763779,0.10659,-1.72141,0.541588,0.279669,0.16447,0.19728,0.597661,0.0491245,-0.841613,0.375437,-0.0853859,-0.198335,
-0.125322,-0.165229,-0.0980626,-1.96206,-0.239615,0.184592,0.38548,-0.36373,0.0437293,-0.418759,-0.114922,0.784893,0.162352,-0.263874,0,0,0,0,0,0,0,-0.117222,-0.165351,-0.0886467,-1.95758,-0.266615,1.74907,1.18081,-0.481251,0.0732188,-0.559575,-0.0625063,0.504603,0.186921,-0.173784,2.76874,-30.5034,3.13905,26.7526,0.971981,2.42333,-0.197647,-0.763779,0.10659,-1.72141,0.541588,0.279669,0.16447,0.19728,0.597661,0.0491245,-0.841613,0.375437,-0.0853859,-0.198335,
-0.126746,-0.165058,-0.0997048,-1.96252,-0.236521,0.185175,0.384432,-0.355969,0.042719,-0.410538,-0.113885,0.773475,0.145739,-0.262095,0,0,0,0,0,0,0,-0.117222,-0.165351,-0.0886467,-1.95758,-0.266615,1.74907,1.18081,-0.481251,0.0732188,-0.559575,-0.0625063,0.504603,0.186921,-0.173784,2.76874,-30.5034,3.13905,26.7526,0.971981,2.42333,-0.197647,-0.52495,-1.06705,-2.01652,1.30745,0.550649,-0.392067,-0.354662,0.836151,-0.560109,-0.938943,0.358453,-0.102799,-0.195647,
-0.128141,-0.164892,-0.101316,-1.96297,-0.233482,0.185697,0.38339,-0.348768,0.0415763,-0.402846,-0.113207,0.759599,0.130452,-0.260486,0,0,0,0,0,0,0,-0.117222,-0.165351,-0.0886467,-1.95758,-0.266615,1.74907,1.18081,-0.481251,0.0732188,-0.559575,-0.0625063,0.504603,0.186921,-0.173784,2.76874,-30.5034,3.13905,26.7526,0.971981,2.42333,-0.197647,-0.52495,-1.06705,-2.01652,1.30745,0.550649,-0.392067,-0.354662,0.836151,-0.560109,-0.938943,0.358453,-0.102799,-0.195647,
-0.129509,-0.164731,-0.102899,-1.96342,-0.230506,0.186168,0.382353,-0.342086,0.0403525,-0.395646,-0.112915,0.744204,0.117592,-0.259101,0,0,0,0,0,0,0,-0.117222,-0.165351,-0.0886467,-1.95758,-0.266615,1.74907,1.18081,-0.481251,0.0732188,-0.559575,-0.0625063,0.504603,0.186921,-0.173784,2.76874,-30.5034,3.13905,26.7526,0.971981,2.42333,-0.197647,-0.035686,-0.953937,-2.22418,1.35335,0.877996,-0.273514,-0.23924,1.01427,-0.449062,-0.970133,0.453481,-0.0443121,-0.192441,
-0.122518,-0.16572,-0.0947542,-1.96093,-0.24541,0.144004,0.413638,-0.411952,0.0379634,-0.465729,-0.19824,0.916986,-0.289836,-0.279403,0,0,0,0,0,0,0,-0.117222,-0.165351,-0.0886467,-1.95758,-0.266615,1.74907,1.18081,-0.481251,0.0732188,-0.559575,-0.0625063,0.504603,0.186921,-0.173784,2.76874,-30.5034,3.13905,26.7526,0.971981,2.42333,-0.197647,-0.035686,-0.953937,-2.22418,1.35335,0.877996,-0.273514,-0.23924,1.01427,-0.449062,-0.970133,0.453481,-0.0443121,-0.192441,
-0.136328,-0.163353,-0.110441,-1.96321,-0.228722,0.194616,0.38204,-0.333939,0.0362078,-0.385467,-0.119967,0.804445,0.384927,-0.267414,0,0,0,0,0,0,0,-0.131876,-0.163389,-0.105629,-1.95924,-0.249385,1.75294,1.17484,-0.439334,0.0541389,-0.518235,-0.0478841,0.527634,0.0688478,-0.195277,2.92347,-30.7771,3.68654,26.951,0.800778,2.6751,-0.190323,0.147504,0.109949,-2.04303,0.736707,0.793548,0.289852,0.322921,0.839404,0.148122,-0.80899,0.539996,0.0811726,-0.190952,
-0.13763,-0.163208,-0.111946,-1.96368,-0.22553,0.196181,0.380979,-0.325422,0.0361761,-0.376152,-0.117579,0.798117,0.391206,-0.265319,0,0,0,0,0,0,0,-0.131876,-0.163389,-0.105629,-1.95924,-0.249385,1.75294,1.17484,-0.439334,0.0541389,-0.518235,-0.0478841,0.527634,0.0688478,-0.195277,2.92347,-30.7771,3.68654,26.951,0.800778,2.6751,-0.190323,0.252006,-0.186876,-2.22394,0.954884,0.943021,0.152207,0.178093,0.972104,0.00314065,-0.890643,0.541626,0.0597224,-0.188892,
-0.138902,-0.163064,-0.113417,-1.96414,-0.22235,0.197743,0.379924,-0.317913,0.0359759,-0.367884,-0.114562,0.794939,0.390659,-0.263764,0,0,0,0,0,0,0,-0.131876,-0.163389,-0.105629,-1.95924,-0.249385,1.75294,1.17484,-0.439334,0.0541389,-0.518235,-0.0478841,0.527634,0.0688478,-0.195277,2.92347,-30.7771,3.68654,26.951,0.800778,2.6751,-0.190323,0.252006,-0.186876,-2.22394,0.954884,0.943021,0.152207,0.178093,0.972104,0.00314065,-0.890643,0.541626,0.0597224,-0.188892,
-0.140143,-0.162923,-0.114857,-1.96458,-0.219208,0.199284,0.378876,-0.31035,0.0354172,-0.360066,-0.111692,0.785491,0.385208,-0.262075,0,0,0,0,0,0,0,-0.131876,-0.163389,-0.105629,-1.95924,-0.249385,1.75294,1.17484,-0.439334,0.0541389,-0.518235,-0.0478841,0.527634,0.0688478,-0.195277,2.92347,-30.7771,3.68654,26.951,0.800778,2.6751,-0.190323,0.57284,0.527121,-2.56536,0.613127,1.33117,0.531397,0.552953,1.24,0.405808,-1.09653,0.590886,0.00727543,-0.184832,
-0.141356,-0.162784,-0.116267,-1.96502,-0.216122,0.200791,0.377834,-0.303144,0.0345465,-0.352529,-0.109179,0.771531,0.376714,-0.260525,0,0,0,0,0,0,0,-0.131876,-0.163389,-0.105629,-1.95924,-0.249385,1.75294,1.17484,-0.439334,0.0541389,-0.518235,-0.0478841,0.527634,0.0688478,-0.195277,2.92347,-30.7771,3.68654,26.951,0.800778,2.6751,-0.190323,0.57284,0.527121,-2.56536,0.613127,1.33117,0.531397,0.552953,1.24,0.405808,-1.09653,0.590886,0.00727543,-0.184832,
-0.142541,-0.162651,-0.117649,-1.96545,-0.213105,0.202258,0.376797,-0.296335,0.0334415,-0.345319,-0.107112,0.754365,0.366733,-0.259164,0,0,0,0,0,0,0,-0.131876,-0.163389,-0.105629,-1.95924,-0.249385,1.75294,1.17484,-0.439334,0.0541389,-0.518235,-0.0478841,0.527634,0.0688478,-0.195277,2.92347,-30.7771,3.68654,26.951,0.800778,2.6751,-0.190323,-1.06915,-0.0520101,-2.44248,0.85069,0.271949,0.0195582,0.0494798,0.742357,-0.124974,-1.08069,0.463758,-0.0515048,-0.18273,
-0.136532,-0.163141,-0.111016,-1.9644,-0.233691,0.195933,0.382031,-0.343477,0.046216,-0.391851,-0.15502,1.02076,0.799413,-1.19968,0,0,0,0,0,0,0,-0.145631,-0.161982,-0.121546,-1.96079,-0.231836,1.75453,1.17021,-0.399537,0.0502942,-0.484838,-0.0521354,0.561429,0.0882159,-0.134366,3.45508,-30.5788,4.16261,27.5262,0.923458,3.55034,-0.163772,-1.06915,-0.0520101,-2.44248,0.85069,0.271949,0.0195582,0.0494798,0.742357,-0.124974,-1.08069,0.463758,-0.0515048,-0.18273,
-0.162684,-0.160598,-0.141184,-1.96654,-0.189188,0.202827,0.355889,-0.260311,0.0198935,-0.306329,-0.0885197,0.703544,0.192927,-0.255333,0,0,0,0,0,0,0,-0.145631,-0.161982,-0.121546,-1.96079,-0.231836,1.75453,1.17021,-0.399537,0.0502942,-0.484838,-0.0521354,0.561429,0.0882159,-0.134366,3.45508,-30.5788,4.16261,27.5262,0.923458,3.55034,-0.163772,-1.05824,-0.45797,-2.45332,1.04833,0.220698,-0.167752,-0.128456,0.70044,-0.329087,-1.00625,0.408116,0.0125592,-0.181056,
-0.163704,-0.160523,-0.142385,-1.96689,-0.186445,0.203495,0.354872,-0.255008,0.018753,-0.300284,-0.087451,0.685808,0.167091,-0.254069,0,0,0,0,0,0,0,-0.145631,-0.161982,-0.121546,-1.96079,-0.231836,1.75453,1.17021,-0.399537,0.0502942,-0.484838,-0.0521354,0.561429,0.0882159,-0.134366,3.45508,-30.5788,4.16261,27.5262,0.923458,3.55034,-0.163772,-0.566123,-0.354075,-2.65549,1.03871,0.595561,-0.0466177,-0.00365848,0.915924,-0.210922,-1.07119,0.431229,0.029798,-0.179801,
-0.164706,-0.160452,-0.143566,-1.96723,-0.183758,0.204065,0.353861,-0.250521,0.0176549,-0.295127,-0.0866852,0.671801,0.142644,-0.252859,0,0,0,0,0,0,0,-0.145631,-0.161982,-0.121546,-1.96079,-0.231836,1.75453,1.17021,-0.399537,0.0502942,-0.484838,-0.0521354,0.561429,0.0882159,-0.134366,3.45508,-30.5788,4.16261,27.5262,0.923458,3.55034,-0.163772,-0.566123,-0.354075,-2.65549,1.03871,0.595561,-0.0466177,-0.00365848,0.915924,-0.210922,-1.07119,0.431229,0.029798,-0.179801,
-0.165693,-0.160386,-0.144729,-1.96758,-0.181112,0.204548,0.352854,-0.24671,0.0166024,-0.290698,-0.0863233,0.661384,0.120666,-0.251729,0,0,0,0,0,0,0,-0.145631,-0.161982,-0.121546,-1.96079,-0.231836,1.75453,1.17021,-0.399537,0.0502942,-0.484838,-0.0521354,0.561429,0.0882159,-0.134366,3.45508,-30.5788,4.16261,27.5262,0.923458,3.55034,-0.163772,-0.521913,-0.772092,-2.55329,1.19595,0.534159,-0.231577,-0.202336,0.846893,-0.384942,-0.953981,0.346963,0.0912381,-0.18214,
-0.166667,-0.160324,-0.145876,-1.96792,-0.178495,0.204958,0.351851,-0.243443,0.0156086,-0.286855,-0.0864784,0.654344,0.102518,-0.25071,0,0,0,0,0,0,0,-0.157852,-0.161009,-0.135765,-1.96271,-0.214411,1.75865,1.16368,-0.383489,0.023628,-0.441806,-0.0672847,0.577942,0.140107,-0.328324,3.25275,-30.1027,4.21419,27.6492,0.764157,3.47069,-0.190323,-0.521913,-0.772092,-2.55329,1.19595,0.534159,-0.231577,-0.202336,0.846893,-0.384942,-0.953981,0.346963,0.0912381,-0.18214,
-0.167629,-0.160265,-0.14701,-1.96827,-0.175894,0.205318,0.350852,-0.240573,0.0146932,-0.283454,-0.0872753,0.650147,0.0898237,-0.249839,0,0,0,0,0,0,0,-0.157852,-0.161009,-0.135765,-1.96271,-0.214411,1.75865,1.16368,-0.383489,0.023628,-0.441806,-0.0672847,0.577942,0.140107,-0.328324,3.25275,-30.1027,4.21419,27.6492,0.764157,3.47069,-0.190323,-0.159945,-0.92449,-2.42971,1.18372,0.601607,-0.235098,-0.216046,0.787661,-0.369967,-0.7645,0.281712,0.224077,-0.176214,
-0.168579,-0.160209,-0.14813,-1.96863,-0.173317,0.205655,0.349856,-0.237593,0.0138514,-0.280165,-0.0888627,0.644398,0.0842966,-0.249082,0,0,0,0,0,0,0,-0.157852,-0.161009,-0.135765,-1.96271,-0.214411,1.75865,1.16368,-0.383489,0.023628,-0.441806,-0.0672847,0.577942,0.140107,-0.328324,3.25275,-30.1027,4.21419,27.6492,0.764157,3.47069,-0.190323,-0.159945,-0.92449,-2.42971,1.18372,0.601607,-0.235098,-0.216046,0.787661,-0.369967,-0.7645,0.281712,0.224077,-0.176214,
-0.161837,-0.160672,-0.140356,-1.96627,-0.197229,0.197621,0.367204,-0.257514,0.0182409,-0.302255,-0.083685,0.621231,-0.0153411,-0.115062,0,0,0,0,0,0,0,-0.157852,-0.161009,-0.135765,-1.96271,-0.214411,1.75865,1.16368,-0.383489,0.023628,-0.441806,-0.0672847,0.577942,0.140107,-0.328324,3.25275,-30.1027,4.21419,27.6492,0.764157,3.47069,-0.190323,0.541469,-0.916267,-2.3815,1.14335,0.995276,-0.117321,-0.0909382,0.942018,-0.249762,-0.695562,0.254782,0.270296,-0.172093,
-0.172564,-0.160452,-0.152904,-1.96704,-0.178674,0.189673,0.370062,-0.236348,0.0140164,-0.279183,-0.0989544,0.721161,0.0399368,-0.235977,0,0,0,0,0,0,0,-0.157852,-0.161009,-0.135765,-1.96271,-0.214411,1.75865,1.16368,-0.383489,0.023628,-0.441806,-0.0672847,0.577942,0.140107,-0.328324,3.25275,-30.1027,4.21419,27.6492,0.764157,3.47069,-0.190323,0.643542,-1.54062,-2.27184,1.40464,0.980824,-0.390709,-0.356828,0.905693,-0.535807,-0.571055,0.148433,0.32806,-0.168725,
-0.173487,-0.160393,-0.153997,-1.96744,-0.175842,0.189877,0.369121,-0.230795,0.0146918,-0.273225,-0.100144,0.708007,0.0509011,-0.235151,0,0,0,0,0,0,0,-0.157852,-0.161009,-0.135765,-1.96271,-0.214411,1.75865,1.16368,-0.383489,0.023628,-0.441806,-0.0672847,0.577942,0.140107,-0.328324,3.25275,-30.1027,4.21419,27.6492,0.764157,3.47069,-0.190323,0.643542,-1.54062,-2.27184,1.40464,0.980824,-0.390709,-0.356828,0.905693,-0.535807,-0.571055,0.148433,0.32806,-0.168725,
-0.174388,-0.160328,-0.155066,-1.96783,-0.173067,0.190059,0.368216,-0.225259,0.0161822,-0.267475,-0.0980447,0.693599,0.0457041,-0.226169,0,0,0,0,0,0,0,-0.169486,-0.160477,-0.149587,-1.96447,-0.195798,1.76058,1.15357,-0.325287,0.0114552,-0.398094,-0.0534534,0.528511,0.0188149,-0.278529,3.50666,-29.829,4.41255,27.3001,0.617672,3.19878,-0.0301054,0.511443,-1.7652,-2.4958,1.53277,1.01582,-0.524958,-0.487875,0.995115,-0.677057,-0.671245,0.0943298,0.304508,-0.160601,
-0.17527,-0.160259,-0.156115,-1.96821,-0.170343,0.190193,0.36733,-0.220313,0.0174014,-0.262057,-0.0956559,0.680995,0.0333246,-0.221591,0,0,0,0,0,0,0,-0.169486,-0.160477,-0.149587,-1.96447,-0.195798,1.76058,1.15357,-0.325287,0.0114552,-0.398094,-0.0534534,0.528511,0.0188149,-0.278529,3.50666,-29.829,4.41255,27.3001,0.617672,3.19878,-0.0301054,0.511443,-1.7652,-2.4958,1.53277,1.01582,-0.524958,-0.487875,0.995115,-0.677057,-0.671245,0.0943298,0.304508,-0.160601,
-0.176133,-0.160186,-0.157143,-1.96859,-0.167658,0.190266,0.36645,-0.21593,0.0181773,-0.25711,-0.0938533,0.671308,0.0183012,-0.220055,0,0,0,0,0,0,0,-0.169486,-0.160477,-0.149587,-1.96447,-0.195798,1.76058,1.15357,-0.325287,0.0114552,-0.398094,-0.0534534,0.528511,0.0188149,-0.278529,3.50666,-29.829,4.41255,27.3001,0.617672,3.19878,-0.0301054,-0.541399,-1.75797,-1.99715,1.43376,0.196734,-0.719174,-0.684806,0.519399,-0.863767,-0.533088,0.0611259,0.24273,-0.155443,
-0.176981,-0.160112,-0.158154,-1.96896,-0.165,0.190279,0.365569,-0.211981,0.0186022,-0.252597,-0.0927912,0.66447,0.00316769,-0.220296,0,0,0,0,0,0,0,-0.169486,-0.160477,-0.149587,-1.96447,-0.195798,1.76058,1.15357,-0.325287,0.0114552,-0.398094,-0.0534534,0.528511,0.0188149,-0.278529,3.50666,-29.829,4.41255,27.3001,0.617672,3.19878,-0.0301054,-0.21625,-0.736351,-2.18965,0.942158,0.525668,-0.187835,-0.159679,0.712047,-0.303065,-0.708062,0.157242,0.173035,-0.156696,
-0.177814,-0.160036,-0.159147,-1.96933,-0.162363,0.190236,0.364682,-0.208253,0.0188239,-0.248356,-0.0923605,0.659296,-0.0106888,-0.221625,0,0,0,0,0,0,0,-0.169486,-0.160477,-0.149587,-1.96447,-0.195798,1.76058,1.15357,-0.325287,0.0114552,-0.398094,-0.0534534,0.528511,0.0188149,-0.278529,3.50666,-29.829,4.41255,27.3001,0.617672,3.19878,-0.0301054,-0.21625,-0.736351,-2.18965,0.942158,0.525668,-0.187835,-0.159679,0.712047,-0.303065,-0.708062,0.157242,0.173035,-0.156696,
-0.170359,-0.160792,-0.150779,-1.96632,-0.213478,0.182451,0.396575,-0.198801,0.00224221,-0.241035,-0.0618693,-0.230969,-0.366453,1.08308,0,0,0,0,0,0,0,-0.182449,-0.160193,-0.16511,-1.96636,-0.174828,1.76061,1.14795,-0.293072,0.00474584,-0.348571,-0.0475939,0.480099,0.0018356,-0.0820669,2.84412,-29.5274,3.83729,26.705,0.715634,2.90032,-0.157364,-0.688881,-0.1619,-1.79896,0.591862,0.113742,-0.0135957,0.0204563,0.434521,-0.118609,-0.640458,0.204744,0.102514,-0.158729,
-0.193322,-0.160515,-0.178272,-1.96973,-0.148651,0.18169,0.38685,-0.212677,0.0123462,-0.251302,-0.103632,0.925952,0.0498776,-0.554177,0,0,0,0,0,0,0,-0.182449,-0.160193,-0.16511,-1.96636,-0.174828,1.76061,1.14795,-0.293072,0.00474584,-0.348571,-0.0475939,0.480099,0.0018356,-0.0820669,2.84412,-29.5274,3.83729,26.705,0.715634,2.90032,-0.157364,-0.688881,-0.1619,-1.79896,0.591862,0.113742,-0.0135957,0.0204563,0.434521,-0.118609,-0.640458,0.204744,0.102514,-0.158729,
-0.194154,-0.160453,-0.17926,-1.97014,-0.144808,0.181907,0.385076,-0.208066,0.0155012,-0.247006,-0.100504,0.960686,0.0542198,-0.443656,0,0,0,0,0,0,0,-0.182449,-0.160193,-0.16511,-1.96636,-0.174828,1.76061,1.14795,-0.293072,0.00474584,-0.348571,-0.0475939,0.480099,0.0018356,-0.0820669,2.84412,-29.5274,3.83729,26.705,0.715634,2.90032,-0.157364,-0.915308,-0.853457,-2.13542,1.0786,0.199199,-0.394053,-0.366521,0.641498,-0.523457,-0.852853,0.172961,0.000810435,-0.161603,
-0.194968,-0.160383,-0.18023,-1.97053,-0.140856,0.18213,0.383644,-0.203362,0.0175315,-0.242385,-0.0984971,0.987927,0.0557043,-0.357787,0,0,0,0,0,0,0,-0.182449,-0.160193,-0.16511,-1.96636,-0.174828,1.76061,1.14795,-0.293072,0.00474584,-0.348571,-0.0475939,0.480099,0.0018356,-0.0820669,2.84412,-29.5274,3.83729,26.705,0.715634,2.90032,-0.157364,-0.915308,-0.853457,-2.13542,1.0786,0.199199,-0.394053,-0.366521,0.641498,-0.523457,-0.852853,0.172961,0.000810435,-0.161603,
-0.195762,-0.160308,-0.18118,-1.97092,-0.136818,0.182353,0.382468,-0.198699,0.0188457,-0.23766,-0.0972682,1.00949,0.0557633,-0.294167,0,0,0,0,0,0,0,-0.182449,-0.160193,-0.16511,-1.96636,-0.174828,1.76061,1.14795,-0.293072,0.00474584,-0.348571,-0.0475939,0.480099,0.0018356,-0.0820669,2.84412,-29.5274,3.83729,26.705,0.715634,2.90032,-0.157364,-1.03513,-1.25168,-2.18622,1.33888,0.224657,-0.647872,-0.608085,0.731073,-0.803063,-0.942668,0.150811,-0.0879177,-0.129903,
-0.196537,-0.160229,-0.182111,-1.97131,-0.132728,0.182579,0.381496,-0.193748,0.0196254,-0.232757,-0.0968415,1.02262,0.056532,-0.24305,0,0,0,0,0,0,0,-0.182449,-0.160193,-0.16511,-1.96636,-0.174828,1.76061,1.14795,-0.293072,0.00474584,-0.348571,-0.0475939,0.480099,0.0018356,-0.0820669,2.84412,-29.5274,3.83729,26.705,0.715634,2.90032,-0.157364,-1.30957,-2.08535,-1.92399,1.66356,0.051124,-1.1456,-1.11406,0.661837,-1.29621,-0.865841,-0.0178875,-0.15119,-0.0836696,
-0.19729,-0.16015,-0.183021,-1.9717,-0.128638,0.182822,0.380694,-0.18813,0.0199641,-0.2274,-0.0973713,1.02252,0.0605641,-0.20052,0,0,0,0,0,0,0,-0.190729,-0.160255,-0.175246,-1.96775,-0.162511,1.76057,1.14942,-0.258469,-0.00569103,-0.298309,-0.0465288,0.511968,0.0112764,-0.0433633,1.47541,-28.7538,2.41304,26.0068,1.61926,2.37023,0.0440523,-1.30957,-2.08535,-1.92399,1.66356,0.051124,-1.1456,-1.11406,0.661837,-1.29621,-0.865841,-0.0178875,-0.15119,-0.0836696,
-0.191682,-0.160637,-0.176701,-1.97087,-0.148768,0.186956,0.343849,-0.179435,-0.0041806,-0.220971,-0.160869,0.972116,0.265334,-1.19938,0,0,0,0,0,0,0,-0.190729,-0.160255,-0.175246,-1.96775,-0.162511,1.76057,1.14942,-0.258469,-0.00569103,-0.298309,-0.0465288,0.511968,0.0112764,-0.0433633,1.47541,-28.7538,2.41304,26.0068,1.61926,2.37023,0.0440523,-1.27318,-1.44805,-2.15695,1.41308,0.239619,-0.87568,-0.857074,0.830526,-1.00577,-1.07903,0.0622486,-0.25737,-0.0627255,
-0.200639,-0.159803,-0.186926,-1.97316,-0.115161,0.215946,0.32326,-0.15681,0.0224711,-0.196055,-0.0599853,1.13482,0.342197,-0.0928172,0,0,0,0,0,0,0,-0.190729,-0.160255,-0.175246,-1.96775,-0.162511,1.76057,1.14942,-0.258469,-0.00569103,-0.298309,-0.0465288,0.511968,0.0112764,-0.0433633,1.47541,-28.7538,2.41304,26.0068,1.61926,2.37023,0.0440523,-1.27318,-1.44805,-2.15695,1.41308,0.239619,-0.87568,-0.857074,0.830526,-1.00577,-1.07903,0.0622486,-0.25737,-0.0627255,
-0.201243,-0.159731,-0.187685,-1.9734,-0.110759,0.217072,0.322916,-0.150984,0.018008,-0.189845,-0.0608476,1.1005,0.281604,-0.0860067,0,0,0,0,0,0,0,-0.190729,-0.160255,-0.175246,-1.96775,-0.162511,1.76057,1.14942,-0.258469,-0.00569103,-0.298309,-0.0465288,0.511968,0.0112764,-0.0433633,1.47541,-28.7538,2.41304,26.0068,1.61926,2.37023,0.0440523,-0.983366,-0.771217,-1.81216,1.11829,0.202551,-0.503869,-0.468811,0.687424,-0.647025,-0.943048,0.250698,-0.233128,-0.0695295,
-0.201827,-0.159673,-0.188423,-1.97365,-0.106509,0.217992,0.322579,-0.145916,0.0144244,-0.18436,-0.0623565,1.06261,0.23,-0.0840475,0,0,0,0,0,0,0,-0.190729,-0.160255,-0.175246,-1.96775,-0.162511,1.76057,1.14942,-0.258469,-0.00569103,-0.298309,-0.0465288,0.511968,0.0112764,-0.0433633,1.47541,-28.7538,2.41304,26.0068,1.61926,2.37023,0.0440523,-0.983366,-0.771217,-1.81216,1.11829,0.202551,-0.503869,-0.468811,0.687424,-0.647025,-0.943048,0.250698,-0.233128,-0.0695295,
-0.202387,-0.159627,-0.189138,-1.9739,-0.102477,0.218721,0.322278,-0.140199,0.0115864,-0.178907,-0.0633933,1.00799,0.18216,-0.0752139,0,0,0,0,0,0,0,-0.198599,-0.160409,-0.18494,-1.96908,-0.14108,1.76073,1.14418,-0.233057,-0.00566867,-0.278262,-0.0509896,0.705675,0.0293446,-0.342993,2.76874,-28.2301,3.61116,26.8042,1.96167,3.51006,-0.130813,-0.509348,-1.54505,-2.09241,1.68746,0.481334,-0.744299,-0.693111,0.86897,-0.943591,-0.92021,0.315817,-0.11621,-0.0892389,
-0.202928,-0.159589,-0.189833,-1.97416,-0.0986931,0.219284,0.321986,-0.135095,0.00930751,-0.173615,-0.0646859,0.945911,0.140672,-0.0731473,0,0,0,0,0,0,0,-0.198599,-0.160409,-0.18494,-1.96908,-0.14108,1.76073,1.14418,-0.233057,-0.00566867,-0.278262,-0.0509896,0.705675,0.0293446,-0.342993,2.76874,-28.2301,3.61116,26.8042,1.96167,3.51006,-0.130813,-0.509348,-1.54505,-2.09241,1.68746,0.481334,-0.744299,-0.693111,0.86897,-0.943591,-0.92021,0.315817,-0.11621,-0.0892389,
-0.203451,-0.159559,-0.190508,-1.97443,-0.0951671,0.219711,0.321676,-0.130748,0.00754349,-0.16884,-0.0664333,0.881493,0.106808,-0.0775484,0,0,0,0,0,0,0,-0.198599,-0.160409,-0.18494,-1.96908,-0.14108,1.76073,1.14418,-0.233057,-0.00566867,-0.278262,-0.0509896,0.705675,0.0293446,-0.342993,2.76874,-28.2301,3.61116,26.8042,1.96167,3.51006,-0.130813,-2.0929,-1.04789,-2.24275,1.51753,-0.521509,-0.812994,-0.757053,0.404826,-1.02957,-1.01073,0.435883,-0.126171,-0.107539,
-0.197182,-0.159989,-0.183443,-1.9737,-0.186628,0.218218,0.402476,-0.120809,0.0305689,-0.150659,-0.0752294,-1.04775,0.590869,1.20056,0,0,0,0,0,0,0,-0.198599,-0.160409,-0.18494,-1.96908,-0.14108,1.76073,1.14418,-0.233057,-0.00566867,-0.278262,-0.0509896,0.705675,0.0293446,-0.342993,2.76874,-28.2301,3.61116,26.8042,1.96167,3.51006,-0.130813,-0.761645,-0.170006,-2.81392,1.25748,0.44847,-0.123758,-0.0797653,0.929826,-0.325705,-1.22162,0.632103,-0.0867327,-0.12515,
-0.203397,-0.160469,-0.191831,-1.97289,-0.161709,0.205677,0.40945,-0.135369,0.0239344,-0.141982,-0.0398174,-0.498338,0.283313,-0.153656,0,0,0,0,0,0,0,-0.198599,-0.160409,-0.18494,-1.96908,-0.14108,1.76073,1.14418,-0.233057,-0.00566867,-0.278262,-0.0509896,0.705675,0.0293446,-0.342993,2.76874,-28.2301,3.61116,26.8042,1.96167,3.51006,-0.130813,-0.761645,-0.170006,-2.81392,1.25748,0.44847,-0.123758,-0.0797653,0.929826,-0.325705,-1.22162,0.632103,-0.0867327,-0.12515,
-0.204019,-0.160381,-0.192512,-1.97303,-0.162184,0.20645,0.408305,-0.155581,0.0220299,-0.170363,-0.0360727,-0.118582,0.193291,-0.286134,0,0,0,0,0,0,0,-0.198599,-0.160409,-0.18494,-1.96908,-0.14108,1.76073,1.14418,-0.233057,-0.00566867,-0.278262,-0.0509896,0.705675,0.0293446,-0.342993,2.76874,-28.2301,3.61116,26.8042,1.96167,3.51006,-0.130813,0.168774,0.773825,-2.49759,0.720102,0.703224,0.519443,0.553945,0.832461,0.35122,-0.955613,0.795606,0.0811113,-0.136904,
-0.204685,-0.16031,-0.193261,-1.97318,-0.161529,0.206931,0.407151,-0.16632,0.0177776,-0.187251,-0.0381702,0.163779,0.120066,-0.288567,0,0,0,0,0,0,0,-0.205678,-0.160354,-0.193225,-1.97022,-0.118859,1.76236,1.13684,-0.23164,0.0015985,-0.26601,-0.0387467,0.675639,0.0409532,-0.165901,2.69336,-28.98,3.73811,26.9272,1.22284,3.5302,-0.0227812,0.168774,0.773825,-2.49759,0.720102,0.703224,0.519443,0.553945,0.832461,0.35122,-0.955613,0.795606,0.0811113,-0.136904,
-0.205365,-0.160257,-0.194046,-1.97335,-0.160041,0.207176,0.407191,-0.170179,0.013343,-0.196129,-0.0427427,0.371884,0.0612311,0.010164,0,0,0,0,0,0,0,-0.205678,-0.160354,-0.193225,-1.97022,-0.118859,1.76236,1.13684,-0.23164,0.0015985,-0.26601,-0.0387467,0.675639,0.0409532,-0.165901,2.69336,-28.98,3.73811,26.9272,1.22284,3.5302,-0.0227812,0.212059,1.81976,-2.75103,0.17057,0.610714,1.00718,1.04995,0.688748,0.852688,-0.910995,0.923428,0.252843,-0.118504,
-0.206039,-0.160221,-0.19484,-1.97355,-0.158023,0.207253,0.407687,-0.168499,0.00889097,-0.198731,-0.0495325,0.504548,0.0193369,0.123839,0,0,0,0,0,0,0,-0.205678,-0.160354,-0.193225,-1.97022,-0.118859,1.76236,1.13684,-0.23164,0.0015985,-0.26601,-0.0387467,0.675639,0.0409532,-0.165901,2.69336,-28.98,3.73811,26.9272,1.22284,3.5302,-0.0227812,0.212059,1.81976,-2.75103,0.17057,0.610714,1.00718,1.04995,0.688748,0.852688,-0.910995,0.923428,0.252843,-0.118504,
-0.206703,-0.160198,-0.195632,-1.97377,-0.155605,0.207202,0.408205,-0.166028,0.00584883,-0.197982,-0.0554717,0.604574,-0.0128064,0.129603,0,0,0,0,0,0,0,-0.205678,-0.160354,-0.193225,-1.97022,-0.118859,1.76236,1.13684,-0.23164,0.0015985,-0.26601,-0.0387467,0.675639,0.0409532,-0.165901,2.69336,-28.98,3.73811,26.9272,1.22284,3.5302,-0.0227812,0.369585,1.63485,-2.89509,0.0948567,0.606541,0.93038,0.983349,0.605242,0.787038,-0.731243,0.788939,0.47705,-0.0684858,
-0.203645,-0.160413,-0.192067,-1.97297,-0.156226,0.206084,0.40597,-0.135615,0.0241735,-0.14455,-0.0440833,-0.364544,0.302881,-0.351971,0,0,0,0,0,0,0,-0.205678,-0.160354,-0.193225,-1.97022,-0.118859,1.76236,1.13684,-0.23164,0.0015985,-0.26601,-0.0387467,0.675639,0.0409532,-0.165901,2.69336,-28.98,3.73811,26.9272,1.22284,3.5302,-0.0227812,0.378149,0.060459,-2.67075,0.707525,0.592505,0.164746,0.200403,0.608431,0.0324818,-0.532326,0.476535,0.534374,-0.0172079,
-0.21346,-0.160623,-0.202771,-1.97339,-0.0740777,0.187955,0.348114,-0.128114,0.00309332,-0.164105,-0.0805461,0.967793,-0.0860951,0.110859,0,0,0,0,0,0,0,-0.211887,-0.160405,-0.200999,-1.97139,-0.114823,1.76332,1.1416,-0.161251,-0.00809204,-0.211635,-0.0327404,0.0483633,0.00334824,0.106879,1.24927,-28.3809,2.23848,27.1533,0.905148,2.93328,0.171311,0.378149,0.060459,-2.67075,0.707525,0.592505,0.164746,0.200403,0.608431,0.0324818,-0.532326,0.476535,0.534374,-0.0172079,
-0.213954,-0.160604,-0.20341,-1.97371,-0.0702975,0.187599,0.348558,-0.123584,0.00468994,-0.159706,-0.080595,0.945033,-0.0888949,0.111009,0,0,0,0,0,0,0,-0.211887,-0.160405,-0.200999,-1.97139,-0.114823,1.76332,1.1416,-0.161251,-0.00809204,-0.211635,-0.0327404,0.0483633,0.00334824,0.106879,1.24927,-28.3809,2.23848,27.1533,0.905148,2.93328,0.171311,0.921047,-0.586682,-2.85015,1.03192,1.16832,-0.0626121,-0.0310357,1.01869,-0.191899,-0.680712,0.321191,0.4289,0.0255963,
-0.214432,-0.16058,-0.204031,-1.97404,-0.0666302,0.187234,0.349013,-0.119359,0.00596328,-0.155471,-0.0807364,0.91682,-0.0913851,0.113518,0,0,0,0,0,0,0,-0.211887,-0.160405,-0.200999,-1.97139,-0.114823,1.76332,1.1416,-0.161251,-0.00809204,-0.211635,-0.0327404,0.0483633,0.00334824,0.106879,1.24927,-28.3809,2.23848,27.1533,0.905148,2.93328,0.171311,0.921047,-0.586682,-2.85015,1.03192,1.16832,-0.0626121,-0.0310357,1.01869,-0.191899,-0.680712,0.321191,0.4289,0.0255963,
-0.214894,-0.160552,-0.204638,-1.97436,-0.0630875,0.186866,0.349484,-0.115589,0.00700416,-0.151578,-0.0811339,0.885687,-0.0919781,0.117892,0,0,0,0,0,0,0,-0.211887,-0.160405,-0.200999,-1.97139,-0.114823,1.76332,1.1416,-0.161251,-0.00809204,-0.211635,-0.0327404,0.0483633,0.00334824,0.106879,1.24927,-28.3809,2.23848,27.1533,0.905148,2.93328,0.171311,0.254432,-1.25131,-2.98721,1.30465,0.811841,-0.533615,-0.471769,0.898599,-0.697093,-0.671574,0.167783,0.468681,0.0629003,
-0.215344,-0.160521,-0.205231,-1.97469,-0.0596705,0.186509,0.349962,-0.11235,0.00793341,-0.148246,-0.0818396,0.854256,-0.0892211,0.119472,0,0,0,0,0,0,0,-0.211887,-0.160405,-0.200999,-1.97139,-0.114823,1.76332,1.1416,-0.161251,-0.00809204,-0.211635,-0.0327404,0.0483633,0.00334824,0.106879,1.24927,-28.3809,2.23848,27.1533,0.905148,2.93328,0.171311,-0.492111,-2.0802,-1.65341,1.353,-0.190217,-1.10224,-1.03253,0.114661,-1.25626,-0.0284412,-0.0197636,0.56118,0.0943241,
-0.215784,-0.160485,-0.205814,-1.97502,-0.0563609,0.186185,0.350309,-0.110064,0.00881463,-0.145725,-0.0831408,0.827394,-0.0809311,0.0866915,0,0,0,0,0,0,0,-0.217041,-0.160388,-0.20706,-1.9724,-0.109459,1.7632,1.14438,-0.153345,-0.00320554,-0.186054,-0.0435781,0.420247,0.0135319,0.0106276,1.63013,-29.1307,2.6114,26.9034,1.55883,2.05804,0.104477,-0.492111,-2.0802,-1.65341,1.353,-0.190217,-1.10224,-1.03253,0.114661,-1.25626,-0.0284412,-0.0197636,0.56118,0.0943241,
-0.213203,-0.160519,-0.202546,-1.9735,-0.0781062,0.189527,0.350864,-0.126675,0.00582381,-0.162477,-0.0859628,0.866531,-0.0546424,0.141421,0,0,0,0,0,0,0,-0.217041,-0.160388,-0.20706,-1.9724,-0.109459,1.7632,1.14438,-0.153345,-0.00320554,-0.186054,-0.0435781,0.420247,0.0135319,0.0106276,1.63013,-29.1307,2.6114,26.9034,1.55883,2.05804,0.104477,-0.759384,-2.68304,-1.30248,1.72792,-0.242984,-1.47036,-1.40708,0.18919,-1.63953,-0.130866,-0.0517642,0.304181,0.103485,
-0.223452,-0.16044,-0.215133,-1.97597,-0.0742809,0.19391,0.364596,-0.12633,0.00890634,-0.160874,-0.0881364,0.869068,0.0961623,0.0847407,0,0,0,0,0,0,0,-0.217041,-0.160388,-0.20706,-1.9724,-0.109459,1.7632,1.14438,-0.153345,-0.00320554,-0.186054,-0.0435781,0.420247,0.0135319,0.0106276,1.63013,-29.1307,2.6114,26.9034,1.55883,2.05804,0.104477,-0.759384,-2.68304,-1.30248,1.72792,-0.242984,-1.47036,-1.40708,0.18919,-1.63953,-0.130866,-0.0517642,0.304181,0.103485,
-0.223956,-0.1604,-0.215775,-1.97633,-0.0706972,0.194378,0.364915,-0.125894,0.009936,-0.160449,-0.0892449,0.895926,0.117025,0.0798687,0,0,0,0,0,0,0,-0.217041,-0.160388,-0.20706,-1.9724,-0.109459,1.7632,1.14438,-0.153345,-0.00320554,-0.186054,-0.0435781,0.420247,0.0135319,0.0106276,1.63013,-29.1307,2.6114,26.9034,1.55883,2.05804,0.104477,-0.968203,-2.19276,-1.66687,1.70671,-0.0479984,-1.31503,-1.25033,0.479554,-1.49987,-0.550467,0.0719236,0.043175,0.106023,
-0.224459,-0.160357,-0.216416,-1.97669,-0.0669991,0.194936,0.365213,-0.125641,0.0107554,-0.160132,-0.0901794,0.924528,0.139397,0.0743787,0,0,0,0,0,0,0,-0.217041,-0.160388,-0.20706,-1.9724,-0.109459,1.7632,1.14438,-0.153345,-0.00320554,-0.186054,-0.0435781,0.420247,0.0135319,0.0106276,1.63013,-29.1307,2.6114,26.9034,1.55883,2.05804,0.104477,-0.968203,-2.19276,-1.66687,1.70671,-0.0479984,-1.31503,-1.25033,0.479554,-1.49987,-0.550467,0.0719236,0.043175,0.106023,
-0.224961,-0.160311,-0.217056,-1.97705,-0.0631745,0.195591,0.365484,-0.125625,0.0114128,-0.159997,-0.0910301,0.956157,0.163695,0.067984,0,0,0,0,0,0,0,-0.217041,-0.160388,-0.20706,-1.9724,-0.109459,1.7632,1.14438,-0.153345,-0.00320554,-0.186054,-0.0435781,0.420247,0.0135319,0.0106276,1.63013,-29.1307,2.6114,26.9034,1.55883,2.05804,0.104477,-1.30757,-1.23938,-2.30739,1.39306,0.0365818,-0.966603,-0.900827,0.674278,-1.14997,-0.951137,0.194513,-0.0783622,0.110252,
