PerkyPenguin/Analysis-on-Approximated-Derivatives/Code_and_Data/PaperData/Real_Robot/Scene_2/set_interval/2/trajectory.csv
Commanded Joint 0 Position,Commanded Joint 1 Position,Commanded Joint 2 Position,Commanded Joint 3 Position,Commanded Joint 4 Position,Commanded Joint 5 Position,Commanded Joint 6 Position,Commanded Joint 0 Velocity,Commanded Joint 1 Velocity,Commanded Joint 2 Velocity,Commanded Joint 3 Velocity,Commanded Joint 4 Velocity,Commanded Joint 5 Velocity,Commanded Joint 6 Velocity,Commanded Joint 0 Torque,Commanded Joint 1 Torque,Commanded Joint 2 Torque,Commanded Joint 3 Torque,Commanded Joint 4 Torque,Commanded Joint 5 Torque,Commanded Joint 6 Torque,Actual Joint 0 Position,Actual Joint 1 Position,Actual Joint 2 Position,Actual Joint 3 Position,Actual Joint 4 Position,Actual Joint 5 Position,Actual Joint 6 Position,Actual Joint 0 Velocity,Actual Joint 1 Velocity,Actual Joint 2 Velocity,Actual Joint 3 Velocity,Actual Joint 4 Velocity,Actual Joint 5 Velocity,Actual Joint 6 Velocity,Actual Joint 0 Torque,Actual Joint 1 Torque,Actual Joint 2 Torque,Actual Joint 3 Torque,Actual Joint 4 Torque,Actual Joint 5 Torque,Actual Joint 6 Torque,EE ext force 0,EE ext force 1,EE ext force 2,EE ext force 3,EE ext force 4,EE ext force 5,joint ext torque 0,joint ext torque 1,joint ext torque 2,joint ext torque 3,joint ext torque 4,joint ext torque 5,joint ext torque 6,
0.0966267,-0.120372,0.405921,-1.75087,0.0521235,0.0880072,0.493329,0.00825731,0.0311165,0.0161344,-0.1496,-0.0667522,0.224516,-0.00124663,0,0,0,0,0,0,0,0.0965598,-0.120523,0.405802,-1.74938,0.0526297,1.65658,1.27874,-0.00761074,0.00310335,-0.00103909,-0.000424888,0.0107159,0.00100132,0.000151752,0.158268,-27.7342,-1.9113,27.1771,0.471188,3.23907,-0.0767973,0.185475,-0.379033,-0.721129,0.0862884,0.440559,-0.146873,-0.0868251,0.384121,-0.20061,-0.329541,-0.0104154,-0.0443269,-0.0679463,
0.0966704,-0.120166,0.406002,-1.75151,0.0517834,0.088944,0.493324,0.0109374,0.0516359,0.0203137,-0.160474,-0.0850079,0.234206,-0.00133052,0,0,0,0,0,0,0,0.096577,-0.120544,0.405803,-1.74939,0.0525784,1.65658,1.27875,-0.00167835,-0.000160108,-0.00100821,-0.00228865,0.000927594,0.001126,0.000241999,-0.0440639,-27.4843,-1.93511,27.2287,0.880428,3.25829,-0.083206,0.185475,-0.379033,-0.721129,0.0862884,0.440559,-0.146873,-0.0868251,0.384121,-0.20061,-0.329541,-0.0104154,-0.0443269,-0.0679463,
0.0965646,-0.120535,0.405791,-1.74939,0.0525676,0.0857774,0.493348,-0.000606332,0.000498414,-0.000576443,-0.000306313,-0.000970083,-0.000612692,1.29541e-05,0,0,0,0,0,0,0,0.096577,-0.120544,0.405803,-1.74939,0.0525784,1.65658,1.27875,-0.00167835,-0.000160108,-0.00100821,-0.00228865,0.000927594,0.001126,0.000241999,-0.0440639,-27.4843,-1.93511,27.2287,0.880428,3.25829,-0.083206,-0.155416,-0.313851,-0.597891,0.0853971,0.155507,-0.0245689,0.0337907,0.211259,-0.078143,-0.25628,0.00578409,-0.0392521,-0.0697994,
0.0965624,-0.120534,0.405789,-1.7494,0.0525636,0.0857751,0.493348,-0.000533939,0.000429617,-0.000493921,-0.000266958,-0.000999436,-0.00057748,9.65575e-06,0,0,0,0,0,0,0,0.096577,-0.120544,0.405803,-1.74939,0.0525784,1.65658,1.27875,-0.00167835,-0.000160108,-0.00100821,-0.00228865,0.000927594,0.001126,0.000241999,-0.0440639,-27.4843,-1.93511,27.2287,0.880428,3.25829,-0.083206,-0.155416,-0.313851,-0.597891,0.0853971,0.155507,-0.0245689,0.0337907,0.211259,-0.078143,-0.25628,0.00578409,-0.0392521,-0.0697994,
0.0965605,-0.120532,0.405787,-1.7494,0.0525596,0.0857729,0.493348,-0.000473289,0.000362374,-0.000425251,-0.000237924,-0.000993014,-0.000541914,7.67638e-06,0,0,0,0,0,0,0,0.096577,-0.120544,0.405803,-1.74939,0.0525784,1.65658,1.27875,-0.00167835,-0.000160108,-0.00100821,-0.00228865,0.000927594,0.001126,0.000241999,-0.0440639,-27.4843,-1.93511,27.2287,0.880428,3.25829,-0.083206,-0.030996,-0.510793,-0.700908,0.206725,0.247524,-0.146039,-0.0932561,0.255956,-0.200878,-0.269552,-0.00512064,-0.00630234,-0.0713343,
0.0965589,-0.120531,0.405786,-1.7494,0.0525557,0.0857709,0.493348,-0.000421463,0.00029991,-0.000366998,-0.000212965,-0.000965119,-0.000510934,6.35172e-06,0,0,0,0,0,0,0,0.096577,-0.120544,0.405803,-1.74939,0.0525784,1.65658,1.27875,-0.00167835,-0.000160108,-0.00100821,-0.00228865,0.000927594,0.001126,0.000241999,-0.0440639,-27.4843,-1.93511,27.2287,0.880428,3.25829,-0.083206,-0.030996,-0.510793,-0.700908,0.206725,0.247524,-0.146039,-0.0932561,0.255956,-0.200878,-0.269552,-0.00512064,-0.00630234,-0.0713343,
0.0965573,-0.12053,0.405785,-1.7494,0.052552,0.0857689,0.493348,-0.00037661,0.000242939,-0.000316934,-0.000190218,-0.000924432,-0.00048503,5.40475e-06,0,0,0,0,0,0,0,0.0965863,-0.120529,0.405812,-1.7496,0.0525513,1.65661,1.27874,0.00028346,0.00494795,0.00493609,0.00151905,-0.00253815,0.000384329,0.000302711,-0.147213,-27.7065,-1.96288,27.5739,0.971981,3.44414,-0.0566557,-0.614277,-0.972642,-1.21659,0.372646,0.0343916,-0.201506,-0.161646,0.235519,-0.245273,-0.462308,-0.0393956,-0.0369416,-0.0707788,
0.096556,-0.120529,0.405784,-1.7494,0.0525485,0.0857671,0.493348,-0.000337431,0.000191359,-0.000273484,-0.000169174,-0.000876581,-0.000463532,4.70127e-06,0,0,0,0,0,0,0,0.0965863,-0.120529,0.405812,-1.7496,0.0525513,1.65661,1.27874,0.00028346,0.00494795,0.00493609,0.00151905,-0.00253815,0.000384329,0.000302711,-0.147213,-27.7065,-1.96288,27.5739,0.971981,3.44414,-0.0566557,-0.534272,-0.634917,-1.38318,0.108673,0.176298,-0.0703497,-0.0345709,0.36463,-0.0946124,-0.547378,-0.0175017,-0.0503932,-0.0708576,
0.0965548,-0.120529,0.405783,-1.7494,0.0525452,0.0857653,0.493348,-0.000302963,0.000144811,-0.000235476,-0.000149707,-0.000825318,-0.000445612,4.16576e-06,0,0,0,0,0,0,0,0.0965863,-0.120529,0.405812,-1.7496,0.0525513,1.65661,1.27874,0.00028346,0.00494795,0.00493609,0.00151905,-0.00253815,0.000384329,0.000302711,-0.147213,-27.7065,-1.96288,27.5739,0.971981,3.44414,-0.0566557,-0.534272,-0.634917,-1.38318,0.108673,0.176298,-0.0703497,-0.0345709,0.36463,-0.0946124,-0.547378,-0.0175017,-0.0503932,-0.0708576,
0.0965537,-0.120528,0.405782,-1.7494,0.0525421,0.0857636,0.493348,-0.000272466,0.000102874,-0.000202012,-0.000131774,-0.000773161,-0.000430543,3.75055e-06,0,0,0,0,0,0,0,0.0965863,-0.120529,0.405812,-1.7496,0.0525513,1.65661,1.27874,0.00028346,0.00494795,0.00493609,0.00151905,-0.00253815,0.000384329,0.000302711,-0.147213,-27.7065,-1.96288,27.5739,0.971981,3.44414,-0.0566557,0.0680463,-0.379895,-1.26975,-0.0366835,0.548902,-0.116228,-0.0683344,0.542248,-0.146033,-0.524122,-0.01575,-0.0330124,-0.0692597,
0.0965527,-0.120528,0.405781,-1.7494,0.0525392,0.0857619,0.493348,-0.000245357,6.51232e-05,-0.00017239,-0.000115331,-0.000721776,-0.000417752,3.42335e-06,0,0,0,0,0,0,0,0.0965863,-0.120529,0.405812,-1.7496,0.0525513,1.65661,1.27874,0.00028346,0.00494795,0.00493609,0.00151905,-0.00253815,0.000384329,0.000302711,-0.147213,-27.7065,-1.96288,27.5739,0.971981,3.44414,-0.0566557,0.0680463,-0.379895,-1.26975,-0.0366835,0.548902,-0.116228,-0.0683344,0.542248,-0.146033,-0.524122,-0.01575,-0.0330124,-0.0692597,
0.0965518,-0.120528,0.405781,-1.7494,0.0525365,0.0857603,0.493348,-0.000221169,3.11594e-05,-0.000146054,-0.000100317,-0.000672238,-0.000406795,3.16142e-06,0,0,0,0,0,0,0,0.0965863,-0.120529,0.405812,-1.7496,0.0525513,1.65661,1.27874,0.00028346,0.00494795,0.00493609,0.00151905,-0.00253815,0.000384329,0.000302711,-0.147213,-27.7065,-1.96288,27.5739,0.971981,3.44414,-0.0566557,-0.283454,-0.362459,-0.949185,0.0464976,0.176027,-0.0138836,0.0315025,0.278842,-0.0497618,-0.364875,0.00279573,-0.0194506,-0.0698702,
0.096551,-0.120528,0.40578,-1.7494,0.052534,0.0857587,0.493348,-0.000199522,6.11367e-07,-0.000122553,-8.6655e-05,-0.000625203,-0.000397333,2.94846e-06,0,0,0,0,0,0,0,0.0965872,-0.120519,0.405813,-1.74957,0.052575,1.65662,1.27874,0.000721899,-0.00603271,0.000871918,-0.000208368,-0.00751637,-0.000510633,-0.00151136,-0.147213,-27.7818,-2.01048,27.2009,0.843807,3.28484,-0.0301054,-0.427977,-0.303866,-1.01552,0.00400147,0.119377,0.049628,0.0897879,0.272306,0.0208956,-0.394452,0.0253909,-0.0316691,-0.0684932,
0.0965503,-0.120528,0.40578,-1.7494,0.0525317,0.0857571,0.493348,-0.000180103,-2.68609e-05,-0.000101519,-7.42584e-05,-0.000581039,-0.000389103,2.77265e-06,0,0,0,0,0,0,0,0.0965872,-0.120519,0.405813,-1.74957,0.052575,1.65662,1.27874,0.000721899,-0.00603271,0.000871918,-0.000208368,-0.00751637,-0.000510633,-0.00151136,-0.147213,-27.7818,-2.01048,27.2009,0.843807,3.28484,-0.0301054,-0.427977,-0.303866,-1.01552,0.00400147,0.119377,0.049628,0.0897879,0.272306,0.0208956,-0.394452,0.0253909,-0.0316691,-0.0684932,
0.0965497,-0.120528,0.405779,-1.7494,0.0525296,0.0857556,0.493348,-0.000162649,-5.15667e-05,-8.26497e-05,-6.30347e-05,-0.000539915,-0.000381903,2.62534e-06,0,0,0,0,0,0,0,0.0965872,-0.120519,0.405813,-1.74957,0.052575,1.65662,1.27874,0.000721899,-0.00603271,0.000871918,-0.000208368,-0.00751637,-0.000510633,-0.00151136,-0.147213,-27.7818,-2.01048,27.2009,0.843807,3.28484,-0.0301054,-0.475067,-0.665466,-1.00763,0.223016,0.0714246,-0.101066,-0.0513373,0.231219,-0.14886,-0.395223,-0.0147351,-0.0405485,-0.0681747,
0.0965491,-0.120529,0.405779,-1.7494,0.0525276,0.0857541,0.493348,-0.00014694,-7.37866e-05,-6.56886e-05,-5.28907e-05,-0.00050186,-0.000375572,2.50021e-06,0,0,0,0,0,0,0,0.0965872,-0.120519,0.405813,-1.74957,0.052575,1.65662,1.27874,0.000721899,-0.00603271,0.000871918,-0.000208368,-0.00751637,-0.000510633,-0.00151136,-0.147213,-27.7818,-2.01048,27.2009,0.843807,3.28484,-0.0301054,-0.475067,-0.665466,-1.00763,0.223016,0.0714246,-0.101066,-0.0513373,0.231219,-0.14886,-0.395223,-0.0147351,-0.0405485,-0.0681747,
0.0965485,-0.120529,0.405779,-1.7494,0.0525257,0.0857526,0.493348,-0.000132784,-9.37738e-05,-5.04192e-05,-4.37352e-05,-0.000466816,-0.000369983,2.39258e-06,0,0,0,0,0,0,0,0.0965872,-0.120519,0.405813,-1.74957,0.052575,1.65662,1.27874,0.000721899,-0.00603271,0.000871918,-0.000208368,-0.00751637,-0.000510633,-0.00151136,-0.147213,-27.7818,-2.01048,27.2009,0.843807,3.28484,-0.0301054,-0.526942,-0.713854,-0.796429,0.31155,-0.0511077,-0.109293,-0.0619321,0.119313,-0.162292,-0.300756,-0.0116555,-0.031551,-0.0680951,
0.0965481,-0.120529,0.405779,-1.7494,0.052524,0.0857512,0.493348,-0.000120017,-0.000111757,-3.66559e-05,-3.54807e-05,-0.000434664,-0.000365031,2.29897e-06,0,0,0,0,0,0,0,0.0965818,-0.120511,0.405815,-1.74952,0.052599,1.65661,1.27874,0.000882825,-0.00189516,0.00116395,0.00146588,-0.00395636,-0.000903418,-0.000921872,-0.0718349,-27.8572,-2.01048,27.2525,0.667111,3.33153,-0.0365141,-0.526942,-0.713854,-0.796429,0.31155,-0.0511077,-0.109293,-0.0619321,0.119313,-0.162292,-0.300756,-0.0116555,-0.031551,-0.0680951,
0.0965476,-0.12053,0.405779,-1.7494,0.0525223,0.0857497,0.493348,-0.000108495,-0.000127942,-2.4238e-05,-2.80446e-05,-0.000405251,-0.000360631,2.21677e-06,0,0,0,0,0,0,0,0.0965818,-0.120511,0.405815,-1.74952,0.052599,1.65661,1.27874,0.000882825,-0.00189516,0.00116395,0.00146588,-0.00395636,-0.000903418,-0.000921872,-0.0718349,-27.8572,-2.01048,27.2525,0.667111,3.33153,-0.0365141,-0.185864,-0.582981,-0.959843,0.181613,0.258019,-0.14244,-0.0955339,0.322257,-0.186746,-0.390283,-0.00881865,-0.036123,-0.0668477,
0.0965472,-0.12053,0.405779,-1.7494,0.0525208,0.0857483,0.493348,-9.80923e-05,-0.000142513,-1.30251e-05,-2.13499e-05,-0.000378406,-0.000356713,2.14402e-06,0,0,0,0,0,0,0,0.0965818,-0.120511,0.405815,-1.74952,0.052599,1.65661,1.27874,0.000882825,-0.00189516,0.00116395,0.00146588,-0.00395636,-0.000903418,-0.000921872,-0.0718349,-27.8572,-2.01048,27.2525,0.667111,3.33153,-0.0365141,-0.223494,-0.70396,-0.825969,0.292407,0.166434,-0.187141,-0.137688,0.236895,-0.240933,-0.324867,-0.0203482,-0.0256822,-0.0666661,
0.0965469,-0.120531,0.405779,-1.7494,0.0525194,0.0857469,0.493348,-8.86969e-05,-0.000155638,-2.89398e-06,-1.53254e-05,-0.000353947,-0.000353215,2.0792e-06,0,0,0,0,0,0,0,0.0965818,-0.120511,0.405815,-1.74952,0.052599,1.65661,1.27874,0.000882825,-0.00189516,0.00116395,0.00146588,-0.00395636,-0.000903418,-0.000921872,-0.0718349,-27.8572,-2.01048,27.2525,0.667111,3.33153,-0.0365141,-0.223494,-0.70396,-0.825969,0.292407,0.166434,-0.187141,-0.137688,0.236895,-0.240933,-0.324867,-0.0203482,-0.0256822,-0.0666661,
0.0965466,-0.120532,0.405779,-1.7494,0.0525181,0.0857455,0.493348,-8.02094e-05,-0.000167464,6.26451e-06,-9.90571e-06,-0.000331692,-0.000350088,2.02115e-06,0,0,0,0,0,0,0,0.0965818,-0.120511,0.405815,-1.74952,0.052599,1.65661,1.27874,0.000882825,-0.00189516,0.00116395,0.00146588,-0.00395636,-0.000903418,-0.000921872,-0.0718349,-27.8572,-2.01048,27.2525,0.667111,3.33153,-0.0365141,-0.595364,-0.379708,-0.752589,0.113692,-0.0992386,0.0604492,0.11463,0.102746,0.0105757,-0.282381,0.0200422,-0.0322228,-0.0675384,
0.0965463,-0.120532,0.405779,-1.7494,0.0525168,0.0857441,0.493348,-7.25409e-05,-0.000178126,1.45472e-05,-5.03096e-06,-0.000311465,-0.000347288,1.96894e-06,0,0,0,0,0,0,0,0.0965818,-0.120511,0.405815,-1.74952,0.052599,1.65661,1.27874,0.000882825,-0.00189516,0.00116395,0.00146588,-0.00395636,-0.000903418,-0.000921872,-0.0718349,-27.8572,-2.01048,27.2525,0.667111,3.33153,-0.0365141,-0.595364,-0.379708,-0.752589,0.113692,-0.0992386,0.0604492,0.11463,0.102746,0.0105757,-0.282381,0.0200422,-0.0322228,-0.0675384,
0.096546,-0.120533,0.405779,-1.7494,0.0525157,0.0857427,0.493348,-6.56121e-05,-0.000187744,2.20404e-05,-6.46748e-07,-0.000293096,-0.000344776,1.92183e-06,0,0,0,0,0,0,0,0.0965478,-0.120523,0.405796,-1.74949,0.0526322,1.65662,1.27874,-0.00189259,-0.00162855,-0.00158561,0.00284404,0.00399671,-0.001204,-0.0011168,0.309024,-27.7342,-1.78832,27.1017,0.410763,3.27202,-0.0365141,-0.00159254,-0.422472,-1.00463,0.0449064,0.412725,-0.116329,-0.036756,0.424863,-0.181991,-0.431661,-0.0210317,-0.0477992,-0.0666161,
0.0965458,-0.120534,0.405779,-1.7494,0.0525145,0.0857413,0.493348,-5.93515e-05,-0.000196425,2.88215e-05,3.29628e-06,-0.000276425,-0.00034252,1.87922e-06,0,0,0,0,0,0,0,0.0965478,-0.120523,0.405796,-1.74949,0.0526322,1.65662,1.27874,-0.00189259,-0.00162855,-0.00158561,0.00284404,0.00399671,-0.001204,-0.0011168,0.309024,-27.7342,-1.78832,27.1017,0.410763,3.27202,-0.0365141,-0.00159254,-0.422472,-1.00463,0.0449064,0.412725,-0.116329,-0.036756,0.424863,-0.181991,-0.431661,-0.0210317,-0.0477992,-0.0666161,
0.0965456,-0.120535,0.405779,-1.7494,0.0525135,0.08574,0.493348,-5.36947e-05,-0.000204266,3.496e-05,6.84278e-06,-0.0002613,-0.000340492,1.84062e-06,0,0,0,0,0,0,0,0.0965478,-0.120523,0.405796,-1.74949,0.0526322,1.65662,1.27874,-0.00189259,-0.00162855,-0.00158561,0.00284404,0.00399671,-0.001204,-0.0011168,0.309024,-27.7342,-1.78832,27.1017,0.410763,3.27202,-0.0365141,-0.288097,-0.425153,-0.847365,0.0952894,0.153206,-0.038101,0.0518641,0.257257,-0.117877,-0.349784,-0.0102312,-0.044432,-0.0684087,
0.0965454,-0.120536,0.405779,-1.7494,0.0525125,0.0857386,0.493348,-4.85838e-05,-0.000211354,4.0518e-05,1.00331e-05,-0.000247583,-0.000338667,1.8056e-06,0,0,0,0,0,0,0,0.0965478,-0.120523,0.405796,-1.74949,0.0526322,1.65662,1.27874,-0.00189259,-0.00162855,-0.00158561,0.00284404,0.00399671,-0.001204,-0.0011168,0.309024,-27.7342,-1.78832,27.1017,0.410763,3.27202,-0.0365141,0.0387998,-0.304127,-0.772093,0.0495743,0.356869,-0.071137,0.0170049,0.352023,-0.149461,-0.328984,0.010523,-0.032352,-0.0677309,
0.0965452,-0.120536,0.405779,-1.7494,0.0525116,0.0857373,0.493348,-4.39664e-05,-0.000217766,4.55519e-05,1.29035e-05,-0.000235144,-0.000337021,1.77381e-06,0,0,0,0,0,0,0,0.0965478,-0.120523,0.405796,-1.74949,0.0526322,1.65662,1.27874,-0.00189259,-0.00162855,-0.00158561,0.00284404,0.00399671,-0.001204,-0.0011168,0.309024,-27.7342,-1.78832,27.1017,0.410763,3.27202,-0.0365141,0.0387998,-0.304127,-0.772093,0.0495743,0.356869,-0.071137,0.0170049,0.352023,-0.149461,-0.328984,0.010523,-0.032352,-0.0677309,
0.0966779,-0.120783,0.405894,-1.74916,-0.00281845,0.0562771,0.493236,-0.00499448,0.000359802,-0.00503296,-0.0021234,-0.328333,-0.177326,-0.000555971,0,0,0,0,0,0,0,0.0965946,-0.120583,0.405825,-1.74946,0.0525564,1.65661,1.27874,0.0018416,-0.00758651,0.00262392,0.000580401,-0.0082043,-0.00104976,0.000388809,-0.29797,-27.1828,-2.13744,27.1017,0.97839,3.33153,-0.0566557,0.524701,-0.35067,-0.871693,0.0349496,0.730409,-0.223014,-0.142475,0.565299,-0.292073,-0.400318,-0.01367,-0.0358606,-0.0675929,
0.0967781,-0.121034,0.406018,-1.74918,0.00726171,0.0613954,0.493285,-0.00419899,-0.000223501,-0.00409755,-0.00191257,-0.252401,-0.140794,-0.000281313,0,0,0,0,0,0,0,0.0965946,-0.120583,0.405825,-1.74946,0.0525564,1.65661,1.27874,0.0018416,-0.00758651,0.00262392,0.000580401,-0.0082043,-0.00104976,0.000388809,-0.29797,-27.1828,-2.13744,27.1017,0.97839,3.33153,-0.0566557,0.524701,-0.35067,-0.871693,0.0349496,0.730409,-0.223014,-0.142475,0.565299,-0.292073,-0.400318,-0.01367,-0.0358606,-0.0675929,
0.0967611,-0.121035,0.406001,-1.74918,0.00626667,0.0608395,0.493284,-0.00424428,-0.000216654,-0.00414576,-0.00192857,-0.24876,-0.138973,-0.000280958,0,0,0,0,0,0,0,0.0965946,-0.120583,0.405825,-1.74946,0.0525564,1.65661,1.27874,0.0018416,-0.00758651,0.00262392,0.000580401,-0.0082043,-0.00104976,0.000388809,-0.29797,-27.1828,-2.13744,27.1017,0.97839,3.33153,-0.0566557,-0.0647932,-0.275783,-0.627947,0.0624129,0.22695,-0.0334219,0.0269325,0.253431,-0.0880463,-0.26477,0.0132151,-0.0302474,-0.0676469,
0.096744,-0.121036,0.405984,-1.74919,0.00528711,0.0602914,0.493283,-0.00429043,-0.00021496,-0.00419402,-0.00194958,-0.244891,-0.13702,-0.000281433,0,0,0,0,0,0,0,0.0965946,-0.120583,0.405825,-1.74946,0.0525564,1.65661,1.27874,0.0018416,-0.00758651,0.00262392,0.000580401,-0.0082043,-0.00104976,0.000388809,-0.29797,-27.1828,-2.13744,27.1017,0.97839,3.33153,-0.0566557,-0.0647932,-0.275783,-0.627947,0.0624129,0.22695,-0.0334219,0.0269325,0.253431,-0.0880463,-0.26477,0.0132151,-0.0302474,-0.0676469,
0.0967266,-0.121037,0.405967,-1.7492,0.00432406,0.0597518,0.493282,-0.00433907,-0.000217936,-0.00424383,-0.00197742,-0.240761,-0.13491,-0.000282821,0,0,0,0,0,0,0,0.0965946,-0.120583,0.405825,-1.74946,0.0525564,1.65661,1.27874,0.0018416,-0.00758651,0.00262392,0.000580401,-0.0082043,-0.00104976,0.000388809,-0.29797,-27.1828,-2.13744,27.1017,0.97839,3.33153,-0.0566557,0.0668158,-0.179748,-0.660858,-0.030925,0.337958,-0.0267074,0.0245197,0.325754,-0.0665058,-0.298995,0.00130468,-0.0430191,-0.0671491,
0.096709,-0.121037,0.40595,-1.74921,0.00337875,0.0592213,0.493281,-0.00439215,-0.000225079,-0.00429695,-0.00201427,-0.236329,-0.132617,-0.000285106,0,0,0,0,0,0,0,0.0965946,-0.120583,0.405825,-1.74946,0.0525564,1.65661,1.27874,0.0018416,-0.00758651,0.00262392,0.000580401,-0.0082043,-0.00104976,0.000388809,-0.29797,-27.1828,-2.13744,27.1017,0.97839,3.33153,-0.0566557,-0.0500111,0.0127935,-0.710318,-0.275699,0.306551,0.0886512,0.126825,0.349991,0.0814252,-0.388066,-0.0670802,-0.118353,-0.0667448,
0.0966912,-0.121038,0.405933,-1.74922,0.00245257,0.0587009,0.493279,-0.00445203,-0.000235842,-0.00435555,-0.00206269,-0.231545,-0.130105,-0.000288249,0,0,0,0,0,0,0,0.0966537,-0.120564,0.405893,-1.74934,0.050495,1.65639,1.27875,0.000683338,-0.00307247,0.00694585,0.000300874,-0.130733,-0.0188415,0.000301595,-0.829586,-27.5597,-2.61351,26.9034,0.379635,2.97997,-0.083206,-0.0500111,0.0127935,-0.710318,-0.275699,0.306551,0.0886512,0.126825,0.349991,0.0814252,-0.388066,-0.0670802,-0.118353,-0.0667448,
0.0966732,-0.121039,0.405915,-1.74923,0.00154717,0.0581915,0.493278,-0.00452164,-0.000249617,-0.0044223,-0.00212572,-0.226348,-0.127334,-0.000292125,0,0,0,0,0,0,0,0.0966537,-0.120564,0.405893,-1.74934,0.050495,1.65639,1.27875,0.000683338,-0.00307247,0.00694585,0.000300874,-0.130733,-0.0188415,0.000301595,-0.829586,-27.5597,-2.61351,26.9034,0.379635,2.97997,-0.083206,-0.272696,-0.101277,-0.254137,-0.160852,-0.0266058,0.0939384,0.119497,0.08406,0.0920315,-0.226234,-0.127722,-0.14757,-0.0663903,
0.0966547,-0.12104,0.405897,-1.74923,0.000664532,0.0576945,0.493277,-0.00460469,-0.000265723,-0.00450058,-0.00220702,-0.220661,-0.124253,-0.000296543,0,0,0,0,0,0,0,0.0966537,-0.120564,0.405893,-1.74934,0.050495,1.65639,1.27875,0.000683338,-0.00307247,0.00694585,0.000300874,-0.130733,-0.0188415,0.000301595,-0.829586,-27.5597,-2.61351,26.9034,0.379635,2.97997,-0.083206,-0.272696,-0.101277,-0.254137,-0.160852,-0.0266058,0.0939384,0.119497,0.08406,0.0920315,-0.226234,-0.127722,-0.14757,-0.0663903,
0.0966359,-0.121042,0.405879,-1.74924,-0.000193021,0.0572113,0.493276,-0.00470597,-0.000283384,-0.00459478,-0.00231096,-0.214388,-0.120803,-0.000301096,0,0,0,0,0,0,0,0.0966537,-0.120564,0.405893,-1.74934,0.050495,1.65639,1.27875,0.000683338,-0.00307247,0.00694585,0.000300874,-0.130733,-0.0188415,0.000301595,-0.829586,-27.5597,-2.61351,26.9034,0.379635,2.97997,-0.083206,0.0755492,-0.267736,-0.313626,-0.158763,0.24167,-0.0750171,-0.0534713,0.240616,-0.0674636,-0.316822,-0.216618,-0.194931,-0.0675355,
0.0966166,-0.121043,0.40586,-1.74925,-0.00102266,0.0567437,0.493275,-0.00483168,-0.00030171,-0.00471056,-0.00244275,-0.20741,-0.116911,-0.000305226,0,0,0,0,0,0,0,0.0966537,-0.120564,0.405893,-1.74934,0.050495,1.65639,1.27875,0.000683338,-0.00307247,0.00694585,0.000300874,-0.130733,-0.0188415,0.000301595,-0.829586,-27.5597,-2.61351,26.9034,0.379635,2.97997,-0.083206,-0.0514141,-0.306206,-0.036034,-0.088978,0.0441287,-0.059946,-0.042775,0.0803053,-0.0534915,-0.207792,-0.235267,-0.201474,-0.0671163,
0.0965966,-0.121044,0.40584,-1.74926,-0.00182096,0.0562937,0.493273,-0.00498995,-0.000319692,-0.00485539,-0.00260867,-0.199574,-0.112492,-0.000307956,0,0,0,0,0,0,0,0.0966459,-0.120561,0.406015,-1.74931,0.0459283,1.65562,1.27875,0.00632041,-0.0032377,0.00258651,0.00107519,-0.156887,-0.0361444,0.0007698,-0.528073,-27.5597,-2.3358,27.0264,0.166317,2.96715,-0.083206,-0.0514141,-0.306206,-0.036034,-0.088978,0.0441287,-0.059946,-0.042775,0.0803053,-0.0534915,-0.207792,-0.235267,-0.201474,-0.0671163,
0.0965759,-0.121045,0.40582,-1.74927,-0.0025837,0.0558639,0.493272,-0.00519153,-0.000336234,-0.00503921,-0.00281627,-0.190686,-0.107443,-0.000307888,0,0,0,0,0,0,0,0.0966459,-0.120561,0.406015,-1.74931,0.0459283,1.65562,1.27875,0.00632041,-0.0032377,0.00258651,0.00107519,-0.156887,-0.0361444,0.0007698,-0.528073,-27.5597,-2.3358,27.0264,0.166317,2.96715,-0.083206,0.347807,-0.498081,-0.0446027,-0.0289576,0.340506,-0.254239,-0.239331,0.24323,-0.245784,-0.277411,-0.294041,-0.244988,-0.0675151,
0.0965541,-0.121047,0.405799,-1.74929,-0.00330568,0.0554574,0.493271,-0.00545079,-0.000350242,-0.00527528,-0.0030748,-0.180494,-0.101641,-0.00030272,0,0,0,0,0,0,0,0.0966459,-0.120561,0.406015,-1.74931,0.0459283,1.65562,1.27875,0.00632041,-0.0032377,0.00258651,0.00107519,-0.156887,-0.0361444,0.0007698,-0.528073,-27.5597,-2.3358,27.0264,0.166317,2.96715,-0.083206,0.347807,-0.498081,-0.0446027,-0.0289576,0.340506,-0.254239,-0.239331,0.24323,-0.245784,-0.277411,-0.294041,-0.244988,-0.0675151,
0.0965309,-0.121048,0.405777,-1.7493,-0.00398036,0.0550776,0.49327,-0.00578704,-0.000360929,-0.00558148,-0.00339605,-0.168671,-0.094939,-0.000288717,0,0,0,0,0,0,0,0.0966459,-0.120561,0.406015,-1.74931,0.0459283,1.65562,1.27875,0.00632041,-0.0032377,0.00258651,0.00107519,-0.156887,-0.0361444,0.0007698,-0.528073,-27.5597,-2.3358,27.0264,0.166317,2.96715,-0.083206,0.467948,-0.668219,0.0392821,0.0478682,0.404563,-0.363821,-0.349469,0.265207,-0.356763,-0.289831,-0.343409,-0.28391,-0.0681588,
0.096506,-0.12105,0.405753,-1.74932,-0.00459952,0.054729,0.493269,-0.00622669,-0.000368706,-0.00598233,-0.00379651,-0.154789,-0.0871578,-0.000259387,0,0,0,0,0,0,0,0.0966459,-0.120561,0.406015,-1.74931,0.0459283,1.65562,1.27875,0.00632041,-0.0032377,0.00258651,0.00107519,-0.156887,-0.0361444,0.0007698,-0.528073,-27.5597,-2.3358,27.0264,0.166317,2.96715,-0.083206,0.467948,-0.668219,0.0392821,0.0478682,0.404563,-0.363821,-0.349469,0.265207,-0.356763,-0.289831,-0.343409,-0.28391,-0.0681588,
0.0964788,-0.121051,0.405727,-1.74933,-0.00515259,0.0544167,0.493268,-0.00680666,-0.000377809,-0.00651213,-0.00430353,-0.138269,-0.078065,-0.000202954,0,0,0,0,0,0,0,0.0966459,-0.120561,0.406015,-1.74931,0.0459283,1.65562,1.27875,0.00632041,-0.0032377,0.00258651,0.00107519,-0.156887,-0.0361444,0.0007698,-0.528073,-27.5597,-2.3358,27.0264,0.166317,2.96715,-0.083206,0.45122,-0.641395,0.0809829,0.0373196,0.396549,-0.34733,-0.336623,0.262715,-0.33683,-0.290275,-0.334588,-0.301477,-0.068831,
0.0964484,-0.121053,0.405698,-1.74935,-0.00562586,0.0541474,0.493268,-0.00758114,-0.000404115,-0.00722112,-0.00497367,-0.118316,-0.0673217,-0.000108193,0,0,0,0,0,0,0,0.0966452,-0.120566,0.406097,-1.74932,0.0411275,1.65494,1.27875,0.000521985,0.000936578,0.00197254,0.00100445,-0.149784,-0.020815,5.28816e-07,-0.476498,-27.6589,-2.28819,27.1017,0.148007,2.86736,-0.083206,0.601825,-0.50763,-0.0132066,-0.0887011,0.562742,-0.326745,-0.318365,0.385966,-0.305866,-0.362269,-0.331738,-0.326935,-0.0700229,
0.0964139,-0.121055,0.405665,-1.74938,-0.00600091,0.0539302,0.493267,-0.00863762,-0.000498845,-0.00818851,-0.00594813,-0.0937634,-0.054321,-0.000155739,0,0,0,0,0,0,0,0.0966452,-0.120566,0.406097,-1.74932,0.0411275,1.65494,1.27875,0.000521985,0.000936578,0.00197254,0.00100445,-0.149784,-0.020815,5.28816e-07,-0.476498,-27.6589,-2.28819,27.1017,0.148007,2.86736,-0.083206,0.601825,-0.50763,-0.0132066,-0.0887011,0.562742,-0.326745,-0.318365,0.385966,-0.305866,-0.362269,-0.331738,-0.326935,-0.0700229,
0.0963787,-0.121055,0.405631,-1.7494,-0.00630251,0.0537508,0.493267,-0.00881104,6.00487e-05,-0.00860748,-0.00548625,-0.0754005,-0.0448328,-3.58858e-05,0,0,0,0,0,0,0,0.0966452,-0.120566,0.406097,-1.74932,0.0411275,1.65494,1.27875,0.000521985,0.000936578,0.00197254,0.00100445,-0.149784,-0.020815,5.28816e-07,-0.476498,-27.6589,-2.28819,27.1017,0.148007,2.86736,-0.083206,0.280528,-0.42716,0.0999039,-0.0952808,0.327133,-0.203571,-0.186799,0.256419,-0.192178,-0.31849,-0.29514,-0.345811,-0.0704737,
0.0963441,-0.121052,0.405596,-1.74942,-0.00654759,0.0536016,0.493267,-0.00863123,0.000671442,-0.00860333,-0.00470128,-0.0612702,-0.0373014,3.75718e-05,0,0,0,0,0,0,0,0.0966452,-0.120566,0.406097,-1.74932,0.0411275,1.65494,1.27875,0.000521985,0.000936578,0.00197254,0.00100445,-0.149784,-0.020815,5.28816e-07,-0.476498,-27.6589,-2.28819,27.1017,0.148007,2.86736,-0.083206,0.280528,-0.42716,0.0999039,-0.0952808,0.327133,-0.203571,-0.186799,0.256419,-0.192178,-0.31849,-0.29514,-0.345811,-0.0704737,
0.0963111,-0.121047,0.405563,-1.74943,-0.00674842,0.0534772,0.493267,-0.00825734,0.00117129,-0.00834762,-0.00392606,-0.0502057,-0.0310996,7.94616e-05,0,0,0,0,0,0,0,0.0966452,-0.120566,0.406097,-1.74932,0.0411275,1.65494,1.27875,0.000521985,0.000936578,0.00197254,0.00100445,-0.149784,-0.020815,5.28816e-07,-0.476498,-27.6589,-2.28819,27.1017,0.148007,2.86736,-0.083206,0.465053,-0.505446,-0.000164699,-0.0462474,0.521722,-0.286626,-0.247696,0.387876,-0.299275,-0.382891,-0.270965,-0.360974,-0.069963,
0.09628,-0.121041,0.405531,-1.74945,-0.00691413,0.0533735,0.493268,-0.00777692,0.00153241,-0.00794539,-0.00324345,-0.0414289,-0.0259201,0.000103399,0,0,0,0,0,0,0,0.0965919,-0.120578,0.406082,-1.74932,0.0366128,1.65464,1.27875,-0.00250156,0.00382372,-0.00168246,0.000861331,-0.130087,0.00121191,0.000605991,0.0313145,-27.6311,-2.03826,27.1017,0.447384,2.92687,-0.0905302,0.465053,-0.505446,-0.000164699,-0.0462474,0.521722,-0.286626,-0.247696,0.387876,-0.299275,-0.382891,-0.270965,-0.360974,-0.069963,
0.096251,-0.121034,0.405501,-1.74946,-0.00705169,0.0532872,0.493268,-0.00724405,0.00176808,-0.00746309,-0.00266077,-0.0343893,-0.0215729,0.00011657,0,0,0,0,0,0,0,0.0965919,-0.120578,0.406082,-1.74932,0.0366128,1.65464,1.27875,-0.00250156,0.00382372,-0.00168246,0.000861331,-0.130087,0.00121191,0.000605991,0.0313145,-27.6311,-2.03826,27.1017,0.447384,2.92687,-0.0905302,0.477414,-0.591524,-0.0011191,0.0528718,0.547229,-0.325296,-0.26288,0.403609,-0.367824,-0.379382,-0.232489,-0.357145,-0.0709619,
0.0962242,-0.121026,0.405474,-1.74947,-0.00716643,0.0532156,0.493269,-0.00669341,0.00190086,-0.00694407,-0.00216551,-0.0286858,-0.0179187,0.000122988,0,0,0,0,0,0,0,0.0965919,-0.120578,0.406082,-1.74932,0.0366128,1.65464,1.27875,-0.00250156,0.00382372,-0.00168246,0.000861331,-0.130087,0.00121191,0.000605991,0.0313145,-27.6311,-2.03826,27.1017,0.447384,2.92687,-0.0905302,0.152561,-0.524623,0.0922795,0.108239,0.305852,-0.205414,-0.130944,0.264128,-0.267577,-0.306377,-0.151711,-0.339499,-0.0717075,
0.0961997,-0.121019,0.405448,-1.74947,-0.00726251,0.0531562,0.493269,-0.00614731,0.00195296,-0.00641668,-0.00174245,-0.0240201,-0.0148451,0.000125099,0,0,0,0,0,0,0,0.0965919,-0.120578,0.406082,-1.74932,0.0366128,1.65464,1.27875,-0.00250156,0.00382372,-0.00168246,0.000861331,-0.130087,0.00121191,0.000605991,0.0313145,-27.6311,-2.03826,27.1017,0.447384,2.92687,-0.0905302,0.152561,-0.524623,0.0922795,0.108239,0.305852,-0.205414,-0.130944,0.264128,-0.267577,-0.306377,-0.151711,-0.339499,-0.0717075,
0.0946726,-0.12041,0.403632,-1.74936,-0.134363,-0.057825,0.492139,-0.0346735,0.011834,-0.0362362,-0.0166394,-1.13827,-0.800588,-0.0055994,0,0,0,0,0,0,0,0.0965919,-0.120578,0.406082,-1.74932,0.0366128,1.65464,1.27875,-0.00250156,0.00382372,-0.00168246,0.000861331,-0.130087,0.00121191,0.000605991,0.0313145,-27.6311,-2.03826,27.1017,0.447384,2.92687,-0.0905302,0.298585,-0.451637,-0.0596947,0.0801859,0.488876,-0.209609,-0.115468,0.399299,-0.290856,-0.366321,-0.0927524,-0.3312,-0.0708273,
0.0942864,-0.120305,0.403574,-1.74931,-0.0874251,-0.0131429,0.492756,-0.025893,0.00676402,-0.0272176,-0.00902968,-0.56803,-0.53514,-0.00201608,0,0,0,0,0,0,0,0.0965266,-0.120561,0.406032,-1.74933,0.0328805,1.65463,1.27875,-0.00591952,0.00319001,-0.00245008,0.000834458,-0.102732,0.00232014,0.000758793,0.463749,-27.8334,-1.63756,27.2525,0.807186,3.03307,-0.0905302,0.298585,-0.451637,-0.0596947,0.0801859,0.488876,-0.209609,-0.115468,0.399299,-0.290856,-0.366321,-0.0927524,-0.3312,-0.0708273,
0.0941832,-0.120279,0.403466,-1.74934,-0.0896511,-0.0152633,0.492748,-0.0258019,0.00653089,-0.0271297,-0.0089115,-0.556523,-0.53008,-0.00197239,0,0,0,0,0,0,0,0.0965266,-0.120561,0.406032,-1.74933,0.0328805,1.65463,1.27875,-0.00591952,0.00319001,-0.00245008,0.000834458,-0.102732,0.00232014,0.000758793,0.463749,-27.8334,-1.63756,27.2525,0.807186,3.03307,-0.0905302,-0.173398,-0.202861,0.0189959,-0.00186341,0.156286,0.0306132,0.133823,0.225059,-0.0586985,-0.300799,-0.0131148,-0.322465,-0.0710339,
0.0940803,-0.120254,0.403357,-1.74938,-0.0918286,-0.0173616,0.49274,-0.0257242,0.00627446,-0.0270524,-0.008816,-0.544365,-0.524584,-0.00193359,0,0,0,0,0,0,0,0.0965266,-0.120561,0.406032,-1.74933,0.0328805,1.65463,1.27875,-0.00591952,0.00319001,-0.00245008,0.000834458,-0.102732,0.00232014,0.000758793,0.463749,-27.8334,-1.63756,27.2525,0.807186,3.03307,-0.0905302,-0.230507,0.72878,0.335689,-0.451213,-0.00466869,0.466596,0.580047,0.0978077,0.382911,-0.111105,0.105091,-0.250956,-0.0687562,
0.0939777,-0.12023,0.403249,-1.74941,-0.0939544,-0.0194358,0.492732,-0.0256636,0.00599444,-0.0269892,-0.00874939,-0.531438,-0.518541,-0.00190045,0,0,0,0,0,0,0,0.0965266,-0.120561,0.406032,-1.74933,0.0328805,1.65463,1.27875,-0.00591952,0.00319001,-0.00245008,0.000834458,-0.102732,0.00232014,0.000758793,0.463749,-27.8334,-1.63756,27.2525,0.807186,3.03307,-0.0905302,-0.230507,0.72878,0.335689,-0.451213,-0.00466869,0.466596,0.580047,0.0978077,0.382911,-0.111105,0.105091,-0.250956,-0.0687562,
0.0938752,-0.120207,0.403142,-1.74945,-0.0960248,-0.021483,0.492725,-0.0256245,0.0056904,-0.0269438,-0.00871922,-0.517606,-0.511819,-0.00187496,0,0,0,0,0,0,0,0.0965266,-0.120561,0.406032,-1.74933,0.0328805,1.65463,1.27875,-0.00591952,0.00319001,-0.00245008,0.000834458,-0.102732,0.00232014,0.000758793,0.463749,-27.8334,-1.63756,27.2525,0.807186,3.03307,-0.0905302,0.995802,1.63528,-0.0111558,-1.1914,0.993504,0.545773,0.665338,0.727656,0.501373,-0.330217,0.0865994,-0.253218,-0.067293,
0.0937727,-0.120185,0.403034,-1.74948,-0.0980356,-0.0235001,0.492717,-0.0256116,0.005362,-0.0269206,-0.00873449,-0.502715,-0.504257,-0.00185717,0,0,0,0,0,0,0,0.0965266,-0.120561,0.406032,-1.74933,0.0328805,1.65463,1.27875,-0.00591952,0.00319001,-0.00245008,0.000834458,-0.102732,0.00232014,0.000758793,0.463749,-27.8334,-1.63756,27.2525,0.807186,3.03307,-0.0905302,0.995802,1.63528,-0.0111558,-1.1914,0.993504,0.545773,0.665338,0.727656,0.501373,-0.330217,0.0865994,-0.253218,-0.067293,
0.0936702,-0.120165,0.402926,-1.74952,-0.099982,-0.0254827,0.49271,-0.0256305,0.00500894,-0.0269245,-0.00880615,-0.486588,-0.495659,-0.00184894,0,0,0,0,0,0,0,0.0966238,-0.120538,0.406169,-1.74848,0.0171327,1.64715,1.27875,0.00179592,0.000971041,0.00798237,0.0315485,-0.553016,-0.331091,-0.000948697,-1.38897,-27.9802,-3.11339,26.0822,-0.535892,1.89965,-0.0630644,-0.648144,1.15861,0.609265,-0.865961,-0.363671,0.755887,0.824076,-0.0971358,0.746613,-0.100664,-0.0209883,-0.365269,-0.0667614,
0.0935675,-0.120147,0.402818,-1.74956,-0.101858,-0.0274259,0.492703,-0.0256869,0.0046313,-0.0269608,-0.00894732,-0.469027,-0.485793,-0.00185202,0,0,0,0,0,0,0,0.0966238,-0.120538,0.406169,-1.74848,0.0171327,1.64715,1.27875,0.00179592,0.000971041,0.00798237,0.0315485,-0.553016,-0.331091,-0.000948697,-1.38897,-27.9802,-3.11339,26.0822,-0.535892,1.89965,-0.0630644,-0.648144,1.15861,0.609265,-0.865961,-0.363671,0.755887,0.824076,-0.0971358,0.746613,-0.100664,-0.0209883,-0.365269,-0.0667614,
0.0934643,-0.12013,0.40271,-1.74959,-0.103657,-0.0293234,0.492695,-0.0257873,0.00422966,-0.0270352,-0.00917379,-0.449813,-0.474374,-0.00186844,0,0,0,0,0,0,0,0.0966238,-0.120538,0.406169,-1.74848,0.0171327,1.64715,1.27875,0.00179592,0.000971041,0.00798237,0.0315485,-0.553016,-0.331091,-0.000948697,-1.38897,-27.9802,-3.11339,26.0822,-0.535892,1.89965,-0.0630644,0.237195,0.169514,0.508668,-0.507802,0.331338,0.0634314,0.106448,0.296995,0.0740905,-0.364911,-0.280941,-0.547107,-0.0695864,
0.0933606,-0.120115,0.402602,-1.74963,-0.105372,-0.0311676,0.492688,-0.025938,0.00380546,-0.0271534,-0.00950438,-0.428705,-0.461065,-0.00190141,0,0,0,0,0,0,0,0.0966238,-0.120538,0.406169,-1.74848,0.0171327,1.64715,1.27875,0.00179592,0.000971041,0.00798237,0.0315485,-0.553016,-0.331091,-0.000948697,-1.38897,-27.9802,-3.11339,26.0822,-0.535892,1.89965,-0.0630644,0.396806,-0.594096,1.08607,-0.0806047,0.292042,-0.332369,-0.299324,0.187645,-0.32921,-0.31834,-0.461316,-0.723161,-0.0742186,
0.093256,-0.120101,0.402492,-1.74967,-0.106994,-0.0329495,0.49268,-0.0261451,0.00336153,-0.0273208,-0.00996131,-0.405444,-0.445461,-0.00195406,0,0,0,0,0,0,0,0.0966238,-0.120538,0.406169,-1.74848,0.0171327,1.64715,1.27875,0.00179592,0.000971041,0.00798237,0.0315485,-0.553016,-0.331091,-0.000948697,-1.38897,-27.9802,-3.11339,26.0822,-0.535892,1.89965,-0.0630644,0.396806,-0.594096,1.08607,-0.0806047,0.292042,-0.332369,-0.299324,0.187645,-0.32921,-0.31834,-0.461316,-0.723161,-0.0742186,
0.0931503,-0.12009,0.402382,-1.74971,-0.108513,-0.0346578,0.492672,-0.0264132,0.00290263,-0.0275414,-0.0105707,-0.379766,-0.427081,-0.00203141,0,0,0,0,0,0,0,0.0967702,-0.120688,0.406435,-1.748,1.63544e-05,1.63642,1.27875,0.00545905,-0.0027785,0.00647098,0.00507652,-0.505919,-0.350843,0.000968796,-1.18664,-26.8852,-2.93486,26.6534,-0.426029,1.8731,-0.110672,0.661154,-0.931501,1.68557,0.167437,0.290314,-0.563253,-0.538633,0.0846324,-0.565744,-0.190167,-0.552797,-0.816085,-0.076237,
0.0930434,-0.12008,0.402271,-1.74976,-0.109919,-0.0362792,0.492663,-0.0267441,0.00243643,-0.0278167,-0.0113625,-0.351414,-0.405357,-0.00213928,0,0,0,0,0,0,0,0.0967702,-0.120688,0.406435,-1.748,1.63544e-05,1.63642,1.27875,0.00545905,-0.0027785,0.00647098,0.00507652,-0.505919,-0.350843,0.000968796,-1.18664,-26.8852,-2.93486,26.6534,-0.426029,1.8731,-0.110672,0.661154,-0.931501,1.68557,0.167437,0.290314,-0.563253,-0.538633,0.0846324,-0.565744,-0.190167,-0.552797,-0.816085,-0.076237,
0.0929348,-0.120072,0.402158,-1.74981,-0.111199,-0.0377977,0.492654,-0.0271343,0.00197517,-0.0281431,-0.0123703,-0.320164,-0.379624,-0.00228782,0,0,0,0,0,0,0,0.0967702,-0.120688,0.406435,-1.748,1.63544e-05,1.63642,1.27875,0.00545905,-0.0027785,0.00647098,0.00507652,-0.505919,-0.350843,0.000968796,-1.18664,-26.8852,-2.93486,26.6534,-0.426029,1.8731,-0.110672,0.976063,-1.3554,1.85443,0.357242,0.505838,-0.848033,-0.831787,0.189614,-0.847869,-0.260595,-0.654171,-0.938944,-0.0772952,
0.0928245,-0.120066,0.402044,-1.74986,-0.112343,-0.0391942,0.492644,-0.0275717,0.00153861,-0.0285087,-0.0136281,-0.285864,-0.349116,-0.00249192,0,0,0,0,0,0,0,0.0967702,-0.120688,0.406435,-1.748,1.63544e-05,1.63642,1.27875,0.00545905,-0.0027785,0.00647098,0.00507652,-0.505919,-0.350843,0.000968796,-1.18664,-26.8852,-2.93486,26.6534,-0.426029,1.8731,-0.110672,1.04425,-1.45057,1.74252,0.280123,0.68548,-0.91734,-0.916061,0.355575,-0.891874,-0.443492,-0.713725,-1.07607,-0.0799943,
0.0927124,-0.120061,0.401929,-1.74992,-0.113337,-0.0404461,0.492633,-0.0280288,0.00116116,-0.0288873,-0.01516,-0.248498,-0.312974,-0.00277024,0,0,0,0,0,0,0,0.0967702,-0.120688,0.406435,-1.748,1.63544e-05,1.63642,1.27875,0.00545905,-0.0027785,0.00647098,0.00507652,-0.505919,-0.350843,0.000968796,-1.18664,-26.8852,-2.93486,26.6534,-0.426029,1.8731,-0.110672,1.04425,-1.45057,1.74252,0.280123,0.68548,-0.91734,-0.916061,0.355575,-0.891874,-0.443492,-0.713725,-1.07607,-0.0799943,
0.0925986,-0.120058,0.401812,-1.74999,-0.11417,-0.0415274,0.492621,-0.0284492,0.000911123,-0.0292276,-0.0169451,-0.208295,-0.270333,-0.00305136,0,0,0,0,0,0,0,0.0967702,-0.120688,0.406435,-1.748,1.63544e-05,1.63642,1.27875,0.00545905,-0.0027785,0.00647098,0.00507652,-0.505919,-0.350843,0.000968796,-1.18664,-26.8852,-2.93486,26.6534,-0.426029,1.8731,-0.110672,0.859894,-1.24756,1.63021,0.0137667,0.693617,-0.783367,-0.785337,0.443838,-0.73305,-0.609402,-0.752583,-1.20714,-0.0835163,
0.0924839,-0.120054,0.401694,-1.75007,-0.114834,-0.0424098,0.492614,-0.0286702,0.000949142,-0.0294653,-0.0188072,-0.165976,-0.220606,-0.00160315,0,0,0,0,0,0,0,0.0967472,-0.120823,0.406494,-1.74789,-0.014252,1.62577,1.27875,-0.00666563,-0.00712199,-0.00263085,-0.00207908,-0.381607,-0.297358,-0.000474749,-0.40112,-26.9606,-2.46276,26.6534,-0.328983,1.77331,-0.0767973,0.859894,-1.24756,1.63021,0.0137667,0.693617,-0.783367,-0.785337,0.443838,-0.73305,-0.609402,-0.752583,-1.20714,-0.0835163,
0.0923733,-0.120044,0.401579,-1.75013,-0.115368,-0.0431403,0.492609,-0.0276542,0.00235855,-0.028736,-0.0172695,-0.133501,-0.182625,-0.00140356,0,0,0,0,0,0,0,0.0967472,-0.120823,0.406494,-1.74789,-0.014252,1.62577,1.27875,-0.00666563,-0.00712199,-0.00263085,-0.00207908,-0.381607,-0.297358,-0.000474749,-0.40112,-26.9606,-2.46276,26.6534,-0.328983,1.77331,-0.0767973,1.14316,-1.457,1.41861,0.0619973,1.02812,-0.954543,-0.928896,0.686469,-0.928598,-0.779836,-0.775484,-1.28192,-0.0857944,
0.0922686,-0.120029,0.401469,-1.75019,-0.115799,-0.0437487,0.492603,-0.0261728,0.00380039,-0.0274468,-0.0149236,-0.107806,-0.152077,-0.00137063,0,0,0,0,0,0,0,0.0967472,-0.120823,0.406494,-1.74789,-0.014252,1.62577,1.27875,-0.00666563,-0.00712199,-0.00263085,-0.00207908,-0.381607,-0.297358,-0.000474749,-0.40112,-26.9606,-2.46276,26.6534,-0.328983,1.77331,-0.0767973,1.14316,-1.457,1.41861,0.0619973,1.02812,-0.954543,-0.928896,0.686469,-0.928598,-0.779836,-0.775484,-1.28192,-0.0857944,
0.0921707,-0.120009,0.401366,-1.75024,-0.116147,-0.0442564,0.492598,-0.0244901,0.0049171,-0.0258851,-0.0125794,-0.0870976,-0.126924,-0.00137896,0,0,0,0,0,0,0,0.0967472,-0.120823,0.406494,-1.74789,-0.014252,1.62577,1.27875,-0.00666563,-0.00712199,-0.00263085,-0.00207908,-0.381607,-0.297358,-0.000474749,-0.40112,-26.9606,-2.46276,26.6534,-0.328983,1.77331,-0.0767973,0.671449,-1.78868,1.59747,0.366937,0.684988,-0.982507,-0.930894,0.483794,-1.00136,-0.718253,-0.724613,-1.32186,-0.0861413,
0.0920797,-0.119987,0.401269,-1.75029,-0.116428,-0.0446803,0.492592,-0.0227412,0.00566357,-0.0242093,-0.0104585,-0.0701876,-0.105998,-0.00140208,0,0,0,0,0,0,0,0.0967472,-0.120823,0.406494,-1.74789,-0.014252,1.62577,1.27875,-0.00666563,-0.00712199,-0.00263085,-0.00207908,-0.381607,-0.297358,-0.000474749,-0.40112,-26.9606,-2.46276,26.6534,-0.328983,1.77331,-0.0767973,0.39197,-1.85786,1.60962,0.487728,0.566874,-0.946435,-0.874601,0.450521,-0.995503,-0.738451,-0.625941,-1.36425,-0.0852949,
0.0919957,-0.119962,0.401179,-1.75032,-0.116653,-0.0450344,0.492586,-0.0210032,0.00608564,-0.0225124,-0.00859543,-0.0562349,-0.0885027,-0.00143075,0,0,0,0,0,0,0,0.0966612,-0.120869,0.406414,-1.74795,-0.0248739,1.61809,1.27875,-0.0069844,0.00586597,-0.00449503,-0.000645668,-0.327895,-0.203352,0.000575966,-0.222592,-27.6073,-2.23662,27.1533,0.709225,2.38305,-0.0905302,0.39197,-1.85786,1.60962,0.487728,0.566874,-0.946435,-0.874601,0.450521,-0.995503,-0.738451,-0.625941,-1.36425,-0.0852949,
0.0919184,-0.119937,0.401095,-1.75035,-0.116832,-0.0453297,0.49258,-0.0193219,0.00624772,-0.0208509,-0.00697046,-0.0446179,-0.0738343,-0.00146089,0,0,0,0,0,0,0,0.0966612,-0.120869,0.406414,-1.74795,-0.0248739,1.61809,1.27875,-0.0069844,0.00586597,-0.00449503,-0.000645668,-0.327895,-0.203352,0.000575966,-0.222592,-27.6073,-2.23662,27.1533,0.709225,2.38305,-0.0905302,-0.588655,-1.07225,1.61473,0.173838,-0.0586256,-0.33421,-0.254111,0.158418,-0.385462,-0.631447,-0.382845,-1.30543,-0.085545,
0.0918475,-0.119913,0.401018,-1.75037,-0.116971,-0.0455757,0.492575,-0.0177244,0.00621061,-0.0192592,-0.00555227,-0.0348672,-0.0615122,-0.00149052,0,0,0,0,0,0,0,0.0966612,-0.120869,0.406414,-1.74795,-0.0248739,1.61809,1.27875,-0.0069844,0.00586597,-0.00449503,-0.000645668,-0.327895,-0.203352,0.000575966,-0.222592,-27.6073,-2.23662,27.1533,0.709225,2.38305,-0.0905302,-0.588655,-1.07225,1.61473,0.173838,-0.0586256,-0.33421,-0.254111,0.158418,-0.385462,-0.631447,-0.382845,-1.30543,-0.085545,
0.0691338,-0.114546,0.376446,-1.75904,-0.141433,-0.112352,0.483248,-0.201229,0.0635985,-0.215981,-0.0765573,-1.23795,-1.31866,-0.0466151,0,0,0,0,0,0,0,0.0966612,-0.120869,0.406414,-1.74795,-0.0248739,1.61809,1.27875,-0.0069844,0.00586597,-0.00449503,-0.000645668,-0.327895,-0.203352,0.000575966,-0.222592,-27.6073,-2.23662,27.1533,0.709225,2.38305,-0.0905302,-0.413014,-0.514121,1.56043,0.0341711,0.00617255,-0.121078,-0.0317125,0.16068,-0.187827,-0.466701,-0.18823,-1.1017,-0.085127,
0.0746729,-0.116986,0.382602,-1.75615,-0.200644,-0.0582705,0.487995,-0.167776,0.0338346,-0.179161,-0.0587565,-0.956514,0.00792222,-0.0186138,0,0,0,0,0,0,0,0.0966612,-0.120869,0.406414,-1.74795,-0.0248739,1.61809,1.27875,-0.0069844,0.00586597,-0.00449503,-0.000645668,-0.327895,-0.203352,0.000575966,-0.222592,-27.6073,-2.23662,27.1533,0.709225,2.38305,-0.0905302,-0.492945,-0.070086,1.59986,-0.0106791,-0.16374,0.110127,0.208156,0.00855519,0.0232954,-0.237446,-0.00864476,-0.885871,-0.0851571,
0.0739953,-0.116855,0.381878,-1.75638,-0.204227,-0.0580822,0.487923,-0.169409,0.0326568,-0.180835,-0.0578706,-0.895811,0.0470642,-0.0180088,0,0,0,0,0,0,0,0.0966612,-0.120869,0.406414,-1.74795,-0.0248739,1.61809,1.27875,-0.0069844,0.00586597,-0.00449503,-0.000645668,-0.327895,-0.203352,0.000575966,-0.222592,-27.6073,-2.23662,27.1533,0.709225,2.38305,-0.0905302,-0.492945,-0.070086,1.59986,-0.0106791,-0.16374,0.110127,0.208156,0.00855519,0.0232954,-0.237446,-0.00864476,-0.885871,-0.0851571,
0.0733115,-0.11673,0.381149,-1.75661,-0.207549,-0.0577325,0.487853,-0.170938,0.0314529,-0.182401,-0.0570216,-0.830294,0.0874247,-0.0174274,0,0,0,0,0,0,0,0.0962608,-0.12081,0.406001,-1.74808,-0.0341939,1.61126,1.27875,-0.0187331,-0.00526809,-0.0168588,-0.01266,-0.281548,-0.218014,9.81388e-05,0.511356,-27.881,-1.63756,27.9507,1.27777,2.82799,-0.0767973,-1.07081,2.38268,1.95291,-1.23114,-0.726462,1.37406,1.48497,-0.319864,1.31896,0.147087,0.360111,-0.635401,-0.0868603,
0.072622,-0.116609,0.380413,-1.75683,-0.210588,-0.0572159,0.487786,-0.172372,0.0302103,-0.183861,-0.0562243,-0.759813,0.129148,-0.0168771,0,0,0,0,0,0,0,0.0962608,-0.12081,0.406001,-1.74808,-0.0341939,1.61126,1.27875,-0.0187331,-0.00526809,-0.0168588,-0.01266,-0.281548,-0.218014,9.81388e-05,0.511356,-27.881,-1.63756,27.9507,1.27777,2.82799,-0.0767973,-1.07081,2.38268,1.95291,-1.23114,-0.726462,1.37406,1.48497,-0.319864,1.31896,0.147087,0.360111,-0.635401,-0.0868603,
0.0719271,-0.116493,0.379672,-1.75706,-0.213324,-0.0565264,0.48772,-0.173727,0.0289168,-0.185225,-0.055489,-0.684066,0.172374,-0.0163641,0,0,0,0,0,0,0,0.0962608,-0.12081,0.406001,-1.74808,-0.0341939,1.61126,1.27875,-0.0187331,-0.00526809,-0.0168588,-0.01266,-0.281548,-0.218014,9.81388e-05,0.511356,-27.881,-1.63756,27.9507,1.27777,2.82799,-0.0767973,-1.61298,3.46367,1.11217,-1.97787,-0.730939,2.0024,2.11195,-0.107522,1.98821,-0.112936,0.571792,-0.580293,-0.0886202,
0.071227,-0.116383,0.378926,-1.75727,-0.215735,-0.0556575,0.487657,-0.175023,0.0275606,-0.186509,-0.0548234,-0.602618,0.217239,-0.0158928,0,0,0,0,0,0,0,0.0962608,-0.12081,0.406001,-1.74808,-0.0341939,1.61126,1.27875,-0.0187331,-0.00526809,-0.0168588,-0.01266,-0.281548,-0.218014,9.81388e-05,0.511356,-27.881,-1.63756,27.9507,1.27777,2.82799,-0.0767973,-1.61298,3.46367,1.11217,-1.97787,-0.730939,2.0024,2.11195,-0.107522,1.98821,-0.112936,0.571792,-0.580293,-0.0886202,
0.0705219,-0.116278,0.378175,-1.75749,-0.217794,-0.054602,0.487595,-0.17628,0.0261312,-0.187731,-0.0542335,-0.51492,0.26387,-0.0154737,0,0,0,0,0,0,0,0.0962608,-0.12081,0.406001,-1.74808,-0.0341939,1.61126,1.27875,-0.0187331,-0.00526809,-0.0168588,-0.01266,-0.281548,-0.218014,9.81388e-05,0.511356,-27.881,-1.63756,27.9507,1.27777,2.82799,-0.0767973,-2.20464,0.264949,1.02442,-0.177178,-1.20455,0.714026,0.834541,-0.453414,0.613813,-0.231973,0.141475,-0.745877,-0.0918566,
0.0698118,-0.11618,0.37742,-1.75771,-0.219476,-0.0533525,0.487534,-0.177517,0.0246198,-0.188905,-0.0537233,-0.420333,0.312367,-0.0151163,0,0,0,0,0,0,0,0.0955139,-0.120827,0.404915,-1.74832,-0.0580011,1.60073,1.27873,-0.0181913,0.00452398,-0.0243652,-0.0228851,-0.831622,-0.234582,0.00109304,-2.83307,-26.8575,-4.98595,27.7246,-1.3974,3.3178,-0.0767973,-2.20464,0.264949,1.02442,-0.177178,-1.20455,0.714026,0.834541,-0.453414,0.613813,-0.231973,0.141475,-0.745877,-0.0918566,
0.0690968,-0.116088,0.37666,-1.75792,-0.220748,-0.0519013,0.487475,-0.178745,0.0230207,-0.190043,-0.0532957,-0.318167,0.362798,-0.014836,0,0,0,0,0,0,0,0.0955139,-0.120827,0.404915,-1.74832,-0.0580011,1.60073,1.27873,-0.0181913,0.00452398,-0.0243652,-0.0228851,-0.831622,-0.234582,0.00109304,-2.83307,-26.8575,-4.98595,27.7246,-1.3974,3.3178,-0.0767973,1.03905,-0.804578,0.405156,0.0486397,0.936046,-0.597613,-0.453149,0.615575,-0.707092,-0.495495,-0.389197,-0.604899,-0.085458,
0.068377,-0.116002,0.375895,-1.75813,-0.221579,-0.0502407,0.487417,-0.179962,0.0213335,-0.191141,-0.0529495,-0.207746,0.415152,-0.014647,0,0,0,0,0,0,0,0.0955139,-0.120827,0.404915,-1.74832,-0.0580011,1.60073,1.27873,-0.0181913,0.00452398,-0.0243652,-0.0228851,-0.831622,-0.234582,0.00109304,-2.83307,-26.8575,-4.98595,27.7246,-1.3974,3.3178,-0.0767973,1.68771,-0.341481,0.102387,-0.255954,1.39536,-0.547205,-0.407589,0.871815,-0.637194,-0.508482,-0.363488,-0.456772,-0.0832116,
0.0676524,-0.115924,0.375126,-1.75834,-0.221933,-0.0483635,0.487358,-0.181139,0.0195677,-0.192171,-0.0526754,-0.0885462,0.469293,-0.0145731,0,0,0,0,0,0,0,0.0955139,-0.120827,0.404915,-1.74832,-0.0580011,1.60073,1.27873,-0.0181913,0.00452398,-0.0243652,-0.0228851,-0.831622,-0.234582,0.00109304,-2.83307,-26.8575,-4.98595,27.7246,-1.3974,3.3178,-0.0767973,1.68771,-0.341481,0.102387,-0.255954,1.39536,-0.547205,-0.407589,0.871815,-0.637194,-0.508482,-0.363488,-0.456772,-0.0832116,
0.0669237,-0.115853,0.374354,-1.75855,-0.221775,-0.0462641,0.4873,-0.182197,0.0177494,-0.193063,-0.0524468,0.0395815,0.524851,-0.0146409,0,0,0,0,0,0,0,0.0955139,-0.120827,0.404915,-1.74832,-0.0580011,1.60073,1.27873,-0.0181913,0.00452398,-0.0243652,-0.0228851,-0.831622,-0.234582,0.00109304,-2.83307,-26.8575,-4.98595,27.7246,-1.3974,3.3178,-0.0767973,0.775063,0.382244,0.632079,-0.42347,0.452019,0.0376236,0.181717,0.228337,-0.0618278,-0.0591909,-0.21404,-0.250662,-0.0882039,
0.0661918,-0.115789,0.373579,-1.75876,-0.221071,-0.0439399,0.48724,-0.182973,0.0159354,-0.193667,-0.0522022,0.175986,0.581053,-0.0148941,0,0,0,0,0,0,0,0.0955139,-0.120827,0.404915,-1.74832,-0.0580011,1.60073,1.27873,-0.0181913,0.00452398,-0.0243652,-0.0228851,-0.831622,-0.234582,0.00109304,-2.83307,-26.8575,-4.98595,27.7246,-1.3974,3.3178,-0.0767973,0.775063,0.382244,0.632079,-0.42347,0.452019,0.0376236,0.181717,0.228337,-0.0618278,-0.0591909,-0.21404,-0.250662,-0.0882039,
0.0654592,-0.115733,0.372805,-1.75897,-0.219797,-0.0413942,0.487179,-0.183154,0.0142353,-0.193699,-0.0518115,0.318495,0.636424,-0.0153898,0,0,0,0,0,0,0,0.0942847,-0.121156,0.403249,-1.74957,-0.082292,1.59487,1.27873,-0.0531988,-0.00414133,-0.0680732,-0.0475356,-0.654215,-0.132594,-0.00123129,-2.60693,-26.6353,-4.78758,27.8754,-0.85358,3.44414,-0.0566557,1.65642,-0.974121,1.26168,0.443806,0.602899,-0.783106,-0.628613,0.0474882,-0.934414,0.242007,-0.53024,-0.169856,-0.0931833,
0.0647304,-0.115681,0.372034,-1.75917,-0.217948,-0.0386409,0.487114,-0.182177,0.012849,-0.192649,-0.0510175,0.46225,0.688323,-0.0162227,0,0,0,0,0,0,0,0.0942847,-0.121156,0.403249,-1.74957,-0.082292,1.59487,1.27873,-0.0531988,-0.00414133,-0.0680732,-0.0475356,-0.654215,-0.132594,-0.00123129,-2.60693,-26.6353,-4.78758,27.8754,-0.85358,3.44414,-0.0566557,1.94248,-1.85519,1.08109,0.739536,0.779487,-1.24214,-1.08985,0.128514,-1.38985,0.108028,-0.825548,-0.233802,-0.0997726,
0.0640169,-0.115632,0.371277,-1.75937,-0.215583,-0.0357132,0.487044,-0.178382,0.0123938,-0.189174,-0.049215,0.591272,0.731922,-0.0174824,0,0,0,0,0,0,0,0.0942847,-0.121156,0.403249,-1.74957,-0.082292,1.59487,1.27873,-0.0531988,-0.00414133,-0.0680732,-0.0475356,-0.654215,-0.132594,-0.00123129,-2.60693,-26.6353,-4.78758,27.8754,-0.85358,3.44414,-0.0566557,1.94248,-1.85519,1.08109,0.739536,0.779487,-1.24214,-1.08985,0.128514,-1.38985,0.108028,-0.825548,-0.233802,-0.0997726,
0.0633352,-0.115578,0.37055,-1.75955,-0.212826,-0.0326718,0.486966,-0.170432,0.0133447,-0.181816,-0.04567,0.689243,0.760367,-0.0195443,0,0,0,0,0,0,0,0.0942847,-0.121156,0.403249,-1.74957,-0.082292,1.59487,1.27873,-0.0531988,-0.00414133,-0.0680732,-0.0475356,-0.654215,-0.132594,-0.00123129,-2.60693,-26.6353,-4.78758,27.8754,-0.85358,3.44414,-0.0566557,2.46357,-1.58909,0.38325,0.45766,1.42166,-1.24452,-1.09443,0.613138,-1.37206,-0.172745,-0.766669,-0.209578,-0.103825,
0.0626979,-0.115516,0.369868,-1.75971,-0.209779,-0.0296147,0.486872,-0.159316,0.0154862,-0.17063,-0.0392879,0.761682,0.764282,-0.023309,0,0,0,0,0,0,0,0.0942847,-0.121156,0.403249,-1.74957,-0.082292,1.59487,1.27873,-0.0531988,-0.00414133,-0.0680732,-0.0475356,-0.654215,-0.132594,-0.00123129,-2.60693,-26.6353,-4.78758,27.8754,-0.85358,3.44414,-0.0566557,2.46357,-1.58909,0.38325,0.45766,1.42166,-1.24452,-1.09443,0.613138,-1.37206,-0.172745,-0.766669,-0.209578,-0.103825,
0.0621424,-0.115427,0.369262,-1.75981,-0.20676,-0.0267224,0.486759,-0.13887,0.0222569,-0.151423,-0.0251608,0.754792,0.723075,-0.0282085,0,0,0,0,0,0,0,0.0909242,-0.121186,0.398876,-1.75152,-0.0918966,1.59456,1.27872,-0.106108,0.0127166,-0.128102,-0.0210912,0.00777963,0.0574004,-0.000903207,-1.28582,-27.3811,-3.53789,27.1771,0.795284,3.17864,-0.0630644,1.82173,-1.73224,-0.767331,0.480678,1.51237,-1.13491,-0.987423,0.91867,-1.26098,-0.598059,-0.561051,-0.223178,-0.107194,
0.0617223,-0.115273,0.368782,-1.75978,-0.204253,-0.0243242,0.486697,-0.105029,0.0384822,-0.11994,0.00672697,0.626717,0.599534,-0.0155043,0,0,0,0,0,0,0,0.0909242,-0.121186,0.398876,-1.75152,-0.0918966,1.59456,1.27872,-0.106108,0.0127166,-0.128102,-0.0210912,0.00777963,0.0574004,-0.000903207,-1.28582,-27.3811,-3.53789,27.1771,0.795284,3.17864,-0.0630644,1.82173,-1.73224,-0.767331,0.480678,1.51237,-1.13491,-0.987423,0.91867,-1.26098,-0.598059,-0.561051,-0.223178,-0.107194,
0.0613848,-0.115116,0.368396,-1.75973,-0.202084,-0.0222291,0.486635,-0.0843742,0.0392101,-0.0964822,0.0124435,0.54235,0.523789,-0.0157219,0,0,0,0,0,0,0,0.0909242,-0.121186,0.398876,-1.75152,-0.0918966,1.59456,1.27872,-0.106108,0.0127166,-0.128102,-0.0210912,0.00777963,0.0574004,-0.000903207,-1.28582,-27.3811,-3.53789,27.1771,0.795284,3.17864,-0.0630644,-0.284468,-2.02822,-0.877468,0.897496,0.178431,-0.730058,-0.587476,0.259974,-0.885644,-0.514125,-0.304964,-0.214056,-0.109004,
0.0611065,-0.114975,0.368078,-1.75969,-0.200143,-0.0203475,0.486569,-0.0695812,0.0353518,-0.0795979,0.0105577,0.485221,0.4704,-0.0163861,0,0,0,0,0,0,0,0.0909242,-0.121186,0.398876,-1.75152,-0.0918966,1.59456,1.27872,-0.106108,0.0127166,-0.128102,-0.0210912,0.00777963,0.0574004,-0.000903207,-1.28582,-27.3811,-3.53789,27.1771,0.795284,3.17864,-0.0630644,-0.176276,-2.03179,-0.168621,1.26301,-0.0696376,-0.758211,-0.619893,-0.0552845,-0.950107,-0.097151,-0.147074,-0.0660763,-0.108049,
0.0608722,-0.114853,0.367809,-1.75966,-0.198358,-0.0186291,0.486502,-0.0585637,0.030537,-0.0670881,0.00706915,0.44624,0.429582,-0.0168439,0,0,0,0,0,0,0,0.0909242,-0.121186,0.398876,-1.75152,-0.0918966,1.59456,1.27872,-0.106108,0.0127166,-0.128102,-0.0210912,0.00777963,0.0574004,-0.000903207,-1.28582,-27.3811,-3.53789,27.1771,0.795284,3.17864,-0.0630644,-0.176276,-2.03179,-0.168621,1.26301,-0.0696376,-0.758211,-0.619893,-0.0552845,-0.950107,-0.097151,-0.147074,-0.0660763,-0.108049,
0.0606715,-0.114749,0.367579,-1.75965,-0.196679,-0.0170407,0.486433,-0.0501771,0.0259347,-0.0576268,0.00376147,0.41972,0.397103,-0.0171523,0,0,0,0,0,0,0,0.0871081,-0.120719,0.394613,-1.75223,-0.0888563,1.59794,1.27873,-0.129032,0.0305763,-0.123235,0.00141261,0.0515575,0.090072,0.00118122,0.816837,-28.4801,-1.28844,27.4509,1.36932,3.02666,-0.103348,-1.28307,-2.07402,-0.272939,1.49918,-0.746936,-0.498776,-0.367751,-0.381813,-0.708828,-0.0288276,0.0860539,-0.0165014,-0.107304,
0.048921,-0.107768,0.354955,-1.76369,-0.197653,-0.14358,0.478721,-0.330967,0.10978,-0.356159,-0.116044,-1.22986,-1.1005,-0.0615837,0,0,0,0,0,0,0,0.0871081,-0.120719,0.394613,-1.75223,-0.0888563,1.59794,1.27873,-0.129032,0.0305763,-0.123235,0.00141261,0.0515575,0.090072,0.00118122,0.816837,-28.4801,-1.28844,27.4509,1.36932,3.02666,-0.103348,-1.28307,-2.07402,-0.272939,1.49918,-0.746936,-0.498776,-0.367751,-0.381813,-0.708828,-0.0288276,0.0860539,-0.0165014,-0.107304,
0.054139,-0.112609,0.358956,-1.76128,-0.210179,-0.0264457,0.485609,-0.191152,0.0477732,-0.204426,-0.0540501,-0.286175,-0.273357,-0.0339525,0,0,0,0,0,0,0,0.0871081,-0.120719,0.394613,-1.75223,-0.0888563,1.59794,1.27873,-0.129032,0.0305763,-0.123235,0.00141261,0.0515575,0.090072,0.00118122,0.816837,-28.4801,-1.28844,27.4509,1.36932,3.02666,-0.103348,-2.58587,-0.69429,-0.955169,0.720643,-1.15879,0.441924,0.567518,-0.33188,0.268396,-0.293263,0.503261,-0.0618092,-0.106663,
0.0533742,-0.112422,0.358138,-1.76149,-0.211073,-0.027471,0.485476,-0.191178,0.0468207,-0.204416,-0.0536509,-0.223611,-0.256329,-0.0333976,0,0,0,0,0,0,0,0.0871081,-0.120719,0.394613,-1.75223,-0.0888563,1.59794,1.27873,-0.129032,0.0305763,-0.123235,0.00141261,0.0515575,0.090072,0.00118122,0.816837,-28.4801,-1.28844,27.4509,1.36932,3.02666,-0.103348,-2.58587,-0.69429,-0.955169,0.720643,-1.15879,0.441924,0.567518,-0.33188,0.268396,-0.293263,0.503261,-0.0618092,-0.106663,
0.0526093,-0.112239,0.357321,-1.7617,-0.211702,-0.0284248,0.485344,-0.191243,0.0457818,-0.204431,-0.0532452,-0.157195,-0.238459,-0.0328651,0,0,0,0,0,0,0,0.0871081,-0.120719,0.394613,-1.75223,-0.0888563,1.59794,1.27873,-0.129032,0.0305763,-0.123235,0.00141261,0.0515575,0.090072,0.00118122,0.816837,-28.4801,-1.28844,27.4509,1.36932,3.02666,-0.103348,-2.78769,1.25053,-1.5972,-0.555367,-0.869225,1.37038,1.49474,0.0770368,1.26175,-0.601022,0.79447,-0.0973301,-0.109503,
0.0518438,-0.11206,0.356503,-1.76192,-0.212048,-0.0293036,0.485215,-0.19136,0.0446478,-0.204486,-0.0528409,-0.0863903,-0.219685,-0.0323624,0,0,0,0,0,0,0,0.0871081,-0.120719,0.394613,-1.75223,-0.0888563,1.59794,1.27873,-0.129032,0.0305763,-0.123235,0.00141261,0.0515575,0.090072,0.00118122,0.816837,-28.4801,-1.28844,27.4509,1.36932,3.02666,-0.103348,-3.6109,3.65047,-2.88689,-2.25501,-0.758327,2.66963,2.77074,0.534408,2.6765,-1.12625,1.12279,-0.121747,-0.111724,
0.0510777,-0.111887,0.355684,-1.76213,-0.21209,-0.0301033,0.485087,-0.191546,0.0434094,-0.204594,-0.052448,-0.0105935,-0.199918,-0.0318925,0,0,0,0,0,0,0,0.0825367,-0.120092,0.389776,-1.75175,-0.0942061,1.59846,1.27871,-0.149438,0.00102115,-0.152813,0.0104077,-0.397868,-0.0751745,0.000567069,-2.78546,-26.5361,-4.66063,25.3839,-0.438846,2.42333,-0.130813,-3.6109,3.65047,-2.88689,-2.25501,-0.758327,2.66963,2.77074,0.534408,2.6765,-1.12625,1.12279,-0.121747,-0.111724,
0.0503104,-0.111719,0.354865,-1.76233,-0.211807,-0.0308194,0.484961,-0.191815,0.0420579,-0.204768,-0.0520784,0.0708624,-0.179046,-0.0314607,0,0,0,0,0,0,0,0.0825367,-0.120092,0.389776,-1.75175,-0.0942061,1.59846,1.27871,-0.149438,0.00102115,-0.152813,0.0104077,-0.397868,-0.0751745,0.000567069,-2.78546,-26.5361,-4.66063,25.3839,-0.438846,2.42333,-0.130813,-2.72861,2.22038,-2.39991,-1.39566,-0.378498,1.77856,1.8714,0.586726,1.75309,-1.04638,0.869777,-0.208319,-0.107974,
0.0495417,-0.111556,0.354045,-1.76254,-0.211172,-0.0314471,0.484837,-0.192179,0.0405847,-0.20502,-0.0517476,0.158702,-0.156922,-0.0310774,0,0,0,0,0,0,0,0.0825367,-0.120092,0.389776,-1.75175,-0.0942061,1.59846,1.27871,-0.149438,0.00102115,-0.152813,0.0104077,-0.397868,-0.0751745,0.000567069,-2.78546,-26.5361,-4.66063,25.3839,-0.438846,2.42333,-0.130813,-2.72861,2.22038,-2.39991,-1.39566,-0.378498,1.77856,1.8714,0.586726,1.75309,-1.04638,0.869777,-0.208319,-0.107974,
0.0487711,-0.1114,0.353224,-1.76275,-0.210157,-0.0319806,0.484714,-0.192648,0.0389822,-0.205359,-0.0514763,0.253685,-0.133359,-0.0307519,0,0,0,0,0,0,0,0.0825367,-0.120092,0.389776,-1.75175,-0.0942061,1.59846,1.27871,-0.149438,0.00102115,-0.152813,0.0104077,-0.397868,-0.0751745,0.000567069,-2.78546,-26.5361,-4.66063,25.3839,-0.438846,2.42333,-0.130813,-1.38916,0.610834,-1.36864,-0.46925,0.0769051,0.692749,0.829825,0.566028,0.588072,-0.820849,0.438732,-0.341729,-0.106961,
0.0479982,-0.111251,0.3524,-1.76295,-0.208731,-0.032413,0.484592,-0.193224,0.0372445,-0.205785,-0.0512916,0.356573,-0.108117,-0.0304983,0,0,0,0,0,0,0,0.0825367,-0.120092,0.389776,-1.75175,-0.0942061,1.59846,1.27871,-0.149438,0.00102115,-0.152813,0.0104077,-0.397868,-0.0751745,0.000567069,-2.78546,-26.5361,-4.66063,25.3839,-0.438846,2.42333,-0.130813,-0.477817,-0.993498,-0.650303,0.432817,0.403778,-0.289633,-0.137726,0.560769,-0.444844,-0.720154,0.0772559,-0.501485,-0.105244,
0.0472226,-0.11111,0.351575,-1.76316,-0.206859,-0.0327366,0.484471,-0.193895,0.03537,-0.206288,-0.0512291,0.468044,-0.0808947,-0.0303425,0,0,0,0,0,0,0,0.0781033,-0.119921,0.384918,-1.75193,-0.103002,1.59681,1.2787,-0.14164,0.00766956,-0.155972,-0.00515489,-0.161432,-0.0389672,0.00045426,-1.3374,-27.9564,-3.33556,26.3797,0.0198328,2.03148,-0.110672,-0.477817,-0.993498,-0.650303,0.432817,0.403778,-0.289633,-0.137726,0.560769,-0.444844,-0.720154,0.0772559,-0.501485,-0.105244,
0.0464441,-0.110976,0.350748,-1.76336,-0.204504,-0.0329419,0.48435,-0.19462,0.0333646,-0.20683,-0.0513331,0.588556,-0.0513214,-0.0303068,0,0,0,0,0,0,0,0.0781033,-0.119921,0.384918,-1.75193,-0.103002,1.59681,1.2787,-0.14164,0.00766956,-0.155972,-0.00515489,-0.161432,-0.0389672,0.00045426,-1.3374,-27.9564,-3.33556,26.3797,0.0198328,2.03148,-0.110672,-0.603831,-1.74571,-0.704304,0.762672,0.392645,-0.621853,-0.47189,0.585549,-0.782596,-0.867987,-0.0688587,-0.648892,-0.104894,
0.0456717,-0.110848,0.349925,-1.76357,-0.201718,-0.033022,0.484229,-0.193095,0.0320516,-0.205839,-0.0512486,0.696616,-0.020031,-0.0302092,0,0,0,0,0,0,0,0.0781033,-0.119921,0.384918,-1.75193,-0.103002,1.59681,1.2787,-0.14164,0.00766956,-0.155972,-0.00515489,-0.161432,-0.0389672,0.00045426,-1.3374,-27.9564,-3.33556,26.3797,0.0198328,2.03148,-0.110672,-0.603831,-1.74571,-0.704304,0.762672,0.392645,-0.621853,-0.47189,0.585549,-0.782596,-0.867987,-0.0688587,-0.648892,-0.104894,
0.0449171,-0.110722,0.349116,-1.76377,-0.198599,-0.0329668,0.484108,-0.188666,0.0314977,-0.20228,-0.051277,0.779636,0.0137931,-0.0302244,0,0,0,0,0,0,0,0.0781033,-0.119921,0.384918,-1.75193,-0.103002,1.59681,1.2787,-0.14164,0.00766956,-0.155972,-0.00515489,-0.161432,-0.0389672,0.00045426,-1.3374,-27.9564,-3.33556,26.3797,0.0198328,2.03148,-0.110672,-1.2231,-2.31468,-0.309761,1.08779,-0.200757,-0.74434,-0.609167,0.188941,-0.903139,-0.744783,-0.213634,-0.722331,-0.106803,
0.0441868,-0.110598,0.348329,-1.76398,-0.195224,-0.0327588,0.483985,-0.182572,0.0310491,-0.196686,-0.0520021,0.843911,0.0520134,-0.0306764,0,0,0,0,0,0,0,0.0781033,-0.119921,0.384918,-1.75193,-0.103002,1.59681,1.2787,-0.14164,0.00766956,-0.155972,-0.00515489,-0.161432,-0.0389672,0.00045426,-1.3374,-27.9564,-3.33556,26.3797,0.0198328,2.03148,-0.110672,-1.2231,-2.31468,-0.309761,1.08779,-0.200757,-0.74434,-0.609167,0.188941,-0.903139,-0.744783,-0.213634,-0.722331,-0.106803,
0.0434856,-0.110476,0.34757,-1.76419,-0.191648,-0.032377,0.483858,-0.175304,0.0304703,-0.189606,-0.0534575,0.893853,0.0954432,-0.0316997,0,0,0,0,0,0,0,0.0781033,-0.119921,0.384918,-1.75193,-0.103002,1.59681,1.2787,-0.14164,0.00766956,-0.155972,-0.00515489,-0.161432,-0.0389672,0.00045426,-1.3374,-27.9564,-3.33556,26.3797,0.0198328,2.03148,-0.110672,-1.67642,-1.50813,0.101665,0.58517,-0.669432,-0.270841,-0.154897,-0.111268,-0.384684,-0.578861,-0.226455,-0.726925,-0.108411,
0.0428171,-0.110357,0.346845,-1.76442,-0.187918,-0.0318019,0.483724,-0.167109,0.0297123,-0.181311,-0.05542,0.932557,0.14378,-0.0335313,0,0,0,0,0,0,0,0.0728998,-0.119638,0.379114,-1.75213,-0.102409,1.59634,1.27869,-0.182238,0.00334437,-0.189,-0.00870471,0.130868,-0.0005739,0.00076883,-0.627255,-27.6589,-2.58574,26.8042,0.0683558,1.99853,-0.137222,-0.154002,-1.38833,-0.566442,0.245468,0.709335,-0.577808,-0.455291,0.780178,-0.66708,-1.01347,-0.318262,-0.817483,-0.114688,
0.042185,-0.110242,0.346158,-1.76465,-0.18407,-0.0310227,0.483578,-0.158028,0.0288846,-0.171805,-0.0573532,0.962075,0.1948,-0.0366083,0,0,0,0,0,0,0,0.0728998,-0.119638,0.379114,-1.75213,-0.102409,1.59634,1.27869,-0.182238,0.00334437,-0.189,-0.00870471,0.130868,-0.0005739,0.00076883,-0.627255,-27.6589,-2.58574,26.8042,0.0683558,1.99853,-0.137222,-0.154002,-1.38833,-0.566442,0.245468,0.709335,-0.577808,-0.455291,0.780178,-0.66708,-1.01347,-0.318262,-0.817483,-0.114688,
0.0415936,-0.110128,0.345515,-1.76488,-0.180136,-0.0300507,0.483411,-0.147848,0.0283727,-0.160782,-0.0580848,0.983515,0.242998,-0.0415714,0,0,0,0,0,0,0,0.0728998,-0.119638,0.379114,-1.75213,-0.102409,1.59634,1.27869,-0.182238,0.00334437,-0.189,-0.00870471,0.130868,-0.0005739,0.00076883,-0.627255,-27.6589,-2.58574,26.8042,0.0683558,1.99853,-0.137222,0.272957,-3.04417,-0.586508,1.27214,1.00476,-1.44979,-1.32071,0.900548,-1.59621,-1.08574,-0.452876,-0.885174,-0.114645,
0.0410497,-0.110011,0.344925,-1.7651,-0.176148,-0.0289424,0.483219,-0.135981,0.0292492,-0.147548,-0.0549141,0.996979,0.277076,-0.0481331,0,0,0,0,0,0,0,0.0728998,-0.119638,0.379114,-1.75213,-0.102409,1.59634,1.27869,-0.182238,0.00334437,-0.189,-0.00870471,0.130868,-0.0005739,0.00076883,-0.627255,-27.6589,-2.58574,26.8042,0.0683558,1.99853,-0.137222,0.272957,-3.04417,-0.586508,1.27214,1.00476,-1.44979,-1.32071,0.900548,-1.59621,-1.08574,-0.452876,-0.885174,-0.114645,
0.0406006,-0.109861,0.344423,-1.76525,-0.172469,-0.0278697,0.483082,-0.112281,0.0375466,-0.125493,-0.0388717,0.919618,0.268164,-0.0343501,0,0,0,0,0,0,0,0.0728998,-0.119638,0.379114,-1.75213,-0.102409,1.59634,1.27869,-0.182238,0.00334437,-0.189,-0.00870471,0.130868,-0.0005739,0.00076883,-0.627255,-27.6589,-2.58574,26.8042,0.0683558,1.99853,-0.137222,-0.239454,-3.51156,-0.813957,1.58386,0.77675,-1.5471,-1.42754,0.833023,-1.70175,-1.17361,-0.412239,-0.917657,-0.116762,
0.0402142,-0.109708,0.343991,-1.76539,-0.168995,-0.0267791,0.482945,-0.0965981,0.0383721,-0.107995,-0.0341406,0.868692,0.272673,-0.0341205,0,0,0,0,0,0,0,0.0671657,-0.119572,0.372922,-1.75218,-0.091046,1.59649,1.27868,-0.168286,0.00604946,-0.208147,-0.00287668,0.460309,0.0172535,0.00166331,0.892215,-28.3333,-0.93535,25.856,0.752255,2.17156,-0.103348,-0.239454,-3.51156,-0.813957,1.58386,0.77675,-1.5471,-1.42754,0.833023,-1.70175,-1.17361,-0.412239,-0.917657,-0.116762,
0.0398754,-0.109561,0.343612,-1.76552,-0.165656,-0.0256559,0.482807,-0.084693,0.0366642,-0.0947103,-0.0327257,0.834744,0.280796,-0.0345986,0,0,0,0,0,0,0,0.0671657,-0.119572,0.372922,-1.75218,-0.091046,1.59649,1.27868,-0.168286,0.00604946,-0.208147,-0.00287668,0.460309,0.0172535,0.00166331,0.892215,-28.3333,-0.93535,25.856,0.752255,2.17156,-0.103348,-1.9816,-2.86826,-0.581541,1.43159,-0.40988,-0.860293,-0.762519,0.223498,-1.00203,-1.00379,-0.127048,-0.921252,-0.112494,
0.0395739,-0.109424,0.343274,-1.76565,-0.162407,-0.0244986,0.482667,-0.0753794,0.034151,-0.0843976,-0.0320767,0.812248,0.289308,-0.0349752,0,0,0,0,0,0,0,0.0671657,-0.119572,0.372922,-1.75218,-0.091046,1.59649,1.27868,-0.168286,0.00604946,-0.208147,-0.00287668,0.460309,0.0172535,0.00166331,0.892215,-28.3333,-0.93535,25.856,0.752255,2.17156,-0.103348,-3.48433,-1.57839,-0.566717,0.92492,-1.35894,0.0819208,0.168791,-0.219301,-0.0437446,-0.859641,0.281489,-0.843919,-0.114203,
0.0393021,-0.109298,0.342969,-1.76577,-0.159216,-0.0233098,0.482526,-0.0679562,0.03146,-0.0762455,-0.0314574,0.79761,0.297217,-0.0352491,0,0,0,0,0,0,0,0.0671657,-0.119572,0.372922,-1.75218,-0.091046,1.59649,1.27868,-0.168286,0.00604946,-0.208147,-0.00287668,0.460309,0.0172535,0.00166331,0.892215,-28.3333,-0.93535,25.856,0.752255,2.17156,-0.103348,-3.48433,-1.57839,-0.566717,0.92492,-1.35894,0.0819208,0.168791,-0.219301,-0.0437446,-0.859641,0.281489,-0.843919,-0.114203,
0.0342159,-0.108745,0.337633,-1.76943,-0.25223,-0.146311,0.476884,-0.325593,0.0919897,-0.349587,-0.124212,-1.21285,-0.946454,-0.0764543,0,0,0,0,0,0,0,0.0671657,-0.119572,0.372922,-1.75218,-0.091046,1.59649,1.27868,-0.168286,0.00604946,-0.208147,-0.00287668,0.460309,0.0172535,0.00166331,0.892215,-28.3333,-0.93535,25.856,0.752255,2.17156,-0.103348,-3.28576,-0.912887,-0.519656,0.765766,-1.32306,0.359023,0.447897,-0.252638,0.222396,-0.65156,0.514328,-0.632782,-0.115617,
0.0350473,-0.115542,0.338148,-1.76357,-0.182312,0.0161149,0.483156,-0.174153,0.017519,-0.186994,-0.0673443,-0.284293,0.390731,-0.0520358,0,0,0,0,0,0,0,0.0671657,-0.119572,0.372922,-1.75218,-0.091046,1.59649,1.27868,-0.168286,0.00604946,-0.208147,-0.00287668,0.460309,0.0172535,0.00166331,0.892215,-28.3333,-0.93535,25.856,0.752255,2.17156,-0.103348,-3.28576,-0.912887,-0.519656,0.765766,-1.32306,0.359023,0.447897,-0.252638,0.222396,-0.65156,0.514328,-0.632782,-0.115617,
0.0343527,-0.115476,0.337402,-1.76384,-0.1833,0.017788,0.48295,-0.173666,0.0166742,-0.18647,-0.0670609,-0.247052,0.418278,-0.0514848,0,0,0,0,0,0,0,0.0616119,-0.119067,0.366415,-1.75224,-0.0786171,1.59716,1.27866,-0.179466,0.0222778,-0.190866,0.000367289,0.304902,0.00463725,0.00113525,1.95942,-28.3809,0.26277,26.5305,0.807186,2.8875,-0.130813,-2.07849,-0.407344,-1.04995,0.416733,-0.348836,0.331711,0.426962,0.330306,0.206666,-0.802066,0.57519,-0.504201,-0.113589,
0.0336597,-0.115412,0.336658,-1.76411,-0.184131,0.0195764,0.482746,-0.173238,0.0158552,-0.185996,-0.0668376,-0.207652,0.447083,-0.0509502,0,0,0,0,0,0,0,0.0616119,-0.119067,0.366415,-1.75224,-0.0786171,1.59716,1.27866,-0.179466,0.0222778,-0.190866,0.000367289,0.304902,0.00463725,0.00113525,1.95942,-28.3809,0.26277,26.5305,0.807186,2.8875,-0.130813,-2.7066,2.66915,-1.44601,-1.50185,-0.60354,1.92939,2.01726,0.337387,1.90484,-0.827964,0.882882,-0.366576,-0.119558,
0.0329682,-0.115352,0.335915,-1.76437,-0.184794,0.0214852,0.482544,-0.172874,0.0150564,-0.185576,-0.0666734,-0.165756,0.477218,-0.0504382,0,0,0,0,0,0,0,0.0616119,-0.119067,0.366415,-1.75224,-0.0786171,1.59716,1.27866,-0.179466,0.0222778,-0.190866,0.000367289,0.304902,0.00463725,0.00113525,1.95942,-28.3809,0.26277,26.5305,0.807186,2.8875,-0.130813,-2.7066,2.66915,-1.44601,-1.50185,-0.60354,1.92939,2.01726,0.337387,1.90484,-0.827964,0.882882,-0.366576,-0.119558,
0.0322779,-0.115295,0.335175,-1.76464,-0.185278,0.0235203,0.482344,-0.17258,0.0142724,-0.185214,-0.066568,-0.12098,0.508754,-0.0499498,0,0,0,0,0,0,0,0.0616119,-0.119067,0.366415,-1.75224,-0.0786171,1.59716,1.27866,-0.179466,0.0222778,-0.190866,0.000367289,0.304902,0.00463725,0.00113525,1.95942,-28.3809,0.26277,26.5305,0.807186,2.8875,-0.130813,-2.86674,2.06786,-2.22338,-1.3136,-0.293473,1.67314,1.73895,0.698823,1.67013,-1.26689,0.84857,-0.519233,-0.124164,
0.0315885,-0.115241,0.334435,-1.76491,-0.185569,0.0256873,0.482146,-0.172362,0.0134981,-0.184915,-0.0665214,-0.07288,0.541754,-0.0494933,0,0,0,0,0,0,0,0.0616119,-0.119067,0.366415,-1.75224,-0.0786171,1.59716,1.27866,-0.179466,0.0222778,-0.190866,0.000367289,0.304902,0.00463725,0.00113525,1.95942,-28.3809,0.26277,26.5305,0.807186,2.8875,-0.130813,-2.86674,2.06786,-2.22338,-1.3136,-0.293473,1.67314,1.73895,0.698823,1.67013,-1.26689,0.84857,-0.519233,-0.124164,
0.0308995,-0.11519,0.333696,-1.76517,-0.185653,0.0279924,0.48195,-0.172227,0.012729,-0.184684,-0.0665339,-0.0209547,0.576272,-0.0490705,0,0,0,0,0,0,0,0.0544117,-0.118682,0.358949,-1.75251,-0.0804417,1.59754,1.27858,-0.150218,0.0041932,-0.17357,-0.0238293,-0.229534,0.101046,-0.00125305,-0.349545,-29.1783,-2.06206,27.3993,-1.20789,3.67669,-0.217789,-3.42919,0.134335,-1.65837,-0.171246,-0.946387,0.881914,0.967617,0.206873,0.809968,-1.11712,0.526747,-0.645882,-0.129592,
0.0302108,-0.115142,0.332958,-1.76544,-0.185512,0.0304418,0.481755,-0.172181,0.0119607,-0.184526,-0.066606,0.0353626,0.612349,-0.0486919,0,0,0,0,0,0,0,0.0544117,-0.118682,0.358949,-1.75251,-0.0804417,1.59754,1.27858,-0.150218,0.0041932,-0.17357,-0.0238293,-0.229534,0.101046,-0.00125305,-0.349545,-29.1783,-2.06206,27.3993,-1.20789,3.67669,-0.217789,-3.42919,0.134335,-1.65837,-0.171246,-0.946387,0.881914,0.967617,0.206873,0.809968,-1.11712,0.526747,-0.645882,-0.129592,
0.0295219,-0.115097,0.33222,-1.76571,-0.185125,0.0330418,0.481562,-0.172231,0.01119,-0.184446,-0.0667383,0.0967031,0.650006,-0.0483637,0,0,0,0,0,0,0,0.0544117,-0.118682,0.358949,-1.75251,-0.0804417,1.59754,1.27858,-0.150218,0.0041932,-0.17357,-0.0238293,-0.229534,0.101046,-0.00125305,-0.349545,-29.1783,-2.06206,27.3993,-1.20789,3.67669,-0.217789,-0.355747,-0.71459,-1.69031,0.132171,0.717093,-0.141392,-0.0264496,0.845575,-0.23945,-0.930965,0.0462465,-0.292322,-0.128896,
0.0288324,-0.115056,0.331482,-1.76597,-0.18447,0.0357987,0.481369,-0.17238,0.0104146,-0.184444,-0.0669307,0.163756,0.689231,-0.0480963,0,0,0,0,0,0,0,0.0544117,-0.118682,0.358949,-1.75251,-0.0804417,1.59754,1.27858,-0.150218,0.0041932,-0.17357,-0.0238293,-0.229534,0.101046,-0.00125305,-0.349545,-29.1783,-2.06206,27.3993,-1.20789,3.67669,-0.217789,-0.0744531,-1.56403,-1.52405,0.714365,0.468173,-0.557372,-0.444763,0.487842,-0.683443,-0.546407,-0.152481,0.0322566,-0.131476,
0.0281419,-0.115017,0.330744,-1.76624,-0.183521,0.0387185,0.481178,-0.172627,0.00963396,-0.184519,-0.067181,0.237256,0.729961,-0.0479049,0,0,0,0,0,0,0,0.0544117,-0.118682,0.358949,-1.75251,-0.0804417,1.59754,1.27858,-0.150218,0.0041932,-0.17357,-0.0238293,-0.229534,0.101046,-0.00125305,-0.349545,-29.1783,-2.06206,27.3993,-1.20789,3.67669,-0.217789,-0.0744531,-1.56403,-1.52405,0.714365,0.468173,-0.557372,-0.444763,0.487842,-0.683443,-0.546407,-0.152481,0.0322566,-0.131476,
0.02745,-0.114982,0.330006,-1.76651,-0.182249,0.0418068,0.480987,-0.172961,0.00885107,-0.184658,-0.0674829,0.317938,0.772056,-0.0478043,0,0,0,0,0,0,0,0.0544117,-0.118682,0.358949,-1.75251,-0.0804417,1.59754,1.27858,-0.150218,0.0041932,-0.17357,-0.0238293,-0.229534,0.101046,-0.00125305,-0.349545,-29.1783,-2.06206,27.3993,-1.20789,3.67669,-0.217789,-0.463981,-2.07104,-1.78387,0.969328,0.143901,-0.683569,-0.567713,0.289864,-0.820944,-0.505727,-0.266183,0.147509,-0.139807,
0.0267568,-0.114949,0.329267,-1.76678,-0.180624,0.0450601,0.480795,-0.173304,0.00818347,-0.184785,-0.0674252,0.406368,0.813322,-0.0478216,0,0,0,0,0,0,0,0.0496767,-0.11871,0.353361,-1.75375,-0.0857014,1.60065,1.27852,-0.145648,0.00279439,-0.174121,-0.0419019,-0.0785535,0.152991,-0.00132411,-0.881161,-28.7062,-2.58574,27.2009,-0.871891,3.82226,-0.157364,-0.463981,-2.07104,-1.78387,0.969328,0.143901,-0.683569,-0.567713,0.289864,-0.820944,-0.505727,-0.266183,0.147509,-0.139807,
0.0260632,-0.114917,0.328528,-1.76704,-0.178613,0.0484402,0.480603,-0.173405,0.00801573,-0.184657,-0.0654567,0.502626,0.845046,-0.0479986,0,0,0,0,0,0,0,0.0496767,-0.11871,0.353361,-1.75375,-0.0857014,1.60065,1.27852,-0.145648,0.00279439,-0.174121,-0.0419019,-0.0785535,0.152991,-0.00132411,-0.881161,-28.7062,-2.58574,27.2009,-0.871891,3.82226,-0.157364,0.107206,-3.34371,-1.87452,1.58632,0.362232,-1.38346,-1.27343,0.30904,-1.53386,-0.466708,-0.596097,0.235919,-0.146857,
0.0253698,-0.114886,0.327791,-1.7673,-0.176184,0.0519212,0.48041,-0.173348,0.00769616,-0.184361,-0.0631429,0.607162,0.870231,-0.0483668,0,0,0,0,0,0,0,0.0496767,-0.11871,0.353361,-1.75375,-0.0857014,1.60065,1.27852,-0.145648,0.00279439,-0.174121,-0.0419019,-0.0785535,0.152991,-0.00132411,-0.881161,-28.7062,-2.58574,27.2009,-0.871891,3.82226,-0.157364,-0.285438,-2.75758,-1.72528,1.15936,-0.11455,-1.00201,-0.898336,-0.0253044,-1.11999,-0.272129,-0.68996,0.36048,-0.151612,
0.024679,-0.114857,0.327056,-1.76754,-0.17332,0.0554823,0.480214,-0.17271,0.00721352,-0.1836,-0.0609605,0.716225,0.890277,-0.0489126,0,0,0,0,0,0,0,0.0496767,-0.11871,0.353361,-1.75375,-0.0857014,1.60065,1.27852,-0.145648,0.00279439,-0.174121,-0.0419019,-0.0785535,0.152991,-0.00132411,-0.881161,-28.7062,-2.58574,27.2009,-0.871891,3.82226,-0.157364,-0.285438,-2.75758,-1.72528,1.15936,-0.11455,-1.00201,-0.898336,-0.0253044,-1.11999,-0.272129,-0.68996,0.36048,-0.151612,
0.0240057,-0.114827,0.326336,-1.76778,-0.170126,0.0591015,0.480017,-0.168313,0.00759116,-0.180146,-0.058512,0.798351,0.904815,-0.0492675,0,0,0,0,0,0,0,0.0496767,-0.11871,0.353361,-1.75375,-0.0857014,1.60065,1.27852,-0.145648,0.00279439,-0.174121,-0.0419019,-0.0785535,0.152991,-0.00132411,-0.881161,-28.7062,-2.58574,27.2009,-0.871891,3.82226,-0.157364,0.0997835,-2.74312,-2.36768,1.04585,0.385622,-1.06858,-0.964484,0.351598,-1.17557,-0.510524,-0.690256,0.393894,-0.154205,
0.0233581,-0.114795,0.325639,-1.768,-0.166684,0.0627658,0.479816,-0.161901,0.00804153,-0.174245,-0.0567574,0.860488,0.916061,-0.0502536,0,0,0,0,0,0,0,0.0447158,-0.118789,0.347952,-1.75562,-0.0841764,1.6085,1.27848,-0.165195,0.000419068,-0.181068,-0.0624,0.115379,0.337482,5.32922e-05,-0.198788,-27.8572,-1.9113,27.0026,0.0436365,3.92113,-0.157364,0.0997835,-2.74312,-2.36768,1.04585,0.385622,-1.06858,-0.964484,0.351598,-1.17557,-0.510524,-0.690256,0.393894,-0.154205,
0.0227421,-0.114761,0.324973,-1.76823,-0.163055,0.0664656,0.479607,-0.153996,0.00837514,-0.166449,-0.0557904,0.907349,0.924948,-0.0521949,0,0,0,0,0,0,0,0.0447158,-0.118789,0.347952,-1.75562,-0.0841764,1.6085,1.27848,-0.165195,0.000419068,-0.181068,-0.0624,0.115379,0.337482,5.32922e-05,-0.198788,-27.8572,-1.9113,27.0026,0.0436365,3.92113,-0.157364,-0.556952,-2.67605,-2.83795,1.04573,0.145689,-0.896952,-0.79193,0.330168,-1.00812,-0.640173,-0.559054,0.415111,-0.158736,
0.0221629,-0.114726,0.324345,-1.76845,-0.159286,0.070192,0.479385,-0.144801,0.00881121,-0.156975,-0.0550974,0.942095,0.931616,-0.0556627,0,0,0,0,0,0,0,0.0447158,-0.118789,0.347952,-1.75562,-0.0841764,1.6085,1.27848,-0.165195,0.000419068,-0.181068,-0.0624,0.115379,0.337482,5.32922e-05,-0.198788,-27.8572,-1.9113,27.0026,0.0436365,3.92113,-0.157364,-0.556952,-2.67605,-2.83795,1.04573,0.145689,-0.896952,-0.79193,0.330168,-1.00812,-0.640173,-0.559054,0.415111,-0.158736,
0.0216277,-0.114681,0.323764,-1.76864,-0.155423,0.0738672,0.479142,-0.133811,0.0112217,-0.1453,-0.0495142,0.965743,0.918792,-0.0607466,0,0,0,0,0,0,0,0.0447158,-0.118789,0.347952,-1.75562,-0.0841764,1.6085,1.27848,-0.165195,0.000419068,-0.181068,-0.0624,0.115379,0.337482,5.32922e-05,-0.198788,-27.8572,-1.9113,27.0026,0.0436365,3.92113,-0.157364,-0.533845,-2.06875,-2.67936,0.870959,0.167704,-0.617394,-0.507645,0.343652,-0.73771,-0.558423,-0.329012,0.445501,-0.164114,
0.021165,-0.114593,0.323253,-1.76873,-0.151647,0.0771541,0.478943,-0.11567,0.022111,-0.127592,-0.0220091,0.944107,0.821712,-0.0497287,0,0,0,0,0,0,0,0.0447158,-0.118789,0.347952,-1.75562,-0.0841764,1.6085,1.27848,-0.165195,0.000419068,-0.181068,-0.0624,0.115379,0.337482,5.32922e-05,-0.198788,-27.8572,-1.9113,27.0026,0.0436365,3.92113,-0.157364,-0.533845,-2.06875,-2.67936,0.870959,0.167704,-0.617394,-0.507645,0.343652,-0.73771,-0.558423,-0.329012,0.445501,-0.164114,
0.0207515,-0.114503,0.322796,-1.76879,-0.147899,0.0802,0.478745,-0.103381,0.0224543,-0.114209,-0.0155958,0.937057,0.761493,-0.0495538,0,0,0,0,0,0,0,0.0390744,-0.118749,0.341607,-1.75799,-0.0758053,1.62348,1.27839,-0.161465,0.00411567,-0.185337,-0.0749258,0.333821,0.518652,-0.00389157,0.868412,-28.3809,-0.986925,27.2525,1.1615,3.92846,-0.197647,0.149725,-2.40256,-2.61355,1.2558,0.675381,-0.927235,-0.807756,0.613505,-1.08761,-0.565318,-0.183758,0.44621,-0.165544,
0.0203763,-0.114423,0.322381,-1.76886,-0.144151,0.0830743,0.478545,-0.0937955,0.0199074,-0.103802,-0.0157692,0.936947,0.718572,-0.0498602,0,0,0,0,0,0,0,0.0390744,-0.118749,0.341607,-1.75799,-0.0758053,1.62348,1.27839,-0.161465,0.00411567,-0.185337,-0.0749258,0.333821,0.518652,-0.00389157,0.868412,-28.3809,-0.986925,27.2525,1.1615,3.92846,-0.197647,-0.50249,-2.89906,-2.34862,1.83394,0.182151,-1.04046,-0.92605,0.323112,-1.24223,-0.428733,0.0112226,0.441544,-0.169623,
0.0200324,-0.114356,0.322,-1.76893,-0.140389,0.0858162,0.478345,-0.0859721,0.0169201,-0.0953579,-0.0177427,0.940384,0.685459,-0.0500713,0,0,0,0,0,0,0,0.0390744,-0.118749,0.341607,-1.75799,-0.0758053,1.62348,1.27839,-0.161465,0.00411567,-0.185337,-0.0749258,0.333821,0.518652,-0.00389157,0.868412,-28.3809,-0.986925,27.2525,1.1615,3.92846,-0.197647,-0.50249,-2.89906,-2.34862,1.83394,0.182151,-1.04046,-0.92605,0.323112,-1.24223,-0.428733,0.0112226,0.441544,-0.169623,
0.0303003,-0.110742,0.333166,-1.76732,-0.259311,-0.11133,0.476792,-0.196411,0.0546157,-0.210797,-0.0995302,-1.19595,-0.372292,-0.0794405,0,0,0,0,0,0,0,0.0390744,-0.118749,0.341607,-1.75799,-0.0758053,1.62348,1.27839,-0.161465,0.00411567,-0.185337,-0.0749258,0.333821,0.518652,-0.00389157,0.868412,-28.3809,-0.986925,27.2525,1.1615,3.92846,-0.197647,-1.22551,-1.3971,-2.03977,1.17532,-0.362994,-0.175948,-0.0701452,0.0251202,-0.355374,-0.227915,0.36065,0.501991,-0.170734,
0.0219167,-0.115193,0.322916,-1.7665,-0.158266,0.0573425,0.481753,-0.0555134,0.0184167,-0.0614437,-0.0499634,-0.534278,-0.123549,-0.0602601,0,0,0,0,0,0,0,0.0390744,-0.118749,0.341607,-1.75799,-0.0758053,1.62348,1.27839,-0.161465,0.00411567,-0.185337,-0.0749258,0.333821,0.518652,-0.00389157,0.868412,-28.3809,-0.986925,27.2525,1.1615,3.92846,-0.197647,-1.22551,-1.3971,-2.03977,1.17532,-0.362994,-0.175948,-0.0701452,0.0251202,-0.355374,-0.227915,0.36065,0.501991,-0.170734,
0.0216999,-0.11512,0.322675,-1.7667,-0.160486,0.0568536,0.481514,-0.0542185,0.0181038,-0.0601188,-0.0499127,-0.555092,-0.122233,-0.0598536,0,0,0,0,0,0,0,0.0390744,-0.118749,0.341607,-1.75799,-0.0758053,1.62348,1.27839,-0.161465,0.00411567,-0.185337,-0.0749258,0.333821,0.518652,-0.00389157,0.868412,-28.3809,-0.986925,27.2525,1.1615,3.92846,-0.197647,-1.01719,-0.0663327,-2.66003,0.385792,0.217762,0.422142,0.53565,0.549158,0.270547,-0.562848,0.656853,0.434224,-0.175959,
0.0214881,-0.115049,0.32244,-1.7669,-0.162796,0.0563703,0.481276,-0.0529518,0.017768,-0.0588231,-0.0498385,-0.577428,-0.120815,-0.0594524,0,0,0,0,0,0,0,0.0337362,-0.118385,0.335775,-1.75974,-0.0647367,1.64033,1.27828,-0.179886,0.0163825,-0.176012,-0.0350575,0.315211,0.500284,9.90767e-06,1.75708,-29.4045,-0.0625476,26.951,1.30157,2.82799,-0.244339,-1.75827,1.91493,-2.55392,-0.674622,-0.206154,1.52411,1.64589,0.385869,1.40414,-0.504379,0.993311,0.434001,-0.173906,
0.0212812,-0.11498,0.32221,-1.7671,-0.165201,0.0558932,0.48104,-0.0517084,0.0174048,-0.05755,-0.0497498,-0.601268,-0.119288,-0.0590572,0,0,0,0,0,0,0,0.0337362,-0.118385,0.335775,-1.75974,-0.0647367,1.64033,1.27828,-0.179886,0.0163825,-0.176012,-0.0350575,0.315211,0.500284,9.90767e-06,1.75708,-29.4045,-0.0625476,26.951,1.30157,2.82799,-0.244339,-1.75827,1.91493,-2.55392,-0.674622,-0.206154,1.52411,1.64589,0.385869,1.40414,-0.504379,0.993311,0.434001,-0.173906,
0.0210793,-0.114912,0.321985,-1.7673,-0.167707,0.0554227,0.480805,-0.0504859,0.0170097,-0.0562956,-0.0496579,-0.62656,-0.117613,-0.0586696,0,0,0,0,0,0,0,0.0337362,-0.118385,0.335775,-1.75974,-0.0647367,1.64033,1.27828,-0.179886,0.0163825,-0.176012,-0.0350575,0.315211,0.500284,9.90767e-06,1.75708,-29.4045,-0.0625476,26.951,1.30157,2.82799,-0.244339,-0.313356,2.12745,-3.18981,-0.894775,1.09011,1.33879,1.46846,1.20577,1.22734,-0.837499,1.03263,0.427944,-0.165057,
0.0208821,-0.114845,0.321764,-1.76749,-0.17032,0.0549599,0.480572,-0.0492861,0.0165771,-0.0550597,-0.0495765,-0.653201,-0.115711,-0.0582884,0,0,0,0,0,0,0,0.0337362,-0.118385,0.335775,-1.75974,-0.0647367,1.64033,1.27828,-0.179886,0.0163825,-0.176012,-0.0350575,0.315211,0.500284,9.90767e-06,1.75708,-29.4045,-0.0625476,26.951,1.30157,2.82799,-0.244339,-0.313356,2.12745,-3.18981,-0.894775,1.09011,1.33879,1.46846,1.20577,1.22734,-0.837499,1.03263,0.427944,-0.165057,
0.0206897,-0.114781,0.321549,-1.76769,-0.173044,0.0545061,0.48034,-0.0481165,0.0161,-0.0538472,-0.0495237,-0.681003,-0.113444,-0.0579153,0,0,0,0,0,0,0,0.0337362,-0.118385,0.335775,-1.75974,-0.0647367,1.64033,1.27828,-0.179886,0.0163825,-0.176012,-0.0350575,0.315211,0.500284,9.90767e-06,1.75708,-29.4045,-0.0625476,26.951,1.30157,2.82799,-0.244339,-1.49808,1.83556,-2.42255,-0.864017,0.0216054,1.39996,1.53614,0.534087,1.29186,-0.658477,0.774095,0.243223,-0.155294,
0.0205017,-0.114719,0.321338,-1.76789,-0.175883,0.0540637,0.48011,-0.0469942,0.0155699,-0.052671,-0.0495237,-0.709656,-0.110595,-0.0575482,0,0,0,0,0,0,0,0.0292668,-0.117852,0.331243,-1.75955,-0.0735658,1.64541,1.27819,-0.115247,0.0196831,-0.135854,0.00887814,-0.496749,0.0887486,-0.0032491,1.32465,-30.1027,-0.185533,25.0864,-1.15937,1.95275,-0.0767973,-1.49808,1.83556,-2.42255,-0.864017,0.0216054,1.39996,1.53614,0.534087,1.29186,-0.658477,0.774095,0.243223,-0.155294,
0.0203179,-0.114659,0.321132,-1.76809,-0.178838,0.0536363,0.479882,-0.0459496,0.014975,-0.051556,-0.0496081,-0.738654,-0.10684,-0.0571867,0,0,0,0,0,0,0,0.0292668,-0.117852,0.331243,-1.75955,-0.0735658,1.64541,1.27819,-0.115247,0.0196831,-0.135854,0.00887814,-0.496749,0.0887486,-0.0032491,1.32465,-30.1027,-0.185533,25.0864,-1.15937,1.95275,-0.0767973,-2.38665,0.0922537,-2.24582,-0.254916,-0.525054,0.682218,0.812401,0.281866,0.581573,-0.913886,0.224774,-0.148539,-0.153594,
0.0201378,-0.114602,0.32093,-1.76829,-0.181906,0.0532295,0.479654,-0.0450337,0.0143001,-0.0505458,-0.0498187,-0.767197,-0.101717,-0.0568258,0,0,0,0,0,0,0,0.0292668,-0.117852,0.331243,-1.75955,-0.0735658,1.64541,1.27819,-0.115247,0.0196831,-0.135854,0.00887814,-0.496749,0.0887486,-0.0032491,1.32465,-30.1027,-0.185533,25.0864,-1.15937,1.95275,-0.0767973,-2.75703,-1.08878,-1.7686,0.250563,-0.936512,0.149719,0.277292,-0.00969382,0.0426239,-0.890465,-0.137157,-0.345191,-0.152884,
0.0199604,-0.114548,0.320731,-1.76849,-0.185082,0.0528512,0.479428,-0.0443288,0.0135242,-0.0497111,-0.0502084,-0.794044,-0.0945786,-0.0564569,0,0,0,0,0,0,0,0.0292668,-0.117852,0.331243,-1.75955,-0.0735658,1.64541,1.27819,-0.115247,0.0196831,-0.135854,0.00887814,-0.496749,0.0887486,-0.0032491,1.32465,-30.1027,-0.185533,25.0864,-1.15937,1.95275,-0.0767973,-2.75703,-1.08878,-1.7686,0.250563,-0.936512,0.149719,0.277292,-0.00969382,0.0426239,-0.890465,-0.137157,-0.345191,-0.152884,
0.0197846,-0.114497,0.320534,-1.76869,-0.188352,0.0525129,0.479204,-0.0439624,0.0126196,-0.0491641,-0.0508404,-0.817299,-0.0845641,-0.0560679,0,0,0,0,0,0,0,0.0292668,-0.117852,0.331243,-1.75955,-0.0735658,1.64541,1.27819,-0.115247,0.0196831,-0.135854,0.00887814,-0.496749,0.0887486,-0.0032491,1.32465,-30.1027,-0.185533,25.0864,-1.15937,1.95275,-0.0767973,-2.42547,-1.42902,-1.38135,0.292682,-0.86666,-0.0963818,0.0338619,-0.0485359,-0.196135,-0.840481,-0.384188,-0.434111,-0.155732,
0.0196081,-0.114451,0.320338,-1.7689,-0.191688,0.0522306,0.478982,-0.0441274,0.0115496,-0.0490759,-0.0517818,-0.834112,-0.0705828,-0.0556351,0,0,0,0,0,0,0,0.0292668,-0.117852,0.331243,-1.75955,-0.0735658,1.64541,1.27819,-0.115247,0.0196831,-0.135854,0.00887814,-0.496749,0.0887486,-0.0032491,1.32465,-30.1027,-0.185533,25.0864,-1.15937,1.95275,-0.0767973,-2.42547,-1.42902,-1.38135,0.292682,-0.86666,-0.0963818,0.0338619,-0.0485359,-0.196135,-0.840481,-0.384188,-0.434111,-0.155732,
0.0194277,-0.11441,0.320139,-1.76911,-0.195049,0.0520251,0.478761,-0.0451064,0.0102681,-0.0497005,-0.0530859,-0.840283,-0.0513624,-0.0551206,0,0,0,0,0,0,0,0.026491,-0.117257,0.327768,-1.75965,-0.0914912,1.6477,1.27813,-0.081433,0.0179279,-0.0915696,-0.00586841,-0.610171,0.0396398,-0.00133544,0.717655,-29.7774,-0.685411,26.3559,-1.3855,2.13128,-0.163772,-2.06262,-2.68834,-1.16217,0.756337,-0.674097,-0.81059,-0.677486,0.0215886,-0.913952,-0.955774,-0.801926,-0.635571,-0.157265,
0.0192385,-0.114375,0.319934,-1.76933,-0.198368,0.0519227,0.478543,-0.0472968,0.0087194,-0.0514002,-0.0547611,-0.829801,-0.0255971,-0.0544679,0,0,0,0,0,0,0,0.026491,-0.117257,0.327768,-1.75965,-0.0914912,1.6477,1.27813,-0.081433,0.0179279,-0.0915696,-0.00586841,-0.610171,0.0396398,-0.00133544,0.717655,-29.7774,-0.685411,26.3559,-1.3855,2.13128,-0.163772,-1.60143,-3.88851,-1.0874,1.1962,-0.356278,-1.512,-1.36967,0.184887,-1.6246,-1.11503,-1.18214,-0.82045,-0.158967,
0.0190336,-0.114348,0.319715,-1.76956,-0.201546,0.0519539,0.478329,-0.0512287,0.00683998,-0.0546676,-0.0567288,-0.79442,0.00779564,-0.0535904,0,0,0,0,0,0,0,0.026491,-0.117257,0.327768,-1.75965,-0.0914912,1.6477,1.27813,-0.081433,0.0179279,-0.0915696,-0.00586841,-0.610171,0.0396398,-0.00133544,0.717655,-29.7774,-0.685411,26.3559,-1.3855,2.13128,-0.163772,-1.60143,-3.88851,-1.0874,1.1962,-0.356278,-1.512,-1.36967,0.184887,-1.6246,-1.11503,-1.18214,-0.82045,-0.158967,
0.0188033,-0.114329,0.319475,-1.76979,-0.20444,0.0521517,0.478119,-0.0575552,0.00455709,-0.0601278,-0.0588032,-0.72351,0.0494318,-0.0523623,0,0,0,0,0,0,0,0.026491,-0.117257,0.327768,-1.75965,-0.0914912,1.6477,1.27813,-0.081433,0.0179279,-0.0915696,-0.00586841,-0.610171,0.0396398,-0.00133544,0.717655,-29.7774,-0.685411,26.3559,-1.3855,2.13128,-0.163772,-1.25762,-4.63807,-1.35458,1.44732,0.00802222,-1.9616,-1.81438,0.43455,-2.077,-1.32853,-1.39448,-0.92658,-0.157453,
0.0185353,-0.114322,0.3192,-1.77004,-0.206858,0.0525498,0.477917,-0.067003,0.00177668,-0.0685081,-0.0607537,-0.604498,0.0995394,-0.0506231,0,0,0,0,0,0,0,0.026491,-0.117257,0.327768,-1.75965,-0.0914912,1.6477,1.27813,-0.081433,0.0179279,-0.0915696,-0.00586841,-0.610171,0.0396398,-0.00133544,0.717655,-29.7774,-0.685411,26.3559,-1.3855,2.13128,-0.163772,-1.25762,-4.63807,-1.35458,1.44732,0.00802222,-1.9616,-1.81438,0.43455,-2.077,-1.32853,-1.39448,-0.92658,-0.157453,
0.0182141,-0.114329,0.318878,-1.77029,-0.208553,0.0531844,0.477723,-0.0803092,-0.00165579,-0.080584,-0.0625054,-0.423782,0.15865,-0.0484772,0,0,0,0,0,0,0,0.0242838,-0.116614,0.325029,-1.75966,-0.11765,1.64968,1.27799,-0.041053,0.0059572,-0.0482063,-0.000286988,-0.643188,0.057238,-0.00724855,0.309024,-29.6782,-1.23686,25.7568,-1.29944,2.17797,-0.197647,-1.21895,-4.51081,-2.25301,1.12176,0.468096,-1.91209,-1.75924,0.888871,-2.00211,-1.77396,-1.45865,-1.02064,-0.161551,
0.0178209,-0.114353,0.318489,-1.77054,-0.20922,0.0540998,0.477519,-0.0983037,-0.00607387,-0.0971911,-0.0644943,-0.166747,0.228861,-0.050948,0,0,0,0,0,0,0,0.0242838,-0.116614,0.325029,-1.75966,-0.11765,1.64968,1.27799,-0.041053,0.0059572,-0.0482063,-0.000286988,-0.643188,0.057238,-0.00724855,0.309024,-29.6782,-1.23686,25.7568,-1.29944,2.17797,-0.197647,-1.21895,-4.51081,-2.25301,1.12176,0.468096,-1.91209,-1.75924,0.888871,-2.00211,-1.77396,-1.45865,-1.02064,-0.161551,
0.0173993,-0.114374,0.318059,-1.77078,-0.209121,0.0552087,0.47732,-0.10539,-0.00510697,-0.107475,-0.0596173,0.0247097,0.277206,-0.0497339,0,0,0,0,0,0,0,0.0242838,-0.116614,0.325029,-1.75966,-0.11765,1.64968,1.27799,-0.041053,0.0059572,-0.0482063,-0.000286988,-0.643188,0.057238,-0.00724855,0.309024,-29.6782,-1.23686,25.7568,-1.29944,2.17797,-0.197647,-1.46037,-4.74428,-2.35626,1.20556,0.31254,-1.97947,-1.8266,0.813804,-2.06946,-1.79665,-1.52908,-1.02054,-0.166948,
0.0169688,-0.114385,0.317612,-1.771,-0.208443,0.0564642,0.477125,-0.107622,-0.0027457,-0.111976,-0.054022,0.16968,0.31388,-0.0487777,0,0,0,0,0,0,0,0.0242838,-0.116614,0.325029,-1.75966,-0.11765,1.64968,1.27799,-0.041053,0.0059572,-0.0482063,-0.000286988,-0.643188,0.057238,-0.00724855,0.309024,-29.6782,-1.23686,25.7568,-1.29944,2.17797,-0.197647,-1.13535,-4.93145,-2.09509,1.42469,0.317424,-2.12142,-1.97712,0.706361,-2.21969,-1.5841,-1.52667,-0.896928,-0.167695,
0.0165414,-0.114386,0.317161,-1.7712,-0.20732,0.0578365,0.476933,-0.106853,-0.000280147,-0.112714,-0.049329,0.280805,0.343074,-0.0481509,0,0,0,0,0,0,0,0.0242838,-0.116614,0.325029,-1.75966,-0.11765,1.64968,1.27799,-0.041053,0.0059572,-0.0482063,-0.000286988,-0.643188,0.057238,-0.00724855,0.309024,-29.6782,-1.23686,25.7568,-1.29944,2.17797,-0.197647,-1.13535,-4.93145,-2.09509,1.42469,0.317424,-2.12142,-1.97712,0.706361,-2.21969,-1.5841,-1.52667,-0.896928,-0.167695,
0.0161245,-0.114378,0.316716,-1.77138,-0.205852,0.0593038,0.476742,-0.104225,0.00189387,-0.111063,-0.0457489,0.366949,0.366833,-0.0477491,0,0,0,0,0,0,0,0.0242838,-0.116614,0.325029,-1.75966,-0.11765,1.64968,1.27799,-0.041053,0.0059572,-0.0482063,-0.000286988,-0.643188,0.057238,-0.00724855,0.309024,-29.6782,-1.23686,25.7568,-1.29944,2.17797,-0.197647,-1.90831,-4.80693,-1.95199,1.49957,-0.33076,-1.89358,-1.75373,0.31321,-2.001,-1.39666,-1.4147,-0.799103,-0.17888,
0.0157225,-0.114363,0.316285,-1.77155,-0.204114,0.0608493,0.476552,-0.100497,0.00368414,-0.107948,-0.0431126,0.434465,0.386367,-0.0474978,0,0,0,0,0,0,0,0.0229144,-0.116603,0.323588,-1.76013,-0.133133,1.65187,1.27785,-0.0582812,0.00112335,-0.0495723,-0.0237493,-0.266272,0.101345,-0.00375838,-0.730404,-29.3529,-2.58574,26.705,0.477596,2.72179,-0.157364,-1.90831,-4.80693,-1.95199,1.49957,-0.33076,-1.89358,-1.75373,0.31321,-2.001,-1.39666,-1.4147,-0.799103,-0.17888,
0.00938465,-0.107455,0.309401,-1.77021,-0.253461,-0.0868324,0.475271,-0.157093,0.0801401,-0.169433,-0.0864438,-1.19029,-0.691672,-0.0873574,0,0,0,0,0,0,0,0.0229144,-0.116603,0.323588,-1.76013,-0.133133,1.65187,1.27785,-0.0582812,0.00112335,-0.0495723,-0.0237493,-0.266272,0.101345,-0.00375838,-0.730404,-29.3529,-2.58574,26.705,0.477596,2.72179,-0.157364,-2.43404,-5.11954,-1.58909,1.94904,-0.868398,-1.94059,-1.79524,-0.0565911,-2.09177,-1.15069,-1.26253,-0.7232,-0.179695,
0.00238892,-0.110211,0.301356,-1.76883,-0.19036,0.0420418,0.480852,-0.128766,0.0432628,-0.140044,-0.0496041,0.417746,-0.130852,-0.0569605,0,0,0,0,0,0,0,0.0229144,-0.116603,0.323588,-1.76013,-0.133133,1.65187,1.27785,-0.0582812,0.00112335,-0.0495723,-0.0237493,-0.266272,0.101345,-0.00375838,-0.730404,-29.3529,-2.58574,26.705,0.477596,2.72179,-0.157364,-2.43404,-5.11954,-1.58909,1.94904,-0.868398,-1.94059,-1.79524,-0.0565911,-2.09177,-1.15069,-1.26253,-0.7232,-0.179695,
0.00187694,-0.110042,0.300799,-1.76903,-0.188578,0.0414921,0.480626,-0.127995,0.0423241,-0.139183,-0.0491472,0.445486,-0.137446,-0.056646,0,0,0,0,0,0,0,0.0229144,-0.116603,0.323588,-1.76013,-0.133133,1.65187,1.27785,-0.0582812,0.00112335,-0.0495723,-0.0237493,-0.266272,0.101345,-0.00375838,-0.730404,-29.3529,-2.58574,26.705,0.477596,2.72179,-0.157364,-2.09194,-4.12499,-1.16554,1.9396,-0.920695,-1.46575,-1.29679,-0.228689,-1.67809,-0.676317,-0.728155,-0.372581,-0.183312,
0.0013675,-0.109877,0.300245,-1.76922,-0.186675,0.0409152,0.4804,-0.127361,0.0413278,-0.138456,-0.0486971,0.475794,-0.144227,-0.0563478,0,0,0,0,0,0,0,0.0229144,-0.116603,0.323588,-1.76013,-0.133133,1.65187,1.27785,-0.0582812,0.00112335,-0.0495723,-0.0237493,-0.266272,0.101345,-0.00375838,-0.730404,-29.3529,-2.58574,26.705,0.477596,2.72179,-0.157364,-2.09194,-4.12499,-1.16554,1.9396,-0.920695,-1.46575,-1.29679,-0.228689,-1.67809,-0.676317,-0.728155,-0.372581,-0.183312,
0.000860054,-0.109716,0.299694,-1.76942,-0.184638,0.0403107,0.480176,-0.126862,0.0402683,-0.13786,-0.0482598,0.509065,-0.151109,-0.0560712,0,0,0,0,0,0,0,0.0203808,-0.1167,0.321467,-1.76123,-0.136879,1.65304,1.2776,-0.0788893,-0.0112526,-0.0744223,-0.0292722,-0.214379,-0.124125,-0.00612718,-2.37683,-27.5835,-4.18456,26.106,1.47918,3.10631,-0.157364,-1.47837,-1.45412,-1.07582,0.762134,-0.733256,-0.193589,-0.00446801,-0.23892,-0.399092,-0.241878,-0.166662,0.108261,-0.188184,
0.000354069,-0.109559,0.299144,-1.76961,-0.182455,0.0396788,0.479953,-0.126496,0.0391392,-0.137391,-0.0478451,0.545726,-0.157968,-0.0558214,0,0,0,0,0,0,0,0.0203808,-0.1167,0.321467,-1.76123,-0.136879,1.65304,1.2776,-0.0788893,-0.0112526,-0.0744223,-0.0292722,-0.214379,-0.124125,-0.00612718,-2.37683,-27.5835,-4.18456,26.106,1.47918,3.10631,-0.157364,-1.2286,-0.838722,-0.846205,0.736721,-0.652179,0.0802869,0.256809,-0.244773,-0.135911,-0.0397902,0.180167,0.248001,-0.190915,
-0.000150981,-0.109407,0.298596,-1.7698,-0.180111,0.0390203,0.47973,-0.126263,0.0379329,-0.137048,-0.0474679,0.586227,-0.164633,-0.0556035,0,0,0,0,0,0,0,0.0203808,-0.1167,0.321467,-1.76123,-0.136879,1.65304,1.2776,-0.0788893,-0.0112526,-0.0744223,-0.0292722,-0.214379,-0.124125,-0.00612718,-2.37683,-27.5835,-4.18456,26.106,1.47918,3.10631,-0.157364,-1.2286,-0.838722,-0.846205,0.736721,-0.652179,0.0802869,0.256809,-0.244773,-0.135911,-0.0397902,0.180167,0.248001,-0.190915,
-0.000655615,-0.109261,0.298049,-1.76999,-0.177586,0.0383369,0.479509,-0.126159,0.0366419,-0.136827,-0.0471505,0.631029,-0.170856,-0.0554278,0,0,0,0,0,0,0,0.0203808,-0.1167,0.321467,-1.76123,-0.136879,1.65304,1.2776,-0.0788893,-0.0112526,-0.0744223,-0.0292722,-0.214379,-0.124125,-0.00612718,-2.37683,-27.5835,-4.18456,26.106,1.47918,3.10631,-0.157364,-0.334371,0.476716,-1.5261,-0.00131081,0.459802,0.556078,0.743135,0.575535,0.360252,-0.446632,0.519777,0.174145,-0.195323,
-0.00116033,-0.10912,0.297502,-1.77017,-0.174864,0.0376318,0.479287,-0.126178,0.0352586,-0.136723,-0.0469267,0.680576,-0.176278,-0.0553095,0,0,0,0,0,0,0,0.0203808,-0.1167,0.321467,-1.76123,-0.136879,1.65304,1.2776,-0.0788893,-0.0112526,-0.0744223,-0.0292722,-0.214379,-0.124125,-0.00612718,-2.37683,-27.5835,-4.18456,26.106,1.47918,3.10631,-0.157364,-0.334371,0.476716,-1.5261,-0.00131081,0.459802,0.556078,0.743135,0.575535,0.360252,-0.446632,0.519777,0.174145,-0.195323,
-0.00166556,-0.108985,0.296955,-1.77036,-0.171923,0.0369102,0.479066,-0.126307,0.0337773,-0.13672,-0.0468447,0.73523,-0.180387,-0.055265,0,0,0,0,0,0,0,0.016888,-0.117032,0.31809,-1.76187,-0.13764,1.64907,1.27752,-0.120787,-0.0141364,-0.12563,-0.00520441,0.0146192,-0.128213,0.00057805,-0.0440639,-27.032,-1.8637,26.0544,1.78405,2.84081,-0.177505,0.386858,2.10842,-2.80254,-0.939514,1.76444,1.22413,1.41346,1.64676,1.06611,-1.10766,0.988566,0.0763731,-0.199665,
-0.0021716,-0.108856,0.296408,-1.77055,-0.168743,0.0361804,0.478845,-0.126511,0.0321962,-0.13679,-0.0469733,0.795157,-0.182452,-0.0553196,0,0,0,0,0,0,0,0.016888,-0.117032,0.31809,-1.76187,-0.13764,1.64907,1.27752,-0.120787,-0.0141364,-0.12563,-0.00520441,0.0146192,-0.128213,0.00057805,-0.0440639,-27.032,-1.8637,26.0544,1.78405,2.84081,-0.177505,0.386858,2.10842,-2.80254,-0.939514,1.76444,1.22413,1.41346,1.64676,1.06611,-1.10766,0.988566,0.0763731,-0.199665,
-0.00267849,-0.108734,0.29586,-1.77074,-0.165302,0.0354546,0.478623,-0.126722,0.0305219,-0.136872,-0.0474065,0.860106,-0.181451,-0.0555113,0,0,0,0,0,0,0,0.016888,-0.117032,0.31809,-1.76187,-0.13764,1.64907,1.27752,-0.120787,-0.0141364,-0.12563,-0.00520441,0.0146192,-0.128213,0.00057805,-0.0440639,-27.032,-1.8637,26.0544,1.78405,2.84081,-0.177505,-0.772308,2.52462,-2.89644,-1.04801,1.18685,1.61821,1.79841,1.45399,1.4633,-1.21301,1.23737,-0.0428486,-0.199107,
-0.00318094,-0.108617,0.295316,-1.77093,-0.161633,0.0347485,0.4784,-0.125614,0.0291432,-0.136051,-0.04801,0.917276,-0.176532,-0.055713,0,0,0,0,0,0,0,0.016888,-0.117032,0.31809,-1.76187,-0.13764,1.64907,1.27752,-0.120787,-0.0141364,-0.12563,-0.00520441,0.0146192,-0.128213,0.00057805,-0.0440639,-27.032,-1.8637,26.0544,1.78405,2.84081,-0.177505,-1.23417,1.7949,-2.5622,-0.492367,0.755581,1.3253,1.49595,1.17129,1.14569,-1.09577,1.23885,-0.0919633,-0.194939,
-0.00367269,-0.108505,0.294781,-1.77113,-0.157791,0.0340858,0.478176,-0.122937,0.0280327,-0.133804,-0.0490765,0.960481,-0.165663,-0.056132,0,0,0,0,0,0,0,0.016888,-0.117032,0.31809,-1.76187,-0.13764,1.64907,1.27752,-0.120787,-0.0141364,-0.12563,-0.00520441,0.0146192,-0.128213,0.00057805,-0.0440639,-27.032,-1.8637,26.0544,1.78405,2.84081,-0.177505,-1.23417,1.7949,-2.5622,-0.492367,0.755581,1.3253,1.49595,1.17129,1.14569,-1.09577,1.23885,-0.0919633,-0.194939,
-0.0041501,-0.108398,0.294259,-1.77133,-0.153818,0.033502,0.477947,-0.119354,0.0268811,-0.130412,-0.0510746,0.993305,-0.145957,-0.0570854,0,0,0,0,0,0,0,0.016888,-0.117032,0.31809,-1.76187,-0.13764,1.64907,1.27752,-0.120787,-0.0141364,-0.12563,-0.00520441,0.0146192,-0.128213,0.00057805,-0.0440639,-27.032,-1.8637,26.0544,1.78405,2.84081,-0.177505,-2.57792,2.2506,-2.26117,-0.614076,-0.189075,1.769,1.91759,0.672874,1.60442,-0.983553,1.42005,-0.158104,-0.194736,
-0.0046106,-0.108295,0.293755,-1.77155,-0.149745,0.0330439,0.477712,-0.115124,0.0255862,-0.126144,-0.054226,1.01824,-0.11453,-0.0587767,0,0,0,0,0,0,0,0.0128357,-0.117082,0.31337,-1.762,-0.133138,1.64549,1.27749,-0.138915,-0.0130703,-0.161189,-0.00954028,0.246079,-0.0907852,-0.00245365,0.638309,-28.4325,-1.0623,26.6058,1.8399,2.6751,-0.117081,-2.57792,2.2506,-2.26117,-0.614076,-0.189075,1.769,1.91759,0.672874,1.60442,-0.983553,1.42005,-0.158104,-0.194736,
-0.00505202,-0.108199,0.29327,-1.77178,-0.145597,0.0327695,0.477466,-0.110356,0.0241634,-0.121089,-0.0586122,1.03696,-0.0686046,-0.0614435,0,0,0,0,0,0,0,0.0128357,-0.117082,0.31337,-1.762,-0.133138,1.64549,1.27749,-0.138915,-0.0130703,-0.161189,-0.00954028,0.246079,-0.0907852,-0.00245365,0.638309,-28.4325,-1.0623,26.6058,1.8399,2.6751,-0.117081,-2.27101,2.24844,-2.04119,-0.581532,0.018314,1.69135,1.83472,0.777645,1.52834,-0.9971,1.44147,-0.245473,-0.194972,
-0.00547199,-0.108107,0.292809,-1.77204,-0.141395,0.0327443,0.477208,-0.104992,0.0227865,-0.115171,-0.0640162,1.05051,-0.00629468,-0.0646498,0,0,0,0,0,0,0,0.0128357,-0.117082,0.31337,-1.762,-0.133138,1.64549,1.27749,-0.138915,-0.0130703,-0.161189,-0.00954028,0.246079,-0.0907852,-0.00245365,0.638309,-28.4325,-1.0623,26.6058,1.8399,2.6751,-0.117081,-2.27101,2.24844,-2.04119,-0.581532,0.018314,1.69135,1.83472,0.777645,1.52834,-0.9971,1.44147,-0.245473,-0.194972,
-0.00584266,-0.108013,0.292391,-1.77231,-0.137387,0.0330211,0.476983,-0.0926666,0.0237045,-0.104533,-0.0680337,1.00197,0.0691964,-0.0561946,0,0,0,0,0,0,0,0.0128357,-0.117082,0.31337,-1.762,-0.133138,1.64549,1.27749,-0.138915,-0.0130703,-0.161189,-0.00954028,0.246079,-0.0907852,-0.00245365,0.638309,-28.4325,-1.0623,26.6058,1.8399,2.6751,-0.117081,-2.34858,1.86717,-1.84806,-0.381488,-0.076043,1.49977,1.63825,0.708478,1.33455,-0.991424,1.36036,-0.328339,-0.195302,
-0.00617936,-0.107912,0.292011,-1.77258,-0.133518,0.0335347,0.476759,-0.0841743,0.0251306,-0.0949898,-0.0675841,0.967396,0.128415,-0.0560566,0,0,0,0,0,0,0,0.0128357,-0.117082,0.31337,-1.762,-0.133138,1.64549,1.27749,-0.138915,-0.0130703,-0.161189,-0.00954028,0.246079,-0.0907852,-0.00245365,0.638309,-28.4325,-1.0623,26.6058,1.8399,2.6751,-0.117081,-2.46657,1.47594,-1.69531,-0.134331,-0.182978,1.31094,1.43776,0.639928,1.14431,-0.98432,1.32322,-0.395392,-0.193666,
-0.00648934,-0.107808,0.291661,-1.77284,-0.129745,0.0342406,0.476533,-0.0774951,0.0261331,-0.0874777,-0.0655618,0.943029,0.176469,-0.0564216,0,0,0,0,0,0,0,0.0079734,-0.117061,0.308186,-1.76245,-0.119874,1.64375,1.27743,-0.170759,0.00292382,-0.172817,-0.0156276,0.519681,-0.0386298,-0.00193684,1.30085,-28.6546,-0.185533,26.3043,1.41235,2.66137,-0.183914,-2.46657,1.47594,-1.69531,-0.134331,-0.182978,1.31094,1.43776,0.639928,1.14431,-0.98432,1.32322,-0.395392,-0.193666,
-0.00677807,-0.107701,0.291335,-1.77309,-0.126041,0.0351049,0.476306,-0.0721843,0.026548,-0.081559,-0.0630308,0.926044,0.216076,-0.0567367,0,0,0,0,0,0,0,0.0079734,-0.117061,0.308186,-1.76245,-0.119874,1.64375,1.27743,-0.170759,0.00292382,-0.172817,-0.0156276,0.519681,-0.0386298,-0.00193684,1.30085,-28.6546,-0.185533,26.3043,1.41235,2.66137,-0.183914,-2.42659,1.69567,-1.36636,-0.242793,-0.252315,1.39803,1.51894,0.557873,1.24045,-0.900032,1.32895,-0.438058,-0.192549,
