PerkyPenguin/Analysis-on-Approximated-Derivatives/Code_and_Data/PaperData/Real_Robot/Scene_1/contact_change/4/trajectory.csv
Commanded Joint 0 Position,Commanded Joint 1 Position,Commanded Joint 2 Position,Commanded Joint 3 Position,Commanded Joint 4 Position,Commanded Joint 5 Position,Commanded Joint 6 Position,Commanded Joint 0 Velocity,Commanded Joint 1 Velocity,Commanded Joint 2 Velocity,Commanded Joint 3 Velocity,Commanded Joint 4 Velocity,Commanded Joint 5 Velocity,Commanded Joint 6 Velocity,Commanded Joint 0 Torque,Commanded Joint 1 Torque,Commanded Joint 2 Torque,Commanded Joint 3 Torque,Commanded Joint 4 Torque,Commanded Joint 5 Torque,Commanded Joint 6 Torque,Actual Joint 0 Position,Actual Joint 1 Position,Actual Joint 2 Position,Actual Joint 3 Position,Actual Joint 4 Position,Actual Joint 5 Position,Actual Joint 6 Position,Actual Joint 0 Velocity,Actual Joint 1 Velocity,Actual Joint 2 Velocity,Actual Joint 3 Velocity,Actual Joint 4 Velocity,Actual Joint 5 Velocity,Actual Joint 6 Velocity,Actual Joint 0 Torque,Actual Joint 1 Torque,Actual Joint 2 Torque,Actual Joint 3 Torque,Actual Joint 4 Torque,Actual Joint 5 Torque,Actual Joint 6 Torque,EE ext force 0,EE ext force 1,EE ext force 2,EE ext force 3,EE ext force 4,EE ext force 5,joint ext torque 0,joint ext torque 1,joint ext torque 2,joint ext torque 3,joint ext torque 4,joint ext torque 5,joint ext torque 6,
0.0128948,-0.206718,-0.331475,-1.66268,-0.0950207,-0.092372,-0.383072,-0.00209084,0.015868,-0.0125086,-0.151516,0.00214025,0.198038,-0.00215413,0,0,0,0,0,0,0,0.0128964,-0.206748,-0.331379,-1.66114,-0.0949859,1.47644,0.402354,0.00038613,0.00507237,0.00310386,0.000399935,0.0024898,0.002678,0.000220728,-0.0202602,-25.0127,1.96077,25.8322,0.331112,3.01293,-0.0429228,-0.936969,0.00158473,-0.549242,0.0671972,-0.212965,-0.119838,-0.0111297,0.0906824,-0.222896,-0.386934,-0.130418,-0.298885,-0.0362058,
0.0128812,-0.206582,-0.331537,-1.66332,-0.0950134,-0.0915535,-0.38308,-0.00338351,0.0340295,-0.0155431,-0.160554,0.00181201,0.204627,-0.00204418,0,0,0,0,0,0,0,0.0128964,-0.206748,-0.331379,-1.66114,-0.0949859,1.47644,0.402354,0.00038613,0.00507237,0.00310386,0.000399935,0.0024898,0.002678,0.000220728,-0.0202602,-25.0127,1.96077,25.8322,0.331112,3.01293,-0.0429228,-0.936969,0.00158473,-0.549242,0.0671972,-0.212965,-0.119838,-0.0111297,0.0906824,-0.222896,-0.386934,-0.130418,-0.298885,-0.0362058,
0.0129188,-0.2067,-0.331355,-1.66115,-0.0949534,-0.0943228,-0.383045,0.00118347,0.00227282,0.001219,-0.000864639,0.00193998,0.00149033,-4.35083e-05,0,0,0,0,0,0,0,0.0128964,-0.206748,-0.331379,-1.66114,-0.0949859,1.47644,0.402354,0.00038613,0.00507237,0.00310386,0.000399935,0.0024898,0.002678,0.000220728,-0.0202602,-25.0127,1.96077,25.8322,0.331112,3.01293,-0.0429228,-0.963228,0.0551675,-0.534142,0.0296343,-0.239915,-0.101018,0.00791165,0.0727214,-0.200583,-0.378621,-0.123692,-0.299966,-0.0356269,
0.012923,-0.206692,-0.33135,-1.66115,-0.0949461,-0.0943185,-0.383045,0.00105233,0.00195204,0.00107682,-0.000782693,0.00184024,0.00108137,-3.83266e-05,0,0,0,0,0,0,0,0.0128964,-0.206748,-0.331379,-1.66114,-0.0949859,1.47644,0.402354,0.00038613,0.00507237,0.00310386,0.000399935,0.0024898,0.002678,0.000220728,-0.0202602,-25.0127,1.96077,25.8322,0.331112,3.01293,-0.0429228,-0.963228,0.0551675,-0.534142,0.0296343,-0.239915,-0.101018,0.00791165,0.0727214,-0.200583,-0.378621,-0.123692,-0.299966,-0.0356269,
0.0129268,-0.206686,-0.331347,-1.66116,-0.0949392,-0.0943155,-0.383045,0.000936476,0.00167749,0.000952474,-0.000698972,0.001724,0.000747411,-3.35742e-05,0,0,0,0,0,0,0,0.0129,-0.206816,-0.331378,-1.66139,-0.0950267,1.47672,0.40235,0.000487298,-0.00824472,-0.000537408,-0.031474,-0.00339788,0.0380192,-0.0004526,-0.0718349,-24.0367,1.91316,23.7891,0.63049,2.97997,-0.00996382,-1.12906,0.100941,-0.490378,-0.0352326,-0.417263,-0.109911,-0.000504569,-0.0487962,-0.199166,-0.303771,-0.135246,-0.262455,-0.0346822,
0.0129301,-0.20668,-0.331343,-1.66116,-0.0949328,-0.0943136,-0.383046,0.000834203,0.00143995,0.000843378,-0.000620002,0.00159846,0.000479663,-2.93722e-05,0,0,0,0,0,0,0,0.0129,-0.206816,-0.331378,-1.66139,-0.0950267,1.47672,0.40235,0.000487298,-0.00824472,-0.000537408,-0.031474,-0.00339788,0.0380192,-0.0004526,-0.0718349,-24.0367,1.91316,23.7891,0.63049,2.97997,-0.00996382,-2.39819,0.280213,-1.14027,-0.0793709,-1.15241,-0.254424,-0.144008,-0.36136,-0.343883,-0.401566,-0.144329,-0.279936,-0.0331113,
0.0129331,-0.206675,-0.33134,-1.66116,-0.0949269,-0.0943125,-0.383046,0.000743792,0.00123341,0.00074733,-0.000547577,0.00146923,0.000267285,-2.56933e-05,0,0,0,0,0,0,0,0.0129,-0.206816,-0.331378,-1.66139,-0.0950267,1.47672,0.40235,0.000487298,-0.00824472,-0.000537408,-0.031474,-0.00339788,0.0380192,-0.0004526,-0.0718349,-24.0367,1.91316,23.7891,0.63049,2.97997,-0.00996382,-2.39819,0.280213,-1.14027,-0.0793709,-1.15241,-0.254424,-0.144008,-0.36136,-0.343883,-0.401566,-0.144329,-0.279936,-0.0331113,
0.0129357,-0.206671,-0.331338,-1.66116,-0.0949216,-0.0943121,-0.383046,0.000663706,0.00105335,0.000662499,-0.000481895,0.00134037,0.000100189,-2.24766e-05,0,0,0,0,0,0,0,0.0129,-0.206816,-0.331378,-1.66139,-0.0950267,1.47672,0.40235,0.000487298,-0.00824472,-0.000537408,-0.031474,-0.00339788,0.0380192,-0.0004526,-0.0718349,-24.0367,1.91316,23.7891,0.63049,2.97997,-0.00996382,-1.84989,0.144697,-1.44886,0.0786035,-0.631304,-0.215283,-0.102176,-0.0244946,-0.331819,-0.570439,-0.132195,-0.263521,-0.0342441,
0.0127897,-0.206655,-0.331454,-1.66103,-0.0934118,-0.09526,-0.383044,-0.0103867,0.00647827,-0.00904771,0.00871148,0.178215,-0.103508,0.000351615,0,0,0,0,0,0,0,0.0129,-0.206816,-0.331378,-1.66139,-0.0950267,1.47672,0.40235,0.000487298,-0.00824472,-0.000537408,-0.031474,-0.00339788,0.0380192,-0.0004526,-0.0718349,-24.0367,1.91316,23.7891,0.63049,2.97997,-0.00996382,-1.84989,0.144697,-1.44886,0.0786035,-0.631304,-0.215283,-0.102176,-0.0244946,-0.331819,-0.570439,-0.132195,-0.263521,-0.0342441,
0.0127731,-0.206734,-0.331485,-1.66136,-0.0935166,-0.0948877,-0.383048,-0.0119963,0.00721232,-0.011217,0.00647603,0.172306,-0.100099,0.00037082,0,0,0,0,0,0,0,0.0129071,-0.20674,-0.331367,-1.66154,-0.09502,1.47716,0.40235,0.000657331,0.00998547,0.00101253,0.00106813,-0.00501755,0.00511967,-0.000922331,-0.171017,-25.461,1.88936,25.983,0.599362,3.02666,-0.00996382,-0.741133,-0.177398,-1.38922,0.304279,0.168662,-0.161021,-0.051385,0.404847,-0.301164,-0.644176,-0.133117,-0.216725,-0.0361813,
0.012726,-0.206712,-0.331532,-1.66133,-0.0927002,-0.0953759,-0.383046,-0.0117957,0.00566647,-0.0116716,0.00588983,0.204087,-0.12205,0.000517547,0,0,0,0,0,0,0,0.0129071,-0.20674,-0.331367,-1.66154,-0.09502,1.47716,0.40235,0.000657331,0.00998547,0.00101253,0.00106813,-0.00501755,0.00511967,-0.000922331,-0.171017,-25.461,1.88936,25.983,0.599362,3.02666,-0.00996382,-0.741133,-0.177398,-1.38922,0.304279,0.168662,-0.161021,-0.051385,0.404847,-0.301164,-0.644176,-0.133117,-0.216725,-0.0361813,
0.0126816,-0.206695,-0.331577,-1.66131,-0.0917858,-0.0959344,-0.383044,-0.0110798,0.00409623,-0.0113812,0.00484681,0.228616,-0.139624,0.00059196,0,0,0,0,0,0,0,0.0129071,-0.20674,-0.331367,-1.66154,-0.09502,1.47716,0.40235,0.000657331,0.00998547,0.00101253,0.00106813,-0.00501755,0.00511967,-0.000922331,-0.171017,-25.461,1.88936,25.983,0.599362,3.02666,-0.00996382,-1.06567,0.0682538,-1.01057,0.0622815,-0.246263,-0.108679,-0.00279126,0.100319,-0.213139,-0.439702,-0.118148,-0.195865,-0.0366443,
0.0126413,-0.206684,-0.33162,-1.6613,-0.0907949,-0.09655,-0.383041,-0.0100915,0.00273771,-0.0106473,0.00380935,0.247725,-0.153899,0.000626767,0,0,0,0,0,0,0,0.0129071,-0.20674,-0.331367,-1.66154,-0.09502,1.47716,0.40235,0.000657331,0.00998547,0.00101253,0.00106813,-0.00501755,0.00511967,-0.000922331,-0.171017,-25.461,1.88936,25.983,0.599362,3.02666,-0.00996382,-1.13965,-0.134281,-1.21381,0.251462,-0.205287,-0.212555,-0.110019,0.164619,-0.336996,-0.531385,-0.126373,-0.219925,-0.0373337,
0.0126054,-0.206678,-0.331658,-1.66129,-0.089744,-0.0972121,-0.383039,-0.00897394,0.00163555,-0.0096648,0.00289814,0.262713,-0.165517,0.000638182,0,0,0,0,0,0,0,0.0129071,-0.20674,-0.331367,-1.66154,-0.09502,1.47716,0.40235,0.000657331,0.00998547,0.00101253,0.00106813,-0.00501755,0.00511967,-0.000922331,-0.171017,-25.461,1.88936,25.983,0.599362,3.02666,-0.00996382,-1.13965,-0.134281,-1.21381,0.251462,-0.205287,-0.212555,-0.110019,0.164619,-0.336996,-0.531385,-0.126373,-0.219925,-0.0373337,
0.0125741,-0.206675,-0.331693,-1.66128,-0.0886459,-0.0979118,-0.383036,-0.00781488,0.00077306,-0.00856041,0.00212751,0.274526,-0.174937,0.000635222,0,0,0,0,0,0,0,0.0128562,-0.206687,-0.331431,-1.66147,-0.0936839,1.47713,0.402353,0.000325906,0.000781701,0.000137762,-0.00558704,0.0709708,0.000422152,3.68989e-05,0.285221,-25.7109,2.31386,26.5027,1.03973,3.00652,-0.0365141,-1.45273,-0.0269863,-1.15827,0.238499,-0.481309,-0.218783,-0.11454,-0.00750242,-0.348662,-0.483792,-0.0483448,-0.234014,-0.0377017,
0.0126033,-0.206631,-0.331591,-1.66102,-0.0904936,-0.0978,-0.383019,-0.026975,0.0127868,-0.0224078,0.0323524,0.519303,-0.425226,0.00326483,0,0,0,0,0,0,0,0.0128562,-0.206687,-0.331431,-1.66147,-0.0936839,1.47713,0.402353,0.000325906,0.000781701,0.000137762,-0.00558704,0.0709708,0.000422152,3.68989e-05,0.285221,-25.7109,2.31386,26.5027,1.03973,3.00652,-0.0365141,-1.45273,-0.0269863,-1.15827,0.238499,-0.481309,-0.218783,-0.11454,-0.00750242,-0.348662,-0.483792,-0.0483448,-0.234014,-0.0377017,
0.0125936,-0.206522,-0.331609,-1.66108,-0.0885889,-0.0972999,-0.383018,-0.0237168,0.010317,-0.019169,0.0316497,0.556656,-0.408634,0.00309823,0,0,0,0,0,0,0,0.0128562,-0.206687,-0.331431,-1.66147,-0.0936839,1.47713,0.402353,0.000325906,0.000781701,0.000137762,-0.00558704,0.0709708,0.000422152,3.68989e-05,0.285221,-25.7109,2.31386,26.5027,1.03973,3.00652,-0.0365141,-1.21557,-0.0622442,-0.738087,0.298991,-0.470474,-0.19308,-0.0886146,-0.0763553,-0.333472,-0.366734,0.0487792,-0.244215,-0.0372402,
0.012505,-0.206501,-0.331686,-1.66098,-0.0859865,-0.0992288,-0.383004,-0.022146,0.00530256,-0.019298,0.0254034,0.6506,-0.482231,0.00340957,0,0,0,0,0,0,0,0.0128562,-0.206687,-0.331431,-1.66147,-0.0936839,1.47713,0.402353,0.000325906,0.000781701,0.000137762,-0.00558704,0.0709708,0.000422152,3.68989e-05,0.285221,-25.7109,2.31386,26.5027,1.03973,3.00652,-0.0365141,-1.06259,-0.0703522,-0.892241,0.375493,-0.288481,-0.169782,-0.0662908,0.0538114,-0.32512,-0.464016,0.091898,-0.265135,-0.0367991,
0.0124271,-0.206496,-0.331757,-1.6609,-0.0830863,-0.10139,-0.38299,-0.0194752,0.00112302,-0.0177393,0.019304,0.725041,-0.540335,0.00357288,0,0,0,0,0,0,0,0.0128562,-0.206687,-0.331431,-1.66147,-0.0936839,1.47713,0.402353,0.000325906,0.000781701,0.000137762,-0.00558704,0.0709708,0.000422152,3.68989e-05,0.285221,-25.7109,2.31386,26.5027,1.03973,3.00652,-0.0365141,-1.06259,-0.0703522,-0.892241,0.375493,-0.288481,-0.169782,-0.0662908,0.0538114,-0.32512,-0.464016,0.091898,-0.265135,-0.0367991,
0.0123622,-0.206504,-0.331818,-1.66085,-0.0799478,-0.103735,-0.382975,-0.0162357,-0.00203942,-0.0151847,0.0139372,0.784639,-0.586269,0.00364905,0,0,0,0,0,0,0,0.0128562,-0.206687,-0.331431,-1.66147,-0.0936839,1.47713,0.402353,0.000325906,0.000781701,0.000137762,-0.00558704,0.0709708,0.000422152,3.68989e-05,0.285221,-25.7109,2.31386,26.5027,1.03973,3.00652,-0.0365141,-1.26079,-0.189081,-0.534363,0.465548,-0.573278,-0.258322,-0.157962,-0.165415,-0.418868,-0.322668,0.1386,-0.281799,-0.0372672,
0.0123112,-0.206522,-0.331866,-1.66081,-0.0766166,-0.106225,-0.38296,-0.0127508,-0.00427523,-0.0120871,0.00937128,0.832787,-0.622365,0.00367026,0,0,0,0,0,0,0,0.0127848,-0.206658,-0.331541,-1.66127,-0.0896823,1.47661,0.402354,-0.00542223,0.0029671,-0.0079594,0.0106753,0.229764,-0.0404733,0.000668517,0.638309,-25.7347,2.48842,26.2289,1.64398,2.53594,-0.050247,-1.26079,-0.189081,-0.534363,0.465548,-0.573278,-0.258322,-0.157962,-0.165415,-0.418868,-0.322668,0.1386,-0.281799,-0.0372672,
0.0122743,-0.206544,-0.331901,-1.66079,-0.0731286,-0.108826,-0.382946,-0.00922269,-0.0057425,-0.00874356,0.00552792,0.871996,-0.650426,0.00365565,0,0,0,0,0,0,0,0.0127848,-0.206658,-0.331541,-1.66127,-0.0896823,1.47661,0.402354,-0.00542223,0.0029671,-0.0079594,0.0106753,0.229764,-0.0404733,0.000668517,0.638309,-25.7347,2.48842,26.2289,1.64398,2.53594,-0.050247,-1.40945,-0.210802,0.273566,0.482569,-0.975574,-0.293265,-0.185477,-0.518915,-0.460432,-0.0481521,0.247923,-0.327837,-0.0378623,
0.0134812,-0.206776,-0.330692,-1.66138,-0.0902419,-0.0991928,-0.382901,0.0746479,-0.014179,0.0879302,0.00150415,0.384245,-0.637685,0.0120128,0,0,0,0,0,0,0,0.0127848,-0.206658,-0.331541,-1.66127,-0.0896823,1.47661,0.402354,-0.00542223,0.0029671,-0.0079594,0.0106753,0.229764,-0.0404733,0.000668517,0.638309,-25.7347,2.48842,26.2289,1.64398,2.53594,-0.050247,-1.40945,-0.210802,0.273566,0.482569,-0.975574,-0.293265,-0.185477,-0.518915,-0.460432,-0.0481521,0.247923,-0.327837,-0.0378623,
0.0134163,-0.206805,-0.33082,-1.66116,-0.0850695,-0.0999434,-0.382892,0.0765688,-0.0194322,0.0884401,0.00124849,0.459846,-0.651211,0.0124911,0,0,0,0,0,0,0,0.0127848,-0.206658,-0.331541,-1.66127,-0.0896823,1.47661,0.402354,-0.00542223,0.0029671,-0.0079594,0.0106753,0.229764,-0.0404733,0.000668517,0.638309,-25.7347,2.48842,26.2289,1.64398,2.53594,-0.050247,-0.354111,-0.272412,0.268963,0.775909,-0.107747,-0.131653,-0.01406,-0.00660006,-0.36753,-0.299016,0.466414,-0.44512,-0.0374427,
0.0137992,-0.2069,-0.330378,-1.6612,-0.0829501,-0.103064,-0.382844,0.0957185,-0.023505,0.110488,-0.00815065,0.529851,-0.780154,0.0120327,0,0,0,0,0,0,0,0.0127848,-0.206658,-0.331541,-1.66127,-0.0896823,1.47661,0.402354,-0.00542223,0.0029671,-0.0079594,0.0106753,0.229764,-0.0404733,0.000668517,0.638309,-25.7347,2.48842,26.2289,1.64398,2.53594,-0.050247,-0.365885,-0.147315,0.366001,0.847632,-0.0683029,-0.075545,0.0554162,0.0345165,-0.347154,-0.396771,0.612383,-0.582866,-0.0365793,
0.0142475,-0.207001,-0.329862,-1.66126,-0.080572,-0.106606,-0.382797,0.112063,-0.0254736,0.129017,-0.0170136,0.594519,-0.88549,0.0116221,0,0,0,0,0,0,0,0.0124411,-0.206638,-0.331948,-1.6609,-0.0789817,1.4739,0.402349,-0.0124865,-0.00635667,-0.00854387,0.0158574,0.38248,-0.112824,-0.000658504,1.50318,-25.0603,3.33742,25.3085,1.20453,2.25762,-0.0026396,-0.365885,-0.147315,0.366001,0.847632,-0.0683029,-0.075545,0.0554162,0.0345165,-0.347154,-0.396771,0.612383,-0.582866,-0.0365793,
0.0147518,-0.207105,-0.329283,-1.66136,-0.0779582,-0.110493,-0.382752,0.126096,-0.0257862,0.144725,-0.0250701,0.653468,-0.971785,0.0112555,0,0,0,0,0,0,0,0.0124411,-0.206638,-0.331948,-1.6609,-0.0789817,1.4739,0.402349,-0.0124865,-0.00635667,-0.00854387,0.0158574,0.38248,-0.112824,-0.000658504,1.50318,-25.0603,3.33742,25.3085,1.20453,2.25762,-0.0026396,-0.632051,-0.329058,0.546405,1.05446,-0.22248,-0.207899,-0.0551521,-0.0343846,-0.524791,-0.438673,0.655013,-0.725383,-0.0290937,
0.0153047,-0.207204,-0.32865,-1.66149,-0.0751315,-0.114663,-0.382708,0.138207,-0.0248644,0.15814,-0.032272,0.706674,-1.04258,0.0109241,0,0,0,0,0,0,0,0.0124411,-0.206638,-0.331948,-1.6609,-0.0789817,1.4739,0.402349,-0.0124865,-0.00635667,-0.00854387,0.0158574,0.38248,-0.112824,-0.000658504,1.50318,-25.0603,3.33742,25.3085,1.20453,2.25762,-0.0026396,-0.632051,-0.329058,0.546405,1.05446,-0.22248,-0.207899,-0.0551521,-0.0343846,-0.524791,-0.438673,0.655013,-0.725383,-0.0290937,
0.0200507,-0.20841,-0.323423,-1.66372,-0.0733844,-0.123175,-0.382557,0.290066,-0.0434814,0.327178,-0.100576,0.69252,-1.13979,0.0118265,0,0,0,0,0,0,0,0.0124411,-0.206638,-0.331948,-1.6609,-0.0789817,1.4739,0.402349,-0.0124865,-0.00635667,-0.00854387,0.0158574,0.38248,-0.112824,-0.000658504,1.50318,-25.0603,3.33742,25.3085,1.20453,2.25762,-0.0026396,-0.295743,-0.154805,1.00304,0.85449,-0.0561224,-0.0792211,0.0536367,0.023046,-0.353482,-0.376865,0.642431,-0.79256,-0.0226649,
0.0141523,-0.207164,-0.330075,-1.66173,-0.0864194,-0.099694,-0.382864,0.157664,-0.0529943,0.174836,-0.0520672,0.320055,-0.63324,0.0145447,0,0,0,0,0,0,0,0.0124411,-0.206638,-0.331948,-1.6609,-0.0789817,1.4739,0.402349,-0.0124865,-0.00635667,-0.00854387,0.0158574,0.38248,-0.112824,-0.000658504,1.50318,-25.0603,3.33742,25.3085,1.20453,2.25762,-0.0026396,-0.295743,-0.154805,1.00304,0.85449,-0.0561224,-0.0792211,0.0536367,0.023046,-0.353482,-0.376865,0.642431,-0.79256,-0.0226649,
0.0138172,-0.20726,-0.330493,-1.66137,-0.0745435,-0.10291,-0.382848,0.159111,-0.0614132,0.174972,-0.053552,0.397575,-0.665506,0.0157707,0,0,0,0,0,0,0,0.0124411,-0.206638,-0.331948,-1.6609,-0.0789817,1.4739,0.402349,-0.0124865,-0.00635667,-0.00854387,0.0158574,0.38248,-0.112824,-0.000658504,1.50318,-25.0603,3.33742,25.3085,1.20453,2.25762,-0.0026396,0.182217,0.224885,1.29406,0.50644,0.281107,0.168101,0.254814,0.207075,-0.0278926,-0.389174,0.62553,-0.855366,-0.0214854,
0.0145855,-0.207514,-0.329636,-1.66162,-0.0727581,-0.106077,-0.382789,0.192072,-0.0633738,0.214301,-0.0635343,0.446341,-0.79185,0.0147811,0,0,0,0,0,0,0,0.0126381,-0.206961,-0.331555,-1.6607,-0.0696765,1.46866,0.402355,0.00878569,-0.0127315,0.0143385,0.00783867,0.298729,-0.232272,0.000284986,2.79651,-24.9373,5.11079,24.5865,2.1997,1.39519,-0.0163725,-0.17027,0.218974,1.0349,0.631347,0.214806,0.0988988,0.178513,0.257055,-0.115003,-0.574137,0.667092,-0.988973,-0.0169299,
0.0154622,-0.207763,-0.328651,-1.66191,-0.0707532,-0.109656,-0.382733,0.219172,-0.0624405,0.246119,-0.072289,0.501223,-0.894721,0.0139909,0,0,0,0,0,0,0,0.0126381,-0.206961,-0.331555,-1.6607,-0.0696765,1.46866,0.402355,0.00878569,-0.0127315,0.0143385,0.00783867,0.298729,-0.232272,0.000284986,2.79651,-24.9373,5.11079,24.5865,2.1997,1.39519,-0.0163725,-0.17027,0.218974,1.0349,0.631347,0.214806,0.0988988,0.178513,0.257055,-0.115003,-0.574137,0.667092,-0.988973,-0.0169299,
0.016429,-0.208002,-0.327562,-1.66223,-0.0685219,-0.113569,-0.38268,0.241717,-0.0596659,0.272188,-0.0801818,0.557829,-0.97837,0.0133422,0,0,0,0,0,0,0,0.0126381,-0.206961,-0.331555,-1.6607,-0.0696765,1.46866,0.402355,0.00878569,-0.0127315,0.0143385,0.00783867,0.298729,-0.232272,0.000284986,2.79651,-24.9373,5.11079,24.5865,2.1997,1.39519,-0.0163725,-0.582292,1.75119,0.9279,-0.40679,-0.0261074,0.709765,0.802722,0.158904,0.580253,-0.631658,0.798561,-1.07306,-0.0113664,
0.0174716,-0.208225,-0.326387,-1.66258,-0.0660682,-0.117755,-0.382628,0.260648,-0.0557192,0.293782,-0.0873047,0.613429,-1.0464,0.0127967,0,0,0,0,0,0,0,0.0126381,-0.206961,-0.331555,-1.6607,-0.0696765,1.46866,0.402355,0.00878569,-0.0127315,0.0143385,0.00783867,0.298729,-0.232272,0.000284986,2.79651,-24.9373,5.11079,24.5865,2.1997,1.39519,-0.0163725,-0.582292,1.75119,0.9279,-0.40679,-0.0261074,0.709765,0.802722,0.158904,0.580253,-0.631658,0.798561,-1.07306,-0.0113664,
0.0185783,-0.208429,-0.32514,-1.66295,-0.0634026,-0.122162,-0.382579,0.276659,-0.0510375,0.31183,-0.0936429,0.666393,-1.1018,0.0123179,0,0,0,0,0,0,0,0.0126381,-0.206961,-0.331555,-1.6607,-0.0696765,1.46866,0.402355,0.00878569,-0.0127315,0.0143385,0.00783867,0.298729,-0.232272,0.000284986,2.79651,-24.9373,5.11079,24.5865,2.1997,1.39519,-0.0163725,-1.67813,1.44931,1.18156,-0.425408,-0.93758,0.376548,0.441749,-0.384255,0.303296,-0.368845,0.581926,-1.03901,-0.00832022,
0.0145116,-0.207535,-0.329796,-1.66186,-0.0758043,-0.102672,-0.382855,0.235518,-0.0859672,0.255973,-0.100649,0.267137,-0.647528,0.0154417,0,0,0,0,0,0,0,0.0137223,-0.207806,-0.330157,-1.66109,-0.0625183,1.46082,0.40236,0.0439642,-0.0279961,0.0684208,-0.0185037,0.227168,-0.259106,0.00194547,3.1496,-25.3102,5.56306,25.4831,1.24664,1.69366,-0.00996382,-1.50114,-0.0878201,1.03341,0.504757,-0.672848,-0.278358,-0.203191,-0.184942,-0.432713,-0.438645,0.269417,-1.01594,-0.00514201,
0.016178,-0.20871,-0.327518,-1.66221,-0.0599501,-0.11697,-0.38283,0.258821,-0.0819073,0.284503,-0.110442,0.24869,-0.72707,0.0162478,0,0,0,0,0,0,0,0.0137223,-0.207806,-0.330157,-1.66109,-0.0625183,1.46082,0.40236,0.0439642,-0.0279961,0.0684208,-0.0185037,0.227168,-0.259106,0.00194547,3.1496,-25.3102,5.56306,25.4831,1.24664,1.69366,-0.00996382,-1.50114,-0.0878201,1.03341,0.504757,-0.672848,-0.278358,-0.203191,-0.184942,-0.432713,-0.438645,0.269417,-1.01594,-0.00514201,
0.0173741,-0.20903,-0.32619,-1.66269,-0.0587169,-0.120329,-0.382769,0.299013,-0.0800824,0.332164,-0.120543,0.308277,-0.839608,0.015225,0,0,0,0,0,0,0,0.0137223,-0.207806,-0.330157,-1.66109,-0.0625183,1.46082,0.40236,0.0439642,-0.0279961,0.0684208,-0.0185037,0.227168,-0.259106,0.00194547,3.1496,-25.3102,5.56306,25.4831,1.24664,1.69366,-0.00996382,-1.80378,-0.380643,0.920316,0.688821,-0.811562,-0.456011,-0.365622,-0.225617,-0.637203,-0.479663,0.18938,-1.04993,-0.00408519,
0.0187025,-0.209333,-0.324706,-1.66321,-0.0572166,-0.124054,-0.382712,0.332111,-0.0755932,0.370846,-0.129112,0.375086,-0.931236,0.0144149,0,0,0,0,0,0,0,0.0137223,-0.207806,-0.330157,-1.66109,-0.0625183,1.46082,0.40236,0.0439642,-0.0279961,0.0684208,-0.0185037,0.227168,-0.259106,0.00194547,3.1496,-25.3102,5.56306,25.4831,1.24664,1.69366,-0.00996382,-1.80378,-0.380643,0.920316,0.688821,-0.811562,-0.456011,-0.365622,-0.225617,-0.637203,-0.479663,0.18938,-1.04993,-0.00408519,
0.0201412,-0.209611,-0.323096,-1.66376,-0.0554408,-0.128076,-0.382657,0.359668,-0.0695899,0.402615,-0.136697,0.443945,-1.00555,0.013769,0,0,0,0,0,0,0,0.0137223,-0.207806,-0.330157,-1.66109,-0.0625183,1.46082,0.40236,0.0439642,-0.0279961,0.0684208,-0.0185037,0.227168,-0.259106,0.00194547,3.1496,-25.3102,5.56306,25.4831,1.24664,1.69366,-0.00996382,-0.712032,1.09488,-0.087104,-0.134898,0.374256,0.38979,0.458768,0.602844,0.274122,-1.00238,0.392618,-1.0739,-0.00300068,
0.0216725,-0.209862,-0.32138,-1.66433,-0.0533943,-0.132339,-0.382604,0.38282,-0.062642,0.428932,-0.143217,0.511637,-1.06593,0.0131316,0,0,0,0,0,0,0,0.0137223,-0.207806,-0.330157,-1.66109,-0.0625183,1.46082,0.40236,0.0439642,-0.0279961,0.0684208,-0.0185037,0.227168,-0.259106,0.00194547,3.1496,-25.3102,5.56306,25.4831,1.24664,1.69366,-0.00996382,-0.712032,1.09488,-0.087104,-0.134898,0.374256,0.38979,0.458768,0.602844,0.274122,-1.00238,0.392618,-1.0739,-0.00300068,
0.0232818,-0.210084,-0.319576,-1.66493,-0.0510891,-0.136775,-0.382554,0.402327,-0.0555788,0.450951,-0.149958,0.576297,-1.10898,0.0126013,0,0,0,0,0,0,0,0.0169176,-0.209619,-0.326159,-1.66219,-0.0530922,1.44797,0.402371,0.0980574,-0.0527525,0.137449,-0.0359848,0.175704,-0.311215,-0.000337827,4.01447,-24.2867,6.56282,24.6857,0.642391,2.19079,-0.0163725,-1.64234,0.875424,-0.118443,-0.0608302,-0.359746,0.127041,0.19168,0.178736,0.0216752,-0.848681,0.299906,-1.02377,0.00281994,
0.0167761,-0.208972,-0.326919,-1.66267,-0.0610216,-0.116727,-0.382849,0.324555,-0.105552,0.354052,-0.15418,0.138045,-0.708139,0.0149597,0,0,0,0,0,0,0,0.0169176,-0.209619,-0.326159,-1.66219,-0.0530922,1.44797,0.402371,0.0980574,-0.0527525,0.137449,-0.0359848,0.175704,-0.311215,-0.000337827,4.01447,-24.2867,6.56282,24.6857,0.642391,2.19079,-0.0163725,-2.93516,-1.29317,0.032242,1.19032,-1.40674,-1.05728,-0.960878,-0.44952,-1.27103,-0.537067,-0.130177,-0.910618,0.00863518,
0.0203602,-0.210862,-0.322453,-1.66379,-0.0514297,-0.130011,-0.382817,0.349138,-0.107847,0.38289,-0.154102,0.169945,-0.734189,0.016229,0,0,0,0,0,0,0,0.0169176,-0.209619,-0.326159,-1.66219,-0.0530922,1.44797,0.402371,0.0980574,-0.0527525,0.137449,-0.0359848,0.175704,-0.311215,-0.000337827,4.01447,-24.2867,6.56282,24.6857,0.642391,2.19079,-0.0163725,-2.93516,-1.29317,0.032242,1.19032,-1.40674,-1.05728,-0.960878,-0.44952,-1.27103,-0.537067,-0.130177,-0.910618,0.00863518,
0.0219402,-0.211274,-0.320703,-1.66445,-0.0505014,-0.133366,-0.382756,0.394999,-0.102819,0.437313,-0.165658,0.232073,-0.838935,0.0151986,0,0,0,0,0,0,0,0.0169176,-0.209619,-0.326159,-1.66219,-0.0530922,1.44797,0.402371,0.0980574,-0.0527525,0.137449,-0.0359848,0.175704,-0.311215,-0.000337827,4.01447,-24.2867,6.56282,24.6857,0.642391,2.19079,-0.0163725,-2.24165,-0.84143,0.0978382,0.819633,-0.96668,-0.734255,-0.652326,-0.236281,-0.898146,-0.520639,-0.103555,-0.834728,0.00857169,
0.0236704,-0.211657,-0.318778,-1.66516,-0.0492861,-0.137008,-0.382699,0.432548,-0.0957489,0.481368,-0.177319,0.303835,-0.910281,0.0143506,0,0,0,0,0,0,0,0.0169176,-0.209619,-0.326159,-1.66219,-0.0530922,1.44797,0.402371,0.0980574,-0.0527525,0.137449,-0.0359848,0.175704,-0.311215,-0.000337827,4.01447,-24.2867,6.56282,24.6857,0.642391,2.19079,-0.0163725,-2.24165,-0.84143,0.0978382,0.819633,-0.96668,-0.734255,-0.652326,-0.236281,-0.898146,-0.520639,-0.103555,-0.834728,0.00857169,
0.0255252,-0.212004,-0.316709,-1.66591,-0.0477703,-0.140837,-0.382644,0.463706,-0.086965,0.517269,-0.18743,0.378945,-0.957474,0.0135828,0,0,0,0,0,0,0,0.020987,-0.211542,-0.320857,-1.66375,-0.0472393,1.43525,0.402376,0.142858,-0.0668252,0.171253,-0.0552357,0.0623449,-0.39224,0.00542141,1.95942,-25.1872,4.48793,25.3839,0.984799,2.50939,-0.0301054,-1.58565,1.65082,0.013373,-0.781219,-0.493443,0.487818,0.542283,0.0355458,0.479774,-0.647863,0.265948,-0.870174,0.00712968,
0.0274837,-0.212317,-0.314521,-1.6667,-0.045956,-0.144723,-0.382592,0.489616,-0.0780827,0.546919,-0.198809,0.45356,-0.971461,0.0130239,0,0,0,0,0,0,0,0.020987,-0.211542,-0.320857,-1.66375,-0.0472393,1.43525,0.402376,0.142858,-0.0668252,0.171253,-0.0552357,0.0623449,-0.39224,0.00542141,1.95942,-25.1872,4.48793,25.3839,0.984799,2.50939,-0.0301054,-1.58565,1.65082,0.013373,-0.781219,-0.493443,0.487818,0.542283,0.0355458,0.479774,-0.647863,0.265948,-0.870174,0.00712968,
0.0295294,-0.21259,-0.312235,-1.66753,-0.043856,-0.148596,-0.382542,0.511427,-0.0682493,0.571395,-0.207801,0.525014,-0.968156,0.0125251,0,0,0,0,0,0,0,0.020987,-0.211542,-0.320857,-1.66375,-0.0472393,1.43525,0.402376,0.142858,-0.0668252,0.171253,-0.0552357,0.0623449,-0.39224,0.00542141,1.95942,-25.1872,4.48793,25.3839,0.984799,2.50939,-0.0301054,-1.4698,0.857391,-0.160013,-0.173494,-0.349595,0.150623,0.205121,0.133462,0.0775738,-0.711216,0.230549,-0.847625,0.00973996,
0.02114,-0.211058,-0.322388,-1.66418,-0.052164,-0.129771,-0.38285,0.422121,-0.124873,0.403815,-0.192902,0.0953674,-0.713874,0.0139282,0,0,0,0,0,0,0,0.020987,-0.211542,-0.320857,-1.66375,-0.0472393,1.43525,0.402376,0.142858,-0.0668252,0.171253,-0.0552357,0.0623449,-0.39224,0.00542141,1.95942,-25.1872,4.48793,25.3839,0.984799,2.50939,-0.0301054,-2.46362,-1.09187,-0.506906,1.12399,-0.970191,-0.873537,-0.773524,-0.175166,-1.0969,-0.676365,-0.0623283,-0.793365,0.0124117,
0.0253557,-0.212993,-0.316749,-1.66585,-0.0468073,-0.143099,-0.382809,0.429477,-0.123909,0.424976,-0.201025,0.0756428,-0.739286,0.016197,0,0,0,0,0,0,0,0.020987,-0.211542,-0.320857,-1.66375,-0.0472393,1.43525,0.402376,0.142858,-0.0668252,0.171253,-0.0552357,0.0623449,-0.39224,0.00542141,1.95942,-25.1872,4.48793,25.3839,0.984799,2.50939,-0.0301054,-2.46362,-1.09187,-0.506906,1.12399,-0.970191,-0.873537,-0.773524,-0.175166,-1.0969,-0.676365,-0.0623283,-0.793365,0.0124117,
0.0272654,-0.21346,-0.3148,-1.66671,-0.0462242,-0.146316,-0.382749,0.477424,-0.116679,0.487264,-0.216635,0.145778,-0.804413,0.0150257,0,0,0,0,0,0,0,0.020987,-0.211542,-0.320857,-1.66375,-0.0472393,1.43525,0.402376,0.142858,-0.0668252,0.171253,-0.0552357,0.0623449,-0.39224,0.00542141,1.95942,-25.1872,4.48793,25.3839,0.984799,2.50939,-0.0301054,-3.20331,-0.477957,-0.197596,0.600114,-1.70692,-0.708201,-0.602199,-0.659032,-0.87011,-0.420131,-0.0439196,-0.750426,0.0106787,
0.0293321,-0.213888,-0.312645,-1.66764,-0.0453245,-0.149641,-0.382692,0.516678,-0.107007,0.538582,-0.230879,0.224922,-0.831085,0.0142007,0,0,0,0,0,0,0,0.0268774,-0.213969,-0.313743,-1.66628,-0.0448124,1.42239,0.402383,0.212356,-0.0776372,0.23763,-0.0913304,0.0902836,-0.44802,0.0012726,4.82379,-24.0367,7.46339,24.761,2.57232,2.07177,-0.0227812,-2.15973,2.43552,-0.112166,-1.29705,-0.986415,0.758863,0.815713,-0.257018,0.799125,-0.550993,0.38802,-0.80242,0.00643923,
0.0315291,-0.214269,-0.31032,-1.6686,-0.0440984,-0.152989,-0.382638,0.549257,-0.0952029,0.581281,-0.24138,0.306533,-0.837099,0.0135187,0,0,0,0,0,0,0,0.0268774,-0.213969,-0.313743,-1.66628,-0.0448124,1.42239,0.402383,0.212356,-0.0776372,0.23763,-0.0913304,0.0902836,-0.44802,0.0012726,4.82379,-24.0367,7.46339,24.761,2.57232,2.07177,-0.0227812,-2.15973,2.43552,-0.112166,-1.29705,-0.986415,0.758863,0.815713,-0.257018,0.799125,-0.550993,0.38802,-0.80242,0.00643923,
0.0338349,-0.214598,-0.307851,-1.6696,-0.0425522,-0.156313,-0.382587,0.576448,-0.0823537,0.617334,-0.248612,0.386548,-0.831035,0.0129407,0,0,0,0,0,0,0,0.0268774,-0.213969,-0.313743,-1.66628,-0.0448124,1.42239,0.402383,0.212356,-0.0776372,0.23763,-0.0913304,0.0902836,-0.44802,0.0012726,4.82379,-24.0367,7.46339,24.761,2.57232,2.07177,-0.0227812,-1.88113,1.93113,0.325989,-0.911817,-0.913771,0.56904,0.577669,-0.279438,0.608119,-0.452251,0.438803,-0.827172,0.00831417,
0.0362319,-0.214876,-0.305258,-1.67061,-0.0407018,-0.159583,-0.382537,0.599243,-0.0693442,0.648154,-0.253424,0.462591,-0.817556,0.0124417,0,0,0,0,0,0,0,0.0268774,-0.213969,-0.313743,-1.66628,-0.0448124,1.42239,0.402383,0.212356,-0.0776372,0.23763,-0.0913304,0.0902836,-0.44802,0.0012726,4.82379,-24.0367,7.46339,24.761,2.57232,2.07177,-0.0227812,-1.88113,1.93113,0.325989,-0.911817,-0.913771,0.56904,0.577669,-0.279438,0.608119,-0.452251,0.438803,-0.827172,0.00831417,
0.0258618,-0.21312,-0.316969,-1.66619,-0.047038,-0.142895,-0.382864,0.47841,-0.134247,0.407389,-0.233409,0.0525815,-0.726893,0.0123411,0,0,0,0,0,0,0,0.0268774,-0.213969,-0.313743,-1.66628,-0.0448124,1.42239,0.402383,0.212356,-0.0776372,0.23763,-0.0913304,0.0902836,-0.44802,0.0012726,4.82379,-24.0367,7.46339,24.761,2.57232,2.07177,-0.0227812,-1.96501,-0.849152,-0.599627,1.07289,-0.597681,-0.674517,-0.597913,0.0245325,-0.892476,-0.754992,0.100715,-0.778583,0.0106552,
0.0322631,-0.215491,-0.309268,-1.66891,-0.0438646,-0.155655,-0.382831,0.513575,-0.12759,0.447761,-0.2511,0.122158,-0.659379,0.0139377,0,0,0,0,0,0,0,0.0345948,-0.21703,-0.305285,-1.66995,-0.0444536,1.41024,0.402387,0.25801,-0.0987991,0.320157,-0.124539,0.0070105,-0.368107,-0.00072474,5.30384,-23.7392,7.53877,24.5627,2.32238,2.21734,-0.0026396,-1.96501,-0.849152,-0.599627,1.07289,-0.597681,-0.674517,-0.597913,0.0245325,-0.892476,-0.754992,0.100715,-0.778583,0.0106552,
0.0345106,-0.21596,-0.30725,-1.66998,-0.0431015,-0.158378,-0.382779,0.561882,-0.117339,0.50453,-0.266418,0.190755,-0.680812,0.0130625,0,0,0,0,0,0,0,0.0345948,-0.21703,-0.305285,-1.66995,-0.0444536,1.41024,0.402387,0.25801,-0.0987991,0.320157,-0.124539,0.0070105,-0.368107,-0.00072474,5.30384,-23.7392,7.53877,24.5627,2.32238,2.21734,-0.0026396,-2.67152,-0.147349,-1.0353,0.632984,-1.00242,-0.45184,-0.323765,-0.143013,-0.67277,-0.825667,0.15788,-0.780769,0.00967819,
0.0369199,-0.216377,-0.305044,-1.67108,-0.0420379,-0.161128,-0.382729,0.602316,-0.104109,0.551428,-0.275948,0.265909,-0.687444,0.012399,0,0,0,0,0,0,0,0.0345948,-0.21703,-0.305285,-1.66995,-0.0444536,1.41024,0.402387,0.25801,-0.0987991,0.320157,-0.124539,0.0070105,-0.368107,-0.00072474,5.30384,-23.7392,7.53877,24.5627,2.32238,2.21734,-0.0026396,-2.14939,2.36107,-0.70891,-1.08202,-0.785098,0.749221,0.830582,-0.0627498,0.728456,-0.765773,0.48869,-0.787758,0.00479339,
0.0394663,-0.216736,-0.302681,-1.67221,-0.0406691,-0.163865,-0.382682,0.636599,-0.0898627,0.590749,-0.281999,0.342213,-0.684156,0.0118706,0,0,0,0,0,0,0,0.0345948,-0.21703,-0.305285,-1.66995,-0.0444536,1.41024,0.402387,0.25801,-0.0987991,0.320157,-0.124539,0.0070105,-0.368107,-0.00072474,5.30384,-23.7392,7.53877,24.5627,2.32238,2.21734,-0.0026396,-2.14939,2.36107,-0.70891,-1.08202,-0.785098,0.749221,0.830582,-0.0627498,0.728456,-0.765773,0.48869,-0.787758,0.00479339,
0.0421301,-0.217039,-0.300185,-1.67335,-0.0390034,-0.166562,-0.382636,0.665958,-0.0756586,0.624121,-0.285828,0.41641,-0.674184,0.0114366,0,0,0,0,0,0,0,0.0345948,-0.21703,-0.305285,-1.66995,-0.0444536,1.41024,0.402387,0.25801,-0.0987991,0.320157,-0.124539,0.0070105,-0.368107,-0.00072474,5.30384,-23.7392,7.53877,24.5627,2.32238,2.21734,-0.0026396,-0.491276,2.06432,-0.503576,-0.846152,0.399288,0.847987,0.856442,0.568757,0.849747,-0.870443,0.545391,-0.756486,0.000560638,
0.0448953,-0.217287,-0.297574,-1.67451,-0.0370569,-0.1692,-0.382592,0.691296,-0.0620573,0.652723,-0.28815,0.486624,-0.659681,0.0110732,0,0,0,0,0,0,0,0.0345948,-0.21703,-0.305285,-1.66995,-0.0444536,1.41024,0.402387,0.25801,-0.0987991,0.320157,-0.124539,0.0070105,-0.368107,-0.00072474,5.30384,-23.7392,7.53877,24.5627,2.32238,2.21734,-0.0026396,-0.491276,2.06432,-0.503576,-0.846152,0.399288,0.847987,0.856442,0.568757,0.849747,-0.870443,0.545391,-0.756486,0.000560638,
0.0322578,-0.215562,-0.309258,-1.66919,-0.0438508,-0.155661,-0.382881,0.513111,-0.13355,0.448336,-0.280145,0.124109,-0.659941,0.010381,0,0,0,0,0,0,0,0.0442076,-0.220136,-0.296405,-1.67411,-0.0442335,1.39979,0.402394,0.357733,-0.110005,0.281894,-0.144002,0.0124802,-0.318859,0.000811577,3.17737,-23.5884,5.11079,24.2612,1.35101,2.28417,-0.0227812,-0.93936,-1.1187,-0.987556,1.41238,0.250415,-0.63968,-0.567644,0.508828,-0.917427,-0.94957,0.23025,-0.701096,0.00553832,
0.0502313,-0.22171,-0.291194,-1.67718,-0.0430882,-0.176077,-0.382859,0.555858,-0.124357,0.497373,-0.281312,0.161325,-0.463556,0.0113328,0,0,0,0,0,0,0,0.0442076,-0.220136,-0.296405,-1.67411,-0.0442335,1.39979,0.402394,0.357733,-0.110005,0.281894,-0.144002,0.0124802,-0.318859,0.000811577,3.17737,-23.5884,5.11079,24.2612,1.35101,2.28417,-0.0227812,-0.93936,-1.1187,-0.987556,1.41238,0.250415,-0.63968,-0.567644,0.508828,-0.917427,-0.94957,0.23025,-0.701096,0.00553832,
0.0526212,-0.222152,-0.289011,-1.67835,-0.042132,-0.178021,-0.382816,0.597475,-0.110311,0.545751,-0.293016,0.239052,-0.485982,0.0106635,0,0,0,0,0,0,0,0.0442076,-0.220136,-0.296405,-1.67411,-0.0442335,1.39979,0.402394,0.357733,-0.110005,0.281894,-0.144002,0.0124802,-0.318859,0.000811577,3.17737,-23.5884,5.11079,24.2612,1.35101,2.28417,-0.0227812,-1.74072,-1.09855,-1.57939,1.40372,-0.165305,-0.721826,-0.576568,0.351354,-1.05755,-1.04456,0.168184,-0.677292,0.00365385,
0.0551519,-0.222532,-0.286666,-1.67955,-0.0408607,-0.180011,-0.382776,0.632661,-0.0951226,0.586251,-0.300426,0.31784,-0.497388,0.0101237,0,0,0,0,0,0,0,0.0442076,-0.220136,-0.296405,-1.67411,-0.0442335,1.39979,0.402394,0.357733,-0.110005,0.281894,-0.144002,0.0124802,-0.318859,0.000811577,3.17737,-23.5884,5.11079,24.2612,1.35101,2.28417,-0.0227812,-2.08595,1.65394,-1.2257,-0.514107,-0.618212,0.470554,0.576221,0.067443,0.362134,-0.877965,0.482766,-0.690546,-0.000960145,
0.0578028,-0.222852,-0.284183,-1.68077,-0.0392831,-0.182012,-0.382737,0.662726,-0.0800418,0.620561,-0.305287,0.394398,-0.500473,0.00965196,0,0,0,0,0,0,0,0.0442076,-0.220136,-0.296405,-1.67411,-0.0442335,1.39979,0.402394,0.357733,-0.110005,0.281894,-0.144002,0.0124802,-0.318859,0.000811577,3.17737,-23.5884,5.11079,24.2612,1.35101,2.28417,-0.0227812,-2.08595,1.65394,-1.2257,-0.514107,-0.618212,0.470554,0.576221,0.067443,0.362134,-0.877965,0.482766,-0.690546,-0.000960145,
0.0605573,-0.223115,-0.281584,-1.682,-0.0374158,-0.184002,-0.3827,0.688624,-0.0656637,0.649907,-0.308451,0.466824,-0.497376,0.00933645,0,0,0,0,0,0,0,0.0597065,-0.224884,-0.282462,-1.68118,-0.0432564,1.38852,0.402403,0.371241,-0.118352,0.355296,-0.196024,0.0205951,-0.200094,0.00082807,2.61798,-23.6162,4.48793,24.162,1.25946,2.37023,-0.0429228,-1.07389,2.06017,-0.601993,-0.821804,-0.0955848,0.779097,0.803296,0.268103,0.766226,-0.751998,0.594878,-0.66774,-0.00565862,
0.0480079,-0.221213,-0.293183,-1.67605,-0.0437335,-0.174223,-0.382904,0.505885,-0.134564,0.438741,-0.26139,0.0901697,-0.4273,0.0121795,0,0,0,0,0,0,0,0.0597065,-0.224884,-0.282462,-1.68118,-0.0432564,1.38852,0.402403,0.371241,-0.118352,0.355296,-0.196024,0.0205951,-0.200094,0.00082807,2.61798,-23.6162,4.48793,24.162,1.25946,2.37023,-0.0429228,-1.07389,2.06017,-0.601993,-0.821804,-0.0955848,0.779097,0.803296,0.268103,0.766226,-0.751998,0.594878,-0.66774,-0.00565862,
0.0660738,-0.226322,-0.276854,-1.68435,-0.0417698,-0.185946,-0.382838,0.580104,-0.109595,0.524305,-0.280319,0.195628,-0.351003,0.0121933,0,0,0,0,0,0,0,0.0597065,-0.224884,-0.282462,-1.68118,-0.0432564,1.38852,0.402403,0.371241,-0.118352,0.355296,-0.196024,0.0205951,-0.200094,0.00082807,2.61798,-23.6162,4.48793,24.162,1.25946,2.37023,-0.0429228,-1.53403,-0.20772,-1.03953,0.728387,-0.275469,-0.285067,-0.202653,0.187958,-0.496642,-0.811311,0.309675,-0.619767,-0.00403596,
0.0685471,-0.226704,-0.274578,-1.68551,-0.0406721,-0.187466,-0.382792,0.61832,-0.0956522,0.568828,-0.287964,0.274425,-0.379941,0.0113718,0,0,0,0,0,0,0,0.0597065,-0.224884,-0.282462,-1.68118,-0.0432564,1.38852,0.402403,0.371241,-0.118352,0.355296,-0.196024,0.0205951,-0.200094,0.00082807,2.61798,-23.6162,4.48793,24.162,1.25946,2.37023,-0.0429228,-1.90624,-0.189812,-1.99907,0.776862,-0.175865,-0.304643,-0.163374,0.400769,-0.581063,-1.14562,0.265608,-0.64261,-0.00438912,
0.0711501,-0.22703,-0.272153,-1.68668,-0.039262,-0.18906,-0.382749,0.650761,-0.081491,0.606291,-0.293099,0.352516,-0.398572,0.0107919,0,0,0,0,0,0,0,0.0597065,-0.224884,-0.282462,-1.68118,-0.0432564,1.38852,0.402403,0.371241,-0.118352,0.355296,-0.196024,0.0205951,-0.200094,0.00082807,2.61798,-23.6162,4.48793,24.162,1.25946,2.37023,-0.0429228,-1.90624,-0.189812,-1.99907,0.776862,-0.175865,-0.304643,-0.163374,0.400769,-0.581063,-1.14562,0.265608,-0.64261,-0.00438912,
0.0738643,-0.227302,-0.269601,-1.68786,-0.0375524,-0.190696,-0.382708,0.678547,-0.0678165,0.638127,-0.296669,0.427399,-0.408855,0.0103293,0,0,0,0,0,0,0,0.0727641,-0.22854,-0.270656,-1.68766,-0.0419992,1.3835,0.402405,0.412978,-0.102227,0.361333,-0.202986,0.0117691,-0.106483,0.00105492,0.868412,-24.3382,2.83754,25.2332,1.41235,2.31072,-0.0301054,-1.20464,2.39392,-1.32673,-1.03998,0.0945733,0.937614,0.985817,0.509143,0.920151,-1.0143,0.581353,-0.668543,-0.00888939,
0.0766744,-0.227521,-0.266939,-1.68906,-0.0355619,-0.192346,-0.382668,0.702512,-0.0549439,0.665408,-0.299103,0.497643,-0.412524,0.00994406,0,0,0,0,0,0,0,0.0727641,-0.22854,-0.270656,-1.68766,-0.0419992,1.3835,0.402405,0.412978,-0.102227,0.361333,-0.202986,0.0117691,-0.106483,0.00105492,0.868412,-24.3382,2.83754,25.2332,1.41235,2.31072,-0.0301054,-1.20464,2.39392,-1.32673,-1.03998,0.0945733,0.937614,0.985817,0.509143,0.920151,-1.0143,0.581353,-0.668543,-0.00888939,
0.0795675,-0.227693,-0.264183,-1.69026,-0.0333118,-0.19399,-0.38263,0.723293,-0.0430073,0.68895,-0.30063,0.562525,-0.410985,0.00961703,0,0,0,0,0,0,0,0.0727641,-0.22854,-0.270656,-1.68766,-0.0419992,1.3835,0.402405,0.412978,-0.102227,0.361333,-0.202986,0.0117691,-0.106483,0.00105492,0.868412,-24.3382,2.83754,25.2332,1.41235,2.31072,-0.0301054,-1.91307,0.434489,-0.393971,0.240788,-0.773387,-0.0249535,0.0312892,-0.168916,-0.155574,-0.569728,0.4123,-0.662617,-0.00556139,
0.0637534,-0.225883,-0.278951,-1.68323,-0.0425523,-0.184542,-0.382887,0.534453,-0.12171,0.47082,-0.267861,0.120315,-0.310073,0.01321,0,0,0,0,0,0,0,0.0727641,-0.22854,-0.270656,-1.68766,-0.0419992,1.3835,0.402405,0.412978,-0.102227,0.361333,-0.202986,0.0117691,-0.106483,0.00105492,0.868412,-24.3382,2.83754,25.2332,1.41235,2.31072,-0.0301054,-1.91307,0.434489,-0.393971,0.240788,-0.773387,-0.0249535,0.0312892,-0.168916,-0.155574,-0.569728,0.4123,-0.662617,-0.00556139,
0.0793112,-0.229777,-0.264859,-1.69081,-0.0404146,-0.189898,-0.382825,0.592451,-0.0939646,0.537814,-0.275601,0.207056,-0.266264,0.0130445,0,0,0,0,0,0,0,0.0727641,-0.22854,-0.270656,-1.68766,-0.0419992,1.3835,0.402405,0.412978,-0.102227,0.361333,-0.202986,0.0117691,-0.106483,0.00105492,0.868412,-24.3382,2.83754,25.2332,1.41235,2.31072,-0.0301054,-2.95959,-1.87647,0.0975577,1.73048,-1.81339,-1.15711,-0.986785,-0.925316,-1.50357,-0.15623,0.126553,-0.569034,-0.00254969,
0.0818272,-0.230104,-0.262537,-1.69194,-0.039267,-0.191102,-0.382776,0.629008,-0.0816661,0.580557,-0.281732,0.286888,-0.300854,0.0122171,0,0,0,0,0,0,0,0.0727641,-0.22854,-0.270656,-1.68766,-0.0419992,1.3835,0.402405,0.412978,-0.102227,0.361333,-0.202986,0.0117691,-0.106483,0.00105492,0.868412,-24.3382,2.83754,25.2332,1.41235,2.31072,-0.0301054,-1.88328,-2.19532,-0.415864,2.02645,-0.780572,-1.1833,-1.02449,-0.273608,-1.57575,-0.477783,0.134716,-0.568135,-0.00387786,
0.0844676,-0.230381,-0.26007,-1.69308,-0.0378064,-0.192401,-0.38273,0.660076,-0.0692054,0.616578,-0.285904,0.365172,-0.324954,0.011551,0,0,0,0,0,0,0,0.0863653,-0.231436,-0.257615,-1.69415,-0.0394577,1.38026,0.40241,0.439085,-0.0830166,0.428894,-0.199892,0.0976903,-0.0917587,0.00121461,1.70551,-23.7154,4.13881,25.4831,1.84539,2.01867,-0.0301054,-1.88328,-2.19532,-0.415864,2.02645,-0.780572,-1.1833,-1.02449,-0.273608,-1.57575,-0.477783,0.134716,-0.568135,-0.00387786,
0.0872144,-0.230609,-0.257482,-1.69424,-0.0360474,-0.193762,-0.382686,0.686703,-0.0571613,0.647216,-0.288849,0.439739,-0.340274,0.0110006,0,0,0,0,0,0,0,0.0863653,-0.231436,-0.257615,-1.69415,-0.0394577,1.38026,0.40241,0.439085,-0.0830166,0.428894,-0.199892,0.0976903,-0.0917587,0.00121461,1.70551,-23.7154,4.13881,25.4831,1.84539,2.01867,-0.0301054,-0.0830293,2.76194,0.186481,-1.38713,0.394207,1.2355,1.26423,0.461016,1.27697,-0.581866,0.696897,-0.650135,-0.0121698,
0.0900531,-0.230792,-0.254788,-1.6954,-0.0340099,-0.195156,-0.382644,0.709672,-0.0457908,0.673482,-0.290875,0.509369,-0.348446,0.0105374,0,0,0,0,0,0,0,0.0863653,-0.231436,-0.257615,-1.69415,-0.0394577,1.38026,0.40241,0.439085,-0.0830166,0.428894,-0.199892,0.0976903,-0.0917587,0.00121461,1.70551,-23.7154,4.13881,25.4831,1.84539,2.01867,-0.0301054,-0.0830293,2.76194,0.186481,-1.38713,0.394207,1.2355,1.26423,0.461016,1.27697,-0.581866,0.696897,-0.650135,-0.0121698,
0.0929714,-0.230933,-0.252003,-1.69657,-0.0317161,-0.19656,-0.382604,0.72959,-0.0352049,0.696151,-0.292135,0.573468,-0.350865,0.0101422,0,0,0,0,0,0,0,0.0863653,-0.231436,-0.257615,-1.69415,-0.0394577,1.38026,0.40241,0.439085,-0.0830166,0.428894,-0.199892,0.0976903,-0.0917587,0.00121461,1.70551,-23.7154,4.13881,25.4831,1.84539,2.01867,-0.0301054,-0.494557,1.61264,0.740618,-0.741647,-0.117514,0.676648,0.664567,0.0671651,0.714546,-0.297862,0.4956,-0.627297,-0.0107093,
0.0769414,-0.229401,-0.26701,-1.68971,-0.0412428,-0.188833,-0.382878,0.548908,-0.10474,0.486563,-0.265566,0.129315,-0.22002,0.0140833,0,0,0,0,0,0,0,0.0863653,-0.231436,-0.257615,-1.69415,-0.0394577,1.38026,0.40241,0.439085,-0.0830166,0.428894,-0.199892,0.0976903,-0.0917587,0.00121461,1.70551,-23.7154,4.13881,25.4831,1.84539,2.01867,-0.0301054,-0.494557,1.61264,0.740618,-0.741647,-0.117514,0.676648,0.664567,0.0671651,0.714546,-0.297862,0.4956,-0.627297,-0.0107093,
0.0933055,-0.232478,-0.251356,-1.69725,-0.036912,-0.192755,-0.38282,0.620795,-0.0788885,0.570307,-0.271293,0.283517,-0.229166,0.0131034,0,0,0,0,0,0,0,0.100844,-0.233842,-0.244358,-1.70031,-0.0366079,1.37889,0.402415,0.464467,-0.051087,0.448362,-0.172687,0.154632,-0.0280039,0.000441982,2.76874,-24.1875,4.33717,25.0348,2.13287,2.01867,-0.0365141,-1.93119,-0.253343,-0.558082,0.566718,-0.687519,-0.273131,-0.166969,-0.0985679,-0.4633,-0.614796,0.213613,-0.645423,-0.00949443,
0.0959201,-0.232749,-0.248921,-1.69836,-0.0354799,-0.193799,-0.382771,0.653638,-0.0678139,0.608731,-0.276764,0.358033,-0.261113,0.0122805,0,0,0,0,0,0,0,0.100844,-0.233842,-0.244358,-1.70031,-0.0366079,1.37889,0.402415,0.464467,-0.051087,0.448362,-0.172687,0.154632,-0.0280039,0.000441982,2.76874,-24.1875,4.33717,25.0348,2.13287,2.01867,-0.0365141,-2.5458,-0.817194,-1.18416,1.09231,-0.869399,-0.572751,-0.417194,-0.116299,-0.874254,-0.8315,0.240701,-0.7069,-0.0100249,
0.0986463,-0.232975,-0.246357,-1.69948,-0.0337578,-0.194934,-0.382724,0.681571,-0.0565907,0.641168,-0.280369,0.430509,-0.283571,0.011615,0,0,0,0,0,0,0,0.100844,-0.233842,-0.244358,-1.70031,-0.0366079,1.37889,0.402415,0.464467,-0.051087,0.448362,-0.172687,0.154632,-0.0280039,0.000441982,2.76874,-24.1875,4.33717,25.0348,2.13287,2.01867,-0.0365141,-2.5458,-0.817194,-1.18416,1.09231,-0.869399,-0.572751,-0.417194,-0.116299,-0.874254,-0.8315,0.240701,-0.7069,-0.0100249,
0.101468,-0.233158,-0.243682,-1.70061,-0.0317612,-0.196125,-0.38268,0.705524,-0.0457581,0.668792,-0.282843,0.499156,-0.297912,0.011062,0,0,0,0,0,0,0,0.100844,-0.233842,-0.244358,-1.70031,-0.0366079,1.37889,0.402415,0.464467,-0.051087,0.448362,-0.172687,0.154632,-0.0280039,0.000441982,2.76874,-24.1875,4.33717,25.0348,2.13287,2.01867,-0.0365141,-1.87637,0.70867,-0.906684,0.169309,-0.435276,0.165993,0.254099,0.138825,-0.00981129,-0.87185,0.552947,-0.757044,-0.011956,
0.104373,-0.233301,-0.240912,-1.70175,-0.0295092,-0.197348,-0.382637,0.726196,-0.0355437,0.692495,-0.284478,0.562995,-0.305565,0.0105942,0,0,0,0,0,0,0,0.100844,-0.233842,-0.244358,-1.70031,-0.0366079,1.37889,0.402415,0.464467,-0.051087,0.448362,-0.172687,0.154632,-0.0280039,0.000441982,2.76874,-24.1875,4.33717,25.0348,2.13287,2.01867,-0.0365141,-1.87637,0.70867,-0.906684,0.169309,-0.435276,0.165993,0.254099,0.138825,-0.00981129,-0.87185,0.552947,-0.757044,-0.011956,
0.0908223,-0.232162,-0.253638,-1.69617,-0.0380461,-0.191838,-0.382872,0.581655,-0.0884862,0.524373,-0.261936,0.210011,-0.187175,0.0141455,0,0,0,0,0,0,0,0.100844,-0.233842,-0.244358,-1.70031,-0.0366079,1.37889,0.402415,0.464467,-0.051087,0.448362,-0.172687,0.154632,-0.0280039,0.000441982,2.76874,-24.1875,4.33717,25.0348,2.13287,2.01867,-0.0365141,-1.43361,0.28162,-0.889565,0.407839,-0.0759599,0.00678803,0.0379293,0.339584,-0.145737,-0.92082,0.477054,-0.760946,-0.0112921,
0.107982,-0.234662,-0.237877,-1.70329,-0.0334863,-0.19327,-0.38281,0.635277,-0.0638749,0.586744,-0.263173,0.326728,-0.160406,0.013407,0,0,0,0,0,0,0,0.115562,-0.23542,-0.230361,-1.70561,-0.0330902,1.37871,0.402421,0.474041,-0.0481136,0.469165,-0.17,0.155712,-0.00252784,0.000695564,3.76056,-23.8146,5.06318,23.4637,1.13678,2.13128,-0.0429228,-3.3672,-1.15054,-1.22853,1.23892,-1.44485,-0.747811,-0.631655,-0.430041,-1.01193,-0.770929,0.164477,-0.727459,-0.00915693,
0.110648,-0.234881,-0.235384,-1.70436,-0.0318991,-0.194055,-0.38276,0.666432,-0.0549142,0.623347,-0.268957,0.396786,-0.196229,0.0125424,0,0,0,0,0,0,0,0.115562,-0.23542,-0.230361,-1.70561,-0.0330902,1.37871,0.402421,0.474041,-0.0481136,0.469165,-0.17,0.155712,-0.00252784,0.000695564,3.76056,-23.8146,5.06318,23.4637,1.13678,2.13128,-0.0429228,-3.3672,-1.15054,-1.22853,1.23892,-1.44485,-0.747811,-0.631655,-0.430041,-1.01193,-0.770929,0.164477,-0.727459,-0.00915693,
0.11342,-0.235063,-0.232767,-1.70545,-0.0300387,-0.194945,-0.382713,0.692867,-0.0454105,0.65419,-0.272562,0.465113,-0.222425,0.0118438,0,0,0,0,0,0,0,0.115562,-0.23542,-0.230361,-1.70561,-0.0330902,1.37871,0.402421,0.474041,-0.0481136,0.469165,-0.17,0.155712,-0.00252784,0.000695564,3.76056,-23.8146,5.06318,23.4637,1.13678,2.13128,-0.0429228,-2.87456,1.35723,-1.46756,-0.425107,-0.993805,0.448824,0.563245,-0.0455643,0.336644,-0.950187,0.466279,-0.73046,-0.0138928,
0.116282,-0.235207,-0.230045,-1.70655,-0.0279189,-0.195905,-0.382668,0.715498,-0.0360427,0.680414,-0.274954,0.529939,-0.240161,0.0112632,0,0,0,0,0,0,0,0.115562,-0.23542,-0.230361,-1.70561,-0.0330902,1.37871,0.402421,0.474041,-0.0481136,0.469165,-0.17,0.155712,-0.00252784,0.000695564,3.76056,-23.8146,5.06318,23.4637,1.13678,2.13128,-0.0429228,-2.87456,1.35723,-1.46756,-0.425107,-0.993805,0.448824,0.563245,-0.0455643,0.336644,-0.950187,0.466279,-0.73046,-0.0138928,
0.119222,-0.235316,-0.227234,-1.70766,-0.0255578,-0.196909,-0.382625,0.735,-0.0270994,0.702886,-0.276501,0.590285,-0.250838,0.0107708,0,0,0,0,0,0,0,0.115562,-0.23542,-0.230361,-1.70561,-0.0330902,1.37871,0.402421,0.474041,-0.0481136,0.469165,-0.17,0.155712,-0.00252784,0.000695564,3.76056,-23.8146,5.06318,23.4637,1.13678,2.13128,-0.0429228,-0.802908,2.36538,-1.31484,-1.00889,0.611127,1.02153,1.047,0.898742,0.996672,-1.21873,0.702728,-0.796752,-0.0126575,
0.122229,-0.23539,-0.224345,-1.70877,-0.022975,-0.197932,-0.382583,0.751893,-0.0187073,0.722267,-0.277366,0.64569,-0.255756,0.0103498,0,0,0,0,0,0,0,0.131627,-0.236602,-0.215221,-1.71123,-0.0277849,1.37897,0.402423,0.495201,-0.040912,0.466343,-0.171008,0.138605,0.00897354,-4.06983e-05,2.66956,-24.0645,3.88887,24.1144,1.03973,2.04522,-0.0227812,-0.802908,2.36538,-1.31484,-1.00889,0.611127,1.02153,1.047,0.898742,0.996672,-1.21873,0.702728,-0.796752,-0.0126575,
0.105441,-0.234406,-0.240224,-1.70223,-0.0347932,-0.192629,-0.382864,0.598027,-0.0705929,0.542891,-0.252505,0.257949,-0.115117,0.014499,0,0,0,0,0,0,0,0.131627,-0.236602,-0.215221,-1.71123,-0.0277849,1.37897,0.402423,0.495201,-0.040912,0.466343,-0.171008,0.138605,0.00897354,-4.06983e-05,2.66956,-24.0645,3.88887,24.1144,1.03973,2.04522,-0.0227812,-1.65361,-0.877501,-1.58143,1.1546,0.0832287,-0.501069,-0.428042,0.507502,-0.76743,-1.17305,0.319889,-0.788325,-0.00649968,
0.13893,-0.237275,-0.20853,-1.71415,-0.024612,-0.192724,-0.382801,0.646458,-0.0519146,0.60133,-0.256778,0.335957,-0.120464,0.0136381,0,0,0,0,0,0,0,0.131627,-0.236602,-0.215221,-1.71123,-0.0277849,1.37897,0.402423,0.495201,-0.040912,0.466343,-0.171008,0.138605,0.00897354,-4.06983e-05,2.66956,-24.0645,3.88887,24.1144,1.03973,2.04522,-0.0227812,-2.84677,-1.44826,-1.51069,1.48136,-0.913,-0.796318,-0.653555,-0.113094,-1.12501,-0.943971,0.211581,-0.731477,-0.00647207,
0.141634,-0.23745,-0.205986,-1.7152,-0.0229801,-0.193346,-0.38275,0.675933,-0.0437333,0.635913,-0.262432,0.407997,-0.155502,0.0127741,0,0,0,0,0,0,0,0.131627,-0.236602,-0.215221,-1.71123,-0.0277849,1.37897,0.402423,0.495201,-0.040912,0.466343,-0.171008,0.138605,0.00897354,-4.06983e-05,2.66956,-24.0645,3.88887,24.1144,1.03973,2.04522,-0.0227812,-2.84677,-1.44826,-1.51069,1.48136,-0.913,-0.796318,-0.653555,-0.113094,-1.12501,-0.943971,0.211581,-0.731477,-0.00647207,
0.144438,-0.23759,-0.203326,-1.71626,-0.0210717,-0.194071,-0.382702,0.701032,-0.0350803,0.665184,-0.265958,0.47709,-0.181297,0.0120613,0,0,0,0,0,0,0,0.131627,-0.236602,-0.215221,-1.71123,-0.0277849,1.37897,0.402423,0.495201,-0.040912,0.466343,-0.171008,0.138605,0.00897354,-4.06983e-05,2.66956,-24.0645,3.88887,24.1144,1.03973,2.04522,-0.0227812,-2.63451,0.44264,-1.08009,0.218571,-0.899046,0.0916641,0.208675,-0.0805018,-0.0918194,-0.857633,0.460333,-0.755222,-0.0102664,
0.147328,-0.237696,-0.200565,-1.71733,-0.018904,-0.194867,-0.382656,0.722572,-0.0265648,0.69016,-0.268274,0.541912,-0.198945,0.011463,0,0,0,0,0,0,0,0.131627,-0.236602,-0.215221,-1.71123,-0.0277849,1.37897,0.402423,0.495201,-0.040912,0.466343,-0.171008,0.138605,0.00897354,-4.06983e-05,2.66956,-24.0645,3.88887,24.1144,1.03973,2.04522,-0.0227812,-2.63451,0.44264,-1.08009,0.218571,-0.899046,0.0916641,0.208675,-0.0805018,-0.0918194,-0.857633,0.460333,-0.755222,-0.0102664,
0.150293,-0.23777,-0.197719,-1.71841,-0.0164969,-0.195706,-0.382612,0.741166,-0.0184439,0.71162,-0.269742,0.601778,-0.209772,0.0109469,0,0,0,0,0,0,0,0.147145,-0.236983,-0.199984,-1.71618,-0.0210606,1.37918,0.402428,0.507656,-0.00742048,0.46089,-0.157381,0.182795,0.0165368,0.00142203,-0.95654,-25.1634,0.838026,25.8084,1.1615,1.89965,-0.0365141,-1.93613,2.48325,-0.135787,-1.20801,-0.724741,1.05969,1.0834,-0.0223333,1.102,-0.613909,0.687873,-0.753353,-0.0131173,
0.153322,-0.237813,-0.194798,-1.71949,-0.0138712,-0.196566,-0.38257,0.757292,-0.0108299,0.730166,-0.270529,0.656422,-0.215015,0.0105076,0,0,0,0,0,0,0,0.147145,-0.236983,-0.199984,-1.71618,-0.0210606,1.37918,0.402428,0.507656,-0.00742048,0.46089,-0.157381,0.182795,0.0165368,0.00142203,-0.95654,-25.1634,0.838026,25.8084,1.1615,1.89965,-0.0365141,-1.61763,0.934301,-0.228596,-0.251463,-0.507856,0.377011,0.429533,0.0187421,0.30822,-0.583222,0.438732,-0.670778,-0.0102296,
0.136344,-0.237067,-0.210935,-1.71312,-0.0259559,-0.192242,-0.382855,0.61141,-0.0580926,0.56012,-0.246468,0.263273,-0.0763454,0.0146821,0,0,0,0,0,0,0,0.147145,-0.236983,-0.199984,-1.71618,-0.0210606,1.37918,0.402428,0.507656,-0.00742048,0.46089,-0.157381,0.182795,0.0165368,0.00142203,-0.95654,-25.1634,0.838026,25.8084,1.1615,1.89965,-0.0365141,-1.61763,0.934301,-0.228596,-0.251463,-0.507856,0.377011,0.429533,0.0187421,0.30822,-0.583222,0.438732,-0.670778,-0.0102296,
0.154494,-0.2374,-0.19325,-1.71906,-0.0175267,-0.19221,-0.382791,0.650122,-0.0340462,0.605522,-0.255262,0.359695,-0.0915072,0.0140225,0,0,0,0,0,0,0,0.147145,-0.236983,-0.199984,-1.71618,-0.0210606,1.37918,0.402428,0.507656,-0.00742048,0.46089,-0.157381,0.182795,0.0165368,0.00142203,-0.95654,-25.1634,0.838026,25.8084,1.1615,1.89965,-0.0365141,-2.20898,-1.57317,-0.882094,1.42942,-0.729698,-0.7755,-0.65645,-0.145951,-1.06197,-0.694297,0.146167,-0.640233,-0.0074437,
0.157212,-0.237512,-0.190689,-1.7201,-0.0158182,-0.192711,-0.382738,0.679497,-0.0281274,0.640217,-0.260439,0.427113,-0.125156,0.0131002,0,0,0,0,0,0,0,0.147145,-0.236983,-0.199984,-1.71618,-0.0210606,1.37918,0.402428,0.507656,-0.00742048,0.46089,-0.157381,0.182795,0.0165368,0.00142203,-0.95654,-25.1634,0.838026,25.8084,1.1615,1.89965,-0.0365141,-2.20898,-1.57317,-0.882094,1.42942,-0.729698,-0.7755,-0.65645,-0.145951,-1.06197,-0.694297,0.146167,-0.640233,-0.0074437,
0.160029,-0.237598,-0.188011,-1.72116,-0.0138481,-0.193311,-0.382689,0.704415,-0.0213421,0.669471,-0.263324,0.492535,-0.150096,0.012335,0,0,0,0,0,0,0,0.168854,-0.236969,-0.179238,-1.72292,-0.011278,1.37957,0.402426,0.505691,0.00157775,0.503088,-0.160371,0.221489,0.0119746,-0.000988335,-0.0202602,-25.8617,1.38948,25.4077,1.1615,2.05163,-0.0026396,-1.72164,0.51364,-1.07914,0.105356,-0.259467,0.199198,0.297411,0.258983,0.0360518,-0.878471,0.457864,-0.661162,-0.0111189,
0.162932,-0.237655,-0.185234,-1.72222,-0.0116304,-0.19398,-0.382642,0.725728,-0.0144285,0.694345,-0.265009,0.554415,-0.167189,0.0116978,0,0,0,0,0,0,0,0.168854,-0.236969,-0.179238,-1.72292,-0.011278,1.37957,0.402426,0.505691,0.00157775,0.503088,-0.160371,0.221489,0.0119746,-0.000988335,-0.0202602,-25.8617,1.38948,25.4077,1.1615,2.05163,-0.0026396,-2.1693,1.89031,-0.625206,-0.801996,-0.768668,0.824881,0.8691,-0.0174512,0.807092,-0.68846,0.648784,-0.667698,-0.0124746,
0.165909,-0.237686,-0.182371,-1.72328,-0.00918283,-0.194691,-0.382598,0.744074,-0.00770507,0.715649,-0.265908,0.611897,-0.177663,0.0111481,0,0,0,0,0,0,0,0.168854,-0.236969,-0.179238,-1.72292,-0.011278,1.37957,0.402426,0.505691,0.00157775,0.503088,-0.160371,0.221489,0.0119746,-0.000988335,-0.0202602,-25.8617,1.38948,25.4077,1.1615,2.05163,-0.0026396,-2.1693,1.89031,-0.625206,-0.801996,-0.768668,0.824881,0.8691,-0.0174512,0.807092,-0.68846,0.648784,-0.667698,-0.0124746,
0.168948,-0.237692,-0.179435,-1.72434,-0.00652447,-0.195421,-0.382555,0.759944,-0.00131969,0.734009,-0.2662,0.66459,-0.182711,0.0106695,0,0,0,0,0,0,0,0.168854,-0.236969,-0.179238,-1.72292,-0.011278,1.37957,0.402426,0.505691,0.00157775,0.503088,-0.160371,0.221489,0.0119746,-0.000988335,-0.0202602,-25.8617,1.38948,25.4077,1.1615,2.05163,-0.0026396,-2.44552,0.711827,-1.13743,-0.14213,-0.829904,0.303384,0.339619,-0.0335468,0.244147,-0.781223,0.398933,-0.615554,-0.0135989,
0.151893,-0.237264,-0.195672,-1.71804,-0.0189655,-0.191844,-0.382847,0.615062,-0.0372545,0.56399,-0.244741,0.29287,-0.049928,0.0151314,0,0,0,0,0,0,0,0.168854,-0.236969,-0.179238,-1.72292,-0.011278,1.37957,0.402426,0.505691,0.00157775,0.503088,-0.160371,0.221489,0.0119746,-0.000988335,-0.0202602,-25.8617,1.38948,25.4077,1.1615,2.05163,-0.0026396,-2.44552,0.711827,-1.13743,-0.14213,-0.829904,0.303384,0.339619,-0.0335468,0.244147,-0.781223,0.398933,-0.615554,-0.0135989,
0.176366,-0.237262,-0.172286,-1.72577,-0.0073295,-0.191725,-0.382794,0.661991,-0.0238947,0.620716,-0.251722,0.39266,-0.0775408,0.0139709,0,0,0,0,0,0,0,0.185441,-0.236579,-0.163556,-1.72761,-0.00350755,1.37991,0.402434,0.552558,0.0153681,0.530149,-0.154044,0.298046,0.0020535,0.00044625,1.12232,-25.6117,2.46461,24.5349,1.69891,1.89232,-0.0365141,-2.76158,-0.519103,-1.32482,0.635116,-1.07324,-0.238943,-0.127402,-0.24023,-0.424567,-0.721798,0.216573,-0.539825,-0.0114078,
0.179125,-0.237336,-0.169672,-1.72679,-0.00549932,-0.192151,-0.382741,0.68977,-0.0185097,0.653501,-0.256399,0.457544,-0.106511,0.0130683,0,0,0,0,0,0,0,0.185441,-0.236579,-0.163556,-1.72761,-0.00350755,1.37991,0.402434,0.552558,0.0153681,0.530149,-0.154044,0.298046,0.0020535,0.00044625,1.12232,-25.6117,2.46461,24.5349,1.69891,1.89232,-0.0365141,-2.76158,-0.519103,-1.32482,0.635116,-1.07324,-0.238943,-0.127402,-0.24023,-0.424567,-0.721798,0.216573,-0.539825,-0.0114078,
0.181978,-0.237386,-0.166947,-1.72783,-0.00341866,-0.192662,-0.382692,0.713359,-0.0123362,0.681196,-0.258882,0.520165,-0.127775,0.0123127,0,0,0,0,0,0,0,0.185441,-0.236579,-0.163556,-1.72761,-0.00350755,1.37991,0.402434,0.552558,0.0153681,0.530149,-0.154044,0.298046,0.0020535,0.00044625,1.12232,-25.6117,2.46461,24.5349,1.69891,1.89232,-0.0365141,-2.30647,-1.60855,-1.48163,1.45353,-0.665013,-0.743213,-0.641809,-0.0763623,-1.02211,-0.803537,0.202177,-0.529692,-0.00842542,
0.184912,-0.23741,-0.164128,-1.72887,-0.00110192,-0.19323,-0.382645,0.73355,-0.00605859,0.704775,-0.260218,0.579186,-0.142032,0.0116691,0,0,0,0,0,0,0,0.185441,-0.236579,-0.163556,-1.72761,-0.00350755,1.37991,0.402434,0.552558,0.0153681,0.530149,-0.154044,0.298046,0.0020535,0.00044625,1.12232,-25.6117,2.46461,24.5349,1.69891,1.89232,-0.0365141,-1.19445,1.636,-1.89567,-0.738007,0.411902,0.749543,0.771135,0.83121,0.718381,-1.1941,0.557399,-0.580686,-0.0135589,
0.187916,-0.23741,-0.161228,-1.72991,0.00143359,-0.193832,-0.382601,0.750934,3.20861e-05,0.724988,-0.260811,0.633877,-0.15036,0.0111288,0,0,0,0,0,0,0,0.185441,-0.236579,-0.163556,-1.72761,-0.00350755,1.37991,0.402434,0.552558,0.0153681,0.530149,-0.154044,0.298046,0.0020535,0.00044625,1.12232,-25.6117,2.46461,24.5349,1.69891,1.89232,-0.0365141,-1.19445,1.636,-1.89567,-0.738007,0.411902,0.749543,0.771135,0.83121,0.718381,-1.1941,0.557399,-0.580686,-0.0135589,
0.190973,-0.237386,-0.158255,-1.73096,0.00417191,-0.194447,-0.382559,0.764334,0.00584982,0.743345,-0.260853,0.68458,-0.153807,0.0105978,0,0,0,0,0,0,0,0.185441,-0.236579,-0.163556,-1.72761,-0.00350755,1.37991,0.402434,0.552558,0.0153681,0.530149,-0.154044,0.298046,0.0020535,0.00044625,1.12232,-25.6117,2.46461,24.5349,1.69891,1.89232,-0.0365141,-1.42819,0.241185,-1.68331,0.0959894,0.084059,0.122603,0.147215,0.512247,0.0324851,-1.00117,0.320403,-0.517726,-0.0102007,
0.173718,-0.237167,-0.174769,-1.72476,-0.00890014,-0.191415,-0.38285,0.628845,-0.0267675,0.58162,-0.241939,0.327754,-0.0417535,0.0150648,0,0,0,0,0,0,0,0.202261,-0.236371,-0.147302,-1.73254,0.00440257,1.38042,0.402434,0.542669,0.00846799,0.531105,-0.163535,0.288863,0.00646531,-0.000290899,2.51484,-25.6871,3.13905,24.3881,1.28326,2.05804,-0.0026396,-1.42819,0.241185,-1.68331,0.0959894,0.084059,0.122603,0.147215,0.512247,0.0324851,-1.00117,0.320403,-0.517726,-0.0102007,
0.210019,-0.236537,-0.140041,-1.73536,0.00910553,-0.190769,-0.382792,0.679313,-0.0130625,0.643065,-0.247929,0.450614,-0.0621655,0.013602,0,0,0,0,0,0,0,0.202261,-0.236371,-0.147302,-1.73254,0.00440257,1.38042,0.402434,0.542669,0.00846799,0.531105,-0.163535,0.288863,0.00646531,-0.000290899,2.51484,-25.6871,3.13905,24.3881,1.28326,2.05804,-0.0026396,-2.08759,-0.0633078,-1.79709,0.189068,-0.443748,0.0268093,0.12215,0.208335,-0.103515,-0.908538,0.179324,-0.457805,-0.0115722,
0.212838,-0.236569,-0.137348,-1.73637,0.0111451,-0.191113,-0.382741,0.704858,-0.0079845,0.673216,-0.25218,0.509903,-0.0859552,0.0127473,0,0,0,0,0,0,0,0.202261,-0.236371,-0.147302,-1.73254,0.00440257,1.38042,0.402434,0.542669,0.00846799,0.531105,-0.163535,0.288863,0.00646531,-0.000290899,2.51484,-25.6871,3.13905,24.3881,1.28326,2.05804,-0.0026396,-1.42419,-0.0593756,-2.17208,0.277359,0.290213,0.0121454,0.104317,0.689525,-0.161732,-1.1907,0.297592,-0.524734,-0.0120001,
0.215744,-0.236578,-0.134553,-1.73738,0.0134131,-0.191525,-0.382692,0.726566,-0.00227749,0.698719,-0.254352,0.566978,-0.103193,0.0120401,0,0,0,0,0,0,0,0.202261,-0.236371,-0.147302,-1.73254,0.00440257,1.38042,0.402434,0.542669,0.00846799,0.531105,-0.163535,0.288863,0.00646531,-0.000290899,2.51484,-25.6871,3.13905,24.3881,1.28326,2.05804,-0.0026396,-1.42419,-0.0593756,-2.17208,0.277359,0.290213,0.0121454,0.104317,0.689525,-0.161732,-1.1907,0.297592,-0.524734,-0.0120001,
0.218718,-0.236564,-0.131668,-1.7384,0.0158985,-0.191983,-0.382647,0.74351,0.00349276,0.721377,-0.255446,0.62135,-0.114396,0.0113749,0,0,0,0,0,0,0,0.202261,-0.236371,-0.147302,-1.73254,0.00440257,1.38042,0.402434,0.542669,0.00846799,0.531105,-0.163535,0.288863,0.00646531,-0.000290899,2.51484,-25.6871,3.13905,24.3881,1.28326,2.05804,-0.0026396,-1.48405,0.43101,-2.17497,0.0180555,0.317683,0.227304,0.255527,0.756606,0.119778,-1.25407,0.448959,-0.581628,-0.0115041,
0.221739,-0.236528,-0.128699,-1.73943,0.0185902,-0.192465,-0.382604,0.755136,0.00910048,0.742245,-0.255849,0.672937,-0.120479,0.0107236,0,0,0,0,0,0,0,0.219842,-0.236135,-0.130164,-1.73782,0.0140765,1.38112,0.402436,0.54253,0.0141591,0.537339,-0.159593,0.25643,0.0340035,0.000871697,0.868412,-26.2862,1.66322,25.1855,1.05163,2.05163,-0.00996382,-1.48405,0.43101,-2.17497,0.0180555,0.317683,0.227304,0.255527,0.756606,0.119778,-1.25407,0.448959,-0.581628,-0.0115041,
0.224796,-0.236471,-0.125658,-1.74045,0.0214728,-0.192954,-0.382563,0.764164,0.0143825,0.760218,-0.2557,0.720643,-0.122373,0.0101542,0,0,0,0,0,0,0,0.219842,-0.236135,-0.130164,-1.73782,0.0140765,1.38112,0.402436,0.54253,0.0141591,0.537339,-0.159593,0.25643,0.0340035,0.000871697,0.868412,-26.2862,1.66322,25.1855,1.05163,2.05163,-0.00996382,-1.15514,-0.22579,-2.21762,0.336961,0.538601,-0.0646084,-0.0243403,0.840448,-0.203755,-1.25609,0.275395,-0.544689,-0.0110882,
0.207302,-0.236485,-0.142613,-1.73437,0.00730308,-0.19052,-0.382846,0.648906,-0.0159732,0.607178,-0.238914,0.390993,-0.03279,0.0145953,0,0,0,0,0,0,0,0.219842,-0.236135,-0.130164,-1.73782,0.0140765,1.38112,0.402436,0.54253,0.0141591,0.537339,-0.159593,0.25643,0.0340035,0.000871697,0.868412,-26.2862,1.66322,25.1855,1.05163,2.05163,-0.00996382,-1.15514,-0.22579,-2.21762,0.336961,0.538601,-0.0646084,-0.0243403,0.840448,-0.203755,-1.25609,0.275395,-0.544689,-0.0110882,
0.227604,-0.236229,-0.122875,-1.74057,0.018538,-0.189717,-0.382786,0.679324,-0.00729204,0.644773,-0.241877,0.434808,-0.0313715,0.0138269,0,0,0,0,0,0,0,0.219842,-0.236135,-0.130164,-1.73782,0.0140765,1.38112,0.402436,0.54253,0.0141591,0.537339,-0.159593,0.25643,0.0340035,0.000871697,0.868412,-26.2862,1.66322,25.1855,1.05163,2.05163,-0.00996382,-1.02448,-0.580994,-1.78015,0.481788,0.360341,-0.205908,-0.11679,0.614317,-0.377422,-0.999484,0.131341,-0.446038,-0.0123992,
0.230416,-0.236239,-0.120173,-1.74155,0.0205279,-0.189935,-0.382735,0.703036,-0.00259565,0.675536,-0.246029,0.497485,-0.0545023,0.0129043,0,0,0,0,0,0,0,0.219842,-0.236135,-0.130164,-1.73782,0.0140765,1.38112,0.402436,0.54253,0.0141591,0.537339,-0.159593,0.25643,0.0340035,0.000871697,0.868412,-26.2862,1.66322,25.1855,1.05163,2.05163,-0.00996382,-1.02448,-0.580994,-1.78015,0.481788,0.360341,-0.205908,-0.11679,0.614317,-0.377422,-0.999484,0.131341,-0.446038,-0.0123992,
0.233297,-0.236228,-0.117361,-1.74254,0.0227616,-0.190221,-0.382686,0.72027,0.00276334,0.70309,-0.248157,0.558417,-0.0713773,0.012042,0,0,0,0,0,0,0,0.219842,-0.236135,-0.130164,-1.73782,0.0140765,1.38112,0.402436,0.54253,0.0141591,0.537339,-0.159593,0.25643,0.0340035,0.000871697,0.868412,-26.2862,1.66322,25.1855,1.05163,2.05163,-0.00996382,-1.6604,1.09055,-1.40499,-0.547089,-0.2258,0.590495,0.665807,0.359373,0.535243,-0.845194,0.396172,-0.4623,-0.0148697,
0.236233,-0.236196,-0.114454,-1.74354,0.025225,-0.190551,-0.382641,0.733999,0.00815912,0.726621,-0.249194,0.615858,-0.0824885,0.0112973,0,0,0,0,0,0,0,0.238299,-0.235768,-0.112015,-1.74326,0.0252955,1.38182,0.402441,0.569542,0.0204192,0.538574,-0.1636,0.314035,0.0204782,0.000418272,-0.881161,-26.6075,0.0128308,26.2051,1.76574,1.97198,-0.0163725,-1.39249,1.0433,-0.887466,-0.352836,-0.18053,0.530472,0.536579,0.276015,0.496374,-0.689896,0.557301,-0.473069,-0.0109848,
0.239213,-0.236142,-0.111467,-1.74454,0.0279015,-0.190905,-0.382599,0.744884,0.0133338,0.746798,-0.249531,0.669103,-0.0886652,0.0106643,0,0,0,0,0,0,0,0.238299,-0.235768,-0.112015,-1.74326,0.0252955,1.38182,0.402441,0.569542,0.0204192,0.538574,-0.1636,0.314035,0.0204782,0.000418272,-0.881161,-26.6075,0.0128308,26.2051,1.76574,1.97198,-0.0163725,-1.39249,1.0433,-0.887466,-0.352836,-0.18053,0.530472,0.536579,0.276015,0.496374,-0.689896,0.557301,-0.473069,-0.0109848,
0.242226,-0.23607,-0.10841,-1.74554,0.0307728,-0.191269,-0.382558,0.753412,0.0181768,0.764181,-0.249339,0.717832,-0.0907758,0.0101189,0,0,0,0,0,0,0,0.238299,-0.235768,-0.112015,-1.74326,0.0252955,1.38182,0.402441,0.569542,0.0204192,0.538574,-0.1636,0.314035,0.0204782,0.000418272,-0.881161,-26.6075,0.0128308,26.2051,1.76574,1.97198,-0.0163725,-1.74752,0.139336,-0.756575,0.162336,-0.583432,0.158329,0.179594,-0.0535315,0.0896387,-0.521886,0.369378,-0.409788,-0.00937865,
0.224887,-0.2362,-0.125454,-1.7396,0.0167988,-0.189592,-0.382841,0.649253,-0.009865,0.609411,-0.23307,0.371396,-0.00297009,0.014823,0,0,0,0,0,0,0,0.238299,-0.235768,-0.112015,-1.74326,0.0252955,1.38182,0.402441,0.569542,0.0204192,0.538574,-0.1636,0.314035,0.0204782,0.000418272,-0.881161,-26.6075,0.0128308,26.2051,1.76574,1.97198,-0.0163725,-1.74752,0.139336,-0.756575,0.162336,-0.583432,0.158329,0.179594,-0.0535315,0.0896387,-0.521886,0.369378,-0.409788,-0.00937865,
0.246143,-0.235768,-0.104576,-1.74599,0.0303231,-0.189015,-0.382785,0.681437,0.000562014,0.658266,-0.239452,0.476785,-0.0248708,0.0135275,0,0,0,0,0,0,0,0.238299,-0.235768,-0.112015,-1.74326,0.0252955,1.38182,0.402441,0.569542,0.0204192,0.538574,-0.1636,0.314035,0.0204782,0.000418272,-0.881161,-26.6075,0.0128308,26.2051,1.76574,1.97198,-0.0163725,-1.89078,-1.10492,-0.848692,0.954237,-0.750014,-0.374864,-0.270429,-0.267037,-0.576663,-0.439589,0.192985,-0.333655,-0.00920615,
0.248948,-0.235748,-0.10182,-1.74697,0.0324648,-0.189187,-0.382734,0.701163,0.00487046,0.689146,-0.242956,0.535425,-0.0430532,0.0125552,0,0,0,0,0,0,0,0.256342,-0.234983,-0.0939775,-1.7483,0.0356206,1.38239,0.402439,0.574404,0.028524,0.576694,-0.155293,0.348085,0.00604973,-0.000435613,0.94379,-26.2862,1.71083,25.4315,2.21161,1.91247,0.00376909,-1.89078,-1.10492,-0.848692,0.954237,-0.750014,-0.374864,-0.270429,-0.267037,-0.576663,-0.439589,0.192985,-0.333655,-0.00920615,
0.251816,-0.235709,-0.0989585,-1.74794,0.0348328,-0.189411,-0.382688,0.716929,0.00971289,0.715269,-0.244574,0.592005,-0.0559795,0.011735,0,0,0,0,0,0,0,0.256342,-0.234983,-0.0939775,-1.7483,0.0356206,1.38239,0.402439,0.574404,0.028524,0.576694,-0.155293,0.348085,0.00604973,-0.000435613,0.94379,-26.2862,1.71083,25.4315,2.21161,1.91247,0.00376909,-1.00716,1.10439,-1.80765,-0.529362,0.372976,0.566118,0.64093,0.724662,0.481702,-0.984565,0.483815,-0.373387,-0.0135081,
0.254733,-0.235651,-0.0960085,-1.74892,0.0374142,-0.189667,-0.382643,0.729477,0.0145486,0.737505,-0.245204,0.645357,-0.063984,0.0110363,0,0,0,0,0,0,0,0.256342,-0.234983,-0.0939775,-1.7483,0.0356206,1.38239,0.402439,0.574404,0.028524,0.576694,-0.155293,0.348085,0.00604973,-0.000435613,0.94379,-26.2862,1.71083,25.4315,2.21161,1.91247,0.00376909,-1.51362,1.46918,-1.61231,-0.7115,-0.0451662,0.759521,0.770942,0.50127,0.751214,-0.890781,0.597653,-0.394087,-0.0131458,
0.257691,-0.235575,-0.0929824,-1.74991,0.0401935,-0.189938,-0.382602,0.73938,0.0191567,0.756536,-0.245196,0.694816,-0.0677789,0.0104262,0,0,0,0,0,0,0,0.256342,-0.234983,-0.0939775,-1.7483,0.0356206,1.38239,0.402439,0.574404,0.028524,0.576694,-0.155293,0.348085,0.00604973,-0.000435613,0.94379,-26.2862,1.71083,25.4315,2.21161,1.91247,0.00376909,-1.51362,1.46918,-1.61231,-0.7115,-0.0451662,0.759521,0.770942,0.50127,0.751214,-0.890781,0.597653,-0.394087,-0.0131458,
0.243417,-0.23577,-0.107209,-1.74504,0.0284159,-0.188916,-0.382839,0.656697,-0.00182212,0.621578,-0.231605,0.417938,-0.00251807,0.0146151,0,0,0,0,0,0,0,0.256342,-0.234983,-0.0939775,-1.7483,0.0356206,1.38239,0.402439,0.574404,0.028524,0.576694,-0.155293,0.348085,0.00604973,-0.000435613,0.94379,-26.2862,1.71083,25.4315,2.21161,1.91247,0.00376909,-1.71372,-0.310565,-1.86905,0.363742,-0.170162,-0.0140123,0.00175828,0.315136,-0.109353,-0.895533,0.332559,-0.361997,-0.0121877,
0.264256,-0.234907,-0.0862698,-1.75098,0.0410817,-0.188381,-0.382793,0.683737,0.00652019,0.677529,-0.235049,0.512788,-0.0137151,0.012989,0,0,0,0,0,0,0,0.256342,-0.234983,-0.0939775,-1.7483,0.0356206,1.38239,0.402439,0.574404,0.028524,0.576694,-0.155293,0.348085,0.00604973,-0.000435613,0.94379,-26.2862,1.71083,25.4315,2.21161,1.91247,0.00376909,-1.71372,-0.310565,-1.86905,0.363742,-0.170162,-0.0140123,0.00175828,0.315136,-0.109353,-0.895533,0.332559,-0.361997,-0.0121877,
0.267061,-0.234864,-0.0834469,-1.75193,0.0433594,-0.188491,-0.382745,0.701241,0.0105011,0.705726,-0.238451,0.569431,-0.0276052,0.0121078,0,0,0,0,0,0,0,0.274298,-0.234102,-0.0757495,-1.75284,0.0456791,1.38294,0.402449,0.546511,0.0352133,0.588756,-0.14351,0.359396,0.014229,0.000462685,3.02265,-26.8337,2.71455,24.9832,1.57074,2.19079,-0.0429228,-1.35671,-1.86756,-1.99122,1.3473,0.0301353,-0.726994,-0.623524,0.261172,-0.985988,-0.854092,0.114893,-0.274123,-0.0103087,
0.269922,-0.234805,-0.0805283,-1.75289,0.045853,-0.188641,-0.382699,0.715214,0.014985,0.729639,-0.239881,0.623403,-0.0372914,0.0113449,0,0,0,0,0,0,0,0.274298,-0.234102,-0.0757495,-1.75284,0.0456791,1.38294,0.402449,0.546511,0.0352133,0.588756,-0.14351,0.359396,0.014229,0.000462685,3.02265,-26.8337,2.71455,24.9832,1.57074,2.19079,-0.0429228,-1.35671,-1.86756,-1.99122,1.3473,0.0301353,-0.726994,-0.623524,0.261172,-0.985988,-0.854092,0.114893,-0.274123,-0.0103087,
0.272827,-0.234727,-0.0775281,-1.75385,0.0485485,-0.188812,-0.382657,0.726292,0.0194319,0.750042,-0.240306,0.673856,-0.0428604,0.0106787,0,0,0,0,0,0,0,0.274298,-0.234102,-0.0757495,-1.75284,0.0456791,1.38294,0.402449,0.546511,0.0352133,0.588756,-0.14351,0.359396,0.014229,0.000462685,3.02265,-26.8337,2.71455,24.9832,1.57074,2.19079,-0.0429228,-1.18884,1.53634,-2.39659,-0.939495,0.411989,0.795876,0.855328,0.895063,0.766872,-1.14329,0.496388,-0.309819,-0.0160876,
0.275767,-0.234632,-0.0744579,-1.75481,0.0514298,-0.188991,-0.382616,0.734965,0.0236318,0.767546,-0.240106,0.720338,-0.0448476,0.0100927,0,0,0,0,0,0,0,0.274298,-0.234102,-0.0757495,-1.75284,0.0456791,1.38294,0.402449,0.546511,0.0352133,0.588756,-0.14351,0.359396,0.014229,0.000462685,3.02265,-26.8337,2.71455,24.9832,1.57074,2.19079,-0.0429228,-1.3499,1.16582,-2.34537,-0.646844,0.329765,0.633054,0.649976,0.82071,0.607542,-1.14848,0.536466,-0.356659,-0.0118018,
0.261521,-0.234933,-0.0889799,-1.75004,0.0390305,-0.188326,-0.382845,0.66179,0.00446998,0.644136,-0.227048,0.454831,0.00291016,0.0139884,0,0,0,0,0,0,0,0.274298,-0.234102,-0.0757495,-1.75284,0.0456791,1.38294,0.402449,0.546511,0.0352133,0.588756,-0.14351,0.359396,0.014229,0.000462685,3.02265,-26.8337,2.71455,24.9832,1.57074,2.19079,-0.0429228,-1.3499,1.16582,-2.34537,-0.646844,0.329765,0.633054,0.649976,0.82071,0.607542,-1.14848,0.536466,-0.356659,-0.0118018,
0.282051,-0.233977,-0.0680283,-1.75543,0.0512041,-0.187599,-0.382782,0.670708,0.00994056,0.678664,-0.228792,0.516455,0.00924257,0.0130395,0,0,0,0,0,0,0,0.298475,-0.233128,-0.0506495,-1.75921,0.0610532,1.38426,0.402448,0.53801,0.021782,0.608347,-0.150056,0.418084,0.0321237,0.000701229,2.11017,-26.5837,2.01234,24.9356,1.75384,2.10473,-0.0301054,-1.6373,-1.46013,-2.36741,1.0213,0.00497613,-0.496951,-0.444535,0.368561,-0.682252,-1.01408,0.198188,-0.304558,-0.00780267,
0.284804,-0.233923,-0.0652003,-1.75636,0.053491,-0.187611,-0.382733,0.688391,0.0135991,0.707015,-0.232338,0.571741,-0.00300745,0.0121289,0,0,0,0,0,0,0,0.298475,-0.233128,-0.0506495,-1.75921,0.0610532,1.38426,0.402448,0.53801,0.021782,0.608347,-0.150056,0.418084,0.0321237,0.000701229,2.11017,-26.5837,2.01234,24.9356,1.75384,2.10473,-0.0301054,-1.6373,-1.46013,-2.36741,1.0213,0.00497613,-0.496951,-0.444535,0.368561,-0.682252,-1.01408,0.198188,-0.304558,-0.00780267,
0.287614,-0.233852,-0.0622761,-1.7573,0.0559893,-0.187657,-0.382688,0.702506,0.0177994,0.731041,-0.233798,0.62458,-0.0116373,0.0113378,0,0,0,0,0,0,0,0.298475,-0.233128,-0.0506495,-1.75921,0.0610532,1.38426,0.402448,0.53801,0.021782,0.608347,-0.150056,0.418084,0.0321237,0.000701229,2.11017,-26.5837,2.01234,24.9356,1.75384,2.10473,-0.0301054,-1.55898,-0.692913,-2.6211,0.437132,0.120185,-0.14182,-0.0581242,0.547716,-0.297507,-1.09417,0.222696,-0.260573,-0.0105729,
0.290469,-0.233764,-0.05927,-1.75823,0.0586857,-0.187723,-0.382645,0.713696,0.0219737,0.751519,-0.234217,0.6741,-0.0165511,0.010647,0,0,0,0,0,0,0,0.298475,-0.233128,-0.0506495,-1.75921,0.0610532,1.38426,0.402448,0.53801,0.021782,0.608347,-0.150056,0.418084,0.0321237,0.000701229,2.11017,-26.5837,2.01234,24.9356,1.75384,2.10473,-0.0301054,-1.55898,-0.692913,-2.6211,0.437132,0.120185,-0.14182,-0.0581242,0.547716,-0.297507,-1.09417,0.222696,-0.260573,-0.0105729,
0.293359,-0.23366,-0.0561937,-1.75917,0.061565,-0.187796,-0.382605,0.722458,0.0259058,0.769068,-0.234002,0.719815,-0.0181789,0.0100397,0,0,0,0,0,0,0,0.298475,-0.233128,-0.0506495,-1.75921,0.0610532,1.38426,0.402448,0.53801,0.021782,0.608347,-0.150056,0.418084,0.0321237,0.000701229,2.11017,-26.5837,2.01234,24.9356,1.75384,2.10473,-0.0301054,-1.4361,2.21109,-2.43454,-1.43666,0.2587,1.13149,1.13688,0.915448,1.19897,-1.14713,0.58811,-0.29865,-0.0135727,
0.279368,-0.234017,-0.070743,-1.75452,0.0491382,-0.187636,-0.382834,0.648528,0.00834355,0.645089,-0.220314,0.460072,0.0232843,0.0140737,0,0,0,0,0,0,0,0.298475,-0.233128,-0.0506495,-1.75921,0.0610532,1.38426,0.402448,0.53801,0.021782,0.608347,-0.150056,0.418084,0.0321237,0.000701229,2.11017,-26.5837,2.01234,24.9356,1.75384,2.10473,-0.0301054,-1.39077,1.24906,-2.60856,-0.826412,0.360415,0.703034,0.720209,0.910354,0.701387,-1.21239,0.50351,-0.315249,-0.0126695,
0.306177,-0.233053,-0.0427884,-1.76173,0.0670988,-0.186077,-0.382786,0.665667,0.0077269,0.689193,-0.221114,0.553655,0.0286442,0.0127555,0,0,0,0,0,0,0,0.316118,-0.232653,-0.0320333,-1.76417,0.0728692,1.38596,0.402447,0.551893,0.0164202,0.595446,-0.148305,0.359075,0.0582006,-0.000610185,1.1977,-26.7821,0.762648,25.3601,1.74194,2.20452,0.0101778,-1.39077,1.24906,-2.60856,-0.826412,0.360415,0.703034,0.720209,0.910354,0.701387,-1.21239,0.50351,-0.315249,-0.0126695,
0.308907,-0.233004,-0.0399218,-1.76263,0.0695136,-0.186,-0.382738,0.682592,0.0121992,0.716653,-0.224493,0.603703,0.0191134,0.0118508,0,0,0,0,0,0,0,0.316118,-0.232653,-0.0320333,-1.76417,0.0728692,1.38596,0.402447,0.551893,0.0164202,0.595446,-0.148305,0.359075,0.0582006,-0.000610185,1.1977,-26.7821,0.762648,25.3601,1.74194,2.20452,0.0101778,-0.694393,-1.30925,-2.96871,0.818033,0.929586,-0.517612,-0.444652,0.980655,-0.73245,-1.31536,0.236228,-0.2776,-0.00832553,
0.311691,-0.232936,-0.0369623,-1.76353,0.0721212,-0.18595,-0.382694,0.696037,0.0169035,0.739874,-0.226038,0.651916,0.01262,0.0110647,0,0,0,0,0,0,0,0.316118,-0.232653,-0.0320333,-1.76417,0.0728692,1.38596,0.402447,0.551893,0.0164202,0.595446,-0.148305,0.359075,0.0582006,-0.000610185,1.1977,-26.7821,0.762648,25.3601,1.74194,2.20452,0.0101778,-0.694393,-1.30925,-2.96871,0.818033,0.929586,-0.517612,-0.444652,0.980655,-0.73245,-1.31536,0.236228,-0.2776,-0.00832553,
0.314518,-0.232851,-0.0339238,-1.76444,0.0749107,-0.185913,-0.382652,0.70663,0.0214032,0.759623,-0.226615,0.697355,0.00924501,0.0103784,0,0,0,0,0,0,0,0.316118,-0.232653,-0.0320333,-1.76417,0.0728692,1.38596,0.402447,0.551893,0.0164202,0.595446,-0.148305,0.359075,0.0582006,-0.000610185,1.1977,-26.7821,0.762648,25.3601,1.74194,2.20452,0.0101778,-1.34646,0.118167,-2.62556,-0.0670819,0.362517,0.206443,0.263607,0.776769,0.099339,-1.16929,0.425854,-0.285575,-0.0101263,
0.317377,-0.232749,-0.0308177,-1.76534,0.0778686,-0.185878,-0.382613,0.714861,0.0255432,0.77651,-0.226567,0.739476,0.00863576,0.00977604,0,0,0,0,0,0,0,0.316118,-0.232653,-0.0320333,-1.76417,0.0728692,1.38596,0.402447,0.551893,0.0164202,0.595446,-0.148305,0.359075,0.0582006,-0.000610185,1.1977,-26.7821,0.762648,25.3601,1.74194,2.20452,0.0101778,-1.29978,0.109899,-1.98178,0.0455966,0.160228,0.19263,0.207739,0.533866,0.113172,-0.914077,0.475743,-0.269944,-0.00989825,
0.303514,-0.233084,-0.0455451,-1.76084,0.0648841,-0.186191,-0.382837,0.644347,0.00468617,0.656624,-0.213591,0.50319,0.0397234,0.0137888,0,0,0,0,0,0,0,0.333172,-0.231993,-0.0134113,-1.76865,0.0837167,1.38781,0.402452,0.545878,0.0223746,0.589086,-0.146359,0.334519,0.0619693,0.000998948,2.11017,-26.7107,1.68703,25.6815,1.88842,2.20452,-0.0301054,-1.29978,0.109899,-1.98178,0.0455966,0.160228,0.19263,0.207739,0.533866,0.113172,-0.914077,0.475743,-0.269944,-0.00989825,
0.340673,-0.231878,-0.00556976,-1.7711,0.0891289,-0.182162,-0.382782,0.648511,0.01147,0.687677,-0.215369,0.510228,0.0594515,0.0128294,0,0,0,0,0,0,0,0.333172,-0.231993,-0.0134113,-1.76865,0.0837167,1.38781,0.402452,0.545878,0.0223746,0.589086,-0.146359,0.334519,0.0619693,0.000998948,2.11017,-26.7107,1.68703,25.6815,1.88842,2.20452,-0.0301054,-0.662837,-0.0130373,-1.81781,0.128,0.487872,0.0511221,0.0998435,0.62752,-0.0715737,-0.82212,0.422526,-0.183616,-0.00907733,
0.343336,-0.231814,-0.00270885,-1.77198,0.0913956,-0.181961,-0.382735,0.665732,0.0159623,0.71523,-0.218858,0.566691,0.0501058,0.0119143,0,0,0,0,0,0,0,0.333172,-0.231993,-0.0134113,-1.76865,0.0837167,1.38781,0.402452,0.545878,0.0223746,0.589086,-0.146359,0.334519,0.0619693,0.000998948,2.11017,-26.7107,1.68703,25.6815,1.88842,2.20452,-0.0301054,-0.662837,-0.0130373,-1.81781,0.128,0.487872,0.0511221,0.0998435,0.62752,-0.0715737,-0.82212,0.422526,-0.183616,-0.00907733,
0.346054,-0.231732,0.000245805,-1.77286,0.0938753,-0.181787,-0.38269,0.679545,0.0205391,0.738663,-0.220523,0.619923,0.043508,0.0111078,0,0,0,0,0,0,0,0.333172,-0.231993,-0.0134113,-1.76865,0.0837167,1.38781,0.402452,0.545878,0.0223746,0.589086,-0.146359,0.334519,0.0619693,0.000998948,2.11017,-26.7107,1.68703,25.6815,1.88842,2.20452,-0.0301054,-0.724643,-0.156633,-1.6947,0.270052,0.369878,-0.00176534,0.0565834,0.501861,-0.144824,-0.728968,0.440577,-0.145175,-0.0108907,
0.348816,-0.231633,0.00328055,-1.77374,0.0965527,-0.181628,-0.382649,0.690532,0.0248235,0.758687,-0.221197,0.669349,0.0397922,0.0103996,0,0,0,0,0,0,0,0.333172,-0.231993,-0.0134113,-1.76865,0.0837167,1.38781,0.402452,0.545878,0.0223746,0.589086,-0.146359,0.334519,0.0619693,0.000998948,2.11017,-26.7107,1.68703,25.6815,1.88842,2.20452,-0.0301054,-0.724643,-0.156633,-1.6947,0.270052,0.369878,-0.00176534,0.0565834,0.501861,-0.144824,-0.728968,0.440577,-0.145175,-0.0108907,
0.351613,-0.231518,0.00638407,-1.77463,0.0994114,-0.181473,-0.38261,0.699154,0.0286951,0.775879,-0.221223,0.71468,0.0386657,0.00977596,0,0,0,0,0,0,0,0.333172,-0.231993,-0.0134113,-1.76865,0.0837167,1.38781,0.402452,0.545878,0.0223746,0.589086,-0.146359,0.334519,0.0619693,0.000998948,2.11017,-26.7107,1.68703,25.6815,1.88842,2.20452,-0.0301054,-1.24434,0.290378,-1.71413,0.0114365,0.0817809,0.269838,0.285504,0.429116,0.187856,-0.761067,0.569026,-0.203831,-0.0115861,
0.354436,-0.23139,0.00954691,-1.77551,0.102435,-0.181314,-0.382573,0.705769,0.032129,0.790712,-0.220767,0.755854,0.0397387,0.00922015,0,0,0,0,0,0,0,0.350602,-0.231132,0.00585232,-1.77302,0.0952174,1.38955,0.40245,0.533985,0.0339952,0.629978,-0.134213,0.333322,0.0641024,8.13369e-05,1.34845,-27.0082,0.838026,25.257,1.43066,2.13769,-0.0026396,-1.0776,-0.404296,-1.77349,0.406481,0.158092,-0.0449979,-0.00637518,0.390054,-0.17531,-0.74604,0.438937,-0.168066,-0.00906879,
0.340673,-0.231878,-0.00556972,-1.7711,0.0891281,-0.182161,-0.382782,0.648517,0.0114684,0.687682,-0.21537,0.510137,0.0594808,0.0128289,0,0,0,0,0,0,0,0.350602,-0.231132,0.00585232,-1.77302,0.0952174,1.38955,0.40245,0.533985,0.0339952,0.629978,-0.134213,0.333322,0.0641024,8.13369e-05,1.34845,-27.0082,0.838026,25.257,1.43066,2.13769,-0.0026396,-1.0776,-0.404296,-1.77349,0.406481,0.158092,-0.0449979,-0.00637518,0.390054,-0.17531,-0.74604,0.438937,-0.168066,-0.00906879,
0.358104,-0.230933,0.0139054,-1.77541,0.100728,-0.180236,-0.382792,0.646595,0.0173811,0.701916,-0.211525,0.521686,0.0784048,0.0123002,0,0,0,0,0,0,0,0.350602,-0.231132,0.00585232,-1.77302,0.0952174,1.38955,0.40245,0.533985,0.0339952,0.629978,-0.134213,0.333322,0.0641024,8.13369e-05,1.34845,-27.0082,0.838026,25.257,1.43066,2.13769,-0.0026396,-0.773122,-0.345238,-2.31098,0.22345,0.521951,-0.0609903,-0.00806211,0.690864,-0.189548,-0.940971,0.371317,-0.12837,-0.0105347,
0.360753,-0.230848,0.0168144,-1.77627,0.103045,-0.179953,-0.382746,0.662132,0.0212082,0.727259,-0.215024,0.579078,0.0706085,0.0114498,0,0,0,0,0,0,0,0.350602,-0.231132,0.00585232,-1.77302,0.0952174,1.38955,0.40245,0.533985,0.0339952,0.629978,-0.134213,0.333322,0.0641024,8.13369e-05,1.34845,-27.0082,0.838026,25.257,1.43066,2.13769,-0.0026396,-0.773122,-0.345238,-2.31098,0.22345,0.521951,-0.0609903,-0.00806211,0.690864,-0.189548,-0.940971,0.371317,-0.12837,-0.0105347,
0.363451,-0.230747,0.0198102,-1.77714,0.105574,-0.179693,-0.382703,0.674596,0.0252021,0.748939,-0.216542,0.632284,0.0650044,0.0106924,0,0,0,0,0,0,0,0.350602,-0.231132,0.00585232,-1.77302,0.0952174,1.38955,0.40245,0.533985,0.0339952,0.629978,-0.134213,0.333322,0.0641024,8.13369e-05,1.34845,-27.0082,0.838026,25.257,1.43066,2.13769,-0.0026396,-2.07372,1.33144,-2.56332,-0.858145,-0.198443,0.888102,0.917998,0.608793,0.887956,-1.04552,0.655883,-0.206352,-0.0150923,
0.366189,-0.230632,0.0228805,-1.77801,0.108298,-0.179446,-0.382663,0.684474,0.0289428,0.767563,-0.217032,0.681103,0.0619191,0.0100181,0,0,0,0,0,0,0,0.368446,-0.230054,0.026131,-1.77723,0.108041,1.39173,0.402456,0.527994,0.0360235,0.591306,-0.123231,0.366835,0.0751254,-8.74447e-05,0.0551182,-27.4327,-0.538622,25.856,1.47918,2.24389,-0.0163725,-2.07372,1.33144,-2.56332,-0.858145,-0.198443,0.888102,0.917998,0.608793,0.887956,-1.04552,0.655883,-0.206352,-0.0150923,
0.368957,-0.230503,0.0260152,-1.77888,0.1112,-0.179201,-0.382625,0.69206,0.0322986,0.783688,-0.216897,0.725535,0.0612057,0.00947234,0,0,0,0,0,0,0,0.368446,-0.230054,0.026131,-1.77723,0.108041,1.39173,0.402456,0.527994,0.0360235,0.591306,-0.123231,0.366835,0.0751254,-8.74447e-05,0.0551182,-27.4327,-0.538622,25.856,1.47918,2.24389,-0.0163725,-2.19485,1.2035,-2.25654,-0.672789,-0.381231,0.850991,0.866983,0.425102,0.844396,-0.906962,0.716611,-0.195915,-0.0123995,
0.371754,-0.230362,0.0292084,-1.77974,0.114213,-0.178952,-0.382589,0.699228,0.0352374,0.798307,-0.215781,0.753194,0.0623621,0.00897833,0,0,0,0,0,0,0,0.368446,-0.230054,0.026131,-1.77723,0.108041,1.39173,0.402456,0.527994,0.0360235,0.591306,-0.123231,0.366835,0.0751254,-8.74447e-05,0.0551182,-27.4327,-0.538622,25.856,1.47918,2.24389,-0.0163725,-0.866193,0.0421239,-2.88482,-0.100054,0.73543,0.111188,0.129982,0.983502,0.0253264,-1.19852,0.50469,-0.159525,-0.00892139,
0.358105,-0.230933,0.0139059,-1.77541,0.10072,-0.180233,-0.382792,0.646664,0.0173645,0.701975,-0.211533,0.520698,0.0786925,0.0122949,0,0,0,0,0,0,0,0.368446,-0.230054,0.026131,-1.77723,0.108041,1.39173,0.402456,0.527994,0.0360235,0.591306,-0.123231,0.366835,0.0751254,-8.74447e-05,0.0551182,-27.4327,-0.538622,25.856,1.47918,2.24389,-0.0163725,-0.866193,0.0421239,-2.88482,-0.100054,0.73543,0.111188,0.129982,0.983502,0.0253264,-1.19852,0.50469,-0.159525,-0.00892139,
0.375678,-0.229847,0.0340371,-1.77954,0.113732,-0.177809,-0.382784,0.626023,0.0178725,0.693112,-0.204433,0.528254,0.101459,0.0125106,0,0,0,0,0,0,0,0.368446,-0.230054,0.026131,-1.77723,0.108041,1.39173,0.402456,0.527994,0.0360235,0.591306,-0.123231,0.366835,0.0751254,-8.74447e-05,0.0551182,-27.4327,-0.538622,25.856,1.47918,2.24389,-0.0163725,-0.398918,-0.247194,-2.90341,0.0208689,1.04011,-0.0886166,-0.0375781,1.11097,-0.21583,-1.22002,0.411202,-0.139916,-0.00807549,
0.378251,-0.229761,0.0369196,-1.78037,0.116053,-0.177429,-0.382737,0.643242,0.0216188,0.720623,-0.208231,0.580233,0.0949962,0.0115867,0,0,0,0,0,0,0,0.385324,-0.229143,0.0456061,-1.78093,0.119588,1.39415,0.402458,0.548254,0.0238481,0.634629,-0.123505,0.405889,0.0772941,0.000643455,0.66608,-26.8099,-0.110155,25.1102,2.12646,2.03148,-0.0301054,-0.398918,-0.247194,-2.90341,0.0208689,1.04011,-0.0886166,-0.0375781,1.11097,-0.21583,-1.22002,0.411202,-0.139916,-0.00807549,
0.380879,-0.229659,0.0398958,-1.78121,0.118572,-0.177068,-0.382694,0.656888,0.0255387,0.744036,-0.209982,0.629703,0.0901572,0.0108172,0,0,0,0,0,0,0,0.385324,-0.229143,0.0456061,-1.78093,0.119588,1.39415,0.402458,0.548254,0.0238481,0.634629,-0.123505,0.405889,0.0772941,0.000643455,0.66608,-26.8099,-0.110155,25.1102,2.12646,2.03148,-0.0301054,-0.956963,0.175205,-2.75269,-0.164323,0.648262,0.195716,0.25172,0.935335,0.0826638,-1.15151,0.556407,-0.163957,-0.00921989,
0.383555,-0.229542,0.0429544,-1.78205,0.121226,-0.176719,-0.382653,0.669086,0.0292064,0.764656,-0.210121,0.663548,0.0872771,0.0101337,0,0,0,0,0,0,0,0.385324,-0.229143,0.0456061,-1.78093,0.119588,1.39415,0.402458,0.548254,0.0238481,0.634629,-0.123505,0.405889,0.0772941,0.000643455,0.66608,-26.8099,-0.110155,25.1102,2.12646,2.03148,-0.0301054,-2.31438,1.30369,-2.75617,-0.854395,-0.206116,0.947276,0.978423,0.683638,0.93534,-1.14735,0.788088,-0.243825,-0.0112351,
0.386282,-0.229412,0.0460753,-1.78289,0.12396,-0.176374,-0.382615,0.681741,0.0323635,0.780218,-0.209451,0.683495,0.0863789,0.00947897,0,0,0,0,0,0,0,0.385324,-0.229143,0.0456061,-1.78093,0.119588,1.39415,0.402458,0.548254,0.0238481,0.634629,-0.123505,0.405889,0.0772941,0.000643455,0.66608,-26.8099,-0.110155,25.1102,2.12646,2.03148,-0.0301054,-2.31438,1.30369,-2.75617,-0.854395,-0.206116,0.947276,0.978423,0.683638,0.93534,-1.14735,0.788088,-0.243825,-0.0112351,
0.389051,-0.229272,0.0492463,-1.78372,0.126741,-0.176025,-0.38258,0.692174,0.0349495,0.792763,-0.208453,0.695326,0.0872055,0.00886887,0,0,0,0,0,0,0,0.385324,-0.229143,0.0456061,-1.78093,0.119588,1.39415,0.402458,0.548254,0.0238481,0.634629,-0.123505,0.405889,0.0772941,0.000643455,0.66608,-26.8099,-0.110155,25.1102,2.12646,2.03148,-0.0301054,-1.33724,-0.72409,-2.46613,0.463994,0.278312,-0.0831427,-0.0522925,0.579455,-0.216705,-1.02148,0.514894,-0.197409,-0.00959583,
0.375685,-0.229849,0.0340422,-1.77954,0.113644,-0.177786,-0.382784,0.626727,0.017712,0.693713,-0.204472,0.518037,0.104101,0.0124577,0,0,0,0,0,0,0,0.385324,-0.229143,0.0456061,-1.78093,0.119588,1.39415,0.402458,0.548254,0.0238481,0.634629,-0.123505,0.405889,0.0772941,0.000643455,0.66608,-26.8099,-0.110155,25.1102,2.12646,2.03148,-0.0301054,-1.33724,-0.72409,-2.46613,0.463994,0.278312,-0.0831427,-0.0522925,0.579455,-0.216705,-1.02148,0.514894,-0.197409,-0.00959583,
0.392705,-0.229009,0.0538771,-1.78316,0.125721,-0.175289,-0.382794,0.634618,0.0132815,0.718918,-0.197828,0.562265,0.113719,0.0116213,0,0,0,0,0,0,0,0.402444,-0.22823,0.0657808,-1.78486,0.1311,1.39733,0.402461,0.517963,0.0294146,0.641769,-0.125942,0.393887,0.0989526,0.000858854,1.57856,-26.4092,0.338148,25.011,1.75384,2.09191,-0.0566557,-1.07471,-1.14307,-2.44971,0.677705,0.423661,-0.288528,-0.231285,0.601067,-0.460337,-1.02308,0.414146,-0.193789,-0.0123052,
0.395306,-0.228938,0.0568515,-1.78397,0.128112,-0.174847,-0.382751,0.650181,0.0178848,0.743603,-0.200954,0.597864,0.110596,0.0108417,0,0,0,0,0,0,0,0.402444,-0.22823,0.0657808,-1.78486,0.1311,1.39733,0.402461,0.517963,0.0294146,0.641769,-0.125942,0.393887,0.0989526,0.000858854,1.57856,-26.4092,0.338148,25.011,1.75384,2.09191,-0.0566557,-1.07471,-1.14307,-2.44971,0.677705,0.423661,-0.288528,-0.231285,0.601067,-0.460337,-1.02308,0.414146,-0.193789,-0.0123052,
0.397969,-0.228849,0.0599015,-1.78477,0.130593,-0.174413,-0.38271,0.665621,0.0222915,0.762515,-0.20202,0.620197,0.108345,0.0100895,0,0,0,0,0,0,0,0.402444,-0.22823,0.0657808,-1.78486,0.1311,1.39733,0.402461,0.517963,0.0294146,0.641769,-0.125942,0.393887,0.0989526,0.000858854,1.57856,-26.4092,0.338148,25.011,1.75384,2.09191,-0.0566557,-0.694263,-0.345351,-2.80691,0.0779212,0.940956,-0.0494722,0.00371737,1.08965,-0.191258,-1.28001,0.538763,-0.258597,-0.0122431,
0.400682,-0.228744,0.0630128,-1.78558,0.133132,-0.173983,-0.382673,0.678367,0.0261084,0.777824,-0.202226,0.634831,0.107499,0.00939267,0,0,0,0,0,0,0,0.402444,-0.22823,0.0657808,-1.78486,0.1311,1.39733,0.402461,0.517963,0.0294146,0.641769,-0.125942,0.393887,0.0989526,0.000858854,1.57856,-26.4092,0.338148,25.011,1.75384,2.09191,-0.0566557,-2.40462,2.05707,-2.98249,-1.56018,-0.116569,1.32957,1.35044,0.981328,1.396,-1.33256,0.804079,-0.326252,-0.016943,
0.403435,-0.228627,0.0661731,-1.78639,0.135715,-0.173551,-0.382638,0.688212,0.0293045,0.790059,-0.202032,0.645618,0.108049,0.00876367,0,0,0,0,0,0,0,0.402444,-0.22823,0.0657808,-1.78486,0.1311,1.39733,0.402461,0.517963,0.0294146,0.641769,-0.125942,0.393887,0.0989526,0.000858854,1.57856,-26.4092,0.338148,25.011,1.75384,2.09191,-0.0566557,-2.40462,2.05707,-2.98249,-1.56018,-0.116569,1.32957,1.35044,0.981328,1.396,-1.33256,0.804079,-0.326252,-0.016943,
0.406218,-0.228499,0.0693716,-1.7872,0.138326,-0.173112,-0.382605,0.695653,0.0319552,0.799622,-0.201508,0.652914,0.109809,0.00824224,0,0,0,0,0,0,0,0.424788,-0.227163,0.0923385,-1.79007,0.146614,1.40247,0.402458,0.520209,0.0297922,0.639325,-0.124513,0.383764,0.123921,-0.00137093,0.741459,-26.7583,-0.538622,25.6061,1.80877,2.02508,0.0101778,-1.8447,-0.439854,-2.59093,0.126102,0.0438224,0.209187,0.247047,0.60913,0.115768,-1.14895,0.538338,-0.308922,-0.0125074,
0.392763,-0.229019,0.0539161,-1.78316,0.12502,-0.175163,-0.382799,0.640077,0.0121796,0.723543,-0.197467,0.48149,0.12825,0.0112093,0,0,0,0,0,0,0,0.424788,-0.227163,0.0923385,-1.79007,0.146614,1.40247,0.402458,0.520209,0.0297922,0.639325,-0.124513,0.383764,0.123921,-0.00137093,0.741459,-26.7583,-0.538622,25.6061,1.80877,2.02508,0.0101778,-1.8447,-0.439854,-2.59093,0.126102,0.0438224,0.209187,0.247047,0.60913,0.115768,-1.14895,0.538338,-0.308922,-0.0125074,
0.432042,-0.226949,0.100626,-1.79225,0.151616,-0.166364,-0.382798,0.628687,0.0193295,0.721324,-0.191969,0.427812,0.165824,0.0112296,0,0,0,0,0,0,0,0.424788,-0.227163,0.0923385,-1.79007,0.146614,1.40247,0.402458,0.520209,0.0297922,0.639325,-0.124513,0.383764,0.123921,-0.00137093,0.741459,-26.7583,-0.538622,25.6061,1.80877,2.02508,0.0101778,-0.523204,-1.19115,-2.53017,0.575915,0.906592,-0.398921,-0.337359,0.909557,-0.57818,-1.17219,0.395172,-0.263247,-0.0105358,
0.434632,-0.226858,0.103603,-1.79303,0.15335,-0.16571,-0.382756,0.647483,0.0227693,0.744218,-0.195058,0.433635,0.16368,0.0103582,0,0,0,0,0,0,0,0.424788,-0.227163,0.0923385,-1.79007,0.146614,1.40247,0.402458,0.520209,0.0297922,0.639325,-0.124513,0.383764,0.123921,-0.00137093,0.741459,-26.7583,-0.538622,25.6061,1.80877,2.02508,0.0101778,-0.523204,-1.19115,-2.53017,0.575915,0.906592,-0.398921,-0.337359,0.909557,-0.57818,-1.17219,0.395172,-0.263247,-0.0105358,
0.43728,-0.226754,0.106653,-1.79381,0.155108,-0.165063,-0.382718,0.662179,0.0260117,0.762486,-0.196579,0.439352,0.161695,0.00957115,0,0,0,0,0,0,0,0.424788,-0.227163,0.0923385,-1.79007,0.146614,1.40247,0.402458,0.520209,0.0297922,0.639325,-0.124513,0.383764,0.123921,-0.00137093,0.741459,-26.7583,-0.538622,25.6061,1.80877,2.02508,0.0101778,-0.521443,-0.693717,-2.58832,0.250958,0.988286,-0.204455,-0.149551,1.04656,-0.359397,-1.22887,0.495119,-0.282753,-0.0107177,
0.439974,-0.226639,0.10976,-1.7946,0.156885,-0.164421,-0.382682,0.673531,0.0288288,0.776867,-0.197246,0.444284,0.16053,0.00891713,0,0,0,0,0,0,0,0.424788,-0.227163,0.0923385,-1.79007,0.146614,1.40247,0.402458,0.520209,0.0297922,0.639325,-0.124513,0.383764,0.123921,-0.00137093,0.741459,-26.7583,-0.538622,25.6061,1.80877,2.02508,0.0101778,-1.42401,0.637667,-2.49192,-0.625103,0.370857,0.555902,0.591926,0.941591,0.514307,-1.18428,0.639485,-0.315692,-0.0118802,
0.442705,-0.226514,0.112913,-1.79539,0.158661,-0.16378,-0.382649,0.682604,0.031212,0.788174,-0.197146,0.44419,0.160286,0.00841479,0,0,0,0,0,0,0,0.441781,-0.226354,0.112792,-1.7937,0.157448,1.40685,0.402464,0.524433,0.0297369,0.631866,-0.109311,0.280741,0.146736,0.00101114,0.412174,-26.8337,-0.859972,25.5347,0.929867,2.32354,-0.050247,-1.42401,0.637667,-2.49192,-0.625103,0.370857,0.555902,0.591926,0.941591,0.514307,-1.18428,0.639485,-0.315692,-0.0118802,
0.432267,-0.226971,0.100775,-1.79218,0.148675,-0.166164,-0.382817,0.64956,0.0161421,0.738811,-0.186293,0.0926124,0.188972,0.0096692,0,0,0,0,0,0,0,0.441781,-0.226354,0.112792,-1.7937,0.157448,1.40685,0.402464,0.524433,0.0297369,0.631866,-0.109311,0.280741,0.146736,0.00101114,0.412174,-26.8337,-0.859972,25.5347,0.929867,2.32354,-0.050247,-1.70083,0.0859195,-2.04978,-0.243004,-0.117007,0.437815,0.477952,0.49915,0.392811,-0.916351,0.476856,-0.256488,-0.0107655,
0.449165,-0.226183,0.121186,-1.7957,0.158391,-0.161481,-0.382807,0.64098,0.0142142,0.732513,-0.178534,0.00490352,0.213876,0.00991297,0,0,0,0,0,0,0,0.441781,-0.226354,0.112792,-1.7937,0.157448,1.40685,0.402464,0.524433,0.0297369,0.631866,-0.109311,0.280741,0.146736,0.00101114,0.412174,-26.8337,-0.859972,25.5347,0.929867,2.32354,-0.050247,-1.70083,0.0859195,-2.04978,-0.243004,-0.117007,0.437815,0.477952,0.49915,0.392811,-0.916351,0.476856,-0.256488,-0.0107655,
0.451796,-0.226116,0.124207,-1.79643,0.158219,-0.160624,-0.382771,0.657891,0.0166153,0.755278,-0.183159,-0.0432048,0.214146,0.00915043,0,0,0,0,0,0,0,0.441781,-0.226354,0.112792,-1.7937,0.157448,1.40685,0.402464,0.524433,0.0297369,0.631866,-0.109311,0.280741,0.146736,0.00101114,0.412174,-26.8337,-0.859972,25.5347,0.929867,2.32354,-0.050247,-0.357956,-0.84893,-2.00464,0.329472,0.733655,-0.274283,-0.231836,0.747652,-0.396013,-0.925356,0.310698,-0.196037,-0.00712368,
0.454479,-0.226039,0.127297,-1.79718,0.157889,-0.159773,-0.382736,0.670707,0.0192584,0.772364,-0.185734,-0.0824231,0.212637,0.00860673,0,0,0,0,0,0,0,0.441781,-0.226354,0.112792,-1.7937,0.157448,1.40685,0.402464,0.524433,0.0297369,0.631866,-0.109311,0.280741,0.146736,0.00101114,0.412174,-26.8337,-0.859972,25.5347,0.929867,2.32354,-0.050247,-0.357956,-0.84893,-2.00464,0.329472,0.733655,-0.274283,-0.231836,0.747652,-0.396013,-0.925356,0.310698,-0.196037,-0.00712368,
0.457199,-0.225952,0.130437,-1.79793,0.157434,-0.158931,-0.382704,0.679924,0.0217168,0.784961,-0.187315,-0.113716,0.210685,0.00798973,0,0,0,0,0,0,0,0.459107,-0.225432,0.133586,-1.79724,0.164678,1.41224,0.402459,0.53286,0.0269185,0.653841,-0.105624,0.0997286,0.176796,-0.000864212,0.539127,-27.2582,-0.93535,25.4593,0.807186,2.17156,-0.0026396,-1.21312,0.596669,-2.24279,-0.65119,0.29372,0.50327,0.514091,0.826611,0.503142,-1.01422,0.513956,-0.224594,-0.00864512,
0.459942,-0.225857,0.133612,-1.79868,0.156893,-0.158095,-0.382674,0.685719,0.0238474,0.793833,-0.188487,-0.135274,0.208964,0.00753876,0,0,0,0,0,0,0,0.459107,-0.225432,0.133586,-1.79724,0.164678,1.41224,0.402459,0.53286,0.0269185,0.653841,-0.105624,0.0997286,0.176796,-0.000864212,0.539127,-27.2582,-0.93535,25.4593,0.807186,2.17156,-0.0026396,-1.88311,0.347281,-1.94958,-0.427609,-0.314308,0.606258,0.624243,0.42029,0.606781,-0.838016,0.491374,-0.221583,-0.00692538,
0.4627,-0.225754,0.136812,-1.79944,0.156272,-0.157265,-0.382645,0.689711,0.025756,0.799894,-0.188923,-0.1553,0.20758,0.00717081,0,0,0,0,0,0,0,0.459107,-0.225432,0.133586,-1.79724,0.164678,1.41224,0.402459,0.53286,0.0269185,0.653841,-0.105624,0.0997286,0.176796,-0.000864212,0.539127,-27.2582,-0.93535,25.4593,0.807186,2.17156,-0.0026396,-1.88311,0.347281,-1.94958,-0.427609,-0.314308,0.606258,0.624243,0.42029,0.606781,-0.838016,0.491374,-0.221583,-0.00692538,
0.449306,-0.226316,0.121212,-1.79574,0.153624,-0.160409,-0.382826,0.645139,-0.000379806,0.73335,-0.182391,-0.511787,0.327236,0.0088552,0,0,0,0,0,0,0,0.459107,-0.225432,0.133586,-1.79724,0.164678,1.41224,0.402459,0.53286,0.0269185,0.653841,-0.105624,0.0997286,0.176796,-0.000864212,0.539127,-27.2582,-0.93535,25.4593,0.807186,2.17156,-0.0026396,-2.13913,0.292116,-1.98916,-0.517667,-0.606992,0.692702,0.728713,0.285798,0.717318,-0.800956,0.334034,-0.193946,-0.00830183,
0.466511,-0.225398,0.141994,-1.79925,0.160637,-0.155002,-0.382821,0.631895,-6.51372e-05,0.724922,-0.179965,-0.482746,0.323729,0.00946595,0,0,0,0,0,0,0,0.459107,-0.225432,0.133586,-1.79724,0.164678,1.41224,0.402459,0.53286,0.0269185,0.653841,-0.105624,0.0997286,0.176796,-0.000864212,0.539127,-27.2582,-0.93535,25.4593,0.807186,2.17156,-0.0026396,-2.13913,0.292116,-1.98916,-0.517667,-0.606992,0.692702,0.728713,0.285798,0.717318,-0.800956,0.334034,-0.193946,-0.00830183,
0.469066,-0.225394,0.144945,-1.79999,0.158344,-0.153665,-0.382786,0.638636,0.000826983,0.737778,-0.18494,-0.573338,0.334411,0.00892786,0,0,0,0,0,0,0,0.459107,-0.225432,0.133586,-1.79724,0.164678,1.41224,0.402459,0.53286,0.0269185,0.653841,-0.105624,0.0997286,0.176796,-0.000864212,0.539127,-27.2582,-0.93535,25.4593,0.807186,2.17156,-0.0026396,-0.131557,-1.4793,-1.96846,0.519722,0.595772,-0.51869,-0.465337,0.558077,-0.622011,-0.816039,-0.0384645,-0.104378,-0.00461022,
0.47163,-0.225384,0.147925,-1.80074,0.155809,-0.152306,-0.382751,0.641088,0.00244901,0.744904,-0.18815,-0.63365,0.339723,0.00853773,0,0,0,0,0,0,0,0.476535,-0.224391,0.154313,-1.80018,0.164611,1.41789,0.402458,0.577162,0.0314537,0.693621,-0.0883891,-0.027061,0.181274,0.000237038,-0.500302,-26.6353,-1.9113,25.4831,1.20453,2.17156,-0.0163725,-0.840443,-0.471506,-2.53337,-0.342892,0.308897,0.0721114,0.101315,0.754999,0.0825891,-1.0518,0.0329042,-0.154029,-0.008296,
0.474196,-0.225367,0.150918,-1.8015,0.153096,-0.150938,-0.382718,0.641405,0.00441308,0.748151,-0.18997,-0.678167,0.341865,0.00824495,0,0,0,0,0,0,0,0.476535,-0.224391,0.154313,-1.80018,0.164611,1.41789,0.402458,0.577162,0.0314537,0.693621,-0.0883891,-0.027061,0.181274,0.000237038,-0.500302,-26.6353,-1.9113,25.4831,1.20453,2.17156,-0.0163725,-0.840443,-0.471506,-2.53337,-0.342892,0.308897,0.0721114,0.101315,0.754999,0.0825891,-1.0518,0.0329042,-0.154029,-0.008296,
0.476755,-0.225341,0.153913,-1.80226,0.150252,-0.149569,-0.382686,0.639934,0.00639569,0.748791,-0.191001,-0.711131,0.34226,0.00802739,0,0,0,0,0,0,0,0.476535,-0.224391,0.154313,-1.80018,0.164611,1.41789,0.402458,0.577162,0.0314537,0.693621,-0.0883891,-0.027061,0.181274,0.000237038,-0.500302,-26.6353,-1.9113,25.4831,1.20453,2.17156,-0.0163725,-1.26319,-0.38996,-2.59177,-0.47955,0.00863696,0.247153,0.26407,0.666337,0.300326,-1.07751,-0.00132605,-0.189836,-0.00872497,
0.479304,-0.225308,0.156903,-1.80303,0.14731,-0.148202,-0.382656,0.637129,0.00826954,0.747548,-0.191521,-0.735337,0.341684,0.00768267,0,0,0,0,0,0,0,0.476535,-0.224391,0.154313,-1.80018,0.164611,1.41789,0.402458,0.577162,0.0314537,0.693621,-0.0883891,-0.027061,0.181274,0.000237038,-0.500302,-26.6353,-1.9113,25.4831,1.20453,2.17156,-0.0163725,-1.26319,-0.38996,-2.59177,-0.47955,0.00863696,0.247153,0.26407,0.666337,0.300326,-1.07751,-0.00132605,-0.189836,-0.00872497,
0.466272,-0.225454,0.141727,-1.79929,0.1598,-0.154699,-0.382834,0.604753,-0.00525352,0.693884,-0.182014,-0.599359,0.351373,0.00875786,0,0,0,0,0,0,0,0.476535,-0.224391,0.154313,-1.80018,0.164611,1.41789,0.402458,0.577162,0.0314537,0.693621,-0.0883891,-0.027061,0.181274,0.000237038,-0.500302,-26.6353,-1.9113,25.4831,1.20453,2.17156,-0.0163725,-1.55562,-0.812113,-2.50159,-0.323482,-0.397552,0.231486,0.284216,0.390729,0.282597,-0.987641,-0.231339,-0.172444,-0.00907877,
0.483862,-0.22442,0.162733,-1.80216,0.159297,-0.149191,-0.382844,0.609215,-0.00728978,0.707223,-0.179971,-0.58766,0.337272,0.00802948,0,0,0,0,0,0,0,0.49505,-0.223421,0.176632,-1.80312,0.158502,1.4255,0.402464,0.56502,0.0276876,0.682625,-0.0829606,-0.27916,0.250325,0.000706214,-0.95654,-26.3338,-2.96263,25.5347,0.0500452,2.32995,-0.0429228,-1.55562,-0.812113,-2.50159,-0.323482,-0.397552,0.231486,0.284216,0.390729,0.282597,-0.987641,-0.231339,-0.172444,-0.00907877,
0.486273,-0.224448,0.165554,-1.8029,0.156609,-0.147801,-0.382813,0.602845,-0.00700515,0.705151,-0.185687,-0.672067,0.347494,0.00788131,0,0,0,0,0,0,0,0.49505,-0.223421,0.176632,-1.80312,0.158502,1.4255,0.402464,0.56502,0.0276876,0.682625,-0.0829606,-0.27916,0.250325,0.000706214,-0.95654,-26.3338,-2.96263,25.5347,0.0500452,2.32995,-0.0429228,-0.300844,-1.26422,-2.63603,-0.197869,0.381553,-0.285405,-0.198667,0.723775,-0.285142,-1.08041,-0.468959,-0.130017,-0.0081096,
0.488653,-0.22447,0.168354,-1.80366,0.153687,-0.146392,-0.382781,0.595042,-0.00547451,0.699951,-0.188898,-0.730551,0.35226,0.00789086,0,0,0,0,0,0,0,0.49505,-0.223421,0.176632,-1.80312,0.158502,1.4255,0.402464,0.56502,0.0276876,0.682625,-0.0829606,-0.27916,0.250325,0.000706214,-0.95654,-26.3338,-2.96263,25.5347,0.0500452,2.32995,-0.0429228,-0.300844,-1.26422,-2.63603,-0.197869,0.381553,-0.285405,-0.198667,0.723775,-0.285142,-1.08041,-0.468959,-0.130017,-0.0081096,
0.490999,-0.224484,0.171126,-1.80442,0.150603,-0.144976,-0.382752,0.586468,-0.00342897,0.692951,-0.190783,-0.771023,0.354053,0.00739344,0,0,0,0,0,0,0,0.49505,-0.223421,0.176632,-1.80312,0.158502,1.4255,0.402464,0.56502,0.0276876,0.682625,-0.0829606,-0.27916,0.250325,0.000706214,-0.95654,-26.3338,-2.96263,25.5347,0.0500452,2.32995,-0.0429228,0.518179,-1.04409,-3.01045,-0.543168,1.00381,-0.452053,-0.378948,1.16281,-0.42214,-1.27867,-0.572019,-0.116749,-0.0105301,
