PerkyPenguin/Analysis-on-Approximated-Derivatives/Code_and_Data/PaperData/Real_Robot/Scene_1/set_interval/19/trajectory.csv
Commanded Joint 0 Position,Commanded Joint 1 Position,Commanded Joint 2 Position,Commanded Joint 3 Position,Commanded Joint 4 Position,Commanded Joint 5 Position,Commanded Joint 6 Position,Commanded Joint 0 Velocity,Commanded Joint 1 Velocity,Commanded Joint 2 Velocity,Commanded Joint 3 Velocity,Commanded Joint 4 Velocity,Commanded Joint 5 Velocity,Commanded Joint 6 Velocity,Commanded Joint 0 Torque,Commanded Joint 1 Torque,Commanded Joint 2 Torque,Commanded Joint 3 Torque,Commanded Joint 4 Torque,Commanded Joint 5 Torque,Commanded Joint 6 Torque,Actual Joint 0 Position,Actual Joint 1 Position,Actual Joint 2 Position,Actual Joint 3 Position,Actual Joint 4 Position,Actual Joint 5 Position,Actual Joint 6 Position,Actual Joint 0 Velocity,Actual Joint 1 Velocity,Actual Joint 2 Velocity,Actual Joint 3 Velocity,Actual Joint 4 Velocity,Actual Joint 5 Velocity,Actual Joint 6 Velocity,Actual Joint 0 Torque,Actual Joint 1 Torque,Actual Joint 2 Torque,Actual Joint 3 Torque,Actual Joint 4 Torque,Actual Joint 5 Torque,Actual Joint 6 Torque,EE ext force 0,EE ext force 1,EE ext force 2,EE ext force 3,EE ext force 4,EE ext force 5,joint ext torque 0,joint ext torque 1,joint ext torque 2,joint ext torque 3,joint ext torque 4,joint ext torque 5,joint ext torque 6,
0.0131086,-0.195595,-0.33199,-1.66088,-0.0932899,-0.0872342,-0.383954,-0.00333054,0.0172278,-0.0133119,-0.151035,-0.00332473,0.199922,-0.00212183,0,0,0,0,0,0,0,0.0131223,-0.195637,-0.331882,-1.65935,-0.0931672,1.48156,0.401466,0.000169883,-0.00112535,0.000212424,0.000416539,0.000956994,-0.000630232,-8.56722e-07,0.00751081,-25.5126,1.93696,25.9314,0.331112,3.02025,-0.0365141,-1.30281,0.160081,-0.319431,-0.0954244,-0.577965,-0.119873,-0.0317646,-0.14931,-0.184022,-0.255246,-0.130839,-0.295255,-0.0336796,
0.0130906,-0.195452,-0.332054,-1.66152,-0.0933028,-0.0864061,-0.383963,-0.00450798,0.0357376,-0.0161213,-0.160119,-0.00320932,0.207015,-0.00201536,0,0,0,0,0,0,0,0.0131223,-0.195637,-0.331882,-1.65935,-0.0931672,1.48156,0.401466,0.000169883,-0.00112535,0.000212424,0.000416539,0.000956994,-0.000630232,-8.56722e-07,0.00751081,-25.5126,1.93696,25.9314,0.331112,3.02025,-0.0365141,-1.11885,0.0992416,-0.498972,-0.0193895,-0.35687,-0.111719,-0.0245034,0.00986133,-0.186495,-0.357441,-0.132178,-0.307024,-0.0368642,
0.013124,-0.19565,-0.33188,-1.65935,-0.0931557,-0.0892423,-0.383932,8.06028e-05,-0.000667124,9.06083e-05,0.000325426,0.000562054,-0.000131674,-6.88956e-07,0,0,0,0,0,0,0,0.0131223,-0.195637,-0.331882,-1.65935,-0.0931672,1.48156,0.401466,0.000169883,-0.00112535,0.000212424,0.000416539,0.000956994,-0.000630232,-8.56722e-07,0.00751081,-25.5126,1.93696,25.9314,0.331112,3.02025,-0.0365141,-1.22968,0.144828,-0.349255,-0.0766898,-0.513711,-0.109985,-0.0214098,-0.109617,-0.177475,-0.27307,-0.127059,-0.292503,-0.037284,
0.0131243,-0.195652,-0.33188,-1.65935,-0.0931538,-0.0892426,-0.383932,7.20315e-05,-0.000604821,7.35082e-05,0.000296186,0.000465632,-7.73709e-05,-3.17018e-07,0,0,0,0,0,0,0,0.0131216,-0.19564,-0.331884,-1.65937,-0.0931646,1.48156,0.401465,-0.0008659,-0.00520693,-0.00196759,-0.000301384,0.00771087,0.00413367,-0.00683362,0.00751081,-25.461,1.88936,24.8087,0.294491,3.21252,-0.0301054,-1.22968,0.144828,-0.349255,-0.0766898,-0.513711,-0.109985,-0.0214098,-0.109617,-0.177475,-0.27307,-0.127059,-0.292503,-0.037284,
0.0131245,-0.195655,-0.33188,-1.65934,-0.0931523,-0.0892428,-0.383932,6.50644e-05,-0.000553537,5.94775e-05,0.000270515,0.000376748,-4.37725e-05,-2.87813e-08,0,0,0,0,0,0,0,0.0131216,-0.19564,-0.331884,-1.65937,-0.0931646,1.48156,0.401465,-0.0008659,-0.00520693,-0.00196759,-0.000301384,0.00771087,0.00413367,-0.00683362,0.00751081,-25.461,1.88936,24.8087,0.294491,3.21252,-0.0301054,-1.3448,0.298455,-0.865808,-0.132266,-0.43374,-0.0614928,0.0235929,0.00905714,-0.126355,-0.426294,-0.13139,-0.267712,-0.0351372,
0.0131248,-0.195657,-0.33188,-1.65934,-0.0931512,-0.0892429,-0.383932,5.92205e-05,-0.000511176,4.77356e-05,0.000248127,0.000295943,-2.6093e-05,2.08284e-07,0,0,0,0,0,0,0,0.0131216,-0.19564,-0.331884,-1.65937,-0.0931646,1.48156,0.401465,-0.0008659,-0.00520693,-0.00196759,-0.000301384,0.00771087,0.00413367,-0.00683362,0.00751081,-25.461,1.88936,24.8087,0.294491,3.21252,-0.0301054,-1.3448,0.298455,-0.865808,-0.132266,-0.43374,-0.0614928,0.0235929,0.00905714,-0.126355,-0.426294,-0.13139,-0.267712,-0.0351372,
0.013125,-0.195659,-0.331879,-1.65934,-0.0931503,-0.0892429,-0.383932,5.41844e-05,-0.000476121,3.77317e-05,0.000228622,0.000223205,-2.04061e-05,4.12062e-07,0,0,0,0,0,0,0,0.0131216,-0.19564,-0.331884,-1.65937,-0.0931646,1.48156,0.401465,-0.0008659,-0.00520693,-0.00196759,-0.000301384,0.00771087,0.00413367,-0.00683362,0.00751081,-25.461,1.88936,24.8087,0.294491,3.21252,-0.0301054,-2.79639,0.684934,-1.12204,-0.388561,-1.47759,-0.143576,-0.0591647,-0.549481,-0.180215,-0.332735,-0.123284,-0.259521,-0.0339542,
0.0131252,-0.19566,-0.331879,-1.65934,-0.0931496,-0.089243,-0.383932,4.97462e-05,-0.00044708,2.90733e-05,0.000211611,0.0001582,-2.35787e-05,5.93027e-07,0,0,0,0,0,0,0,0.0131216,-0.19564,-0.331884,-1.65937,-0.0931646,1.48156,0.401465,-0.0008659,-0.00520693,-0.00196759,-0.000301384,0.00771087,0.00413367,-0.00683362,0.00751081,-25.461,1.88936,24.8087,0.294491,3.21252,-0.0301054,-2.79639,0.684934,-1.12204,-0.388561,-1.47759,-0.143576,-0.0591647,-0.549481,-0.180215,-0.332735,-0.123284,-0.259521,-0.0339542,
0.0131254,-0.195662,-0.331879,-1.65934,-0.0931492,-0.0892432,-0.383932,4.57651e-05,-0.000423003,2.14786e-05,0.000196755,0.000100414,-3.31453e-05,7.57513e-07,0,0,0,0,0,0,0,0.0131333,-0.195641,-0.331873,-1.65972,-0.0931959,1.48226,0.401464,-1.36191e-05,-0.00628971,0.000399066,0.00284187,0.0030692,0.00109068,0.000145748,-0.119442,-25.5602,1.81398,26.4035,0.575558,3.19237,-0.0227812,-1.71155,0.179603,-1.40407,0.0164153,-0.565268,-0.178412,-0.094404,-0.001574,-0.261309,-0.533275,-0.141354,-0.217601,-0.0342361,
0.0131255,-0.195664,-0.331879,-1.65934,-0.093149,-0.0892434,-0.383932,4.21465e-05,-0.000403037,1.47433e-05,0.000183759,4.92458e-05,-4.71825e-05,9.09383e-07,0,0,0,0,0,0,0,0.0131333,-0.195641,-0.331873,-1.65972,-0.0931959,1.48226,0.401464,-1.36191e-05,-0.00628971,0.000399066,0.00284187,0.0030692,0.00109068,0.000145748,-0.119442,-25.5602,1.81398,26.4035,0.575558,3.19237,-0.0227812,-0.961273,-0.0494488,-1.33781,0.179139,-0.02862,-0.150982,-0.069868,0.284192,-0.249435,-0.579819,-0.139063,-0.195163,-0.0325933,
0.0131257,-0.195665,-0.331879,-1.65934,-0.093149,-0.0892436,-0.383932,3.88266e-05,-0.000386476,8.71752e-06,0.000172375,4.06834e-06,-6.42015e-05,1.05098e-06,0,0,0,0,0,0,0,0.0131333,-0.195641,-0.331873,-1.65972,-0.0931959,1.48226,0.401464,-1.36191e-05,-0.00628971,0.000399066,0.00284187,0.0030692,0.00109068,0.000145748,-0.119442,-25.5602,1.81398,26.4035,0.575558,3.19237,-0.0227812,-0.961273,-0.0494488,-1.33781,0.179139,-0.02862,-0.150982,-0.069868,0.284192,-0.249435,-0.579819,-0.139063,-0.195163,-0.0325933,
0.0131258,-0.195667,-0.331879,-1.65934,-0.0931492,-0.089244,-0.383932,3.57618e-05,-0.000372743,3.28978e-06,0.00016239,-3.57374e-05,-8.30592e-05,1.18371e-06,0,0,0,0,0,0,0,0.0131333,-0.195641,-0.331873,-1.65972,-0.0931959,1.48226,0.401464,-1.36191e-05,-0.00628971,0.000399066,0.00284187,0.0030692,0.00109068,0.000145748,-0.119442,-25.5602,1.81398,26.4035,0.575558,3.19237,-0.0227812,-1.00067,0.342445,-1.11662,-0.130607,-0.157974,0.0189979,0.105682,0.169943,-0.0523848,-0.481191,-0.10562,-0.186939,-0.0314173,
0.013126,-0.195668,-0.331879,-1.65934,-0.0931494,-0.0892444,-0.383932,3.29219e-05,-0.00036136,-1.62439e-06,0.000153625,-7.07592e-05,-0.000102886,1.3084e-06,0,0,0,0,0,0,0,0.0131333,-0.195641,-0.331873,-1.65972,-0.0931959,1.48226,0.401464,-1.36191e-05,-0.00628971,0.000399066,0.00284187,0.0030692,0.00109068,0.000145748,-0.119442,-25.5602,1.81398,26.4035,0.575558,3.19237,-0.0227812,-1.00067,0.342445,-1.11662,-0.130607,-0.157974,0.0189979,0.105682,0.169943,-0.0523848,-0.481191,-0.10562,-0.186939,-0.0314173,
0.0131261,-0.19567,-0.331879,-1.65934,-0.0931498,-0.0892449,-0.383932,3.02853e-05,-0.000351932,-6.09032e-06,0.000145924,-0.000101542,-0.000123029,1.42556e-06,0,0,0,0,0,0,0,0.0131333,-0.195641,-0.331873,-1.65972,-0.0931959,1.48226,0.401464,-1.36191e-05,-0.00628971,0.000399066,0.00284187,0.0030692,0.00109068,0.000145748,-0.119442,-25.5602,1.81398,26.4035,0.575558,3.19237,-0.0227812,-1.63554,0.214778,-1.06968,-0.0667368,-0.640475,-0.146642,-0.0388898,-0.102824,-0.236173,-0.405266,-0.147214,-0.205633,-0.0336664,
0.0131262,-0.195671,-0.331879,-1.65934,-0.0931504,-0.0892454,-0.383932,2.7836e-05,-0.000344133,-1.01598e-05,0.000139153,-0.000128582,-0.000143006,1.5355e-06,0,0,0,0,0,0,0,0.0131144,-0.195558,-0.331884,-1.65964,-0.0932159,1.48231,0.401466,-0.000467771,0.00614787,-4.25571e-06,-0.000266758,-0.00317311,0.00262872,-0.00125201,0.106693,-26.3338,1.96077,25.733,0.715634,2.84722,-0.00996382,-1.63554,0.214778,-1.06968,-0.0667368,-0.640475,-0.146642,-0.0388898,-0.102824,-0.236173,-0.405266,-0.147214,-0.205633,-0.0336664,
0.0131263,-0.195672,-0.331879,-1.65934,-0.093151,-0.0892461,-0.383932,2.55611e-05,-0.000337692,-1.38748e-05,0.000133198,-0.000152326,-0.000162467,1.63844e-06,0,0,0,0,0,0,0,0.0131144,-0.195558,-0.331884,-1.65964,-0.0932159,1.48231,0.401466,-0.000467771,0.00614787,-4.25571e-06,-0.000266758,-0.00317311,0.00262872,-0.00125201,0.106693,-26.3338,1.96077,25.733,0.715634,2.84722,-0.00996382,-1.73322,0.140563,-1.24582,0.0289375,-0.62196,-0.195704,-0.0795508,-0.0532137,-0.305386,-0.491362,-0.147445,-0.237532,-0.0346747,
0.0131264,-0.195674,-0.331879,-1.65934,-0.0931517,-0.0892468,-0.383932,2.34502e-05,-0.000332384,-1.72704e-05,0.000127959,-0.000173173,-0.000181167,1.73458e-06,0,0,0,0,0,0,0,0.0131144,-0.195558,-0.331884,-1.65964,-0.0932159,1.48231,0.401466,-0.000467771,0.00614787,-4.25571e-06,-0.000266758,-0.00317311,0.00262872,-0.00125201,0.106693,-26.3338,1.96077,25.733,0.715634,2.84722,-0.00996382,-1.75508,0.27427,-0.844483,-0.117145,-0.792205,-0.142265,-0.0295528,-0.214665,-0.229909,-0.338008,-0.127901,-0.23803,-0.032884,
0.0131265,-0.195675,-0.331879,-1.65934,-0.0931524,-0.0892476,-0.383932,2.14939e-05,-0.000328024,-2.03763e-05,0.000123348,-0.000191477,-0.000198942,1.82412e-06,0,0,0,0,0,0,0,0.0131144,-0.195558,-0.331884,-1.65964,-0.0932159,1.48231,0.401466,-0.000467771,0.00614787,-4.25571e-06,-0.000266758,-0.00317311,0.00262872,-0.00125201,0.106693,-26.3338,1.96077,25.733,0.715634,2.84722,-0.00996382,-1.75508,0.27427,-0.844483,-0.117145,-0.792205,-0.142265,-0.0295528,-0.214665,-0.229909,-0.338008,-0.127901,-0.23803,-0.032884,
0.0131265,-0.195676,-0.33188,-1.65933,-0.0931533,-0.0892485,-0.383932,1.96836e-05,-0.000324455,-2.32185e-05,0.000119291,-0.00020755,-0.00021569,1.90728e-06,0,0,0,0,0,0,0,0.0131144,-0.195558,-0.331884,-1.65964,-0.0932159,1.48231,0.401466,-0.000467771,0.00614787,-4.25571e-06,-0.000266758,-0.00317311,0.00262872,-0.00125201,0.106693,-26.3338,1.96077,25.733,0.715634,2.84722,-0.00996382,-1.40079,0.230939,-1.0699,-0.0498464,-0.418298,-0.0989019,0.00944099,0.0408429,-0.194552,-0.480591,-0.131259,-0.252421,-0.033735,
0.0131266,-0.195678,-0.33188,-1.65933,-0.0931541,-0.0892494,-0.383932,1.80111e-05,-0.000321548,-2.58199e-05,0.00011572,-0.000221665,-0.000231357,1.98428e-06,0,0,0,0,0,0,0,0.013125,-0.195563,-0.331878,-1.65962,-0.0931964,1.48233,0.401468,0.000348732,0.00411041,0.000380365,0.000281102,-0.00431175,0.0046866,0.000373042,-0.0440639,-25.7863,1.88936,25.733,0.581051,2.92687,-0.050247,-1.40079,0.230939,-1.0699,-0.0498464,-0.418298,-0.0989019,0.00944099,0.0408429,-0.194552,-0.480591,-0.131259,-0.252421,-0.033735,
0.0131267,-0.195679,-0.33188,-1.65933,-0.0931551,-0.0892504,-0.383932,1.64683e-05,-0.000319195,-2.8201e-05,0.000112579,-0.000234063,-0.000245923,2.05538e-06,0,0,0,0,0,0,0,0.013125,-0.195563,-0.331878,-1.65962,-0.0931964,1.48233,0.401468,0.000348732,0.00411041,0.000380365,0.000281102,-0.00431175,0.0046866,0.000373042,-0.0440639,-25.7863,1.88936,25.733,0.581051,2.92687,-0.050247,-1.88976,0.261792,-0.919579,-0.10525,-0.845487,-0.1692,-0.0617781,-0.222851,-0.25335,-0.369547,-0.143032,-0.257599,-0.0366865,
0.0131267,-0.19568,-0.33188,-1.65933,-0.0931561,-0.0892514,-0.383932,1.50476e-05,-0.000317308,-3.03805e-05,0.000109817,-0.000244956,-0.000259398,2.12086e-06,0,0,0,0,0,0,0,0.013125,-0.195563,-0.331878,-1.65962,-0.0931964,1.48233,0.401468,0.000348732,0.00411041,0.000380365,0.000281102,-0.00431175,0.0046866,0.000373042,-0.0440639,-25.7863,1.88936,25.733,0.581051,2.92687,-0.050247,-1.88976,0.261792,-0.919579,-0.10525,-0.845487,-0.1692,-0.0617781,-0.222851,-0.25335,-0.369547,-0.143032,-0.257599,-0.0366865,
0.0131268,-0.195681,-0.33188,-1.65933,-0.0931571,-0.0892525,-0.383932,1.37415e-05,-0.00031581,-3.23752e-05,0.000107388,-0.000254526,-0.000271807,2.18103e-06,0,0,0,0,0,0,0,0.013125,-0.195563,-0.331878,-1.65962,-0.0931964,1.48233,0.401468,0.000348732,0.00411041,0.000380365,0.000281102,-0.00431175,0.0046866,0.000373042,-0.0440639,-25.7863,1.88936,25.733,0.581051,2.92687,-0.050247,-1.92264,0.229574,-0.676283,-0.1221,-0.958063,-0.191725,-0.0933299,-0.323525,-0.262139,-0.275788,-0.148123,-0.258478,-0.0365828,
0.0131269,-0.195683,-0.33188,-1.65933,-0.0931581,-0.0892536,-0.383932,1.25424e-05,-0.000314639,-3.42009e-05,0.000105254,-0.000262934,-0.000283192,2.23616e-06,0,0,0,0,0,0,0,0.013125,-0.195563,-0.331878,-1.65962,-0.0931964,1.48233,0.401468,0.000348732,0.00411041,0.000380365,0.000281102,-0.00431175,0.0046866,0.000373042,-0.0440639,-25.7863,1.88936,25.733,0.581051,2.92687,-0.050247,-1.35717,0.1566,-0.915657,-0.0128104,-0.434259,-0.128416,-0.0393225,0.0114501,-0.209464,-0.436266,-0.128666,-0.259809,-0.0336172,
0.0131269,-0.195684,-0.33188,-1.65933,-0.0931592,-0.0892548,-0.383932,1.14433e-05,-0.000313743,-3.58718e-05,0.000103381,-0.000270322,-0.000293603,2.28659e-06,0,0,0,0,0,0,0,0.013125,-0.195563,-0.331878,-1.65962,-0.0931964,1.48233,0.401468,0.000348732,0.00411041,0.000380365,0.000281102,-0.00431175,0.0046866,0.000373042,-0.0440639,-25.7863,1.88936,25.733,0.581051,2.92687,-0.050247,-1.35717,0.1566,-0.915657,-0.0128104,-0.434259,-0.128416,-0.0393225,0.0114501,-0.209464,-0.436266,-0.128666,-0.259809,-0.0336172,
0.0131269,-0.195685,-0.33188,-1.65933,-0.0931603,-0.089256,-0.383932,1.04373e-05,-0.000313078,-3.74011e-05,0.000101738,-0.000276812,-0.000303095,2.3326e-06,0,0,0,0,0,0,0,0.0131418,-0.195567,-0.331862,-1.65961,-0.0931855,1.48234,0.401466,-0.000930339,0.00107477,-0.00052194,0.000880148,-0.00313628,0.00360336,0.00026394,-0.147213,-25.6355,1.78621,25.9076,0.484005,3.02025,-0.0365141,-1.38076,0.184149,-0.755352,-0.0519779,-0.524592,-0.120349,-0.0337131,-0.070493,-0.193444,-0.362974,-0.118318,-0.249547,-0.0338004,
0.013127,-0.195686,-0.331881,-1.65933,-0.0931614,-0.0892573,-0.383932,9.51759e-06,-0.000312607,-3.88009e-05,0.000100299,-0.000282511,-0.000311728,2.37452e-06,0,0,0,0,0,0,0,0.0131418,-0.195567,-0.331862,-1.65961,-0.0931855,1.48234,0.401466,-0.000930339,0.00107477,-0.00052194,0.000880148,-0.00313628,0.00360336,0.00026394,-0.147213,-25.6355,1.78621,25.9076,0.484005,3.02025,-0.0365141,-1.38076,0.184149,-0.755352,-0.0519779,-0.524592,-0.120349,-0.0337131,-0.070493,-0.193444,-0.362974,-0.118318,-0.249547,-0.0338004,
0.013127,-0.195688,-0.331881,-1.65933,-0.0931626,-0.0892585,-0.383932,8.67789e-06,-0.0003123,-4.00826e-05,9.90388e-05,-0.000287514,-0.00031956,2.41262e-06,0,0,0,0,0,0,0,0.0131418,-0.195567,-0.331862,-1.65961,-0.0931855,1.48234,0.401466,-0.000930339,0.00107477,-0.00052194,0.000880148,-0.00313628,0.00360336,0.00026394,-0.147213,-25.6355,1.78621,25.9076,0.484005,3.02025,-0.0365141,-1.3535,0.0147428,-0.662789,0.0474702,-0.523218,-0.189175,-0.0951249,-0.0792649,-0.275556,-0.341393,-0.142488,-0.257785,-0.0363928,
0.013005,-0.195595,-0.331972,-1.65923,-0.0916552,-0.0901602,-0.383931,-0.0111342,0.0029315,-0.00994749,0.00980837,0.171652,-0.104281,0.000343425,0,0,0,0,0,0,0,0.0131418,-0.195567,-0.331862,-1.65961,-0.0931855,1.48234,0.401466,-0.000930339,0.00107477,-0.00052194,0.000880148,-0.00313628,0.00360336,0.00026394,-0.147213,-25.6355,1.78621,25.9076,0.484005,3.02025,-0.0365141,-0.978906,-0.0601925,-0.769376,0.131564,-0.193657,-0.157226,-0.0623923,0.124708,-0.256908,-0.429925,-0.132578,-0.26008,-0.0356072,
0.0130192,-0.19551,-0.331958,-1.65949,-0.0917331,-0.0893282,-0.383931,-0.0114812,0.00391641,-0.010398,0.00945612,0.166593,-0.100645,0.000340315,0,0,0,0,0,0,0,0.0131418,-0.195567,-0.331862,-1.65961,-0.0931855,1.48234,0.401466,-0.000930339,0.00107477,-0.00052194,0.000880148,-0.00313628,0.00360336,0.00026394,-0.147213,-25.6355,1.78621,25.9076,0.484005,3.02025,-0.0365141,-0.978906,-0.0601925,-0.769376,0.131564,-0.193657,-0.157226,-0.0623923,0.124708,-0.256908,-0.429925,-0.132578,-0.26008,-0.0356072,
0.0129737,-0.1955,-0.332002,-1.65946,-0.0909411,-0.0898129,-0.383929,-0.0113567,0.00252943,-0.010987,0.00789575,0.198005,-0.121169,0.000469955,0,0,0,0,0,0,0,0.0131156,-0.195592,-0.331869,-1.65956,-0.0931758,1.48235,0.401468,-0.0023367,0.000174711,-0.000209089,0.00126627,0.00709714,-0.000598405,0.000374792,0.106693,-25.461,1.88936,25.856,0.642391,2.97997,-0.0566557,-1.35172,0.063717,-0.419597,-0.0163004,-0.633623,-0.168455,-0.0697835,-0.18998,-0.249659,-0.232553,-0.1263,-0.240291,-0.0339319,
0.0129308,-0.195494,-0.332045,-1.65944,-0.090052,-0.0903651,-0.383927,-0.0107344,0.00129712,-0.0108241,0.00640828,0.222265,-0.138054,0.00054239,0,0,0,0,0,0,0,0.0131156,-0.195592,-0.331869,-1.65956,-0.0931758,1.48235,0.401468,-0.0023367,0.000174711,-0.000209089,0.00126627,0.00709714,-0.000598405,0.000374792,0.106693,-25.461,1.88936,25.856,0.642391,2.97997,-0.0566557,-1.35172,0.063717,-0.419597,-0.0163004,-0.633623,-0.168455,-0.0697835,-0.18998,-0.249659,-0.232553,-0.1263,-0.240291,-0.0339319,
0.0128915,-0.195493,-0.332086,-1.65941,-0.0890874,-0.0909731,-0.383925,-0.00983088,0.000294713,-0.0102012,0.00511943,0.241158,-0.15198,0.000579618,0,0,0,0,0,0,0,0.0131156,-0.195592,-0.331869,-1.65956,-0.0931758,1.48235,0.401468,-0.0023367,0.000174711,-0.000209089,0.00126627,0.00709714,-0.000598405,0.000374792,0.106693,-25.461,1.88936,25.856,0.642391,2.97997,-0.0566557,-1.05874,-0.198073,-0.609879,0.208715,-0.317803,-0.231573,-0.127108,0.0261046,-0.343735,-0.356934,-0.14028,-0.255537,-0.0366454,
0.0128563,-0.195495,-0.332123,-1.6594,-0.0880635,-0.0916268,-0.383923,-0.00878385,-0.000480755,-0.00931228,0.0040341,0.255973,-0.163435,0.000594256,0,0,0,0,0,0,0,0.0131156,-0.195592,-0.331869,-1.65956,-0.0931758,1.48235,0.401468,-0.0023367,0.000174711,-0.000209089,0.00126627,0.00709714,-0.000598405,0.000374792,0.106693,-25.461,1.88936,25.856,0.642391,2.97997,-0.0566557,-1.05874,-0.198073,-0.609879,0.208715,-0.317803,-0.231573,-0.127108,0.0261046,-0.343735,-0.356934,-0.14028,-0.255537,-0.0366454,
0.0128256,-0.195499,-0.332156,-1.65939,-0.0869929,-0.092318,-0.38392,-0.0076818,-0.0010564,-0.00828616,0.00312586,0.267653,-0.172808,0.000594389,0,0,0,0,0,0,0,0.0131156,-0.195592,-0.331869,-1.65956,-0.0931758,1.48235,0.401468,-0.0023367,0.000174711,-0.000209089,0.00126627,0.00709714,-0.000598405,0.000374792,0.106693,-25.461,1.88936,25.856,0.642391,2.97997,-0.0566557,-0.89943,-0.276146,-0.589003,0.331415,-0.210801,-0.236663,-0.120098,0.0779778,-0.377852,-0.380794,-0.078072,-0.267739,-0.0367221,
0.0127993,-0.195505,-0.332185,-1.65938,-0.0858853,-0.0930397,-0.383918,-0.0065812,-0.00146459,-0.00720741,0.00236456,0.276893,-0.180431,0.000585229,0,0,0,0,0,0,0,0.0131156,-0.195592,-0.331869,-1.65956,-0.0931758,1.48235,0.401468,-0.0023367,0.000174711,-0.000209089,0.00126627,0.00709714,-0.000598405,0.000374792,0.106693,-25.461,1.88936,25.856,0.642391,2.97997,-0.0566557,-0.98568,-0.296068,-0.339574,0.358201,-0.397112,-0.261979,-0.13369,-0.0806632,-0.416063,-0.266223,-0.0263298,-0.257582,-0.033699,
0.0127772,-0.195512,-0.33221,-1.65937,-0.0847485,-0.0937861,-0.383916,-0.00551719,-0.0017364,-0.00613051,0.00172376,0.284215,-0.186582,0.000570264,0,0,0,0,0,0,0,0.013079,-0.19554,-0.331922,-1.65954,-0.0915549,1.48233,0.401466,0.000834514,0.00285613,-0.00317166,-7.41803e-05,0.0750381,0.000447063,0.000211094,0.384403,-26.06,2.23848,26.1813,1.24664,2.94701,-0.0365141,-0.98568,-0.296068,-0.339574,0.358201,-0.397112,-0.261979,-0.13369,-0.0806632,-0.416063,-0.266223,-0.0263298,-0.257582,-0.033699,
0.0127592,-0.19552,-0.33223,-1.65936,-0.0835884,-0.0945521,-0.383913,-0.00451057,-0.00189943,-0.00508948,0.00118193,0.290012,-0.191501,0.000552004,0,0,0,0,0,0,0,0.013079,-0.19554,-0.331922,-1.65954,-0.0915549,1.48233,0.401466,0.000834514,0.00285613,-0.00317166,-7.41803e-05,0.0750381,0.000447063,0.000211094,0.384403,-26.06,2.23848,26.1813,1.24664,2.94701,-0.0365141,-0.722749,-0.251301,-0.335247,0.405073,-0.211709,-0.192733,-0.0581719,0.0159518,-0.365645,-0.305378,0.0570143,-0.266929,-0.0346543,
0.0127449,-0.195528,-0.332246,-1.65936,-0.0824101,-0.0953336,-0.383911,-0.00357256,-0.00197733,-0.00410447,0.00072197,0.294583,-0.195391,0.000532027,0,0,0,0,0,0,0,0.013079,-0.19554,-0.331922,-1.65954,-0.0915549,1.48233,0.401466,0.000834514,0.00285613,-0.00317166,-7.41803e-05,0.0750381,0.000447063,0.000211094,0.384403,-26.06,2.23848,26.1813,1.24664,2.94701,-0.0365141,-0.722749,-0.251301,-0.335247,0.405073,-0.211709,-0.192733,-0.0581719,0.0159518,-0.365645,-0.305378,0.0570143,-0.266929,-0.0346543,
0.012734,-0.195536,-0.332259,-1.65936,-0.0812174,-0.0961273,-0.383909,-0.00270806,-0.00198995,-0.00318632,0.00033027,0.29816,-0.198423,0.000511366,0,0,0,0,0,0,0,0.013079,-0.19554,-0.331922,-1.65954,-0.0915549,1.48233,0.401466,0.000834514,0.00285613,-0.00317166,-7.41803e-05,0.0750381,0.000447063,0.000211094,0.384403,-26.06,2.23848,26.1813,1.24664,2.94701,-0.0365141,-0.860666,-0.208854,-0.197898,0.414656,-0.383821,-0.19402,-0.0543468,-0.11089,-0.37548,-0.242912,0.120473,-0.273314,-0.0375063,
0.0127264,-0.195543,-0.332268,-1.65936,-0.0800138,-0.0969303,-0.383907,-0.00191782,-0.00195361,-0.0023397,-4.00569e-06,0.300922,-0.20074,0.000490808,0,0,0,0,0,0,0,0.013079,-0.19554,-0.331922,-1.65954,-0.0915549,1.48233,0.401466,0.000834514,0.00285613,-0.00317166,-7.41803e-05,0.0750381,0.000447063,0.000211094,0.384403,-26.06,2.23848,26.1813,1.24664,2.94701,-0.0365141,-0.707581,-0.104045,-0.325713,0.42389,-0.219723,-0.11849,0.0225216,0.00158028,-0.31129,-0.328588,0.189904,-0.29366,-0.0377209,
0.0127216,-0.195551,-0.332275,-1.65936,-0.0788017,-0.0977402,-0.383905,-0.0012,-0.00188165,-0.00156527,-0.000289621,0.30301,-0.202463,0.000470729,0,0,0,0,0,0,0,0.013069,-0.195568,-0.331933,-1.65952,-0.0884281,1.4823,0.401464,-5.10129e-05,0.000181232,0.000630483,-0.000163135,0.0997246,0.000857536,1.96317e-05,0.435978,-25.6593,2.21467,25.9076,1.29608,2.84722,-0.0163725,-0.707581,-0.104045,-0.325713,0.42389,-0.219723,-0.11849,0.0225216,0.00158028,-0.31129,-0.328588,0.189904,-0.29366,-0.0377209,
0.0127194,-0.195558,-0.332278,-1.65936,-0.0775836,-0.0985549,-0.383904,-0.000551138,-0.00178475,-0.000861148,-0.000533688,0.304537,-0.203693,0.000451426,0,0,0,0,0,0,0,0.013069,-0.195568,-0.331933,-1.65952,-0.0884281,1.4823,0.401464,-5.10129e-05,0.000181232,0.000630483,-0.000163135,0.0997246,0.000857536,1.96317e-05,0.435978,-25.6593,2.21467,25.9076,1.29608,2.84722,-0.0163725,-0.7846,0.147408,-0.291786,0.320392,-0.291314,-0.023055,0.114917,-0.0438938,-0.211103,-0.334513,0.283169,-0.324626,-0.0331496,
0.0127195,-0.195565,-0.332279,-1.65937,-0.0763612,-0.099373,-0.383902,3.30851e-05,-0.00167144,-0.000223928,-0.000742065,0.305593,-0.204515,0.000433147,0,0,0,0,0,0,0,0.013069,-0.195568,-0.331933,-1.65952,-0.0884281,1.4823,0.401464,-5.10129e-05,0.000181232,0.000630483,-0.000163135,0.0997246,0.000857536,1.96317e-05,0.435978,-25.6593,2.21467,25.9076,1.29608,2.84722,-0.0163725,-0.7846,0.147408,-0.291786,0.320392,-0.291314,-0.023055,0.114917,-0.0438938,-0.211103,-0.334513,0.283169,-0.324626,-0.0331496,
0.0127217,-0.195571,-0.332278,-1.65937,-0.0751362,-0.100193,-0.3839,0.000557425,-0.00154839,0.00035066,-0.000919618,0.30625,-0.204997,0.000415998,0,0,0,0,0,0,0,0.013069,-0.195568,-0.331933,-1.65952,-0.0884281,1.4823,0.401464,-5.10129e-05,0.000181232,0.000630483,-0.000163135,0.0997246,0.000857536,1.96317e-05,0.435978,-25.6593,2.21467,25.9076,1.29608,2.84722,-0.0163725,-1.05568,0.285522,-0.0922065,0.240076,-0.577515,-0.00901933,0.131464,-0.23956,-0.192249,-0.241181,0.337289,-0.340675,-0.0321913,
0.0127258,-0.195577,-0.332274,-1.65937,-0.0739099,-0.101014,-0.383899,0.00102676,-0.00142078,0.000867267,-0.00107043,0.30657,-0.205199,0.000399856,0,0,0,0,0,0,0,0.013069,-0.195568,-0.331933,-1.65952,-0.0884281,1.4823,0.401464,-5.10129e-05,0.000181232,0.000630483,-0.000163135,0.0997246,0.000857536,1.96317e-05,0.435978,-25.6593,2.21467,25.9076,1.29608,2.84722,-0.0163725,-0.722999,0.319712,-0.185597,0.292333,-0.283963,0.0668958,0.203835,-0.0574045,-0.127532,-0.337059,0.400416,-0.361354,-0.0337151,
0.0127316,-0.195582,-0.332269,-1.65938,-0.0726835,-0.101834,-0.383897,0.00144589,-0.00129255,0.00133067,-0.00119794,0.3066,-0.205167,0.000384775,0,0,0,0,0,0,0,0.013069,-0.195568,-0.331933,-1.65952,-0.0884281,1.4823,0.401464,-5.10129e-05,0.000181232,0.000630483,-0.000163135,0.0997246,0.000857536,1.96317e-05,0.435978,-25.6593,2.21467,25.9076,1.29608,2.84722,-0.0163725,-0.722999,0.319712,-0.185597,0.292333,-0.283963,0.0668958,0.203835,-0.0574045,-0.127532,-0.337059,0.400416,-0.361354,-0.0337151,
0.0127389,-0.195586,-0.332262,-1.65939,-0.071458,-0.102654,-0.383896,0.00181942,-0.00116664,0.00174553,-0.00130509,0.306383,-0.204943,0.000370663,0,0,0,0,0,0,0,0.0130867,-0.195566,-0.33192,-1.65952,-0.0847645,1.48226,0.401465,0.00218607,0.000500019,0.00272272,-0.000726431,0.103048,-0.0010161,-0.000495465,0.182071,-25.6871,2.06392,25.983,1.1615,2.76757,-0.0301054,-0.923587,0.242361,-0.061954,0.365046,-0.456199,-0.00419319,0.117428,-0.162456,-0.193081,-0.304377,0.422183,-0.398921,-0.0357243,
0.0127475,-0.195591,-0.332253,-1.65939,-0.0702342,-0.103472,-0.383894,0.00215167,-0.00104521,0.00211633,-0.00139439,0.305953,-0.204559,0.000357624,0,0,0,0,0,0,0,0.0130867,-0.195566,-0.33192,-1.65952,-0.0847645,1.48226,0.401465,0.00218607,0.000500019,0.00272272,-0.000726431,0.103048,-0.0010161,-0.000495465,0.182071,-25.6871,2.06392,25.983,1.1615,2.76757,-0.0301054,-0.923587,0.242361,-0.061954,0.365046,-0.456199,-0.00419319,0.117428,-0.162456,-0.193081,-0.304377,0.422183,-0.398921,-0.0357243,
0.0127573,-0.195594,-0.332244,-1.6594,-0.0690128,-0.104289,-0.383893,0.00244667,-0.000929747,0.0024473,-0.00146801,0.305339,-0.204042,0.000345437,0,0,0,0,0,0,0,0.0130867,-0.195566,-0.33192,-1.65952,-0.0847645,1.48226,0.401465,0.00218607,0.000500019,0.00272272,-0.000726431,0.103048,-0.0010161,-0.000495465,0.182071,-25.6871,2.06392,25.983,1.1615,2.76757,-0.0301054,-0.762403,0.180248,-0.0390512,0.423691,-0.317918,-0.00918483,0.0927333,-0.0770784,-0.188782,-0.340456,0.431502,-0.423444,-0.0331804,
0.0127681,-0.195598,-0.332233,-1.6594,-0.0677946,-0.105102,-0.383891,0.00270814,-0.000821264,0.00274233,-0.00152781,0.304566,-0.203415,0.000334034,0,0,0,0,0,0,0,0.0130867,-0.195566,-0.33192,-1.65952,-0.0847645,1.48226,0.401465,0.00218607,0.000500019,0.00272272,-0.000726431,0.103048,-0.0010161,-0.000495465,0.182071,-25.6871,2.06392,25.983,1.1615,2.76757,-0.0301054,-0.762403,0.180248,-0.0390512,0.423691,-0.317918,-0.00918483,0.0927333,-0.0770784,-0.188782,-0.340456,0.431502,-0.423444,-0.0331804,
0.0127799,-0.195601,-0.332221,-1.65941,-0.0665799,-0.105913,-0.38389,0.00293948,-0.000720373,0.00300503,-0.00157544,0.303654,-0.202698,0.000323507,0,0,0,0,0,0,0,0.0130867,-0.195566,-0.33192,-1.65952,-0.0847645,1.48226,0.401465,0.00218607,0.000500019,0.00272272,-0.000726431,0.103048,-0.0010161,-0.000495465,0.182071,-25.6871,2.06392,25.983,1.1615,2.76757,-0.0301054,-0.500099,0.188522,-0.0690913,0.453127,-0.0720408,0.0363526,0.122332,0.0820754,-0.13726,-0.422523,0.45469,-0.462432,-0.0308698,
0.0127925,-0.195603,-0.332208,-1.65942,-0.0653694,-0.106721,-0.383889,0.00314376,-0.000627385,0.00323867,-0.00161232,0.302622,-0.201904,0.000313679,0,0,0,0,0,0,0,0.0131186,-0.195596,-0.331883,-1.6595,-0.0806556,1.48208,0.401468,0.00305863,-0.00264203,0.00069715,0.000730449,0.138104,-0.0073845,0.000781138,-0.0440639,-25.3102,1.81398,25.7568,0.868527,2.77489,-0.0566557,-0.771488,0.0765957,0.174887,0.478691,-0.341016,-0.0633857,0.010764,-0.0956129,-0.222336,-0.32183,0.421454,-0.48497,-0.0317897,
0.0128057,-0.195605,-0.332194,-1.65942,-0.0641635,-0.107525,-0.383888,0.00332381,-0.000542379,0.00344626,-0.00163969,0.301486,-0.201048,0.000304447,0,0,0,0,0,0,0,0.0131186,-0.195596,-0.331883,-1.6595,-0.0806556,1.48208,0.401468,0.00305863,-0.00264203,0.00069715,0.000730449,0.138104,-0.0073845,0.000781138,-0.0440639,-25.3102,1.81398,25.7568,0.868527,2.77489,-0.0566557,-0.771488,0.0765957,0.174887,0.478691,-0.341016,-0.0633857,0.010764,-0.0956129,-0.222336,-0.32183,0.421454,-0.48497,-0.0317897,
0.0128197,-0.195607,-0.332179,-1.65943,-0.0629625,-0.108325,-0.383886,0.00348214,-0.000465264,0.00363049,-0.00165866,0.300258,-0.20014,0.000295832,0,0,0,0,0,0,0,0.0131186,-0.195596,-0.331883,-1.6595,-0.0806556,1.48208,0.401468,0.00305863,-0.00264203,0.00069715,0.000730449,0.138104,-0.0073845,0.000781138,-0.0440639,-25.3102,1.81398,25.7568,0.868527,2.77489,-0.0566557,-0.681707,-0.052216,0.0676844,0.565964,-0.189115,-0.107331,-0.0453499,0.0266185,-0.264008,-0.405517,0.382219,-0.516212,-0.0319172,
0.0128342,-0.195609,-0.332164,-1.65944,-0.0617667,-0.109122,-0.383885,0.00362103,-0.000395821,0.00379381,-0.00167017,0.29895,-0.199188,0.000287798,0,0,0,0,0,0,0,0.0131186,-0.195596,-0.331883,-1.6595,-0.0806556,1.48208,0.401468,0.00305863,-0.00264203,0.00069715,0.000730449,0.138104,-0.0073845,0.000781138,-0.0440639,-25.3102,1.81398,25.7568,0.868527,2.77489,-0.0566557,-0.681707,-0.052216,0.0676844,0.565964,-0.189115,-0.107331,-0.0453499,0.0266185,-0.264008,-0.405517,0.382219,-0.516212,-0.0319172,
0.0128471,-0.195411,-0.332073,-1.65917,-0.0886542,-0.0922013,-0.383901,-0.0268103,0.00901459,-0.0225265,0.0348632,0.519902,-0.421464,0.00327625,0,0,0,0,0,0,0,0.0131186,-0.195596,-0.331883,-1.6595,-0.0806556,1.48208,0.401468,0.00305863,-0.00264203,0.00069715,0.000730449,0.138104,-0.0073845,0.000781138,-0.0440639,-25.3102,1.81398,25.7568,0.868527,2.77489,-0.0566557,-0.65413,-0.0322218,0.14291,0.538431,-0.181419,-0.0964286,-0.0414149,0.0258577,-0.243377,-0.393549,0.37828,-0.529164,-0.0293357,
0.0128944,-0.195484,-0.332033,-1.65909,-0.0750414,-0.0923482,-0.383902,-0.0205101,0.00621163,-0.0165074,0.0326108,0.590965,-0.405572,0.00306308,0,0,0,0,0,0,0,0.0131173,-0.195579,-0.331883,-1.65949,-0.0757935,1.48191,0.401467,-0.000398963,-0.00151353,0.000714194,0.000741033,0.148172,-0.00369065,0.000222789,0.0551182,-25.5602,1.91316,25.8322,0.813595,2.79412,-0.0429228,-0.65413,-0.0322218,0.14291,0.538431,-0.181419,-0.0964286,-0.0414149,0.0258577,-0.243377,-0.393549,0.37828,-0.529164,-0.0293357,
0.0128179,-0.195477,-0.332099,-1.65898,-0.0723277,-0.0942594,-0.383888,-0.0191097,0.00168859,-0.0166363,0.0262219,0.678445,-0.477807,0.0033569,0,0,0,0,0,0,0,0.0131173,-0.195579,-0.331883,-1.65949,-0.0757935,1.48191,0.401467,-0.000398963,-0.00151353,0.000714194,0.000741033,0.148172,-0.00369065,0.000222789,0.0551182,-25.5602,1.91316,25.8322,0.813595,2.79412,-0.0429228,-0.924821,-0.159386,0.312071,0.577627,-0.441721,-0.200268,-0.143372,-0.144399,-0.345758,-0.299771,0.339963,-0.530323,-0.0301506,
0.0127513,-0.195485,-0.33216,-1.6589,-0.069337,-0.0963991,-0.383874,-0.0166566,-0.00203396,-0.0151881,0.0200682,0.747677,-0.53491,0.00351289,0,0,0,0,0,0,0,0.0131173,-0.195579,-0.331883,-1.65949,-0.0757935,1.48191,0.401467,-0.000398963,-0.00151353,0.000714194,0.000741033,0.148172,-0.00369065,0.000222789,0.0551182,-25.5602,1.91316,25.8322,0.813595,2.79412,-0.0429228,-0.924821,-0.159386,0.312071,0.577627,-0.441721,-0.200268,-0.143372,-0.144399,-0.345758,-0.299771,0.339963,-0.530323,-0.0301506,
0.0126967,-0.195504,-0.332211,-1.65884,-0.0661248,-0.0987195,-0.38386,-0.0136514,-0.00479993,-0.0128059,0.0146721,0.803026,-0.580107,0.00358705,0,0,0,0,0,0,0,0.0131173,-0.195579,-0.331883,-1.65949,-0.0757935,1.48191,0.401467,-0.000398963,-0.00151353,0.000714194,0.000741033,0.148172,-0.00369065,0.000222789,0.0551182,-25.5602,1.91316,25.8322,0.813595,2.79412,-0.0429228,-0.687884,-0.356804,0.295428,0.716782,-0.229687,-0.242612,-0.19122,-0.0118541,-0.397125,-0.352658,0.317897,-0.545644,-0.0352983,
0.0126551,-0.195531,-0.332251,-1.6588,-0.0627342,-0.101182,-0.383846,-0.0104013,-0.00670148,-0.00991118,0.0100818,0.847672,-0.615676,0.00360913,0,0,0,0,0,0,0,0.0131173,-0.195579,-0.331883,-1.65949,-0.0757935,1.48191,0.401467,-0.000398963,-0.00151353,0.000714194,0.000741033,0.148172,-0.00369065,0.000222789,0.0551182,-25.5602,1.91316,25.8322,0.813595,2.79412,-0.0429228,-0.487565,-0.681191,0.783707,0.897236,-0.25139,-0.352936,-0.291998,-0.101817,-0.527385,-0.200954,0.31439,-0.548933,-0.0335266,
0.0126267,-0.195563,-0.332278,-1.65878,-0.0591983,-0.103756,-0.383831,-0.00709931,-0.00789063,-0.00678153,0.00621399,0.88397,-0.643381,0.00359654,0,0,0,0,0,0,0,0.0131173,-0.195579,-0.331883,-1.65949,-0.0757935,1.48191,0.401467,-0.000398963,-0.00151353,0.000714194,0.000741033,0.148172,-0.00369065,0.000222789,0.0551182,-25.5602,1.91316,25.8322,0.813595,2.79412,-0.0429228,-0.487565,-0.681191,0.783707,0.897236,-0.25139,-0.352936,-0.291998,-0.101817,-0.527385,-0.200954,0.31439,-0.548933,-0.0335266,
0.0126112,-0.195597,-0.332292,-1.65876,-0.0555435,-0.106414,-0.383817,-0.00386665,-0.00851833,-0.00359811,0.00296117,0.913689,-0.664645,0.00356142,0,0,0,0,0,0,0,0.0130317,-0.19552,-0.331952,-1.65945,-0.0685864,1.4812,0.401468,-0.00433443,-0.00309486,-0.00494188,0.00607092,0.331329,-0.0603023,-0.000348403,0.816837,-26.0362,2.46461,25.983,1.62567,2.31072,-0.0163725,-0.110401,-0.971936,0.886881,1.16633,0.0231206,-0.413642,-0.328038,0.0433264,-0.641613,-0.248051,0.358257,-0.58597,-0.0317904,
0.0126081,-0.195632,-0.332294,-1.65876,-0.0517908,-0.109137,-0.383803,-0.000777379,-0.0087164,-0.000477062,0.000224133,0.93817,-0.680631,0.00351123,0,0,0,0,0,0,0,0.0130317,-0.19552,-0.331952,-1.65945,-0.0685864,1.4812,0.401468,-0.00433443,-0.00309486,-0.00494188,0.00607092,0.331329,-0.0603023,-0.000348403,0.816837,-26.0362,2.46461,25.983,1.62567,2.31072,-0.0163725,-0.110401,-0.971936,0.886881,1.16633,0.0231206,-0.413642,-0.328038,0.0433264,-0.641613,-0.248051,0.358257,-0.58597,-0.0317904,
0.0126166,-0.195666,-0.332284,-1.65877,-0.0479571,-0.111906,-0.383789,0.00212567,-0.00859436,0.0025099,-0.00208136,0.958439,-0.692296,0.00345188,0,0,0,0,0,0,0,0.0130317,-0.19552,-0.331952,-1.65945,-0.0685864,1.4812,0.401468,-0.00433443,-0.00309486,-0.00494188,0.00607092,0.331329,-0.0603023,-0.000348403,0.816837,-26.0362,2.46461,25.983,1.62567,2.31072,-0.0163725,-0.173192,-0.582419,1.15231,0.988485,-0.0576688,-0.238311,-0.130764,-0.0173794,-0.478744,-0.251641,0.492931,-0.700233,-0.0344865,
0.0126359,-0.195699,-0.332263,-1.65879,-0.0440559,-0.114708,-0.383775,0.00482069,-0.00824083,0.00532105,-0.0040249,0.975291,-0.700429,0.00338709,0,0,0,0,0,0,0,0.0130317,-0.19552,-0.331952,-1.65945,-0.0685864,1.4812,0.401468,-0.00433443,-0.00309486,-0.00494188,0.00607092,0.331329,-0.0603023,-0.000348403,0.816837,-26.0362,2.46461,25.983,1.62567,2.31072,-0.0163725,-0.601099,-0.436872,1.4076,0.923801,-0.447779,-0.24181,-0.116045,-0.265915,-0.493909,-0.164548,0.560577,-0.762126,-0.0335542,
0.0126651,-0.19573,-0.332231,-1.65881,-0.0400985,-0.11753,-0.383762,0.00729972,-0.0077263,0.00793489,-0.0056636,0.989345,-0.705676,0.00331901,0,0,0,0,0,0,0,0.0130317,-0.19552,-0.331952,-1.65945,-0.0685864,1.4812,0.401468,-0.00433443,-0.00309486,-0.00494188,0.00607092,0.331329,-0.0603023,-0.000348403,0.816837,-26.0362,2.46461,25.983,1.62567,2.31072,-0.0163725,-0.601099,-0.436872,1.4076,0.923801,-0.447779,-0.24181,-0.116045,-0.265915,-0.493909,-0.164548,0.560577,-0.762126,-0.0335542,
0.0127034,-0.195758,-0.33219,-1.65884,-0.0360942,-0.120365,-0.383749,0.0095639,-0.00710604,0.0103434,-0.00704428,1.00109,-0.70857,0.00325023,0,0,0,0,0,0,0,0.0125918,-0.195532,-0.332366,-1.65923,-0.048344,1.47646,0.40147,-0.0102488,0.0016805,-0.00672751,0.00201679,0.58687,-0.149559,1.10918e-05,1.27307,-25.8617,2.86134,25.7092,2.06512,1.85296,-0.0429228,-0.36127,-0.531793,1.56809,1.06259,-0.288471,-0.234252,-0.0923305,-0.188786,-0.52123,-0.19347,0.632345,-0.820438,-0.033285,
0.0127498,-0.195784,-0.332139,-1.65887,-0.0320506,-0.123203,-0.383736,0.0116201,-0.00642284,0.0125474,-0.00820566,1.01091,-0.709547,0.00318127,0,0,0,0,0,0,0,0.0125918,-0.195532,-0.332366,-1.65923,-0.048344,1.47646,0.40147,-0.0102488,0.0016805,-0.00672751,0.00201679,0.58687,-0.149559,1.10918e-05,1.27307,-25.8617,2.86134,25.7092,2.06512,1.85296,-0.0429228,-0.36127,-0.531793,1.56809,1.06259,-0.288471,-0.234252,-0.0923305,-0.188786,-0.52123,-0.19347,0.632345,-0.820438,-0.033285,
0.0128037,-0.195807,-0.332081,-1.65891,-0.0279741,-0.126039,-0.383724,0.0134788,-0.00570938,0.0145534,-0.00917984,1.01912,-0.708965,0.00311361,0,0,0,0,0,0,0,0.0125918,-0.195532,-0.332366,-1.65923,-0.048344,1.47646,0.40147,-0.0102488,0.0016805,-0.00672751,0.00201679,0.58687,-0.149559,1.10918e-05,1.27307,-25.8617,2.86134,25.7092,2.06512,1.85296,-0.0429228,-0.582388,-0.298609,1.83869,0.952519,-0.522407,-0.157104,-6.25679e-05,-0.349631,-0.451797,-0.134301,0.725555,-0.891391,-0.0345736,
0.0128644,-0.195827,-0.332016,-1.65895,-0.0238702,-0.128867,-0.383712,0.0151523,-0.00499008,0.016371,-0.00999343,1.02597,-0.707118,0.00304727,0,0,0,0,0,0,0,0.0125918,-0.195532,-0.332366,-1.65923,-0.048344,1.47646,0.40147,-0.0102488,0.0016805,-0.00672751,0.00201679,0.58687,-0.149559,1.10918e-05,1.27307,-25.8617,2.86134,25.7092,2.06512,1.85296,-0.0429228,-0.582388,-0.298609,1.83869,0.952519,-0.522407,-0.157104,-6.25679e-05,-0.349631,-0.451797,-0.134301,0.725555,-0.891391,-0.0345736,
0.012931,-0.195844,-0.331944,-1.65899,-0.0197435,-0.131684,-0.3837,0.0166537,-0.00428293,0.0180122,-0.0106688,1.03167,-0.704247,0.00298274,0,0,0,0,0,0,0,0.0125918,-0.195532,-0.332366,-1.65923,-0.048344,1.47646,0.40147,-0.0102488,0.0016805,-0.00672751,0.00201679,0.58687,-0.149559,1.10918e-05,1.27307,-25.8617,2.86134,25.7092,2.06512,1.85296,-0.0429228,-0.553967,0.0711643,1.83913,0.763275,-0.46717,0.0197641,0.183923,-0.303511,-0.27157,-0.196608,0.810079,-0.954377,-0.0314236,
0.013003,-0.195858,-0.331866,-1.65904,-0.0155979,-0.134486,-0.383688,0.0179967,-0.00360078,0.0194895,-0.0112248,1.03639,-0.700551,0.00292044,0,0,0,0,0,0,0,0.0125918,-0.195532,-0.332366,-1.65923,-0.048344,1.47646,0.40147,-0.0102488,0.0016805,-0.00672751,0.00201679,0.58687,-0.149559,1.10918e-05,1.27307,-25.8617,2.86134,25.7092,2.06512,1.85296,-0.0429228,-0.272733,0.827458,1.90201,0.330972,-0.241557,0.418156,0.588335,-0.169804,0.148857,-0.280828,0.962664,-1.03698,-0.0286471,
0.0130797,-0.19587,-0.331783,-1.65908,-0.0114369,-0.137271,-0.383677,0.0191944,-0.00295245,0.0208156,-0.0116773,1.04026,-0.696193,0.00286017,0,0,0,0,0,0,0,0.0122018,-0.195575,-0.332675,-1.65914,-0.0287046,1.47024,0.401468,-0.0122767,-0.00328966,-0.0105863,-0.00106437,0.632522,-0.211408,0.000405782,1.52698,-25.3856,3.0359,25.6815,2.15667,1.90606,-0.0429228,-0.272733,0.827458,1.90201,0.330972,-0.241557,0.418156,0.588335,-0.169804,0.148857,-0.280828,0.962664,-1.03698,-0.0286471,
0.0131608,-0.19588,-0.331695,-1.65913,-0.00726323,-0.140036,-0.383666,0.0202595,-0.00234369,0.0220033,-0.0120399,1.04341,-0.691307,0.00280202,0,0,0,0,0,0,0,0.0122018,-0.195575,-0.332675,-1.65914,-0.0287046,1.47024,0.401468,-0.0122767,-0.00328966,-0.0105863,-0.00106437,0.632522,-0.211408,0.000405782,1.52698,-25.3856,3.0359,25.6815,2.15667,1.90606,-0.0429228,-0.525819,0.499362,1.92482,0.617409,-0.403882,0.233971,0.41727,-0.250719,-0.0771611,-0.296481,0.977465,-1.0875,-0.0276693,
0.0132456,-0.195887,-0.331602,-1.65918,-0.00307951,-0.14278,-0.383655,0.021204,-0.00177787,0.0230645,-0.0123243,1.04593,-0.686004,0.00274607,0,0,0,0,0,0,0,0.0122018,-0.195575,-0.332675,-1.65914,-0.0287046,1.47024,0.401468,-0.0122767,-0.00328966,-0.0105863,-0.00106437,0.632522,-0.211408,0.000405782,1.52698,-25.3856,3.0359,25.6815,2.15667,1.90606,-0.0429228,-0.525819,0.499362,1.92482,0.617409,-0.403882,0.233971,0.41727,-0.250719,-0.0771611,-0.296481,0.977465,-1.0875,-0.0276693,
0.0133337,-0.195892,-0.331506,-1.65923,0.00111211,-0.145502,-0.383644,0.0220391,-0.00125659,0.0240107,-0.0125407,1.0479,-0.680372,0.0026921,0,0,0,0,0,0,0,0.0122018,-0.195575,-0.332675,-1.65914,-0.0287046,1.47024,0.401468,-0.0122767,-0.00328966,-0.0105863,-0.00106437,0.632522,-0.211408,0.000405782,1.52698,-25.3856,3.0359,25.6815,2.15667,1.90606,-0.0429228,-0.147936,0.115509,1.78274,0.916918,-0.029111,0.136911,0.330343,-0.00439945,-0.214774,-0.421155,0.946579,-1.10765,-0.0285744,
0.0134248,-0.195895,-0.331407,-1.65928,0.00530974,-0.1482,-0.383633,0.0227751,-0.000780132,0.0248524,-0.0126979,1.04941,-0.674487,0.00264034,0,0,0,0,0,0,0,0.0122018,-0.195575,-0.332675,-1.65914,-0.0287046,1.47024,0.401468,-0.0122767,-0.00328966,-0.0105863,-0.00106437,0.632522,-0.211408,0.000405782,1.52698,-25.3856,3.0359,25.6815,2.15667,1.90606,-0.0429228,-0.147936,0.115509,1.78274,0.916918,-0.029111,0.136911,0.330343,-0.00439945,-0.214774,-0.421155,0.946579,-1.10765,-0.0285744,
0.0135185,-0.195896,-0.331304,-1.65933,0.00951173,-0.150873,-0.383623,0.0234216,-0.000347768,0.0255996,-0.0128038,1.0505,-0.668405,0.00259,0,0,0,0,0,0,0,0.0118741,-0.195607,-0.33276,-1.65907,-0.00643232,1.46216,0.401466,-0.00957474,-0.000499349,-4.81419e-05,-5.6986e-05,0.71515,-0.266514,-0.000141169,1.34845,-25.1119,2.93672,25.4593,1.71081,2.17156,-0.0365141,-0.0756353,0.215931,1.70311,0.854274,0.0729533,0.200144,0.392281,0.0741137,-0.146138,-0.476042,0.946403,-1.12481,-0.0261407,
0.0136145,-0.195896,-0.331199,-1.65938,0.0137166,-0.153522,-0.383613,0.0239873,4.18715e-05,0.0262613,-0.0128653,1.05123,-0.662175,0.00254156,0,0,0,0,0,0,0,0.0118741,-0.195607,-0.33276,-1.65907,-0.00643232,1.46216,0.401466,-0.00957474,-0.000499349,-4.81419e-05,-5.6986e-05,0.71515,-0.266514,-0.000141169,1.34845,-25.1119,2.93672,25.4593,1.71081,2.17156,-0.0365141,-0.239316,-0.0240637,1.83677,0.935149,-0.126183,0.0692392,0.262196,-0.0705219,-0.275246,-0.360889,0.870865,-1.07522,-0.0268945,
0.0137124,-0.195894,-0.331092,-1.65944,0.0179232,-0.156146,-0.383603,0.0244801,0.000390737,0.0268457,-0.0128884,1.05164,-0.655834,0.00249458,0,0,0,0,0,0,0,0.0118741,-0.195607,-0.33276,-1.65907,-0.00643232,1.46216,0.401466,-0.00957474,-0.000499349,-4.81419e-05,-5.6986e-05,0.71515,-0.266514,-0.000141169,1.34845,-25.1119,2.93672,25.4593,1.71081,2.17156,-0.0365141,-0.239316,-0.0240637,1.83677,0.935149,-0.126183,0.0692392,0.262196,-0.0705219,-0.275246,-0.360889,0.870865,-1.07522,-0.0268945,
0.013812,-0.195892,-0.330983,-1.65949,0.0221303,-0.158743,-0.383593,0.0249072,0.000701103,0.0273604,-0.0128783,1.05178,-0.649413,0.00244925,0,0,0,0,0,0,0,0.0118741,-0.195607,-0.33276,-1.65907,-0.00643232,1.46216,0.401466,-0.00957474,-0.000499349,-4.81419e-05,-5.6986e-05,0.71515,-0.266514,-0.000141169,1.34845,-25.1119,2.93672,25.4593,1.71081,2.17156,-0.0365141,0.0989767,-0.0971587,1.68335,0.924814,0.195714,0.09984,0.28382,0.139701,-0.231302,-0.434976,0.787323,-1.04959,-0.0267534,
0.0137916,-0.195739,-0.331127,-1.65938,-0.0766979,-0.0942553,-0.383783,0.0788739,-0.0184569,0.0894203,0.00285568,0.418049,-0.636313,0.0121502,0,0,0,0,0,0,0,0.0118741,-0.195607,-0.33276,-1.65907,-0.00643232,1.46216,0.401466,-0.00957474,-0.000499349,-4.81419e-05,-5.6986e-05,0.71515,-0.266514,-0.000141169,1.34845,-25.1119,2.93672,25.4593,1.71081,2.17156,-0.0365141,0.0989767,-0.0971587,1.68335,0.924814,0.195714,0.09984,0.28382,0.139701,-0.231302,-0.434976,0.787323,-1.04959,-0.0267534,
0.0127038,-0.195819,-0.331903,-1.65914,0.00181821,-0.116053,-0.383774,0.0953825,-0.0234276,0.10313,-0.0122528,0.694999,-0.757866,0.0126858,0,0,0,0,0,0,0,0.0118741,-0.195607,-0.33276,-1.65907,-0.00643232,1.46216,0.401466,-0.00957474,-0.000499349,-4.81419e-05,-5.6986e-05,0.71515,-0.266514,-0.000141169,1.34845,-25.1119,2.93672,25.4593,1.71081,2.17156,-0.0365141,-0.318677,-0.0747505,1.73586,0.799494,-0.155043,0.0379744,0.199325,-0.0691066,-0.249424,-0.326786,0.698317,-1.0113,-0.0261075,
0.0131637,-0.195922,-0.331397,-1.65922,0.00468484,-0.119506,-0.383726,0.11498,-0.0257181,0.126507,-0.0196115,0.716657,-0.863241,0.0120509,0,0,0,0,0,0,0,0.0118651,-0.195562,-0.332736,-1.65908,0.0170112,1.45257,0.401468,-0.00037371,0.000430342,0.000500881,-0.00108443,0.805667,-0.338104,0.000239668,0.816837,-25.7109,2.66298,25.6815,1.52771,2.42333,-0.0566557,-0.318677,-0.0747505,1.73586,0.799494,-0.155043,0.0379744,0.199325,-0.0691066,-0.249424,-0.326786,0.698317,-1.0113,-0.0261075,
0.0136881,-0.196027,-0.330816,-1.65933,0.00765716,-0.123304,-0.383679,0.131105,-0.0261302,0.145417,-0.0266517,0.743081,-0.949528,0.0115256,0,0,0,0,0,0,0,0.0118651,-0.195562,-0.332736,-1.65908,0.0170112,1.45257,0.401468,-0.00037371,0.000430342,0.000500881,-0.00108443,0.805667,-0.338104,0.000239668,0.816837,-25.7109,2.66298,25.6815,1.52771,2.42333,-0.0566557,-0.771619,-0.137309,1.49331,0.784078,-0.442516,-0.0693801,0.0728248,-0.204059,-0.331103,-0.307758,0.613261,-0.954846,-0.027746,
0.0142662,-0.196127,-0.330172,-1.65946,0.010743,-0.127386,-0.383635,0.144517,-0.025181,0.160905,-0.0331666,0.771451,-1.02038,0.0110838,0,0,0,0,0,0,0,0.0118651,-0.195562,-0.332736,-1.65908,0.0170112,1.45257,0.401468,-0.00037371,0.000430342,0.000500881,-0.00108443,0.805667,-0.338104,0.000239668,0.816837,-25.7109,2.66298,25.6815,1.52771,2.42333,-0.0566557,-0.908783,-0.17641,1.21176,0.774684,-0.448123,-0.11929,0.0149183,-0.163284,-0.369081,-0.367575,0.53699,-0.924904,-0.0192356,
0.0148893,-0.19622,-0.329477,-1.65962,0.0139428,-0.131701,-0.383592,0.155775,-0.0232854,0.173734,-0.0390827,0.799955,-1.07868,0.0107022,0,0,0,0,0,0,0,0.0118651,-0.195562,-0.332736,-1.65908,0.0170112,1.45257,0.401468,-0.00037371,0.000430342,0.000500881,-0.00108443,0.805667,-0.338104,0.000239668,0.816837,-25.7109,2.66298,25.6815,1.52771,2.42333,-0.0566557,-0.908783,-0.17641,1.21176,0.774684,-0.448123,-0.11929,0.0149183,-0.163284,-0.369081,-0.367575,0.53699,-0.924904,-0.0192356,
0.0155505,-0.196303,-0.328739,-1.65979,0.0172527,-0.136207,-0.383551,0.165298,-0.0207625,0.184465,-0.0443866,0.827474,-1.12669,0.0103668,0,0,0,0,0,0,0,0.0118651,-0.195562,-0.332736,-1.65908,0.0170112,1.45257,0.401468,-0.00037371,0.000430342,0.000500881,-0.00108443,0.805667,-0.338104,0.000239668,0.816837,-25.7109,2.66298,25.6815,1.52771,2.42333,-0.0566557,-1.08898,-1.19801,1.44681,1.19611,-0.682156,-0.619894,-0.509722,-0.336841,-0.855342,-0.155377,0.215631,-0.805139,-0.0109929,
0.0162441,-0.196375,-0.327965,-1.65999,0.0206661,-0.140872,-0.383511,0.173402,-0.0178525,0.193512,-0.0490944,0.853355,-1.16626,0.0100647,0,0,0,0,0,0,0,0.0126001,-0.195601,-0.331785,-1.65913,0.0374132,1.44169,0.401469,0.0396014,-0.00498269,0.0527024,-0.000306931,0.569827,-0.37727,0.000106153,1.72931,-25.2348,3.98805,25.4831,0.850216,2.09832,-0.0227812,-1.08898,-1.19801,1.44681,1.19611,-0.682156,-0.619894,-0.509722,-0.336841,-0.855342,-0.155377,0.215631,-0.805139,-0.0109929,
0.0169654,-0.196434,-0.327161,-1.6602,0.0241751,-0.145668,-0.383471,0.180328,-0.0147341,0.20119,-0.0532377,0.877256,-1.19886,0.00978807,0,0,0,0,0,0,0,0.0126001,-0.195601,-0.331785,-1.65913,0.0374132,1.44169,0.401469,0.0396014,-0.00498269,0.0527024,-0.000306931,0.569827,-0.37727,0.000106153,1.72931,-25.2348,3.98805,25.4831,0.850216,2.09832,-0.0227812,-0.863476,-1.64652,1.20574,1.36267,-0.389609,-0.783321,-0.694522,-0.118318,-1.00137,-0.236827,0.00164715,-0.762174,-0.00935931,
0.0177105,-0.19648,-0.32633,-1.66043,0.0277713,-0.150571,-0.383433,0.186263,-0.0115386,0.207735,-0.0568553,0.899036,-1.22572,0.00952956,0,0,0,0,0,0,0,0.0126001,-0.195601,-0.331785,-1.65913,0.0374132,1.44169,0.401469,0.0396014,-0.00498269,0.0527024,-0.000306931,0.569827,-0.37727,0.000106153,1.72931,-25.2348,3.98805,25.4831,0.850216,2.09832,-0.0227812,-0.756563,-0.615431,1.43238,0.5175,-0.360934,-0.287822,-0.234693,-0.116764,-0.38772,-0.18112,-0.00106355,-0.797155,-0.0116768,
0.0184759,-0.196514,-0.325476,-1.66067,0.0314461,-0.155546,-0.383396,0.191361,-0.00860589,0.213375,-0.0607645,0.918705,-1.24391,0.00930684,0,0,0,0,0,0,0,0.0126001,-0.195601,-0.331785,-1.65913,0.0374132,1.44169,0.401469,0.0396014,-0.00498269,0.0527024,-0.000306931,0.569827,-0.37727,0.000106153,1.72931,-25.2348,3.98805,25.4831,0.850216,2.09832,-0.0227812,-0.756563,-0.615431,1.43238,0.5175,-0.360934,-0.287822,-0.234693,-0.116764,-0.38772,-0.18112,-0.00106355,-0.797155,-0.0116768,
0.019259,-0.196539,-0.324603,-1.66094,0.0351915,-0.160539,-0.38336,0.195766,-0.006192,0.218282,-0.0658177,0.936363,-1.24815,0.00913012,0,0,0,0,0,0,0,0.0126001,-0.195601,-0.331785,-1.65913,0.0374132,1.44169,0.401469,0.0396014,-0.00498269,0.0527024,-0.000306931,0.569827,-0.37727,0.000106153,1.72931,-25.2348,3.98805,25.4831,0.850216,2.09832,-0.0227812,-0.776963,-0.104733,1.24415,0.217742,-0.245726,-0.0522956,-0.0029032,0.00705576,-0.128577,-0.324346,0.051174,-0.881665,-0.00895034,
0.0200573,-0.196554,-0.323713,-1.66122,0.0389999,-0.165516,-0.383324,0.199569,-0.00363487,0.222446,-0.0702427,0.95208,-1.24415,0.00895207,0,0,0,0,0,0,0,0.0141471,-0.195703,-0.330026,-1.65908,0.0552422,1.4274,0.401464,0.0559144,-0.00369219,0.0747066,-0.00575708,0.568983,-0.505089,-0.000599374,2.13398,-25.3856,4.18641,24.884,1.79046,1.58745,-0.0026396,-0.776963,-0.104733,1.24415,0.217742,-0.245726,-0.0522956,-0.0029032,0.00705576,-0.128577,-0.324346,0.051174,-0.881665,-0.00895034,
0.0208685,-0.196557,-0.322809,-1.66151,0.0428636,-0.170455,-0.383289,0.202821,-0.000918149,0.225983,-0.0737349,0.96594,-1.23483,0.00877329,0,0,0,0,0,0,0,0.0141471,-0.195703,-0.330026,-1.65908,0.0552422,1.4274,0.401464,0.0559144,-0.00369219,0.0747066,-0.00575708,0.568983,-0.505089,-0.000599374,2.13398,-25.3856,4.18641,24.884,1.79046,1.58745,-0.0026396,-1.08109,-0.642731,0.880129,0.658708,-0.290201,-0.338462,-0.274694,0.0590229,-0.472367,-0.473462,-0.00169365,-0.921179,-0.00689757,
0.0216909,-0.19655,-0.321893,-1.66182,0.0467759,-0.175343,-0.383254,0.205586,0.00184392,0.22899,-0.0763744,0.978062,-1.22191,0.00859661,0,0,0,0,0,0,0,0.0141471,-0.195703,-0.330026,-1.65908,0.0552422,1.4274,0.401464,0.0559144,-0.00369219,0.0747066,-0.00575708,0.568983,-0.505089,-0.000599374,2.13398,-25.3856,4.18641,24.884,1.79046,1.58745,-0.0026396,-1.08109,-0.642731,0.880129,0.658708,-0.290201,-0.338462,-0.274694,0.0590229,-0.472367,-0.473462,-0.00169365,-0.921179,-0.00689757,
0.0225226,-0.196532,-0.320967,-1.66213,0.0507302,-0.180169,-0.383221,0.207923,0.00454301,0.231544,-0.0783136,0.988587,-1.20652,0.00842368,0,0,0,0,0,0,0,0.0141471,-0.195703,-0.330026,-1.65908,0.0552422,1.4274,0.401464,0.0559144,-0.00369219,0.0747066,-0.00575708,0.568983,-0.505089,-0.000599374,2.13398,-25.3856,4.18641,24.884,1.79046,1.58745,-0.0026396,-1.51222,-0.758197,0.905598,0.71195,-0.585625,-0.447153,-0.381398,-0.0935375,-0.583054,-0.44998,-0.0474707,-0.957156,-0.00930937,
0.0233621,-0.196503,-0.320032,-1.66245,0.0547209,-0.184926,-0.383188,0.20988,0.00710351,0.233702,-0.0796945,0.997671,-1.18943,0.00825445,0,0,0,0,0,0,0,0.0141471,-0.195703,-0.330026,-1.65908,0.0552422,1.4274,0.401464,0.0559144,-0.00369219,0.0747066,-0.00575708,0.568983,-0.505089,-0.000599374,2.13398,-25.3856,4.18641,24.884,1.79046,1.58745,-0.0026396,-2.06109,-1.05272,0.797673,0.977879,-0.870772,-0.654855,-0.585116,-0.199201,-0.822261,-0.529785,-0.0597789,-1.05634,-0.00767771,
0.0242081,-0.196466,-0.31909,-1.66277,0.0587428,-0.189611,-0.383155,0.211501,0.00948012,0.235511,-0.0806322,1.00546,-1.17115,0.00808888,0,0,0,0,0,0,0,0.0141471,-0.195703,-0.330026,-1.65908,0.0552422,1.4274,0.401464,0.0559144,-0.00369219,0.0747066,-0.00575708,0.568983,-0.505089,-0.000599374,2.13398,-25.3856,4.18641,24.884,1.79046,1.58745,-0.0026396,-2.06109,-1.05272,0.797673,0.977879,-0.870772,-0.654855,-0.585116,-0.199201,-0.822261,-0.529785,-0.0597789,-1.05634,-0.00767771,
0.0250594,-0.196419,-0.318142,-1.6631,0.0627912,-0.194219,-0.383124,0.212821,0.01165,0.237009,-0.081217,1.0121,-1.1521,0.00792734,0,0,0,0,0,0,0,0.0164491,-0.195802,-0.327218,-1.65913,0.0751826,1.40912,0.401468,0.0801309,0.00218056,0.105131,-0.0102526,0.625788,-0.576332,-0.000728635,1.85627,-24.9135,3.8611,24.9118,2.33429,1.62774,-0.00996382,-2.13085,-0.830791,0.822143,0.964233,-0.924134,-0.558908,-0.487687,-0.231027,-0.741032,-0.568329,0.0946885,-1.11495,-0.0071412,
0.0259149,-0.196364,-0.317189,-1.66342,0.0668621,-0.198749,-0.383092,0.213871,0.0136063,0.238228,-0.0815179,1.01773,-1.13252,0.00776961,0,0,0,0,0,0,0,0.0164491,-0.195802,-0.327218,-1.65913,0.0751826,1.40912,0.401468,0.0801309,0.00218056,0.105131,-0.0102526,0.625788,-0.576332,-0.000728635,1.85627,-24.9135,3.8611,24.9118,2.33429,1.62774,-0.00996382,-2.13085,-0.830791,0.822143,0.964233,-0.924134,-0.558908,-0.487687,-0.231027,-0.741032,-0.568329,0.0946885,-1.11495,-0.0071412,
0.0267736,-0.196303,-0.316232,-1.66375,0.0709519,-0.2032,-0.383062,0.21468,0.0153515,0.239198,-0.0815892,1.02245,-1.11264,0.00761666,0,0,0,0,0,0,0,0.0164491,-0.195802,-0.327218,-1.65913,0.0751826,1.40912,0.401468,0.0801309,0.00218056,0.105131,-0.0102526,0.625788,-0.576332,-0.000728635,1.85627,-24.9135,3.8611,24.9118,2.33429,1.62774,-0.00996382,-1.82092,-0.386246,0.589356,0.817469,-0.615048,-0.3083,-0.245229,-0.0252901,-0.489101,-0.720405,0.263986,-1.14974,-0.00651293,
0.0276347,-0.196236,-0.315273,-1.66408,0.0750574,-0.20757,-0.383032,0.215272,0.0168949,0.239943,-0.0814733,1.02637,-1.09259,0.00746721,0,0,0,0,0,0,0,0.0164491,-0.195802,-0.327218,-1.65913,0.0751826,1.40912,0.401468,0.0801309,0.00218056,0.105131,-0.0102526,0.625788,-0.576332,-0.000728635,1.85627,-24.9135,3.8611,24.9118,2.33429,1.62774,-0.00996382,-1.82092,-0.386246,0.589356,0.817469,-0.615048,-0.3083,-0.245229,-0.0252901,-0.489101,-0.720405,0.263986,-1.14974,-0.00651293,
0.0284974,-0.196163,-0.314311,-1.6644,0.0791757,-0.21186,-0.383003,0.215669,0.0182488,0.240486,-0.0812041,1.02959,-1.07248,0.00732163,0,0,0,0,0,0,0,0.0164491,-0.195802,-0.327218,-1.65913,0.0751826,1.40912,0.401468,0.0801309,0.00218056,0.105131,-0.0102526,0.625788,-0.576332,-0.000728635,1.85627,-24.9135,3.8611,24.9118,2.33429,1.62774,-0.00996382,-1.68675,0.361313,0.415293,0.432153,-0.46232,0.0518061,0.105819,0.0851339,-0.101985,-0.829577,0.440761,-1.19094,-0.00866764,
0.0293609,-0.196085,-0.313347,-1.66472,0.0833045,-0.21607,-0.382974,0.215891,0.0194278,0.240847,-0.080808,1.03219,-1.05239,0.00717824,0,0,0,0,0,0,0,0.0191491,-0.195797,-0.323201,-1.6594,0.0950953,1.38894,0.401466,0.0867997,0.00272968,0.129158,-0.0127034,0.585163,-0.623752,-0.00115356,1.75708,-24.9611,3.58735,24.7095,2.68219,1.68725,0.00376909,-1.84885,0.696342,0.348484,0.323329,-0.635488,0.162068,0.21267,-0.0344191,0.00897343,-0.80278,0.600657,-1.16213,-0.00803681,
0.0302247,-0.196003,-0.312383,-1.66505,0.0874414,-0.220199,-0.382946,0.215957,0.0204469,0.241045,-0.0803071,1.03423,-1.03237,0.00703997,0,0,0,0,0,0,0,0.0191491,-0.195797,-0.323201,-1.6594,0.0950953,1.38894,0.401466,0.0867997,0.00272968,0.129158,-0.0127034,0.585163,-0.623752,-0.00115356,1.75708,-24.9611,3.58735,24.7095,2.68219,1.68725,0.00376909,-1.84885,0.696342,0.348484,0.323329,-0.635488,0.162068,0.21267,-0.0344191,0.00897343,-0.80278,0.600657,-1.16213,-0.00803681,
0.0310883,-0.195918,-0.311419,-1.66536,0.0915846,-0.224249,-0.382918,0.215882,0.0213209,0.241095,-0.079719,1.03579,-1.01247,0.00690379,0,0,0,0,0,0,0,0.0191491,-0.195797,-0.323201,-1.6594,0.0950953,1.38894,0.401466,0.0867997,0.00272968,0.129158,-0.0127034,0.585163,-0.623752,-0.00115356,1.75708,-24.9611,3.58735,24.7095,2.68219,1.68725,0.00376909,-1.70766,0.870773,0.203462,0.322697,-0.584792,0.242289,0.307317,-0.033546,0.0642409,-0.795123,0.742392,-1.08306,-0.00715822,
0.031951,-0.195829,-0.310455,-1.66568,0.0957322,-0.22822,-0.382891,0.215683,0.0220645,0.241015,-0.0790583,1.03691,-0.992714,0.00677156,0,0,0,0,0,0,0,0.0191491,-0.195797,-0.323201,-1.6594,0.0950953,1.38894,0.401466,0.0867997,0.00272968,0.129158,-0.0127034,0.585163,-0.623752,-0.00115356,1.75708,-24.9611,3.58735,24.7095,2.68219,1.68725,0.00376909,-1.70766,0.870773,0.203462,0.322697,-0.584792,0.242289,0.307317,-0.033546,0.0642409,-0.795123,0.742392,-1.08306,-0.00715822,
0.0134494,-0.196185,-0.331151,-1.65969,0.000486056,-0.115693,-0.38376,0.177614,-0.0576159,0.19048,-0.0636596,0.556817,-0.728301,0.0138775,0,0,0,0,0,0,0,0.0191491,-0.195797,-0.323201,-1.6594,0.0950953,1.38894,0.401466,0.0867997,0.00272968,0.129158,-0.0127034,0.585163,-0.623752,-0.00115356,1.75708,-24.9611,3.58735,24.7095,2.68219,1.68725,0.00376909,-1.83111,0.870851,-0.227808,0.481288,-0.563287,0.207961,0.283295,0.0242227,-0.00906079,-0.925249,0.84784,-1.06262,-0.00872788,
0.0214926,-0.196218,-0.320649,-1.66027,0.10184,-0.19141,-0.383769,0.228675,-0.0405196,0.251687,-0.0856778,0.575666,-0.881491,0.0131271,0,0,0,0,0,0,0,0.0191491,-0.195797,-0.323201,-1.6594,0.0950953,1.38894,0.401466,0.0867997,0.00272968,0.129158,-0.0127034,0.585163,-0.623752,-0.00115356,1.75708,-24.9611,3.58735,24.7095,2.68219,1.68725,0.00376909,-1.83111,0.870851,-0.227808,0.481288,-0.563287,0.207961,0.283295,0.0242227,-0.00906079,-0.925249,0.84784,-1.06262,-0.00872788,
0.0225057,-0.196377,-0.319526,-1.66064,0.104259,-0.195219,-0.383719,0.253285,-0.0399661,0.280669,-0.0921643,0.604822,-0.952222,0.0125758,0,0,0,0,0,0,0,0.0224034,-0.195738,-0.318847,-1.65985,0.11354,1.36831,0.401472,0.109136,0.00565195,0.149682,-0.0211466,0.573473,-0.629653,0.000924508,1.63013,-25.4848,3.46437,25.0348,2.68219,1.95275,-0.0429228,-1.88986,1.22609,-0.27306,0.24251,-0.711658,0.334179,0.403918,-0.10234,0.143297,-0.822826,0.916079,-0.954372,-0.00789403,
0.0235998,-0.196528,-0.318309,-1.66103,0.106815,-0.199266,-0.383671,0.27352,-0.0376529,0.304247,-0.0973916,0.638963,-1.01164,0.0120881,0,0,0,0,0,0,0,0.0224034,-0.195738,-0.318847,-1.65985,0.11354,1.36831,0.401472,0.109136,0.00565195,0.149682,-0.0211466,0.573473,-0.629653,0.000924508,1.63013,-25.4848,3.46437,25.0348,2.68219,1.95275,-0.0429228,-1.55575,2.9569,-0.606866,-0.96057,-0.405658,1.1521,1.20505,0.10807,1.08054,-0.924346,1.04784,-0.925373,-0.00878356,
0.0247611,-0.196666,-0.317015,-1.66144,0.109515,-0.20351,-0.383624,0.290329,-0.034403,0.323632,-0.101932,0.674987,-1.06114,0.011651,0,0,0,0,0,0,0,0.0224034,-0.195738,-0.318847,-1.65985,0.11354,1.36831,0.401472,0.109136,0.00565195,0.149682,-0.0211466,0.573473,-0.629653,0.000924508,1.63013,-25.4848,3.46437,25.0348,2.68219,1.95275,-0.0429228,-1.55575,2.9569,-0.606866,-0.96057,-0.405658,1.1521,1.20505,0.10807,1.08054,-0.924346,1.04784,-0.925373,-0.00878356,
0.0259787,-0.196788,-0.315656,-1.66186,0.112359,-0.207919,-0.383579,0.304389,-0.0306663,0.339706,-0.105951,0.710912,-1.10225,0.0112518,0,0,0,0,0,0,0,0.0224034,-0.195738,-0.318847,-1.65985,0.11354,1.36831,0.401472,0.109136,0.00565195,0.149682,-0.0211466,0.573473,-0.629653,0.000924508,1.63013,-25.4848,3.46437,25.0348,2.68219,1.95275,-0.0429228,-2.40963,2.21451,-0.284676,-0.613561,-1.21955,0.682861,0.720804,-0.423022,0.61604,-0.621712,0.877159,-0.830257,-0.00716117,
0.027244,-0.196898,-0.314243,-1.66231,0.115341,-0.212425,-0.383535,0.316326,-0.0273831,0.35329,-0.111406,0.745483,-1.1265,0.0109402,0,0,0,0,0,0,0,0.0224034,-0.195738,-0.318847,-1.65985,0.11354,1.36831,0.401472,0.109136,0.00565195,0.149682,-0.0211466,0.573473,-0.629653,0.000924508,1.63013,-25.4848,3.46437,25.0348,2.68219,1.95275,-0.0429228,-2.40963,2.21451,-0.284676,-0.613561,-1.21955,0.682861,0.720804,-0.423022,0.61604,-0.621712,0.877159,-0.830257,-0.00716117,
0.0285499,-0.196994,-0.312784,-1.66278,0.118453,-0.216978,-0.383493,0.32647,-0.0239856,0.364726,-0.116641,0.777969,-1.13822,0.010639,0,0,0,0,0,0,0,0.0279889,-0.195905,-0.312235,-1.66127,0.132505,1.34339,0.401472,0.138071,-0.0115707,0.1873,-0.044115,0.378317,-0.552103,0.000830193,2.08637,-24.9135,3.91267,24.9356,2.33429,2.02508,-0.050247,-2.06184,0.624997,-0.375913,0.312233,-0.969149,0.0191242,0.0822789,-0.301073,-0.134052,-0.566455,0.572453,-0.669446,-0.00255361,
0.0298902,-0.197075,-0.311286,-1.66326,0.121684,-0.221538,-0.383452,0.335077,-0.0204095,0.374368,-0.121155,0.807959,-1.14,0.0103334,0,0,0,0,0,0,0,0.0279889,-0.195905,-0.312235,-1.66127,0.132505,1.34339,0.401472,0.138071,-0.0115707,0.1873,-0.044115,0.378317,-0.552103,0.000830193,2.08637,-24.9135,3.91267,24.9356,2.33429,2.02508,-0.050247,-1.86186,0.344613,-0.72828,0.471445,-0.687774,-0.0744831,-0.00925747,-0.0891908,-0.241525,-0.688037,0.473946,-0.630704,-0.00353263,
0.0312599,-0.197144,-0.309756,-1.66376,0.125025,-0.226052,-0.383411,0.342434,-0.0171171,0.3826,-0.125907,0.835254,-1.1284,0.0100808,0,0,0,0,0,0,0,0.0279889,-0.195905,-0.312235,-1.66127,0.132505,1.34339,0.401472,0.138071,-0.0115707,0.1873,-0.044115,0.378317,-0.552103,0.000830193,2.08637,-24.9135,3.91267,24.9356,2.33429,2.02508,-0.050247,-1.86186,0.344613,-0.72828,0.471445,-0.687774,-0.0744831,-0.00925747,-0.0891908,-0.241525,-0.688037,0.473946,-0.630704,-0.00353263,
0.0326545,-0.197198,-0.308198,-1.66428,0.128465,-0.230491,-0.383372,0.34865,-0.0136172,0.389523,-0.129481,0.859831,-1.10968,0.00983443,0,0,0,0,0,0,0,0.0279889,-0.195905,-0.312235,-1.66127,0.132505,1.34339,0.401472,0.138071,-0.0115707,0.1873,-0.044115,0.378317,-0.552103,0.000830193,2.08637,-24.9135,3.91267,24.9356,2.33429,2.02508,-0.050247,-1.86837,0.287334,-0.605113,0.486473,-0.724405,-0.0954077,-0.0480446,-0.123275,-0.24592,-0.650422,0.463712,-0.638694,-0.00406847,
0.0340699,-0.197238,-0.306617,-1.66481,0.131992,-0.234838,-0.383334,0.353845,-0.00999961,0.395317,-0.131825,0.881765,-1.08691,0.00959303,0,0,0,0,0,0,0,0.0279889,-0.195905,-0.312235,-1.66127,0.132505,1.34339,0.401472,0.138071,-0.0115707,0.1873,-0.044115,0.378317,-0.552103,0.000830193,2.08637,-24.9135,3.91267,24.9356,2.33429,2.02508,-0.050247,-1.86837,0.287334,-0.605113,0.486473,-0.724405,-0.0954077,-0.0480446,-0.123275,-0.24592,-0.650422,0.463712,-0.638694,-0.00406847,
0.0355025,-0.197264,-0.305016,-1.66534,0.135597,-0.239085,-0.383296,0.358143,-0.0064313,0.400139,-0.133178,0.901196,-1.06179,0.00935926,0,0,0,0,0,0,0,0.0327348,-0.19601,-0.306074,-1.66254,0.14563,1.32566,0.401471,0.155521,-0.00107749,0.217016,-0.0429014,0.483482,-0.563766,0.000828434,2.49103,-25.2348,4.2856,24.7095,2.40753,1.70739,-0.0365141,-2.4921,-0.102143,-0.837401,0.677663,-1.0745,-0.343629,-0.285668,-0.269123,-0.509261,-0.671228,0.314892,-0.640878,-0.00629423,
0.0369491,-0.197276,-0.3034,-1.66588,0.13927,-0.243227,-0.38326,0.361656,-0.00303998,0.404119,-0.133784,0.918303,-1.03536,0.0091361,0,0,0,0,0,0,0,0.0327348,-0.19601,-0.306074,-1.66254,0.14563,1.32566,0.401471,0.155521,-0.00107749,0.217016,-0.0429014,0.483482,-0.563766,0.000828434,2.49103,-25.2348,4.2856,24.7095,2.40753,1.70739,-0.0365141,-2.4921,-0.102143,-0.837401,0.677663,-1.0745,-0.343629,-0.285668,-0.269123,-0.509261,-0.671228,0.314892,-0.640878,-0.00629423,
0.038407,-0.197276,-0.30177,-1.66641,0.143003,-0.24726,-0.383224,0.364483,9.77759e-05,0.407363,-0.13384,0.93328,-1.00825,0.00892252,0,0,0,0,0,0,0,0.0327348,-0.19601,-0.306074,-1.66254,0.14563,1.32566,0.401471,0.155521,-0.00107749,0.217016,-0.0429014,0.483482,-0.563766,0.000828434,2.49103,-25.2348,4.2856,24.7095,2.40753,1.70739,-0.0365141,-1.8671,-0.192312,-1.30288,0.682692,-0.380082,-0.273027,-0.2163,0.216695,-0.437216,-0.921212,0.192717,-0.644551,-0.00748306,
0.0398738,-0.197264,-0.30013,-1.66695,0.146788,-0.251183,-0.383189,0.366706,0.00294518,0.409963,-0.133487,0.946325,-0.980886,0.00871881,0,0,0,0,0,0,0,0.0327348,-0.19601,-0.306074,-1.66254,0.14563,1.32566,0.401471,0.155521,-0.00107749,0.217016,-0.0429014,0.483482,-0.563766,0.000828434,2.49103,-25.2348,4.2856,24.7095,2.40753,1.70739,-0.0365141,-2.59166,0.205417,-1.22967,0.361859,-0.864983,-0.166405,-0.11556,-0.0208205,-0.289265,-0.905558,0.173287,-0.751529,-0.00548612,
0.0413474,-0.197242,-0.298482,-1.66748,0.150619,-0.254997,-0.383155,0.368397,0.00549194,0.411996,-0.132829,0.957627,-0.953516,0.00852518,0,0,0,0,0,0,0,0.0327348,-0.19601,-0.306074,-1.66254,0.14563,1.32566,0.401471,0.155521,-0.00107749,0.217016,-0.0429014,0.483482,-0.563766,0.000828434,2.49103,-25.2348,4.2856,24.7095,2.40753,1.70739,-0.0365141,-2.59166,0.205417,-1.22967,0.361859,-0.864983,-0.166405,-0.11556,-0.0208205,-0.289265,-0.905558,0.173287,-0.751529,-0.00548612,
0.0428259,-0.197211,-0.296828,-1.66801,0.154488,-0.258703,-0.383121,0.36962,0.00774464,0.413529,-0.131939,0.967364,-0.926311,0.00833924,0,0,0,0,0,0,0,0.0327348,-0.19601,-0.306074,-1.66254,0.14563,1.32566,0.401471,0.155521,-0.00107749,0.217016,-0.0429014,0.483482,-0.563766,0.000828434,2.49103,-25.2348,4.2856,24.7095,2.40753,1.70739,-0.0365141,-2.71814,0.526145,-1.09983,0.166324,-0.959372,-0.0201424,0.0309421,-0.0705304,-0.128268,-0.908834,0.235701,-0.823781,-0.00631729,
0.0443076,-0.197172,-0.29517,-1.66853,0.158391,-0.2623,-0.383089,0.370429,0.00971896,0.41462,-0.130872,0.975699,-0.899377,0.00816337,0,0,0,0,0,0,0,0.0384066,-0.196082,-0.299025,-1.66411,0.16339,1.30773,0.401467,0.195229,0.0022924,0.234634,-0.0528579,0.556059,-0.531487,-0.000602472,2.59418,-25.0881,4.26179,24.761,2.7005,1.74676,-0.0026396,-2.71814,0.526145,-1.09983,0.166324,-0.959372,-0.0201424,0.0309421,-0.0705304,-0.128268,-0.908834,0.235701,-0.823781,-0.00631729,
0.0457911,-0.197127,-0.293508,-1.66905,0.162322,-0.265791,-0.383057,0.370872,0.011436,0.41532,-0.129668,0.982784,-0.87278,0.00799447,0,0,0,0,0,0,0,0.0384066,-0.196082,-0.299025,-1.66411,0.16339,1.30773,0.401467,0.195229,0.0022924,0.234634,-0.0528579,0.556059,-0.531487,-0.000602472,2.59418,-25.0881,4.26179,24.761,2.7005,1.74676,-0.0026396,-2.93196,0.123356,-0.689557,0.468174,-1.29753,-0.233209,-0.175237,-0.345215,-0.373764,-0.72336,0.279715,-0.804838,-0.00279639,
0.0472751,-0.197075,-0.291846,-1.66956,0.166277,-0.269178,-0.383026,0.370993,0.0129186,0.415675,-0.128357,0.988754,-0.84656,0.00783425,0,0,0,0,0,0,0,0.0384066,-0.196082,-0.299025,-1.66411,0.16339,1.30773,0.401467,0.195229,0.0022924,0.234634,-0.0528579,0.556059,-0.531487,-0.000602472,2.59418,-25.0881,4.26179,24.761,2.7005,1.74676,-0.0026396,-2.91584,-0.469041,-1.06774,1.01603,-1.09642,-0.498388,-0.426954,-0.166273,-0.714516,-0.922066,0.308376,-0.842966,-0.00221888,
0.0487584,-0.197018,-0.290183,-1.67007,0.170252,-0.272461,-0.382995,0.370829,0.0141902,0.415725,-0.126962,0.993733,-0.82074,0.00767864,0,0,0,0,0,0,0,0.0384066,-0.196082,-0.299025,-1.66411,0.16339,1.30773,0.401467,0.195229,0.0022924,0.234634,-0.0528579,0.556059,-0.531487,-0.000602472,2.59418,-25.0881,4.26179,24.761,2.7005,1.74676,-0.0026396,-2.91584,-0.469041,-1.06774,1.01603,-1.09642,-0.498388,-0.426954,-0.166273,-0.714516,-0.922066,0.308376,-0.842966,-0.00221888,
0.0502401,-0.196957,-0.288521,-1.67057,0.174243,-0.275642,-0.382965,0.370415,0.0152727,0.415505,-0.1255,0.997831,-0.795332,0.00753123,0,0,0,0,0,0,0,0.0384066,-0.196082,-0.299025,-1.66411,0.16339,1.30773,0.401467,0.195229,0.0022924,0.234634,-0.0528579,0.556059,-0.531487,-0.000602472,2.59418,-25.0881,4.26179,24.761,2.7005,1.74676,-0.0026396,-2.8515,-0.24174,-1.23277,1.02953,-0.951102,-0.392134,-0.312782,-0.0488917,-0.635232,-1.06053,0.471722,-0.908291,-0.00133059,
0.0517192,-0.196892,-0.286861,-1.67107,0.178248,-0.278723,-0.382935,0.369779,0.0161877,0.415047,-0.123986,1.00115,-0.770341,0.00738795,0,0,0,0,0,0,0,0.0453088,-0.196038,-0.290907,-1.66595,0.181666,1.29212,0.401469,0.212369,0.000661116,0.282591,-0.0568193,0.562045,-0.440482,-0.000752681,2.01099,-25.4848,3.58735,24.9832,3.10974,1.91887,-0.0163725,-2.8515,-0.24174,-1.23277,1.02953,-0.951102,-0.392134,-0.312782,-0.0488917,-0.635232,-1.06053,0.471722,-0.908291,-0.00133059,
0.053195,-0.196824,-0.285203,-1.67156,0.182263,-0.281706,-0.382906,0.368947,0.0169544,0.414378,-0.122432,1.00377,-0.74577,0.0072529,0,0,0,0,0,0,0,0.0453088,-0.196038,-0.290907,-1.66595,0.181666,1.29212,0.401469,0.212369,0.000661116,0.282591,-0.0568193,0.562045,-0.440482,-0.000752681,2.01099,-25.4848,3.58735,24.9832,3.10974,1.91887,-0.0163725,-2.8515,-0.24174,-1.23277,1.02953,-0.951102,-0.392134,-0.312782,-0.0488917,-0.635232,-1.06053,0.471722,-0.908291,-0.00133059,
0.0546667,-0.196754,-0.283549,-1.67204,0.186286,-0.284593,-0.382878,0.367945,0.0175906,0.413524,-0.120847,1.00578,-0.721615,0.00712047,0,0,0,0,0,0,0,0.0453088,-0.196038,-0.290907,-1.66595,0.181666,1.29212,0.401469,0.212369,0.000661116,0.282591,-0.0568193,0.562045,-0.440482,-0.000752681,2.01099,-25.4848,3.58735,24.9832,3.10974,1.91887,-0.0163725,-2.8515,-0.24174,-1.23277,1.02953,-0.951102,-0.392134,-0.312782,-0.0488917,-0.635232,-1.06053,0.471722,-0.908291,-0.00133059,
0.0561339,-0.196682,-0.281899,-1.67252,0.190315,-0.287384,-0.38285,0.366791,0.0181121,0.412507,-0.119238,1.00725,-0.697873,0.00699331,0,0,0,0,0,0,0,0.0453088,-0.196038,-0.290907,-1.66595,0.181666,1.29212,0.401469,0.212369,0.000661116,0.282591,-0.0568193,0.562045,-0.440482,-0.000752681,2.01099,-25.4848,3.58735,24.9832,3.10974,1.91887,-0.0163725,-2.06927,2.1437,-0.742164,-0.48823,-0.714696,0.751863,0.833131,-0.041968,0.625694,-0.865542,0.917851,-0.837392,-0.00782789,
0.0221174,-0.196518,-0.319998,-1.66075,0.100792,-0.190728,-0.383784,0.298158,-0.0694506,0.327229,-0.13345,0.466606,-0.79345,0.0120474,0,0,0,0,0,0,0,0.0453088,-0.196038,-0.290907,-1.66595,0.181666,1.29212,0.401469,0.212369,0.000661116,0.282591,-0.0568193,0.562045,-0.440482,-0.000752681,2.01099,-25.4848,3.58735,24.9832,3.10974,1.91887,-0.0163725,-2.36204,1.99261,-0.727739,-0.296288,-0.939036,0.639098,0.730105,-0.176975,0.480603,-0.846097,0.991864,-0.847114,-0.00737413,
0.0492747,-0.196466,-0.286511,-1.66742,0.1882,-0.285387,-0.383796,0.365886,-0.04066,0.407492,-0.137733,0.558965,-0.613245,0.0109871,0,0,0,0,0,0,0,0.0453088,-0.196038,-0.290907,-1.66595,0.181666,1.29212,0.401469,0.212369,0.000661116,0.282591,-0.0568193,0.562045,-0.440482,-0.000752681,2.01099,-25.4848,3.58735,24.9832,3.10974,1.91887,-0.0163725,-2.36204,1.99261,-0.727739,-0.296288,-0.939036,0.639098,0.730105,-0.176975,0.480603,-0.846097,0.991864,-0.847114,-0.00737413,
0.0508421,-0.196623,-0.284758,-1.668,0.190552,-0.287996,-0.383753,0.391833,-0.0393216,0.438033,-0.145043,0.587965,-0.652314,0.0107045,0,0,0,0,0,0,0,0.0522447,-0.195948,-0.282456,-1.66789,0.198706,1.27943,0.401466,0.243834,0.00603953,0.275132,-0.0559837,0.543483,-0.382928,-0.00168271,1.70551,-25.6871,3.11128,24.6619,3.13446,1.77331,0.00376909,-2.52763,1.13105,-0.622122,0.344508,-1.13927,0.21186,0.300115,-0.341779,-0.0031737,-0.748511,0.983032,-0.784886,-0.00656639,
0.0524938,-0.196767,-0.282908,-1.6686,0.193039,-0.290731,-0.383712,0.412932,-0.0360032,0.46269,-0.149771,0.621741,-0.683637,0.0103844,0,0,0,0,0,0,0,0.0522447,-0.195948,-0.282456,-1.66789,0.198706,1.27943,0.401466,0.243834,0.00603953,0.275132,-0.0559837,0.543483,-0.382928,-0.00168271,1.70551,-25.6871,3.11128,24.6619,3.13446,1.77331,0.00376909,-2.52763,1.13105,-0.622122,0.344508,-1.13927,0.21186,0.300115,-0.341779,-0.0031737,-0.748511,0.983032,-0.784886,-0.00656639,
0.0542153,-0.196897,-0.280976,-1.66922,0.195668,-0.29353,-0.383671,0.430384,-0.0324197,0.482925,-0.154704,0.657252,-0.699821,0.010145,0,0,0,0,0,0,0,0.0522447,-0.195948,-0.282456,-1.66789,0.198706,1.27943,0.401466,0.243834,0.00603953,0.275132,-0.0559837,0.543483,-0.382928,-0.00168271,1.70551,-25.6871,3.11128,24.6619,3.13446,1.77331,0.00376909,-1.84477,2.48691,-0.954718,-0.533992,-0.519944,0.894188,0.966065,0.073046,0.75848,-0.938342,1.14011,-0.790272,-0.00531835,
0.0559946,-0.19701,-0.278978,-1.66986,0.198438,-0.296353,-0.383632,0.444811,-0.0283962,0.499543,-0.158729,0.692556,-0.705791,0.0099253,0,0,0,0,0,0,0,0.0522447,-0.195948,-0.282456,-1.66789,0.198706,1.27943,0.401466,0.243834,0.00603953,0.275132,-0.0559837,0.543483,-0.382928,-0.00168271,1.70551,-25.6871,3.11128,24.6619,3.13446,1.77331,0.00376909,-1.84477,2.48691,-0.954718,-0.533992,-0.519944,0.894188,0.966065,0.073046,0.75848,-0.938342,1.14011,-0.790272,-0.00531835,
0.0578215,-0.197106,-0.276925,-1.6705,0.201344,-0.299173,-0.383593,0.456718,-0.0240298,0.513194,-0.161528,0.726441,-0.704849,0.00966112,0,0,0,0,0,0,0,0.0522447,-0.195948,-0.282456,-1.66789,0.198706,1.27943,0.401466,0.243834,0.00603953,0.275132,-0.0559837,0.543483,-0.382928,-0.00168271,1.70551,-25.6871,3.11128,24.6619,3.13446,1.77331,0.00376909,-2.58928,0.494731,-0.817407,0.69186,-1.12864,-0.0777539,-0.00569969,-0.321269,-0.300058,-0.753472,0.835428,-0.711483,-0.00177926,
0.059688,-0.197187,-0.274827,-1.67116,0.204377,-0.301945,-0.383555,0.466642,-0.020003,0.524533,-0.164379,0.758147,-0.693131,0.00945156,0,0,0,0,0,0,0,0.0602833,-0.19595,-0.27257,-1.66988,0.212363,1.26893,0.401469,0.246193,-0.0087884,0.338362,-0.0639664,0.352277,-0.281928,-0.000182449,3.40351,-25.7625,4.43635,24.3365,2.32238,1.69366,-0.0227812,-2.80084,-0.616315,-1.20304,1.31645,-1.12371,-0.572356,-0.442324,-0.267339,-0.884675,-0.836117,0.556381,-0.660515,-0.000297967,
0.0615872,-0.19725,-0.272692,-1.67182,0.207526,-0.30465,-0.383518,0.474795,-0.0159069,0.533853,-0.166145,0.787305,-0.676141,0.00925427,0,0,0,0,0,0,0,0.0602833,-0.19595,-0.27257,-1.66988,0.212363,1.26893,0.401469,0.246193,-0.0087884,0.338362,-0.0639664,0.352277,-0.281928,-0.000182449,3.40351,-25.7625,4.43635,24.3365,2.32238,1.69366,-0.0227812,-2.80084,-0.616315,-1.20304,1.31645,-1.12371,-0.572356,-0.442324,-0.267339,-0.884675,-0.836117,0.556381,-0.660515,-0.000297967,
0.0635129,-0.197298,-0.270526,-1.67249,0.210781,-0.307275,-0.383482,0.481417,-0.0118404,0.541455,-0.166871,0.813778,-0.656391,0.0090645,0,0,0,0,0,0,0,0.0602833,-0.19595,-0.27257,-1.66988,0.212363,1.26893,0.401469,0.246193,-0.0087884,0.338362,-0.0639664,0.352277,-0.281928,-0.000182449,3.40351,-25.7625,4.43635,24.3365,2.32238,1.69366,-0.0227812,-2.88007,-0.603925,-1.08688,1.27297,-1.20556,-0.559493,-0.451692,-0.322146,-0.844754,-0.798633,0.542415,-0.677253,0.000282493,
0.0654598,-0.197329,-0.268335,-1.67316,0.214131,-0.309816,-0.383446,0.486727,-0.00795167,0.5476,-0.16681,0.837571,-0.635162,0.00888343,0,0,0,0,0,0,0,0.0602833,-0.19595,-0.27257,-1.66988,0.212363,1.26893,0.401469,0.246193,-0.0087884,0.338362,-0.0639664,0.352277,-0.281928,-0.000182449,3.40351,-25.7625,4.43635,24.3365,2.32238,1.69366,-0.0227812,-2.88007,-0.603925,-1.08688,1.27297,-1.20556,-0.559493,-0.451692,-0.322146,-0.844754,-0.798633,0.542415,-0.677253,0.000282493,
0.0674234,-0.197347,-0.266125,-1.67382,0.217567,-0.312269,-0.383411,0.490912,-0.00434236,0.552502,-0.16619,0.858776,-0.613163,0.00871367,0,0,0,0,0,0,0,0.0602833,-0.19595,-0.27257,-1.66988,0.212363,1.26893,0.401469,0.246193,-0.0087884,0.338362,-0.0639664,0.352277,-0.281928,-0.000182449,3.40351,-25.7625,4.43635,24.3365,2.32238,1.69366,-0.0227812,-2.85073,-0.27553,-0.900074,0.986984,-1.19896,-0.368846,-0.281109,-0.315119,-0.606149,-0.782058,0.533819,-0.738309,-0.00333524,
0.0694,-0.197351,-0.2639,-1.67448,0.221077,-0.314632,-0.383377,0.494132,-0.00106394,0.556342,-0.165177,0.877537,-0.590806,0.00855378,0,0,0,0,0,0,0,0.0602833,-0.19595,-0.27257,-1.66988,0.212363,1.26893,0.401469,0.246193,-0.0087884,0.338362,-0.0639664,0.352277,-0.281928,-0.000182449,3.40351,-25.7625,4.43635,24.3365,2.32238,1.69366,-0.0227812,-2.46882,0.479784,-1.2718,0.334924,-0.701491,0.0704514,0.161143,0.080134,-0.104956,-1.00459,0.439404,-0.801203,-0.00652468,
0.071386,-0.197343,-0.261663,-1.67514,0.224653,-0.316905,-0.383344,0.496518,0.00186787,0.559267,-0.163885,0.894027,-0.568336,0.00840349,0,0,0,0,0,0,0,0.0717652,-0.196007,-0.258763,-1.6726,0.228845,1.25856,0.40147,0.281831,-0.000103254,0.348937,-0.0689496,0.497341,-0.223849,-0.000671342,2.0586,-25.3618,3.58735,24.4873,2.48718,1.36223,-0.0026396,-2.46882,0.479784,-1.2718,0.334924,-0.701491,0.0704514,0.161143,0.080134,-0.104956,-1.00459,0.439404,-0.801203,-0.00652468,
0.0733788,-0.197326,-0.259417,-1.67579,0.228287,-0.319089,-0.383311,0.498186,0.00445984,0.561405,-0.16239,0.908428,-0.545905,0.00826418,0,0,0,0,0,0,0,0.0717652,-0.196007,-0.258763,-1.6726,0.228845,1.25856,0.40147,0.281831,-0.000103254,0.348937,-0.0689496,0.497341,-0.223849,-0.000671342,2.0586,-25.3618,3.58735,24.4873,2.48718,1.36223,-0.0026396,-2.13022,0.362107,-1.53609,0.298929,-0.29682,0.0887599,0.166565,0.376167,-0.0656749,-1.15538,0.297014,-0.820649,-0.00534183,
0.0753757,-0.197299,-0.257166,-1.67643,0.23197,-0.321183,-0.383278,0.499229,0.00673138,0.56286,-0.160744,0.920929,-0.52361,0.00813069,0,0,0,0,0,0,0,0.0717652,-0.196007,-0.258763,-1.6726,0.228845,1.25856,0.40147,0.281831,-0.000103254,0.348937,-0.0689496,0.497341,-0.223849,-0.000671342,2.0586,-25.3618,3.58735,24.4873,2.48718,1.36223,-0.0026396,-2.13022,0.362107,-1.53609,0.298929,-0.29682,0.0887599,0.166565,0.376167,-0.0656749,-1.15538,0.297014,-0.820649,-0.00534183,
0.0773746,-0.197264,-0.254911,-1.67707,0.235697,-0.323189,-0.383246,0.49973,0.00870772,0.563724,-0.158983,0.931709,-0.501512,0.00800739,0,0,0,0,0,0,0,0.0717652,-0.196007,-0.258763,-1.6726,0.228845,1.25856,0.40147,0.281831,-0.000103254,0.348937,-0.0689496,0.497341,-0.223849,-0.000671342,2.0586,-25.3618,3.58735,24.4873,2.48718,1.36223,-0.0026396,-2.36238,0.748903,-1.9015,0.00480585,-0.256829,0.279281,0.3522,0.504816,0.155896,-1.33762,0.27236,-0.903336,-0.00766799,
0.0793736,-0.197222,-0.252655,-1.6777,0.239461,-0.325108,-0.383214,0.499759,0.0104169,0.564074,-0.157134,0.940943,-0.479656,0.00788938,0,0,0,0,0,0,0,0.0717652,-0.196007,-0.258763,-1.6726,0.228845,1.25856,0.40147,0.281831,-0.000103254,0.348937,-0.0689496,0.497341,-0.223849,-0.000671342,2.0586,-25.3618,3.58735,24.4873,2.48718,1.36223,-0.0026396,-2.29305,0.638097,-1.77423,0.124321,-0.210609,0.248895,0.327362,0.520008,0.104536,-1.34502,0.321024,-0.944955,-0.00505719,
0.0813712,-0.197175,-0.250399,-1.67832,0.243256,-0.32694,-0.383183,0.499378,0.0118865,0.563977,-0.155216,0.948792,-0.458073,0.0077808,0,0,0,0,0,0,0,0.0811313,-0.196008,-0.247754,-1.67474,0.245697,1.25328,0.401466,0.323869,-0.000608142,0.373743,-0.0715699,0.555418,-0.127242,-0.00142571,1.95942,-25.3618,3.28584,24.1898,2.86529,1.49499,0.00376909,-2.29305,0.638097,-1.77423,0.124321,-0.210609,0.248895,0.327362,0.520008,0.104536,-1.34502,0.321024,-0.944955,-0.00505719,
0.0833657,-0.197122,-0.248145,-1.67893,0.247078,-0.328687,-0.383153,0.498638,0.0131433,0.563489,-0.153245,0.955406,-0.436785,0.0076745,0,0,0,0,0,0,0,0.0811313,-0.196008,-0.247754,-1.67474,0.245697,1.25328,0.401466,0.323869,-0.000608142,0.373743,-0.0715699,0.555418,-0.127242,-0.00142571,1.95942,-25.3618,3.28584,24.1898,2.86529,1.49499,0.00376909,-2.90402,-0.524259,-1.32066,0.969299,-0.873193,-0.345819,-0.252853,0.0222915,-0.572743,-1.08164,0.308054,-0.895962,-0.00186293,
0.0853561,-0.197065,-0.245894,-1.67954,0.250921,-0.330351,-0.383122,0.497587,0.0142116,0.562662,-0.151231,0.960921,-0.415811,0.0075766,0,0,0,0,0,0,0,0.0811313,-0.196008,-0.247754,-1.67474,0.245697,1.25328,0.401466,0.323869,-0.000608142,0.373743,-0.0715699,0.555418,-0.127242,-0.00142571,1.95942,-25.3618,3.28584,24.1898,2.86529,1.49499,0.00376909,-2.90402,-0.524259,-1.32066,0.969299,-0.873193,-0.345819,-0.252853,0.0222915,-0.572743,-1.08164,0.308054,-0.895962,-0.00186293,
0.0873411,-0.197005,-0.243648,-1.68013,0.254783,-0.331931,-0.383092,0.496263,0.015114,0.561539,-0.149186,0.965463,-0.395165,0.00747969,0,0,0,0,0,0,0,0.0811313,-0.196008,-0.247754,-1.67474,0.245697,1.25328,0.401466,0.323869,-0.000608142,0.373743,-0.0715699,0.555418,-0.127242,-0.00142571,1.95942,-25.3618,3.28584,24.1898,2.86529,1.49499,0.00376909,-2.53453,-1.29365,-1.71976,1.63189,-0.41642,-0.679954,-0.578112,0.316267,-0.992189,-1.28883,0.346644,-0.888099,-0.00372272,
0.0893199,-0.196941,-0.241407,-1.68072,0.25866,-0.333431,-0.383063,0.494703,0.015871,0.560157,-0.147118,0.969144,-0.374857,0.00739199,0,0,0,0,0,0,0,0.0811313,-0.196008,-0.247754,-1.67474,0.245697,1.25328,0.401466,0.323869,-0.000608142,0.373743,-0.0715699,0.555418,-0.127242,-0.00142571,1.95942,-25.3618,3.28584,24.1898,2.86529,1.49499,0.00376909,-2.53453,-1.29365,-1.71976,1.63189,-0.41642,-0.679954,-0.578112,0.316267,-0.992189,-1.28883,0.346644,-0.888099,-0.00372272,
0.0912952,-0.196876,-0.239171,-1.6813,0.262515,-0.33485,-0.383034,0.493832,0.0162511,0.559002,-0.144684,0.963852,-0.354808,0.00719784,0,0,0,0,0,0,0,0.0916033,-0.195925,-0.234709,-1.6772,0.263671,1.25062,0.401473,0.337332,-8.71306e-05,0.420365,-0.0788025,0.556759,-0.053877,-0.000493829,2.3125,-26.0362,3.31361,24.2374,3.40912,1.38238,-0.0227812,-2.59676,-0.649257,-1.3944,1.28728,-0.617609,-0.402945,-0.292551,0.143431,-0.699711,-1.15612,0.54065,-0.883618,-0.0035416,
0.0932673,-0.196811,-0.236939,-1.68187,0.266324,-0.33619,-0.383006,0.493013,0.0163641,0.558089,-0.142094,0.95209,-0.335089,0.0070115,0,0,0,0,0,0,0,0.0916033,-0.195925,-0.234709,-1.6772,0.263671,1.25062,0.401473,0.337332,-8.71306e-05,0.420365,-0.0788025,0.556759,-0.053877,-0.000493829,2.3125,-26.0362,3.31361,24.2374,3.40912,1.38238,-0.0227812,-2.59676,-0.649257,-1.3944,1.28728,-0.617609,-0.402945,-0.292551,0.143431,-0.699711,-1.15612,0.54065,-0.883618,-0.0035416,
0.0952353,-0.196746,-0.23471,-1.68243,0.270069,-0.337453,-0.382979,0.49201,0.0163188,0.557174,-0.139488,0.936439,-0.315768,0.00685041,0,0,0,0,0,0,0,0.0916033,-0.195925,-0.234709,-1.6772,0.263671,1.25062,0.401473,0.337332,-8.71306e-05,0.420365,-0.0788025,0.556759,-0.053877,-0.000493829,2.3125,-26.0362,3.31361,24.2374,3.40912,1.38238,-0.0227812,-2.67709,0.314894,-1.21367,0.713492,-0.785743,0.0179807,0.117087,0.0228044,-0.225771,-1.06594,0.745273,-0.874835,-0.00608169,
0.0971984,-0.196681,-0.232486,-1.68297,0.273743,-0.338641,-0.382952,0.490761,0.0161833,0.556102,-0.136926,0.91844,-0.296881,0.00670384,0,0,0,0,0,0,0,0.0916033,-0.195925,-0.234709,-1.6772,0.263671,1.25062,0.401473,0.337332,-8.71306e-05,0.420365,-0.0788025,0.556759,-0.053877,-0.000493829,2.3125,-26.0362,3.31361,24.2374,3.40912,1.38238,-0.0227812,-2.60595,1.31563,-1.11951,0.102977,-0.774248,0.478404,0.557501,0.0360183,0.296722,-1.05174,0.931369,-0.894912,-0.00930734,
0.0497657,-0.196781,-0.285994,-1.668,0.187468,-0.282547,-0.3838,0.419851,-0.0675122,0.466474,-0.187144,0.481901,-0.30194,0.0106301,0,0,0,0,0,0,0,0.0916033,-0.195925,-0.234709,-1.6772,0.263671,1.25062,0.401473,0.337332,-8.71306e-05,0.420365,-0.0788025,0.556759,-0.053877,-0.000493829,2.3125,-26.0362,3.31361,24.2374,3.40912,1.38238,-0.0227812,-2.60595,1.31563,-1.11951,0.102977,-0.774248,0.478404,0.557501,0.0360183,0.296722,-1.05174,0.931369,-0.894912,-0.00930734,
0.0969437,-0.196367,-0.228707,-1.67909,0.270326,-0.320766,-0.383809,0.477718,-0.0394834,0.538185,-0.17104,0.570297,-0.0667981,0.0097546,0,0,0,0,0,0,0,0.0916033,-0.195925,-0.234709,-1.6772,0.263671,1.25062,0.401473,0.337332,-8.71306e-05,0.420365,-0.0788025,0.556759,-0.053877,-0.000493829,2.3125,-26.0362,3.31361,24.2374,3.40912,1.38238,-0.0227812,-2.82339,1.93601,-0.908015,-0.307206,-1.02672,0.759828,0.84184,-0.124457,0.613156,-0.952506,1.02664,-0.905253,-0.0104762,
0.0989498,-0.196514,-0.226442,-1.6798,0.272714,-0.321091,-0.38377,0.501539,-0.0367643,0.566299,-0.175903,0.597199,-0.0812954,0.00961959,0,0,0,0,0,0,0,0.102311,-0.195763,-0.22203,-1.67977,0.280394,1.25,0.401473,0.337827,0.00463335,0.418427,-0.0814524,0.530936,-0.00250091,0.000156456,1.95942,-26.2862,2.68678,24.5349,3.62243,1.09032,-0.0566557,-2.82339,1.93601,-0.908015,-0.307206,-1.02672,0.759828,0.84184,-0.124457,0.613156,-0.952506,1.02664,-0.905253,-0.0104762,
0.101033,-0.196645,-0.224087,-1.68051,0.275225,-0.321453,-0.383732,0.520753,-0.0328322,0.58889,-0.17875,0.627705,-0.0905056,0.00954331,0,0,0,0,0,0,0,0.102311,-0.195763,-0.22203,-1.67977,0.280394,1.25,0.401473,0.337827,0.00463335,0.418427,-0.0814524,0.530936,-0.00250091,0.000156456,1.95942,-26.2862,2.68678,24.5349,3.62243,1.09032,-0.0566557,-1.807,2.24274,-1.35001,-0.448962,-0.0627289,0.967087,1.05381,0.500309,0.806933,-1.24246,1.10452,-0.910054,-0.0149973,
0.103178,-0.196758,-0.221658,-1.68123,0.277863,-0.321839,-0.383695,0.536243,-0.0282595,0.607049,-0.18002,0.659424,-0.0965989,0.00937958,0,0,0,0,0,0,0,0.102311,-0.195763,-0.22203,-1.67977,0.280394,1.25,0.401473,0.337827,0.00463335,0.418427,-0.0814524,0.530936,-0.00250091,0.000156456,1.95942,-26.2862,2.68678,24.5349,3.62243,1.09032,-0.0566557,-1.78136,0.928931,-1.05643,0.480577,-0.153873,0.359698,0.418945,0.3473,0.14122,-1.11482,1.04555,-0.867812,-0.0148873,
0.105373,-0.196854,-0.219171,-1.68196,0.280626,-0.322217,-0.383658,0.548884,-0.0239998,0.621783,-0.181395,0.690735,-0.0943952,0.00926299,0,0,0,0,0,0,0,0.102311,-0.195763,-0.22203,-1.67977,0.280394,1.25,0.401473,0.337827,0.00463335,0.418427,-0.0814524,0.530936,-0.00250091,0.000156456,1.95942,-26.2862,2.68678,24.5349,3.62243,1.09032,-0.0566557,-1.78136,0.928931,-1.05643,0.480577,-0.153873,0.359698,0.418945,0.3473,0.14122,-1.11482,1.04555,-0.867812,-0.0148873,
0.10761,-0.196933,-0.216637,-1.68268,0.283508,-0.32257,-0.383621,0.559056,-0.0197431,0.633662,-0.181926,0.720641,-0.0883623,0.00915868,0,0,0,0,0,0,0,0.102311,-0.195763,-0.22203,-1.67977,0.280394,1.25,0.401473,0.337827,0.00463335,0.418427,-0.0814524,0.530936,-0.00250091,0.000156456,1.95942,-26.2862,2.68678,24.5349,3.62243,1.09032,-0.0566557,-2.82182,-1.26717,-1.12744,1.85334,-0.912513,-0.681259,-0.581758,-0.139533,-1.02891,-0.986021,0.717827,-0.808251,-0.0096592,
0.109878,-0.196996,-0.214064,-1.68341,0.286503,-0.322891,-0.383585,0.567155,-0.0156031,0.643165,-0.181675,0.748582,-0.0803112,0.00905887,0,0,0,0,0,0,0,0.114211,-0.19576,-0.207605,-1.68251,0.293599,1.25043,0.401474,0.349074,-0.00114625,0.482513,-0.0912701,0.35434,0.0242487,0.00103643,2.92347,-26.433,3.46437,23.9398,3.22601,1.27617,-0.0630644,-2.82182,-1.26717,-1.12744,1.85334,-0.912513,-0.681259,-0.581758,-0.139533,-1.02891,-0.986021,0.717827,-0.808251,-0.0096592,
0.112177,-0.197044,-0.211459,-1.68413,0.289556,-0.323175,-0.383549,0.574694,-0.0120252,0.651269,-0.180344,0.763406,-0.0709379,0.008828,0,0,0,0,0,0,0,0.114211,-0.19576,-0.207605,-1.68251,0.293599,1.25043,0.401474,0.349074,-0.00114625,0.482513,-0.0912701,0.35434,0.0242487,0.00103643,2.92347,-26.433,3.46437,23.9398,3.22601,1.27617,-0.0630644,-2.76184,-0.730356,-1.8097,1.3574,-0.617992,-0.404314,-0.276786,0.163206,-0.726368,-1.21731,0.618223,-0.789484,-0.0115333,
0.114502,-0.19708,-0.208825,-1.68485,0.292625,-0.323418,-0.383515,0.581199,-0.0090238,0.658354,-0.178379,0.767068,-0.0607192,0.00859244,0,0,0,0,0,0,0,0.114211,-0.19576,-0.207605,-1.68251,0.293599,1.25043,0.401474,0.349074,-0.00114625,0.482513,-0.0912701,0.35434,0.0242487,0.00103643,2.92347,-26.433,3.46437,23.9398,3.22601,1.27617,-0.0630644,-2.76184,-0.730356,-1.8097,1.3574,-0.617992,-0.404314,-0.276786,0.163206,-0.726368,-1.21731,0.618223,-0.789484,-0.0115333,
0.116847,-0.197106,-0.206168,-1.68555,0.295679,-0.323618,-0.383481,0.586412,-0.00648897,0.664309,-0.176155,0.763706,-0.0499846,0.00838903,0,0,0,0,0,0,0,0.114211,-0.19576,-0.207605,-1.68251,0.293599,1.25043,0.401474,0.349074,-0.00114625,0.482513,-0.0912701,0.35434,0.0242487,0.00103643,2.92347,-26.433,3.46437,23.9398,3.22601,1.27617,-0.0630644,-3.32233,0.725654,-1.80234,0.289145,-1.01988,0.275932,0.341526,0.0185431,0.111492,-1.19465,0.703381,-0.858188,-0.0142927,
0.119209,-0.197123,-0.203492,-1.68625,0.298703,-0.323774,-0.383449,0.590391,-0.00432998,0.66907,-0.173838,0.755816,-0.0389308,0.00820791,0,0,0,0,0,0,0,0.114211,-0.19576,-0.207605,-1.68251,0.293599,1.25043,0.401474,0.349074,-0.00114625,0.482513,-0.0912701,0.35434,0.0242487,0.00103643,2.92347,-26.433,3.46437,23.9398,3.22601,1.27617,-0.0630644,-2.89268,1.27687,-1.92137,-0.221389,-0.654206,0.584905,0.638785,0.278877,0.482197,-1.27022,0.633987,-0.856529,-0.0133912,
0.121582,-0.197133,-0.200801,-1.68693,0.301682,-0.323884,-0.383416,0.593245,-0.00247732,0.672676,-0.171506,0.744939,-0.0276737,0.00804808,0,0,0,0,0,0,0,0.114211,-0.19576,-0.207605,-1.68251,0.293599,1.25043,0.401474,0.349074,-0.00114625,0.482513,-0.0912701,0.35434,0.0242487,0.00103643,2.92347,-26.433,3.46437,23.9398,3.22601,1.27617,-0.0630644,-2.89268,1.27687,-1.92137,-0.221389,-0.654206,0.584905,0.638785,0.278877,0.482197,-1.27022,0.633987,-0.856529,-0.0133912,
0.123962,-0.197137,-0.1981,-1.68761,0.304611,-0.32395,-0.383385,0.595099,-0.000878788,0.67522,-0.169188,0.732056,-0.0162833,0.00789639,0,0,0,0,0,0,0,0.126465,-0.195789,-0.193201,-1.68556,0.306204,1.25245,0.401471,0.377909,-0.000417978,0.449601,-0.0939827,0.440061,0.0725244,0.000404241,1.93164,-26.1592,2.83754,24.3365,2.91473,1.36223,-0.0365141,-2.33198,0.579514,-2.36074,0.116742,-0.116034,0.293527,0.35109,0.61256,0.163609,-1.40743,0.434627,-0.762668,-0.0133522,
0.126347,-0.197135,-0.195393,-1.68828,0.307482,-0.323969,-0.383354,0.59608,0.0005052,0.676816,-0.166896,0.717812,-0.00480478,0.00775786,0,0,0,0,0,0,0,0.126465,-0.195789,-0.193201,-1.68556,0.306204,1.25245,0.401471,0.377909,-0.000417978,0.449601,-0.0939827,0.440061,0.0725244,0.000404241,1.93164,-26.1592,2.83754,24.3365,2.91473,1.36223,-0.0365141,-2.33198,0.579514,-2.36074,0.116742,-0.116034,0.293527,0.35109,0.61256,0.163609,-1.40743,0.434627,-0.762668,-0.0133522,
0.128732,-0.197128,-0.192683,-1.68894,0.310293,-0.323942,-0.383323,0.596304,0.00170626,0.67758,-0.164631,0.702658,0.00672601,0.00762267,0,0,0,0,0,0,0,0.126465,-0.195789,-0.193201,-1.68556,0.306204,1.25245,0.401471,0.377909,-0.000417978,0.449601,-0.0939827,0.440061,0.0725244,0.000404241,1.93164,-26.1592,2.83754,24.3365,2.91473,1.36223,-0.0365141,-2.64128,-0.917996,-2.39979,1.0618,-0.378171,-0.407752,-0.349191,0.393612,-0.607237,-1.31917,0.235569,-0.679267,-0.00833811,
0.131115,-0.197117,-0.189972,-1.68958,0.31304,-0.323869,-0.383293,0.595873,0.00275041,0.677619,-0.162394,0.686947,0.0182788,0.00749818,0,0,0,0,0,0,0,0.126465,-0.195789,-0.193201,-1.68556,0.306204,1.25245,0.401471,0.377909,-0.000417978,0.449601,-0.0939827,0.440061,0.0725244,0.000404241,1.93164,-26.1592,2.83754,24.3365,2.91473,1.36223,-0.0365141,-2.29364,-0.862701,-2.39036,0.998629,-0.167647,-0.379119,-0.318028,0.490283,-0.575621,-1.29772,0.232139,-0.619837,-0.00505904,
0.133495,-0.197102,-0.187264,-1.69023,0.315724,-0.323749,-0.383264,0.594874,0.00366173,0.677026,-0.160185,0.671011,0.0298229,0.00737194,0,0,0,0,0,0,0,0.126465,-0.195789,-0.193201,-1.68556,0.306204,1.25245,0.401471,0.377909,-0.000417978,0.449601,-0.0939827,0.440061,0.0725244,0.000404241,1.93164,-26.1592,2.83754,24.3365,2.91473,1.36223,-0.0365141,-2.29364,-0.862701,-2.39036,0.998629,-0.167647,-0.379119,-0.318028,0.490283,-0.575621,-1.29772,0.232139,-0.619837,-0.00505904,
0.135868,-0.197084,-0.184561,-1.69086,0.318345,-0.323584,-0.383235,0.59337,0.0044645,0.675875,-0.158012,0.655268,0.0413274,0.00725427,0,0,0,0,0,0,0,0.143525,-0.19565,-0.17295,-1.68925,0.325839,1.25526,0.401473,0.412237,0.00581912,0.495962,-0.0831612,0.433616,0.0459695,-0.000112991,2.34027,-27.1074,3.0121,24.3127,2.84149,1.51513,-0.0566557,-2.26457,-0.677944,-2.25484,0.899683,-0.299533,-0.324644,-0.266626,0.352075,-0.509039,-1.14843,0.297067,-0.511027,-0.00642575,
0.138234,-0.197064,-0.181864,-1.69148,0.320907,-0.323373,-0.383206,0.591386,0.00518961,0.674207,-0.155895,0.640387,0.0527521,0.00713191,0,0,0,0,0,0,0,0.143525,-0.19565,-0.17295,-1.68925,0.325839,1.25526,0.401473,0.412237,0.00581912,0.495962,-0.0831612,0.433616,0.0459695,-0.000112991,2.34027,-27.1074,3.0121,24.3127,2.84149,1.51513,-0.0566557,-2.26457,-0.677944,-2.25484,0.899683,-0.299533,-0.324644,-0.266626,0.352075,-0.509039,-1.14843,0.297067,-0.511027,-0.00642575,
0.140589,-0.19704,-0.179176,-1.6921,0.323418,-0.323117,-0.383178,0.588851,0.00588229,0.672043,-0.153891,0.627658,0.0640491,0.00711671,0,0,0,0,0,0,0,0.143525,-0.19565,-0.17295,-1.68925,0.325839,1.25526,0.401473,0.412237,0.00581912,0.495962,-0.0831612,0.433616,0.0459695,-0.000112991,2.34027,-27.1074,3.0121,24.3127,2.84149,1.51513,-0.0566557,-2.66177,-0.116698,-2.07689,0.533839,-0.744257,-0.0839261,-0.0201947,0.0658347,-0.234772,-0.973198,0.382834,-0.447447,-0.0113026,
0.142936,-0.197015,-0.176496,-1.6927,0.325854,-0.322816,-0.38315,0.586747,0.00634349,0.66982,-0.15154,0.609152,0.075301,0.00700389,0,0,0,0,0,0,0,0.143525,-0.19565,-0.17295,-1.68925,0.325839,1.25526,0.401473,0.412237,0.00581912,0.495962,-0.0831612,0.433616,0.0459695,-0.000112991,2.34027,-27.1074,3.0121,24.3127,2.84149,1.51513,-0.0566557,-2.66177,-0.116698,-2.07689,0.533839,-0.744257,-0.0839261,-0.0201947,0.0658347,-0.234772,-0.973198,0.382834,-0.447447,-0.0113026,
0.145274,-0.196988,-0.173826,-1.6933,0.328202,-0.32247,-0.383122,0.584547,0.0066171,0.667631,-0.149099,0.586966,0.0864758,0.00686653,0,0,0,0,0,0,0,0.143525,-0.19565,-0.17295,-1.68925,0.325839,1.25526,0.401473,0.412237,0.00581912,0.495962,-0.0831612,0.433616,0.0459695,-0.000112991,2.34027,-27.1074,3.0121,24.3127,2.84149,1.51513,-0.0566557,-2.85579,-0.431247,-2.23191,0.826259,-0.850327,-0.257923,-0.196241,-0.00590542,-0.438465,-0.98267,0.441617,-0.402916,-0.00954836,
0.147603,-0.196961,-0.171165,-1.69389,0.330455,-0.32208,-0.383095,0.582099,0.00677592,0.665319,-0.146702,0.563148,0.0975081,0.00674686,0,0,0,0,0,0,0,0.143525,-0.19565,-0.17295,-1.68925,0.325839,1.25526,0.401473,0.412237,0.00581912,0.495962,-0.0831612,0.433616,0.0459695,-0.000112991,2.34027,-27.1074,3.0121,24.3127,2.84149,1.51513,-0.0566557,-2.64677,0.474824,-2.10299,0.246992,-0.817801,0.134959,0.178731,-0.00166371,0.0165548,-0.886227,0.577706,-0.32966,-0.00868122,
0.14992,-0.196934,-0.168513,-1.69446,0.33261,-0.321646,-0.383069,0.579399,0.00686999,0.6628,-0.144382,0.538749,0.108352,0.00663761,0,0,0,0,0,0,0,0.157114,-0.195285,-0.157249,-1.69153,0.337594,1.25655,0.401469,0.420344,0.00685509,0.507543,-0.0672127,0.34953,0.0328237,-0.000346812,1.95942,-27.1352,2.6114,24.2374,3.32946,1.51513,-0.0227812,-2.64677,0.474824,-2.10299,0.246992,-0.817801,0.134959,0.178731,-0.00166371,0.0165548,-0.886227,0.577706,-0.32966,-0.00868122,
0.152226,-0.196906,-0.165873,-1.69503,0.334667,-0.32117,-0.383043,0.576469,0.00692979,0.660053,-0.142141,0.514302,0.118985,0.0065318,0,0,0,0,0,0,0,0.157114,-0.195285,-0.157249,-1.69153,0.337594,1.25655,0.401469,0.420344,0.00685509,0.507543,-0.0672127,0.34953,0.0328237,-0.000346812,1.95942,-27.1352,2.6114,24.2374,3.32946,1.51513,-0.0227812,-2.53739,1.17648,-2.73174,-0.223348,-0.471779,0.450366,0.486187,0.340264,0.368621,-1.14986,0.658257,-0.339751,-0.00888072,
0.0973705,-0.196575,-0.228276,-1.67938,0.268572,-0.318619,-0.383809,0.523347,-0.0569423,0.587494,-0.1934,0.371378,0.164566,0.00962565,0,0,0,0,0,0,0,0.157114,-0.195285,-0.157249,-1.69153,0.337594,1.25655,0.401469,0.420344,0.00685509,0.507543,-0.0672127,0.34953,0.0328237,-0.000346812,1.95942,-27.1352,2.6114,24.2374,3.32946,1.51513,-0.0227812,-2.53739,1.17648,-2.73174,-0.223348,-0.471779,0.450366,0.486187,0.340264,0.368621,-1.14986,0.658257,-0.339751,-0.00888072,
0.16336,-0.195718,-0.150163,-1.69358,0.341342,-0.312071,-0.38381,0.552615,-0.0381681,0.628145,-0.186201,0.302908,0.213443,0.00997616,0,0,0,0,0,0,0,0.157114,-0.195285,-0.157249,-1.69153,0.337594,1.25655,0.401469,0.420344,0.00685509,0.507543,-0.0672127,0.34953,0.0328237,-0.000346812,1.95942,-27.1352,2.6114,24.2374,3.32946,1.51513,-0.0227812,-3.15652,0.907149,-2.25493,0.042059,-1.1464,0.322809,0.346517,-0.151299,0.234973,-0.881695,0.732557,-0.310703,-0.0109191,
0.165663,-0.195852,-0.147541,-1.69434,0.342543,-0.311168,-0.383771,0.57576,-0.0335839,0.655717,-0.187853,0.300128,0.225842,0.00964171,0,0,0,0,0,0,0,0.157114,-0.195285,-0.157249,-1.69153,0.337594,1.25655,0.401469,0.420344,0.00685509,0.507543,-0.0672127,0.34953,0.0328237,-0.000346812,1.95942,-27.1352,2.6114,24.2374,3.32946,1.51513,-0.0227812,-2.82448,1.68054,-2.43659,-0.482416,-0.837576,0.677653,0.707498,0.087674,0.62214,-0.970291,0.817094,-0.292367,-0.011862,
0.16804,-0.195967,-0.14483,-1.69509,0.343743,-0.310216,-0.383734,0.594295,-0.0286041,0.677707,-0.188152,0.299974,0.237948,0.00934609,0,0,0,0,0,0,0,0.171205,-0.194836,-0.140498,-1.69363,0.346856,1.25815,0.401472,0.43578,0.00900771,0.519381,-0.060666,0.213095,0.0573808,0.0010482,-1.13507,-27.758,-1.08611,24.5349,2.74902,1.69366,-0.0429228,-2.82448,1.68054,-2.43659,-0.482416,-0.837576,0.677653,0.707498,0.087674,0.62214,-0.970291,0.817094,-0.292367,-0.011862,
0.170476,-0.196061,-0.142049,-1.69584,0.34495,-0.309222,-0.383697,0.608893,-0.0235604,0.695126,-0.187503,0.301773,0.24845,0.00908221,0,0,0,0,0,0,0,0.171205,-0.194836,-0.140498,-1.69363,0.346856,1.25815,0.401472,0.43578,0.00900771,0.519381,-0.060666,0.213095,0.0573808,0.0010482,-1.13507,-27.758,-1.08611,24.5349,2.74902,1.69366,-0.0429228,-1.67579,1.34871,-2.72378,-0.260405,0.144913,0.496992,0.512878,0.659012,0.415135,-1.17789,0.797048,-0.254128,-0.008189,
0.172956,-0.196136,-0.139214,-1.69658,0.346175,-0.308193,-0.383661,0.620046,-0.0186998,0.708718,-0.186435,0.30635,0.257294,0.0089651,0,0,0,0,0,0,0,0.171205,-0.194836,-0.140498,-1.69363,0.346856,1.25815,0.401472,0.43578,0.00900771,0.519381,-0.060666,0.213095,0.0573808,0.0010482,-1.13507,-27.758,-1.08611,24.5349,2.74902,1.69366,-0.0429228,-1.67579,1.34871,-2.72378,-0.260405,0.144913,0.496992,0.512878,0.659012,0.415135,-1.17789,0.797048,-0.254128,-0.008189,
0.175474,-0.196193,-0.136336,-1.69732,0.347387,-0.307133,-0.383626,0.62951,-0.0144091,0.719611,-0.184563,0.30281,0.264897,0.00876443,0,0,0,0,0,0,0,0.171205,-0.194836,-0.140498,-1.69363,0.346856,1.25815,0.401472,0.43578,0.00900771,0.519381,-0.060666,0.213095,0.0573808,0.0010482,-1.13507,-27.758,-1.08611,24.5349,2.74902,1.69366,-0.0429228,-2.3174,-1.29362,-2.5759,1.51522,-0.420389,-0.706778,-0.673502,0.151235,-0.939272,-1.00131,0.544403,-0.189108,-0.00506031,
0.178022,-0.196236,-0.133422,-1.69805,0.348556,-0.306047,-0.383592,0.637114,-0.0107544,0.728453,-0.182349,0.29244,0.271609,0.00855147,0,0,0,0,0,0,0,0.171205,-0.194836,-0.140498,-1.69363,0.346856,1.25815,0.401472,0.43578,0.00900771,0.519381,-0.060666,0.213095,0.0573808,0.0010482,-1.13507,-27.758,-1.08611,24.5349,2.74902,1.69366,-0.0429228,-2.79149,-0.543742,-2.91292,0.914538,-0.665999,-0.321358,-0.224583,0.121886,-0.546224,-1.07052,0.535793,-0.190187,-0.00812711,
0.180594,-0.196267,-0.130481,-1.69877,0.34967,-0.304936,-0.383559,0.642845,-0.00764876,0.735403,-0.180124,0.278514,0.277655,0.00836584,0,0,0,0,0,0,0,0.185524,-0.194917,-0.123646,-1.69608,0.350811,1.26181,0.401467,0.478044,-0.0056192,0.555276,-0.08685,0.0932484,0.160763,-0.00056177,-0.325741,-26.6829,0.361952,24.2889,3.0429,1.7138,-0.0026396,-2.79149,-0.543742,-2.91292,0.914538,-0.665999,-0.321358,-0.224583,0.121886,-0.546224,-1.07052,0.535793,-0.190187,-0.00812711,
0.183182,-0.196287,-0.127518,-1.69948,0.350721,-0.303803,-0.383526,0.646936,-0.0049941,0.74061,-0.177976,0.262733,0.28321,0.00819662,0,0,0,0,0,0,0,0.185524,-0.194917,-0.123646,-1.69608,0.350811,1.26181,0.401467,0.478044,-0.0056192,0.555276,-0.08685,0.0932484,0.160763,-0.00056177,-0.325741,-26.6829,0.361952,24.2889,3.0429,1.7138,-0.0026396,-2.60381,-0.403555,-3.08313,0.768102,-0.456306,-0.256163,-0.2175,0.283,-0.418997,-1.15083,0.526266,-0.187601,-0.00574939,
0.18578,-0.196298,-0.124541,-1.70019,0.351705,-0.30265,-0.383494,0.649624,-0.00270939,0.744277,-0.175907,0.245994,0.288418,0.0080502,0,0,0,0,0,0,0,0.185524,-0.194917,-0.123646,-1.69608,0.350811,1.26181,0.401467,0.478044,-0.0056192,0.555276,-0.08685,0.0932484,0.160763,-0.00056177,-0.325741,-26.6829,0.361952,24.2889,3.0429,1.7138,-0.0026396,-2.60381,-0.403555,-3.08313,0.768102,-0.456306,-0.256163,-0.2175,0.283,-0.418997,-1.15083,0.526266,-0.187601,-0.00574939,
0.188385,-0.196301,-0.121555,-1.70088,0.35262,-0.301476,-0.383462,0.651126,-0.000732366,0.746618,-0.173897,0.228776,0.293392,0.00790761,0,0,0,0,0,0,0,0.185524,-0.194917,-0.123646,-1.69608,0.350811,1.26181,0.401467,0.478044,-0.0056192,0.555276,-0.08685,0.0932484,0.160763,-0.00056177,-0.325741,-26.6829,0.361952,24.2889,3.0429,1.7138,-0.0026396,-3.18097,0.707729,-2.96634,-0.102278,-0.972723,0.311554,0.316633,0.0595482,0.273814,-1.03496,0.531112,-0.196395,-0.00854935,
0.190991,-0.196297,-0.118563,-1.70157,0.353466,-0.300283,-0.383431,0.651634,0.000984346,0.747834,-0.171927,0.211338,0.298217,0.00778002,0,0,0,0,0,0,0,0.185524,-0.194917,-0.123646,-1.69608,0.350811,1.26181,0.401467,0.478044,-0.0056192,0.555276,-0.08685,0.0932484,0.160763,-0.00056177,-0.325741,-26.6829,0.361952,24.2889,3.0429,1.7138,-0.0026396,-3.18097,0.707729,-2.96634,-0.102278,-0.972723,0.311554,0.316633,0.0595482,0.273814,-1.03496,0.531112,-0.196395,-0.00854935,
0.193596,-0.196287,-0.115571,-1.70225,0.354241,-0.299072,-0.3834,0.65131,0.00247817,0.748103,-0.169977,0.19383,0.30295,0.00765073,0,0,0,0,0,0,0,0.185524,-0.194917,-0.123646,-1.69608,0.350811,1.26181,0.401467,0.478044,-0.0056192,0.555276,-0.08685,0.0932484,0.160763,-0.00056177,-0.325741,-26.6829,0.361952,24.2889,3.0429,1.7138,-0.0026396,-1.70871,0.156162,-3.58334,0.0944021,0.306584,0.00255004,0.00392796,0.829417,-0.0593698,-1.33462,0.329915,-0.103273,-0.00916606,
