PerkyPenguin/Analysis-on-Approximated-Derivatives/Code_and_Data/PaperData/Real_Robot/Scene_1/set_interval/0/trajectory.csv
Commanded Joint 0 Position,Commanded Joint 1 Position,Commanded Joint 2 Position,Commanded Joint 3 Position,Commanded Joint 4 Position,Commanded Joint 5 Position,Commanded Joint 6 Position,Commanded Joint 0 Velocity,Commanded Joint 1 Velocity,Commanded Joint 2 Velocity,Commanded Joint 3 Velocity,Commanded Joint 4 Velocity,Commanded Joint 5 Velocity,Commanded Joint 6 Velocity,Commanded Joint 0 Torque,Commanded Joint 1 Torque,Commanded Joint 2 Torque,Commanded Joint 3 Torque,Commanded Joint 4 Torque,Commanded Joint 5 Torque,Commanded Joint 6 Torque,Actual Joint 0 Position,Actual Joint 1 Position,Actual Joint 2 Position,Actual Joint 3 Position,Actual Joint 4 Position,Actual Joint 5 Position,Actual Joint 6 Position,Actual Joint 0 Velocity,Actual Joint 1 Velocity,Actual Joint 2 Velocity,Actual Joint 3 Velocity,Actual Joint 4 Velocity,Actual Joint 5 Velocity,Actual Joint 6 Velocity,Actual Joint 0 Torque,Actual Joint 1 Torque,Actual Joint 2 Torque,Actual Joint 3 Torque,Actual Joint 4 Torque,Actual Joint 5 Torque,Actual Joint 6 Torque,EE ext force 0,EE ext force 1,EE ext force 2,EE ext force 3,EE ext force 4,EE ext force 5,joint ext torque 0,joint ext torque 1,joint ext torque 2,joint ext torque 3,joint ext torque 4,joint ext torque 5,joint ext torque 6,
-0.0862018,-0.250377,-0.273309,-1.92517,-0.0682955,0.138885,-0.418094,-0.000939328,0.0218465,-0.0116785,-0.158775,-0.00671737,0.230254,-0.00217114,0,0,0,0,0,0,0,-0.0862016,-0.250458,-0.273227,-1.92358,-0.0681909,1.70737,0.367332,0.00202576,0.000581023,-0.0012484,-0.000946945,-0.00249698,0.00312528,0.000971289,-0.0718349,-25.3102,2.11152,27.5024,0.624081,3.21252,-0.00996382,0.419927,-0.30834,0.0132044,0.243372,0.430238,-0.0682285,-0.0188896,0.298008,-0.137147,-0.152288,-0.0280692,-0.144559,0.0188401,
-0.0862081,-0.250214,-0.273364,-1.92584,-0.0683336,0.139834,-0.418102,-0.00157925,0.0407186,-0.0138538,-0.1692,-0.00953861,0.237255,-0.00201292,0,0,0,0,0,0,0,-0.0862016,-0.250458,-0.273227,-1.92358,-0.0681909,1.70737,0.367332,0.00202576,0.000581023,-0.0012484,-0.000946945,-0.00249698,0.00312528,0.000971289,-0.0718349,-25.3102,2.11152,27.5024,0.624081,3.21252,-0.00996382,0.419927,-0.30834,0.0132044,0.243372,0.430238,-0.0682285,-0.0188896,0.298008,-0.137147,-0.152288,-0.0280692,-0.144559,0.0188401,
-0.0861993,-0.250448,-0.273225,-1.92358,-0.0682089,0.136601,-0.418066,8.11182e-05,0.000434496,6.26486e-05,-0.000168487,-0.000777672,0.000796356,-8.78563e-06,0,0,0,0,0,0,0,-0.0862136,-0.250461,-0.273231,-1.92357,-0.0681666,1.70736,0.36733,-8.81841e-05,-0.00172577,-0.0013127,0.00145198,0.00695743,-0.00079431,-1.92329e-05,0.0551182,-25.2348,2.1393,27.4271,0.434567,3.32512,0.00376909,0.229021,-0.36899,0.144989,0.249105,0.245981,-0.131784,-0.0802979,0.176359,-0.199582,-0.0823654,-0.040895,-0.136338,0.0193909,
-0.086199,-0.250447,-0.273225,-1.92359,-0.0682115,0.136603,-0.418066,6.74642e-05,0.000342559,4.4629e-05,-0.000140031,-0.00064037,0.000572439,-6.53476e-06,0,0,0,0,0,0,0,-0.0862136,-0.250461,-0.273231,-1.92357,-0.0681666,1.70736,0.36733,-8.81841e-05,-0.00172577,-0.0013127,0.00145198,0.00695743,-0.00079431,-1.92329e-05,0.0551182,-25.2348,2.1393,27.4271,0.434567,3.32512,0.00376909,0.229021,-0.36899,0.144989,0.249105,0.245981,-0.131784,-0.0802979,0.176359,-0.199582,-0.0823654,-0.040895,-0.136338,0.0193909,
-0.0861988,-0.250446,-0.273225,-1.92359,-0.0682136,0.136604,-0.418066,5.71183e-05,0.000262023,3.08065e-05,-0.00011955,-0.000536445,0.000396308,-4.83755e-06,0,0,0,0,0,0,0,-0.0862136,-0.250461,-0.273231,-1.92357,-0.0681666,1.70736,0.36733,-8.81841e-05,-0.00172577,-0.0013127,0.00145198,0.00695743,-0.00079431,-1.92329e-05,0.0551182,-25.2348,2.1393,27.4271,0.434567,3.32512,0.00376909,0.419648,-0.199699,-0.220949,0.193648,0.485021,-0.0206127,0.0272761,0.351658,-0.0852636,-0.213462,-0.0290029,-0.112623,0.0193372,
-0.0861986,-0.250445,-0.273225,-1.92359,-0.0682154,0.136606,-0.418066,4.90506e-05,0.000192669,2.00559e-05,-0.000103003,-0.000457499,0.000255397,-3.52533e-06,0,0,0,0,0,0,0,-0.0862136,-0.250461,-0.273231,-1.92357,-0.0681666,1.70736,0.36733,-8.81841e-05,-0.00172577,-0.0013127,0.00145198,0.00695743,-0.00079431,-1.92329e-05,0.0551182,-25.2348,2.1393,27.4271,0.434567,3.32512,0.00376909,0.419648,-0.199699,-0.220949,0.193648,0.485021,-0.0206127,0.0272761,0.351658,-0.0852636,-0.213462,-0.0290029,-0.112623,0.0193372,
-0.0861984,-0.250445,-0.273225,-1.92359,-0.068217,0.136606,-0.418066,4.26152e-05,0.000133344,1.1562e-05,-8.88192e-05,-0.000397388,0.00014168,-2.49359e-06,0,0,0,0,0,0,0,-0.0862136,-0.250461,-0.273231,-1.92357,-0.0681666,1.70736,0.36733,-8.81841e-05,-0.00172577,-0.0013127,0.00145198,0.00695743,-0.00079431,-1.92329e-05,0.0551182,-25.2348,2.1393,27.4271,0.434567,3.32512,0.00376909,-0.740785,-0.0615048,-0.38308,0.115417,-0.262502,-0.178864,-0.124361,-0.0112416,-0.244049,-0.22425,-0.0361475,-0.113606,0.0212878,
-0.0861982,-0.250444,-0.273225,-1.92359,-0.0682184,0.136606,-0.418066,3.73796e-05,8.2711e-05,4.73865e-06,-7.6351e-05,-0.000351552,4.94714e-05,-1.672e-06,0,0,0,0,0,0,0,-0.0862133,-0.250521,-0.273229,-1.92402,-0.0681716,1.70778,0.367328,-0.00235968,0.0047587,-0.00176509,-0.00824582,0.0120584,-0.00427332,-0.000386858,0.0551182,-25.6117,2.06392,28.399,0.477596,3.66295,0.0239107,-0.740785,-0.0615048,-0.38308,0.115417,-0.262502,-0.178864,-0.124361,-0.0112416,-0.244049,-0.22425,-0.0361475,-0.113606,0.0212878,
-0.0861981,-0.250444,-0.273225,-1.92359,-0.0682197,0.136606,-0.418066,3.30436e-05,3.95045e-05,-8.35786e-07,-6.52928e-05,-0.00031658,-2.55258e-05,-1.0107e-06,0,0,0,0,0,0,0,-0.0862133,-0.250521,-0.273229,-1.92402,-0.0681716,1.70778,0.367328,-0.00235968,0.0047587,-0.00176509,-0.00824582,0.0120584,-0.00427332,-0.000386858,0.0551182,-25.6117,2.06392,28.399,0.477596,3.66295,0.0239107,0.0427429,-0.322494,-0.756366,0.347049,0.401077,-0.146928,-0.0915008,0.402358,-0.24098,-0.382007,-0.0395268,-0.0926994,0.0210093,
-0.086198,-0.250444,-0.273225,-1.92359,-0.0682209,0.136606,-0.418066,2.93945e-05,2.60854e-06,-5.46592e-06,-5.54662e-05,-0.000289901,-8.66717e-05,-4.73283e-07,0,0,0,0,0,0,0,-0.0862133,-0.250521,-0.273229,-1.92402,-0.0681716,1.70778,0.367328,-0.00235968,0.0047587,-0.00176509,-0.00824582,0.0120584,-0.00427332,-0.000386858,0.0551182,-25.6117,2.06392,28.399,0.477596,3.66295,0.0239107,0.610049,-0.331026,-0.706575,0.360503,0.732893,-0.0428249,0.00503181,0.54613,-0.133162,-0.35174,-0.00982922,-0.0543826,0.0194883,
-0.0861979,-0.250444,-0.273225,-1.92359,-0.0682219,0.136605,-0.418066,2.62789e-05,-2.89362e-05,-9.37252e-06,-4.6741e-05,-0.000269571,-0.000136638,-3.26557e-08,0,0,0,0,0,0,0,-0.0862133,-0.250521,-0.273229,-1.92402,-0.0681716,1.70778,0.367328,-0.00235968,0.0047587,-0.00176509,-0.00824582,0.0120584,-0.00427332,-0.000386858,0.0551182,-25.6117,2.06392,28.399,0.477596,3.66295,0.0239107,0.610049,-0.331026,-0.706575,0.360503,0.732893,-0.0428249,0.00503181,0.54613,-0.133162,-0.35174,-0.00982922,-0.0543826,0.0194883,
-0.0861978,-0.250444,-0.273225,-1.92359,-0.068223,0.136605,-0.418066,2.35853e-05,-5.59441e-05,-1.27164e-05,-3.90069e-05,-0.000254113,-0.000177567,3.31618e-07,0,0,0,0,0,0,0,-0.0862133,-0.250521,-0.273229,-1.92402,-0.0681716,1.70778,0.367328,-0.00235968,0.0047587,-0.00176509,-0.00824582,0.0120584,-0.00427332,-0.000386858,0.0551182,-25.6117,2.06392,28.399,0.477596,3.66295,0.0239107,0.494493,-0.355881,-0.344943,0.295608,0.49901,-0.0765905,-0.0273193,0.344984,-0.153231,-0.175579,-0.0252226,-0.025305,0.0202512,
-0.0861977,-0.250445,-0.273225,-1.92359,-0.0682239,0.136604,-0.418066,2.12314e-05,-7.91036e-05,-1.56155e-05,-3.21649e-05,-0.000242399,-0.000211181,6.35101e-07,0,0,0,0,0,0,0,-0.0862133,-0.250521,-0.273229,-1.92402,-0.0681716,1.70778,0.367328,-0.00235968,0.0047587,-0.00176509,-0.00824582,0.0120584,-0.00427332,-0.000386858,0.0551182,-25.6117,2.06392,28.399,0.477596,3.66295,0.0239107,0.494493,-0.355881,-0.344943,0.295608,0.49901,-0.0765905,-0.0273193,0.344984,-0.153231,-0.175579,-0.0252226,-0.025305,0.0202512,
-0.0861976,-0.250445,-0.273225,-1.92359,-0.0682249,0.136603,-0.418066,1.9156e-05,-9.89954e-05,-1.81569e-05,-2.61232e-05,-0.000233565,-0.000238865,8.89753e-07,0,0,0,0,0,0,0,-0.086207,-0.250514,-0.27323,-1.92403,-0.0681836,1.70778,0.367326,-0.00109785,-0.00405246,-0.00224524,0.0054896,0.00666704,-0.00430857,-0.000996919,0.00751081,-25.5879,2.1393,27.5262,0.54443,3.424,0.0440523,0.221098,-0.322687,-0.410773,0.251019,0.342068,-0.113684,-0.0626766,0.276344,-0.183808,-0.187141,-0.0581782,-0.0239975,0.0200315,
-0.0861976,-0.250446,-0.273225,-1.92359,-0.0682258,0.136602,-0.418066,1.73128e-05,-0.000116109,-2.04056e-05,-2.07974e-05,-0.00022695,-0.000261738,1.10484e-06,0,0,0,0,0,0,0,-0.086207,-0.250514,-0.27323,-1.92403,-0.0681836,1.70778,0.367326,-0.00109785,-0.00405246,-0.00224524,0.0054896,0.00666704,-0.00430857,-0.000996919,0.00751081,-25.5879,2.1393,27.5262,0.54443,3.424,0.0440523,-0.217656,-0.0551901,-0.177851,0.0488482,-0.0645449,-0.0772437,-0.0259147,0.00702959,-0.12644,-0.0723228,-0.0337848,-0.0162959,0.0207336,
-0.0861975,-0.250446,-0.273225,-1.92359,-0.0682267,0.136601,-0.418066,1.56664e-05,-0.000130858,-2.24108e-05,-1.611e-05,-0.000222043,-0.0002807,1.28758e-06,0,0,0,0,0,0,0,-0.086207,-0.250514,-0.27323,-1.92403,-0.0681836,1.70778,0.367326,-0.00109785,-0.00405246,-0.00224524,0.0054896,0.00666704,-0.00430857,-0.000996919,0.00751081,-25.5879,2.1393,27.5262,0.54443,3.424,0.0440523,-0.217656,-0.0551901,-0.177851,0.0488482,-0.0645449,-0.0772437,-0.0259147,0.00702959,-0.12644,-0.0723228,-0.0337848,-0.0162959,0.0207336,
-0.0861974,-0.250447,-0.273225,-1.92359,-0.0682275,0.136599,-0.418066,1.4189e-05,-0.000143592,-2.42099e-05,-1.199e-05,-0.000218448,-0.000296476,1.44369e-06,0,0,0,0,0,0,0,-0.086207,-0.250514,-0.27323,-1.92403,-0.0681836,1.70778,0.367326,-0.00109785,-0.00405246,-0.00224524,0.0054896,0.00666704,-0.00430857,-0.000996919,0.00751081,-25.5879,2.1393,27.5262,0.54443,3.424,0.0440523,-0.30081,-0.0972521,-0.0640036,0.0649189,-0.162664,-0.112227,-0.0596032,-0.0630692,-0.163447,-0.026016,-0.0292565,-0.0190904,0.0216249,
-0.0861974,-0.250447,-0.273225,-1.92359,-0.0682284,0.136598,-0.418066,1.28588e-05,-0.000154605,-2.58324e-05,-8.37309e-06,-0.000215862,-0.000309653,1.57769e-06,0,0,0,0,0,0,0,-0.086207,-0.250514,-0.27323,-1.92403,-0.0681836,1.70778,0.367326,-0.00109785,-0.00405246,-0.00224524,0.0054896,0.00666704,-0.00430857,-0.000996919,0.00751081,-25.5879,2.1393,27.5262,0.54443,3.424,0.0440523,-0.30081,-0.0972521,-0.0640036,0.0649189,-0.162664,-0.112227,-0.0596032,-0.0630692,-0.163447,-0.026016,-0.0292565,-0.0190904,0.0216249,
-0.0861973,-0.250448,-0.273225,-1.92359,-0.0682292,0.136597,-0.418066,1.16581e-05,-0.000164147,-2.73012e-05,-5.20128e-06,-0.000214046,-0.000320702,1.69318e-06,0,0,0,0,0,0,0,-0.0862098,-0.250499,-0.273222,-1.92402,-0.0682186,1.70778,0.367328,-0.00130766,-0.00641627,0.000470243,0.00643797,0.00288375,-0.00200764,-0.000473412,0.0313145,-25.6593,2.01234,27.6254,0.855709,3.43133,0.0239107,0.439117,-0.192753,-1.03811,0.311434,0.743766,-0.0144542,0.0370515,0.613224,-0.106634,-0.482559,-0.0195443,-0.0619828,0.0209933,
-0.0861973,-0.250449,-0.273226,-1.92359,-0.0682301,0.136596,-0.418066,1.05723e-05,-0.000172431,-2.86352e-05,-2.42234e-06,-0.000212818,-0.000330006,1.7931e-06,0,0,0,0,0,0,0,-0.0862098,-0.250499,-0.273222,-1.92402,-0.0682186,1.70778,0.367328,-0.00130766,-0.00641627,0.000470243,0.00643797,0.00288375,-0.00200764,-0.000473412,0.0313145,-25.6593,2.01234,27.6254,0.855709,3.43133,0.0239107,0.439117,-0.192753,-1.03811,0.311434,0.743766,-0.0144542,0.0370515,0.613224,-0.106634,-0.482559,-0.0195443,-0.0619828,0.0209933,
-0.0861973,-0.250449,-0.273226,-1.92359,-0.0682309,0.136594,-0.418066,9.58919e-06,-0.000179635,-2.98496e-05,1.04277e-08,-0.000212035,-0.000337872,1.87982e-06,0,0,0,0,0,0,0,-0.0862098,-0.250499,-0.273222,-1.92402,-0.0682186,1.70778,0.367328,-0.00130766,-0.00641627,0.000470243,0.00643797,0.00288375,-0.00200764,-0.000473412,0.0313145,-25.6593,2.01234,27.6254,0.855709,3.43133,0.0239107,-0.269655,-0.24327,-0.526305,0.242794,0.0529901,-0.171051,-0.111164,0.152138,-0.254224,-0.230732,-0.0362173,-0.0447279,0.022483,
-0.0861972,-0.25045,-0.273226,-1.92359,-0.0682318,0.136593,-0.418066,8.69828e-06,-0.000185914,-3.09572e-05,2.13871e-06,-0.000211584,-0.00034455,1.95528e-06,0,0,0,0,0,0,0,-0.0862098,-0.250499,-0.273222,-1.92402,-0.0682186,1.70778,0.367328,-0.00130766,-0.00641627,0.000470243,0.00643797,0.00288375,-0.00200764,-0.000473412,0.0313145,-25.6593,2.01234,27.6254,0.855709,3.43133,0.0239107,-0.269655,-0.24327,-0.526305,0.242794,0.0529901,-0.171051,-0.111164,0.152138,-0.254224,-0.230732,-0.0362173,-0.0447279,0.022483,
-0.0861972,-0.250451,-0.273226,-1.92359,-0.0682326,0.136591,-0.418066,7.89058e-06,-0.000191397,-3.19689e-05,3.99957e-06,-0.00021138,-0.000350243,2.0211e-06,0,0,0,0,0,0,0,-0.0862098,-0.250499,-0.273222,-1.92402,-0.0682186,1.70778,0.367328,-0.00130766,-0.00641627,0.000470243,0.00643797,0.00288375,-0.00200764,-0.000473412,0.0313145,-25.6593,2.01234,27.6254,0.855709,3.43133,0.0239107,-0.299058,-0.247367,-0.107127,0.157902,-0.130041,-0.180033,-0.121017,-0.0278905,-0.244592,-0.0486801,-0.051936,-0.0277621,0.0235019,
-0.0861972,-0.250452,-0.273226,-1.92359,-0.0682335,0.13659,-0.418066,7.15817e-06,-0.000196195,-3.28943e-05,5.6259e-06,-0.000211356,-0.000355115,2.07862e-06,0,0,0,0,0,0,0,-0.0861895,-0.250527,-0.273199,-1.924,-0.0681973,1.70779,0.367324,0.00104198,5.07583e-05,-0.000542718,-0.00134127,-0.00914414,0.00702047,-0.00085171,-0.198788,-25.338,1.91316,27.6254,0.672604,3.28484,0.0376436,0.180321,-0.131253,-0.354342,0.145673,0.286193,-0.0386238,0.00732446,0.230972,-0.0973548,-0.172497,-0.0211897,-0.0299187,0.0225718,
-0.0861971,-0.250453,-0.273226,-1.92359,-0.0682343,0.136589,-0.418066,6.49403e-06,-0.000200403,-3.37414e-05,7.04681e-06,-0.00021146,-0.0003593,2.12896e-06,0,0,0,0,0,0,0,-0.0861895,-0.250527,-0.273199,-1.924,-0.0681973,1.70779,0.367324,0.00104198,5.07583e-05,-0.000542718,-0.00134127,-0.00914414,0.00702047,-0.00085171,-0.198788,-25.338,1.91316,27.6254,0.672604,3.28484,0.0376436,0.180321,-0.131253,-0.354342,0.145673,0.286193,-0.0386238,0.00732446,0.230972,-0.0973548,-0.172497,-0.0211897,-0.0299187,0.0225718,
-0.0861971,-0.250453,-0.273226,-1.92359,-0.0682352,0.136587,-0.418066,5.89191e-06,-0.000204103,-3.45176e-05,8.28803e-06,-0.000211652,-0.000362907,2.17306e-06,0,0,0,0,0,0,0,-0.0861895,-0.250527,-0.273199,-1.924,-0.0681973,1.70779,0.367324,0.00104198,5.07583e-05,-0.000542718,-0.00134127,-0.00914414,0.00702047,-0.00085171,-0.198788,-25.338,1.91316,27.6254,0.672604,3.28484,0.0376436,0.353912,-0.290663,-0.284487,0.241158,0.375535,-0.0771843,-0.0328837,0.266127,-0.14309,-0.143213,-0.022088,-0.0222218,0.0224824,
-0.0861971,-0.250454,-0.273226,-1.92359,-0.068236,0.136586,-0.418066,5.34615e-06,-0.000207364,-3.52294e-05,9.37225e-06,-0.0002119,-0.000366026,2.21175e-06,0,0,0,0,0,0,0,-0.0861895,-0.250527,-0.273199,-1.924,-0.0681973,1.70779,0.367324,0.00104198,5.07583e-05,-0.000542718,-0.00134127,-0.00914414,0.00702047,-0.00085171,-0.198788,-25.338,1.91316,27.6254,0.672604,3.28484,0.0376436,0.353912,-0.290663,-0.284487,0.241158,0.375535,-0.0771843,-0.0328837,0.266127,-0.14309,-0.143213,-0.022088,-0.0222218,0.0224824,
-0.0863221,-0.250411,-0.273303,-1.92346,-0.0665395,0.135664,-0.418077,-0.0112475,0.00302259,-0.00902003,0.0100512,0.188447,-0.10434,-0.000400384,0,0,0,0,0,0,0,-0.0861895,-0.250527,-0.273199,-1.924,-0.0681973,1.70779,0.367324,0.00104198,5.07583e-05,-0.000542718,-0.00134127,-0.00914414,0.00702047,-0.00085171,-0.198788,-25.338,1.91316,27.6254,0.672604,3.28484,0.0376436,0.546513,-0.473985,-0.341289,0.360921,0.542271,-0.121233,-0.0713074,0.373012,-0.202919,-0.176641,-0.0425073,-0.0275306,0.0217257,
-0.0863118,-0.250484,-0.273277,-1.92388,-0.0666189,0.136122,-0.418087,-0.011396,0.00282367,-0.00914853,0.0101648,0.182779,-0.101294,-0.000433389,0,0,0,0,0,0,0,-0.0861895,-0.250527,-0.273199,-1.924,-0.0681973,1.70779,0.367324,0.00104198,5.07583e-05,-0.000542718,-0.00134127,-0.00914414,0.00702047,-0.00085171,-0.198788,-25.338,1.91316,27.6254,0.672604,3.28484,0.0376436,0.546513,-0.473985,-0.341289,0.360921,0.542271,-0.121233,-0.0713074,0.373012,-0.202919,-0.176641,-0.0425073,-0.0275306,0.0217257,
-0.0863566,-0.250478,-0.273317,-1.92385,-0.0657486,0.135636,-0.418087,-0.0112096,0.00144164,-0.0100004,0.00893561,0.217565,-0.121504,-0.000102194,0,0,0,0,0,0,0,-0.0862119,-0.250585,-0.27322,-1.92395,-0.0681733,1.70778,0.367328,0.00161146,-0.000249386,0.000270316,-0.00138301,-0.000229056,-0.00737778,-0.000125367,0.0313145,-24.9889,2.1393,27.2009,0.532528,3.36449,0.0303194,0.647649,-0.419666,-0.393601,0.343292,0.626594,-0.0787055,-0.0307619,0.42365,-0.159044,-0.201922,-0.0298591,-0.0265747,0.0224573,
-0.0863987,-0.250477,-0.273357,-1.92382,-0.0647726,0.135085,-0.418086,-0.0105308,0.00020921,-0.0100282,0.00756718,0.244008,-0.137861,0.000121448,0,0,0,0,0,0,0,-0.0862119,-0.250585,-0.27322,-1.92395,-0.0681733,1.70778,0.367328,0.00161146,-0.000249386,0.000270316,-0.00138301,-0.000229056,-0.00737778,-0.000125367,0.0313145,-24.9889,2.1393,27.2009,0.532528,3.36449,0.0303194,0.647649,-0.419666,-0.393601,0.343292,0.626594,-0.0787055,-0.0307619,0.42365,-0.159044,-0.201922,-0.0298591,-0.0265747,0.0224573,
-0.086437,-0.25048,-0.273395,-1.92379,-0.0637157,0.13448,-0.418085,-0.00957499,-0.000780941,-0.00954002,0.0062803,0.264224,-0.151202,0.000271271,0,0,0,0,0,0,0,-0.0862119,-0.250585,-0.27322,-1.92395,-0.0681733,1.70778,0.367328,0.00161146,-0.000249386,0.000270316,-0.00138301,-0.000229056,-0.00737778,-0.000125367,0.0313145,-24.9889,2.1393,27.2009,0.532528,3.36449,0.0303194,0.363187,-0.462355,-0.294037,0.350205,0.395084,-0.152969,-0.105879,0.286799,-0.231358,-0.149237,-0.0358056,-0.0271653,0.0236562,
-0.086471,-0.250487,-0.27343,-1.92377,-0.0625967,0.133832,-0.418084,-0.00848123,-0.00152691,-0.00874616,0.00513465,0.279751,-0.162089,0.000369871,0,0,0,0,0,0,0,-0.0862119,-0.250585,-0.27322,-1.92395,-0.0681733,1.70778,0.367328,0.00161146,-0.000249386,0.000270316,-0.00138301,-0.000229056,-0.00737778,-0.000125367,0.0313145,-24.9889,2.1393,27.2009,0.532528,3.36449,0.0303194,0.502814,-0.472436,-0.304981,0.378883,0.50971,-0.129757,-0.0924353,0.357541,-0.205218,-0.179344,-0.0198666,-0.046119,0.0208041,
-0.0865003,-0.250495,-0.273461,-1.92376,-0.0614298,0.133148,-0.418082,-0.00733943,-0.00205767,-0.00778814,0.00413427,0.291716,-0.170949,0.00043282,0,0,0,0,0,0,0,-0.0862119,-0.250585,-0.27322,-1.92395,-0.0681733,1.70778,0.367328,0.00161146,-0.000249386,0.000270316,-0.00138301,-0.000229056,-0.00737778,-0.000125367,0.0313145,-24.9889,2.1393,27.2009,0.532528,3.36449,0.0303194,0.502814,-0.472436,-0.304981,0.378883,0.50971,-0.129757,-0.0924353,0.357541,-0.205218,-0.179344,-0.0198666,-0.046119,0.0208041,
-0.0865251,-0.250504,-0.273488,-1.92374,-0.060226,0.132436,-0.41808,-0.00620688,-0.00240987,-0.00675999,0.00326602,0.300949,-0.178123,0.000471026,0,0,0,0,0,0,0,-0.0862653,-0.250546,-0.273271,-1.92394,-0.0668987,1.70772,0.367332,-0.0027793,-0.00175253,-0.00316859,0.00273561,0.0863055,-0.00527476,0.00147078,0.539127,-25.5126,2.51222,27.3517,0.960079,3.29857,-0.00996382,0.459522,-0.346262,-0.162842,0.332187,0.414879,-0.0787732,-0.0475332,0.27743,-0.151083,-0.133896,0.0444212,-0.0552724,0.018418,
-0.0865456,-0.250515,-0.273511,-1.92373,-0.0589937,0.1317,-0.418078,-0.00511892,-0.00261921,-0.00572283,0.00251324,0.308068,-0.183896,0.0004921,0,0,0,0,0,0,0,-0.0862653,-0.250546,-0.273271,-1.92394,-0.0668987,1.70772,0.367332,-0.0027793,-0.00175253,-0.00316859,0.00273561,0.0863055,-0.00527476,0.00147078,0.539127,-25.5126,2.51222,27.3517,0.960079,3.29857,-0.00996382,0.405656,-0.303739,-0.162925,0.363239,0.375598,-0.066352,-0.0296195,0.259702,-0.155314,-0.151547,0.0999313,-0.0742137,0.0173498,
-0.086562,-0.250526,-0.27353,-1.92373,-0.0577396,0.130946,-0.418076,-0.00409613,-0.00271729,-0.00471518,0.00186015,0.313534,-0.188503,0.000501424,0,0,0,0,0,0,0,-0.0862653,-0.250546,-0.273271,-1.92394,-0.0668987,1.70772,0.367332,-0.0027793,-0.00175253,-0.00316859,0.00273561,0.0863055,-0.00527476,0.00147078,0.539127,-25.5126,2.51222,27.3517,0.960079,3.29857,-0.00996382,0.405656,-0.303739,-0.162925,0.363239,0.375598,-0.066352,-0.0296195,0.259702,-0.155314,-0.151547,0.0999313,-0.0742137,0.0173498,
-0.0865746,-0.250537,-0.273545,-1.92372,-0.0564688,0.130177,-0.418074,-0.00314922,-0.00273089,-0.00376016,0.00129298,0.317696,-0.192142,0.000502723,0,0,0,0,0,0,0,-0.0862653,-0.250546,-0.273271,-1.92394,-0.0668987,1.70772,0.367332,-0.0027793,-0.00175253,-0.00316859,0.00273561,0.0863055,-0.00527476,0.00147078,0.539127,-25.5126,2.51222,27.3517,0.960079,3.29857,-0.00996382,0.311114,-0.312472,-0.0683009,0.431339,0.297455,-0.0872477,-0.0454281,0.218471,-0.196955,-0.157257,0.163734,-0.121136,0.0193065,
-0.0865837,-0.250547,-0.273556,-1.92372,-0.0551855,0.129397,-0.418072,-0.00228235,-0.0026821,-0.00287046,0.000800063,0.32082,-0.194977,0.000498734,0,0,0,0,0,0,0,-0.0862653,-0.250546,-0.273271,-1.92394,-0.0668987,1.70772,0.367332,-0.0027793,-0.00175253,-0.00316859,0.00273561,0.0863055,-0.00527476,0.00147078,0.539127,-25.5126,2.51222,27.3517,0.960079,3.29857,-0.00996382,0.311114,-0.312472,-0.0683009,0.431339,0.297455,-0.0872477,-0.0454281,0.218471,-0.196955,-0.157257,0.163734,-0.121136,0.0193065,
-0.0865897,-0.250558,-0.273565,-1.92372,-0.0538931,0.128609,-0.41807,-0.00149547,-0.0025888,-0.00205184,0.000371579,0.323109,-0.197146,0.000491402,0,0,0,0,0,0,0,-0.0862653,-0.250546,-0.273271,-1.92394,-0.0668987,1.70772,0.367332,-0.0027793,-0.00175253,-0.00316859,0.00273561,0.0863055,-0.00527476,0.00147078,0.539127,-25.5126,2.51222,27.3517,0.960079,3.29857,-0.00996382,0.235938,-0.268327,0.310273,0.380842,0.0851445,-0.0821593,-0.0475588,0.0292401,-0.180955,0.000394351,0.21076,-0.113499,0.019662,
-0.0865929,-0.250568,-0.27357,-1.92372,-0.0525942,0.127814,-0.418068,-0.000785877,-0.0024652,-0.00130551,-7.8518e-07,0.324721,-0.198761,0.00048182,0,0,0,0,0,0,0,-0.0863121,-0.250536,-0.273283,-1.92397,-0.0637436,1.70722,0.36733,-0.00149097,-0.00162825,-0.00169194,0.000698931,0.113217,-0.0237285,0.000519235,0.233646,-25.5602,2.33766,27.7246,1.21002,3.19237,0.00376909,0.235938,-0.268327,0.310273,0.380842,0.0851445,-0.0821593,-0.0475588,0.0292401,-0.180955,0.000394351,0.21076,-0.113499,0.019662,
-0.0865934,-0.250577,-0.273572,-1.92372,-0.0512911,0.127014,-0.418066,-0.000149307,-0.00232247,-0.000629784,-0.000324089,0.325779,-0.199917,0.000471063,0,0,0,0,0,0,0,-0.0863121,-0.250536,-0.273283,-1.92397,-0.0637436,1.70722,0.36733,-0.00149097,-0.00162825,-0.00169194,0.000698931,0.113217,-0.0237285,0.000519235,0.233646,-25.5602,2.33766,27.7246,1.21002,3.19237,0.00376909,0.573046,-0.141308,0.182447,0.368522,0.376474,0.0390159,0.0615604,0.211094,-0.0567005,-0.0960709,0.260316,-0.141446,0.0178956,
-0.0865918,-0.250586,-0.273572,-1.92372,-0.0499856,0.126211,-0.418065,0.000419379,-0.00216921,-2.12721e-05,-0.000604371,0.32638,-0.200693,0.000459693,0,0,0,0,0,0,0,-0.0863121,-0.250536,-0.273283,-1.92397,-0.0637436,1.70722,0.36733,-0.00149097,-0.00162825,-0.00169194,0.000698931,0.113217,-0.0237285,0.000519235,0.233646,-25.5602,2.33766,27.7246,1.21002,3.19237,0.00376909,0.553069,-0.108219,0.278685,0.399614,0.364096,0.0503604,0.0687305,0.209308,-0.0525693,-0.116228,0.313804,-0.19925,0.0186527,
-0.0865881,-0.250594,-0.27357,-1.92372,-0.0486792,0.125407,-0.418063,0.000925639,-0.00201198,0.00052445,-0.000846822,0.326602,-0.201153,0.000448106,0,0,0,0,0,0,0,-0.0863121,-0.250536,-0.273283,-1.92397,-0.0637436,1.70722,0.36733,-0.00149097,-0.00162825,-0.00169194,0.000698931,0.113217,-0.0237285,0.000519235,0.233646,-25.5602,2.33766,27.7246,1.21002,3.19237,0.00376909,0.553069,-0.108219,0.278685,0.399614,0.364096,0.0503604,0.0687305,0.209308,-0.0525693,-0.116228,0.313804,-0.19925,0.0186527,
-0.0865826,-0.250601,-0.273566,-1.92373,-0.0473732,0.124601,-0.418061,0.00137501,-0.00185564,0.00101224,-0.00105596,0.326508,-0.20135,0.000436632,0,0,0,0,0,0,0,-0.0863121,-0.250536,-0.273283,-1.92397,-0.0637436,1.70722,0.36733,-0.00149097,-0.00162825,-0.00169194,0.000698931,0.113217,-0.0237285,0.000519235,0.233646,-25.5602,2.33766,27.7246,1.21002,3.19237,0.00376909,0.209886,-0.13924,0.445322,0.429986,0.0966409,-0.0259394,-0.0018115,0.0580163,-0.139652,-0.0770466,0.335705,-0.241816,0.0187318,
-0.0865755,-0.250608,-0.273561,-1.92373,-0.0460686,0.123796,-0.418059,0.00177288,-0.00170373,0.0014471,-0.00123568,0.326147,-0.201328,0.000425442,0,0,0,0,0,0,0,-0.0863808,-0.250555,-0.273302,-1.92394,-0.0593307,1.70663,0.367327,-0.00284603,0.00127422,5.82907e-05,4.35332e-05,0.153972,-0.0112748,-0.000207393,0.360599,-25.338,2.41304,27.4271,1.53412,2.96715,0.0376436,0.209886,-0.13924,0.445322,0.429986,0.0966409,-0.0259394,-0.0018115,0.0580163,-0.139652,-0.0770466,0.335705,-0.241816,0.0187318,
-0.086567,-0.250614,-0.273553,-1.92374,-0.0447663,0.122992,-0.418058,0.00212432,-0.00155871,0.00183395,-0.00138942,0.325562,-0.201123,0.000414614,0,0,0,0,0,0,0,-0.0863808,-0.250555,-0.273302,-1.92394,-0.0593307,1.70663,0.367327,-0.00284603,0.00127422,5.82907e-05,4.35332e-05,0.153972,-0.0112748,-0.000207393,0.360599,-25.338,2.41304,27.4271,1.53412,2.96715,0.0376436,0.450542,0.0243069,0.314139,0.400463,0.332683,0.0926427,0.115758,0.215592,-0.0266607,-0.183537,0.386396,-0.282895,0.020257,
-0.0865572,-0.25062,-0.273544,-1.92374,-0.0434672,0.122189,-0.418056,0.00243412,-0.00142224,0.00217748,-0.00152018,0.324785,-0.200767,0.000404249,0,0,0,0,0,0,0,-0.0863808,-0.250555,-0.273302,-1.92394,-0.0593307,1.70663,0.367327,-0.00284603,0.00127422,5.82907e-05,4.35332e-05,0.153972,-0.0112748,-0.000207393,0.360599,-25.338,2.41304,27.4271,1.53412,2.96715,0.0376436,0.450542,0.0243069,0.314139,0.400463,0.332683,0.0926427,0.115758,0.215592,-0.0266607,-0.183537,0.386396,-0.282895,0.020257,
-0.0865464,-0.250625,-0.273535,-1.92375,-0.0421718,0.121387,-0.418055,0.00270664,-0.00129534,0.0024821,-0.00163058,0.323846,-0.200283,0.000394284,0,0,0,0,0,0,0,-0.0863808,-0.250555,-0.273302,-1.92394,-0.0593307,1.70663,0.367327,-0.00284603,0.00127422,5.82907e-05,4.35332e-05,0.153972,-0.0112748,-0.000207393,0.360599,-25.338,2.41304,27.4271,1.53412,2.96715,0.0376436,0.360106,-0.135132,0.488086,0.498938,0.219134,0.00421139,0.0280492,0.136299,-0.12592,-0.125694,0.397699,-0.299751,0.0217987,
-0.0865346,-0.25063,-0.273524,-1.92376,-0.0408807,0.120589,-0.418053,0.0029459,-0.00117854,0.00275188,-0.00172296,0.322767,-0.199692,0.000384811,0,0,0,0,0,0,0,-0.0863808,-0.250555,-0.273302,-1.92394,-0.0593307,1.70663,0.367327,-0.00284603,0.00127422,5.82907e-05,4.35332e-05,0.153972,-0.0112748,-0.000207393,0.360599,-25.338,2.41304,27.4271,1.53412,2.96715,0.0376436,0.503352,-0.13248,0.391585,0.525033,0.371371,0.0343188,0.0554585,0.242967,-0.09883,-0.190829,0.403621,-0.320344,0.020226,
-0.086522,-0.250634,-0.273512,-1.92376,-0.0395945,0.119793,-0.418052,0.00315551,-0.00107201,0.00299056,-0.00179936,0.321568,-0.199012,0.000375798,0,0,0,0,0,0,0,-0.0863808,-0.250555,-0.273302,-1.92394,-0.0593307,1.70663,0.367327,-0.00284603,0.00127422,5.82907e-05,4.35332e-05,0.153972,-0.0112748,-0.000207393,0.360599,-25.338,2.41304,27.4271,1.53412,2.96715,0.0376436,0.503352,-0.13248,0.391585,0.525033,0.371371,0.0343188,0.0554585,0.242967,-0.09883,-0.190829,0.403621,-0.320344,0.020226,
-0.0865087,-0.250638,-0.273499,-1.92377,-0.0383134,0.119,-0.41805,0.00333878,-0.000975638,0.00320151,-0.00186161,0.320267,-0.198257,0.000367294,0,0,0,0,0,0,0,-0.0863919,-0.250555,-0.273285,-1.92395,-0.0541856,1.70613,0.367328,0.000303053,0.00172041,0.00328659,-0.00134617,0.161754,-0.019023,-0.000261474,0.134464,-25.3856,2.1393,27.55,1.35742,2.89391,0.0303194,0.65628,-0.141963,0.393706,0.549228,0.489756,0.0584456,0.0739681,0.312377,-0.0743691,-0.214918,0.417157,-0.338141,0.020894,
-0.0864947,-0.250641,-0.273485,-1.92378,-0.0370379,0.11821,-0.418049,0.00349864,-0.000889144,0.00338779,-0.00191129,0.318877,-0.197438,0.000359035,0,0,0,0,0,0,0,-0.0863919,-0.250555,-0.273285,-1.92395,-0.0541856,1.70613,0.367328,0.000303053,0.00172041,0.00328659,-0.00134617,0.161754,-0.019023,-0.000261474,0.134464,-25.3856,2.1393,27.55,1.35742,2.89391,0.0303194,0.65628,-0.141963,0.393706,0.549228,0.489756,0.0584456,0.0739681,0.312377,-0.0743691,-0.214918,0.417157,-0.338141,0.020894,
-0.0864801,-0.250645,-0.273471,-1.92379,-0.0357682,0.117424,-0.418047,0.00363773,-0.000812105,0.00355216,-0.00194986,0.31741,-0.196566,0.000351229,0,0,0,0,0,0,0,-0.0863919,-0.250555,-0.273285,-1.92395,-0.0541856,1.70613,0.367328,0.000303053,0.00172041,0.00328659,-0.00134617,0.161754,-0.019023,-0.000261474,0.134464,-25.3856,2.1393,27.55,1.35742,2.89391,0.0303194,0.462527,-0.151661,0.519551,0.522108,0.333305,0.0169098,0.0303494,0.218286,-0.107294,-0.174506,0.397272,-0.356353,0.0216994,
-0.0864463,-0.250404,-0.273328,-1.92341,-0.063552,0.132355,-0.418073,-0.0225771,0.0053226,-0.0149122,0.0491586,0.535118,-0.519607,0.0013633,0,0,0,0,0,0,0,-0.0863919,-0.250555,-0.273285,-1.92395,-0.0541856,1.70613,0.367328,0.000303053,0.00172041,0.00328659,-0.00134617,0.161754,-0.019023,-0.000261474,0.134464,-25.3856,2.1393,27.55,1.35742,2.89391,0.0303194,0.646921,-0.138994,0.447043,0.532965,0.503951,0.0579605,0.0653493,0.328861,-0.0637044,-0.229324,0.400268,-0.373969,0.0209767,
-0.0865743,-0.250437,-0.273359,-1.92343,-0.0482892,0.130737,-0.418067,-0.0158135,0.00524134,-0.00925097,0.0441516,0.615048,-0.50722,0.00137945,0,0,0,0,0,0,0,-0.0863919,-0.250555,-0.273285,-1.92395,-0.0541856,1.70613,0.367328,0.000303053,0.00172041,0.00328659,-0.00134617,0.161754,-0.019023,-0.000261474,0.134464,-25.3856,2.1393,27.55,1.35742,2.89391,0.0303194,0.646921,-0.138994,0.447043,0.532965,0.503951,0.0579605,0.0653493,0.328861,-0.0637044,-0.229324,0.400268,-0.373969,0.0209767,
-0.0866297,-0.250438,-0.273396,-1.92328,-0.0454806,0.12837,-0.418059,-0.0138332,-0.000358097,-0.00916563,0.0375514,0.70214,-0.591732,0.0020236,0,0,0,0,0,0,0,-0.0863897,-0.250552,-0.273272,-1.92394,-0.0463915,1.70546,0.367327,0.00055676,-0.000978491,0.00152439,0.00676034,0.197153,-0.0224192,-0.000869319,0.0313145,-25.3856,2.01234,27.6492,1.1615,2.76116,0.0376436,0.442743,-0.2564,0.559341,0.581947,0.343181,-0.032305,-0.0224496,0.237088,-0.157724,-0.189733,0.379731,-0.389766,0.0216451,
-0.0866738,-0.250457,-0.273427,-1.92315,-0.0423996,0.125739,-0.418049,-0.0110353,-0.00475139,-0.00771595,0.0304682,0.770241,-0.657607,0.00245662,0,0,0,0,0,0,0,-0.0863897,-0.250552,-0.273272,-1.92394,-0.0463915,1.70546,0.367327,0.00055676,-0.000978491,0.00152439,0.00676034,0.197153,-0.0224192,-0.000869319,0.0313145,-25.3856,2.01234,27.6492,1.1615,2.76116,0.0376436,0.442743,-0.2564,0.559341,0.581947,0.343181,-0.032305,-0.0224496,0.237088,-0.157724,-0.189733,0.379731,-0.389766,0.0216451,
-0.0867052,-0.250488,-0.273449,-1.92306,-0.039104,0.122902,-0.418038,-0.00784244,-0.00781769,-0.00545078,0.0238587,0.823904,-0.709332,0.00274406,0,0,0,0,0,0,0,-0.0863897,-0.250552,-0.273272,-1.92394,-0.0463915,1.70546,0.367327,0.00055676,-0.000978491,0.00152439,0.00676034,0.197153,-0.0224192,-0.000869319,0.0313145,-25.3856,2.01234,27.6492,1.1615,2.76116,0.0376436,0.558129,-0.623629,0.567752,0.796927,0.448746,-0.172735,-0.164256,0.312091,-0.31402,-0.198599,0.336052,-0.402007,0.0202279,
-0.0867232,-0.250527,-0.27346,-1.92299,-0.0356381,0.119902,-0.418027,-0.00451418,-0.0097255,-0.0027423,0.0179834,0.866489,-0.749926,0.00292973,0,0,0,0,0,0,0,-0.0863897,-0.250552,-0.273272,-1.92394,-0.0463915,1.70546,0.367327,0.00055676,-0.000978491,0.00152439,0.00676034,0.197153,-0.0224192,-0.000869319,0.0313145,-25.3856,2.01234,27.6492,1.1615,2.76116,0.0376436,0.558129,-0.623629,0.567752,0.796927,0.448746,-0.172735,-0.164256,0.312091,-0.31402,-0.198599,0.336052,-0.402007,0.0202279,
-0.0867281,-0.25057,-0.273459,-1.92294,-0.032036,0.116776,-0.418014,-0.00121201,-0.0107091,0.000160645,0.012858,0.900507,-0.781606,0.00304258,0,0,0,0,0,0,0,-0.0863897,-0.250552,-0.273272,-1.92394,-0.0463915,1.70546,0.367327,0.00055676,-0.000978491,0.00152439,0.00676034,0.197153,-0.0224192,-0.000869319,0.0313145,-25.3856,2.01234,27.6492,1.1615,2.76116,0.0376436,1.05632,-0.846795,0.93573,0.924774,0.681879,-0.173593,-0.176654,0.384531,-0.316807,-0.103825,0.360912,-0.429973,0.0171458,
-0.0867202,-0.250614,-0.273447,-1.9229,-0.0283247,0.113551,-0.418002,0.00196498,-0.0109915,0.00309447,0.00841968,0.927843,-0.806088,0.00310338,0,0,0,0,0,0,0,-0.0863897,-0.250552,-0.273272,-1.92394,-0.0463915,1.70546,0.367327,0.00055676,-0.000978491,0.00152439,0.00676034,0.197153,-0.0224192,-0.000869319,0.0313145,-25.3856,2.01234,27.6492,1.1615,2.76116,0.0376436,0.736678,-1.05433,1.64675,0.991194,0.20814,-0.319518,-0.318545,0.0181122,-0.469056,0.172861,0.392171,-0.44799,0.0159085,
-0.0867004,-0.250657,-0.273423,-1.92288,-0.024525,0.110252,-0.417989,0.00495872,-0.0107619,0.00595439,0.00458764,0.949925,-0.824733,0.00312726,0,0,0,0,0,0,0,-0.0865135,-0.250508,-0.273325,-1.92359,-0.0359915,1.7024,0.367329,-0.00825197,0.00109296,-0.0020743,0.00660098,0.429051,-0.153262,0.000429421,0.689884,-25.8855,2.5876,27.1533,2.18139,2.07177,0.017502,0.736678,-1.05433,1.64675,0.991194,0.20814,-0.319518,-0.318545,0.0181122,-0.469056,0.172861,0.392171,-0.44799,0.0159085,
-0.0866694,-0.250698,-0.273388,-1.92288,-0.0206536,0.106898,-0.417977,0.00773817,-0.0101728,0.00867614,0.00128323,0.967844,-0.838634,0.00312554,0,0,0,0,0,0,0,-0.0865135,-0.250508,-0.273325,-1.92359,-0.0359915,1.7024,0.367329,-0.00825197,0.00109296,-0.0020743,0.00660098,0.429051,-0.153262,0.000429421,0.689884,-25.8855,2.5876,27.1533,2.18139,2.07177,0.017502,0.890523,-0.815967,1.40847,1.00722,0.477487,-0.174889,-0.167716,0.243342,-0.35294,-0.0524342,0.496891,-0.569336,0.0157861,
-0.0866283,-0.250735,-0.273343,-1.92289,-0.0167239,0.103503,-0.417965,0.0102901,-0.00934372,0.0112231,-0.00156383,0.982435,-0.848673,0.00310525,0,0,0,0,0,0,0,-0.0865135,-0.250508,-0.273325,-1.92359,-0.0359915,1.7024,0.367329,-0.00825197,0.00109296,-0.0020743,0.00660098,0.429051,-0.153262,0.000429421,0.689884,-25.8855,2.5876,27.1533,2.18139,2.07177,0.017502,0.77488,-0.409774,1.47965,0.844467,0.43306,-0.00693141,-0.00425165,0.235457,-0.179656,-0.130114,0.59643,-0.674555,0.0154914,
-0.0865778,-0.250769,-0.273289,-1.9229,-0.0127465,0.100081,-0.417952,0.0126133,-0.00836643,0.0135773,-0.00401442,0.994348,-0.855566,0.00307213,0,0,0,0,0,0,0,-0.0865135,-0.250508,-0.273325,-1.92359,-0.0359915,1.7024,0.367329,-0.00825197,0.00109296,-0.0020743,0.00660098,0.429051,-0.153262,0.000429421,0.689884,-25.8855,2.5876,27.1533,2.18139,2.07177,0.017502,0.77488,-0.409774,1.47965,0.844467,0.43306,-0.00693141,-0.00425165,0.235457,-0.179656,-0.130114,0.59643,-0.674555,0.0154914,
-0.086519,-0.250798,-0.273226,-1.92293,-0.00873012,0.0966414,-0.41794,0.0147136,-0.00731012,0.0157331,-0.00612094,1.00409,-0.859893,0.00303017,0,0,0,0,0,0,0,-0.0865135,-0.250508,-0.273325,-1.92359,-0.0359915,1.7024,0.367329,-0.00825197,0.00109296,-0.0020743,0.00660098,0.429051,-0.153262,0.000429421,0.689884,-25.8855,2.5876,27.1533,2.18139,2.07177,0.017502,0.642481,-0.335268,2.20137,0.748283,0.0932963,0.00834342,0.0106319,-0.0652676,-0.153516,0.118024,0.656952,-0.713151,0.0176867,
-0.0864526,-0.250823,-0.273155,-1.92296,-0.00468193,0.0931929,-0.417928,0.0166019,-0.00622606,0.0176931,-0.0079283,1.01205,-0.862125,0.00298308,0,0,0,0,0,0,0,-0.0868956,-0.250552,-0.27352,-1.92317,-0.0186888,1.69533,0.36733,-0.0123368,0.0016104,-0.00983212,0.0080773,0.587111,-0.27395,0.000736631,0.967594,-25.3856,2.91292,26.9272,2.32238,1.72021,0.00376909,0.642481,-0.335268,2.20137,0.748283,0.0932963,0.00834342,0.0106319,-0.0652676,-0.153516,0.118024,0.656952,-0.713151,0.0176867,
-0.0863794,-0.250843,-0.273077,-1.923,-0.000607756,0.0897424,-0.417916,0.0182915,-0.00515142,0.0194648,-0.00947505,1.01854,-0.862645,0.00293175,0,0,0,0,0,0,0,-0.0868956,-0.250552,-0.27352,-1.92317,-0.0186888,1.69533,0.36733,-0.0123368,0.0016104,-0.00983212,0.0080773,0.587111,-0.27395,0.000736631,0.967594,-25.3856,2.91292,26.9272,2.32238,1.72021,0.00376909,0.861866,0.157077,2.13036,0.567509,0.34791,0.278092,0.275045,0.114527,0.120617,-0.0520498,0.76855,-0.839717,0.0193019,
-0.0863002,-0.25086,-0.272993,-1.92304,0.00348756,0.0862953,-0.417905,0.0197969,-0.0041124,0.0210588,-0.0107944,1.02383,-0.861764,0.00287854,0,0,0,0,0,0,0,-0.0868956,-0.250552,-0.27352,-1.92317,-0.0186888,1.69533,0.36733,-0.0123368,0.0016104,-0.00983212,0.0080773,0.587111,-0.27395,0.000736631,0.967594,-25.3856,2.91292,26.9272,2.32238,1.72021,0.00376909,0.602233,-0.0681862,2.21066,0.776428,0.208498,0.136142,0.135593,0.0733474,-0.0532198,-0.0938765,0.806483,-0.928129,0.0225694,
-0.0862157,-0.250872,-0.272903,-1.92309,0.00759998,0.0828564,-0.417894,0.0211331,-0.00312676,0.0224874,-0.0119149,1.0281,-0.859738,0.00282407,0,0,0,0,0,0,0,-0.0868956,-0.250552,-0.27352,-1.92317,-0.0186888,1.69533,0.36733,-0.0123368,0.0016104,-0.00983212,0.0080773,0.587111,-0.27395,0.000736631,0.967594,-25.3856,2.91292,26.9272,2.32238,1.72021,0.00376909,0.602233,-0.0681862,2.21066,0.776428,0.208498,0.136142,0.135593,0.0733474,-0.0532198,-0.0938765,0.806483,-0.928129,0.0225694,
-0.0861264,-0.250881,-0.272808,-1.92314,0.0117261,0.0794293,-0.417883,0.022315,-0.00220586,0.0237634,-0.0128613,1.03153,-0.856773,0.00276935,0,0,0,0,0,0,0,-0.0868956,-0.250552,-0.27352,-1.92317,-0.0186888,1.69533,0.36733,-0.0123368,0.0016104,-0.00983212,0.0080773,0.587111,-0.27395,0.000736631,0.967594,-25.3856,2.91292,26.9272,2.32238,1.72021,0.00376909,0.812688,0.45471,2.52788,0.502688,0.246117,0.418868,0.422357,0.0319913,0.241054,-0.0438274,0.930059,-0.987153,0.0246399,
-0.086033,-0.250886,-0.272708,-1.92319,0.0158631,0.0760171,-0.417872,0.0233567,-0.00135621,0.0248997,-0.0136554,1.03424,-0.853038,0.0027149,0,0,0,0,0,0,0,-0.0872224,-0.250646,-0.273765,-1.92294,0.000965752,1.68567,0.367322,-0.0103476,-0.00726425,-0.00177407,-0.00423878,0.62806,-0.318877,-0.00219634,1.09455,-24.9135,2.96449,26.951,2.15118,1.86577,0.0779268,0.812688,0.45471,2.52788,0.502688,0.246117,0.418868,0.422357,0.0319913,0.241054,-0.0438274,0.930059,-0.987153,0.0246399,
-0.0859359,-0.250889,-0.272605,-1.92325,0.0200085,0.0726224,-0.417861,0.0242716,-0.00058074,0.025909,-0.0143157,1.03635,-0.848674,0.00266054,0,0,0,0,0,0,0,-0.0872224,-0.250646,-0.273765,-1.92294,0.000965752,1.68567,0.367322,-0.0103476,-0.00726425,-0.00177407,-0.00423878,0.62806,-0.318877,-0.00219634,1.09455,-24.9135,2.96449,26.951,2.15118,1.86577,0.0779268,1.13224,0.1833,2.3135,0.772269,0.597394,0.363804,0.367648,0.291663,0.148552,-0.201841,0.956772,-1.0506,0.02787,
-0.0858356,-0.250888,-0.272498,-1.92331,0.0241602,0.0692472,-0.417851,0.0250723,0.000120242,0.026803,-0.0148587,1.03794,-0.843795,0.00260696,0,0,0,0,0,0,0,-0.0872224,-0.250646,-0.273765,-1.92294,0.000965752,1.68567,0.367322,-0.0103476,-0.00726425,-0.00177407,-0.00423878,0.62806,-0.318877,-0.00219634,1.09455,-24.9135,2.96449,26.951,2.15118,1.86577,0.0779268,1.13224,0.1833,2.3135,0.772269,0.597394,0.363804,0.367648,0.291663,0.148552,-0.201841,0.956772,-1.0506,0.02787,
-0.0857325,-0.250885,-0.272387,-1.92337,0.0283165,0.0658933,-0.41784,0.0257702,0.000748284,0.0275931,-0.0152986,1.03909,-0.838494,0.00255407,0,0,0,0,0,0,0,-0.0872224,-0.250646,-0.273765,-1.92294,0.000965752,1.68567,0.367322,-0.0103476,-0.00726425,-0.00177407,-0.00423878,0.62806,-0.318877,-0.00219634,1.09455,-24.9135,2.96449,26.951,2.15118,1.86577,0.0779268,1.34942,-0.156435,2.22064,1.01989,0.790705,0.258644,0.262124,0.424109,0.0163038,-0.249328,0.95186,-1.05615,0.0284007,
-0.085627,-0.25088,-0.272274,-1.92343,0.032476,0.0625619,-0.41783,0.026376,0.00130621,0.0282896,-0.015648,1.03986,-0.832849,0.00250216,0,0,0,0,0,0,0,-0.0872224,-0.250646,-0.273765,-1.92294,0.000965752,1.68567,0.367322,-0.0103476,-0.00726425,-0.00177407,-0.00423878,0.62806,-0.318877,-0.00219634,1.09455,-24.9135,2.96449,26.951,2.15118,1.86577,0.0779268,1.60879,0.0945764,2.30828,0.882997,0.939979,0.424693,0.424146,0.482414,0.195056,-0.250102,0.998183,-1.07795,0.0294978,
-0.0855194,-0.250873,-0.272158,-1.9235,0.0366372,0.0592542,-0.417821,0.0268991,0.00179771,0.0289019,-0.0159178,1.04031,-0.826924,0.00245094,0,0,0,0,0,0,0,-0.0872224,-0.250646,-0.273765,-1.92294,0.000965752,1.68567,0.367322,-0.0103476,-0.00726425,-0.00177407,-0.00423878,0.62806,-0.318877,-0.00219634,1.09455,-24.9135,2.96449,26.951,2.15118,1.86577,0.0779268,1.60879,0.0945764,2.30828,0.882997,0.939979,0.424693,0.424146,0.482414,0.195056,-0.250102,0.998183,-1.07795,0.0294978,
-0.0854092,-0.250864,-0.27204,-1.92356,0.040792,0.0559709,-0.417811,0.0275619,0.00217716,0.0295173,-0.0160862,1.03871,-0.820805,0.00242966,0,0,0,0,0,0,0,-0.0873995,-0.250847,-0.273868,-1.92292,0.0215951,1.67435,0.367324,-0.00197688,-0.00203744,-0.0013812,0.00128509,0.681818,-0.400145,-0.00253225,1.14612,-24.8381,3.13905,26.7526,2.03491,1.90606,0.0577852,1.20156,-0.0132104,2.57893,0.883377,0.565909,0.306026,0.31102,0.241348,0.0788132,-0.120526,0.966071,-1.07439,0.0309866,
-0.085296,-0.250854,-0.27192,-1.92363,0.0449316,0.0527129,-0.417801,0.0282998,0.00245341,0.0301969,-0.0161609,1.03488,-0.814524,0.00241141,0,0,0,0,0,0,0,-0.0873995,-0.250847,-0.273868,-1.92292,0.0215951,1.67435,0.367324,-0.00197688,-0.00203744,-0.0013812,0.00128509,0.681818,-0.400145,-0.00253225,1.14612,-24.8381,3.13905,26.7526,2.03491,1.90606,0.0577852,1.20156,-0.0132104,2.57893,0.883377,0.565909,0.306026,0.31102,0.241348,0.0788132,-0.120526,0.966071,-1.07439,0.0309866,
-0.0851799,-0.250844,-0.271796,-1.92369,0.0490494,0.0494805,-0.417792,0.0290141,0.00265558,0.0309119,-0.0161621,1.02945,-0.808098,0.00238335,0,0,0,0,0,0,0,-0.0873995,-0.250847,-0.273868,-1.92292,0.0215951,1.67435,0.367324,-0.00197688,-0.00203744,-0.0013812,0.00128509,0.681818,-0.400145,-0.00253225,1.14612,-24.8381,3.13905,26.7526,2.03491,1.90606,0.0577852,1.0578,0.117278,2.39984,0.797665,0.536221,0.341165,0.344743,0.255872,0.124948,-0.183259,0.941598,-1.07381,0.0304809,
-0.0856847,-0.25079,-0.272521,-1.92383,-0.0497888,0.129586,-0.417859,0.0826036,-0.0305011,0.0905791,0.00310218,0.458828,-0.652886,0.0174861,0,0,0,0,0,0,0,-0.0873995,-0.250847,-0.273868,-1.92292,0.0215951,1.67435,0.367324,-0.00197688,-0.00203744,-0.0013812,0.00128509,0.681818,-0.400145,-0.00253225,1.14612,-24.8381,3.13905,26.7526,2.03491,1.90606,0.0577852,0.518989,-0.0963017,2.62217,0.812386,0.0666134,0.146301,0.152743,-0.0384118,-0.0586677,-0.0211179,0.856116,-1.02486,0.0322439,
-0.0865502,-0.251181,-0.273034,-1.92305,0.0297829,0.0950942,-0.41784,0.0966768,-0.0364159,0.100515,-0.0187598,0.698552,-0.82611,0.0188484,0,0,0,0,0,0,0,-0.0873995,-0.250847,-0.273868,-1.92292,0.0215951,1.67435,0.367324,-0.00197688,-0.00203744,-0.0013812,0.00128509,0.681818,-0.400145,-0.00253225,1.14612,-24.8381,3.13905,26.7526,2.03491,1.90606,0.0577852,0.518989,-0.0963017,2.62217,0.812386,0.0666134,0.146301,0.152743,-0.0384118,-0.0586677,-0.0211179,0.856116,-1.02486,0.0322439,
-0.0860841,-0.251343,-0.272538,-1.92316,0.0326809,0.0914234,-0.417768,0.116527,-0.0407095,0.123911,-0.0265861,0.724485,-0.91771,0.0179241,0,0,0,0,0,0,0,-0.0873765,-0.250907,-0.273837,-1.92295,0.0440533,1.66083,0.367328,0.00108514,0.000907643,0.00121936,-0.00216662,0.753112,-0.457535,0.0071793,0.590702,-25.1872,2.5876,27.1017,1.61377,2.32995,0.0239107,0.633751,-0.375858,2.38776,0.919818,0.196834,0.0393683,0.0396561,0.0549231,-0.158392,-0.0372938,0.754678,-0.946547,0.0322704,
-0.0855518,-0.251514,-0.271965,-1.92329,0.0356932,0.0874522,-0.4177,0.133088,-0.0427363,0.143124,-0.0338251,0.753093,-0.99279,0.0171537,0,0,0,0,0,0,0,-0.0873765,-0.250907,-0.273837,-1.92295,0.0440533,1.66083,0.367328,0.00108514,0.000907643,0.00121936,-0.00216662,0.753112,-0.457535,0.0071793,0.590702,-25.1872,2.5876,27.1017,1.61377,2.32995,0.0239107,0.633751,-0.375858,2.38776,0.919818,0.196834,0.0393683,0.0396561,0.0549231,-0.158392,-0.0372938,0.754678,-0.946547,0.0322704,
-0.0849638,-0.251687,-0.271329,-1.92346,0.0388222,0.083234,-0.417634,0.146999,-0.0431248,0.159043,-0.0403788,0.78223,-1.05456,0.0165012,0,0,0,0,0,0,0,-0.0873765,-0.250907,-0.273837,-1.92295,0.0440533,1.66083,0.367328,0.00108514,0.000907643,0.00121936,-0.00216662,0.753112,-0.457535,0.0071793,0.590702,-25.1872,2.5876,27.1017,1.61377,2.32995,0.0239107,0.917573,-0.258143,2.06225,0.851488,0.490552,0.133845,0.150003,0.249709,-0.0690307,-0.144603,0.722385,-0.912904,0.0430339,
-0.0843288,-0.251856,-0.27064,-1.92364,0.0420644,0.0788119,-0.41757,0.158743,-0.0423652,0.172333,-0.046235,0.810557,-1.10552,0.0159372,0,0,0,0,0,0,0,-0.0873765,-0.250907,-0.273837,-1.92295,0.0440533,1.66083,0.367328,0.00108514,0.000907643,0.00121936,-0.00216662,0.753112,-0.457535,0.0071793,0.590702,-25.1872,2.5876,27.1017,1.61377,2.32995,0.0239107,0.917573,-0.258143,2.06225,0.851488,0.490552,0.133845,0.150003,0.249709,-0.0690307,-0.144603,0.722385,-0.912904,0.0430339,
-0.083654,-0.25202,-0.269906,-1.92385,0.0454135,0.0742212,-0.417508,0.168699,-0.0408305,0.183496,-0.0514185,0.837281,-1.14767,0.015438,0,0,0,0,0,0,0,-0.0873765,-0.250907,-0.273837,-1.92295,0.0440533,1.66083,0.367328,0.00108514,0.000907643,0.00121936,-0.00216662,0.753112,-0.457535,0.0071793,0.590702,-25.1872,2.5876,27.1017,1.61377,2.32995,0.0239107,0.524221,-1.29532,2.03455,1.31003,0.248043,-0.40646,-0.381568,0.14776,-0.630597,-0.046586,0.471231,-0.825795,0.0500838,
-0.0829454,-0.252175,-0.269134,-1.92407,0.0488614,0.0694909,-0.417448,0.177159,-0.0387997,0.192917,-0.0559697,0.861974,-1.18257,0.0149894,0,0,0,0,0,0,0,-0.0873765,-0.250907,-0.273837,-1.92295,0.0440533,1.66083,0.367328,0.00108514,0.000907643,0.00121936,-0.00216662,0.753112,-0.457535,0.0071793,0.590702,-25.1872,2.5876,27.1017,1.61377,2.32995,0.0239107,0.511166,-1.50707,2.10679,1.19709,0.171101,-0.511259,-0.506112,0.0607649,-0.671676,0.1112,0.258825,-0.696334,0.0501634,
-0.0822079,-0.252321,-0.268331,-1.92431,0.0523992,0.0646448,-0.41739,0.184356,-0.0364797,0.200895,-0.0599355,0.884448,-1.21152,0.0145784,0,0,0,0,0,0,0,-0.0865037,-0.251195,-0.272537,-1.92336,0.0691886,1.64143,0.367326,0.0353328,-0.013156,0.0438454,-0.0184723,0.539459,-0.466666,0.000233624,1.52698,-25.5364,3.98805,27.1017,1.69891,1.93261,0.0440523,0.511166,-1.50707,2.10679,1.19709,0.171101,-0.511259,-0.506112,0.0607649,-0.671676,0.1112,0.258825,-0.696334,0.0501634,
-0.081446,-0.252457,-0.2675,-1.92456,0.0560179,0.0597026,-0.417333,0.190479,-0.0340214,0.207663,-0.0633644,0.90467,-1.23555,0.0141975,0,0,0,0,0,0,0,-0.0865037,-0.251195,-0.272537,-1.92336,0.0691886,1.64143,0.367326,0.0353328,-0.013156,0.0438454,-0.0184723,0.539459,-0.466666,0.000233624,1.52698,-25.5364,3.98805,27.1017,1.69891,1.93261,0.0440523,0.299667,-1.22464,2.26419,0.927175,-0.0542806,-0.430268,-0.448756,-0.107393,-0.532842,0.21455,0.224551,-0.661841,0.0523131,
-0.0806633,-0.252583,-0.266646,-1.92483,0.0597087,0.0546807,-0.417278,0.19568,-0.0315333,0.213408,-0.066304,0.922704,-1.25548,0.0138393,0,0,0,0,0,0,0,-0.0865037,-0.251195,-0.272537,-1.92336,0.0691886,1.64143,0.367326,0.0353328,-0.013156,0.0438454,-0.0184723,0.539459,-0.466666,0.000233624,1.52698,-25.5364,3.98805,27.1017,1.69891,1.93261,0.0440523,0.299667,-1.22464,2.26419,0.927175,-0.0542806,-0.430268,-0.448756,-0.107393,-0.532842,0.21455,0.224551,-0.661841,0.0523131,
-0.079863,-0.252699,-0.265773,-1.9251,0.0634634,0.0495927,-0.417224,0.200086,-0.0290923,0.218281,-0.0687998,0.938667,-1.27201,0.0135008,0,0,0,0,0,0,0,-0.0865037,-0.251195,-0.272537,-1.92336,0.0691886,1.64143,0.367326,0.0353328,-0.013156,0.0438454,-0.0184723,0.539459,-0.466666,0.000233624,1.52698,-25.5364,3.98805,27.1017,1.69891,1.93261,0.0440523,0.854489,-1.13752,1.37637,1.0412,0.73683,-0.285784,-0.307944,0.509108,-0.412077,-0.247829,0.227542,-0.752238,0.0549774,
-0.0790478,-0.252806,-0.264884,-1.92539,0.0672742,0.0444499,-0.417171,0.203802,-0.0267509,0.222406,-0.0708947,0.95271,-1.2857,0.0131772,0,0,0,0,0,0,0,-0.0865037,-0.251195,-0.272537,-1.92336,0.0691886,1.64143,0.367326,0.0353328,-0.013156,0.0438454,-0.0184723,0.539459,-0.466666,0.000233624,1.52698,-25.5364,3.98805,27.1017,1.69891,1.93261,0.0440523,0.854489,-1.13752,1.37637,1.0412,0.73683,-0.285784,-0.307944,0.509108,-0.412077,-0.247829,0.227542,-0.752238,0.0549774,
-0.0782201,-0.252905,-0.26398,-1.92568,0.0711342,0.0392618,-0.417119,0.206917,-0.024544,0.225885,-0.0726284,0.964994,-1.297,0.0128674,0,0,0,0,0,0,0,-0.0849245,-0.251726,-0.270606,-1.92358,0.0867101,1.62367,0.367327,0.0643125,-0.0182077,0.071879,-0.00330551,0.567325,-0.606055,-0.000899267,1.95942,-24.9135,4.31337,26.3797,1.82068,1.86577,0.0641939,0.335827,-1.01304,0.959773,1.02297,0.599258,-0.318514,-0.334281,0.54521,-0.454305,-0.457522,0.204404,-0.820993,0.0564863,
-0.0773821,-0.252994,-0.263065,-1.92597,0.0750369,0.0340367,-0.417069,0.209507,-0.0224927,0.228803,-0.0740372,0.975682,-1.3063,0.0125679,0,0,0,0,0,0,0,-0.0849245,-0.251726,-0.270606,-1.92358,0.0867101,1.62367,0.367327,0.0643125,-0.0182077,0.071879,-0.00330551,0.567325,-0.606055,-0.000899267,1.95942,-24.9135,4.31337,26.3797,1.82068,1.86577,0.0641939,-0.427834,-1.2033,1.33029,1.03771,-0.0863201,-0.539327,-0.545706,0.110278,-0.673499,-0.236464,0.155736,-0.777958,0.0572785,
-0.0765355,-0.253077,-0.26214,-1.92628,0.0789766,0.0287811,-0.41702,0.211637,-0.0206085,0.231233,-0.0751547,0.984933,-1.3139,0.0122782,0,0,0,0,0,0,0,-0.0849245,-0.251726,-0.270606,-1.92358,0.0867101,1.62367,0.367327,0.0643125,-0.0182077,0.071879,-0.00330551,0.567325,-0.606055,-0.000899267,1.95942,-24.9135,4.31337,26.3797,1.82068,1.86577,0.0641939,-0.427834,-1.2033,1.33029,1.03771,-0.0863201,-0.539327,-0.545706,0.110278,-0.673499,-0.236464,0.155736,-0.777958,0.0572785,
-0.0756818,-0.253154,-0.261207,-1.92659,0.0829488,0.0235351,-0.416972,0.213422,-0.0193296,0.233316,-0.0777342,0.993031,-1.31149,0.012032,0,0,0,0,0,0,0,-0.0849245,-0.251726,-0.270606,-1.92358,0.0867101,1.62367,0.367327,0.0643125,-0.0182077,0.071879,-0.00330551,0.567325,-0.606055,-0.000899267,1.95942,-24.9135,4.31337,26.3797,1.82068,1.86577,0.0641939,-0.912694,-1.48449,1.15517,1.26047,-0.320279,-0.742777,-0.732624,0.0472829,-0.918291,-0.315743,0.140711,-0.810008,0.0573159,
-0.0748222,-0.253227,-0.260267,-1.92691,0.0869488,0.018329,-0.416925,0.214917,-0.0181615,0.235049,-0.080575,0.999999,-1.30152,0.0117951,0,0,0,0,0,0,0,-0.0849245,-0.251726,-0.270606,-1.92358,0.0867101,1.62367,0.367327,0.0643125,-0.0182077,0.071879,-0.00330551,0.567325,-0.606055,-0.000899267,1.95942,-24.9135,4.31337,26.3797,1.82068,1.86577,0.0641939,-0.912694,-1.48449,1.15517,1.26047,-0.320279,-0.742777,-0.732624,0.0472829,-0.918291,-0.315743,0.140711,-0.810008,0.0573159,
-0.0739576,-0.253294,-0.259321,-1.92724,0.0909723,0.0131804,-0.416879,0.216129,-0.0168812,0.236459,-0.0828908,1.00588,-1.28716,0.0115588,0,0,0,0,0,0,0,-0.0827198,-0.2522,-0.267676,-1.92384,0.105554,1.60354,0.367325,0.07787,-0.0151474,0.102054,-0.00910752,0.614316,-0.661422,-0.000925916,2.23713,-24.7112,4.2856,26.3281,2.20611,1.78612,0.0577852,-0.589714,-1.18839,0.948765,1.21973,0.0579779,-0.536945,-0.529166,0.321333,-0.725669,-0.535022,0.237162,-0.934155,0.0582911,
-0.0730893,-0.253357,-0.25837,-1.92758,0.0950154,0.00810021,-0.416833,0.217073,-0.0155218,0.237585,-0.0845602,1.01078,-1.27004,0.0113253,0,0,0,0,0,0,0,-0.0827198,-0.2522,-0.267676,-1.92384,0.105554,1.60354,0.367325,0.07787,-0.0151474,0.102054,-0.00910752,0.614316,-0.661422,-0.000925916,2.23713,-24.7112,4.2856,26.3281,2.20611,1.78612,0.0577852,-0.648987,-0.43048,1.59158,0.736004,-0.274454,-0.208644,-0.202513,-0.00997564,-0.355633,-0.287937,0.386732,-0.940281,0.0578723,
-0.0722183,-0.253413,-0.257417,-1.92792,0.0990746,0.00309568,-0.416789,0.217772,-0.014162,0.238458,-0.0856494,1.0148,-1.25113,0.0111011,0,0,0,0,0,0,0,-0.0827198,-0.2522,-0.267676,-1.92384,0.105554,1.60354,0.367325,0.07787,-0.0151474,0.102054,-0.00910752,0.614316,-0.661422,-0.000925916,2.23713,-24.7112,4.2856,26.3281,2.20611,1.78612,0.0577852,-0.648987,-0.43048,1.59158,0.736004,-0.274454,-0.208644,-0.202513,-0.00997564,-0.355633,-0.287937,0.386732,-0.940281,0.0578723,
-0.0713453,-0.253465,-0.25646,-1.92827,0.103147,-0.00182843,-0.416745,0.218241,-0.0128675,0.239111,-0.086263,1.01806,-1.23103,0.0108611,0,0,0,0,0,0,0,-0.0827198,-0.2522,-0.267676,-1.92384,0.105554,1.60354,0.367325,0.07787,-0.0151474,0.102054,-0.00910752,0.614316,-0.661422,-0.000925916,2.23713,-24.7112,4.2856,26.3281,2.20611,1.78612,0.0577852,0.125795,0.534848,0.990401,0.360015,0.507244,0.356647,0.351977,0.507639,0.225263,-0.662128,0.56643,-1.04588,0.0582548,
-0.0704713,-0.253511,-0.255502,-1.92861,0.10723,-0.006669,-0.416703,0.2185,-0.011681,0.239563,-0.0864954,1.02065,-1.21014,0.0106239,0,0,0,0,0,0,0,-0.0827198,-0.2522,-0.267676,-1.92384,0.105554,1.60354,0.367325,0.07787,-0.0151474,0.102054,-0.00910752,0.614316,-0.661422,-0.000925916,2.23713,-24.7112,4.2856,26.3281,2.20611,1.78612,0.0577852,0.125795,0.534848,0.990401,0.360015,0.507244,0.356647,0.351977,0.507639,0.225263,-0.662128,0.56643,-1.04588,0.0582548,
-0.069597,-0.253554,-0.254543,-1.92896,0.11132,-0.0114241,-0.416661,0.218578,-0.010627,0.239834,-0.0864231,1.02266,-1.18876,0.0103967,0,0,0,0,0,0,0,-0.0827198,-0.2522,-0.267676,-1.92384,0.105554,1.60354,0.367325,0.07787,-0.0151474,0.102054,-0.00910752,0.614316,-0.661422,-0.000925916,2.23713,-24.7112,4.2856,26.3281,2.20611,1.78612,0.0577852,-0.769098,0.788467,1.1681,0.276255,-0.103054,0.32381,0.326198,0.195178,0.180956,-0.668351,0.653001,-1.1609,0.0610574,
-0.068723,-0.253593,-0.253583,-1.9293,0.115417,-0.0160924,-0.416621,0.218495,-0.00971586,0.23994,-0.0861074,1.02416,-1.16709,0.010174,0,0,0,0,0,0,0,-0.0797228,-0.252702,-0.264124,-1.92418,0.124488,1.58137,0.367329,0.104378,-0.0130502,0.120725,-0.00634303,0.574865,-0.683953,0.000139456,2.41565,-24.8381,4.21419,26.0822,2.74902,1.82,0.0303194,-0.568024,0.806792,0.952502,0.374138,0.0498251,0.353339,0.372218,0.287348,0.171014,-0.722909,0.746533,-1.12223,0.0611587,
-0.0678499,-0.253629,-0.252623,-1.92964,0.119518,-0.0206736,-0.416581,0.218268,-0.00894829,0.239901,-0.0855967,1.02522,-1.14528,0.00995322,0,0,0,0,0,0,0,-0.0797228,-0.252702,-0.264124,-1.92418,0.124488,1.58137,0.367329,0.104378,-0.0130502,0.120725,-0.00634303,0.574865,-0.683953,0.000139456,2.41565,-24.8381,4.21419,26.0822,2.74902,1.82,0.0303194,-0.568024,0.806792,0.952502,0.374138,0.0498251,0.353339,0.372218,0.287348,0.171014,-0.722909,0.746533,-1.12223,0.0611587,
-0.0669783,-0.253662,-0.251664,-1.92998,0.123621,-0.0251673,-0.416542,0.217915,-0.00831864,0.239732,-0.0849289,1.02589,-1.12343,0.0097365,0,0,0,0,0,0,0,-0.0797228,-0.252702,-0.264124,-1.92418,0.124488,1.58137,0.367329,0.104378,-0.0130502,0.120725,-0.00634303,0.574865,-0.683953,0.000139456,2.41565,-24.8381,4.21419,26.0822,2.74902,1.82,0.0303194,-0.691131,0.964696,1.08397,0.370358,-0.12335,0.392651,0.424028,0.157794,0.183419,-0.669769,0.877298,-1.12574,0.0626468,
-0.0857996,-0.251546,-0.272313,-1.92359,0.0285722,0.095537,-0.417825,0.179807,-0.0719556,0.185887,-0.0711955,0.57242,-0.787123,0.0201623,0,0,0,0,0,0,0,-0.0797228,-0.252702,-0.264124,-1.92418,0.124488,1.58137,0.367329,0.104378,-0.0130502,0.120725,-0.00634303,0.574865,-0.683953,0.000139456,2.41565,-24.8381,4.21419,26.0822,2.74902,1.82,0.0303194,-0.691131,0.964696,1.08397,0.370358,-0.12335,0.392651,0.424028,0.157794,0.183419,-0.669769,0.877298,-1.12574,0.0626468,
-0.0773123,-0.253386,-0.261582,-1.92507,0.131413,0.000763312,-0.417838,0.234695,-0.0655102,0.25146,-0.0901741,0.595987,-0.889375,0.0189267,0,0,0,0,0,0,0,-0.0797228,-0.252702,-0.264124,-1.92418,0.124488,1.58137,0.367329,0.104378,-0.0130502,0.120725,-0.00634303,0.574865,-0.683953,0.000139456,2.41565,-24.8381,4.21419,26.0822,2.74902,1.82,0.0303194,-0.915987,1.10551,1.10045,0.358714,-0.296311,0.410657,0.445735,0.0615913,0.187037,-0.671493,0.965541,-1.14358,0.063029,
-0.0762715,-0.253654,-0.260457,-1.92546,0.133918,-0.00304587,-0.417765,0.260198,-0.0671257,0.281421,-0.0979627,0.626413,-0.952296,0.0181867,0,0,0,0,0,0,0,-0.0763906,-0.253027,-0.259736,-1.92481,0.142633,1.55942,0.367333,0.110049,-0.00498787,0.144085,-0.0222775,0.565728,-0.667087,0.00114578,1.95942,-24.9373,3.58735,26.2567,3.03009,1.76049,0.0101778,-0.915987,1.10551,1.10045,0.358714,-0.296311,0.410657,0.445735,0.0615913,0.187037,-0.671493,0.965541,-1.14358,0.063029,
-0.0751464,-0.253921,-0.259233,-1.92588,0.13656,-0.00707121,-0.417695,0.281288,-0.0665805,0.305969,-0.103797,0.660356,-1.00634,0.017515,0,0,0,0,0,0,0,-0.0763906,-0.253027,-0.259736,-1.92481,0.142633,1.55942,0.367333,0.110049,-0.00498787,0.144085,-0.0222775,0.565728,-0.667087,0.00114578,1.95942,-24.9373,3.58735,26.2567,3.03009,1.76049,0.0101778,-0.577348,2.11281,0.828718,-0.190534,-0.0453933,0.89445,0.93027,0.182296,0.710751,-0.761418,1.09482,-1.11341,0.0605527,
-0.073951,-0.25418,-0.257928,-1.92631,0.139341,-0.0112799,-0.417628,0.298834,-0.0648406,0.326216,-0.108545,0.695312,-1.05217,0.0169019,0,0,0,0,0,0,0,-0.0763906,-0.253027,-0.259736,-1.92481,0.142633,1.55942,0.367333,0.110049,-0.00498787,0.144085,-0.0222775,0.565728,-0.667087,0.00114578,1.95942,-24.9373,3.58735,26.2567,3.03009,1.76049,0.0101778,-0.577348,2.11281,0.828718,-0.190534,-0.0453933,0.89445,0.93027,0.182296,0.710751,-0.761418,1.09482,-1.11341,0.0605527,
-0.0726971,-0.25443,-0.256556,-1.92676,0.14226,-0.0156433,-0.417562,0.313485,-0.0624403,0.343003,-0.112537,0.729658,-1.09085,0.0163401,0,0,0,0,0,0,0,-0.0763906,-0.253027,-0.259736,-1.92481,0.142633,1.55942,0.367333,0.110049,-0.00498787,0.144085,-0.0222775,0.565728,-0.667087,0.00114578,1.95942,-24.9373,3.58735,26.2567,3.03009,1.76049,0.0101778,-0.545206,1.83629,0.716481,-0.0471496,0.0181132,0.770363,0.804709,0.238358,0.579641,-0.777271,1.03768,-1.0825,0.0655466,
-0.0713941,-0.254669,-0.255128,-1.92723,0.145309,-0.0201369,-0.417499,0.325741,-0.0597029,0.35697,-0.115912,0.762384,-1.12341,0.0158203,0,0,0,0,0,0,0,-0.0763906,-0.253027,-0.259736,-1.92481,0.142633,1.55942,0.367333,0.110049,-0.00498787,0.144085,-0.0222775,0.565728,-0.667087,0.00114578,1.95942,-24.9373,3.58735,26.2567,3.03009,1.76049,0.0101778,-1.49306,-0.315578,0.861651,1.03866,-0.737635,-0.344692,-0.273532,-0.176776,-0.631987,-0.476748,0.689847,-0.872049,0.0690034,
-0.0700502,-0.254896,-0.253654,-1.9277,0.148481,-0.0247402,-0.417438,0.335995,-0.0568351,0.368617,-0.118742,0.792908,-1.15081,0.0153375,0,0,0,0,0,0,0,-0.0763906,-0.253027,-0.259736,-1.92481,0.142633,1.55942,0.367333,0.110049,-0.00498787,0.144085,-0.0222775,0.565728,-0.667087,0.00114578,1.95942,-24.9373,3.58735,26.2567,3.03009,1.76049,0.0101778,-1.49306,-0.315578,0.861651,1.03866,-0.737635,-0.344692,-0.273532,-0.176776,-0.631987,-0.476748,0.689847,-0.872049,0.0690034,
-0.0686719,-0.255112,-0.25214,-1.92819,0.151765,-0.0294355,-0.417378,0.344559,-0.0539742,0.378334,-0.121076,0.820936,-1.17383,0.0148846,0,0,0,0,0,0,0,-0.0724904,-0.253634,-0.25442,-1.92606,0.156116,1.54104,0.367327,0.13547,-0.0196303,0.202904,-0.0473929,0.377401,-0.541767,-0.000832002,2.64179,-25.4094,4.38875,26.5781,2.63366,2.01226,0.0779268,-1.59663,-0.338373,1.12634,0.877927,-1.01103,-0.382129,-0.295105,-0.429488,-0.644385,-0.224087,0.590319,-0.725187,0.0696806,
-0.067265,-0.255317,-0.250594,-1.92868,0.15515,-0.0341963,-0.41732,0.351736,-0.051376,0.386476,-0.123542,0.846402,-1.1902,0.0144732,0,0,0,0,0,0,0,-0.0724904,-0.253634,-0.25442,-1.92606,0.156116,1.54104,0.367327,0.13547,-0.0196303,0.202904,-0.0473929,0.377401,-0.541767,-0.000832002,2.64179,-25.4094,4.38875,26.5781,2.63366,2.01226,0.0779268,-1.59663,-0.338373,1.12634,0.877927,-1.01103,-0.382129,-0.295105,-0.429488,-0.644385,-0.224087,0.590319,-0.725187,0.0696806,
-0.0658336,-0.255515,-0.249021,-1.92919,0.158628,-0.0389687,-0.417264,0.357855,-0.0493789,0.393389,-0.127357,0.869377,-1.19311,0.0141223,0,0,0,0,0,0,0,-0.0724904,-0.253634,-0.25442,-1.92606,0.156116,1.54104,0.367327,0.13547,-0.0196303,0.202904,-0.0473929,0.377401,-0.541767,-0.000832002,2.64179,-25.4094,4.38875,26.5781,2.63366,2.01226,0.0779268,-1.06339,0.610842,1.20595,0.223508,-0.735114,0.117945,0.169795,-0.353944,-0.043756,-0.171801,0.629627,-0.684226,0.0664968,
-0.0643817,-0.255704,-0.247424,-1.92971,0.162187,-0.0437234,-0.417208,0.36297,-0.0473166,0.399178,-0.130647,0.889795,-1.18866,0.013782,0,0,0,0,0,0,0,-0.0724904,-0.253634,-0.25442,-1.92606,0.156116,1.54104,0.367327,0.13547,-0.0196303,0.202904,-0.0473929,0.377401,-0.541767,-0.000832002,2.64179,-25.4094,4.38875,26.5781,2.63366,2.01226,0.0779268,-1.06339,0.610842,1.20595,0.223508,-0.735114,0.117945,0.169795,-0.353944,-0.043756,-0.171801,0.629627,-0.684226,0.0664968,
-0.0629131,-0.255885,-0.245808,-1.93024,0.165818,-0.0484446,-0.417155,0.367156,-0.0451181,0.403968,-0.132923,0.907771,-1.18031,0.0134495,0,0,0,0,0,0,0,-0.0724904,-0.253634,-0.25442,-1.92606,0.156116,1.54104,0.367327,0.13547,-0.0196303,0.202904,-0.0473929,0.377401,-0.541767,-0.000832002,2.64179,-25.4094,4.38875,26.5781,2.63366,2.01226,0.0779268,-0.817078,0.88522,1.03693,-0.00308221,-0.532672,0.278845,0.328019,-0.243597,0.150253,-0.20273,0.581833,-0.639152,0.0645327,
-0.0614311,-0.256056,-0.244177,-1.93078,0.169512,-0.0531291,-0.417102,0.37049,-0.0427924,0.407856,-0.133931,0.923472,-1.17112,0.013095,0,0,0,0,0,0,0,-0.0677129,-0.254306,-0.24826,-1.92772,0.169441,1.52254,0.367331,0.160482,-0.0134195,0.201064,-0.0588455,0.463269,-0.587831,0.00121248,2.82032,-25.2348,4.71406,26.4551,2.41943,1.50139,0.0303194,-0.789856,-0.0686072,0.446034,0.553455,-0.254518,-0.13251,-0.0808671,0.0401046,-0.30539,-0.399643,0.394612,-0.599841,0.0657615,
-0.0599382,-0.25622,-0.242532,-1.93132,0.173261,-0.0577445,-0.417051,0.373228,-0.0409854,0.411079,-0.135568,0.937208,-1.15385,0.0127864,0,0,0,0,0,0,0,-0.0677129,-0.254306,-0.24826,-1.92772,0.169441,1.52254,0.367331,0.160482,-0.0134195,0.201064,-0.0588455,0.463269,-0.587831,0.00121248,2.82032,-25.2348,4.71406,26.4551,2.41943,1.50139,0.0303194,-0.789856,-0.0686072,0.446034,0.553455,-0.254518,-0.13251,-0.0808671,0.0401046,-0.30539,-0.399643,0.394612,-0.599841,0.0657615,
-0.0584366,-0.256377,-0.240878,-1.93187,0.177057,-0.0622679,-0.417001,0.375405,-0.0393463,0.413693,-0.137005,0.94908,-1.13086,0.0124946,0,0,0,0,0,0,0,-0.0677129,-0.254306,-0.24826,-1.92772,0.169441,1.52254,0.367331,0.160482,-0.0134195,0.201064,-0.0588455,0.463269,-0.587831,0.00121248,2.82032,-25.2348,4.71406,26.4551,2.41943,1.50139,0.0303194,-0.643419,-0.58763,-0.532822,0.935153,0.354599,-0.313124,-0.275311,0.612535,-0.511423,-0.884693,0.248805,-0.694378,0.0657954,
-0.0569284,-0.256528,-0.239215,-1.93242,0.180894,-0.0666881,-0.416952,0.377039,-0.0377105,0.415738,-0.137711,0.95923,-1.10505,0.0122073,0,0,0,0,0,0,0,-0.0677129,-0.254306,-0.24826,-1.92772,0.169441,1.52254,0.367331,0.160482,-0.0134195,0.201064,-0.0588455,0.463269,-0.587831,0.00121248,2.82032,-25.2348,4.71406,26.4551,2.41943,1.50139,0.0303194,-0.643419,-0.58763,-0.532822,0.935153,0.354599,-0.313124,-0.275311,0.612535,-0.511423,-0.884693,0.248805,-0.694378,0.0657954,
-0.0554157,-0.256672,-0.237546,-1.93297,0.184765,-0.0709994,-0.416905,0.378174,-0.0361235,0.417267,-0.137705,0.967841,-1.07783,0.0119238,0,0,0,0,0,0,0,-0.0677129,-0.254306,-0.24826,-1.92772,0.169441,1.52254,0.367331,0.160482,-0.0134195,0.201064,-0.0588455,0.463269,-0.587831,0.00121248,2.82032,-25.2348,4.71406,26.4551,2.41943,1.50139,0.0303194,-1.83084,-0.46424,-0.225129,0.869656,-0.510324,-0.424589,-0.376822,0.140242,-0.629425,-0.805005,0.287896,-0.783923,0.0670048,
-0.0539003,-0.256811,-0.235872,-1.93352,0.188666,-0.0751992,-0.416858,0.378865,-0.034654,0.418332,-0.137124,0.975093,-1.04994,0.0116697,0,0,0,0,0,0,0,-0.0677129,-0.254306,-0.24826,-1.92772,0.169441,1.52254,0.367331,0.160482,-0.0134195,0.201064,-0.0588455,0.463269,-0.587831,0.00121248,2.82032,-25.2348,4.71406,26.4551,2.41943,1.50139,0.0303194,-2.16398,-0.670461,0.483121,0.97079,-1.04808,-0.564988,-0.492962,-0.286821,-0.801268,-0.483355,0.351138,-0.750889,0.0671366,
-0.0523837,-0.256944,-0.234196,-1.93407,0.19259,-0.0792865,-0.416812,0.37915,-0.0333492,0.418987,-0.136111,0.981158,-1.02182,0.0114057,0,0,0,0,0,0,0,-0.0595449,-0.255296,-0.238851,-1.9298,0.193218,1.49608,0.367325,0.20275,-0.0229272,0.255029,-0.0546419,0.594791,-0.619717,-0.000253744,2.2887,-24.7112,3.88887,25.5823,2.43774,1.20934,0.050461,-2.16398,-0.670461,0.483121,0.97079,-1.04808,-0.564988,-0.492962,-0.286821,-0.801268,-0.483355,0.351138,-0.750889,0.0671366,
-0.0508673,-0.257073,-0.232519,-1.9346,0.196535,-0.0832614,-0.416768,0.379077,-0.0322317,0.419278,-0.134776,0.986182,-0.993724,0.0111444,0,0,0,0,0,0,0,-0.0595449,-0.255296,-0.238851,-1.9298,0.193218,1.49608,0.367325,0.20275,-0.0229272,0.255029,-0.0546419,0.594791,-0.619717,-0.000253744,2.2887,-24.7112,3.88887,25.5823,2.43774,1.20934,0.050461,-1.24629,-0.617743,-0.246213,1.0751,-0.0577607,-0.386405,-0.314824,0.4024,-0.648429,-0.898226,0.371585,-0.842834,0.0665714,
-0.0493526,-0.257199,-0.230842,-1.93514,0.200496,-0.0871246,-0.416724,0.378695,-0.0313068,0.419245,-0.133202,0.990289,-0.965811,0.0108967,0,0,0,0,0,0,0,-0.0595449,-0.255296,-0.238851,-1.9298,0.193218,1.49608,0.367325,0.20275,-0.0229272,0.255029,-0.0546419,0.594791,-0.619717,-0.000253744,2.2887,-24.7112,3.88887,25.5823,2.43774,1.20934,0.050461,-1.24629,-0.617743,-0.246213,1.0751,-0.0577607,-0.386405,-0.314824,0.4024,-0.648429,-0.898226,0.371585,-0.842834,0.0665714,
-0.0478404,-0.257321,-0.229167,-1.93566,0.204471,-0.0908773,-0.416682,0.378044,-0.0305683,0.418926,-0.131451,0.993588,-0.938186,0.0106591,0,0,0,0,0,0,0,-0.0595449,-0.255296,-0.238851,-1.9298,0.193218,1.49608,0.367325,0.20275,-0.0229272,0.255029,-0.0546419,0.594791,-0.619717,-0.000253744,2.2887,-24.7112,3.88887,25.5823,2.43774,1.20934,0.050461,-1.55373,0.739544,0.191926,0.270968,-0.424101,0.177734,0.235946,0.117912,-0.00645232,-0.798335,0.557269,-0.934153,0.0657577,
-0.0463318,-0.257441,-0.227493,-1.93618,0.208455,-0.094521,-0.41664,0.377159,-0.0300034,0.418357,-0.12957,0.996178,-0.91091,0.0104266,0,0,0,0,0,0,0,-0.0595449,-0.255296,-0.238851,-1.9298,0.193218,1.49608,0.367325,0.20275,-0.0229272,0.255029,-0.0546419,0.594791,-0.619717,-0.000253744,2.2887,-24.7112,3.88887,25.5823,2.43774,1.20934,0.050461,-1.55373,0.739544,0.191926,0.270968,-0.424101,0.177734,0.235946,0.117912,-0.00645232,-0.798335,0.557269,-0.934153,0.0657577,
-0.0448275,-0.257559,-0.225823,-1.93669,0.212448,-0.0980571,-0.416599,0.37607,-0.0295953,0.417571,-0.12759,0.998144,-0.884021,0.0102015,0,0,0,0,0,0,0,-0.0525294,-0.256066,-0.230458,-1.9317,0.211959,1.47844,0.367324,0.237327,-0.0202763,0.262228,-0.0560699,0.556481,-0.509034,-0.000147757,2.13398,-24.6358,3.56355,25.6061,3.28094,0.957571,0.0641939,-1.71706,1.60862,0.315125,-0.147439,-0.610746,0.520428,0.564189,-0.0215738,0.368016,-0.781232,0.763067,-0.974436,0.066139,
-0.0433283,-0.257677,-0.224156,-1.93719,0.216446,-0.101487,-0.416559,0.374805,-0.0293266,0.416595,-0.12554,0.999562,-0.857538,0.00998376,0,0,0,0,0,0,0,-0.0525294,-0.256066,-0.230458,-1.9317,0.211959,1.47844,0.367324,0.237327,-0.0202763,0.262228,-0.0560699,0.556481,-0.509034,-0.000147757,2.13398,-24.6358,3.56355,25.6061,3.28094,0.957571,0.0641939,-1.61917,1.03949,-0.670357,0.453537,-0.0521126,0.279814,0.324898,0.523711,0.0373116,-1.29718,0.817076,-1.09387,0.0702291,
-0.0767029,-0.253692,-0.260971,-1.92547,0.130502,0.00127945,-0.417864,0.302663,-0.0963616,0.323646,-0.130787,0.500622,-0.828257,0.0168113,0,0,0,0,0,0,0,-0.0525294,-0.256066,-0.230458,-1.9317,0.211959,1.47844,0.367324,0.237327,-0.0202763,0.262228,-0.0560699,0.556481,-0.509034,-0.000147757,2.13398,-24.6358,3.56355,25.6061,3.28094,0.957571,0.0641939,-1.61917,1.03949,-0.670357,0.453537,-0.0521126,0.279814,0.324898,0.523711,0.0373116,-1.29718,0.817076,-1.09387,0.0702291,
-0.0485067,-0.256855,-0.226105,-1.93317,0.218685,-0.0997347,-0.417886,0.371138,-0.0757619,0.405303,-0.140052,0.578565,-0.661978,0.0155908,0,0,0,0,0,0,0,-0.0525294,-0.256066,-0.230458,-1.9317,0.211959,1.47844,0.367324,0.237327,-0.0202763,0.262228,-0.0560699,0.556481,-0.509034,-0.000147757,2.13398,-24.6358,3.56355,25.6061,3.28094,0.957571,0.0641939,-2.46273,1.30923,-0.178803,0.332843,-0.814865,0.284337,0.345848,0.03791,0.0291016,-1.11014,0.941901,-1.13277,0.0694216,
-0.0469141,-0.257169,-0.224356,-1.93377,0.221116,-0.102514,-0.417825,0.398149,-0.0784589,0.437263,-0.148767,0.607774,-0.694884,0.0151251,0,0,0,0,0,0,0,-0.0525294,-0.256066,-0.230458,-1.9317,0.211959,1.47844,0.367324,0.237327,-0.0202763,0.262228,-0.0560699,0.556481,-0.509034,-0.000147757,2.13398,-24.6358,3.56355,25.6061,3.28094,0.957571,0.0641939,-2.46273,1.30923,-0.178803,0.332843,-0.814865,0.284337,0.345848,0.03791,0.0291016,-1.11014,0.941901,-1.13277,0.0694216,
-0.0452331,-0.257483,-0.222503,-1.93439,0.223679,-0.105387,-0.417767,0.420259,-0.0786493,0.46327,-0.154736,0.640618,-0.718301,0.0146746,0,0,0,0,0,0,0,-0.0450343,-0.256581,-0.221167,-1.93339,0.229119,1.46392,0.367325,0.240197,-0.0174403,0.29285,-0.0583823,0.420447,-0.374381,-0.000859679,-1.79364,-25.4372,-0.387865,26.8042,2.06512,2.22375,0.050461,-1.83799,2.2925,-0.248526,-0.202785,-0.459441,0.778955,0.843123,0.173671,0.559408,-1.10609,1.10657,-1.07954,0.0656045,
-0.0434795,-0.257793,-0.220565,-1.93502,0.226377,-0.108324,-0.41771,0.438387,-0.0774247,0.484495,-0.158939,0.674658,-0.734108,0.0142488,0,0,0,0,0,0,0,-0.0450343,-0.256581,-0.221167,-1.93339,0.229119,1.46392,0.367325,0.240197,-0.0174403,0.29285,-0.0583823,0.420447,-0.374381,-0.000859679,-1.79364,-25.4372,-0.387865,26.8042,2.06512,2.22375,0.050461,-1.83799,2.2925,-0.248526,-0.202785,-0.459441,0.778955,0.843123,0.173671,0.559408,-1.10609,1.10657,-1.07954,0.0656045,
-0.0416666,-0.258095,-0.218557,-1.93567,0.22921,-0.111301,-0.417654,0.453239,-0.0754186,0.501838,-0.161827,0.708265,-0.744273,0.0138497,0,0,0,0,0,0,0,-0.0450343,-0.256581,-0.221167,-1.93339,0.229119,1.46392,0.367325,0.240197,-0.0174403,0.29285,-0.0583823,0.420447,-0.374381,-0.000859679,-1.79364,-25.4372,-0.387865,26.8042,2.06512,2.22375,0.050461,-1.07564,1.45854,-0.490876,0.3292,0.113422,0.485999,0.530691,0.503113,0.230935,-1.14518,1.06193,-0.985308,0.0686267,
-0.0398052,-0.258387,-0.216493,-1.93632,0.232172,-0.114305,-0.417601,0.465351,-0.07298,0.515989,-0.163525,0.740393,-0.751052,0.0134619,0,0,0,0,0,0,0,-0.0450343,-0.256581,-0.221167,-1.93339,0.229119,1.46392,0.367325,0.240197,-0.0174403,0.29285,-0.0583823,0.420447,-0.374381,-0.000859679,-1.79364,-25.4372,-0.387865,26.8042,2.06512,2.22375,0.050461,-1.99208,-1.31002,-0.401398,1.83224,-0.559267,-0.847158,-0.735144,0.1529,-1.26801,-0.922799,0.674212,-0.811515,0.0743659,
-0.0379043,-0.258669,-0.214383,-1.93698,0.235254,-0.117321,-0.417548,0.475224,-0.0704863,0.527533,-0.164584,0.770442,-0.753829,0.0130773,0,0,0,0,0,0,0,-0.0450343,-0.256581,-0.221167,-1.93339,0.229119,1.46392,0.367325,0.240197,-0.0174403,0.29285,-0.0583823,0.420447,-0.374381,-0.000859679,-1.79364,-25.4372,-0.387865,26.8042,2.06512,2.22375,0.050461,-1.99208,-1.31002,-0.401398,1.83224,-0.559267,-0.847158,-0.735144,0.1529,-1.26801,-0.922799,0.674212,-0.811515,0.0743659,
-0.0359706,-0.258943,-0.212235,-1.93765,0.238446,-0.120304,-0.417497,0.48342,-0.0685291,0.537052,-0.16651,0.798131,-0.745793,0.0127603,0,0,0,0,0,0,0,-0.0450343,-0.256581,-0.221167,-1.93339,0.229119,1.46392,0.367325,0.240197,-0.0174403,0.29285,-0.0583823,0.420447,-0.374381,-0.000859679,-1.79364,-25.4372,-0.387865,26.8042,2.06512,2.22375,0.050461,-2.36203,-0.764926,-0.380449,1.40009,-0.858223,-0.641071,-0.513646,-0.0368958,-1.0202,-0.859632,0.633463,-0.773994,0.0726593,
-0.0340104,-0.259209,-0.210056,-1.93832,0.241739,-0.123233,-0.417447,0.490045,-0.0665624,0.544821,-0.167807,0.823177,-0.732421,0.0124607,0,0,0,0,0,0,0,-0.0363129,-0.257509,-0.210627,-1.93537,0.240497,1.45317,0.367327,0.297299,-0.0287835,0.332107,-0.0706041,0.35394,-0.31003,0.000587249,1.4278,-25.4848,3.18666,25.9552,3.25622,1.27617,0.0376436,-2.36203,-0.764926,-0.380449,1.40009,-0.858223,-0.641071,-0.513646,-0.0368958,-1.0202,-0.859632,0.633463,-0.773994,0.0726593,
-0.0320294,-0.259467,-0.207851,-1.93899,0.245121,-0.126101,-0.417399,0.49527,-0.0645393,0.551062,-0.168126,0.845568,-0.716891,0.0121993,0,0,0,0,0,0,0,-0.0363129,-0.257509,-0.210627,-1.93537,0.240497,1.45317,0.367327,0.297299,-0.0287835,0.332107,-0.0706041,0.35394,-0.31003,0.000587249,1.4278,-25.4848,3.18666,25.9552,3.25622,1.27617,0.0376436,-2.29006,0.94508,-0.149725,0.303725,-0.941316,0.126759,0.18956,-0.161551,-0.0895209,-0.775332,0.768322,-0.791928,0.0692466,
-0.0300325,-0.259717,-0.205628,-1.93966,0.248583,-0.128913,-0.417351,0.499212,-0.0623653,0.555933,-0.167033,0.865388,-0.70308,0.011887,0,0,0,0,0,0,0,-0.0363129,-0.257509,-0.210627,-1.93537,0.240497,1.45317,0.367327,0.297299,-0.0287835,0.332107,-0.0706041,0.35394,-0.31003,0.000587249,1.4278,-25.4848,3.18666,25.9552,3.25622,1.27617,0.0376436,-1.90179,1.41078,-0.265411,-0.130821,-0.649419,0.409126,0.448527,-0.00822739,0.275996,-0.790156,0.658507,-0.754284,0.0646308,
-0.0280234,-0.25996,-0.203389,-1.94032,0.252114,-0.131648,-0.417305,0.502284,-0.060744,0.55976,-0.166425,0.882904,-0.68379,0.0116181,0,0,0,0,0,0,0,-0.0363129,-0.257509,-0.210627,-1.93537,0.240497,1.45317,0.367327,0.297299,-0.0287835,0.332107,-0.0706041,0.35394,-0.31003,0.000587249,1.4278,-25.4848,3.18666,25.9552,3.25622,1.27617,0.0376436,-1.90179,1.41078,-0.265411,-0.130821,-0.649419,0.409126,0.448527,-0.00822739,0.275996,-0.790156,0.658507,-0.754284,0.0646308,
-0.0260052,-0.260197,-0.201138,-1.94099,0.255707,-0.134291,-0.417259,0.504544,-0.0593728,0.562696,-0.165676,0.898199,-0.66074,0.0113719,0,0,0,0,0,0,0,-0.0363129,-0.257509,-0.210627,-1.93537,0.240497,1.45317,0.367327,0.297299,-0.0287835,0.332107,-0.0706041,0.35394,-0.31003,0.000587249,1.4278,-25.4848,3.18666,25.9552,3.25622,1.27617,0.0376436,-1.73501,0.996796,-0.873954,0.0122023,-0.271805,0.275649,0.314784,0.312957,0.148116,-1.01104,0.454543,-0.729391,0.062983,
-0.023981,-0.260429,-0.198879,-1.94164,0.259353,-0.136836,-0.417214,0.506046,-0.0580859,0.564828,-0.164372,0.911427,-0.636271,0.0111359,0,0,0,0,0,0,0,-0.027045,-0.258592,-0.199664,-1.93785,0.254815,1.44369,0.36733,0.296605,-0.0381695,0.352105,-0.0785086,0.524162,-0.287546,0.00122997,2.84412,-24.7865,4.16261,25.3085,2.78015,1.03081,0.0101778,-1.41787,0.705057,-1.40735,0.184478,0.201418,0.203869,0.248805,0.680937,0.0565008,-1.25735,0.368589,-0.752429,0.0631724,
-0.0219535,-0.260657,-0.196614,-1.9423,0.263044,-0.139282,-0.417171,0.506875,-0.0569063,0.566246,-0.16256,0.922791,-0.611378,0.0108888,0,0,0,0,0,0,0,-0.027045,-0.258592,-0.199664,-1.93785,0.254815,1.44369,0.36733,0.296605,-0.0381695,0.352105,-0.0785086,0.524162,-0.287546,0.00122997,2.84412,-24.7865,4.16261,25.3085,2.78015,1.03081,0.0101778,-1.41787,0.705057,-1.40735,0.184478,0.201418,0.203869,0.248805,0.680937,0.0565008,-1.25735,0.368589,-0.752429,0.0631724,
-0.019925,-0.260881,-0.194345,-1.94294,0.266774,-0.141628,-0.417128,0.507122,-0.0558763,0.567036,-0.16037,0.932495,-0.586521,0.0106861,0,0,0,0,0,0,0,-0.027045,-0.258592,-0.199664,-1.93785,0.254815,1.44369,0.36733,0.296605,-0.0381695,0.352105,-0.0785086,0.524162,-0.287546,0.00122997,2.84412,-24.7865,4.16261,25.3085,2.78015,1.03081,0.0101778,-1.90026,-0.264898,-0.937887,0.780435,-0.265837,-0.262428,-0.201595,0.37801,-0.4801,-1.0778,0.338338,-0.766982,0.0642613,
-0.0178976,-0.261101,-0.192076,-1.94357,0.270537,-0.143876,-0.417086,0.506853,-0.0550202,0.567282,-0.157922,0.94073,-0.561913,0.0104784,0,0,0,0,0,0,0,-0.027045,-0.258592,-0.199664,-1.93785,0.254815,1.44369,0.36733,0.296605,-0.0381695,0.352105,-0.0785086,0.524162,-0.287546,0.00122997,2.84412,-24.7865,4.16261,25.3085,2.78015,1.03081,0.0101778,-1.90026,-0.264898,-0.937887,0.780435,-0.265837,-0.262428,-0.201595,0.37801,-0.4801,-1.0778,0.338338,-0.766982,0.0642613,
-0.0158731,-0.261318,-0.189808,-1.94419,0.274328,-0.146026,-0.417045,0.50614,-0.0543432,0.567056,-0.155302,0.947665,-0.537664,0.0102691,0,0,0,0,0,0,0,-0.027045,-0.258592,-0.199664,-1.93785,0.254815,1.44369,0.36733,0.296605,-0.0381695,0.352105,-0.0785086,0.524162,-0.287546,0.00122997,2.84412,-24.7865,4.16261,25.3085,2.78015,1.03081,0.0101778,-1.80014,-1.62719,-0.647266,1.66297,-0.241431,-0.840224,-0.768372,0.373701,-1.15888,-1.00389,0.303186,-0.790161,0.0660552,
-0.0138529,-0.261533,-0.187542,-1.9448,0.278141,-0.148082,-0.417005,0.505047,-0.0538384,0.56642,-0.152571,0.953447,-0.513826,0.0100713,0,0,0,0,0,0,0,-0.0167829,-0.25993,-0.187279,-1.94075,0.273023,1.43562,0.367328,0.324693,-0.0485108,0.421022,-0.098287,0.6027,-0.229541,0.000172212,2.23713,-24.6636,3.23823,25.3839,2.63916,1.08391,0.0303194,-1.80014,-1.62719,-0.647266,1.66297,-0.241431,-0.840224,-0.768372,0.373701,-1.15888,-1.00389,0.303186,-0.790161,0.0660552,
-0.0118383,-0.261747,-0.185281,-1.9454,0.281974,-0.150043,-0.416965,0.503632,-0.0534918,0.56543,-0.149769,0.958208,-0.490425,0.00988464,0,0,0,0,0,0,0,-0.0167829,-0.25993,-0.187279,-1.94075,0.273023,1.43562,0.367328,0.324693,-0.0485108,0.421022,-0.098287,0.6027,-0.229541,0.000172212,2.23713,-24.6636,3.23823,25.3839,2.63916,1.08391,0.0303194,-1.70295,-1.4802,-0.692093,1.58879,-0.116348,-0.741745,-0.654104,0.461203,-1.07102,-1.07068,0.322767,-0.836684,0.0664702,
-0.00982867,-0.261961,-0.183024,-1.94599,0.285805,-0.151913,-0.416927,0.502417,-0.0533876,0.564288,-0.146673,0.957755,-0.467497,0.00969752,0,0,0,0,0,0,0,-0.0167829,-0.25993,-0.187279,-1.94075,0.273023,1.43562,0.367328,0.324693,-0.0485108,0.421022,-0.098287,0.6027,-0.229541,0.000172212,2.23713,-24.6636,3.23823,25.3839,2.63916,1.08391,0.0303194,-2.12742,-0.29921,-0.652195,0.953834,-0.385153,-0.2487,-0.164768,0.327463,-0.530065,-1.12793,0.503959,-0.935733,0.0670852,
-0.00782273,-0.262175,-0.180771,-1.94656,0.289604,-0.153694,-0.416889,0.501484,-0.0535785,0.563232,-0.143241,0.949601,-0.445034,0.00951235,0,0,0,0,0,0,0,-0.0167829,-0.25993,-0.187279,-1.94075,0.273023,1.43562,0.367328,0.324693,-0.0485108,0.421022,-0.098287,0.6027,-0.229541,0.000172212,2.23713,-24.6636,3.23823,25.3839,2.63916,1.08391,0.0303194,-2.12742,-0.29921,-0.652195,0.953834,-0.385153,-0.2487,-0.164768,0.327463,-0.530065,-1.12793,0.503959,-0.935733,0.0670852,
-0.00582137,-0.262391,-0.178522,-1.94712,0.293351,-0.155385,-0.416851,0.50034,-0.053981,0.562223,-0.139766,0.936773,-0.422995,0.00933974,0,0,0,0,0,0,0,-0.0167829,-0.25993,-0.187279,-1.94075,0.273023,1.43562,0.367328,0.324693,-0.0485108,0.421022,-0.098287,0.6027,-0.229541,0.000172212,2.23713,-24.6636,3.23823,25.3839,2.63916,1.08391,0.0303194,-2.6455,0.746317,-0.0187406,0.410348,-0.97167,0.169979,0.22481,-0.0894243,-0.0516054,-0.926521,0.742637,-1.01333,0.0662637,
-0.00382567,-0.262609,-0.176277,-1.94766,0.297035,-0.156991,-0.416814,0.498924,-0.0545177,0.561097,-0.136351,0.921063,-0.401401,0.0091732,0,0,0,0,0,0,0,-0.0167829,-0.25993,-0.187279,-1.94075,0.273023,1.43562,0.367328,0.324693,-0.0485108,0.421022,-0.098287,0.6027,-0.229541,0.000172212,2.23713,-24.6636,3.23823,25.3839,2.63916,1.08391,0.0303194,-2.6455,0.746317,-0.0187406,0.410348,-0.97167,0.169979,0.22481,-0.0894243,-0.0516054,-0.926521,0.742637,-1.01333,0.0662637,
-0.00183673,-0.26283,-0.174038,-1.9482,0.300649,-0.158512,-0.416778,0.497235,-0.0551314,0.559773,-0.133029,0.903569,-0.380271,0.00901393,0,0,0,0,0,0,0,-0.00251136,-0.261398,-0.170228,-1.9445,0.296272,1.42958,0.367325,0.336969,-0.0281828,0.4188,-0.0901585,0.543844,-0.0777413,-0.000267397,2.16175,-24.7865,2.66298,25.4593,3.78173,0.719534,0.050461,-2.44285,1.46945,-0.349431,0.0784393,-0.670205,0.516146,0.571844,0.141902,0.305945,-1.12526,0.881769,-1.08084,0.0642301,
-0.0480178,-0.257151,-0.225601,-1.9337,0.218068,-0.0969373,-0.417902,0.425107,-0.102169,0.463856,-0.185706,0.5123,-0.356459,0.0142186,0,0,0,0,0,0,0,-0.00251136,-0.261398,-0.170228,-1.9445,0.296272,1.42958,0.367325,0.336969,-0.0281828,0.4188,-0.0901585,0.543844,-0.0777413,-0.000267397,2.16175,-24.7865,2.66298,25.4593,3.78173,0.719534,0.050461,-1.89382,1.80168,-0.746422,-0.0172759,-0.105051,0.713872,0.777253,0.521637,0.486133,-1.3458,0.986703,-1.1264,0.0643295,
0.00286982,-0.26228,-0.164259,-1.94639,0.30298,-0.142165,-0.417914,0.482221,-0.0825467,0.536958,-0.171165,0.578981,-0.0941939,0.0132054,0,0,0,0,0,0,0,-0.00251136,-0.261398,-0.170228,-1.9445,0.296272,1.42958,0.367325,0.336969,-0.0281828,0.4188,-0.0901585,0.543844,-0.0777413,-0.000267397,2.16175,-24.7865,2.66298,25.4593,3.78173,0.719534,0.050461,-1.89382,1.80168,-0.746422,-0.0172759,-0.105051,0.713872,0.777253,0.521637,0.486133,-1.3458,0.986703,-1.1264,0.0643295,
0.00489744,-0.26262,-0.161993,-1.94709,0.305408,-0.142601,-0.417863,0.506906,-0.0849922,0.566608,-0.175439,0.606983,-0.109225,0.0129246,0,0,0,0,0,0,0,-0.00251136,-0.261398,-0.170228,-1.9445,0.296272,1.42958,0.367325,0.336969,-0.0281828,0.4188,-0.0901585,0.543844,-0.0777413,-0.000267397,2.16175,-24.7865,2.66298,25.4593,3.78173,0.719534,0.050461,-2.36535,0.45576,-0.355399,0.873483,-0.566297,0.0632617,0.124931,0.212932,-0.255852,-1.16138,0.991535,-1.09338,0.0664608,
0.00700458,-0.262962,-0.159631,-1.9478,0.307958,-0.143087,-0.417812,0.526784,-0.0855324,0.590447,-0.177351,0.637599,-0.121408,0.0126555,0,0,0,0,0,0,0,-0.00251136,-0.261398,-0.170228,-1.9445,0.296272,1.42958,0.367325,0.336969,-0.0281828,0.4188,-0.0901585,0.543844,-0.0777413,-0.000267397,2.16175,-24.7865,2.66298,25.4593,3.78173,0.719534,0.050461,-2.36535,0.45576,-0.355399,0.873483,-0.566297,0.0632617,0.124931,0.212932,-0.255852,-1.16138,0.991535,-1.09338,0.0664608,
0.00917545,-0.263302,-0.157192,-1.94851,0.310634,-0.143615,-0.417762,0.542717,-0.0850094,0.609579,-0.177716,0.668912,-0.132072,0.0123993,0,0,0,0,0,0,0,0.0095828,-0.262313,-0.155831,-1.94724,0.311897,1.42864,0.367327,0.35974,-0.0315051,0.452068,-0.0755279,0.357368,0.00994332,-0.00029224,-0.500302,-24.9889,0.187391,25.0348,2.19329,1.14342,0.0376436,-1.56467,1.37041,-0.302713,0.348321,-0.079548,0.524544,0.562469,0.432151,0.265682,-1.14051,1.12135,-1.07475,0.0651382,
0.0113972,-0.263638,-0.154693,-1.94922,0.313432,-0.144179,-0.417714,0.555444,-0.0839655,0.624897,-0.177143,0.699619,-0.140988,0.0120957,0,0,0,0,0,0,0,0.0095828,-0.262313,-0.155831,-1.94724,0.311897,1.42864,0.367327,0.35974,-0.0315051,0.452068,-0.0755279,0.357368,0.00994332,-0.00029224,-0.500302,-24.9889,0.187391,25.0348,2.19329,1.14342,0.0376436,-1.56467,1.37041,-0.302713,0.348321,-0.079548,0.524544,0.562469,0.432151,0.265682,-1.14051,1.12135,-1.07475,0.0651382,
0.0136618,-0.263971,-0.152143,-1.94993,0.316336,-0.144742,-0.417667,0.566148,-0.0832686,0.637356,-0.177179,0.725993,-0.140705,0.0118524,0,0,0,0,0,0,0,0.0095828,-0.262313,-0.155831,-1.94724,0.311897,1.42864,0.367327,0.35974,-0.0315051,0.452068,-0.0755279,0.357368,0.00994332,-0.00029224,-0.500302,-24.9889,0.187391,25.0348,2.19329,1.14342,0.0376436,-1.19262,-0.0274956,-0.512278,1.0973,0.227124,-0.0740715,-0.0353747,0.609406,-0.3877,-1.14695,0.909169,-0.967204,0.0672645,
0.0159653,-0.264302,-0.149552,-1.95063,0.319289,-0.145286,-0.41762,0.575868,-0.0827077,0.64784,-0.176043,0.738141,-0.135929,0.0116005,0,0,0,0,0,0,0,0.0095828,-0.262313,-0.155831,-1.94724,0.311897,1.42864,0.367327,0.35974,-0.0315051,0.452068,-0.0755279,0.357368,0.00994332,-0.00029224,-0.500302,-24.9889,0.187391,25.0348,2.19329,1.14342,0.0376436,-2.04625,-0.666488,-0.229075,1.28868,-0.575796,-0.405936,-0.305014,0.0829252,-0.754807,-0.858974,0.694731,-0.811058,0.0678325,
0.0183002,-0.264631,-0.146925,-1.95133,0.322254,-0.145803,-0.417574,0.583733,-0.0822153,0.656738,-0.174099,0.741273,-0.129185,0.0114373,0,0,0,0,0,0,0,0.0095828,-0.262313,-0.155831,-1.94724,0.311897,1.42864,0.367327,0.35974,-0.0315051,0.452068,-0.0755279,0.357368,0.00994332,-0.00029224,-0.500302,-24.9889,0.187391,25.0348,2.19329,1.14342,0.0376436,-2.04625,-0.666488,-0.229075,1.28868,-0.575796,-0.405936,-0.305014,0.0829252,-0.754807,-0.858974,0.694731,-0.811058,0.0678325,
0.0206591,-0.264957,-0.144269,-1.95201,0.325208,-0.146303,-0.41753,0.589719,-0.0815118,0.663949,-0.170882,0.738433,-0.125079,0.0111972,0,0,0,0,0,0,0,0.0215925,-0.263173,-0.141327,-1.94983,0.323388,1.4292,0.367326,0.391376,-0.0175234,0.464866,-0.0882787,0.379158,0.0340529,-6.55094e-05,2.0586,-25.2864,2.96449,25.4315,2.93304,0.951163,0.0440523,-2.21928,0.942307,-0.360382,0.287545,-0.678793,0.305262,0.36307,0.0450368,0.0897511,-0.896598,0.81224,-0.826502,0.0630436,
0.0230365,-0.265282,-0.141591,-1.95269,0.328135,-0.146769,-0.417486,0.594354,-0.0812537,0.66968,-0.168308,0.731724,-0.116462,0.0109892,0,0,0,0,0,0,0,0.0215925,-0.263173,-0.141327,-1.94983,0.323388,1.4292,0.367326,0.391376,-0.0175234,0.464866,-0.0882787,0.379158,0.0340529,-6.55094e-05,2.0586,-25.2864,2.96449,25.4315,2.93304,0.951163,0.0440523,-2.21928,0.942307,-0.360382,0.287545,-0.678793,0.305262,0.36307,0.0450368,0.0897511,-0.896598,0.81224,-0.826502,0.0630436,
0.0254274,-0.265606,-0.138894,-1.95335,0.331024,-0.147188,-0.417442,0.59772,-0.0811442,0.674096,-0.16586,0.722295,-0.104685,0.0108039,0,0,0,0,0,0,0,0.0215925,-0.263173,-0.141327,-1.94983,0.323388,1.4292,0.367326,0.391376,-0.0175234,0.464866,-0.0882787,0.379158,0.0340529,-6.55094e-05,2.0586,-25.2864,2.96449,25.4315,2.93304,0.951163,0.0440523,-2.30356,0.947565,-0.653351,0.179334,-0.61751,0.324715,0.341385,0.135995,0.170697,-0.993723,0.708375,-0.815459,0.0625044,
0.0278271,-0.26593,-0.136185,-1.954,0.333867,-0.147555,-0.4174,0.599922,-0.0810131,0.677308,-0.163164,0.710934,-0.0917544,0.0106427,0,0,0,0,0,0,0,0.0215925,-0.263173,-0.141327,-1.94983,0.323388,1.4292,0.367326,0.391376,-0.0175234,0.464866,-0.0882787,0.379158,0.0340529,-6.55094e-05,2.0586,-25.2864,2.96449,25.4315,2.93304,0.951163,0.0440523,-2.30356,0.947565,-0.653351,0.179334,-0.61751,0.324715,0.341385,0.135995,0.170697,-0.993723,0.708375,-0.815459,0.0625044,
0.0302315,-0.266254,-0.133467,-1.95464,0.33666,-0.147868,-0.417358,0.601113,-0.0808731,0.67944,-0.160244,0.698232,-0.0784357,0.0104403,0,0,0,0,0,0,0,0.0215925,-0.263173,-0.141327,-1.94983,0.323388,1.4292,0.367326,0.391376,-0.0175234,0.464866,-0.0882787,0.379158,0.0340529,-6.55094e-05,2.0586,-25.2864,2.96449,25.4315,2.93304,0.951163,0.0440523,-1.74522,-0.642801,-1.17188,0.969944,-0.0988768,-0.356845,-0.341559,0.458777,-0.556938,-1.08984,0.399366,-0.663583,0.0634067,
0.0326373,-0.266577,-0.130745,-1.95527,0.339399,-0.148128,-0.417317,0.60144,-0.0807587,0.680624,-0.157191,0.684635,-0.065036,0.0102887,0,0,0,0,0,0,0,0.0215925,-0.263173,-0.141327,-1.94983,0.323388,1.4292,0.367326,0.391376,-0.0175234,0.464866,-0.0882787,0.379158,0.0340529,-6.55094e-05,2.0586,-25.2864,2.96449,25.4315,2.93304,0.951163,0.0440523,-1.96575,-0.924983,-1.36221,1.05074,-0.203468,-0.485342,-0.469795,0.424747,-0.678215,-1.11406,0.292529,-0.615407,0.0640065,
0.0350414,-0.2669,-0.128021,-1.95589,0.342081,-0.148335,-0.417276,0.601019,-0.0806912,0.680992,-0.154084,0.67053,-0.051678,0.0101361,0,0,0,0,0,0,0,0.0350897,-0.263868,-0.125371,-1.95252,0.338726,1.43021,0.367326,0.411007,-0.0172016,0.503213,-0.0796632,0.488939,0.0277594,-0.000137035,1.85627,-25.6355,2.46461,25.5585,2.71881,1.22948,0.0440523,-1.96575,-0.924983,-1.36221,1.05074,-0.203468,-0.485342,-0.469795,0.424747,-0.678215,-1.11406,0.292529,-0.615407,0.0640065,
0.0374412,-0.267222,-0.125298,-1.95649,0.344706,-0.148489,-0.417236,0.599949,-0.0806747,0.680652,-0.150977,0.656318,-0.0384212,0.00997595,0,0,0,0,0,0,0,0.0350897,-0.263868,-0.125371,-1.95252,0.338726,1.43021,0.367326,0.411007,-0.0172016,0.503213,-0.0796632,0.488939,0.0277594,-0.000137035,1.85627,-25.6355,2.46461,25.5585,2.71881,1.22948,0.0440523,-2.40588,-0.106988,-1.12248,0.536844,-0.613111,-0.123396,-0.107816,0.168006,-0.26376,-1.0055,0.362068,-0.629841,0.0642293,
0.0398344,-0.267545,-0.122579,-1.95708,0.347277,-0.14859,-0.417197,0.598304,-0.0807007,0.679687,-0.147918,0.642552,-0.0252946,0.00982235,0,0,0,0,0,0,0,0.0350897,-0.263868,-0.125371,-1.95252,0.338726,1.43021,0.367326,0.411007,-0.0172016,0.503213,-0.0796632,0.488939,0.0277594,-0.000137035,1.85627,-25.6355,2.46461,25.5585,2.71881,1.22948,0.0440523,-2.40588,-0.106988,-1.12248,0.536844,-0.613111,-0.123396,-0.107816,0.168006,-0.26376,-1.0055,0.362068,-0.629841,0.0642293,
0.0422187,-0.267868,-0.119867,-1.95766,0.349797,-0.148639,-0.417158,0.596084,-0.080749,0.678168,-0.144979,0.630195,-0.0123003,0.00968377,0,0,0,0,0,0,0,0.0350897,-0.263868,-0.125371,-1.95252,0.338726,1.43021,0.367326,0.411007,-0.0172016,0.503213,-0.0796632,0.488939,0.0277594,-0.000137035,1.85627,-25.6355,2.46461,25.5585,2.71881,1.22948,0.0440523,-2.09784,0.453583,-1.26533,0.200722,-0.373345,0.140443,0.163706,0.308773,0.0212754,-1.04875,0.418997,-0.611854,0.0645285,
0.0445939,-0.268192,-0.117162,-1.95823,0.35226,-0.148637,-0.41712,0.593801,-0.0808762,0.67627,-0.141879,0.615637,0.000525315,0.00954469,0,0,0,0,0,0,0,0.0350897,-0.263868,-0.125371,-1.95252,0.338726,1.43021,0.367326,0.411007,-0.0172016,0.503213,-0.0796632,0.488939,0.0277594,-0.000137035,1.85627,-25.6355,2.46461,25.5585,2.71881,1.22948,0.0440523,-1.70506,-0.360139,-1.75318,0.716996,0.0876052,-0.227464,-0.195299,0.625021,-0.410053,-1.23579,0.372945,-0.572669,0.0671164,
0.0469604,-0.268516,-0.114465,-1.95879,0.354645,-0.148584,-0.417083,0.591633,-0.0811473,0.674237,-0.138515,0.596213,0.013182,0.00939196,0,0,0,0,0,0,0,0.0485791,-0.264541,-0.109407,-1.95477,0.352693,1.43155,0.367329,0.437906,-0.0228831,0.530211,-0.063102,0.414582,0.0428673,0.00047704,1.40003,-25.7347,1.7624,25.4593,2.64557,1.31554,0.0303194,-1.70506,-0.360139,-1.75318,0.716996,0.0876052,-0.227464,-0.195299,0.625021,-0.410053,-1.23579,0.372945,-0.572669,0.0671164,
0.0493171,-0.268842,-0.111776,-1.95933,0.356943,-0.148482,-0.417046,0.58917,-0.0815328,0.672104,-0.135188,0.574512,0.0257115,0.00924271,0,0,0,0,0,0,0,0.0485791,-0.264541,-0.109407,-1.95477,0.352693,1.43155,0.367329,0.437906,-0.0228831,0.530211,-0.063102,0.414582,0.0428673,0.00047704,1.40003,-25.7347,1.7624,25.4593,2.64557,1.31554,0.0303194,-2.00029,0.30964,-1.91609,0.308563,-0.0737579,0.060266,0.09367,0.568941,-0.0846929,-1.27544,0.435175,-0.566648,0.0662373,
0.0516628,-0.26917,-0.109097,-1.95985,0.35915,-0.148329,-0.417009,0.586415,-0.0819833,0.669774,-0.131977,0.551846,0.0380806,0.00910058,0,0,0,0,0,0,0,0.0485791,-0.264541,-0.109407,-1.95477,0.352693,1.43155,0.367329,0.437906,-0.0228831,0.530211,-0.063102,0.414582,0.0428673,0.00047704,1.40003,-25.7347,1.7624,25.4593,2.64557,1.31554,0.0303194,-2.00029,0.30964,-1.91609,0.308563,-0.0737579,0.060266,0.09367,0.568941,-0.0846929,-1.27544,0.435175,-0.566648,0.0662373,
0.0539964,-0.2695,-0.106428,-1.96037,0.361266,-0.148128,-0.416973,0.583402,-0.0824602,0.667216,-0.128888,0.528897,0.0502548,0.00896468,0,0,0,0,0,0,0,0.0485791,-0.264541,-0.109407,-1.95477,0.352693,1.43155,0.367329,0.437906,-0.0228831,0.530211,-0.063102,0.414582,0.0428673,0.00047704,1.40003,-25.7347,1.7624,25.4593,2.64557,1.31554,0.0303194,-2.49361,0.586938,-1.59325,0.233859,-0.562971,0.150372,0.178217,0.241425,0.00632309,-1.11231,0.57854,-0.54701,0.0683177,
0.0563171,-0.269832,-0.103771,-1.96087,0.36329,-0.147879,-0.416938,0.580174,-0.0829399,0.664439,-0.125909,0.506016,0.0622116,0.00883447,0,0,0,0,0,0,0,0.0485791,-0.264541,-0.109407,-1.95477,0.352693,1.43155,0.367329,0.437906,-0.0228831,0.530211,-0.063102,0.414582,0.0428673,0.00047704,1.40003,-25.7347,1.7624,25.4593,2.64557,1.31554,0.0303194,-2.49361,0.586938,-1.59325,0.233859,-0.562971,0.150372,0.178217,0.241425,0.00632309,-1.11231,0.57854,-0.54701,0.0683177,
0.0586242,-0.270166,-0.101125,-1.96137,0.365223,-0.147584,-0.416903,0.57677,-0.0834089,0.661466,-0.123024,0.483379,0.0739403,0.0087077,0,0,0,0,0,0,0,0.0485791,-0.264541,-0.109407,-1.95477,0.352693,1.43155,0.367329,0.437906,-0.0228831,0.530211,-0.063102,0.414582,0.0428673,0.00047704,1.40003,-25.7347,1.7624,25.4593,2.64557,1.31554,0.0303194,-2.71676,0.867619,-1.6179,0.12104,-0.714012,0.258126,0.253734,0.164822,0.144027,-1.10599,0.680096,-0.541044,0.0668336,
0.00330482,-0.262487,-0.163838,-1.9466,0.301037,-0.139877,-0.417919,0.527896,-0.10129,0.58583,-0.186521,0.358186,0.153023,0.0126576,0,0,0,0,0,0,0,0.0630817,-0.265041,-0.0921121,-1.9564,0.363876,1.43322,0.367328,0.432675,-0.0132299,0.545505,-0.037313,0.302643,0.0595046,0.000621988,1.67774,-25.9371,1.66322,25.4315,3.21319,1.26977,0.0303194,-2.77055,1.67772,-1.90337,-0.362556,-0.654031,0.620022,0.618994,0.254804,0.54462,-1.20442,0.762038,-0.540479,0.0652366,
0.0695401,-0.26599,-0.0848086,-1.95824,0.367409,-0.134991,-0.417926,0.567561,-0.0904901,0.643171,-0.172232,0.292914,0.244242,0.0122428,0,0,0,0,0,0,0,0.0630817,-0.265041,-0.0921121,-1.9564,0.363876,1.43322,0.367328,0.432675,-0.0132299,0.545505,-0.037313,0.302643,0.0595046,0.000621988,1.67774,-25.9371,1.66322,25.4315,3.21319,1.26977,0.0303194,-2.77055,1.67772,-1.90337,-0.362556,-0.654031,0.620022,0.618994,0.254804,0.54462,-1.20442,0.762038,-0.540479,0.0652366,
0.0718935,-0.266362,-0.0821338,-1.95894,0.368586,-0.133991,-0.417878,0.58833,-0.0930025,0.668688,-0.174918,0.294383,0.249999,0.0121294,0,0,0,0,0,0,0,0.0630817,-0.265041,-0.0921121,-1.9564,0.363876,1.43322,0.367328,0.432675,-0.0132299,0.545505,-0.037313,0.302643,0.0595046,0.000621988,1.67774,-25.9371,1.66322,25.4315,3.21319,1.26977,0.0303194,-2.61631,0.225695,-2.03823,0.573785,-0.498242,-0.0506803,-0.0280312,0.324557,-0.243861,-1.23627,0.714561,-0.477957,0.0696329,
0.0743113,-0.266736,-0.0793788,-1.95964,0.36978,-0.132996,-0.41783,0.604469,-0.0934748,0.688744,-0.174041,0.298367,0.248668,0.0118722,0,0,0,0,0,0,0,0.0630817,-0.265041,-0.0921121,-1.9564,0.363876,1.43322,0.367328,0.432675,-0.0132299,0.545505,-0.037313,0.302643,0.0595046,0.000621988,1.67774,-25.9371,1.66322,25.4315,3.21319,1.26977,0.0303194,-2.61631,0.225695,-2.03823,0.573785,-0.498242,-0.0506803,-0.0280312,0.324557,-0.243861,-1.23627,0.714561,-0.477957,0.0696329,
0.0767808,-0.267111,-0.0765605,-1.96033,0.37099,-0.131991,-0.417784,0.617376,-0.0936777,0.704585,-0.173102,0.302716,0.251248,0.0116692,0,0,0,0,0,0,0,0.0630817,-0.265041,-0.0921121,-1.9564,0.363876,1.43322,0.367328,0.432675,-0.0132299,0.545505,-0.037313,0.302643,0.0595046,0.000621988,1.67774,-25.9371,1.66322,25.4315,3.21319,1.26977,0.0303194,-2.67613,2.31305,-1.95513,-0.713273,-0.616746,0.899873,0.91161,0.268996,0.838889,-1.1684,0.875951,-0.487357,0.0637177,
0.0792943,-0.267486,-0.0736913,-1.96102,0.37218,-0.130971,-0.417738,0.628372,-0.0937217,0.717309,-0.170956,0.297377,0.255149,0.0114047,0,0,0,0,0,0,0,0.0773487,-0.265519,-0.0752585,-1.95765,0.371062,1.43532,0.367327,0.451965,-0.0234469,0.528657,-0.0421134,0.146818,0.0931393,0.000302217,-1.49212,-25.4848,-1.68517,24.5627,2.55401,1.42815,0.0376436,-2.55446,-0.00779997,-2.20532,0.666689,-0.440404,-0.148645,-0.115825,0.354288,-0.352928,-1.23932,0.674552,-0.405406,0.0661564,
0.0818418,-0.267861,-0.0707809,-1.96169,0.373328,-0.129933,-0.417693,0.636865,-0.0937634,0.727577,-0.168333,0.286942,0.259305,0.0112922,0,0,0,0,0,0,0,0.0773487,-0.265519,-0.0752585,-1.95765,0.371062,1.43532,0.367327,0.451965,-0.0234469,0.528657,-0.0421134,0.146818,0.0931393,0.000302217,-1.49212,-25.4848,-1.68517,24.5627,2.55401,1.42815,0.0376436,-2.55446,-0.00779997,-2.20532,0.666689,-0.440404,-0.148645,-0.115825,0.354288,-0.352928,-1.23932,0.674552,-0.405406,0.0661564,
0.0844136,-0.268235,-0.0678389,-1.96235,0.374422,-0.128898,-0.417648,0.642959,-0.0934921,0.735507,-0.164568,0.273647,0.258938,0.0110856,0,0,0,0,0,0,0,0.0773487,-0.265519,-0.0752585,-1.95765,0.371062,1.43532,0.367327,0.451965,-0.0234469,0.528657,-0.0421134,0.146818,0.0931393,0.000302217,-1.49212,-25.4848,-1.68517,24.5627,2.55401,1.42815,0.0376436,-2.40629,-1.57039,-2.16173,1.55106,-0.424156,-0.845742,-0.735772,0.284576,-1.1869,-1.14428,0.488118,-0.284855,0.0684427,
0.0870033,-0.268609,-0.0648731,-1.96299,0.375458,-0.127851,-0.417605,0.647406,-0.093572,0.741464,-0.161529,0.258979,0.261526,0.0108962,0,0,0,0,0,0,0,0.0773487,-0.265519,-0.0752585,-1.95765,0.371062,1.43532,0.367327,0.451965,-0.0234469,0.528657,-0.0421134,0.146818,0.0931393,0.000302217,-1.49212,-25.4848,-1.68517,24.5627,2.55401,1.42815,0.0376436,-2.40629,-1.57039,-2.16173,1.55106,-0.424156,-0.845742,-0.735772,0.284576,-1.1869,-1.14428,0.488118,-0.284855,0.0684427,
0.0896047,-0.268984,-0.0618899,-1.96363,0.376432,-0.126786,-0.417562,0.650372,-0.0937538,0.745782,-0.158743,0.243525,0.266242,0.010718,0,0,0,0,0,0,0,0.0773487,-0.265519,-0.0752585,-1.95765,0.371062,1.43532,0.367327,0.451965,-0.0234469,0.528657,-0.0421134,0.146818,0.0931393,0.000302217,-1.49212,-25.4848,-1.68517,24.5627,2.55401,1.42815,0.0376436,-2.45259,-0.648361,-2.47071,0.914726,-0.346313,-0.421128,-0.365179,0.403324,-0.647663,-1.25536,0.512993,-0.29668,0.0668755,
0.0922129,-0.26936,-0.0588952,-1.96425,0.377343,-0.125701,-0.41752,0.652036,-0.09389,0.748678,-0.155841,0.227623,0.27149,0.0106009,0,0,0,0,0,0,0,0.0773487,-0.265519,-0.0752585,-1.95765,0.371062,1.43532,0.367327,0.451965,-0.0234469,0.528657,-0.0421134,0.146818,0.0931393,0.000302217,-1.49212,-25.4848,-1.68517,24.5627,2.55401,1.42815,0.0376436,-2.45259,-0.648361,-2.47071,0.914726,-0.346313,-0.421128,-0.365179,0.403324,-0.647663,-1.25536,0.512993,-0.29668,0.0668755,
0.0948233,-0.269735,-0.0558938,-1.96486,0.378189,-0.124593,-0.417478,0.652611,-0.0939963,0.750352,-0.152825,0.211509,0.276786,0.0104072,0,0,0,0,0,0,0,0.0975977,-0.26677,-0.0509079,-1.96019,0.376105,1.44211,0.367326,0.488444,-0.0287895,0.561345,-0.0616403,0.111838,0.195075,-8.70819e-05,2.46723,-25.6593,2.46461,25.4315,2.29766,1.91887,0.0440523,-2.77383,0.0352829,-2.39662,0.415732,-0.635203,-0.0969884,-0.106313,0.246255,-0.204062,-1.17894,0.507656,-0.280225,0.0646731,
0.0974325,-0.270112,-0.0528899,-1.96546,0.37897,-0.123465,-0.417437,0.652285,-0.0941046,0.75099,-0.149754,0.195347,0.282006,0.010267,0,0,0,0,0,0,0,0.0975977,-0.26677,-0.0509079,-1.96019,0.376105,1.44211,0.367326,0.488444,-0.0287895,0.561345,-0.0616403,0.111838,0.195075,-8.70819e-05,2.46723,-25.6593,2.46461,25.4315,2.29766,1.91887,0.0440523,-2.86073,1.78223,-2.53021,-0.809867,-0.740156,0.714943,0.703508,0.234088,0.75141,-1.14041,0.492869,-0.232139,0.0602843,
0.100037,-0.270489,-0.0498868,-1.96605,0.379687,-0.122317,-0.417396,0.651202,-0.0942338,0.750764,-0.146679,0.179295,0.287142,0.0101329,0,0,0,0,0,0,0,0.0975977,-0.26677,-0.0509079,-1.96019,0.376105,1.44211,0.367326,0.488444,-0.0287895,0.561345,-0.0616403,0.111838,0.195075,-8.70819e-05,2.46723,-25.6593,2.46461,25.4315,2.29766,1.91887,0.0440523,-2.86073,1.78223,-2.53021,-0.809867,-0.740156,0.714943,0.703508,0.234088,0.75141,-1.14041,0.492869,-0.232139,0.0602843,
0.102635,-0.270866,-0.0468876,-1.96662,0.380342,-0.121148,-0.417356,0.649478,-0.0943865,0.749807,-0.143637,0.163612,0.292199,0.00998752,0,0,0,0,0,0,0,0.0975977,-0.26677,-0.0509079,-1.96019,0.376105,1.44211,0.367326,0.488444,-0.0287895,0.561345,-0.0616403,0.111838,0.195075,-8.70819e-05,2.46723,-25.6593,2.46461,25.4315,2.29766,1.91887,0.0440523,-2.50619,2.00407,-2.83748,-1.02133,-0.423551,0.806001,0.790843,0.447282,0.872459,-1.22413,0.454197,-0.184984,0.0600067,
0.105224,-0.271245,-0.0438947,-1.96719,0.380937,-0.119959,-0.417317,0.647188,-0.0945526,0.748211,-0.140673,0.148889,0.297181,0.00983888,0,0,0,0,0,0,0,0.0975977,-0.26677,-0.0509079,-1.96019,0.376105,1.44211,0.367326,0.488444,-0.0287895,0.561345,-0.0616403,0.111838,0.195075,-8.70819e-05,2.46723,-25.6593,2.46461,25.4315,2.29766,1.91887,0.0440523,-2.50619,2.00407,-2.83748,-1.02133,-0.423551,0.806001,0.790843,0.447282,0.872459,-1.22413,0.454197,-0.184984,0.0600067,
0.107801,-0.271623,-0.0409105,-1.96774,0.381484,-0.118751,-0.417278,0.644255,-0.0947126,0.746047,-0.13791,0.136647,0.302121,0.00970524,0,0,0,0,0,0,0,0.113433,-0.267704,-0.0319599,-1.96198,0.378478,1.44884,0.36733,0.503993,-0.0287102,0.616244,-0.0565669,0.0466616,0.214683,0.00118558,0.233646,-25.6593,-0.213304,25.3085,2.48718,1.80627,0.00376909,-1.92043,-0.118594,-2.85019,0.286088,-0.0432996,-0.179568,-0.167994,0.564888,-0.264983,-1.21217,0.320013,-0.0943206,0.0646048,
0.110366,-0.272003,-0.0379367,-1.96828,0.381979,-0.117523,-0.41724,0.641165,-0.0948836,0.743461,-0.135052,0.123723,0.306988,0.00959135,0,0,0,0,0,0,0,0.113433,-0.267704,-0.0319599,-1.96198,0.378478,1.44884,0.36733,0.503993,-0.0287102,0.616244,-0.0565669,0.0466616,0.214683,0.00118558,0.233646,-25.6593,-0.213304,25.3085,2.48718,1.80627,0.00376909,-1.50798,-1.01863,-2.88457,0.835498,0.219417,-0.607668,-0.578357,0.658213,-0.763322,-1.20178,0.265284,-0.0311957,0.0651178,
0.112918,-0.272383,-0.034974,-1.96881,0.382408,-0.116276,-0.417202,0.638158,-0.095118,0.740678,-0.131942,0.107283,0.311773,0.00946534,0,0,0,0,0,0,0,0.113433,-0.267704,-0.0319599,-1.96198,0.378478,1.44884,0.36733,0.503993,-0.0287102,0.616244,-0.0565669,0.0466616,0.214683,0.00118558,0.233646,-25.6593,-0.213304,25.3085,2.48718,1.80627,0.00376909,-1.50798,-1.01863,-2.88457,0.835498,0.219417,-0.607668,-0.578357,0.658213,-0.763322,-1.20178,0.265284,-0.0311957,0.0651178,
