PerkyPenguin/Analysis-on-Approximated-Derivatives/Code_and_Data/PaperData/Real_Robot/Scene_2/set_interval/6/trajectory.csv
Commanded Joint 0 Position,Commanded Joint 1 Position,Commanded Joint 2 Position,Commanded Joint 3 Position,Commanded Joint 4 Position,Commanded Joint 5 Position,Commanded Joint 6 Position,Commanded Joint 0 Velocity,Commanded Joint 1 Velocity,Commanded Joint 2 Velocity,Commanded Joint 3 Velocity,Commanded Joint 4 Velocity,Commanded Joint 5 Velocity,Commanded Joint 6 Velocity,Commanded Joint 0 Torque,Commanded Joint 1 Torque,Commanded Joint 2 Torque,Commanded Joint 3 Torque,Commanded Joint 4 Torque,Commanded Joint 5 Torque,Commanded Joint 6 Torque,Actual Joint 0 Position,Actual Joint 1 Position,Actual Joint 2 Position,Actual Joint 3 Position,Actual Joint 4 Position,Actual Joint 5 Position,Actual Joint 6 Position,Actual Joint 0 Velocity,Actual Joint 1 Velocity,Actual Joint 2 Velocity,Actual Joint 3 Velocity,Actual Joint 4 Velocity,Actual Joint 5 Velocity,Actual Joint 6 Velocity,Actual Joint 0 Torque,Actual Joint 1 Torque,Actual Joint 2 Torque,Actual Joint 3 Torque,Actual Joint 4 Torque,Actual Joint 5 Torque,Actual Joint 6 Torque,EE ext force 0,EE ext force 1,EE ext force 2,EE ext force 3,EE ext force 4,EE ext force 5,joint ext torque 0,joint ext torque 1,joint ext torque 2,joint ext torque 3,joint ext torque 4,joint ext torque 5,joint ext torque 6,
0.00160445,-0.234552,0.490853,-1.88406,0.137869,0.130747,0.493788,0.0058174,0.0212707,0.0254187,-0.15971,-0.0619727,0.235329,-0.00120371,0,0,0,0,0,0,0,0.00162208,-0.23468,0.490686,-1.88248,0.13815,1.6992,1.2792,0.00287846,-0.00440354,0.000825605,-0.00140145,-0.00631288,-0.000927092,-0.00111546,-0.171017,-21.9936,-4.25994,27.3993,1.21643,3.17864,0.14476,0.238868,0.349811,0.250214,-0.254053,0.308637,-0.00818395,0.0452727,0.235833,-0.0216989,-0.148746,0.0390161,-0.228276,0.110546,
0.0016388,-0.2344,0.49098,-1.88475,0.137528,0.131722,0.493783,0.00858906,0.0378236,0.0317696,-0.171478,-0.0851396,0.243639,-0.00128718,0,0,0,0,0,0,0,0.00162208,-0.23468,0.490686,-1.88248,0.13815,1.6992,1.2792,0.00287846,-0.00440354,0.000825605,-0.00140145,-0.00631288,-0.000927092,-0.00111546,-0.171017,-21.9936,-4.25994,27.3993,1.21643,3.17864,0.14476,-0.270163,0.555197,0.335824,-0.340539,-0.0638427,0.211406,0.252699,0.0313501,0.206566,-0.0723384,0.0776389,-0.223899,0.109907,
0.00164084,-0.23472,0.490707,-1.88248,0.138102,0.128376,0.493797,0.000889601,-0.00183285,0.000999863,0.000456869,-0.00152846,-0.00114487,-2.42412e-05,0,0,0,0,0,0,0,0.00162208,-0.23468,0.490686,-1.88248,0.13815,1.6992,1.2792,0.00287846,-0.00440354,0.000825605,-0.00140145,-0.00631288,-0.000927092,-0.00111546,-0.171017,-21.9936,-4.25994,27.3993,1.21643,3.17864,0.14476,-0.270163,0.555197,0.335824,-0.340539,-0.0638427,0.211406,0.252699,0.0313501,0.206566,-0.0723384,0.0776389,-0.223899,0.109907,
0.00164387,-0.234726,0.49071,-1.88248,0.138099,0.128373,0.493797,0.000758079,-0.00157511,0.000857528,0.000444294,-0.000935325,-0.000881667,-1.9362e-05,0,0,0,0,0,0,0,0.00162208,-0.23468,0.490686,-1.88248,0.13815,1.6992,1.2792,0.00287846,-0.00440354,0.000825605,-0.00140145,-0.00631288,-0.000927092,-0.00111546,-0.171017,-21.9936,-4.25994,27.3993,1.21643,3.17864,0.14476,0.251846,0.463791,0.305884,-0.293397,0.291593,0.0359995,0.0888125,0.214365,0.0221568,-0.10578,0.059873,-0.209628,0.110877,
0.00164647,-0.234731,0.490713,-1.88248,0.138097,0.12837,0.493796,0.000649424,-0.00136687,0.000743084,0.000418025,-0.000507132,-0.000666101,-1.51245e-05,0,0,0,0,0,0,0,0.00162208,-0.23468,0.490686,-1.88248,0.13815,1.6992,1.2792,0.00287846,-0.00440354,0.000825605,-0.00140145,-0.00631288,-0.000927092,-0.00111546,-0.171017,-21.9936,-4.25994,27.3993,1.21643,3.17864,0.14476,-0.155729,0.0749378,0.236318,-0.0550188,0.0220987,-0.0162551,0.0422806,0.0811661,-0.0587857,-0.118834,0.0399651,-0.209857,0.107538,
0.0016487,-0.234736,0.490716,-1.88247,0.138096,0.128368,0.493796,0.00055929,-0.0011962,0.000650475,0.000387457,-0.000203636,-0.000496931,-1.17191e-05,0,0,0,0,0,0,0,0.00162208,-0.23468,0.490686,-1.88248,0.13815,1.6992,1.2792,0.00287846,-0.00440354,0.000825605,-0.00140145,-0.00631288,-0.000927092,-0.00111546,-0.171017,-21.9936,-4.25994,27.3993,1.21643,3.17864,0.14476,-0.155729,0.0749378,0.236318,-0.0550188,0.0220987,-0.0162551,0.0422806,0.0811661,-0.0587857,-0.118834,0.0399651,-0.209857,0.107538,
0.00165064,-0.23474,0.490718,-1.88247,0.138096,0.128367,0.493796,0.000484006,-0.00105534,0.000574842,0.000356391,7.08418e-06,-0.000368228,-9.05879e-06,0,0,0,0,0,0,0,0.00161914,-0.234737,0.490681,-1.88277,0.138152,1.69975,1.2792,0.00596882,-0.0136189,0.00333436,-0.023212,-0.0203381,0.0478689,-0.000912616,-0.119442,-21.3667,-4.11315,26.5027,1.19171,3.10631,0.138352,-0.698339,-0.045059,-0.162307,-0.0359286,-0.229446,0.0719624,0.116874,0.00874586,0.0435263,-0.225394,0.0602529,-0.192195,0.108112,
0.00165232,-0.234744,0.49072,-1.88247,0.138096,0.128366,0.493796,0.000420647,-0.000938606,0.000512456,0.000326438,0.000149427,-0.00027318,-6.99469e-06,0,0,0,0,0,0,0,0.00161914,-0.234737,0.490681,-1.88277,0.138152,1.69975,1.2792,0.00596882,-0.0136189,0.00333436,-0.023212,-0.0203381,0.0478689,-0.000912616,-0.119442,-21.3667,-4.11315,26.5027,1.19171,3.10631,0.138352,-0.698339,-0.045059,-0.162307,-0.0359286,-0.229446,0.0719624,0.116874,0.00874586,0.0435263,-0.225394,0.0602529,-0.192195,0.108112,
0.00165379,-0.234747,0.490722,-1.88247,0.138097,0.128365,0.493796,0.000366928,-0.000841579,0.000460493,0.00029829,0.000241744,-0.000205396,-5.38825e-06,0,0,0,0,0,0,0,0.00161914,-0.234737,0.490681,-1.88277,0.138152,1.69975,1.2792,0.00596882,-0.0136189,0.00333436,-0.023212,-0.0203381,0.0478689,-0.000912616,-0.119442,-21.3667,-4.11315,26.5027,1.19171,3.10631,0.138352,0.497719,0.355017,-0.804231,-0.488387,0.800654,-0.0747216,-0.0208208,0.642268,-0.0329129,-0.528495,0.022454,-0.182146,0.107007,
0.00165508,-0.23475,0.490723,-1.88247,0.138099,0.128364,0.493796,0.000321073,-0.000760726,0.000416814,0.000272224,0.000297738,-0.000159301,-4.12819e-06,0,0,0,0,0,0,0,0.00161914,-0.234737,0.490681,-1.88277,0.138152,1.69975,1.2792,0.00596882,-0.0136189,0.00333436,-0.023212,-0.0203381,0.0478689,-0.000912616,-0.119442,-21.3667,-4.11315,26.5027,1.19171,3.10631,0.138352,0.39909,0.458043,-0.201991,-0.38792,0.491729,-0.00596177,0.0484447,0.365915,0.00228396,-0.238198,0.0392413,-0.134692,0.108183,
0.0016562,-0.234753,0.490725,-1.88247,0.1381,0.128364,0.493796,0.000281691,-0.000693181,0.000379796,0.000248312,0.000327601,-0.000130199,-3.12984e-06,0,0,0,0,0,0,0,0.00161914,-0.234737,0.490681,-1.88277,0.138152,1.69975,1.2792,0.00596882,-0.0136189,0.00333436,-0.023212,-0.0203381,0.0478689,-0.000912616,-0.119442,-21.3667,-4.11315,26.5027,1.19171,3.10631,0.138352,0.39909,0.458043,-0.201991,-0.38792,0.491729,-0.00596177,0.0484447,0.365915,0.00228396,-0.238198,0.0392413,-0.134692,0.108183,
0.00165719,-0.234756,0.490726,-1.88247,0.138101,0.128363,0.493796,0.000247688,-0.000636609,0.000348194,0.000226515,0.000338895,-0.000114211,-2.33011e-06,0,0,0,0,0,0,0,0.00159744,-0.234671,0.490687,-1.88277,0.138234,1.70005,1.2792,-0.00492593,0.00150886,-0.00128635,0.00348382,0.0213752,0.001533,0.000118089,0.158268,-22.4181,-4.21233,27.3001,0.526119,3.15941,0.104477,0.756648,0.464747,-0.167861,-0.368776,0.716704,-0.0995916,-0.0486924,0.471351,-0.0907847,-0.227753,0.0500928,-0.115148,0.109628,
0.00165807,-0.234758,0.490728,-1.88247,0.138103,0.128363,0.493796,0.000218194,-0.000589102,0.000321045,0.000206737,0.000337214,-0.000108181,-1.68226e-06,0,0,0,0,0,0,0,0.00159744,-0.234671,0.490687,-1.88277,0.138234,1.70005,1.2792,-0.00492593,0.00150886,-0.00128635,0.00348382,0.0213752,0.001533,0.000118089,0.158268,-22.4181,-4.21233,27.3001,0.526119,3.15941,0.104477,0.756648,0.464747,-0.167861,-0.368776,0.716704,-0.0995916,-0.0486924,0.471351,-0.0907847,-0.227753,0.0500928,-0.115148,0.109628,
0.00165884,-0.23476,0.490729,-1.88247,0.138104,0.128362,0.493796,0.000192509,-0.000549098,0.000297594,0.00018885,0.000326688,-0.000109569,-1.15167e-06,0,0,0,0,0,0,0,0.00159744,-0.234671,0.490687,-1.88277,0.138234,1.70005,1.2792,-0.00492593,0.00150886,-0.00128635,0.00348382,0.0213752,0.001533,0.000118089,0.158268,-22.4181,-4.21233,27.3001,0.526119,3.15941,0.104477,-0.177438,0.508363,-0.131718,-0.38286,0.0738506,0.164944,0.209082,0.138685,0.172351,-0.171079,0.0650286,-0.132874,0.108913,
0.00165952,-0.234762,0.49073,-1.88246,0.138105,0.128362,0.493796,0.000170065,-0.000515319,0.000277245,0.000172715,0.00031035,-0.000116349,-7.12567e-07,0,0,0,0,0,0,0,0.00159744,-0.234671,0.490687,-1.88277,0.138234,1.70005,1.2792,-0.00492593,0.00150886,-0.00128635,0.00348382,0.0213752,0.001533,0.000118089,0.158268,-22.4181,-4.21233,27.3001,0.526119,3.15941,0.104477,-0.177438,0.508363,-0.131718,-0.38286,0.0738506,0.164944,0.209082,0.138685,0.172351,-0.171079,0.0650286,-0.132874,0.108913,
0.00166012,-0.234764,0.490731,-1.88246,0.138106,0.128361,0.493796,0.000150398,-0.000486718,0.00025952,0.000158186,0.000290415,-0.000126924,-3.45669e-07,0,0,0,0,0,0,0,0.00159744,-0.234671,0.490687,-1.88277,0.138234,1.70005,1.2792,-0.00492593,0.00150886,-0.00128635,0.00348382,0.0213752,0.001533,0.000118089,0.158268,-22.4181,-4.21233,27.3001,0.526119,3.15941,0.104477,-0.458841,0.302245,0.146805,-0.175771,-0.217262,0.15409,0.206741,-0.0579296,0.122444,-0.0514446,0.0642971,-0.132804,0.109617,
0.00166065,-0.234766,0.490732,-1.88246,0.138107,0.128361,0.493796,0.00013312,-0.000462433,0.000244031,0.000145123,0.000268489,-0.000140048,-3.64071e-08,0,0,0,0,0,0,0,0.00159744,-0.234671,0.490687,-1.88277,0.138234,1.70005,1.2792,-0.00492593,0.00150886,-0.00128635,0.00348382,0.0213752,0.001533,0.000118089,0.158268,-22.4181,-4.21233,27.3001,0.526119,3.15941,0.104477,0.390672,0.226031,0.0216892,-0.187844,0.41466,-0.0997458,-0.0306986,0.293229,-0.129903,-0.167232,0.0290046,-0.143809,0.110151,
0.00166112,-0.234768,0.490733,-1.88246,0.138108,0.12836,0.493796,0.00011791,-0.000441759,0.000230461,0.00013339,0.000245722,-0.000154755,2.26317e-07,0,0,0,0,0,0,0,0.00161156,-0.234693,0.490692,-1.88269,0.138156,1.70004,1.2792,-0.00137037,-0.00139032,-8.3418e-06,0.00246627,-0.000368268,-0.00142971,-0.000224049,-0.0440639,-22.0928,-4.28771,27.5262,1.13678,3.25829,0.124619,0.390672,0.226031,0.0216892,-0.187844,0.41466,-0.0997458,-0.0306986,0.293229,-0.129903,-0.167232,0.0290046,-0.143809,0.110151,
0.00166154,-0.23477,0.490734,-1.88246,0.138109,0.128359,0.493796,0.000104497,-0.000424113,0.000218546,0.000122862,0.000222925,-0.000170312,4.51047e-07,0,0,0,0,0,0,0,0.00161156,-0.234693,0.490692,-1.88269,0.138156,1.70004,1.2792,-0.00137037,-0.00139032,-8.3418e-06,0.00246627,-0.000368268,-0.00142971,-0.000224049,-0.0440639,-22.0928,-4.28771,27.5262,1.13678,3.25829,0.124619,-0.442199,0.30664,0.0926917,-0.198458,-0.158021,0.150838,0.203275,-0.00420848,0.124383,-0.102551,0.0709104,-0.162181,0.111139,
0.00166191,-0.234771,0.490735,-1.88246,0.13811,0.128359,0.493796,9.26509e-05,-0.000409015,0.000208068,0.00011342,0.000200657,-0.000186164,6.44432e-07,0,0,0,0,0,0,0,0.00161156,-0.234693,0.490692,-1.88269,0.138156,1.70004,1.2792,-0.00137037,-0.00139032,-8.3418e-06,0.00246627,-0.000368268,-0.00142971,-0.000224049,-0.0440639,-22.0928,-4.28771,27.5262,1.13678,3.25829,0.124619,-0.442199,0.30664,0.0926917,-0.198458,-0.158021,0.150838,0.203275,-0.00420848,0.124383,-0.102551,0.0709104,-0.162181,0.111139,
0.00166224,-0.234773,0.490735,-1.88246,0.138111,0.128358,0.493796,8.21751e-05,-0.000396066,0.00019884,0.000104958,0.000179292,-0.000201906,8.11704e-07,0,0,0,0,0,0,0,0.00161156,-0.234693,0.490692,-1.88269,0.138156,1.70004,1.2792,-0.00137037,-0.00139032,-8.3418e-06,0.00246627,-0.000368268,-0.00142971,-0.000224049,-0.0440639,-22.0928,-4.28771,27.5262,1.13678,3.25829,0.124619,0.0676586,0.342759,0.0690905,-0.231021,0.199537,0.0312434,0.0838011,0.18362,0.0126407,-0.136936,0.0677804,-0.156362,0.111428,
0.00166253,-0.234774,0.490736,-1.88246,0.138111,0.128357,0.493796,7.2901e-05,-0.000384939,0.000190704,9.73759e-05,0.000159067,-0.000217242,9.57027e-07,0,0,0,0,0,0,0,0.00161156,-0.234693,0.490692,-1.88269,0.138156,1.70004,1.2792,-0.00137037,-0.00139032,-8.3418e-06,0.00246627,-0.000368268,-0.00142971,-0.000224049,-0.0440639,-22.0928,-4.28771,27.5262,1.13678,3.25829,0.124619,-0.0981364,0.448611,0.189289,-0.297305,0.0505045,0.12171,0.174078,0.0897883,0.108046,-0.0927214,0.052625,-0.172519,0.10936,
0.00166279,-0.234776,0.490737,-1.88246,0.138112,0.128356,0.493796,6.46831e-05,-0.000375358,0.000183527,9.0586e-05,0.000140119,-0.000231968,1.08375e-06,0,0,0,0,0,0,0,0.00159512,-0.234708,0.490667,-1.88262,0.138153,1.70004,1.2792,0.00177746,-0.006662,0.000919478,0.000600642,-0.0120041,-0.00331062,-0.00063263,0.134464,-21.9936,-3.98619,27.3993,1.19171,3.27843,0.138352,-0.0981364,0.448611,0.189289,-0.297305,0.0505045,0.12171,0.174078,0.0897883,0.108046,-0.0927214,0.052625,-0.172519,0.10936,
0.00166302,-0.234777,0.490738,-1.88246,0.138113,0.128355,0.493796,5.73953e-05,-0.000367096,0.00017719,8.45073e-05,0.000122513,-0.000245949,1.19461e-06,0,0,0,0,0,0,0,0.00159512,-0.234708,0.490667,-1.88262,0.138153,1.70004,1.2792,0.00177746,-0.006662,0.000919478,0.000600642,-0.0120041,-0.00331062,-0.00063263,0.134464,-21.9936,-3.98619,27.3993,1.19171,3.27843,0.138352,-0.16431,0.60866,0.0241058,-0.439576,0.0740616,0.207333,0.259657,0.135534,0.211992,-0.157176,0.0628268,-0.182019,0.108545,
0.00166322,-0.234779,0.490738,-1.88246,0.138113,0.128354,0.493796,5.09277e-05,-0.000359962,0.000171595,7.9067e-05,0.000106262,-0.000259102,1.29185e-06,0,0,0,0,0,0,0,0.00159512,-0.234708,0.490667,-1.88262,0.138153,1.70004,1.2792,0.00177746,-0.006662,0.000919478,0.000600642,-0.0120041,-0.00331062,-0.00063263,0.134464,-21.9936,-3.98619,27.3993,1.19171,3.27843,0.138352,-0.16431,0.60866,0.0241058,-0.439576,0.0740616,0.207333,0.259657,0.135534,0.211992,-0.157176,0.0628268,-0.182019,0.108545,
0.0016634,-0.23478,0.490739,-1.88246,0.138113,0.128353,0.493796,4.51846e-05,-0.000353796,0.000166654,7.41994e-05,9.13427e-05,-0.000271382,1.37732e-06,0,0,0,0,0,0,0,0.00159512,-0.234708,0.490667,-1.88262,0.138153,1.70004,1.2792,0.00177746,-0.006662,0.000919478,0.000600642,-0.0120041,-0.00331062,-0.00063263,0.134464,-21.9936,-3.98619,27.3993,1.19171,3.27843,0.138352,0.298118,0.493949,0.0034384,-0.370003,0.384173,0.038749,0.10452,0.293274,0.0292071,-0.181593,0.0478496,-0.165453,0.108985,
0.00166356,-0.234782,0.49074,-1.88246,0.138114,0.128352,0.493796,4.00821e-05,-0.000348462,0.000162289,6.98457e-05,7.77091e-05,-0.000282779,1.4526e-06,0,0,0,0,0,0,0,0.00159512,-0.234708,0.490667,-1.88262,0.138153,1.70004,1.2792,0.00177746,-0.006662,0.000919478,0.000600642,-0.0120041,-0.00331062,-0.00063263,0.134464,-21.9936,-3.98619,27.3993,1.19171,3.27843,0.138352,0.298118,0.493949,0.0034384,-0.370003,0.384173,0.038749,0.10452,0.293274,0.0292071,-0.181593,0.0478496,-0.165453,0.108985,
0.00166371,-0.234783,0.49074,-1.88246,0.138114,0.128351,0.493796,3.55468e-05,-0.000343847,0.000158435,6.59528e-05,6.52981e-05,-0.000293299,1.519e-06,0,0,0,0,0,0,0,0.00159512,-0.234708,0.490667,-1.88262,0.138153,1.70004,1.2792,0.00177746,-0.006662,0.000919478,0.000600642,-0.0120041,-0.00331062,-0.00063263,0.134464,-21.9936,-3.98619,27.3993,1.19171,3.27843,0.138352,0.285237,0.534964,0.243264,-0.340246,0.296015,0.0599258,0.123237,0.208991,0.0418583,-0.0866809,0.0534934,-0.165896,0.108659,
0.00170137,-0.234978,0.490726,-1.88223,0.0819201,0.104108,0.493696,-0.00495874,0.000436206,-0.00502942,-0.00226906,-0.332508,-0.146253,-0.000521418,0,0,0,0,0,0,0,0.00161274,-0.234716,0.490673,-1.88256,0.13816,1.70004,1.2792,0.00417954,-0.00810465,0.00270531,-0.000573033,-0.0119597,-0.0030753,0.00147294,-0.119442,-22.0174,-4.16075,27.5262,1.12487,3.29125,0.0706026,0.285237,0.534964,0.243264,-0.340246,0.296015,0.0599258,0.123237,0.208991,0.0418583,-0.0866809,0.0534934,-0.165896,0.108659,
0.00174096,-0.235104,0.490791,-1.88231,0.0920537,0.108965,0.493754,-0.00411426,-6.63192e-05,-0.0039842,-0.00207065,-0.258072,-0.117084,-0.00025005,0,0,0,0,0,0,0,0.00161274,-0.234716,0.490673,-1.88256,0.13816,1.70004,1.2792,0.00417954,-0.00810465,0.00270531,-0.000573033,-0.0119597,-0.0030753,0.00147294,-0.119442,-22.0174,-4.16075,27.5262,1.12487,3.29125,0.0706026,0.570534,0.619095,0.231312,-0.395338,0.491328,0.0181929,0.070268,0.307968,0.0170976,-0.0965193,0.058834,-0.155819,0.108241,
0.00172437,-0.235104,0.490775,-1.88232,0.0910357,0.108502,0.493753,-0.00414821,-6.1933e-05,-0.0040222,-0.00208614,-0.254518,-0.115616,-0.000248926,0,0,0,0,0,0,0,0.00161274,-0.234716,0.490673,-1.88256,0.13816,1.70004,1.2792,0.00417954,-0.00810465,0.00270531,-0.000573033,-0.0119597,-0.0030753,0.00147294,-0.119442,-22.0174,-4.16075,27.5262,1.12487,3.29125,0.0706026,0.913623,0.51979,0.0840206,-0.386349,0.751525,-0.117046,-0.067112,0.453751,-0.107103,-0.164062,0.0239824,-0.140806,0.109259,
0.00170764,-0.235104,0.490758,-1.88233,0.0900327,0.108046,0.493752,-0.00418405,-6.25708e-05,-0.00406047,-0.0021066,-0.250733,-0.11404,-0.000248633,0,0,0,0,0,0,0,0.00161274,-0.234716,0.490673,-1.88256,0.13816,1.70004,1.2792,0.00417954,-0.00810465,0.00270531,-0.000573033,-0.0119597,-0.0030753,0.00147294,-0.119442,-22.0174,-4.16075,27.5262,1.12487,3.29125,0.0706026,0.913623,0.51979,0.0840206,-0.386349,0.751525,-0.117046,-0.067112,0.453751,-0.107103,-0.164062,0.0239824,-0.140806,0.109259,
0.00169074,-0.235104,0.490742,-1.88233,0.089046,0.107597,0.493751,-0.00422342,-6.79071e-05,-0.00410034,-0.00213386,-0.246677,-0.112336,-0.000249121,0,0,0,0,0,0,0,0.00161274,-0.234716,0.490673,-1.88256,0.13816,1.70004,1.2792,0.00417954,-0.00810465,0.00270531,-0.000573033,-0.0119597,-0.0030753,0.00147294,-0.119442,-22.0174,-4.16075,27.5262,1.12487,3.29125,0.0706026,-0.0633057,0.804598,0.350857,-0.504728,0.0016227,0.257905,0.295131,0.0275895,0.274089,-0.00448083,0.0505672,-0.155082,0.11014,
0.00167367,-0.235105,0.490725,-1.88234,0.0880768,0.107155,0.49375,-0.00426827,-7.76016e-05,-0.00414334,-0.00217004,-0.242307,-0.110483,-0.000250419,0,0,0,0,0,0,0,0.00166672,-0.234698,0.490724,-1.88244,0.13701,1.70004,1.2792,0.00388449,-0.00767525,0.00895879,0.00766915,-0.120663,-0.000243744,-9.31561e-05,-0.603451,-22.4419,-4.71221,27.1017,0.21484,2.95983,0.104477,-0.0633057,0.804598,0.350857,-0.504728,0.0016227,0.257905,0.295131,0.0275895,0.274089,-0.00448083,0.0505672,-0.155082,0.11014,
0.00165639,-0.235105,0.490709,-1.88235,0.0871265,0.106721,0.493749,-0.00432095,-9.12903e-05,-0.0041914,-0.0022177,-0.237566,-0.108451,-0.000252545,0,0,0,0,0,0,0,0.00166672,-0.234698,0.490724,-1.88244,0.13701,1.70004,1.2792,0.00388449,-0.00767525,0.00895879,0.00766915,-0.120663,-0.000243744,-9.31561e-05,-0.603451,-22.4419,-4.71221,27.1017,0.21484,2.95983,0.104477,0.586545,0.861235,0.00386742,-0.738404,0.573864,0.107599,0.146869,0.384152,0.175732,-0.231027,-0.0510276,-0.206343,0.111079,
0.00163885,-0.235106,0.490692,-1.88236,0.086197,0.106296,0.493748,-0.00438441,-0.000108562,-0.00424682,-0.00227989,-0.232388,-0.106205,-0.000255336,0,0,0,0,0,0,0,0.00166672,-0.234698,0.490724,-1.88244,0.13701,1.70004,1.2792,0.00388449,-0.00767525,0.00895879,0.00766915,-0.120663,-0.000243744,-9.31561e-05,-0.603451,-22.4419,-4.71221,27.1017,0.21484,2.95983,0.104477,0.635943,0.480418,0.185918,-0.552544,0.496453,-0.0693292,-0.0398832,0.288991,-0.00171719,-0.185845,-0.174866,-0.216003,0.110049,
0.001621,-0.235106,0.490674,-1.88237,0.0852902,0.105881,0.493747,-0.00446233,-0.000128949,-0.00431259,-0.00236031,-0.226688,-0.103706,-0.000258672,0,0,0,0,0,0,0,0.00166672,-0.234698,0.490724,-1.88244,0.13701,1.70004,1.2792,0.00388449,-0.00767525,0.00895879,0.00766915,-0.120663,-0.000243744,-9.31561e-05,-0.603451,-22.4419,-4.71221,27.1017,0.21484,2.95983,0.104477,0.635943,0.480418,0.185918,-0.552544,0.496453,-0.0693292,-0.0398832,0.288991,-0.00171719,-0.185845,-0.174866,-0.216003,0.110049,
0.00160276,-0.235107,0.490657,-1.88238,0.0844088,0.105478,0.493746,-0.0045594,-0.000151906,-0.00439248,-0.00246338,-0.220363,-0.100901,-0.000262134,0,0,0,0,0,0,0,0.00166672,-0.234698,0.490724,-1.88244,0.13701,1.70004,1.2792,0.00388449,-0.00767525,0.00895879,0.00766915,-0.120663,-0.000243744,-9.31561e-05,-0.603451,-22.4419,-4.71221,27.1017,0.21484,2.95983,0.104477,-0.0343185,0.642857,0.472216,-0.594347,-0.0901724,0.17417,0.194243,-0.0756696,0.240423,-0.00776422,-0.178779,-0.195815,0.109056,
0.00158403,-0.235107,0.490639,-1.88239,0.0835556,0.105087,0.493745,-0.00468166,-0.000176796,-0.00449142,-0.00259449,-0.213285,-0.0977325,-0.000265318,0,0,0,0,0,0,0,0.00166672,-0.234698,0.490724,-1.88244,0.13701,1.70004,1.2792,0.00388449,-0.00767525,0.00895879,0.00766915,-0.120663,-0.000243744,-9.31561e-05,-0.603451,-22.4419,-4.71221,27.1017,0.21484,2.95983,0.104477,-0.0343185,0.642857,0.472216,-0.594347,-0.0901724,0.17417,0.194243,-0.0756696,0.240423,-0.00776422,-0.178779,-0.195815,0.109056,
0.00156469,-0.235108,0.49062,-1.8824,0.0827345,0.10471,0.493744,-0.00483694,-0.000202898,-0.0046158,-0.00276012,-0.205291,-0.0941271,-0.000267358,0,0,0,0,0,0,0,0.00176866,-0.234678,0.490772,-1.88237,0.131906,1.69976,1.2792,0.00252446,0.00155825,0.00356684,0.00805152,-0.175462,-0.0244274,-0.000443236,-0.29797,-22.6164,-4.46227,27.2763,0.0381434,3.0468,0.124619,0.745937,0.338595,0.327725,-0.506054,0.478747,-0.158827,-0.120142,0.235797,-0.0965305,-0.139672,-0.271066,-0.212644,0.109675,
0.00154454,-0.235109,0.490601,-1.88241,0.0819498,0.10435,0.493743,-0.00503549,-0.000229445,-0.00477408,-0.00296821,-0.196177,-0.0899989,-0.000266939,0,0,0,0,0,0,0,0.00176866,-0.234678,0.490772,-1.88237,0.131906,1.69976,1.2792,0.00252446,0.00155825,0.00356684,0.00805152,-0.175462,-0.0244274,-0.000443236,-0.29797,-22.6164,-4.46227,27.2763,0.0381434,3.0468,0.124619,0.745937,0.338595,0.327725,-0.506054,0.478747,-0.158827,-0.120142,0.235797,-0.0965305,-0.139672,-0.271066,-0.212644,0.109675,
0.00152338,-0.23511,0.490581,-1.88243,0.081207,0.104009,0.493742,-0.0052908,-0.000255751,-0.00497748,-0.00322857,-0.185685,-0.0852455,-0.000261856,0,0,0,0,0,0,0,0.00176866,-0.234678,0.490772,-1.88237,0.131906,1.69976,1.2792,0.00252446,0.00155825,0.00356684,0.00805152,-0.175462,-0.0244274,-0.000443236,-0.29797,-22.6164,-4.46227,27.2763,0.0381434,3.0468,0.124619,0.343139,0.14698,0.69431,-0.351269,0.0672962,-0.132142,-0.0954251,-0.0419645,-0.0899438,-0.00165187,-0.327202,-0.236433,0.107395,
0.0015009,-0.235111,0.49056,-1.88244,0.0805131,0.10369,0.493741,-0.00562092,-0.000281611,-0.00524111,-0.003554,-0.173483,-0.0797432,-0.000248449,0,0,0,0,0,0,0,0.00176866,-0.234678,0.490772,-1.88237,0.131906,1.69976,1.2792,0.00252446,0.00155825,0.00356684,0.00805152,-0.175462,-0.0244274,-0.000443236,-0.29797,-22.6164,-4.46227,27.2763,0.0381434,3.0468,0.124619,0.747497,0.176687,0.50557,-0.443776,0.432524,-0.226681,-0.194169,0.188272,-0.159251,-0.128521,-0.342782,-0.265999,0.106395,
0.0014767,-0.235112,0.490538,-1.88246,0.0798765,0.103397,0.49374,-0.00605037,-0.000308371,-0.00558559,-0.0039627,-0.159137,-0.0733397,-0.000219598,0,0,0,0,0,0,0,0.00176866,-0.234678,0.490772,-1.88237,0.131906,1.69976,1.2792,0.00252446,0.00155825,0.00356684,0.00805152,-0.175462,-0.0244274,-0.000443236,-0.29797,-22.6164,-4.46227,27.2763,0.0381434,3.0468,0.124619,0.747497,0.176687,0.50557,-0.443776,0.432524,-0.226681,-0.194169,0.188272,-0.159251,-0.128521,-0.342782,-0.265999,0.106395,
0.00145024,-0.235114,0.490514,-1.88247,0.0793083,0.103134,0.49374,-0.00661352,-0.000341855,-0.00603994,-0.00448495,-0.142073,-0.0658344,-0.000162284,0,0,0,0,0,0,0,0.00184179,-0.234718,0.490797,-1.88238,0.126707,1.69937,1.2792,-0.00257663,0.00488858,-0.00149768,-0.000219351,-0.151559,-0.00818808,0.00492467,-0.198788,-22.2911,-4.46227,27.3993,0.123287,2.90032,0.0779268,0.878068,0.154505,0.515272,-0.44803,0.545365,-0.269982,-0.229972,0.258605,-0.205094,-0.1654,-0.352182,-0.298027,0.107158,
0.0014208,-0.235115,0.490487,-1.8825,0.0788223,0.102906,0.493739,-0.0073613,-0.000400616,-0.00664709,-0.00518164,-0.121498,-0.056925,-6.62139e-05,0,0,0,0,0,0,0,0.00184179,-0.234718,0.490797,-1.88238,0.126707,1.69937,1.2792,-0.00257663,0.00488858,-0.00149768,-0.000219351,-0.151559,-0.00818808,0.00492467,-0.198788,-22.2911,-4.46227,27.3993,0.123287,2.90032,0.0779268,0.878068,0.154505,0.515272,-0.44803,0.545365,-0.269982,-0.229972,0.258605,-0.205094,-0.1654,-0.352182,-0.298027,0.107158,
0.00138729,-0.235118,0.490457,-1.88252,0.0784373,0.102722,0.493739,-0.00837667,-0.00053927,-0.00747649,-0.00619678,-0.0962404,-0.0460586,-0.000177939,0,0,0,0,0,0,0,0.00184179,-0.234718,0.490797,-1.88238,0.126707,1.69937,1.2792,-0.00257663,0.00488858,-0.00149768,-0.000219351,-0.151559,-0.00818808,0.00492467,-0.198788,-22.2911,-4.46227,27.3993,0.123287,2.90032,0.0779268,0.199614,0.336847,0.711281,-0.488701,0.0552233,-0.0117196,0.0257843,-0.00603717,0.0437572,-0.0675552,-0.294955,-0.325186,0.105304,
0.00135379,-0.235117,0.490426,-1.88254,0.0781276,0.102569,0.493738,-0.00837575,3.58975e-05,-0.00790049,-0.0058087,-0.0774333,-0.0382162,-3.05343e-05,0,0,0,0,0,0,0,0.00184179,-0.234718,0.490797,-1.88238,0.126707,1.69937,1.2792,-0.00257663,0.00488858,-0.00149768,-0.000219351,-0.151559,-0.00818808,0.00492467,-0.198788,-22.2911,-4.46227,27.3993,0.123287,2.90032,0.0779268,0.199614,0.336847,0.711281,-0.488701,0.0552233,-0.0117196,0.0257843,-0.00603717,0.0437572,-0.0675552,-0.294955,-0.325186,0.105304,
0.00132152,-0.235115,0.490394,-1.88256,0.0778758,0.102441,0.493739,-0.00806643,0.000686576,-0.0079152,-0.00506042,-0.0629357,-0.0320207,5.99442e-05,0,0,0,0,0,0,0,0.00184179,-0.234718,0.490797,-1.88238,0.126707,1.69937,1.2792,-0.00257663,0.00488858,-0.00149768,-0.000219351,-0.151559,-0.00818808,0.00492467,-0.198788,-22.2911,-4.46227,27.3993,0.123287,2.90032,0.0779268,0.804828,0.293681,0.501943,-0.494783,0.583962,-0.184179,-0.126803,0.323668,-0.136319,-0.211989,-0.272708,-0.350168,0.104169,
0.00129108,-0.23511,0.490363,-1.88258,0.0776696,0.102333,0.493739,-0.00761133,0.00122967,-0.00768447,-0.00429393,-0.0515448,-0.0269121,0.000111971,0,0,0,0,0,0,0,0.00178791,-0.234746,0.490745,-1.88237,0.121931,1.69933,1.2792,-0.00398619,0.0028257,-0.00499562,-0.00045644,-0.133166,0.00378241,0.000944117,0.360599,-22.1681,-3.93462,27.3279,0.507809,2.84081,0.0843355,0.804828,0.293681,0.501943,-0.494783,0.583962,-0.184179,-0.126803,0.323668,-0.136319,-0.211989,-0.272708,-0.350168,0.104169,
0.00126273,-0.235103,0.490334,-1.8826,0.0774997,0.102243,0.49374,-0.00708701,0.00162921,-0.00731369,-0.00360515,-0.0424779,-0.0226287,0.000142754,0,0,0,0,0,0,0,0.00178791,-0.234746,0.490745,-1.88237,0.121931,1.69933,1.2792,-0.00398619,0.0028257,-0.00499562,-0.00045644,-0.133166,0.00378241,0.000944117,0.360599,-22.1681,-3.93462,27.3279,0.507809,2.84081,0.0843355,0.881516,0.426182,0.397921,-0.571492,0.713543,-0.145031,-0.0709305,0.429843,-0.104943,-0.270824,-0.224849,-0.368397,0.104513,
0.00123658,-0.235096,0.490307,-1.88261,0.077359,0.102166,0.49374,-0.00653751,0.00189588,-0.00686859,-0.00300943,-0.0351872,-0.0190177,0.000161074,0,0,0,0,0,0,0,0.00178791,-0.234746,0.490745,-1.88237,0.121931,1.69933,1.2792,-0.00398619,0.0028257,-0.00499562,-0.00045644,-0.133166,0.00378241,0.000944117,0.360599,-22.1681,-3.93462,27.3279,0.507809,2.84081,0.0843355,0.488608,0.397822,0.546622,-0.442376,0.419842,-0.0511347,0.0300752,0.267591,-0.0473651,-0.182507,-0.146398,-0.362547,0.105261,
0.00121262,-0.235087,0.490281,-1.88262,0.0772419,0.102103,0.493741,-0.00598956,0.00205256,-0.0063911,-0.00249844,-0.029273,-0.0159699,0.000171643,0,0,0,0,0,0,0,0.00178791,-0.234746,0.490745,-1.88237,0.121931,1.69933,1.2792,-0.00398619,0.0028257,-0.00499562,-0.00045644,-0.133166,0.00378241,0.000944117,0.360599,-22.1681,-3.93462,27.3279,0.507809,2.84081,0.0843355,0.488608,0.397822,0.546622,-0.442376,0.419842,-0.0511347,0.0300752,0.267591,-0.0473651,-0.182507,-0.146398,-0.362547,0.105261,
0.00119078,-0.235079,0.490258,-1.88263,0.0771441,0.102049,0.493742,-0.00545945,0.00212282,-0.00590813,-0.00205902,-0.0244372,-0.0133982,0.000177231,0,0,0,0,0,0,0,0.00178791,-0.234746,0.490745,-1.88237,0.121931,1.69933,1.2792,-0.00398619,0.0028257,-0.00499562,-0.00045644,-0.133166,0.00378241,0.000944117,0.360599,-22.1681,-3.93462,27.3279,0.507809,2.84081,0.0843355,0.608028,0.31411,0.523009,-0.341043,0.531324,-0.114135,-0.0198044,0.340795,-0.136875,-0.196403,-0.0971267,-0.358315,0.104909,
-0.000483806,-0.23427,0.488125,-1.88242,-0.0524778,4.086e-05,0.49265,-0.0293535,0.0133451,-0.0316787,-0.0170434,-1.23066,-0.741478,-0.00542702,0,0,0,0,0,0,0,0.00178791,-0.234746,0.490745,-1.88237,0.121931,1.69933,1.2792,-0.00398619,0.0028257,-0.00499562,-0.00045644,-0.133166,0.00378241,0.000944117,0.360599,-22.1681,-3.93462,27.3279,0.507809,2.84081,0.0843355,0.608028,0.31411,0.523009,-0.341043,0.531324,-0.114135,-0.0198044,0.340795,-0.136875,-0.196403,-0.0971267,-0.358315,0.104909,
-0.000425248,-0.234232,0.488189,-1.88233,-0.0249145,0.034509,0.493247,-0.0247658,0.00823011,-0.0266444,-0.0102612,-0.711431,-0.542648,-0.00190231,0,0,0,0,0,0,0,0.00173489,-0.234712,0.490626,-1.88239,0.116584,1.69932,1.2792,0.00751943,-0.00203427,0.00134539,0.00111185,-0.123116,-0.0022968,0.000444064,0.463749,-22.5411,-3.88701,27.4509,0.9967,3.02025,0.0843355,-0.276404,0.502495,0.78435,-0.322391,-0.129526,0.199672,0.290907,-0.0261525,0.152342,-0.0341479,0.000936361,-0.359081,0.104811,
-0.00052392,-0.2342,0.488082,-1.88237,-0.0277154,0.032355,0.493239,-0.024668,0.00799843,-0.026563,-0.0101557,-0.700218,-0.538513,-0.00185617,0,0,0,0,0,0,0,0.00173489,-0.234712,0.490626,-1.88239,0.116584,1.69932,1.2792,0.00751943,-0.00203427,0.00134539,0.00111185,-0.123116,-0.0022968,0.000444064,0.463749,-22.5411,-3.88701,27.4509,0.9967,3.02025,0.0843355,0.093891,0.844143,0.578428,-0.538975,0.232171,0.248395,0.348414,0.21358,0.216014,-0.124709,0.0725542,-0.357073,0.104862,
-0.00062227,-0.234169,0.487976,-1.88241,-0.0304686,0.0302193,0.493232,-0.0245874,0.00774016,-0.0264925,-0.010075,-0.688321,-0.533912,-0.00181474,0,0,0,0,0,0,0,0.00173489,-0.234712,0.490626,-1.88239,0.116584,1.69932,1.2792,0.00751943,-0.00203427,0.00134539,0.00111185,-0.123116,-0.0022968,0.000444064,0.463749,-22.5411,-3.88701,27.4509,0.9967,3.02025,0.0843355,0.093891,0.844143,0.578428,-0.538975,0.232171,0.248395,0.348414,0.21358,0.216014,-0.124709,0.0725542,-0.357073,0.104862,
-0.000720386,-0.234139,0.487871,-1.88245,-0.033171,0.0281044,0.493225,-0.0245291,0.0074541,-0.0264372,-0.0100256,-0.67559,-0.528734,-0.00177964,0,0,0,0,0,0,0,0.00173489,-0.234712,0.490626,-1.88239,0.116584,1.69932,1.2792,0.00751943,-0.00203427,0.00134539,0.00111185,-0.123116,-0.0022968,0.000444064,0.463749,-22.5411,-3.88701,27.4509,0.9967,3.02025,0.0843355,0.334354,2.3812,0.6969,-1.48219,0.367873,0.827305,0.94452,0.272379,0.864649,-0.0115007,0.154471,-0.31606,0.110975,
-0.000818382,-0.234111,0.487765,-1.88249,-0.0358184,0.026013,0.493218,-0.024499,0.00713885,-0.0264018,-0.0100153,-0.661852,-0.522845,-0.00175099,0,0,0,0,0,0,0,0.00173489,-0.234712,0.490626,-1.88239,0.116584,1.69932,1.2792,0.00751943,-0.00203427,0.00134539,0.00111185,-0.123116,-0.0022968,0.000444064,0.463749,-22.5411,-3.88701,27.4509,0.9967,3.02025,0.0843355,0.334354,2.3812,0.6969,-1.48219,0.367873,0.827305,0.94452,0.272379,0.864649,-0.0115007,0.154471,-0.31606,0.110975,
-0.000916399,-0.234084,0.487659,-1.88253,-0.038406,0.0239487,0.493211,-0.0245042,0.00679287,-0.026392,-0.0100537,-0.646898,-0.516085,-0.00173003,0,0,0,0,0,0,0,0.00186861,-0.234668,0.490655,-1.88174,0.102136,1.69422,1.27919,0.0149614,0.006371,0.00708975,0.0298826,-0.678157,-0.27333,-0.00352065,-1.66668,-22.664,-5.61278,26.1813,-0.535892,1.93902,0.178635,0.110809,2.54379,1.04095,-1.61761,0.13496,0.940337,1.02702,0.110408,1.01962,0.0574221,0.0921907,-0.397052,0.113333,
-0.00101461,-0.234058,0.487554,-1.88257,-0.040928,0.0219156,0.493204,-0.024553,0.00641461,-0.0264144,-0.0101521,-0.630487,-0.508258,-0.00171821,0,0,0,0,0,0,0,0.00186861,-0.234668,0.490655,-1.88174,0.102136,1.69422,1.27919,0.0149614,0.006371,0.00708975,0.0298826,-0.678157,-0.27333,-0.00352065,-1.66668,-22.664,-5.61278,26.1813,-0.535892,1.93902,0.178635,0.110809,2.54379,1.04095,-1.61761,0.13496,0.940337,1.02702,0.110408,1.01962,0.0574221,0.0921907,-0.397052,0.113333,
-0.00111323,-0.234034,0.487448,-1.88261,-0.0433773,0.0199191,0.493197,-0.0246554,0.00600268,-0.0264771,-0.0103247,-0.612337,-0.49913,-0.00171687,0,0,0,0,0,0,0,0.00186861,-0.234668,0.490655,-1.88174,0.102136,1.69422,1.27919,0.0149614,0.006371,0.00708975,0.0298826,-0.678157,-0.27333,-0.00352065,-1.66668,-22.664,-5.61278,26.1813,-0.535892,1.93902,0.178635,0.0652702,1.571,1.0322,-1.2484,0.102722,0.524128,0.581842,0.0896463,0.628813,-0.110382,-0.166956,-0.535803,0.116723,
-0.00121252,-0.234012,0.487341,-1.88265,-0.0457458,0.0179654,0.49319,-0.0248224,0.00555609,-0.026589,-0.0105884,-0.592118,-0.488414,-0.00172796,0,0,0,0,0,0,0,0.00186861,-0.234668,0.490655,-1.88174,0.102136,1.69422,1.27919,0.0149614,0.006371,0.00708975,0.0298826,-0.678157,-0.27333,-0.00352065,-1.66668,-22.664,-5.61278,26.1813,-0.535892,1.93902,0.178635,0.708277,0.560088,1.21142,-0.837007,0.461299,-0.0844032,-0.0254088,0.234079,0.0183564,-0.237157,-0.466684,-0.664398,0.119933,
-0.00131279,-0.233991,0.487234,-1.8827,-0.0480236,0.0160624,0.493183,-0.025067,0.0050746,-0.0267606,-0.0109637,-0.569452,-0.475767,-0.00175387,0,0,0,0,0,0,0,0.00186861,-0.234668,0.490655,-1.88174,0.102136,1.69422,1.27919,0.0149614,0.006371,0.00708975,0.0298826,-0.678157,-0.27333,-0.00352065,-1.66668,-22.664,-5.61278,26.1813,-0.535892,1.93902,0.178635,0.708277,0.560088,1.21142,-0.837007,0.461299,-0.0844032,-0.0254088,0.234079,0.0183564,-0.237157,-0.466684,-0.664398,0.119933,
-0.0014144,-0.233973,0.487126,-1.88274,-0.0501992,0.0142193,0.493176,-0.0254032,0.00455916,-0.0270034,-0.0114754,-0.54391,-0.460777,-0.00179737,0,0,0,0,0,0,0,0.00186861,-0.234668,0.490655,-1.88174,0.102136,1.69422,1.27919,0.0149614,0.006371,0.00708975,0.0298826,-0.678157,-0.27333,-0.00352065,-1.66668,-22.664,-5.61278,26.1813,-0.535892,1.93902,0.178635,0.396598,-0.143052,2.01198,-0.318214,0.0147252,-0.309293,-0.259807,-0.110709,-0.258123,-0.036524,-0.573989,-0.776568,0.119482,
-0.00151779,-0.233957,0.487017,-1.88279,-0.0522593,0.0124475,0.493169,-0.0258459,0.00401264,-0.0273294,-0.012153,-0.515009,-0.442945,-0.00186234,0,0,0,0,0,0,0,0.00220957,-0.234752,0.49088,-1.88096,0.0808511,1.68408,1.2792,0.00930443,0.00380827,0.0071415,0.00885714,-0.680172,-0.335426,0.000734728,-1.08349,-21.942,-5.16051,26.6296,-0.487369,1.94543,0.0843355,0.396598,-0.143052,2.01198,-0.318214,0.0147252,-0.309293,-0.259807,-0.110709,-0.258123,-0.036524,-0.573989,-0.776568,0.119482,
-0.00162343,-0.233943,0.486906,-1.88284,-0.0541881,0.0107608,0.493161,-0.0264096,0.00344077,-0.0277504,-0.0130321,-0.482222,-0.421676,-0.00195408,0,0,0,0,0,0,0,0.00220957,-0.234752,0.49088,-1.88096,0.0808511,1.68408,1.2792,0.00930443,0.00380827,0.0071415,0.00885714,-0.680172,-0.335426,0.000734728,-1.08349,-21.942,-5.16051,26.6296,-0.487369,1.94543,0.0843355,0.882986,-0.453952,2.20042,-0.203779,0.341835,-0.572422,-0.521989,0.0545515,-0.517472,-0.114218,-0.67534,-0.891567,0.113411,
-0.00173185,-0.233932,0.486793,-1.8829,-0.0559681,0.00917576,0.493153,-0.0271069,0.00285342,-0.0282766,-0.0141549,-0.444991,-0.396255,-0.00207908,0,0,0,0,0,0,0,0.00220957,-0.234752,0.49088,-1.88096,0.0808511,1.68408,1.2792,0.00930443,0.00380827,0.0071415,0.00885714,-0.680172,-0.335426,0.000734728,-1.08349,-21.942,-5.16051,26.6296,-0.487369,1.94543,0.0843355,0.938915,-1.04576,2.29271,0.0289917,0.38967,-0.845644,-0.807159,0.0822094,-0.781485,-0.227202,-0.827681,-1.02404,0.110395,
-0.00184364,-0.233923,0.486677,-1.88296,-0.0575791,0.00771245,0.493144,-0.0279463,0.00226648,-0.028914,-0.0155718,-0.402747,-0.36583,-0.00224729,0,0,0,0,0,0,0,0.00220957,-0.234752,0.49088,-1.88096,0.0808511,1.68408,1.2792,0.00930443,0.00380827,0.0071415,0.00885714,-0.680172,-0.335426,0.000734728,-1.08349,-21.942,-5.16051,26.6296,-0.487369,1.94543,0.0843355,0.938915,-1.04576,2.29271,0.0289917,0.38967,-0.845644,-0.807159,0.0822094,-0.781485,-0.227202,-0.827681,-1.02404,0.110395,
-0.00195935,-0.233916,0.486559,-1.88303,-0.0589989,0.00639494,0.493134,-0.0289276,0.00170477,-0.0296616,-0.0173419,-0.354951,-0.329377,-0.0024687,0,0,0,0,0,0,0,0.00220957,-0.234752,0.49088,-1.88096,0.0808511,1.68408,1.2792,0.00930443,0.00380827,0.0071415,0.00885714,-0.680172,-0.335426,0.000734728,-1.08349,-21.942,-5.16051,26.6296,-0.487369,1.94543,0.0843355,1.26503,-1.45312,2.28686,0.155532,0.659288,-1.11409,-1.09579,0.240765,-1.02342,-0.368929,-0.938993,-1.13581,0.108407,
-0.00207948,-0.233911,0.486437,-1.88311,-0.0602035,0.00525222,0.493123,-0.0300321,0.0012077,-0.0305104,-0.0195313,-0.301142,-0.28568,-0.00268187,0,0,0,0,0,0,0,0.00251839,-0.234869,0.490972,-1.88079,0.0617118,1.6739,1.27919,0.00198074,-0.000780652,-0.00114145,0.000691912,-0.548432,-0.317523,0.000660732,-1.03589,-21.6921,-5.03752,26.6772,-0.310673,1.91247,0.0980684,1.26503,-1.45312,2.28686,0.155532,0.659288,-1.11409,-1.09579,0.240765,-1.02342,-0.368929,-0.938993,-1.13581,0.108407,
-0.0022039,-0.233908,0.486311,-1.8832,-0.0611678,0.00431905,0.493117,-0.031106,0.000851053,-0.0315161,-0.0222086,-0.241083,-0.233291,-0.00149674,0,0,0,0,0,0,0,0.00251839,-0.234869,0.490972,-1.88079,0.0617118,1.6739,1.27919,0.00198074,-0.000780652,-0.00114145,0.000691912,-0.548432,-0.317523,0.000660732,-1.03589,-21.6921,-5.03752,26.6772,-0.310673,1.91247,0.0980684,0.926241,-0.947394,2.01997,-0.245587,0.597268,-0.81805,-0.810026,0.291016,-0.672677,-0.506851,-0.89232,-1.20439,0.104713,
-0.00232445,-0.233898,0.486185,-1.88328,-0.0619491,0.00354364,0.493112,-0.0301377,0.00247841,-0.0313387,-0.0206985,-0.195322,-0.193853,-0.00118387,0,0,0,0,0,0,0,0.00251839,-0.234869,0.490972,-1.88079,0.0617118,1.6739,1.27919,0.00198074,-0.000780652,-0.00114145,0.000691912,-0.548432,-0.317523,0.000660732,-1.03589,-21.6921,-5.03752,26.6772,-0.310673,1.91247,0.0980684,0.926241,-0.947394,2.01997,-0.245587,0.597268,-0.81805,-0.810026,0.291016,-0.672677,-0.506851,-0.89232,-1.20439,0.104713,
-0.00243854,-0.233881,0.486064,-1.88335,-0.0625862,0.00289412,0.493108,-0.0285231,0.00429402,-0.0303044,-0.0180731,-0.15927,-0.162379,-0.00107774,0,0,0,0,0,0,0,0.00251839,-0.234869,0.490972,-1.88079,0.0617118,1.6739,1.27919,0.00198074,-0.000780652,-0.00114145,0.000691912,-0.548432,-0.317523,0.000660732,-1.03589,-21.6921,-5.03752,26.6772,-0.310673,1.91247,0.0980684,1.24374,-0.846137,1.78572,-0.340466,0.940594,-0.855181,-0.823175,0.531756,-0.715237,-0.637597,-0.854118,-1.22913,0.1005,
-0.00254511,-0.233858,0.485949,-1.88341,-0.0631075,0.00234797,0.493104,-0.0266417,0.00577421,-0.0288165,-0.0153673,-0.130324,-0.136538,-0.00104456,0,0,0,0,0,0,0,0.00251839,-0.234869,0.490972,-1.88079,0.0617118,1.6739,1.27919,0.00198074,-0.000780652,-0.00114145,0.000691912,-0.548432,-0.317523,0.000660732,-1.03589,-21.6921,-5.03752,26.6772,-0.310673,1.91247,0.0980684,1.08956,-1.54305,1.95965,0.145009,0.809454,-1.10117,-1.04682,0.454138,-1.03248,-0.629317,-0.875301,-1.28385,0.0917727,
-0.0026438,-0.23383,0.48584,-1.88347,-0.0635346,0.00188781,0.4931,-0.0246716,0.00682102,-0.0271104,-0.0128909,-0.106787,-0.11504,-0.00104297,0,0,0,0,0,0,0,0.00251839,-0.234869,0.490972,-1.88079,0.0617118,1.6739,1.27919,0.00198074,-0.000780652,-0.00114145,0.000691912,-0.548432,-0.317523,0.000660732,-1.03589,-21.6921,-5.03752,26.6772,-0.310673,1.91247,0.0980684,1.08956,-1.54305,1.95965,0.145009,0.809454,-1.10117,-1.04682,0.454138,-1.03248,-0.629317,-0.875301,-1.28385,0.0917727,
-0.00273464,-0.233801,0.485739,-1.88351,-0.0638845,0.00149963,0.493095,-0.0227105,0.00747201,-0.0253247,-0.0107069,-0.0874646,-0.0970463,-0.00105616,0,0,0,0,0,0,0,0.00246712,-0.23504,0.490923,-1.88086,0.0464274,1.66484,1.27919,-0.00235448,-0.00162617,-0.00171025,-0.00965438,-0.41096,-0.242495,-0.000658207,-0.452694,-21.8904,-4.71221,27.6016,0.526119,2.19811,0.104477,0.30104,-1.27902,2.0543,0.126484,0.3509,-0.793806,-0.736844,0.258273,-0.751754,-0.581486,-0.694619,-1.3273,0.0944146,
-0.0028179,-0.233769,0.485645,-1.88354,-0.0641704,0.00117188,0.493091,-0.0208148,0.00779928,-0.023544,-0.0088006,-0.0714748,-0.0819365,-0.0010763,0,0,0,0,0,0,0,0.00246712,-0.23504,0.490923,-1.88086,0.0464274,1.66484,1.27919,-0.00235448,-0.00162617,-0.00171025,-0.00965438,-0.41096,-0.242495,-0.000658207,-0.452694,-21.8904,-4.71221,27.6016,0.526119,2.19811,0.104477,0.30104,-1.27902,2.0543,0.126484,0.3509,-0.793806,-0.736844,0.258273,-0.751754,-0.581486,-0.694619,-1.3273,0.0944146,
-0.00289397,-0.233738,0.485558,-1.88357,-0.064403,0.000894991,0.493087,-0.0190172,0.00787553,-0.0218201,-0.0071379,-0.0581508,-0.0692224,-0.00109934,0,0,0,0,0,0,0,0.00246712,-0.23504,0.490923,-1.88086,0.0464274,1.66484,1.27919,-0.00235448,-0.00162617,-0.00171025,-0.00965438,-0.41096,-0.242495,-0.000658207,-0.452694,-21.8904,-4.71221,27.6016,0.526119,2.19811,0.104477,-0.035926,-0.351883,1.9164,-0.223361,0.275258,-0.323157,-0.253873,0.296347,-0.294799,-0.537805,-0.361812,-1.27149,0.0993415,
-0.0262909,-0.227753,0.459089,-1.89284,-0.0640371,-0.0739649,0.483693,-0.194921,0.0665805,-0.218097,-0.0872175,-1.24637,-1.27005,-0.0450666,0,0,0,0,0,0,0,0.00246712,-0.23504,0.490923,-1.88086,0.0464274,1.66484,1.27919,-0.00235448,-0.00162617,-0.00171025,-0.00965438,-0.41096,-0.242495,-0.000658207,-0.452694,-21.8904,-4.71221,27.6016,0.526119,2.19811,0.104477,-0.538557,0.487619,2.17681,-0.362253,-0.221762,0.178141,0.261418,-0.0320038,0.148632,-0.151891,-0.0545826,-1.03525,0.0908691,
-0.0194952,-0.229951,0.465881,-1.89044,-0.140216,0.0253236,0.488654,-0.14799,0.0421819,-0.166977,-0.0644556,-1.17948,0.211472,-0.0165802,0,0,0,0,0,0,0,0.00246712,-0.23504,0.490923,-1.88086,0.0464274,1.66484,1.27919,-0.00235448,-0.00162617,-0.00171025,-0.00965438,-0.41096,-0.242495,-0.000658207,-0.452694,-21.8904,-4.71221,27.6016,0.526119,2.19811,0.104477,-0.538557,0.487619,2.17681,-0.362253,-0.221762,0.178141,0.261418,-0.0320038,0.148632,-0.151891,-0.0545826,-1.03525,0.0908691,
-0.0200947,-0.229789,0.465209,-1.8907,-0.144783,0.0263219,0.488589,-0.149864,0.0404105,-0.168174,-0.0645902,-1.14175,0.249586,-0.0161825,0,0,0,0,0,0,0,0.00188029,-0.234912,0.490437,-1.88113,0.0283986,1.65524,1.27918,-0.0318004,0.000660404,-0.0326756,0.00195589,-0.462037,-0.283677,0.0018335,-0.57568,-22.0928,-5.08513,26.5781,0.190121,1.8731,0.00376909,-0.757426,1.48751,2.23884,-0.689783,-0.45853,0.667084,0.747839,-0.196082,0.625337,0.133377,0.225861,-0.807928,0.0852308,
-0.0207026,-0.229635,0.464529,-1.89096,-0.149155,0.0274781,0.488526,-0.151975,0.0386097,-0.169848,-0.0645096,-1.09284,0.289045,-0.0157626,0,0,0,0,0,0,0,0.00188029,-0.234912,0.490437,-1.88113,0.0283986,1.65524,1.27918,-0.0318004,0.000660404,-0.0326756,0.00195589,-0.462037,-0.283677,0.0018335,-0.57568,-22.0928,-5.08513,26.5781,0.190121,1.8731,0.00376909,-0.757426,1.48751,2.23884,-0.689783,-0.45853,0.667084,0.747839,-0.196082,0.625337,0.133377,0.225861,-0.807928,0.0852308,
-0.0213193,-0.229488,0.463842,-1.89122,-0.153291,0.0287978,0.488465,-0.154169,0.0368199,-0.171757,-0.0642469,-1.03406,0.329917,-0.0153521,0,0,0,0,0,0,0,0.00188029,-0.234912,0.490437,-1.88113,0.0283986,1.65524,1.27918,-0.0318004,0.000660404,-0.0326756,0.00195589,-0.462037,-0.283677,0.0018335,-0.57568,-22.0928,-5.08513,26.5781,0.190121,1.8731,0.00376909,-2.19545,4.8637,1.42556,-2.72055,-1.0847,2.45929,2.52072,-0.343152,2.59586,0.140362,0.700758,-0.634543,0.083422,
-0.0219447,-0.229348,0.463147,-1.89147,-0.157155,0.0302868,0.488405,-0.156358,0.035035,-0.173742,-0.0638585,-0.966095,0.372273,-0.0149727,0,0,0,0,0,0,0,0.00188029,-0.234912,0.490437,-1.88113,0.0283986,1.65524,1.27918,-0.0318004,0.000660404,-0.0326756,0.00195589,-0.462037,-0.283677,0.0018335,-0.57568,-22.0928,-5.08513,26.5781,0.190121,1.8731,0.00376909,-3.38308,3.52998,1.09217,-1.88421,-1.65922,2.20025,2.25197,-0.524772,2.26113,-0.0888184,0.753202,-0.773748,0.071524,
-0.0225787,-0.229215,0.462444,-1.89173,-0.160712,0.0319514,0.488346,-0.158493,0.0332323,-0.175705,-0.0633925,-0.889228,0.416139,-0.0146451,0,0,0,0,0,0,0,0.00188029,-0.234912,0.490437,-1.88113,0.0283986,1.65524,1.27918,-0.0318004,0.000660404,-0.0326756,0.00195589,-0.462037,-0.283677,0.0018335,-0.57568,-22.0928,-5.08513,26.5781,0.190121,1.8731,0.00376909,-3.38308,3.52998,1.09217,-1.88421,-1.65922,2.20025,2.25197,-0.524772,2.26113,-0.0888184,0.753202,-0.773748,0.071524,
-0.0232209,-0.229089,0.461734,-1.89198,-0.163926,0.0337973,0.488289,-0.160548,0.0313842,-0.177583,-0.0628807,-0.803389,0.461465,-0.0143898,0,0,0,0,0,0,0,0.00108023,-0.234868,0.489051,-1.88173,-0.00353719,1.64811,1.27896,-0.0257031,-0.00255198,-0.0375857,-0.0472452,-1.08396,-0.0812578,-0.012343,-2.88464,-21.4421,-7.18779,28.0222,-1.84967,4.65081,0.0239107,-2.50523,0.878276,1.19873,-0.468536,-1.22324,0.869051,0.982598,-0.374672,0.789163,-0.258256,0.286151,-0.882456,0.059794,
-0.0238709,-0.228971,0.461017,-1.89223,-0.166759,0.0358296,0.488232,-0.162502,0.0294647,-0.17933,-0.0623365,-0.708273,0.508093,-0.0142346,0,0,0,0,0,0,0,0.00108023,-0.234868,0.489051,-1.88173,-0.00353719,1.64811,1.27896,-0.0257031,-0.00255198,-0.0375857,-0.0472452,-1.08396,-0.0812578,-0.012343,-2.88464,-21.4421,-7.18779,28.0222,-1.84967,4.65081,0.0239107,-2.50523,0.878276,1.19873,-0.468536,-1.22324,0.869051,0.982598,-0.374672,0.789163,-0.258256,0.286151,-0.882456,0.059794,
-0.0245282,-0.228861,0.460293,-1.89247,-0.169173,0.0380524,0.488175,-0.164333,0.027454,-0.180906,-0.0617529,-0.603451,0.555698,-0.0142048,0,0,0,0,0,0,0,0.00108023,-0.234868,0.489051,-1.88173,-0.00353719,1.64811,1.27896,-0.0257031,-0.00255198,-0.0375857,-0.0472452,-1.08396,-0.0812578,-0.012343,-2.88464,-21.4421,-7.18779,28.0222,-1.84967,4.65081,0.0239107,0.870349,-0.0413097,1.07009,-0.136872,0.544962,-0.339202,-0.192042,0.273155,-0.420744,-0.100474,-0.244021,-0.46738,0.0590169,
-0.0251922,-0.22876,0.459564,-1.89272,-0.171127,0.0404673,0.488118,-0.16599,0.0253455,-0.182251,-0.0610966,-0.488553,0.603709,-0.0143344,0,0,0,0,0,0,0,0.00108023,-0.234868,0.489051,-1.88173,-0.00353719,1.64811,1.27896,-0.0257031,-0.00255198,-0.0375857,-0.0472452,-1.08396,-0.0812578,-0.012343,-2.88464,-21.4421,-7.18779,28.0222,-1.84967,4.65081,0.0239107,0.815813,0.703085,1.01456,-0.453687,0.258722,0.0245265,0.133938,0.000395836,-0.01822,0.240022,-0.172282,-0.121963,0.0536045,
-0.0258616,-0.228667,0.458831,-1.89296,-0.172581,0.0430719,0.488059,-0.167366,0.0231573,-0.183266,-0.0602949,-0.363581,0.651163,-0.0146716,0,0,0,0,0,0,0,0.00108023,-0.234868,0.489051,-1.88173,-0.00353719,1.64811,1.27896,-0.0257031,-0.00255198,-0.0375857,-0.0472452,-1.08396,-0.0812578,-0.012343,-2.88464,-21.4421,-7.18779,28.0222,-1.84967,4.65081,0.0239107,0.815813,0.703085,1.01456,-0.453687,0.258722,0.0245265,0.133938,0.000395836,-0.01822,0.240022,-0.172282,-0.121963,0.0536045,
-0.0265346,-0.228584,0.458096,-1.8932,-0.173499,0.0458578,0.487998,-0.168241,0.020954,-0.18376,-0.0592096,-0.229475,0.696484,-0.015279,0,0,0,0,0,0,0,0.00108023,-0.234868,0.489051,-1.88173,-0.00353719,1.64811,1.27896,-0.0257031,-0.00255198,-0.0375857,-0.0472452,-1.08396,-0.0812578,-0.012343,-2.88464,-21.4421,-7.18779,28.0222,-1.84967,4.65081,0.0239107,1.63987,1.10663,0.227447,-0.926471,0.987519,0.0195095,0.131712,0.45525,0.0530147,-0.00453178,-0.243047,-0.0218527,0.0377254,
-0.0272074,-0.228508,0.457363,-1.89343,-0.173855,0.0488064,0.487933,-0.168198,0.0188859,-0.183384,-0.0575874,-0.0890657,0.73713,-0.0162579,0,0,0,0,0,0,0,-6.11539e-05,-0.235152,0.487135,-1.88366,-0.0344753,1.64748,1.27871,-0.0548545,-0.00169359,-0.0792991,-0.0586792,-0.845128,-0.000338332,-3.67708e-05,-2.50378,-21.2676,-6.86247,27.8238,-1.14746,3.72246,-0.0566557,1.63987,1.10663,0.227447,-0.926471,0.987519,0.0195095,0.131712,0.45525,0.0530147,-0.00453178,-0.243047,-0.0218527,0.0377254,
-0.0278734,-0.228439,0.456636,-1.89365,-0.17365,0.0518827,0.487862,-0.166489,0.0172558,-0.181517,-0.0549684,0.0514453,0.769074,-0.017785,0,0,0,0,0,0,0,-6.11539e-05,-0.235152,0.487135,-1.88366,-0.0344753,1.64748,1.27871,-0.0548545,-0.00169359,-0.0792991,-0.0586792,-0.845128,-0.000338332,-3.67708e-05,-2.50378,-21.2676,-6.86247,27.8238,-1.14746,3.72246,-0.0566557,2.62562,-0.408974,0.927723,-0.0290967,1.0498,-0.826388,-0.703632,0.190139,-0.870407,0.370393,-0.687178,0.156195,0.0255643,
-0.0285209,-0.228373,0.455928,-1.89385,-0.172927,0.0550268,0.487781,-0.161885,0.0166347,-0.177114,-0.0505006,0.180608,0.786023,-0.0202168,0,0,0,0,0,0,0,-6.11539e-05,-0.235152,0.487135,-1.88366,-0.0344753,1.64748,1.27871,-0.0548545,-0.00169359,-0.0792991,-0.0586792,-0.845128,-0.000338332,-3.67708e-05,-2.50378,-21.2676,-6.86247,27.8238,-1.14746,3.72246,-0.0566557,3.50975,-1.15126,1.33231,0.437641,1.27874,-1.3404,-1.21992,0.124459,-1.41959,0.615454,-0.914145,0.300759,0.0245062,
-0.029131,-0.2283,0.455254,-1.89402,-0.171808,0.058139,0.487684,-0.15253,0.0180889,-0.168536,-0.0424984,0.279922,0.778071,-0.0242631,0,0,0,0,0,0,0,-6.11539e-05,-0.235152,0.487135,-1.88366,-0.0344753,1.64748,1.27871,-0.0548545,-0.00169359,-0.0792991,-0.0586792,-0.845128,-0.000338332,-3.67708e-05,-2.50378,-21.2676,-6.86247,27.8238,-1.14746,3.72246,-0.0566557,3.50975,-1.15126,1.33231,0.437641,1.27874,-1.3404,-1.21992,0.124459,-1.41959,0.615454,-0.914145,0.300759,0.0245062,
-0.0296738,-0.228205,0.454641,-1.89413,-0.170519,0.0610515,0.487563,-0.135702,0.0237968,-0.153325,-0.0271508,0.322156,0.728109,-0.030126,0,0,0,0,0,0,0,-6.11539e-05,-0.235152,0.487135,-1.88366,-0.0344753,1.64748,1.27871,-0.0548545,-0.00169359,-0.0792991,-0.0586792,-0.845128,-0.000338332,-3.67708e-05,-2.50378,-21.2676,-6.86247,27.8238,-1.14746,3.72246,-0.0566557,3.60864,-1.42376,0.174857,0.381923,1.77627,-1.45488,-1.32378,0.590511,-1.50604,0.133386,-0.893388,0.27699,0.0154209,
-0.0300992,-0.228049,0.454129,-1.89411,-0.169455,0.0634517,0.487497,-0.106358,0.0390476,-0.127884,0.00545751,0.266017,0.600069,-0.0164832,0,0,0,0,0,0,0,-0.00239835,-0.235212,0.484179,-1.88592,-0.0504249,1.64923,1.27855,-0.093428,-0.00508535,-0.106485,-0.064461,-0.313265,0.11546,-0.000450721,-1.69445,-21.3191,-6.3864,27.2763,0.520626,3.96142,0.0239107,3.60864,-1.42376,0.174857,0.381923,1.77627,-1.45488,-1.32378,0.590511,-1.50604,0.133386,-0.893388,0.27699,0.0154209,
-0.0304565,-0.227891,0.453698,-1.89405,-0.168502,0.0655297,0.48743,-0.0893016,0.0394493,-0.107804,0.0130537,0.238293,0.519481,-0.0167225,0,0,0,0,0,0,0,-0.00239835,-0.235212,0.484179,-1.88592,-0.0504249,1.64923,1.27855,-0.093428,-0.00508535,-0.106485,-0.064461,-0.313265,0.11546,-0.000450721,-1.69445,-21.3191,-6.3864,27.2763,0.520626,3.96142,0.0239107,2.45927,-2.70304,-0.51052,1.22633,1.25491,-1.67735,-1.53044,0.455585,-1.83341,-0.0897072,-0.781496,0.277514,0.0081588,
-0.0307634,-0.227749,0.453327,-1.894,-0.167602,0.0673778,0.487361,-0.0767251,0.0354808,-0.0927966,0.0124795,0.224995,0.462019,-0.0173449,0,0,0,0,0,0,0,-0.00239835,-0.235212,0.484179,-1.88592,-0.0504249,1.64923,1.27855,-0.093428,-0.00508535,-0.106485,-0.064461,-0.313265,0.11546,-0.000450721,-1.69445,-21.3191,-6.3864,27.2763,0.520626,3.96142,0.0239107,2.45927,-2.70304,-0.51052,1.22633,1.25491,-1.67735,-1.53044,0.455585,-1.83341,-0.0897072,-0.781496,0.277514,0.0081588,
-0.0310308,-0.227626,0.453002,-1.89396,-0.166722,0.0690492,0.48729,-0.0668684,0.0306861,-0.0811592,0.00965776,0.219868,0.417862,-0.0177376,0,0,0,0,0,0,0,-0.00239835,-0.235212,0.484179,-1.88592,-0.0504249,1.64923,1.27855,-0.093428,-0.00508535,-0.106485,-0.064461,-0.313265,0.11546,-0.000450721,-1.69445,-21.3191,-6.3864,27.2763,0.520626,3.96142,0.0239107,2.06882,-3.10842,-0.861241,1.53228,1.20943,-1.74811,-1.58201,0.543863,-1.95811,-0.261633,-0.647938,0.22735,0.00512064,
-0.0312665,-0.227521,0.452714,-1.89394,-0.165844,0.0705796,0.487218,-0.0589169,0.0262156,-0.0718826,0.00656323,0.219585,0.38261,-0.0179878,0,0,0,0,0,0,0,-0.00239835,-0.235212,0.484179,-1.88592,-0.0504249,1.64923,1.27855,-0.093428,-0.00508535,-0.106485,-0.064461,-0.313265,0.11546,-0.000450721,-1.69445,-21.3191,-6.3864,27.2763,0.520626,3.96142,0.0239107,0.425546,-1.80719,-0.696001,0.88001,0.135293,-0.780025,-0.623253,0.0148507,-0.957944,-0.0798395,-0.409738,0.239152,-0.00373621,
-0.0314761,-0.227432,0.452457,-1.89392,-0.164955,0.0719955,0.487146,-0.052389,0.0223771,-0.0643507,0.00378401,0.222193,0.353962,-0.0181579,0,0,0,0,0,0,0,-0.00618896,-0.234699,0.480441,-1.88756,-0.0537669,1.65537,1.27837,-0.112843,0.0278992,-0.126437,-0.028119,-0.0560032,0.173422,0.00112077,0.435978,-23.0171,-3.86321,28.0222,0.795284,3.6364,-0.0227812,0.425546,-1.80719,-0.696001,0.88001,0.135293,-0.780025,-0.623253,0.0148507,-0.957944,-0.0798395,-0.409738,0.239152,-0.00373621,
-0.0316639,-0.227355,0.452224,-1.89392,-0.164049,0.0733175,0.487072,-0.0469649,0.0191902,-0.0581538,0.00143906,0.226472,0.330494,-0.0182797,0,0,0,0,0,0,0,-0.00618896,-0.234699,0.480441,-1.88756,-0.0537669,1.65537,1.27837,-0.112843,0.0278992,-0.126437,-0.028119,-0.0560032,0.173422,0.00112077,0.435978,-23.0171,-3.86321,28.0222,0.795284,3.6364,-0.0227812,-0.528895,-0.739575,-0.634819,0.405113,-0.464708,-0.0852417,0.0548937,-0.270181,-0.240339,0.0669615,-0.151147,0.296908,-0.00685456,
-0.0439229,-0.218862,0.438881,-1.89716,-0.130157,-0.092241,0.4795,-0.316636,0.133455,-0.35492,-0.124442,-1.23306,-0.868331,-0.0594616,0,0,0,0,0,0,0,-0.00618896,-0.234699,0.480441,-1.88756,-0.0537669,1.65537,1.27837,-0.112843,0.0278992,-0.126437,-0.028119,-0.0560032,0.173422,0.00112077,0.435978,-23.0171,-3.86321,28.0222,0.795284,3.6364,-0.0227812,-0.528895,-0.739575,-0.634819,0.405113,-0.464708,-0.0852417,0.0548937,-0.270181,-0.240339,0.0669615,-0.151147,0.296908,-0.00685456,
-0.0370073,-0.223362,0.445513,-1.89645,-0.207085,0.0310527,0.485322,-0.18117,0.0664197,-0.201411,-0.052482,-0.507238,-0.449333,-0.0345223,0,0,0,0,0,0,0,-0.00618896,-0.234699,0.480441,-1.88756,-0.0537669,1.65537,1.27837,-0.112843,0.0278992,-0.126437,-0.028119,-0.0560032,0.173422,0.00112077,0.435978,-23.0171,-3.86321,28.0222,0.795284,3.6364,-0.0227812,-0.773812,-0.443679,-0.847643,0.27368,-0.335862,0.0823108,0.232256,-0.0587684,-0.077566,-0.143208,0.0503702,0.153301,-0.0110381,
-0.0377314,-0.2231,0.444708,-1.89666,-0.208867,0.0292802,0.485186,-0.181027,0.0654535,-0.201265,-0.051915,-0.445374,-0.44311,-0.0339417,0,0,0,0,0,0,0,-0.00618896,-0.234699,0.480441,-1.88756,-0.0537669,1.65537,1.27837,-0.112843,0.0278992,-0.126437,-0.028119,-0.0560032,0.173422,0.00112077,0.435978,-23.0171,-3.86321,28.0222,0.795284,3.6364,-0.0227812,-0.773812,-0.443679,-0.847643,0.27368,-0.335862,0.0823108,0.232256,-0.0587684,-0.077566,-0.143208,0.0503702,0.153301,-0.0110381,
-0.038455,-0.222843,0.443904,-1.89687,-0.210388,0.0275343,0.485052,-0.180896,0.0643673,-0.20111,-0.0513242,-0.380312,-0.436483,-0.0333831,0,0,0,0,0,0,0,-0.00618896,-0.234699,0.480441,-1.88756,-0.0537669,1.65537,1.27837,-0.112843,0.0278992,-0.126437,-0.028119,-0.0560032,0.173422,0.00112077,0.435978,-23.0171,-3.86321,28.0222,0.795284,3.6364,-0.0227812,-2.88366,1.07737,-0.990462,-0.625168,-1.36018,1.21064,1.35822,-0.384656,1.11182,-0.30955,0.376713,-0.0890265,-0.0088162,
-0.0391782,-0.22259,0.4431,-1.89707,-0.211634,0.0258167,0.484921,-0.180793,0.0631478,-0.200957,-0.0507152,-0.311566,-0.429392,-0.0328527,0,0,0,0,0,0,0,-0.0100702,-0.233674,0.476297,-1.88778,-0.057678,1.66075,1.27829,-0.130623,0.0385544,-0.158987,0.0084193,-0.289391,0.0984743,-0.0125041,-1.49212,-22.0928,-5.81114,24.4873,-0.127567,1.36223,-0.0227812,-4.37212,4.0238,-2.1053,-2.51048,-1.71267,2.81983,2.93811,-0.254956,2.91121,-0.668202,0.844871,-0.128515,-0.00277823,
-0.0399011,-0.222343,0.442296,-1.89727,-0.212589,0.0241297,0.484792,-0.180732,0.0617807,-0.200821,-0.0500949,-0.238581,-0.421753,-0.0323514,0,0,0,0,0,0,0,-0.0100702,-0.233674,0.476297,-1.88778,-0.057678,1.66075,1.27829,-0.130623,0.0385544,-0.158987,0.0084193,-0.289391,0.0984743,-0.0125041,-1.49212,-22.0928,-5.81114,24.4873,-0.127567,1.36223,-0.0227812,-4.37212,4.0238,-2.1053,-2.51048,-1.71267,2.81983,2.93811,-0.254956,2.91121,-0.668202,0.844871,-0.128515,-0.00277823,
-0.040624,-0.222102,0.441494,-1.89747,-0.213232,0.0224759,0.484664,-0.180727,0.0602508,-0.200712,-0.0494723,-0.160733,-0.413454,-0.0318875,0,0,0,0,0,0,0,-0.0100702,-0.233674,0.476297,-1.88778,-0.057678,1.66075,1.27829,-0.130623,0.0385544,-0.158987,0.0084193,-0.289391,0.0984743,-0.0125041,-1.49212,-22.0928,-5.81114,24.4873,-0.127567,1.36223,-0.0227812,-2.42406,2.60499,-3.12319,-1.84742,0.100165,1.71995,1.85521,0.911906,1.78576,-1.35622,0.799629,-0.296476,-0.00449718,
-0.0413472,-0.221868,0.440691,-1.89766,-0.213541,0.0208585,0.484538,-0.180793,0.0585419,-0.200643,-0.0488596,-0.0773299,-0.404342,-0.0314721,0,0,0,0,0,0,0,-0.0100702,-0.233674,0.476297,-1.88778,-0.057678,1.66075,1.27829,-0.130623,0.0385544,-0.158987,0.0084193,-0.289391,0.0984743,-0.0125041,-1.49212,-22.0928,-5.81114,24.4873,-0.127567,1.36223,-0.0227812,-2.42406,2.60499,-3.12319,-1.84742,0.100165,1.71995,1.85521,0.911906,1.78576,-1.35622,0.799629,-0.296476,-0.00449718,
-0.0420709,-0.221641,0.439888,-1.89786,-0.213492,0.0192817,0.484414,-0.180943,0.056637,-0.200622,-0.0482743,0.0123783,-0.394213,-0.0311183,0,0,0,0,0,0,0,-0.0100702,-0.233674,0.476297,-1.88778,-0.057678,1.66075,1.27829,-0.130623,0.0385544,-0.158987,0.0084193,-0.289391,0.0984743,-0.0125041,-1.49212,-22.0928,-5.81114,24.4873,-0.127567,1.36223,-0.0227812,-0.783327,1.52518,-1.34526,-0.984533,0.440957,0.852347,1.0663,0.720867,0.757855,-0.742298,0.477722,-0.276514,-0.00860678,
-0.0427957,-0.221423,0.439086,-1.89805,-0.213055,0.0177505,0.48429,-0.181182,0.0545198,-0.200655,-0.0477415,0.109169,-0.382795,-0.0308403,0,0,0,0,0,0,0,-0.0140976,-0.23307,0.471302,-1.88734,-0.0772577,1.65855,1.27791,-0.125525,0.0187328,-0.154971,-0.000106458,-0.563302,-0.123205,-0.0159328,-1.76983,-22.5926,-6.00951,26.1575,-0.597233,1.89232,0.0303194,-0.811643,-0.139152,-0.420443,-0.0407116,0.073333,0.117035,0.324485,0.366808,-0.0429877,-0.585282,0.113055,-0.461402,-0.0199992,
-0.0435217,-0.221214,0.438283,-1.89824,-0.2122,0.0162716,0.484168,-0.181506,0.0521759,-0.200736,-0.0472974,0.213792,-0.36972,-0.0306644,0,0,0,0,0,0,0,-0.0140976,-0.23307,0.471302,-1.88734,-0.0772577,1.65855,1.27791,-0.125525,0.0187328,-0.154971,-0.000106458,-0.563302,-0.123205,-0.0159328,-1.76983,-22.5926,-6.00951,26.1575,-0.597233,1.89232,0.0303194,-0.811643,-0.139152,-0.420443,-0.0407116,0.073333,0.117035,0.324485,0.366808,-0.0429877,-0.585282,0.113055,-0.461402,-0.0199992,
-0.0442492,-0.221016,0.43748,-1.89843,-0.210892,0.0148537,0.484045,-0.18189,0.0495974,-0.200845,-0.0469921,0.326852,-0.354497,-0.0306249,0,0,0,0,0,0,0,-0.0140976,-0.23307,0.471302,-1.88734,-0.0772577,1.65855,1.27791,-0.125525,0.0187328,-0.154971,-0.000106458,-0.563302,-0.123205,-0.0159328,-1.76983,-22.5926,-6.00951,26.1575,-0.597233,1.89232,0.0303194,-1.40429,-0.856249,-0.33741,0.134014,-0.148792,-0.102111,0.088077,0.338653,-0.226822,-0.888647,-0.0944416,-0.819653,-0.0329724,
-0.0449783,-0.220829,0.436676,-1.89861,-0.209098,0.0135077,0.483922,-0.182268,0.0467891,-0.200926,-0.0468941,0.448594,-0.336476,-0.0307663,0,0,0,0,0,0,0,-0.0140976,-0.23307,0.471302,-1.88734,-0.0772577,1.65855,1.27791,-0.125525,0.0187328,-0.154971,-0.000106458,-0.563302,-0.123205,-0.0159328,-1.76983,-22.5926,-6.00951,26.1575,-0.597233,1.89232,0.0303194,-1.40429,-0.856249,-0.33741,0.134014,-0.148792,-0.102111,0.088077,0.338653,-0.226822,-0.888647,-0.0944416,-0.819653,-0.0329724,
-0.0457083,-0.220654,0.435872,-1.8988,-0.206784,0.0122484,0.483797,-0.182501,0.0437831,-0.200864,-0.0470909,0.578498,-0.314829,-0.0311612,0,0,0,0,0,0,0,-0.0140976,-0.23307,0.471302,-1.88734,-0.0772577,1.65855,1.27791,-0.125525,0.0187328,-0.154971,-0.000106458,-0.563302,-0.123205,-0.0159328,-1.76983,-22.5926,-6.00951,26.1575,-0.597233,1.89232,0.0303194,-1.96199,-0.980583,0.0566995,0.128074,-0.644848,-0.0505158,0.099613,0.0223549,-0.132656,-0.811592,-0.231437,-0.923629,-0.0373082,
-0.0464269,-0.220486,0.435076,-1.89899,-0.204015,0.0110897,0.483671,-0.17964,0.0417913,-0.199185,-0.0472582,0.692244,-0.289679,-0.031584,0,0,0,0,0,0,0,-0.0140976,-0.23307,0.471302,-1.88734,-0.0772577,1.65855,1.27791,-0.125525,0.0187328,-0.154971,-0.000106458,-0.563302,-0.123205,-0.0159328,-1.76983,-22.5926,-6.00951,26.1575,-0.597233,1.89232,0.0303194,-1.96199,-0.980583,0.0566995,0.128074,-0.644848,-0.0505158,0.099613,0.0223549,-0.132656,-0.811592,-0.231437,-0.923629,-0.0373082,
-0.0471215,-0.220324,0.434296,-1.89918,-0.200897,0.0100526,0.483541,-0.173659,0.0407244,-0.194803,-0.0478543,0.779546,-0.259278,-0.0324777,0,0,0,0,0,0,0,-0.0186982,-0.232491,0.465896,-1.8874,-0.0878076,1.65547,1.27766,-0.159149,0.0183084,-0.190621,-0.00866386,-0.128532,-0.106074,-0.0130351,-0.881161,-22.6918,-4.63683,26.4789,-0.578922,1.85937,-0.0365141,-1.24748,-0.636361,0.254773,-0.233615,-0.302435,-0.075009,0.0338012,0.11648,-0.0636288,-0.755131,-0.408053,-0.912673,-0.0454954,
-0.0477861,-0.220165,0.433544,-1.89938,-0.197508,0.00916786,0.483404,-0.166149,0.0397205,-0.188022,-0.0494698,0.847123,-0.221187,-0.03442,0,0,0,0,0,0,0,-0.0186982,-0.232491,0.465896,-1.8874,-0.0878076,1.65547,1.27766,-0.159149,0.0183084,-0.190621,-0.00866386,-0.128532,-0.106074,-0.0130351,-0.881161,-22.6918,-4.63683,26.4789,-0.578922,1.85937,-0.0365141,-1.24748,-0.636361,0.254773,-0.233615,-0.302435,-0.075009,0.0338012,0.11648,-0.0636288,-0.755131,-0.408053,-0.912673,-0.0454954,
-0.0484163,-0.220011,0.432827,-1.89959,-0.19391,0.0084704,0.483252,-0.157543,0.0385159,-0.179277,-0.0520576,0.899436,-0.174365,-0.0378616,0,0,0,0,0,0,0,-0.0186982,-0.232491,0.465896,-1.8874,-0.0878076,1.65547,1.27766,-0.159149,0.0183084,-0.190621,-0.00866386,-0.128532,-0.106074,-0.0130351,-0.881161,-22.6918,-4.63683,26.4789,-0.578922,1.85937,-0.0365141,-0.132793,-0.164746,0.158384,-0.668865,0.565932,-0.140409,-0.0104374,0.608852,-0.0787316,-0.92875,-0.471673,-0.998445,-0.0535407,
-0.049008,-0.219862,0.432153,-1.89981,-0.190153,0.00799165,0.483078,-0.147923,0.0372464,-0.168586,-0.0550251,0.939377,-0.119686,-0.0434912,0,0,0,0,0,0,0,-0.0186982,-0.232491,0.465896,-1.8874,-0.0878076,1.65547,1.27766,-0.159149,0.0183084,-0.190621,-0.00866386,-0.128532,-0.106074,-0.0130351,-0.881161,-22.6918,-4.63683,26.4789,-0.578922,1.85937,-0.0365141,1.12108,-2.09226,0.201592,0.540319,1.45837,-1.28003,-1.11177,1.10059,-1.34808,-1.1247,-0.580778,-1.12415,-0.0536191,
-0.0495556,-0.219715,0.431531,-1.90003,-0.186279,0.00774305,0.482874,-0.136918,0.0366948,-0.155526,-0.0566321,0.968427,-0.0621503,-0.0510332,0,0,0,0,0,0,0,-0.0186982,-0.232491,0.465896,-1.8874,-0.0878076,1.65547,1.27766,-0.159149,0.0183084,-0.190621,-0.00866386,-0.128532,-0.106074,-0.0130351,-0.881161,-22.6918,-4.63683,26.4789,-0.578922,1.85937,-0.0365141,1.12108,-2.09226,0.201592,0.540319,1.45837,-1.28003,-1.11177,1.10059,-1.34808,-1.1247,-0.580778,-1.12415,-0.0536191,
-0.0499878,-0.219534,0.430998,-1.90023,-0.182812,0.00765118,0.482732,-0.108042,0.0451939,-0.133313,-0.0494531,0.86683,-0.0229679,-0.0355865,0,0,0,0,0,0,0,-0.0261654,-0.232285,0.457377,-1.88789,-0.0818133,1.65147,1.27751,-0.165405,0.00756661,-0.198676,-0.0137816,0.2938,-0.051849,-0.0110854,0.0313145,-22.9656,-3.86321,26.3797,0.807186,1.93902,0.0101778,0.105569,-3.08798,0.465092,1.31354,0.754666,-1.48428,-1.32134,0.745808,-1.64546,-1.07043,-0.514722,-1.20896,-0.060053,
-0.0503554,-0.219345,0.430545,-1.90042,-0.179619,0.00771691,0.482589,-0.0918863,0.047234,-0.113179,-0.0468729,0.798191,0.0164339,-0.0355997,0,0,0,0,0,0,0,-0.0261654,-0.232285,0.457377,-1.88789,-0.0818133,1.65147,1.27751,-0.165405,0.00756661,-0.198676,-0.0137816,0.2938,-0.051849,-0.0110854,0.0313145,-22.9656,-3.86321,26.3797,0.807186,1.93902,0.0101778,0.105569,-3.08798,0.465092,1.31354,0.754666,-1.48428,-1.32134,0.745808,-1.64546,-1.07043,-0.514722,-1.20896,-0.060053,
-0.0506753,-0.219159,0.430153,-1.9006,-0.176616,0.00792417,0.482444,-0.0799765,0.0466158,-0.0980503,-0.0453306,0.750775,0.0518145,-0.0363096,0,0,0,0,0,0,0,-0.0261654,-0.232285,0.457377,-1.88789,-0.0818133,1.65147,1.27751,-0.165405,0.00756661,-0.198676,-0.0137816,0.2938,-0.051849,-0.0110854,0.0313145,-22.9656,-3.86321,26.3797,0.807186,1.93902,0.0101778,-0.450521,-3.01104,0.419548,1.39085,0.510379,-1.33454,-1.19993,0.68667,-1.49907,-1.11349,-0.335508,-1.26058,-0.0635797,
-0.0509586,-0.21898,0.429806,-1.90078,-0.173744,0.00825366,0.482297,-0.0708254,0.0447905,-0.0866205,-0.0437325,0.717941,0.0823722,-0.0368507,0,0,0,0,0,0,0,-0.0261654,-0.232285,0.457377,-1.88789,-0.0818133,1.65147,1.27751,-0.165405,0.00756661,-0.198676,-0.0137816,0.2938,-0.051849,-0.0110854,0.0313145,-22.9656,-3.86321,26.3797,0.807186,1.93902,0.0101778,-1.11962,-2.64999,0.255244,1.27851,0.227547,-1.03244,-0.910977,0.625907,-1.19561,-1.17505,-0.134507,-1.2944,-0.0645776,
-0.0512132,-0.21881,0.429495,-1.90094,-0.170963,0.00868729,0.482148,-0.0636616,0.0424154,-0.0778581,-0.0418724,0.69527,0.108407,-0.0372378,0,0,0,0,0,0,0,-0.0261654,-0.232285,0.457377,-1.88789,-0.0818133,1.65147,1.27751,-0.165405,0.00756661,-0.198676,-0.0137816,0.2938,-0.051849,-0.0110854,0.0313145,-22.9656,-3.86321,26.3797,0.807186,1.93902,0.0101778,-1.11962,-2.64999,0.255244,1.27851,0.227547,-1.03244,-0.910977,0.625907,-1.19561,-1.17505,-0.134507,-1.2944,-0.0645776,
-0.0514451,-0.218651,0.429211,-1.9011,-0.168244,0.00920931,0.481998,-0.0579667,0.0398199,-0.0710442,-0.0398072,0.679713,0.130504,-0.0375171,0,0,0,0,0,0,0,-0.0261654,-0.232285,0.457377,-1.88789,-0.0818133,1.65147,1.27751,-0.165405,0.00756661,-0.198676,-0.0137816,0.2938,-0.051849,-0.0110854,0.0313145,-22.9656,-3.86321,26.3797,0.807186,1.93902,0.0101778,-2.19233,-1.70313,0.299331,0.995752,-0.4905,-0.367185,-0.256472,0.265483,-0.548563,-0.966193,0.207322,-1.16686,-0.0624653,
-0.0609827,-0.215942,0.418612,-1.90621,-0.228157,-0.0865932,0.476157,-0.317473,0.130281,-0.357422,-0.12554,-1.19497,-0.754219,-0.073572,0,0,0,0,0,0,0,-0.0313937,-0.231834,0.451219,-1.88835,-0.0723796,1.65114,1.27735,-0.161096,0.0204459,-0.183978,-0.0153709,0.202184,-0.0169794,-0.00562673,1.40003,-23.0409,-2.16124,26.4035,1.19812,2.8875,-0.0703886,-2.19233,-1.70313,0.299331,0.995752,-0.4905,-0.367185,-0.256472,0.265483,-0.548563,-0.966193,0.207322,-1.16686,-0.0624653,
-0.0645117,-0.223042,0.413391,-1.90075,-0.159814,0.082626,0.481447,-0.177971,0.0383541,-0.200955,-0.067893,-0.0502221,0.484076,-0.0519412,0,0,0,0,0,0,0,-0.0313937,-0.231834,0.451219,-1.88835,-0.0723796,1.65114,1.27735,-0.161096,0.0204459,-0.183978,-0.0153709,0.202184,-0.0169794,-0.00562673,1.40003,-23.0409,-2.16124,26.4035,1.19812,2.8875,-0.0703886,-2.61334,-0.208825,0.220672,0.327178,-0.799882,0.404602,0.488035,0.088092,0.264184,-0.737304,0.533604,-0.946424,-0.0649684,
-0.0652234,-0.222893,0.412588,-1.90102,-0.15979,0.0846703,0.481241,-0.177922,0.0373283,-0.200774,-0.0678558,0.00593304,0.511061,-0.0514833,0,0,0,0,0,0,0,-0.0313937,-0.231834,0.451219,-1.88835,-0.0723796,1.65114,1.27735,-0.161096,0.0204459,-0.183978,-0.0153709,0.202184,-0.0169794,-0.00562673,1.40003,-23.0409,-2.16124,26.4035,1.19812,2.8875,-0.0703886,-2.61334,-0.208825,0.220672,0.327178,-0.799882,0.404602,0.488035,0.088092,0.264184,-0.737304,0.533604,-0.946424,-0.0649684,
-0.0659352,-0.222748,0.411786,-1.9013,-0.159524,0.0868294,0.481037,-0.177965,0.0362842,-0.200651,-0.0679099,0.0664766,0.539772,-0.0510619,0,0,0,0,0,0,0,-0.0313937,-0.231834,0.451219,-1.88835,-0.0723796,1.65114,1.27735,-0.161096,0.0204459,-0.183978,-0.0153709,0.202184,-0.0169794,-0.00562673,1.40003,-23.0409,-2.16124,26.4035,1.19812,2.8875,-0.0703886,-2.7329,1.59853,-0.312181,-0.726138,-0.714929,1.25329,1.32654,0.196335,1.20276,-0.744974,0.789957,-0.77523,-0.0731578,
-0.0666477,-0.222607,0.410983,-1.90157,-0.158996,0.0891106,0.480834,-0.178108,0.0352118,-0.200594,-0.0680545,0.132033,0.570299,-0.0506872,0,0,0,0,0,0,0,-0.0313937,-0.231834,0.451219,-1.88835,-0.0723796,1.65114,1.27735,-0.161096,0.0204459,-0.183978,-0.0153709,0.202184,-0.0169794,-0.00562673,1.40003,-23.0409,-2.16124,26.4035,1.19812,2.8875,-0.0703886,-3.4747,3.63945,-0.869676,-1.99972,-1.01728,2.3285,2.37294,0.116063,2.41024,-0.781275,1.01243,-0.656438,-0.0769966,
-0.0673611,-0.22247,0.410181,-1.90184,-0.158183,0.0915214,0.480633,-0.178359,0.0341013,-0.200606,-0.0682888,0.203297,0.60271,-0.0503647,0,0,0,0,0,0,0,-0.0364998,-0.231253,0.445075,-1.88885,-0.0720582,1.64971,1.27715,-0.155454,0.0040725,-0.201171,-0.037893,-0.149981,0.00421647,-0.0135181,-2.35302,-22.3903,-6.11266,26.5305,-0.535892,2.52953,-0.103348,-3.4747,3.63945,-0.869676,-1.99972,-1.01728,2.3285,2.37294,0.116063,2.41024,-0.781275,1.01243,-0.656438,-0.0769966,
-0.068076,-0.222339,0.409378,-1.90212,-0.157059,0.0940695,0.480433,-0.178724,0.0329439,-0.200688,-0.0686115,0.281025,0.637036,-0.05011,0,0,0,0,0,0,0,-0.0364998,-0.231253,0.445075,-1.88885,-0.0720582,1.64971,1.27715,-0.155454,0.0040725,-0.201171,-0.037893,-0.149981,0.00421647,-0.0135181,-2.35302,-22.3903,-6.11266,26.5305,-0.535892,2.52953,-0.103348,-1.36527,0.196544,-1.11746,-0.0804769,0.423423,0.352687,0.425345,0.885188,0.292533,-1.14875,0.590528,-0.775902,-0.0845659,
-0.0687928,-0.222212,0.408575,-1.90239,-0.155595,0.0967625,0.480233,-0.179199,0.0317327,-0.200836,-0.0690191,0.36601,0.67325,-0.049937,0,0,0,0,0,0,0,-0.0364998,-0.231253,0.445075,-1.88885,-0.0720582,1.64971,1.27715,-0.155454,0.0040725,-0.201171,-0.037893,-0.149981,0.00421647,-0.0135181,-2.35302,-22.3903,-6.11266,26.5305,-0.535892,2.52953,-0.103348,-1.36527,0.196544,-1.11746,-0.0804769,0.423423,0.352687,0.425345,0.885188,0.292533,-1.14875,0.590528,-0.775902,-0.0845659,
-0.0695119,-0.22209,0.407771,-1.90267,-0.153759,0.0996075,0.480033,-0.179771,0.0304648,-0.201034,-0.0695028,0.459025,0.711235,-0.0498682,0,0,0,0,0,0,0,-0.0364998,-0.231253,0.445075,-1.88885,-0.0720582,1.64971,1.27715,-0.155454,0.0040725,-0.201171,-0.037893,-0.149981,0.00421647,-0.0135181,-2.35302,-22.3903,-6.11266,26.5305,-0.535892,2.52953,-0.103348,0.104579,0.168445,-0.637642,0.0449349,0.750153,0.111011,0.254124,0.734447,-0.0311015,-0.546714,0.386046,-0.288174,-0.0872585,
-0.0702335,-0.221973,0.406966,-1.90295,-0.151516,0.10261,0.479834,-0.180401,0.0291445,-0.201245,-0.0700438,0.56072,0.750733,-0.0499282,0,0,0,0,0,0,0,-0.0364998,-0.231253,0.445075,-1.88885,-0.0720582,1.64971,1.27715,-0.155454,0.0040725,-0.201171,-0.037893,-0.149981,0.00421647,-0.0135181,-2.35302,-22.3903,-6.11266,26.5305,-0.535892,2.52953,-0.103348,0.960322,0.224063,-0.785075,0.116668,0.976995,0.0307685,0.170904,0.679823,-0.127734,-0.200663,0.350895,0.157593,-0.0909449,
-0.0709575,-0.221862,0.40616,-1.90323,-0.14883,0.105775,0.479633,-0.181007,0.0277891,-0.201399,-0.0706022,0.67141,0.79125,-0.0501535,0,0,0,0,0,0,0,-0.0364998,-0.231253,0.445075,-1.88885,-0.0720582,1.64971,1.27715,-0.155454,0.0040725,-0.201171,-0.037893,-0.149981,0.00421647,-0.0135181,-2.35302,-22.3903,-6.11266,26.5305,-0.535892,2.52953,-0.103348,0.960322,0.224063,-0.785075,0.116668,0.976995,0.0307685,0.170904,0.679823,-0.127734,-0.200663,0.350895,0.157593,-0.0909449,
-0.0716734,-0.221751,0.405359,-1.90351,-0.145747,0.109073,0.479432,-0.178969,0.027677,-0.200168,-0.0692377,0.770868,0.824484,-0.0501912,0,0,0,0,0,0,0,-0.0415237,-0.231306,0.43903,-1.89075,-0.0737131,1.65168,1.27685,-0.172685,0.0042205,-0.200888,-0.0670705,0.0165988,0.108212,-0.0115913,-0.198788,-22.2157,-4.08537,26.9034,-0.11475,3.51006,-0.137222,0.0745402,-0.24462,-1.20353,0.282782,0.490167,0.0402439,0.179389,0.4889,-0.121658,-0.339413,0.263778,0.146207,-0.106562,
-0.0723681,-0.221637,0.404574,-1.90378,-0.142364,0.11247,0.479231,-0.173673,0.02865,-0.196442,-0.0664505,0.845795,0.849043,-0.0502732,0,0,0,0,0,0,0,-0.0415237,-0.231306,0.43903,-1.89075,-0.0737131,1.65168,1.27685,-0.172685,0.0042205,-0.200888,-0.0670705,0.0165988,0.108212,-0.0115913,-0.198788,-22.2157,-4.08537,26.9034,-0.11475,3.51006,-0.137222,0.0745402,-0.24462,-1.20353,0.282782,0.490167,0.0402439,0.179389,0.4889,-0.121658,-0.339413,0.263778,0.146207,-0.106562,
-0.0730355,-0.221519,0.403812,-1.90403,-0.138752,0.115943,0.479027,-0.166862,0.0295055,-0.190523,-0.063876,0.902846,0.868288,-0.050965,0,0,0,0,0,0,0,-0.0415237,-0.231306,0.43903,-1.89075,-0.0737131,1.65168,1.27685,-0.172685,0.0042205,-0.200888,-0.0670705,0.0165988,0.108212,-0.0115913,-0.198788,-22.2157,-4.08537,26.9034,-0.11475,3.51006,-0.137222,0.902797,-1.34299,-0.917424,0.889166,0.654218,-0.588186,-0.456696,0.387564,-0.783193,-0.093318,-0.0344137,0.335475,-0.10853,
-0.0736716,-0.221399,0.40308,-1.90428,-0.134967,0.119478,0.478817,-0.159018,0.0298727,-0.182945,-0.06199,0.946323,0.883805,-0.0524734,0,0,0,0,0,0,0,-0.0415237,-0.231306,0.43903,-1.89075,-0.0737131,1.65168,1.27685,-0.172685,0.0042205,-0.200888,-0.0670705,0.0165988,0.108212,-0.0115913,-0.198788,-22.2157,-4.08537,26.9034,-0.11475,3.51006,-0.137222,0.902797,-1.34299,-0.917424,0.889166,0.654218,-0.588186,-0.456696,0.387564,-0.783193,-0.093318,-0.0344137,0.335475,-0.10853,
-0.074273,-0.22128,0.402384,-1.90452,-0.131051,0.123063,0.478596,-0.15034,0.0297304,-0.173922,-0.0607941,0.979109,0.896391,-0.0552236,0,0,0,0,0,0,0,-0.0415237,-0.231306,0.43903,-1.89075,-0.0737131,1.65168,1.27685,-0.172685,0.0042205,-0.200888,-0.0670705,0.0165988,0.108212,-0.0115913,-0.198788,-22.2157,-4.08537,26.9034,-0.11475,3.51006,-0.137222,1.98202,-1.4326,-1.31278,0.860178,1.28448,-0.820899,-0.740643,0.650789,-0.949229,-0.0647522,-0.134812,0.57122,-0.109084,
-0.0748362,-0.221163,0.401731,-1.90476,-0.127039,0.126688,0.478357,-0.140809,0.0294086,-0.16334,-0.059797,1.00297,0.906192,-0.0599899,0,0,0,0,0,0,0,-0.0471825,-0.2313,0.43236,-1.89369,-0.0682114,1.65902,1.27665,-0.197613,-0.00191106,-0.21824,-0.101906,0.307218,0.293147,-0.0121481,0.590702,-22.3149,-2.98644,27.7246,0.788876,4.09417,-0.137222,0.61792,-0.0178463,-1.78292,-0.00911117,0.588512,0.106416,0.150486,0.38648,0.0736332,-0.138215,0.0699291,0.59581,-0.120836,
-0.0753535,-0.221035,0.401131,-1.90496,-0.122972,0.130186,0.478089,-0.129329,0.0318742,-0.149905,-0.0495727,1.01669,0.874506,-0.0669583,0,0,0,0,0,0,0,-0.0471825,-0.2313,0.43236,-1.89369,-0.0682114,1.65902,1.27665,-0.197613,-0.00191106,-0.21824,-0.101906,0.307218,0.293147,-0.0121481,0.590702,-22.3149,-2.98644,27.7246,0.788876,4.09417,-0.137222,0.61792,-0.0178463,-1.78292,-0.00911117,0.588512,0.106416,0.150486,0.38648,0.0736332,-0.138215,0.0699291,0.59581,-0.120836,
-0.075786,-0.220866,0.40061,-1.90504,-0.119095,0.133239,0.477873,-0.108115,0.0422138,-0.13032,-0.0203136,0.969112,0.763118,-0.0540081,0,0,0,0,0,0,0,-0.0471825,-0.2313,0.43236,-1.89369,-0.0682114,1.65902,1.27665,-0.197613,-0.00191106,-0.21824,-0.101906,0.307218,0.293147,-0.0121481,0.590702,-22.3149,-2.98644,27.7246,0.788876,4.09417,-0.137222,1.53862,-1.24169,-2.08691,0.78942,1.29423,-0.616815,-0.536969,0.809167,-0.745679,-0.295017,0.058333,0.619823,-0.12343,
-0.0761672,-0.220702,0.400149,-1.90509,-0.115318,0.136011,0.477656,-0.0953035,0.0411391,-0.115268,-0.012867,0.944341,0.692986,-0.0540442,0,0,0,0,0,0,0,-0.0471825,-0.2313,0.43236,-1.89369,-0.0682114,1.65902,1.27665,-0.197613,-0.00191106,-0.21824,-0.101906,0.307218,0.293147,-0.0121481,0.590702,-22.3149,-2.98644,27.7246,0.788876,4.09417,-0.137222,1.53862,-1.24169,-2.08691,0.78942,1.29423,-0.616815,-0.536969,0.809167,-0.745679,-0.295017,0.058333,0.619823,-0.12343,
-0.0765102,-0.220554,0.399733,-1.90514,-0.111593,0.138583,0.477438,-0.0857587,0.0369473,-0.103994,-0.0126596,0.931169,0.642995,-0.0545227,0,0,0,0,0,0,0,-0.0471825,-0.2313,0.43236,-1.89369,-0.0682114,1.65902,1.27665,-0.197613,-0.00191106,-0.21824,-0.101906,0.307218,0.293147,-0.0121481,0.590702,-22.3149,-2.98644,27.7246,0.788876,4.09417,-0.137222,2.06182,-2.06665,-1.2403,1.52874,1.29813,-1.09386,-0.971994,0.668784,-1.35439,0.0355466,0.0562836,0.658024,-0.1232,
-0.0768232,-0.220424,0.399352,-1.9052,-0.107895,0.141001,0.477219,-0.0782326,0.0323957,-0.095203,-0.0145705,0.92457,0.6046,-0.0548245,0,0,0,0,0,0,0,-0.0532691,-0.23113,0.425464,-1.89668,-0.0542892,1.67158,1.2763,-0.183299,0.00695064,-0.204635,-0.0953966,0.498954,0.444958,-0.0178949,1.04694,-23.763,-2.78807,28.6212,1.25946,3.82226,-0.137222,2.06182,-2.06665,-1.2403,1.52874,1.29813,-1.09386,-0.971994,0.668784,-1.35439,0.0355466,0.0562836,0.658024,-0.1232,
-0.0771117,-0.220311,0.398999,-1.90527,-0.104208,0.143297,0.476999,-0.0721303,0.0283312,-0.0881513,-0.0168676,0.921893,0.573948,-0.0550128,0,0,0,0,0,0,0,-0.0532691,-0.23113,0.425464,-1.89668,-0.0542892,1.67158,1.2763,-0.183299,0.00695064,-0.204635,-0.0953966,0.498954,0.444958,-0.0178949,1.04694,-23.763,-2.78807,28.6212,1.25946,3.82226,-0.137222,1.44422,-1.81052,-1.50704,1.41781,1.15577,-0.86926,-0.749274,0.731876,-1.12668,-0.167541,0.225355,0.526265,-0.126452,
-0.0773801,-0.220211,0.39867,-1.90534,-0.100521,0.145493,0.476778,-0.0670972,0.0249406,-0.0823895,-0.0190114,0.921593,0.54901,-0.0551383,0,0,0,0,0,0,0,-0.0532691,-0.23113,0.425464,-1.89668,-0.0542892,1.67158,1.2763,-0.183299,0.00695064,-0.204635,-0.0953966,0.498954,0.444958,-0.0178949,1.04694,-23.763,-2.78807,28.6212,1.25946,3.82226,-0.137222,0.415885,-1.5458,-1.69642,1.32215,0.687328,-0.558845,-0.454483,0.605287,-0.810143,-0.306791,0.396881,0.408975,-0.128578,
-0.0776317,-0.220123,0.398359,-1.90543,-0.0968303,0.147607,0.476558,-0.0628969,0.0221943,-0.077619,-0.0208703,0.922706,0.528529,-0.0552265,0,0,0,0,0,0,0,-0.0532691,-0.23113,0.425464,-1.89668,-0.0542892,1.67158,1.2763,-0.183299,0.00695064,-0.204635,-0.0953966,0.498954,0.444958,-0.0178949,1.04694,-23.763,-2.78807,28.6212,1.25946,3.82226,-0.137222,0.415885,-1.5458,-1.69642,1.32215,0.687328,-0.558845,-0.454483,0.605287,-0.810143,-0.306791,0.396881,0.408975,-0.128578,
-0.0778691,-0.220043,0.398065,-1.90552,-0.0931319,0.149653,0.476336,-0.0593605,0.0200022,-0.0736285,-0.0224444,0.924609,0.511619,-0.0552908,0,0,0,0,0,0,0,-0.0532691,-0.23113,0.425464,-1.89668,-0.0542892,1.67158,1.2763,-0.183299,0.00695064,-0.204635,-0.0953966,0.498954,0.444958,-0.0178949,1.04694,-23.763,-2.78807,28.6212,1.25946,3.82226,-0.137222,-0.691327,-0.696931,-1.62603,0.871503,0.069036,0.0292696,0.119155,0.345995,-0.18929,-0.324227,0.566518,0.298171,-0.131895,
-0.0703474,-0.216742,0.407141,-1.90372,-0.24696,-0.0359659,0.475328,-0.207679,0.0862363,-0.234398,-0.0945297,-1.17143,-0.169782,-0.0785357,0,0,0,0,0,0,0,-0.0532691,-0.23113,0.425464,-1.89668,-0.0542892,1.67158,1.2763,-0.183299,0.00695064,-0.204635,-0.0953966,0.498954,0.444958,-0.0178949,1.04694,-23.763,-2.78807,28.6212,1.25946,3.82226,-0.137222,-0.691327,-0.696931,-1.62603,0.871503,0.069036,0.0292696,0.119155,0.345995,-0.18929,-0.324227,0.566518,0.298171,-0.131895,
-0.0717585,-0.22402,0.404209,-1.90446,-0.10915,0.102758,0.478943,-0.0683705,0.0323578,-0.0790864,-0.041224,-0.412405,-0.237266,-0.0641421,0,0,0,0,0,0,0,-0.0607572,-0.229605,0.417146,-1.89857,-0.0346003,1.69215,1.27581,-0.167296,0.032128,-0.184875,-0.0178017,0.414245,0.481864,-0.00487948,2.43946,-24.8381,-1.01073,27.4747,1.17981,3.41118,-0.137222,-0.502068,0.220643,-1.95426,0.271857,0.43467,0.39977,0.470646,0.629156,0.259384,-0.511433,0.685693,0.230575,-0.135071,
-0.0720286,-0.223892,0.403897,-1.90463,-0.11085,0.101783,0.478688,-0.0675079,0.0319271,-0.0782057,-0.0409338,-0.425058,-0.243705,-0.0637555,0,0,0,0,0,0,0,-0.0607572,-0.229605,0.417146,-1.89857,-0.0346003,1.69215,1.27581,-0.167296,0.032128,-0.184875,-0.0178017,0.414245,0.481864,-0.00487948,2.43946,-24.8381,-1.01073,27.4747,1.17981,3.41118,-0.137222,-0.502068,0.220643,-1.95426,0.271857,0.43467,0.39977,0.470646,0.629156,0.259384,-0.511433,0.685693,0.230575,-0.135071,
-0.0722951,-0.223767,0.403587,-1.90479,-0.112604,0.100782,0.478434,-0.0666466,0.0314464,-0.0773221,-0.0406299,-0.438413,-0.250369,-0.0633773,0,0,0,0,0,0,0,-0.0607572,-0.229605,0.417146,-1.89857,-0.0346003,1.69215,1.27581,-0.167296,0.032128,-0.184875,-0.0178017,0.414245,0.481864,-0.00487948,2.43946,-24.8381,-1.01073,27.4747,1.17981,3.41118,-0.137222,-0.827817,2.3167,-2.2622,-1.05882,0.423561,1.42033,1.48783,0.686852,1.4003,-0.592583,0.86015,0.215307,-0.139792,
-0.0725583,-0.223643,0.403282,-1.90495,-0.114413,0.099753,0.478182,-0.065789,0.0309081,-0.0764346,-0.0403252,-0.452357,-0.257179,-0.0630093,0,0,0,0,0,0,0,-0.0607572,-0.229605,0.417146,-1.89857,-0.0346003,1.69215,1.27581,-0.167296,0.032128,-0.184875,-0.0178017,0.414245,0.481864,-0.00487948,2.43946,-24.8381,-1.01073,27.4747,1.17981,3.41118,-0.137222,-1.35923,3.52335,-1.74593,-1.67518,-0.200606,2.07628,2.15241,0.227146,2.07392,-0.229367,0.948859,0.331905,-0.131631,
-0.0728181,-0.223522,0.402979,-1.90511,-0.11628,0.098697,0.477931,-0.0649415,0.0303033,-0.0755457,-0.0400374,-0.46671,-0.263998,-0.0626518,0,0,0,0,0,0,0,-0.0607572,-0.229605,0.417146,-1.89857,-0.0346003,1.69215,1.27581,-0.167296,0.032128,-0.184875,-0.0178017,0.414245,0.481864,-0.00487948,2.43946,-24.8381,-1.01073,27.4747,1.17981,3.41118,-0.137222,-1.35923,3.52335,-1.74593,-1.67518,-0.200606,2.07628,2.15241,0.227146,2.07392,-0.229367,0.948859,0.331905,-0.131631,
-0.0730745,-0.223403,0.402681,-1.90527,-0.118205,0.0976145,0.477682,-0.0641173,0.0296207,-0.0746626,-0.0397911,-0.481189,-0.270609,-0.0623059,0,0,0,0,0,0,0,-0.065408,-0.228263,0.411488,-1.89823,-0.0345101,1.69873,1.27538,-0.100077,0.0461823,-0.135619,0.0187549,-0.219833,0.0666557,-0.00425678,1.52698,-25.8339,-1.08611,25.7568,-2.16095,1.24322,-0.224197,0.905501,0.884084,-1.52413,-0.283656,1.22743,0.427259,0.581977,0.940368,0.293379,-0.43219,0.494024,0.193518,-0.128191,
-0.0733279,-0.223288,0.402386,-1.90543,-0.120186,0.0965078,0.477434,-0.0633396,0.0288466,-0.0738004,-0.039621,-0.495367,-0.276678,-0.0619724,0,0,0,0,0,0,0,-0.065408,-0.228263,0.411488,-1.89823,-0.0345101,1.69873,1.27538,-0.100077,0.0461823,-0.135619,0.0187549,-0.219833,0.0666557,-0.00425678,1.52698,-25.8339,-1.08611,25.7568,-2.16095,1.24322,-0.224197,0.905501,0.884084,-1.52413,-0.283656,1.22743,0.427259,0.581977,0.940368,0.293379,-0.43219,0.494024,0.193518,-0.128191,
-0.0735785,-0.223176,0.402094,-1.90559,-0.12222,0.0953809,0.477188,-0.0626465,0.0279631,-0.0729855,-0.0395749,-0.508593,-0.281722,-0.0616509,0,0,0,0,0,0,0,-0.065408,-0.228263,0.411488,-1.89823,-0.0345101,1.69873,1.27538,-0.100077,0.0461823,-0.135619,0.0187549,-0.219833,0.0666557,-0.00425678,1.52698,-25.8339,-1.08611,25.7568,-2.16095,1.24322,-0.224197,0.0396076,-1.53189,-0.83904,0.687171,0.44105,-0.561777,-0.3986,0.45483,-0.722583,-0.531994,-0.23168,-0.172362,-0.127937,
-0.0738269,-0.223068,0.401805,-1.90575,-0.1243,0.0942408,0.476942,-0.0620988,0.0269473,-0.0722622,-0.0397181,-0.519889,-0.285047,-0.0613392,0,0,0,0,0,0,0,-0.065408,-0.228263,0.411488,-1.89823,-0.0345101,1.69873,1.27538,-0.100077,0.0461823,-0.135619,0.0187549,-0.219833,0.0666557,-0.00425678,1.52698,-25.8339,-1.08611,25.7568,-2.16095,1.24322,-0.224197,0.0396076,-1.53189,-0.83904,0.687171,0.44105,-0.561777,-0.3986,0.45483,-0.722583,-0.531994,-0.23168,-0.172362,-0.127937,
-0.074074,-0.222965,0.401518,-1.90591,-0.126411,0.093098,0.476698,-0.0617897,0.02577,-0.0717007,-0.0401367,-0.527802,-0.285699,-0.0610308,0,0,0,0,0,0,0,-0.065408,-0.228263,0.411488,-1.89823,-0.0345101,1.69873,1.27538,-0.100077,0.0461823,-0.135619,0.0187549,-0.219833,0.0666557,-0.00425678,1.52698,-25.8339,-1.08611,25.7568,-2.16095,1.24322,-0.224197,-1.65875,-1.61316,-0.58915,0.506058,-0.718286,-0.318881,-0.225586,-0.158377,-0.387871,-0.555116,-0.443449,-0.369109,-0.126291,
-0.0743215,-0.222868,0.401232,-1.90607,-0.128532,0.0919683,0.476455,-0.0618599,0.0243941,-0.0714093,-0.0409381,-0.530191,-0.28241,-0.0607176,0,0,0,0,0,0,0,-0.065408,-0.228263,0.411488,-1.89823,-0.0345101,1.69873,1.27538,-0.100077,0.0461823,-0.135619,0.0187549,-0.219833,0.0666557,-0.00425678,1.52698,-25.8339,-1.08611,25.7568,-2.16095,1.24322,-0.224197,-1.01885,-1.47198,-0.0525487,0.360163,-0.448106,-0.391273,-0.293133,-0.107876,-0.439761,-0.441787,-0.562367,-0.439431,-0.1308,
-0.0745715,-0.222777,0.400946,-1.90624,-0.130628,0.090874,0.476214,-0.062513,0.0227741,-0.0715491,-0.0422445,-0.523966,-0.273584,-0.0603797,0,0,0,0,0,0,0,-0.0678748,-0.226901,0.407469,-1.89794,-0.0442274,1.69913,1.27482,-0.0732036,0.0362861,-0.113637,-0.0103094,-0.360331,0.00672763,-0.0205313,0.816837,-25.1634,-2.26042,27.0026,-1.75812,1.83282,-0.217789,-1.01885,-1.47198,-0.0525487,0.360163,-0.448106,-0.391273,-0.293133,-0.107876,-0.439761,-0.441787,-0.562367,-0.439431,-0.1308,
-0.0748277,-0.222693,0.400657,-1.90642,-0.132647,0.0898446,0.475974,-0.0640327,0.0208572,-0.0723507,-0.0441765,-0.504779,-0.257358,-0.0599853,0,0,0,0,0,0,0,-0.0678748,-0.226901,0.407469,-1.89794,-0.0442274,1.69913,1.27482,-0.0732036,0.0362861,-0.113637,-0.0103094,-0.360331,0.00672763,-0.0205313,0.816837,-25.1634,-2.26042,27.0026,-1.75812,1.83282,-0.217789,-0.0679543,-2.08113,-0.0686271,0.415186,0.297152,-0.868149,-0.750218,0.311406,-0.882267,-0.70367,-0.876422,-0.644296,-0.141968,
-0.0750948,-0.222619,0.40036,-1.9066,-0.134514,0.0889176,0.475736,-0.0667895,0.0185853,-0.0741277,-0.0468271,-0.466769,-0.231742,-0.0594808,0,0,0,0,0,0,0,-0.0678748,-0.226901,0.407469,-1.89794,-0.0442274,1.69913,1.27482,-0.0732036,0.0362861,-0.113637,-0.0103094,-0.360331,0.00672763,-0.0205313,0.816837,-25.1634,-2.26042,27.0026,-1.75812,1.83282,-0.217789,-0.0679543,-2.08113,-0.0686271,0.415186,0.297152,-0.868149,-0.750218,0.311406,-0.882267,-0.70367,-0.876422,-0.644296,-0.141968,
-0.0753797,-0.222555,0.400051,-1.9068,-0.136124,0.0881385,0.475501,-0.0712248,0.015895,-0.0772778,-0.0502533,-0.402545,-0.19478,-0.0587712,0,0,0,0,0,0,0,-0.0678748,-0.226901,0.407469,-1.89794,-0.0442274,1.69913,1.27482,-0.0732036,0.0362861,-0.113637,-0.0103094,-0.360331,0.00672763,-0.0205313,0.816837,-25.1634,-2.26042,27.0026,-1.75812,1.83282,-0.217789,0.278111,-2.90226,-0.102149,0.617047,0.637943,-1.34049,-1.2231,0.531093,-1.323,-0.956756,-1.17973,-0.858221,-0.144671,
-0.0756909,-0.222504,0.399722,-1.90702,-0.137339,0.0875607,0.47527,-0.0778018,0.0126994,-0.0822622,-0.0545464,-0.303591,-0.144432,-0.0576956,0,0,0,0,0,0,0,-0.0678748,-0.226901,0.407469,-1.89794,-0.0442274,1.69913,1.27482,-0.0732036,0.0362861,-0.113637,-0.0103094,-0.360331,0.00672763,-0.0205313,0.816837,-25.1634,-2.26042,27.0026,-1.75812,1.83282,-0.217789,0.3271,-3.19808,-0.339537,0.662856,0.837117,-1.49326,-1.35234,0.711891,-1.47798,-1.16943,-1.27323,-0.973081,-0.149262,
-0.0760387,-0.222469,0.399363,-1.90726,-0.137982,0.0872497,0.475045,-0.0869556,0.00880836,-0.0895881,-0.0600955,-0.160938,-0.0777603,-0.0561648,0,0,0,0,0,0,0,-0.0698552,-0.226099,0.404715,-1.89788,-0.0551233,1.69911,1.27422,-0.0629824,0.0187386,-0.0686959,0.000809352,-0.36211,0.00427531,-0.0139762,0.209842,-24.9373,-3.33556,26.2051,-0.805057,1.95916,-0.190323,0.3271,-3.19808,-0.339537,0.662856,0.837117,-1.49326,-1.35234,0.711891,-1.47798,-1.16943,-1.27323,-0.973081,-0.149262,
-0.0764349,-0.222454,0.398963,-1.90754,-0.137842,0.0872947,0.474817,-0.09904,0.00366739,-0.100032,-0.0682631,0.0351787,0.0112397,-0.057046,0,0,0,0,0,0,0,-0.0698552,-0.226099,0.404715,-1.89788,-0.0551233,1.69911,1.27422,-0.0629824,0.0187386,-0.0686959,0.000809352,-0.36211,0.00427531,-0.0139762,0.209842,-24.9373,-3.33556,26.2051,-0.805057,1.95916,-0.190323,0.247843,-4.06152,-0.555129,1.16936,0.941534,-1.87722,-1.69844,0.861194,-1.93195,-1.36541,-1.3051,-1.07605,-0.153773,
-0.0768407,-0.222433,0.398537,-1.9078,-0.13712,0.0875878,0.474594,-0.101453,0.0052843,-0.106479,-0.0659436,0.180369,0.0732764,-0.0558538,0,0,0,0,0,0,0,-0.0698552,-0.226099,0.404715,-1.89788,-0.0551233,1.69911,1.27422,-0.0629824,0.0187386,-0.0686959,0.000809352,-0.36211,0.00427531,-0.0139762,0.209842,-24.9373,-3.33556,26.2051,-0.805057,1.95916,-0.190323,0.247843,-4.06152,-0.555129,1.16936,0.941534,-1.87722,-1.69844,0.861194,-1.93195,-1.36541,-1.3051,-1.07605,-0.153773,
-0.0772433,-0.222399,0.398103,-1.90804,-0.135957,0.0880711,0.474373,-0.100642,0.00851931,-0.108616,-0.0610685,0.290908,0.120824,-0.0550779,0,0,0,0,0,0,0,-0.0698552,-0.226099,0.404715,-1.89788,-0.0551233,1.69911,1.27422,-0.0629824,0.0187386,-0.0686959,0.000809352,-0.36211,0.00427531,-0.0139762,0.209842,-24.9373,-3.33556,26.2051,-0.805057,1.95916,-0.190323,0.368155,-4.95439,-0.535769,1.74963,1.02464,-2.3085,-2.10901,0.926141,-2.43279,-1.4071,-1.33993,-1.10738,-0.157929,
-0.0776357,-0.222352,0.397671,-1.90827,-0.134451,0.0887075,0.474155,-0.0981042,0.0117063,-0.108038,-0.0562019,0.376473,0.159108,-0.0546125,0,0,0,0,0,0,0,-0.0698552,-0.226099,0.404715,-1.89788,-0.0551233,1.69911,1.27422,-0.0629824,0.0187386,-0.0686959,0.000809352,-0.36211,0.00427531,-0.0139762,0.209842,-24.9373,-3.33556,26.2051,-0.805057,1.95916,-0.190323,0.236354,-3.91231,-0.110251,1.26219,0.733637,-1.7903,-1.60567,0.668419,-1.8867,-1.11208,-1.20366,-0.998912,-0.168778,
-0.0780141,-0.222295,0.397248,-1.90848,-0.132676,0.08947,0.473938,-0.0946102,0.0143544,-0.105819,-0.0520203,0.443557,0.19064,-0.0543333,0,0,0,0,0,0,0,-0.0698552,-0.226099,0.404715,-1.89788,-0.0551233,1.69911,1.27422,-0.0629824,0.0187386,-0.0686959,0.000809352,-0.36211,0.00427531,-0.0139762,0.209842,-24.9373,-3.33556,26.2051,-0.805057,1.95916,-0.190323,0.236354,-3.91231,-0.110251,1.26219,0.733637,-1.7903,-1.60567,0.668419,-1.8867,-1.11208,-1.20366,-0.998912,-0.168778,
-0.0783767,-0.222229,0.396837,-1.90867,-0.130689,0.0903375,0.473721,-0.0906372,0.0163817,-0.102653,-0.0485873,0.49673,0.216865,-0.0541694,0,0,0,0,0,0,0,-0.0717839,-0.225833,0.402942,-1.89819,-0.0640555,1.69906,1.2736,-0.0685434,-0.00447313,-0.0571062,-0.0195953,-0.141736,-2.77842e-05,-0.0203514,-0.222592,-24.1875,-3.76006,26.9272,0.452877,2.5158,-0.143631,0.195861,-3.44101,-0.352677,1.03737,0.804231,-1.55176,-1.38309,0.745784,-1.62353,-1.15165,-1.07238,-0.951239,-0.176684,
-0.0787226,-0.222158,0.396441,-1.90885,-0.128532,0.0912926,0.473505,-0.08649,0.0178412,-0.0989932,-0.0457958,0.539293,0.238767,-0.054079,0,0,0,0,0,0,0,-0.0717839,-0.225833,0.402942,-1.89819,-0.0640555,1.69906,1.2736,-0.0685434,-0.00447313,-0.0571062,-0.0195953,-0.141736,-2.77842e-05,-0.0203514,-0.222592,-24.1875,-3.76006,26.9272,0.452877,2.5158,-0.143631,0.195861,-3.44101,-0.352677,1.03737,0.804231,-1.55176,-1.38309,0.745784,-1.62353,-1.15165,-1.07238,-0.951239,-0.176684,
-0.0790521,-0.222083,0.39606,-1.90903,-0.126238,0.0923209,0.473289,-0.0823637,0.0188226,-0.0951394,-0.0435139,0.57367,0.257089,-0.054036,0,0,0,0,0,0,0,-0.0717839,-0.225833,0.402942,-1.89819,-0.0640555,1.69906,1.2736,-0.0685434,-0.00447313,-0.0571062,-0.0195953,-0.141736,-2.77842e-05,-0.0203514,-0.222592,-24.1875,-3.76006,26.9272,0.452877,2.5158,-0.143631,-0.934139,-3.09941,-0.345966,1.1323,0.0794985,-1.17398,-1.00762,0.413301,-1.30528,-1.03807,-0.75032,-0.891389,-0.178685,
-0.0922367,-0.214095,0.381338,-1.91058,-0.226656,-0.0548508,0.47025,-0.222306,0.112518,-0.249203,-0.0973408,-1.18359,-0.764568,-0.102209,0,0,0,0,0,0,0,-0.0717839,-0.225833,0.402942,-1.89819,-0.0640555,1.69906,1.2736,-0.0685434,-0.00447313,-0.0571062,-0.0195953,-0.141736,-2.77842e-05,-0.0203514,-0.222592,-24.1875,-3.76006,26.9272,0.452877,2.5158,-0.143631,-1.38898,-2.02626,0.0154281,0.907789,-0.459614,-0.553877,-0.375766,0.0375823,-0.746667,-0.613347,-0.35909,-0.639893,-0.186623,
-0.0995094,-0.216258,0.371482,-1.90819,-0.152284,0.082227,0.474427,-0.182007,0.0617924,-0.205845,-0.0586349,0.188004,-0.085264,-0.0674077,0,0,0,0,0,0,0,-0.0717839,-0.225833,0.402942,-1.89819,-0.0640555,1.69906,1.2736,-0.0685434,-0.00447313,-0.0571062,-0.0195953,-0.141736,-2.77842e-05,-0.0203514,-0.222592,-24.1875,-3.76006,26.9272,0.452877,2.5158,-0.143631,-1.38898,-2.02626,0.0154281,0.907789,-0.459614,-0.553877,-0.375766,0.0375823,-0.746667,-0.613347,-0.35909,-0.639893,-0.186623,
-0.100236,-0.216016,0.37066,-1.90842,-0.151329,0.081883,0.474159,-0.181686,0.0606295,-0.205379,-0.0581414,0.238732,-0.0859917,-0.0669717,0,0,0,0,0,0,0,-0.0743355,-0.225833,0.400839,-1.89881,-0.064177,1.69919,1.27304,-0.0887996,-5.43859e-05,-0.0713688,-0.0284328,0.00857015,-0.00211479,-0.00926358,0.793033,-24.2391,-3.28795,27.7762,1.5158,3.7893,-0.197647,-1.2761,-0.708825,0.327877,0.581141,-0.636294,0.0870702,0.289003,-0.165609,-0.171045,-0.157068,0.0844355,-0.316901,-0.194465,
-0.100962,-0.215778,0.36984,-1.90865,-0.150154,0.0815367,0.473893,-0.181468,0.059394,-0.204993,-0.0576785,0.293624,-0.0865791,-0.0665689,0,0,0,0,0,0,0,-0.0743355,-0.225833,0.400839,-1.89881,-0.064177,1.69919,1.27304,-0.0887996,-5.43859e-05,-0.0713688,-0.0284328,0.00857015,-0.00211479,-0.00926358,0.793033,-24.2391,-3.28795,27.7762,1.5158,3.7893,-0.197647,-1.2761,-0.708825,0.327877,0.581141,-0.636294,0.0870702,0.289003,-0.165609,-0.171045,-0.157068,0.0844355,-0.316901,-0.194465,
-0.101687,-0.215546,0.369021,-1.90888,-0.148741,0.0811889,0.473628,-0.181358,0.0580755,-0.20469,-0.0572495,0.35327,-0.0869536,-0.0662033,0,0,0,0,0,0,0,-0.0743355,-0.225833,0.400839,-1.89881,-0.064177,1.69919,1.27304,-0.0887996,-5.43859e-05,-0.0713688,-0.0284328,0.00857015,-0.00211479,-0.00926358,0.793033,-24.2391,-3.28795,27.7762,1.5158,3.7893,-0.197647,-1.25185,1.53122,-0.256932,-0.581709,-0.461539,1.15843,1.3586,-0.031186,0.970797,-0.111408,0.495416,-0.072556,-0.19883,
-0.102413,-0.215319,0.368204,-1.90911,-0.147068,0.0808408,0.473365,-0.18136,0.0566625,-0.20447,-0.0568612,0.418307,-0.087025,-0.0658875,0,0,0,0,0,0,0,-0.0743355,-0.225833,0.400839,-1.89881,-0.064177,1.69919,1.27304,-0.0887996,-5.43859e-05,-0.0713688,-0.0284328,0.00857015,-0.00211479,-0.00926358,0.793033,-24.2391,-3.28795,27.7762,1.5158,3.7893,-0.197647,-1.25185,1.53122,-0.256932,-0.581709,-0.461539,1.15843,1.3586,-0.031186,0.970797,-0.111408,0.495416,-0.072556,-0.19883,
-0.103139,-0.215098,0.367386,-1.90933,-0.14511,0.0804941,0.473102,-0.181475,0.055143,-0.204332,-0.0565257,0.489422,-0.0866725,-0.0656316,0,0,0,0,0,0,0,-0.0743355,-0.225833,0.400839,-1.89881,-0.064177,1.69919,1.27304,-0.0887996,-5.43859e-05,-0.0713688,-0.0284328,0.00857015,-0.00211479,-0.00926358,0.793033,-24.2391,-3.28795,27.7762,1.5158,3.7893,-0.197647,-0.704143,1.03894,-1.18488,-0.25321,0.305708,0.838217,1.00289,0.561319,0.663221,-0.509249,0.642968,-0.0749761,-0.199414,
-0.103866,-0.214884,0.366569,-1.90956,-0.142841,0.0801512,0.47284,-0.181703,0.0535055,-0.204273,-0.0562622,0.567324,-0.0857274,-0.0654565,0,0,0,0,0,0,0,-0.0785049,-0.225964,0.396467,-1.89952,-0.0673082,1.69441,1.27237,-0.11847,-0.0135938,-0.123553,-0.0125275,-0.0272954,-0.138481,-0.00835979,-1.15887,-21.7674,-5.38664,27.0541,1.15509,3.21892,-0.244339,0.237019,1.05055,-1.4965,-0.251404,1.13187,0.686495,0.893389,1.07694,0.48669,-0.710188,0.704573,-0.113292,-0.207325,
-0.104594,-0.214677,0.365752,-1.90978,-0.14023,0.0798154,0.472579,-0.182032,0.0517404,-0.20428,-0.0560998,0.652693,-0.0839485,-0.0653831,0,0,0,0,0,0,0,-0.0785049,-0.225964,0.396467,-1.89952,-0.0673082,1.69441,1.27237,-0.11847,-0.0135938,-0.123553,-0.0125275,-0.0272954,-0.138481,-0.00835979,-1.15887,-21.7674,-5.38664,27.0541,1.15509,3.21892,-0.244339,0.237019,1.05055,-1.4965,-0.251404,1.13187,0.686495,0.893389,1.07694,0.48669,-0.710188,0.704573,-0.113292,-0.207325,
-0.105323,-0.214478,0.364935,-1.91,-0.137246,0.0794914,0.472317,-0.182431,0.0498421,-0.204325,-0.0560811,0.746087,-0.0809892,-0.0654433,0,0,0,0,0,0,0,-0.0785049,-0.225964,0.396467,-1.89952,-0.0673082,1.69441,1.27237,-0.11847,-0.0135938,-0.123553,-0.0125275,-0.0272954,-0.138481,-0.00835979,-1.15887,-21.7674,-5.38664,27.0541,1.15509,3.21892,-0.244339,2.06157,0.993658,-1.89588,-0.184013,2.52624,0.356795,0.600068,1.86855,0.137411,-0.904909,0.775912,-0.0724136,-0.21224,
-0.106044,-0.214283,0.364122,-1.91023,-0.133943,0.079182,0.472056,-0.180254,0.0487282,-0.20319,-0.0556654,0.825685,-0.0773605,-0.0652709,0,0,0,0,0,0,0,-0.0785049,-0.225964,0.396467,-1.89952,-0.0673082,1.69441,1.27237,-0.11847,-0.0135938,-0.123553,-0.0125275,-0.0272954,-0.138481,-0.00835979,-1.15887,-21.7674,-5.38664,27.0541,1.15509,3.21892,-0.244339,2.06157,0.993658,-1.89588,-0.184013,2.52624,0.356795,0.600068,1.86855,0.137411,-0.904909,0.775912,-0.0724136,-0.21224,
-0.106748,-0.214091,0.363321,-1.91045,-0.130399,0.0788952,0.471795,-0.175899,0.0481426,-0.200133,-0.0552926,0.886107,-0.0717071,-0.0652649,0,0,0,0,0,0,0,-0.0785049,-0.225964,0.396467,-1.89952,-0.0673082,1.69441,1.27237,-0.11847,-0.0135938,-0.123553,-0.0125275,-0.0272954,-0.138481,-0.00835979,-1.15887,-21.7674,-5.38664,27.0541,1.15509,3.21892,-0.244339,1.84238,0.780394,-1.5041,0.10602,2.15227,0.30267,0.520976,1.58383,0.0525177,-0.655459,0.837589,0.0184504,-0.21132,
-0.10743,-0.2139,0.36254,-1.91067,-0.126669,0.0786463,0.471532,-0.170433,0.0475419,-0.195451,-0.0554911,0.93233,-0.0622162,-0.0657568,0,0,0,0,0,0,0,-0.0785049,-0.225964,0.396467,-1.89952,-0.0673082,1.69441,1.27237,-0.11847,-0.0135938,-0.123553,-0.0125275,-0.0272954,-0.138481,-0.00835979,-1.15887,-21.7674,-5.38664,27.0541,1.15509,3.21892,-0.244339,1.84238,0.780394,-1.5041,0.10602,2.15227,0.30267,0.520976,1.58383,0.0525177,-0.655459,0.837589,0.0184504,-0.21132,
-0.108087,-0.213714,0.361781,-1.9109,-0.122798,0.0784567,0.471264,-0.164201,0.0467175,-0.18956,-0.0564358,0.96777,-0.0473988,-0.0668948,0,0,0,0,0,0,0,-0.0828675,-0.226148,0.391538,-1.89989,-0.0653112,1.68934,1.2719,-0.15033,-0.00202472,-0.170891,-0.0122746,0.167788,-0.131353,-0.0125123,-1.08349,-22.8664,-4.63683,26.9788,1.3327,2.97997,-0.170181,0.879047,1.32813,-1.33961,-0.203522,1.45737,0.719918,0.89818,1.19683,0.516092,-0.555526,0.890383,0.00432769,-0.216539,
-0.108716,-0.213531,0.361051,-1.91113,-0.118819,0.0783536,0.470989,-0.157388,0.0455875,-0.182671,-0.0582033,0.994846,-0.0257698,-0.0689487,0,0,0,0,0,0,0,-0.0828675,-0.226148,0.391538,-1.89989,-0.0653112,1.68934,1.2719,-0.15033,-0.00202472,-0.170891,-0.0122746,0.167788,-0.131353,-0.0125123,-1.08349,-22.8664,-4.63683,26.9788,1.3327,2.97997,-0.170181,-0.375904,1.84222,-1.04492,-0.471222,0.554548,1.16198,1.30975,0.702588,0.986381,-0.435729,0.953243,-0.0534871,-0.220246,
-0.109316,-0.213355,0.360352,-1.91137,-0.114758,0.0783697,0.470699,-0.150063,0.0441565,-0.174789,-0.0607894,1.01521,0.00401172,-0.0723743,0,0,0,0,0,0,0,-0.0828675,-0.226148,0.391538,-1.89989,-0.0653112,1.68934,1.2719,-0.15033,-0.00202472,-0.170891,-0.0122746,0.167788,-0.131353,-0.0125123,-1.08349,-22.8664,-4.63683,26.9788,1.3327,2.97997,-0.170181,-0.375904,1.84222,-1.04492,-0.471222,0.554548,1.16198,1.30975,0.702588,0.986381,-0.435729,0.953243,-0.0534871,-0.220246,
-0.109885,-0.213184,0.359689,-1.91163,-0.110639,0.0785394,0.470388,-0.142158,0.0425902,-0.165688,-0.0639038,1.02983,0.0424273,-0.0778188,0,0,0,0,0,0,0,-0.0828675,-0.226148,0.391538,-1.89989,-0.0653112,1.68934,1.2719,-0.15033,-0.00202472,-0.170891,-0.0122746,0.167788,-0.131353,-0.0125123,-1.08349,-22.8664,-4.63683,26.9788,1.3327,2.97997,-0.170181,-0.12796,2.07882,-0.610704,-0.56152,0.561856,1.22574,1.3702,0.626364,1.05263,-0.272856,0.960491,-0.0550026,-0.223774,
-0.110418,-0.213018,0.359069,-1.91189,-0.106483,0.078888,0.470048,-0.133316,0.0414857,-0.154896,-0.0663503,1.03892,0.0871673,-0.0849559,0,0,0,0,0,0,0,-0.0828675,-0.226148,0.391538,-1.89989,-0.0653112,1.68934,1.2719,-0.15033,-0.00202472,-0.170891,-0.0122746,0.167788,-0.131353,-0.0125123,-1.08349,-22.8664,-4.63683,26.9788,1.3327,2.97997,-0.170181,-0.12796,2.07882,-0.610704,-0.56152,0.561856,1.22574,1.3702,0.626364,1.05263,-0.272856,0.960491,-0.0550026,-0.223774,
-0.110896,-0.212845,0.358504,-1.91215,-0.102396,0.0793971,0.469761,-0.119373,0.0434157,-0.141404,-0.0638032,1.02179,0.127251,-0.0716419,0,0,0,0,0,0,0,-0.0884676,-0.22607,0.385445,-1.90062,-0.0534401,1.6867,1.27131,-0.169362,0.00232429,-0.199162,-0.0322512,0.521055,-0.0406772,-0.0206872,0.309024,-23.6876,-3.11339,27.1017,0.960079,2.92046,-0.143631,-0.0744645,0.877399,-0.137682,0.0721115,0.417211,0.646964,0.793688,0.485522,0.431363,-0.205027,0.71503,-0.153554,-0.227013,
-0.111333,-0.21267,0.357985,-1.9124,-0.0983425,0.0800426,0.469477,-0.109354,0.0437565,-0.129672,-0.0617087,1.01339,0.161375,-0.0711588,0,0,0,0,0,0,0,-0.0884676,-0.22607,0.385445,-1.90062,-0.0534401,1.6867,1.27131,-0.169362,0.00232429,-0.199162,-0.0322512,0.521055,-0.0406772,-0.0206872,0.309024,-23.6876,-3.11339,27.1017,0.960079,2.92046,-0.143631,0.253039,-0.204074,-0.269623,0.600602,0.735144,0.0733491,0.210814,0.708581,-0.152824,-0.402222,0.546471,-0.26976,-0.223046,
-0.111738,-0.212497,0.357504,-1.91263,-0.0943012,0.0808028,0.469191,-0.10118,0.0432617,-0.120156,-0.0596802,1.01033,0.190068,-0.0714725,0,0,0,0,0,0,0,-0.0884676,-0.22607,0.385445,-1.90062,-0.0534401,1.6867,1.27131,-0.169362,0.00232429,-0.199162,-0.0322512,0.521055,-0.0406772,-0.0206872,0.309024,-23.6876,-3.11339,27.1017,0.960079,2.92046,-0.143631,0.253039,-0.204074,-0.269623,0.600602,0.735144,0.0733491,0.210814,0.708581,-0.152824,-0.402222,0.546471,-0.26976,-0.223046,
-0.112115,-0.212327,0.357055,-1.91286,-0.0902587,0.0816593,0.468904,-0.0943793,0.0422782,-0.112365,-0.0576471,1.01063,0.214116,-0.0717568,0,0,0,0,0,0,0,-0.0884676,-0.22607,0.385445,-1.90062,-0.0534401,1.6867,1.27131,-0.169362,0.00232429,-0.199162,-0.0322512,0.521055,-0.0406772,-0.0206872,0.309024,-23.6876,-3.11339,27.1017,0.960079,2.92046,-0.143631,-0.729903,-0.698232,-0.0713645,0.901075,0.0268667,-0.00778892,0.110869,0.340764,-0.253386,-0.364754,0.498392,-0.344412,-0.221062,
