PerkyPenguin/Analysis-on-Approximated-Derivatives/Code_and_Data/PaperData/Real_Robot/Scene_1/set_interval/3/trajectory.csv
Commanded Joint 0 Position,Commanded Joint 1 Position,Commanded Joint 2 Position,Commanded Joint 3 Position,Commanded Joint 4 Position,Commanded Joint 5 Position,Commanded Joint 6 Position,Commanded Joint 0 Velocity,Commanded Joint 1 Velocity,Commanded Joint 2 Velocity,Commanded Joint 3 Velocity,Commanded Joint 4 Velocity,Commanded Joint 5 Velocity,Commanded Joint 6 Velocity,Commanded Joint 0 Torque,Commanded Joint 1 Torque,Commanded Joint 2 Torque,Commanded Joint 3 Torque,Commanded Joint 4 Torque,Commanded Joint 5 Torque,Commanded Joint 6 Torque,Actual Joint 0 Position,Actual Joint 1 Position,Actual Joint 2 Position,Actual Joint 3 Position,Actual Joint 4 Position,Actual Joint 5 Position,Actual Joint 6 Position,Actual Joint 0 Velocity,Actual Joint 1 Velocity,Actual Joint 2 Velocity,Actual Joint 3 Velocity,Actual Joint 4 Velocity,Actual Joint 5 Velocity,Actual Joint 6 Velocity,Actual Joint 0 Torque,Actual Joint 1 Torque,Actual Joint 2 Torque,Actual Joint 3 Torque,Actual Joint 4 Torque,Actual Joint 5 Torque,Actual Joint 6 Torque,EE ext force 0,EE ext force 1,EE ext force 2,EE ext force 3,EE ext force 4,EE ext force 5,joint ext torque 0,joint ext torque 1,joint ext torque 2,joint ext torque 3,joint ext torque 4,joint ext torque 5,joint ext torque 6,
0.0112163,-0.19972,-0.335355,-1.66083,-0.0932087,-0.090665,-0.383794,-0.00251166,0.0149415,-0.0127218,-0.150332,0.00351652,0.200001,-0.00214271,0,0,0,0,0,0,0,0.0112332,-0.199721,-0.335253,-1.65931,-0.0932047,1.47813,0.401628,-0.00419813,-0.000385434,0.000519893,0.000390686,0.00456886,0.000159743,0.000737305,-0.0440639,-25.2626,1.88936,25.8084,0.354916,2.98638,-0.0703886,-1.03239,-0.118785,-0.426788,0.124936,-0.304782,-0.177892,-0.0729191,0.0309514,-0.280271,-0.350427,-0.155973,-0.315085,-0.0536126,
0.0112013,-0.199586,-0.335417,-1.66147,-0.0931988,-0.0898368,-0.383802,-0.00374719,0.0335083,-0.0156368,-0.159517,0.00247551,0.207053,-0.00203827,0,0,0,0,0,0,0,0.0112332,-0.199721,-0.335253,-1.65931,-0.0932047,1.47813,0.401628,-0.00419813,-0.000385434,0.000519893,0.000390686,0.00456886,0.000159743,0.000737305,-0.0440639,-25.2626,1.88936,25.8084,0.354916,2.98638,-0.0703886,-0.985384,-0.189739,-0.485446,0.188164,-0.243665,-0.201793,-0.0967275,0.0759637,-0.311726,-0.381336,-0.158271,-0.317797,-0.0531213,
0.0112202,-0.199731,-0.335268,-1.6593,-0.0931843,-0.0926635,-0.383769,-0.000529441,-0.000569058,-0.000650713,0.000211029,0.000330753,3.08131e-05,2.52117e-05,0,0,0,0,0,0,0,0.0112332,-0.199721,-0.335253,-1.65931,-0.0932047,1.47813,0.401628,-0.00419813,-0.000385434,0.000519893,0.000390686,0.00456886,0.000159743,0.000737305,-0.0440639,-25.2626,1.88936,25.8084,0.354916,2.98638,-0.0703886,-0.985384,-0.189739,-0.485446,0.188164,-0.243665,-0.201793,-0.0967275,0.0759637,-0.311726,-0.381336,-0.158271,-0.317797,-0.0531213,
0.0112185,-0.199733,-0.33527,-1.6593,-0.0931842,-0.0926634,-0.383769,-0.000430177,-0.000538025,-0.000528177,0.000205544,2.85337e-05,9.12075e-06,1.9819e-05,0,0,0,0,0,0,0,0.0112332,-0.199721,-0.335253,-1.65931,-0.0932047,1.47813,0.401628,-0.00419813,-0.000385434,0.000519893,0.000390686,0.00456886,0.000159743,0.000737305,-0.0440639,-25.2626,1.88936,25.8084,0.354916,2.98638,-0.0703886,-0.932973,-0.118209,-0.531969,0.146684,-0.188372,-0.16028,-0.0579388,0.114189,-0.265331,-0.404358,-0.149475,-0.317423,-0.0532771,
0.0112171,-0.199735,-0.335272,-1.6593,-0.0931849,-0.0926635,-0.383769,-0.000353659,-0.000507711,-0.000435486,0.000199357,-0.00016822,-6.94688e-06,1.59056e-05,0,0,0,0,0,0,0,0.0112295,-0.199731,-0.335256,-1.65935,-0.0931929,1.47816,0.401629,-0.00110887,-0.00363431,-0.00194616,-0.00757655,0.00542201,0.00922749,0.000535421,0.00751081,-25.0603,1.88936,24.1898,0.27618,3.15209,-0.083206,-1.64556,0.0467619,-0.955299,0.058276,-0.614977,-0.210619,-0.103694,-0.0749316,-0.311495,-0.439522,-0.164651,-0.284086,-0.054165,
0.0112159,-0.199737,-0.335274,-1.6593,-0.0931861,-0.0926636,-0.383769,-0.000293824,-0.000479621,-0.000364483,0.000192157,-0.000292587,-1.97022e-05,1.29961e-05,0,0,0,0,0,0,0,0.0112295,-0.199731,-0.335256,-1.65935,-0.0931929,1.47816,0.401629,-0.00110887,-0.00363431,-0.00194616,-0.00757655,0.00542201,0.00922749,0.000535421,0.00751081,-25.0603,1.88936,24.1898,0.27618,3.15209,-0.083206,-1.64556,0.0467619,-0.955299,0.058276,-0.614977,-0.210619,-0.103694,-0.0749316,-0.311495,-0.439522,-0.164651,-0.284086,-0.054165,
0.0112149,-0.199739,-0.335275,-1.6593,-0.0931875,-0.0926637,-0.383769,-0.000246399,-0.000454279,-0.000309387,0.000184307,-0.000367508,-3.09869e-05,1.0801e-05,0,0,0,0,0,0,0,0.0112295,-0.199731,-0.335256,-1.65935,-0.0931929,1.47816,0.401629,-0.00110887,-0.00363431,-0.00194616,-0.00757655,0.00542201,0.00922749,0.000535421,0.00751081,-25.0603,1.88936,24.1898,0.27618,3.15209,-0.083206,-2.50617,0.186129,-1.62721,0.0560953,-1.02624,-0.298351,-0.182747,-0.200532,-0.413344,-0.595628,-0.166576,-0.297478,-0.0556631,
0.0112141,-0.19974,-0.335276,-1.6593,-0.0931892,-0.0926638,-0.383769,-0.00020832,-0.000431776,-0.000266073,0.000176233,-0.000408918,-4.19634e-05,9.12363e-06,0,0,0,0,0,0,0,0.0112295,-0.199731,-0.335256,-1.65935,-0.0931929,1.47816,0.401629,-0.00110887,-0.00363431,-0.00194616,-0.00757655,0.00542201,0.00922749,0.000535421,0.00751081,-25.0603,1.88936,24.1898,0.27618,3.15209,-0.083206,-2.50617,0.186129,-1.62721,0.0560953,-1.02624,-0.298351,-0.182747,-0.200532,-0.413344,-0.595628,-0.166576,-0.297478,-0.0556631,
0.0112134,-0.199742,-0.335277,-1.6593,-0.0931909,-0.0926641,-0.383769,-0.000177369,-0.000412005,-0.000231581,0.000168264,-0.00042788,-5.3245e-05,7.82617e-06,0,0,0,0,0,0,0,0.0112295,-0.199731,-0.335256,-1.65935,-0.0931929,1.47816,0.401629,-0.00110887,-0.00363431,-0.00194616,-0.00757655,0.00542201,0.00922749,0.000535421,0.00751081,-25.0603,1.88936,24.1898,0.27618,3.15209,-0.083206,-1.15625,-0.127255,-1.54481,0.281438,-0.0611656,-0.195049,-0.0833638,0.313817,-0.333857,-0.680582,-0.15265,-0.242645,-0.0568078,
0.0112128,-0.199744,-0.335278,-1.6593,-0.0931926,-0.0926643,-0.383769,-0.000151924,-0.000394762,-0.000203768,0.00016062,-0.000432057,-6.50727e-05,6.81046e-06,0,0,0,0,0,0,0,0.0112295,-0.199731,-0.335256,-1.65935,-0.0931929,1.47816,0.401629,-0.00110887,-0.00363431,-0.00194616,-0.00757655,0.00542201,0.00922749,0.000535421,0.00751081,-25.0603,1.88936,24.1898,0.27618,3.15209,-0.083206,-1.15625,-0.127255,-1.54481,0.281438,-0.0611656,-0.195049,-0.0833638,0.313817,-0.333857,-0.680582,-0.15265,-0.242645,-0.0568078,
0.0112123,-0.199745,-0.335278,-1.6593,-0.0931943,-0.0926646,-0.383769,-0.000130789,-0.000379808,-0.000181077,0.000153433,-0.000426742,-7.74592e-05,6.00593e-06,0,0,0,0,0,0,0,0.0112412,-0.199698,-0.335249,-1.6596,-0.093216,1.47869,0.401623,-0.000248766,0.00194241,0.00033812,-0.00159285,-0.00508399,0.00269941,-0.000793914,-0.119442,-25.6117,1.83778,25.9076,0.495907,2.97356,-0.0301054,-0.948969,-0.142838,-1.32923,0.255714,-0.00552034,-0.164443,-0.0588105,0.301134,-0.292559,-0.5991,-0.147528,-0.215472,-0.057883,
0.0112118,-0.199747,-0.335279,-1.6593,-0.093196,-0.092665,-0.383769,-0.00011307,-0.000366894,-0.000162361,0.000146771,-0.000415569,-9.0292e-05,5.36138e-06,0,0,0,0,0,0,0,0.0112412,-0.199698,-0.335249,-1.6596,-0.093216,1.47869,0.401623,-0.000248766,0.00194241,0.00033812,-0.00159285,-0.00508399,0.00269941,-0.000793914,-0.119442,-25.6117,1.83778,25.9076,0.495907,2.97356,-0.0301054,-1.04606,-0.0587271,-1.1931,0.166299,-0.128144,-0.14503,-0.0381838,0.211441,-0.262239,-0.537133,-0.151531,-0.217054,-0.0571089,
0.0112114,-0.199748,-0.33528,-1.6593,-0.0931976,-0.0926654,-0.383769,-9.80933e-05,-0.00035578,-0.000146774,0.00014066,-0.000401017,-0.0001034,4.83938e-06,0,0,0,0,0,0,0,0.0112412,-0.199698,-0.335249,-1.6596,-0.093216,1.47869,0.401623,-0.000248766,0.00194241,0.00033812,-0.00159285,-0.00508399,0.00269941,-0.000793914,-0.119442,-25.6117,1.83778,25.9076,0.495907,2.97356,-0.0301054,-1.04606,-0.0587271,-1.1931,0.166299,-0.128144,-0.14503,-0.0381838,0.211441,-0.262239,-0.537133,-0.151531,-0.217054,-0.0571089,
0.0112111,-0.199749,-0.33528,-1.65929,-0.0931991,-0.0926659,-0.383769,-8.53442e-05,-0.000346239,-0.000133678,0.000135096,-0.000384759,-0.000116596,4.41233e-06,0,0,0,0,0,0,0,0.0112412,-0.199698,-0.335249,-1.6596,-0.093216,1.47869,0.401623,-0.000248766,0.00194241,0.00033812,-0.00159285,-0.00508399,0.00269941,-0.000793914,-0.119442,-25.6117,1.83778,25.9076,0.495907,2.97356,-0.0301054,-1.58374,0.000604528,-1.36434,0.135229,-0.449685,-0.216174,-0.0970218,0.068279,-0.339769,-0.562762,-0.175936,-0.246452,-0.0544992,
0.0112108,-0.199751,-0.335281,-1.65929,-0.0932006,-0.0926664,-0.383769,-7.44257e-05,-0.000338069,-0.000122593,0.00013006,-0.00036791,-0.000129702,4.0597e-06,0,0,0,0,0,0,0,0.0112412,-0.199698,-0.335249,-1.6596,-0.093216,1.47869,0.401623,-0.000248766,0.00194241,0.00033812,-0.00159285,-0.00508399,0.00269941,-0.000793914,-0.119442,-25.6117,1.83778,25.9076,0.495907,2.97356,-0.0301054,-1.58374,0.000604528,-1.36434,0.135229,-0.449685,-0.216174,-0.0970218,0.068279,-0.339769,-0.562762,-0.175936,-0.246452,-0.0544992,
0.0112105,-0.199752,-0.335281,-1.65929,-0.093202,-0.092667,-0.383769,-6.50267e-05,-0.000331085,-0.000113149,0.00012552,-0.000351195,-0.000142559,3.76604e-06,0,0,0,0,0,0,0,0.0112331,-0.199678,-0.335255,-1.65956,-0.0932107,1.47869,0.401628,0.00112689,-0.000753723,-0.000267092,-0.00408393,0.000525449,0.000123135,0.000613823,-0.0440639,-25.7109,1.91316,26.2805,0.410763,3.05321,-0.0703886,-1.52863,0.07754,-1.1241,0.0632063,-0.497201,-0.172788,-0.0523022,0.00282796,-0.289085,-0.48455,-0.151947,-0.251868,-0.0537047,
0.0112103,-0.199753,-0.335281,-1.65929,-0.0932033,-0.0926676,-0.383769,-5.69008e-05,-0.000325126,-0.00010506,0.000121443,-0.000335071,-0.000155037,3.51966e-06,0,0,0,0,0,0,0,0.0112331,-0.199678,-0.335255,-1.65956,-0.0932107,1.47869,0.401628,0.00112689,-0.000753723,-0.000267092,-0.00408393,0.000525449,0.000123135,0.000613823,-0.0440639,-25.7109,1.91316,26.2805,0.410763,3.05321,-0.0703886,-1.67582,0.095897,-0.80725,0.0122906,-0.724717,-0.191933,-0.0675474,-0.175476,-0.301848,-0.354454,-0.143389,-0.258725,-0.0530231,
0.0112101,-0.199755,-0.335282,-1.65929,-0.0932046,-0.0926682,-0.383769,-4.98501e-05,-0.000320052,-9.80994e-05,0.000117791,-0.000319812,-0.000167033,3.31158e-06,0,0,0,0,0,0,0,0.0112331,-0.199678,-0.335255,-1.65956,-0.0932107,1.47869,0.401628,0.00112689,-0.000753723,-0.000267092,-0.00408393,0.000525449,0.000123135,0.000613823,-0.0440639,-25.7109,1.91316,26.2805,0.410763,3.05321,-0.0703886,-1.67582,0.095897,-0.80725,0.0122906,-0.724717,-0.191933,-0.0675474,-0.175476,-0.301848,-0.354454,-0.143389,-0.258725,-0.0530231,
0.0112099,-0.199756,-0.335282,-1.65929,-0.0932058,-0.092669,-0.383769,-4.3714e-05,-0.000315738,-9.20885e-05,0.000114526,-0.000305565,-0.000178469,3.13481e-06,0,0,0,0,0,0,0,0.0112331,-0.199678,-0.335255,-1.65956,-0.0932107,1.47869,0.401628,0.00112689,-0.000753723,-0.000267092,-0.00408393,0.000525449,0.000123135,0.000613823,-0.0440639,-25.7109,1.91316,26.2805,0.410763,3.05321,-0.0703886,-1.45842,0.155344,-1.13403,0.0232157,-0.421125,-0.125409,0.00108788,0.0552435,-0.245043,-0.519007,-0.139896,-0.274759,-0.053075,
0.0112098,-0.199757,-0.335283,-1.65929,-0.093207,-0.0926697,-0.383769,-3.83606e-05,-0.00031208,-8.68822e-05,0.000111612,-0.000292396,-0.000189295,2.9839e-06,0,0,0,0,0,0,0,0.0112331,-0.199678,-0.335255,-1.65956,-0.0932107,1.47869,0.401628,0.00112689,-0.000753723,-0.000267092,-0.00408393,0.000525449,0.000123135,0.000613823,-0.0440639,-25.7109,1.91316,26.2805,0.410763,3.05321,-0.0703886,-1.45842,0.155344,-1.13403,0.0232157,-0.421125,-0.125409,0.00108788,0.0552435,-0.245043,-0.519007,-0.139896,-0.274759,-0.053075,
0.0112096,-0.199758,-0.335283,-1.65929,-0.0932081,-0.0926705,-0.383769,-3.36804e-05,-0.000308984,-8.23621e-05,0.000109016,-0.000280312,-0.000199479,2.8545e-06,0,0,0,0,0,0,0,0.0112331,-0.199678,-0.335255,-1.65956,-0.0932107,1.47869,0.401628,0.00112689,-0.000753723,-0.000267092,-0.00408393,0.000525449,0.000123135,0.000613823,-0.0440639,-25.7109,1.91316,26.2805,0.410763,3.05321,-0.0703886,-1.86143,0.26985,-0.809181,-0.124099,-0.856226,-0.146915,-0.0203471,-0.244442,-0.243923,-0.341826,-0.147957,-0.269751,-0.0530735,
0.0112095,-0.19976,-0.335283,-1.65929,-0.0932092,-0.0926714,-0.383769,-2.95817e-05,-0.000306372,-7.84307e-05,0.000106706,-0.000269288,-0.000209005,2.74315e-06,0,0,0,0,0,0,0,0.0112478,-0.199686,-0.335246,-1.6595,-0.0931885,1.47871,0.401626,-0.000646647,-0.000452783,0.00107585,-0.000181114,0.00408034,-0.00282223,-0.000170296,-0.222592,-25.5879,1.78621,25.9314,0.251461,2.97356,-0.0566557,-1.91818,-0.0324946,-0.677832,0.0622979,-0.92117,-0.296151,-0.181414,-0.290662,-0.397035,-0.305286,-0.184835,-0.286929,-0.0529161,
0.0112094,-0.199761,-0.335284,-1.65929,-0.0932103,-0.0926722,-0.383769,-2.59873e-05,-0.000304177,-7.50068e-05,0.000104653,-0.000259274,-0.000217873,2.64701e-06,0,0,0,0,0,0,0,0.0112478,-0.199686,-0.335246,-1.6595,-0.0931885,1.47871,0.401626,-0.000646647,-0.000452783,0.00107585,-0.000181114,0.00408034,-0.00282223,-0.000170296,-0.222592,-25.5879,1.78621,25.9314,0.251461,2.97356,-0.0566557,-1.91818,-0.0324946,-0.677832,0.0622979,-0.92117,-0.296151,-0.181414,-0.290662,-0.397035,-0.305286,-0.184835,-0.286929,-0.0529161,
0.0112093,-0.199762,-0.335284,-1.65929,-0.0932113,-0.0926731,-0.383769,-2.28313e-05,-0.000302341,-7.20219e-05,0.00010283,-0.000250208,-0.000226094,2.5638e-06,0,0,0,0,0,0,0,0.0112478,-0.199686,-0.335246,-1.6595,-0.0931885,1.47871,0.401626,-0.000646647,-0.000452783,0.00107585,-0.000181114,0.00408034,-0.00282223,-0.000170296,-0.222592,-25.5879,1.78621,25.9314,0.251461,2.97356,-0.0566557,-1.48524,0.0182274,-0.899434,0.0892877,-0.499263,-0.196422,-0.0965089,-0.0124076,-0.296048,-0.454873,-0.150658,-0.300326,-0.053974,
0.0112092,-0.199763,-0.335284,-1.65929,-0.0932122,-0.0926741,-0.383769,-2.00577e-05,-0.000300814,-6.94183e-05,0.000101214,-0.000242022,-0.000233687,2.4916e-06,0,0,0,0,0,0,0,0.0112478,-0.199686,-0.335246,-1.6595,-0.0931885,1.47871,0.401626,-0.000646647,-0.000452783,0.00107585,-0.000181114,0.00408034,-0.00282223,-0.000170296,-0.222592,-25.5879,1.78621,25.9314,0.251461,2.97356,-0.0566557,-1.48524,0.0182274,-0.899434,0.0892877,-0.499263,-0.196422,-0.0965089,-0.0124076,-0.296048,-0.454873,-0.150658,-0.300326,-0.053974,
0.0112092,-0.199764,-0.335284,-1.65929,-0.0932132,-0.092675,-0.383769,-1.76179e-05,-0.000299552,-6.71467e-05,9.97821e-05,-0.000234647,-0.000240676,2.42884e-06,0,0,0,0,0,0,0,0.0112478,-0.199686,-0.335246,-1.6595,-0.0931885,1.47871,0.401626,-0.000646647,-0.000452783,0.00107585,-0.000181114,0.00408034,-0.00282223,-0.000170296,-0.222592,-25.5879,1.78621,25.9314,0.251461,2.97356,-0.0566557,-1.52242,-0.00430244,-0.783912,0.0905941,-0.582564,-0.214722,-0.112766,-0.0834133,-0.314329,-0.396279,-0.146508,-0.289536,-0.0521278,
0.0112091,-0.199766,-0.335285,-1.65929,-0.0932141,-0.092676,-0.383769,-1.54705e-05,-0.000298521,-6.51647e-05,9.85156e-05,-0.000228013,-0.00024709,2.37419e-06,0,0,0,0,0,0,0,0.0112359,-0.199712,-0.335242,-1.65947,-0.093204,1.47871,0.401628,-0.00133167,-0.00434574,-0.00144166,0.00276464,0.00492536,-0.0023812,0.000956636,0.00751081,-25.2626,1.91316,25.6577,0.386044,2.9937,-0.0703886,-1.52242,-0.00430244,-0.783912,0.0905941,-0.582564,-0.214722,-0.112766,-0.0834133,-0.314329,-0.396279,-0.146508,-0.289536,-0.0521278,
0.0112091,-0.199767,-0.335285,-1.65929,-0.093215,-0.092677,-0.383769,-1.35791e-05,-0.000297689,-6.3436e-05,9.73966e-05,-0.000222052,-0.000252963,2.32653e-06,0,0,0,0,0,0,0,0.0112359,-0.199712,-0.335242,-1.65947,-0.093204,1.47871,0.401628,-0.00133167,-0.00434574,-0.00144166,0.00276464,0.00492536,-0.0023812,0.000956636,0.00751081,-25.2626,1.91316,25.6577,0.386044,2.9937,-0.0703886,-1.5237,-0.157439,-0.70711,0.173615,-0.608809,-0.28325,-0.170864,-0.110313,-0.396593,-0.363954,-0.173713,-0.284913,-0.0513799,
0.0111031,-0.199675,-0.335357,-1.65919,-0.091681,-0.0935798,-0.383768,-0.0119277,0.00312361,-0.0109031,0.00961929,0.171973,-0.10376,0.000391486,0,0,0,0,0,0,0,0.0112359,-0.199712,-0.335242,-1.65947,-0.093204,1.47871,0.401628,-0.00133167,-0.00434574,-0.00144166,0.00276464,0.00492536,-0.0023812,0.000956636,0.00751081,-25.2626,1.91316,25.6577,0.386044,2.9937,-0.0703886,-1.5237,-0.157439,-0.70711,0.173615,-0.608809,-0.28325,-0.170864,-0.110313,-0.396593,-0.363954,-0.173713,-0.284913,-0.0513799,
0.0111075,-0.199703,-0.335343,-1.65933,-0.0916869,-0.0929989,-0.383769,-0.0118579,0.000471634,-0.0107213,0.0108214,0.170914,-0.102999,0.0003823,0,0,0,0,0,0,0,0.0112359,-0.199712,-0.335242,-1.65947,-0.093204,1.47871,0.401628,-0.00133167,-0.00434574,-0.00144166,0.00276464,0.00492536,-0.0023812,0.000956636,0.00751081,-25.2626,1.91316,25.6577,0.386044,2.9937,-0.0703886,-1.33979,-0.0829118,-0.958811,0.166101,-0.364379,-0.216252,-0.104935,0.0727752,-0.33389,-0.492391,-0.163494,-0.297104,-0.051661,
0.0110608,-0.199704,-0.335388,-1.6593,-0.0908806,-0.09349,-0.383767,-0.0116567,-0.000451061,-0.0112454,0.00911785,0.201565,-0.122776,0.000503943,0,0,0,0,0,0,0,0.0112359,-0.199712,-0.335242,-1.65947,-0.093204,1.47871,0.401628,-0.00133167,-0.00434574,-0.00144166,0.00276464,0.00492536,-0.0023812,0.000956636,0.00751081,-25.2626,1.91316,25.6577,0.386044,2.9937,-0.0703886,-1.39483,-0.00787213,-0.893346,0.0968187,-0.441589,-0.190241,-0.0737622,0.0140399,-0.30379,-0.45046,-0.161385,-0.286881,-0.0528848,
0.0110169,-0.19971,-0.335432,-1.65927,-0.0899797,-0.0940463,-0.383764,-0.0109751,-0.00128673,-0.0110323,0.00750127,0.22523,-0.139072,0.000570004,0,0,0,0,0,0,0,0.0112299,-0.199714,-0.33524,-1.65943,-0.093228,1.47873,0.401626,-0.00337906,0.000661042,-0.00372853,0.00254232,-0.00433756,0.00123482,-0.000343297,0.00751081,-25.2864,1.86159,25.7568,0.782467,2.86736,-0.0566557,-1.39483,-0.00787213,-0.893346,0.0968187,-0.441589,-0.190241,-0.0737622,0.0140399,-0.30379,-0.45046,-0.161385,-0.286881,-0.0528848,
0.0109768,-0.199717,-0.335474,-1.65924,-0.0890051,-0.0946565,-0.383762,-0.0100255,-0.00194951,-0.0103703,0.00609663,0.243657,-0.152539,0.000602149,0,0,0,0,0,0,0,0.0112299,-0.199714,-0.33524,-1.65943,-0.093228,1.47873,0.401626,-0.00337906,0.000661042,-0.00372853,0.00254232,-0.00433756,0.00123482,-0.000343297,0.00751081,-25.2864,1.86159,25.7568,0.782467,2.86736,-0.0566557,-1.16014,-0.0637004,-0.857209,0.154184,-0.271838,-0.170136,-0.0494656,0.104939,-0.295456,-0.473098,-0.143489,-0.293334,-0.055392,
0.0109411,-0.199727,-0.335512,-1.65922,-0.0879727,-0.095311,-0.383759,-0.00894263,-0.00243366,-0.00945093,0.0049077,0.258104,-0.163636,0.000612771,0,0,0,0,0,0,0,0.0112299,-0.199714,-0.33524,-1.65943,-0.093228,1.47873,0.401626,-0.00337906,0.000661042,-0.00372853,0.00254232,-0.00433756,0.00123482,-0.000343297,0.00751081,-25.2864,1.86159,25.7568,0.782467,2.86736,-0.0566557,-1.16014,-0.0637004,-0.857209,0.154184,-0.271838,-0.170136,-0.0494656,0.104939,-0.295456,-0.473098,-0.143489,-0.293334,-0.055392,
0.0109098,-0.199738,-0.335545,-1.65921,-0.0868947,-0.096002,-0.383757,-0.00781236,-0.00275908,-0.00840084,0.00390689,0.269493,-0.172737,0.000609777,0,0,0,0,0,0,0,0.0112299,-0.199714,-0.33524,-1.65943,-0.093228,1.47873,0.401626,-0.00337906,0.000661042,-0.00372853,0.00254232,-0.00433756,0.00123482,-0.000343297,0.00751081,-25.2864,1.86159,25.7568,0.782467,2.86736,-0.0566557,-1.17113,-0.314735,-0.507356,0.351451,-0.433596,-0.2843,-0.156004,-0.055014,-0.435926,-0.336964,-0.0873754,-0.288007,-0.0550689,
0.0108831,-0.19975,-0.335574,-1.65919,-0.0857807,-0.0967226,-0.383755,-0.00668938,-0.00295205,-0.00730309,0.00306291,0.278501,-0.180152,0.000597977,0,0,0,0,0,0,0,0.0112299,-0.199714,-0.33524,-1.65943,-0.093228,1.47873,0.401626,-0.00337906,0.000661042,-0.00372853,0.00254232,-0.00433756,0.00123482,-0.000343297,0.00751081,-25.2864,1.86159,25.7568,0.782467,2.86736,-0.0566557,-1.17034,-0.4378,-0.305567,0.458599,-0.526957,-0.337749,-0.199057,-0.150103,-0.509896,-0.257103,-0.0442571,-0.282894,-0.0550374,
0.0108606,-0.199762,-0.335599,-1.65919,-0.0846382,-0.0974672,-0.383752,-0.00560744,-0.0030385,-0.006211,0.0023483,0.285638,-0.186149,0.000580973,0,0,0,0,0,0,0,0.0112299,-0.199714,-0.33524,-1.65943,-0.093228,1.47873,0.401626,-0.00337906,0.000661042,-0.00372853,0.00254232,-0.00433756,0.00123482,-0.000343297,0.00751081,-25.2864,1.86159,25.7568,0.782467,2.86736,-0.0566557,-1.17034,-0.4378,-0.305567,0.458599,-0.526957,-0.337749,-0.199057,-0.150103,-0.509896,-0.257103,-0.0442571,-0.282894,-0.0550374,
0.0108423,-0.199774,-0.33562,-1.65918,-0.083473,-0.098231,-0.38375,-0.00458631,-0.00304169,-0.00515771,0.00174062,0.291286,-0.190955,0.000560995,0,0,0,0,0,0,0,0.0111825,-0.199679,-0.3353,-1.6594,-0.0913906,1.47869,0.401623,0.000844498,0.000715841,-0.00199671,-0.000561699,0.0819682,0.000820455,-0.000418813,0.360599,-25.7109,2.28609,26.1575,1.31988,2.90032,-0.0301054,-0.983543,-0.510882,-0.270187,0.581356,-0.410525,-0.336281,-0.193959,-0.0972316,-0.531089,-0.274805,0.0273183,-0.290663,-0.0547299,
0.0108277,-0.199786,-0.335637,-1.65917,-0.0822901,-0.09901,-0.383748,-0.00363645,-0.00298158,-0.00416272,0.00122192,0.295736,-0.194764,0.000539654,0,0,0,0,0,0,0,0.0111825,-0.199679,-0.3353,-1.6594,-0.0913906,1.47869,0.401623,0.000844498,0.000715841,-0.00199671,-0.000561699,0.0819682,0.000820455,-0.000418813,0.360599,-25.7109,2.28609,26.1575,1.31988,2.90032,-0.0301054,-0.983543,-0.510882,-0.270187,0.581356,-0.410525,-0.336281,-0.193959,-0.0972316,-0.531089,-0.274805,0.0273183,-0.290663,-0.0547299,
0.0108167,-0.199798,-0.33565,-1.65917,-0.0810932,-0.099801,-0.383746,-0.00276219,-0.00287485,-0.00323635,0.000777869,0.299215,-0.197741,0.00051777,0,0,0,0,0,0,0,0.0111825,-0.199679,-0.3353,-1.6594,-0.0913906,1.47869,0.401623,0.000844498,0.000715841,-0.00199671,-0.000561699,0.0819682,0.000820455,-0.000418813,0.360599,-25.7109,2.28609,26.1575,1.31988,2.90032,-0.0301054,-1.01527,-0.334151,-0.154122,0.506418,-0.500928,-0.261449,-0.114747,-0.177191,-0.458024,-0.229106,0.110975,-0.294181,-0.0544442,
0.0108088,-0.199809,-0.335659,-1.65917,-0.0798856,-0.100601,-0.383744,-0.00196383,-0.0027352,-0.0023829,0.000396926,0.301896,-0.200022,0.000496316,0,0,0,0,0,0,0,0.0111825,-0.199679,-0.3353,-1.6594,-0.0913906,1.47869,0.401623,0.000844498,0.000715841,-0.00199671,-0.000561699,0.0819682,0.000820455,-0.000418813,0.360599,-25.7109,2.28609,26.1575,1.31988,2.90032,-0.0301054,-1.01527,-0.334151,-0.154122,0.506418,-0.500928,-0.261449,-0.114747,-0.177191,-0.458024,-0.229106,0.110975,-0.294181,-0.0544442,
0.0108039,-0.199819,-0.335665,-1.65917,-0.0786699,-0.101408,-0.383742,-0.00123919,-0.00257368,-0.00160274,6.97492e-05,0.303918,-0.201725,0.000475485,0,0,0,0,0,0,0,0.0111825,-0.199679,-0.3353,-1.6594,-0.0913906,1.47869,0.401623,0.000844498,0.000715841,-0.00199671,-0.000561699,0.0819682,0.000820455,-0.000418813,0.360599,-25.7109,2.28609,26.1575,1.31988,2.90032,-0.0301054,-0.920201,-0.0855562,-0.321787,0.436419,-0.358282,-0.131451,0.0185537,-0.0665487,-0.336065,-0.338649,0.203102,-0.331954,-0.0544783,
0.0108015,-0.199829,-0.335669,-1.65917,-0.0774484,-0.10222,-0.38374,-0.000584581,-0.00239904,-0.000893764,-0.000211331,0.305389,-0.202947,0.000455494,0,0,0,0,0,0,0,0.0111638,-0.199698,-0.335323,-1.65938,-0.0867902,1.47858,0.401628,-0.000672259,-0.00116746,-0.000218609,0.00123242,0.121896,-0.00997262,0.000802269,0.487552,-25.461,2.31386,25.8322,0.97839,2.93328,-0.0703886,-0.96133,0.0929167,-0.0846951,0.347404,-0.481904,-0.0600987,0.0869028,-0.175967,-0.257491,-0.265731,0.287253,-0.35474,-0.0532869,
0.0108016,-0.199837,-0.33567,-1.65917,-0.0762228,-0.103035,-0.383738,4.54176e-06,-0.00221817,-0.00025239,-0.000452658,0.306398,-0.203768,0.000436679,0,0,0,0,0,0,0,0.0111638,-0.199698,-0.335323,-1.65938,-0.0867902,1.47858,0.401628,-0.000672259,-0.00116746,-0.000218609,0.00123242,0.121896,-0.00997262,0.000802269,0.487552,-25.461,2.31386,25.8322,0.97839,2.93328,-0.0703886,-0.96133,0.0929167,-0.0846951,0.347404,-0.481904,-0.0600987,0.0869028,-0.175967,-0.257491,-0.265731,0.287253,-0.35474,-0.0532869,
0.0108037,-0.199846,-0.335669,-1.65917,-0.0749947,-0.103852,-0.383737,0.000533082,-0.00203634,0.000325773,-0.000659534,0.307016,-0.204256,0.000419053,0,0,0,0,0,0,0,0.0111638,-0.199698,-0.335323,-1.65938,-0.0867902,1.47858,0.401628,-0.000672259,-0.00116746,-0.000218609,0.00123242,0.121896,-0.00997262,0.000802269,0.487552,-25.461,2.31386,25.8322,0.97839,2.93328,-0.0703886,-0.947558,0.236469,0.00357084,0.288331,-0.503811,0.00586739,0.152011,-0.2023,-0.189753,-0.253475,0.35091,-0.375409,-0.0519722,
0.0108077,-0.199853,-0.335665,-1.65918,-0.0737655,-0.10467,-0.383735,0.00100603,-0.00185751,0.000845484,-0.000836428,0.307302,-0.204468,0.000402504,0,0,0,0,0,0,0,0.0111638,-0.199698,-0.335323,-1.65938,-0.0867902,1.47858,0.401628,-0.000672259,-0.00116746,-0.000218609,0.00123242,0.121896,-0.00997262,0.000802269,0.487552,-25.461,2.31386,25.8322,0.97839,2.93328,-0.0703886,-0.947558,0.236469,0.00357084,0.288331,-0.503811,0.00586739,0.152011,-0.2023,-0.189753,-0.253475,0.35091,-0.375409,-0.0519722,
0.0108134,-0.19986,-0.33566,-1.65918,-0.0725363,-0.105488,-0.383733,0.00142828,-0.00168462,0.0013116,-0.00098714,0.307304,-0.20445,0.000387122,0,0,0,0,0,0,0,0.0111638,-0.199698,-0.335323,-1.65938,-0.0867902,1.47858,0.401628,-0.000672259,-0.00116746,-0.000218609,0.00123242,0.121896,-0.00997262,0.000802269,0.487552,-25.461,2.31386,25.8322,0.97839,2.93328,-0.0703886,-0.649637,0.281849,-0.36204,0.379015,-0.096887,0.0782083,0.213724,0.104992,-0.131424,-0.487192,0.407606,-0.436519,-0.0517039,
0.0108206,-0.199866,-0.335653,-1.65919,-0.0713081,-0.106305,-0.383732,0.00180453,-0.00151971,0.00172886,-0.00111491,0.307062,-0.204241,0.000372756,0,0,0,0,0,0,0,0.0111638,-0.199698,-0.335323,-1.65938,-0.0867902,1.47858,0.401628,-0.000672259,-0.00116746,-0.000218609,0.00123242,0.121896,-0.00997262,0.000802269,0.487552,-25.461,2.31386,25.8322,0.97839,2.93328,-0.0703886,-1.20513,0.25757,0.0212514,0.362771,-0.661794,-0.0354082,0.0884368,-0.273902,-0.227275,-0.290184,0.426702,-0.451624,-0.0506389,
0.0108292,-0.199871,-0.335645,-1.65919,-0.0700816,-0.10712,-0.383731,0.00213915,-0.00136418,0.00210179,-0.00122255,0.30661,-0.203874,0.000359449,0,0,0,0,0,0,0,0.0112054,-0.199702,-0.335285,-1.65936,-0.0829894,1.47841,0.401626,-0.000262116,0.000284145,0.000129254,0.00268384,0.129796,-0.00776775,-0.000185784,0.0313145,-25.4094,1.93696,25.733,1.01501,2.80785,-0.0566557,-1.20513,0.25757,0.0212514,0.362771,-0.661794,-0.0354082,0.0884368,-0.273902,-0.227275,-0.290184,0.426702,-0.451624,-0.0506389,
0.0108389,-0.199876,-0.335635,-1.6592,-0.0688577,-0.107933,-0.383729,0.00243623,-0.00121888,0.00243464,-0.00131245,0.305977,-0.203374,0.000347031,0,0,0,0,0,0,0,0.0112054,-0.199702,-0.335285,-1.65936,-0.0829894,1.47841,0.401626,-0.000262116,0.000284145,0.000129254,0.00268384,0.129796,-0.00776775,-0.000185784,0.0313145,-25.4094,1.93696,25.733,1.01501,2.80785,-0.0566557,-1.07308,0.19566,0.00373401,0.420991,-0.52976,-0.0408825,0.0687846,-0.185316,-0.228237,-0.337525,0.428778,-0.475388,-0.0512334,
0.0108497,-0.199881,-0.335624,-1.6592,-0.067637,-0.108745,-0.383728,0.00269951,-0.00108426,0.00273137,-0.00138674,0.305187,-0.202765,0.00033554,0,0,0,0,0,0,0,0.0112054,-0.199702,-0.335285,-1.65936,-0.0829894,1.47841,0.401626,-0.000262116,0.000284145,0.000129254,0.00268384,0.129796,-0.00776775,-0.000185784,0.0313145,-25.4094,1.93696,25.733,1.01501,2.80785,-0.0566557,-1.07308,0.19566,0.00373401,0.420991,-0.52976,-0.0408825,0.0687846,-0.185316,-0.228237,-0.337525,0.428778,-0.475388,-0.0512334,
0.0108615,-0.199884,-0.335612,-1.65921,-0.0664199,-0.109553,-0.383727,0.00293244,-0.000960454,0.00299558,-0.00144723,0.30426,-0.202064,0.000324844,0,0,0,0,0,0,0,0.0112054,-0.199702,-0.335285,-1.65936,-0.0829894,1.47841,0.401626,-0.000262116,0.000284145,0.000129254,0.00268384,0.129796,-0.00776775,-0.000185784,0.0313145,-25.4094,1.93696,25.733,1.01501,2.80785,-0.0566557,-0.867754,0.0245866,-0.0330348,0.568859,-0.330331,-0.0837971,0.0101093,-0.0542127,-0.275294,-0.405722,0.43088,-0.502971,-0.0504647,
0.010874,-0.199888,-0.335599,-1.65921,-0.0652071,-0.110358,-0.383725,0.00313813,-0.000847346,0.0032306,-0.00149553,0.303214,-0.201287,0.000314865,0,0,0,0,0,0,0,0.0112054,-0.199702,-0.335285,-1.65936,-0.0829894,1.47841,0.401626,-0.000262116,0.000284145,0.000129254,0.00268384,0.129796,-0.00776775,-0.000185784,0.0313145,-25.4094,1.93696,25.733,1.01501,2.80785,-0.0566557,-0.966618,-0.043836,0.000355806,0.585303,-0.398315,-0.134424,-0.0493828,-0.0886075,-0.316077,-0.391735,0.394771,-0.512877,-0.0494625,
0.0108873,-0.199891,-0.335585,-1.65922,-0.0639988,-0.11116,-0.383724,0.00331941,-0.000744662,0.00343943,-0.00153305,0.302065,-0.200447,0.000305529,0,0,0,0,0,0,0,0.0112375,-0.199699,-0.335252,-1.65936,-0.0787611,1.47834,0.401624,-0.000457599,-0.00040771,0.00027357,0.00110899,0.142413,-0.000202872,-0.000708827,-0.198788,-25.461,1.78621,25.856,1.1734,2.66869,-0.0365141,-0.966618,-0.043836,0.000355806,0.585303,-0.398315,-0.134424,-0.0493828,-0.0886075,-0.316077,-0.391735,0.394771,-0.512877,-0.0494625,
0.0109012,-0.199893,-0.335571,-1.65923,-0.0627955,-0.111958,-0.383723,0.00347883,-0.000651998,0.00362479,-0.00156102,0.300825,-0.199554,0.000296824,0,0,0,0,0,0,0,0.0112375,-0.199699,-0.335252,-1.65936,-0.0787611,1.47834,0.401624,-0.000457599,-0.00040771,0.00027357,0.00110899,0.142413,-0.000202872,-0.000708827,-0.198788,-25.461,1.78621,25.856,1.1734,2.66869,-0.0365141,-0.848639,-0.0318751,-0.154403,0.600524,-0.220663,-0.108537,-0.037666,0.0505281,-0.282837,-0.491897,0.389568,-0.540509,-0.0504231,
0.0109364,-0.199602,-0.335457,-1.65901,-0.0886194,-0.0958877,-0.383738,-0.0270388,0.00579061,-0.0226271,0.0363272,0.522917,-0.425663,0.00333426,0,0,0,0,0,0,0,0.0112375,-0.199699,-0.335252,-1.65936,-0.0787611,1.47834,0.401624,-0.000457599,-0.00040771,0.00027357,0.00110899,0.142413,-0.000202872,-0.000708827,-0.198788,-25.461,1.78621,25.856,1.1734,2.66869,-0.0365141,-0.848639,-0.0318751,-0.154403,0.600524,-0.220663,-0.108537,-0.037666,0.0505281,-0.282837,-0.491897,0.389568,-0.540509,-0.0504231,
0.0110027,-0.19957,-0.335414,-1.65895,-0.0731451,-0.0960432,-0.383745,-0.021051,0.00739598,-0.0171515,0.0325166,0.589885,-0.403246,0.00312186,0,0,0,0,0,0,0,0.0112375,-0.199699,-0.335252,-1.65936,-0.0787611,1.47834,0.401624,-0.000457599,-0.00040771,0.00027357,0.00110899,0.142413,-0.000202872,-0.000708827,-0.198788,-25.461,1.78621,25.856,1.1734,2.66869,-0.0365141,-1.05516,-0.0639859,0.0157542,0.581801,-0.431817,-0.160724,-0.0990438,-0.0909013,-0.320085,-0.408886,0.369574,-0.546057,-0.0506159,
0.0109249,-0.199559,-0.335482,-1.65884,-0.0704383,-0.0979497,-0.383732,-0.0194496,0.00271097,-0.0170403,0.026122,0.676701,-0.476623,0.00340108,0,0,0,0,0,0,0,0.0112375,-0.199699,-0.335252,-1.65936,-0.0787611,1.47834,0.401624,-0.000457599,-0.00040771,0.00027357,0.00110899,0.142413,-0.000202872,-0.000708827,-0.198788,-25.461,1.78621,25.856,1.1734,2.66869,-0.0365141,-1.05516,-0.0639859,0.0157542,0.581801,-0.431817,-0.160724,-0.0990438,-0.0909013,-0.320085,-0.408886,0.369574,-0.546057,-0.0506159,
0.0108575,-0.199563,-0.335544,-1.65876,-0.0674562,-0.100088,-0.383717,-0.0168492,-0.00113851,-0.0154132,0.0199687,0.74553,-0.534657,0.00354658,0,0,0,0,0,0,0,0.0112375,-0.199699,-0.335252,-1.65936,-0.0787611,1.47834,0.401624,-0.000457599,-0.00040771,0.00027357,0.00110899,0.142413,-0.000202872,-0.000708827,-0.198788,-25.461,1.78621,25.856,1.1734,2.66869,-0.0365141,-0.927568,-0.0160273,0.186258,0.501433,-0.403864,-0.114771,-0.0557064,-0.104576,-0.260002,-0.346989,0.357518,-0.531991,-0.0517286,
0.0108026,-0.199579,-0.335595,-1.6587,-0.0642536,-0.102411,-0.383703,-0.0137359,-0.00400545,-0.012897,0.0145735,0.800655,-0.580609,0.00361326,0,0,0,0,0,0,0,0.0112293,-0.199676,-0.335254,-1.65936,-0.0738654,1.4781,0.401627,-0.000338318,0.00330807,-0.00239495,0.00182276,0.185123,-0.0244131,0.000903843,-0.171017,-25.7109,1.7624,26.3559,1.5094,2.4627,-0.0630644,-0.686862,-0.551583,0.418571,0.868338,-0.268397,-0.311114,-0.25098,-0.0514272,-0.490776,-0.322099,0.329112,-0.558984,-0.052122,
0.010761,-0.199603,-0.335635,-1.65867,-0.0608728,-0.104878,-0.383688,-0.0104063,-0.00598785,-0.00990147,0.0099837,0.845196,-0.616794,0.00362911,0,0,0,0,0,0,0,0.0112293,-0.199676,-0.335254,-1.65936,-0.0738654,1.4781,0.401627,-0.000338318,0.00330807,-0.00239495,0.00182276,0.185123,-0.0244131,0.000903843,-0.171017,-25.7109,1.7624,26.3559,1.5094,2.4627,-0.0630644,-0.686862,-0.551583,0.418571,0.868338,-0.268397,-0.311114,-0.25098,-0.0514272,-0.490776,-0.322099,0.329112,-0.558984,-0.052122,
0.0107328,-0.199632,-0.335662,-1.65864,-0.0573469,-0.107458,-0.383674,-0.00704546,-0.00724199,-0.00669542,0.00611557,0.881465,-0.645004,0.00361275,0,0,0,0,0,0,0,0.0112293,-0.199676,-0.335254,-1.65936,-0.0738654,1.4781,0.401627,-0.000338318,0.00330807,-0.00239495,0.00182276,0.185123,-0.0244131,0.000903843,-0.171017,-25.7109,1.7624,26.3559,1.5094,2.4627,-0.0630644,-0.597014,-1.14233,1.02586,1.23433,-0.422522,-0.555969,-0.481218,-0.238281,-0.776366,-0.110532,0.320811,-0.557141,-0.0530744,
0.0107177,-0.199664,-0.335676,-1.65863,-0.0537021,-0.110125,-0.38366,-0.00376917,-0.00792197,-0.00345371,0.00286209,0.911204,-0.666682,0.00357409,0,0,0,0,0,0,0,0.0112293,-0.199676,-0.335254,-1.65936,-0.0738654,1.4781,0.401627,-0.000338318,0.00330807,-0.00239495,0.00182276,0.185123,-0.0244131,0.000903843,-0.171017,-25.7109,1.7624,26.3559,1.5094,2.4627,-0.0630644,-0.597014,-1.14233,1.02586,1.23433,-0.422522,-0.555969,-0.481218,-0.238281,-0.776366,-0.110532,0.320811,-0.557141,-0.0530744,
0.0107151,-0.199697,-0.335677,-1.65863,-0.0499592,-0.112857,-0.383646,-0.000647463,-0.00816217,-0.000287784,0.000124178,0.935732,-0.68301,0.00352199,0,0,0,0,0,0,0,0.0112293,-0.199676,-0.335254,-1.65936,-0.0738654,1.4781,0.401627,-0.000338318,0.00330807,-0.00239495,0.00182276,0.185123,-0.0244131,0.000903843,-0.171017,-25.7109,1.7624,26.3559,1.5094,2.4627,-0.0630644,-0.223346,-1.04678,1.10091,1.28431,-0.113404,-0.437768,-0.340057,-0.0560307,-0.696441,-0.214243,0.432691,-0.643758,-0.0544868,
0.0107242,-0.199729,-0.335666,-1.65864,-0.0461349,-0.115637,-0.383632,0.00227981,-0.00807409,0.00273398,-0.00218218,0.956065,-0.694959,0.00346072,0,0,0,0,0,0,0,0.0110332,-0.199664,-0.335432,-1.65921,-0.0637046,1.47641,0.401623,-0.0121285,0.000260226,-0.00856042,0.00516495,0.415947,-0.0854271,-0.00079912,0.919986,-25.8101,2.5638,25.9552,1.90673,2.04522,-0.0301054,-0.362776,-0.725564,1.40275,1.1218,-0.268472,-0.310545,-0.194722,-0.165235,-0.575855,-0.184411,0.537693,-0.747062,-0.0545978,
0.0107442,-0.19976,-0.335643,-1.65865,-0.042243,-0.11845,-0.383618,0.00499297,-0.00774796,0.0055723,-0.00412652,0.972988,-0.703329,0.00339413,0,0,0,0,0,0,0,0.0110332,-0.199664,-0.335432,-1.65921,-0.0637046,1.47641,0.401623,-0.0121285,0.000260226,-0.00856042,0.00516495,0.415947,-0.0854271,-0.00079912,0.919986,-25.8101,2.5638,25.9552,1.90673,2.04522,-0.0301054,-0.362776,-0.725564,1.40275,1.1218,-0.268472,-0.310545,-0.194722,-0.165235,-0.575855,-0.184411,0.537693,-0.747062,-0.0545978,
0.0107741,-0.199789,-0.335611,-1.65868,-0.0382945,-0.121285,-0.383605,0.00748558,-0.0072555,0.00820756,-0.00576574,0.987113,-0.708776,0.00332514,0,0,0,0,0,0,0,0.0110332,-0.199664,-0.335432,-1.65921,-0.0637046,1.47641,0.401623,-0.0121285,0.000260226,-0.00856042,0.00516495,0.415947,-0.0854271,-0.00079912,0.919986,-25.8101,2.5638,25.9552,1.90673,2.04522,-0.0301054,-0.457381,-0.513559,1.55588,1.02482,-0.375908,-0.224436,-0.0941471,-0.24178,-0.498294,-0.164002,0.616265,-0.79743,-0.054613,
0.0108132,-0.199816,-0.335568,-1.65871,-0.0342988,-0.124132,-0.383592,0.0097599,-0.00665305,0.0106331,-0.00714675,0.998927,-0.71184,0.00325522,0,0,0,0,0,0,0,0.0110332,-0.199664,-0.335432,-1.65921,-0.0637046,1.47641,0.401623,-0.0121285,0.000260226,-0.00856042,0.00516495,0.415947,-0.0854271,-0.00079912,0.919986,-25.8101,2.5638,25.9552,1.90673,2.04522,-0.0301054,-0.457381,-0.513559,1.55588,1.02482,-0.375908,-0.224436,-0.0941471,-0.24178,-0.498294,-0.164002,0.616265,-0.79743,-0.054613,
0.0108605,-0.19984,-0.335517,-1.65874,-0.0302636,-0.126984,-0.383579,0.0118237,-0.00598422,0.0128506,-0.00830818,1.00881,-0.712962,0.00318571,0,0,0,0,0,0,0,0.0110332,-0.199664,-0.335432,-1.65921,-0.0637046,1.47641,0.401623,-0.0121285,0.000260226,-0.00856042,0.00516495,0.415947,-0.0854271,-0.00079912,0.919986,-25.8101,2.5638,25.9552,1.90673,2.04522,-0.0301054,-0.28166,-0.0961624,1.71953,0.829748,-0.277351,0.00221489,0.145858,-0.202001,-0.276434,-0.190535,0.757451,-0.868001,-0.0530678,
0.0109152,-0.199861,-0.335457,-1.65878,-0.0261952,-0.129834,-0.383567,0.0136879,-0.00528232,0.0148675,-0.00928203,1.01709,-0.712507,0.00311745,0,0,0,0,0,0,0,0.0110332,-0.199664,-0.335432,-1.65921,-0.0637046,1.47641,0.401623,-0.0121285,0.000260226,-0.00856042,0.00516495,0.415947,-0.0854271,-0.00079912,0.919986,-25.8101,2.5638,25.9552,1.90673,2.04522,-0.0301054,-0.28166,-0.0961624,1.71953,0.829748,-0.277351,0.00221489,0.145858,-0.202001,-0.276434,-0.190535,0.757451,-0.868001,-0.0530678,
0.0109767,-0.199879,-0.33539,-1.65882,-0.0220992,-0.132677,-0.383555,0.0153653,-0.00457234,0.0166939,-0.010095,1.02399,-0.710773,0.00305058,0,0,0,0,0,0,0,0.0105825,-0.199684,-0.335849,-1.65905,-0.0460639,1.47212,0.401628,-0.0160405,-0.00112708,-0.015014,0.00200029,0.593493,-0.16398,0.000965639,1.2215,-25.5602,2.86134,25.5069,2.17498,1.98571,-0.0703886,-0.351032,0.328342,1.75829,0.630726,-0.328782,0.188104,0.346596,-0.230681,-0.095327,-0.223116,0.882967,-0.928637,-0.0519719,
0.0110442,-0.199894,-0.335317,-1.65886,-0.0179803,-0.135509,-0.383543,0.0168696,-0.00387269,0.0183422,-0.0107694,1.02974,-0.708005,0.00298567,0,0,0,0,0,0,0,0.0105825,-0.199684,-0.335849,-1.65905,-0.0460639,1.47212,0.401628,-0.0160405,-0.00112708,-0.015014,0.00200029,0.593493,-0.16398,0.000965639,1.2215,-25.5602,2.86134,25.5069,2.17498,1.98571,-0.0703886,-0.518905,0.297516,1.52264,0.767843,-0.324559,0.151106,0.321815,-0.172539,-0.166965,-0.361483,0.938113,-0.999353,-0.05038,
0.011117,-0.199907,-0.335238,-1.6589,-0.0138423,-0.138327,-0.383531,0.0182144,-0.00319657,0.0198251,-0.0113239,1.0345,-0.704404,0.00292282,0,0,0,0,0,0,0,0.0105825,-0.199684,-0.335849,-1.65905,-0.0460639,1.47212,0.401628,-0.0160405,-0.00112708,-0.015014,0.00200029,0.593493,-0.16398,0.000965639,1.2215,-25.5602,2.86134,25.5069,2.17498,1.98571,-0.0703886,-0.518905,0.297516,1.52264,0.767843,-0.324559,0.151106,0.321815,-0.172539,-0.166965,-0.361483,0.938113,-0.999353,-0.05038,
0.0111947,-0.199917,-0.335153,-1.65895,-0.00968862,-0.141127,-0.383519,0.0194132,-0.00255309,0.0211559,-0.0117746,1.03841,-0.700137,0.00286267,0,0,0,0,0,0,0,0.0105825,-0.199684,-0.335849,-1.65905,-0.0460639,1.47212,0.401628,-0.0160405,-0.00112708,-0.015014,0.00200029,0.593493,-0.16398,0.000965639,1.2215,-25.5602,2.86134,25.5069,2.17498,1.98571,-0.0703886,-0.623892,0.329193,1.66844,0.764647,-0.42308,0.154803,0.334118,-0.236625,-0.172006,-0.342983,0.966772,-1.04816,-0.0494462,
0.0112766,-0.199925,-0.335064,-1.659,-0.00552224,-0.143909,-0.383508,0.0204788,-0.00194828,0.0223472,-0.0121352,1.04159,-0.695339,0.00280424,0,0,0,0,0,0,0,0.0105825,-0.199684,-0.335849,-1.65905,-0.0460639,1.47212,0.401628,-0.0160405,-0.00112708,-0.015014,0.00200029,0.593493,-0.16398,0.000965639,1.2215,-25.5602,2.86134,25.5069,2.17498,1.98571,-0.0703886,-0.623892,0.329193,1.66844,0.764647,-0.42308,0.154803,0.334118,-0.236625,-0.172006,-0.342983,0.966772,-1.04816,-0.0494462,
0.0113623,-0.199931,-0.33497,-1.65905,-0.00134567,-0.146669,-0.383497,0.0214233,-0.00138575,0.0234112,-0.0124174,1.04414,-0.690122,0.0027481,0,0,0,0,0,0,0,0.00989483,-0.199708,-0.336176,-1.65891,-0.0197313,1.46341,0.401626,-0.013054,-0.000660927,-0.00816613,0.000178444,0.656414,-0.226936,0.000764758,1.1977,-25.2864,2.91292,25.6061,2.37091,1.79986,-0.0566557,-0.692839,0.349962,1.62794,0.783433,-0.439116,0.159419,0.347691,-0.230467,-0.180119,-0.380723,0.985748,-1.07913,-0.0491565,
0.0114513,-0.199934,-0.334873,-1.6591,0.00283891,-0.149408,-0.383486,0.0222579,-0.000867274,0.0243595,-0.0126317,1.04614,-0.684574,0.00269413,0,0,0,0,0,0,0,0.00989483,-0.199708,-0.336176,-1.65891,-0.0197313,1.46341,0.401626,-0.013054,-0.000660927,-0.00816613,0.000178444,0.656414,-0.226936,0.000764758,1.1977,-25.2864,2.91292,25.6061,2.37091,1.79986,-0.0566557,-0.455073,0.726834,1.63033,0.5322,-0.235512,0.379355,0.569309,-0.104858,0.0586611,-0.438199,1.02394,-1.11316,-0.0492642,
0.0115433,-0.199936,-0.334772,-1.65915,0.00702959,-0.152123,-0.383476,0.0229931,-0.00039331,0.0252029,-0.0127873,1.04767,-0.678769,0.00264212,0,0,0,0,0,0,0,0.00989483,-0.199708,-0.336176,-1.65891,-0.0197313,1.46341,0.401626,-0.013054,-0.000660927,-0.00816613,0.000178444,0.656414,-0.226936,0.000764758,1.1977,-25.2864,2.91292,25.6061,2.37091,1.79986,-0.0566557,-0.455073,0.726834,1.63033,0.5322,-0.235512,0.379355,0.569309,-0.104858,0.0586611,-0.438199,1.02394,-1.11316,-0.0492642,
0.0116379,-0.199936,-0.334668,-1.6592,0.0112247,-0.154814,-0.383465,0.0236384,3.67342e-05,0.0259511,-0.0128922,1.04878,-0.672764,0.00259176,0,0,0,0,0,0,0,0.00989483,-0.199708,-0.336176,-1.65891,-0.0197313,1.46341,0.401626,-0.013054,-0.000660927,-0.00816613,0.000178444,0.656414,-0.226936,0.000764758,1.1977,-25.2864,2.91292,25.6061,2.37091,1.79986,-0.0566557,-0.653029,0.15025,1.61473,0.872725,-0.356069,0.0913889,0.287585,-0.161133,-0.258234,-0.417198,0.904861,-1.10182,-0.0476288,
0.0117347,-0.199934,-0.334562,-1.65926,0.0154228,-0.15748,-0.383455,0.0242026,0.000424253,0.0266133,-0.0129531,1.04953,-0.666605,0.00254306,0,0,0,0,0,0,0,0.00989483,-0.199708,-0.336176,-1.65891,-0.0197313,1.46341,0.401626,-0.013054,-0.000660927,-0.00816613,0.000178444,0.656414,-0.226936,0.000764758,1.1977,-25.2864,2.91292,25.6061,2.37091,1.79986,-0.0566557,-0.653029,0.15025,1.61473,0.872725,-0.356069,0.0913889,0.287585,-0.161133,-0.258234,-0.417198,0.904861,-1.10182,-0.0476288,
0.0118334,-0.199931,-0.334453,-1.65931,0.0196226,-0.160121,-0.383445,0.0246937,0.00077112,0.0271978,-0.0129763,1.04996,-0.660328,0.00249636,0,0,0,0,0,0,0,0.00949816,-0.199711,-0.336233,-1.65886,0.00353947,1.45459,0.401624,-0.0048093,0.00145929,-0.000390735,-0.00156644,0.762798,-0.300679,-0.000335118,0.816837,-25.2864,2.86134,25.5347,1.8518,2.01226,-0.0365141,-0.737526,-0.020965,1.42403,0.919697,-0.323843,0.00532114,0.201349,-0.10058,-0.340494,-0.470445,0.786167,-1.09108,-0.046497,
0.0119339,-0.199927,-0.334342,-1.65936,0.0238231,-0.162737,-0.383436,0.025119,0.00107965,0.0277124,-0.0129666,1.05011,-0.653965,0.00245073,0,0,0,0,0,0,0,0.00949816,-0.199711,-0.336233,-1.65886,0.00353947,1.45459,0.401624,-0.0048093,0.00145929,-0.000390735,-0.00156644,0.762798,-0.300679,-0.000335118,0.816837,-25.2864,2.86134,25.5347,1.8518,2.01226,-0.0365141,-0.737526,-0.020965,1.42403,0.919697,-0.323843,0.00532114,0.201349,-0.10058,-0.340494,-0.470445,0.786167,-1.09108,-0.046497,
0.0119032,-0.199827,-0.334504,-1.65925,-0.0748049,-0.0979296,-0.383628,0.0785986,-0.0174377,0.0893721,0.00234303,0.416722,-0.631729,0.0121173,0,0,0,0,0,0,0,0.00949816,-0.199711,-0.336233,-1.65886,0.00353947,1.45459,0.401624,-0.0048093,0.00145929,-0.000390735,-0.00156644,0.762798,-0.300679,-0.000335118,0.816837,-25.2864,2.86134,25.5347,1.8518,2.01226,-0.0365141,-0.747345,0.0877378,1.43843,0.745447,-0.335842,0.0548262,0.229856,-0.106554,-0.246896,-0.436459,0.708454,-1.06495,-0.0454601,
0.0103666,-0.19991,-0.335338,-1.65897,0.0121514,-0.123869,-0.383617,0.0986707,-0.0222994,0.106754,-0.0150681,0.718375,-0.773574,0.0125823,0,0,0,0,0,0,0,0.00949816,-0.199711,-0.336233,-1.65886,0.00353947,1.45459,0.401624,-0.0048093,0.00145929,-0.000390735,-0.00156644,0.762798,-0.300679,-0.000335118,0.816837,-25.2864,2.86134,25.5347,1.8518,2.01226,-0.0365141,-0.954141,-0.121948,1.46781,0.764166,-0.5425,-0.0742214,0.0919587,-0.243258,-0.355588,-0.324988,0.587238,-0.98597,-0.0450393,
0.0108393,-0.200008,-0.334817,-1.65906,0.0150923,-0.127372,-0.383569,0.118186,-0.0244439,0.130246,-0.0221065,0.735239,-0.875588,0.0119421,0,0,0,0,0,0,0,0.00949816,-0.199711,-0.336233,-1.65886,0.00353947,1.45459,0.401624,-0.0048093,0.00145929,-0.000390735,-0.00156644,0.762798,-0.300679,-0.000335118,0.816837,-25.2864,2.86134,25.5347,1.8518,2.01226,-0.0365141,-0.954141,-0.121948,1.46781,0.764166,-0.5425,-0.0742214,0.0919587,-0.243258,-0.355588,-0.324988,0.587238,-0.98597,-0.0450393,
0.011376,-0.200107,-0.334221,-1.65917,0.0181238,-0.131209,-0.383523,0.134171,-0.0247252,0.149151,-0.0288518,0.757857,-0.959177,0.0114142,0,0,0,0,0,0,0,0.00949816,-0.199711,-0.336233,-1.65886,0.00353947,1.45459,0.401624,-0.0048093,0.00145929,-0.000390735,-0.00156644,0.762798,-0.300679,-0.000335118,0.816837,-25.2864,2.86134,25.5347,1.8518,2.01226,-0.0365141,-0.760546,-0.27623,1.08508,0.858544,-0.258087,-0.111518,0.0463242,-0.0231684,-0.394102,-0.460336,0.510766,-0.952162,-0.0414688,
0.0119657,-0.200202,-0.333562,-1.65931,0.0212564,-0.13532,-0.38348,0.147411,-0.0236761,0.164561,-0.0351144,0.783166,-1.02785,0.010973,0,0,0,0,0,0,0,0.009564,-0.19972,-0.336061,-1.65893,0.0278327,1.44432,0.401626,0.0125737,-0.00371633,0.0273123,-0.0045227,0.608805,-0.305797,-4.41179e-05,0.360599,-25.2864,2.71455,26.0822,0.819088,2.24389,-0.050247,-0.760546,-0.27623,1.08508,0.858544,-0.258087,-0.111518,0.0463242,-0.0231684,-0.394102,-0.460336,0.510766,-0.952162,-0.0414688,
0.0125996,-0.200288,-0.332853,-1.65948,0.0244931,-0.139657,-0.383437,0.158483,-0.0217127,0.177269,-0.0408179,0.809177,-1.08437,0.010594,0,0,0,0,0,0,0,0.009564,-0.19972,-0.336061,-1.65893,0.0278327,1.44432,0.401626,0.0125737,-0.00371633,0.0273123,-0.0045227,0.608805,-0.305797,-4.41179e-05,0.360599,-25.2864,2.71455,26.0822,0.819088,2.24389,-0.050247,-1.17563,-0.712175,1.29442,0.997745,-0.659509,-0.385508,-0.246795,-0.28506,-0.644977,-0.280017,0.351122,-0.892887,-0.0354023,
0.0132709,-0.200365,-0.332102,-1.65966,0.0278317,-0.144181,-0.383396,0.167818,-0.0191506,0.187854,-0.0459422,0.834643,-1.13094,0.0102615,0,0,0,0,0,0,0,0.009564,-0.19972,-0.336061,-1.65893,0.0278327,1.44432,0.401626,0.0125737,-0.00371633,0.0273123,-0.0045227,0.608805,-0.305797,-4.41179e-05,0.360599,-25.2864,2.71455,26.0822,0.819088,2.24389,-0.050247,-1.2549,-1.621,1.21024,1.3893,-0.687799,-0.811111,-0.697869,-0.286119,-1.05827,-0.209179,0.0369988,-0.784857,-0.0329072,
0.0139738,-0.20043,-0.331315,-1.65986,0.031267,-0.148859,-0.383356,0.175736,-0.0162254,0.196747,-0.050497,0.858815,-1.16933,0.00996257,0,0,0,0,0,0,0,0.009564,-0.19972,-0.336061,-1.65893,0.0278327,1.44432,0.401626,0.0125737,-0.00371633,0.0273123,-0.0045227,0.608805,-0.305797,-4.41179e-05,0.360599,-25.2864,2.71455,26.0822,0.819088,2.24389,-0.050247,-1.2549,-1.621,1.21024,1.3893,-0.687799,-0.811111,-0.697869,-0.286119,-1.05827,-0.209179,0.0369988,-0.784857,-0.0329072,
0.0147038,-0.200482,-0.330498,-1.66008,0.0347921,-0.153662,-0.383318,0.182485,-0.0131113,0.204268,-0.0545089,0.88128,-1.20099,0.00968961,0,0,0,0,0,0,0,0.009564,-0.19972,-0.336061,-1.65893,0.0278327,1.44432,0.401626,0.0125737,-0.00371633,0.0273123,-0.0045227,0.608805,-0.305797,-4.41179e-05,0.360599,-25.2864,2.71455,26.0822,0.819088,2.24389,-0.050247,-1.11564,-1.54384,1.2431,1.19166,-0.562155,-0.747557,-0.660567,-0.203583,-0.93992,-0.199885,-0.0910154,-0.772727,-0.0309328,
0.0154568,-0.200522,-0.329655,-1.66031,0.0383995,-0.158571,-0.38328,0.188252,-0.00993481,0.210659,-0.0580125,0.901844,-1.22706,0.00943593,0,0,0,0,0,0,0,0.0105612,-0.19978,-0.33462,-1.65887,0.0465663,1.43216,0.401631,0.0404832,-0.00470565,0.0551108,0.00200938,0.611094,-0.465104,0.0003148,1.93164,-24.8381,4.21419,24.8087,1.57714,1.69366,-0.050247,-1.11564,-1.54384,1.2431,1.19166,-0.562155,-0.747557,-0.660567,-0.203583,-0.93992,-0.199885,-0.0910154,-0.772727,-0.0309328,
0.0162296,-0.20055,-0.328791,-1.66056,0.0420813,-0.163549,-0.383243,0.193199,-0.00703819,0.216156,-0.061829,0.920471,-1.24458,0.00921692,0,0,0,0,0,0,0,0.0105612,-0.19978,-0.33462,-1.65887,0.0465663,1.43216,0.401631,0.0404832,-0.00470565,0.0551108,0.00200938,0.611094,-0.465104,0.0003148,1.93164,-24.8381,4.21419,24.8087,1.57714,1.69366,-0.050247,-1.43831,-0.942438,1.38147,0.770279,-0.825235,-0.527759,-0.456035,-0.356155,-0.667443,-0.160968,-0.0316195,-0.835334,-0.027683,
0.0170195,-0.200569,-0.327907,-1.66083,0.0458302,-0.168542,-0.383207,0.197475,-0.00467334,0.220938,-0.066794,0.937221,-1.24824,0.00904531,0,0,0,0,0,0,0,0.0105612,-0.19978,-0.33462,-1.65887,0.0465663,1.43216,0.401631,0.0404832,-0.00470565,0.0551108,0.00200938,0.611094,-0.465104,0.0003148,1.93164,-24.8381,4.21419,24.8087,1.57714,1.69366,-0.050247,-0.780964,-0.260437,0.753006,0.412909,-0.0495366,-0.100666,-0.0347914,0.202205,-0.219143,-0.526879,0.0419339,-0.899926,-0.0277917,
0.0178241,-0.200578,-0.327007,-1.66111,0.0496388,-0.173517,-0.383171,0.201162,-0.00217226,0.22499,-0.0711371,0.952148,-1.24374,0.00887128,0,0,0,0,0,0,0,0.0105612,-0.19978,-0.33462,-1.65887,0.0465663,1.43216,0.401631,0.0404832,-0.00470565,0.0551108,0.00200938,0.611094,-0.465104,0.0003148,1.93164,-24.8381,4.21419,24.8087,1.57714,1.69366,-0.050247,-0.780964,-0.260437,0.753006,0.412909,-0.0495366,-0.100666,-0.0347914,0.202205,-0.219143,-0.526879,0.0419339,-0.899926,-0.0277917,
0.0186413,-0.200576,-0.326093,-1.66141,0.0535001,-0.178453,-0.383136,0.204309,0.000485394,0.228424,-0.0745538,0.96532,-1.23399,0.00869651,0,0,0,0,0,0,0,0.0105612,-0.19978,-0.33462,-1.65887,0.0465663,1.43216,0.401631,0.0404832,-0.00470565,0.0551108,0.00200938,0.611094,-0.465104,0.0003148,1.93164,-24.8381,4.21419,24.8087,1.57714,1.69366,-0.050247,-1.5546,-0.760218,0.913712,0.709846,-0.645864,-0.443446,-0.370663,-0.13867,-0.586042,-0.417328,-0.0477239,-0.935071,-0.0276417,
0.0194692,-0.200563,-0.325168,-1.66172,0.0574075,-0.183336,-0.383102,0.206976,0.00318776,0.231337,-0.0771238,0.976842,-1.22071,0.00852408,0,0,0,0,0,0,0,0.0105612,-0.19978,-0.33462,-1.65887,0.0465663,1.43216,0.401631,0.0404832,-0.00470565,0.0551108,0.00200938,0.611094,-0.465104,0.0003148,1.93164,-24.8381,4.21419,24.8087,1.57714,1.69366,-0.050247,-1.5546,-0.760218,0.913712,0.709846,-0.645864,-0.443446,-0.370663,-0.13867,-0.586042,-0.417328,-0.0477239,-0.935071,-0.0276417,
0.0203061,-0.20054,-0.324233,-1.66203,0.0613548,-0.188156,-0.383069,0.209222,0.00582793,0.233802,-0.0789995,0.986846,-1.205,0.00835377,0,0,0,0,0,0,0,0.0121756,-0.199912,-0.332378,-1.65885,0.0655014,1.41597,0.401631,0.0627487,-0.00568663,0.0847295,0.00279241,0.646041,-0.569361,0.000533634,2.3125,-24.6636,4.41255,24.5111,1.55243,1.44189,-0.0566557,-1.98366,-0.872269,0.930541,0.797137,-0.906883,-0.548386,-0.470075,-0.258145,-0.703033,-0.436199,-0.070086,-1.01021,-0.0269794,
0.0211505,-0.200506,-0.323289,-1.66235,0.0653367,-0.192906,-0.383036,0.211095,0.00833122,0.235877,-0.0803225,0.995473,-1.18763,0.00818797,0,0,0,0,0,0,0,0.0121756,-0.199912,-0.332378,-1.65885,0.0655014,1.41597,0.401631,0.0627487,-0.00568663,0.0847295,0.00279241,0.646041,-0.569361,0.000533634,2.3125,-24.6636,4.41255,24.5111,1.55243,1.44189,-0.0566557,-1.98366,-0.872269,0.930541,0.797137,-0.906883,-0.548386,-0.470075,-0.258145,-0.703033,-0.436199,-0.070086,-1.01021,-0.0269794,
0.0220011,-0.200464,-0.322339,-1.66268,0.0693482,-0.197583,-0.383004,0.212637,0.0106531,0.237609,-0.0812075,1.00286,-1.16912,0.0080259,0,0,0,0,0,0,0,0.0121756,-0.199912,-0.332378,-1.65885,0.0655014,1.41597,0.401631,0.0627487,-0.00568663,0.0847295,0.00279241,0.646041,-0.569361,0.000533634,2.3125,-24.6636,4.41255,24.5111,1.55243,1.44189,-0.0566557,-2.17782,-0.585982,0.861793,0.734169,-0.998198,-0.444576,-0.370803,-0.285414,-0.60379,-0.514169,0.0654635,-1.09043,-0.0249437,
0.0228566,-0.200413,-0.321382,-1.66301,0.0733848,-0.202182,-0.382973,0.213884,0.012771,0.239035,-0.0817446,1.00916,-1.14986,0.00786632,0,0,0,0,0,0,0,0.0121756,-0.199912,-0.332378,-1.65885,0.0655014,1.41597,0.401631,0.0627487,-0.00568663,0.0847295,0.00279241,0.646041,-0.569361,0.000533634,2.3125,-24.6636,4.41255,24.5111,1.55243,1.44189,-0.0566557,-2.2838,-0.502299,0.649651,0.813272,-0.973897,-0.419692,-0.348449,-0.227634,-0.598452,-0.641062,0.166266,-1.15121,-0.0232508,
0.0237161,-0.200354,-0.320422,-1.66333,0.0774427,-0.206703,-0.382942,0.214867,0.0146782,0.240187,-0.0820024,1.01447,-1.13011,0.00771187,0,0,0,0,0,0,0,0.0121756,-0.199912,-0.332378,-1.65885,0.0655014,1.41597,0.401631,0.0627487,-0.00568663,0.0847295,0.00279241,0.646041,-0.569361,0.000533634,2.3125,-24.6636,4.41255,24.5111,1.55243,1.44189,-0.0566557,-2.2838,-0.502299,0.649651,0.813272,-0.973897,-0.419692,-0.348449,-0.227634,-0.598452,-0.641062,0.166266,-1.15121,-0.0232508,
0.0245785,-0.200288,-0.319457,-1.66366,0.0815184,-0.211143,-0.382912,0.215613,0.0163773,0.241095,-0.0820353,1.01892,-1.11008,0.00756126,0,0,0,0,0,0,0,0.0146197,-0.199948,-0.329038,-1.65904,0.0859893,1.39671,0.401628,0.0900167,-0.000130545,0.111074,-0.00767601,0.6247,-0.613441,-0.000719423,2.03479,-24.6874,4.03566,24.3604,2.46246,1.32287,-0.0227812,-2.02969,0.295558,0.49824,0.375995,-0.72703,-0.0162225,0.0396629,-0.0624452,-0.156356,-0.763919,0.333277,-1.20187,-0.0241758,
0.0254431,-0.200217,-0.31849,-1.66399,0.0856088,-0.215503,-0.382882,0.216146,0.0178776,0.241782,-0.081885,1.02261,-1.08989,0.00741407,0,0,0,0,0,0,0,0.0146197,-0.199948,-0.329038,-1.65904,0.0859893,1.39671,0.401628,0.0900167,-0.000130545,0.111074,-0.00767601,0.6247,-0.613441,-0.000719423,2.03479,-24.6874,4.03566,24.3604,2.46246,1.32287,-0.0227812,-2.02969,0.295558,0.49824,0.375995,-0.72703,-0.0162225,0.0396629,-0.0624452,-0.156356,-0.763919,0.333277,-1.20187,-0.0241758,
0.0263091,-0.20014,-0.317521,-1.66432,0.0897113,-0.219781,-0.382853,0.21649,0.0191916,0.242271,-0.0815847,1.02561,-1.06966,0.00727038,0,0,0,0,0,0,0,0.0146197,-0.199948,-0.329038,-1.65904,0.0859893,1.39671,0.401628,0.0900167,-0.000130545,0.111074,-0.00767601,0.6247,-0.613441,-0.000719423,2.03479,-24.6874,4.03566,24.3604,2.46246,1.32287,-0.0227812,-1.77671,0.967497,0.42371,0.0511802,-0.578572,0.3153,0.364071,0.00331875,0.194362,-0.799315,0.542289,-1.1899,-0.0229434,
0.0271757,-0.200059,-0.316551,-1.66464,0.0938234,-0.223979,-0.382824,0.216662,0.0203335,0.242582,-0.0811614,1.02802,-1.04946,0.00712977,0,0,0,0,0,0,0,0.0146197,-0.199948,-0.329038,-1.65904,0.0859893,1.39671,0.401628,0.0900167,-0.000130545,0.111074,-0.00767601,0.6247,-0.613441,-0.000719423,2.03479,-24.6874,4.03566,24.3604,2.46246,1.32287,-0.0227812,-1.77671,0.967497,0.42371,0.0511802,-0.578572,0.3153,0.364071,0.00331875,0.194362,-0.799315,0.542289,-1.1899,-0.0229434,
0.0280424,-0.199974,-0.31558,-1.66496,0.097943,-0.228096,-0.382796,0.216682,0.0213183,0.242734,-0.0806361,1.0299,-1.02935,0.00699271,0,0,0,0,0,0,0,0.0146197,-0.199948,-0.329038,-1.65904,0.0859893,1.39671,0.401628,0.0900167,-0.000130545,0.111074,-0.00767601,0.6247,-0.613441,-0.000719423,2.03479,-24.6874,4.03566,24.3604,2.46246,1.32287,-0.0227812,-1.91355,0.651419,0.184534,0.434446,-0.64074,0.139308,0.194553,-0.0188629,-0.0385244,-0.860845,0.649993,-1.16868,-0.0227525,
0.0289087,-0.199885,-0.314609,-1.66528,0.102068,-0.232134,-0.382769,0.216566,0.022161,0.242742,-0.0800263,1.03131,-1.00935,0.00685853,0,0,0,0,0,0,0,0.0186248,-0.199918,-0.323481,-1.65957,0.111843,1.36923,0.401632,0.0963162,0.00765719,0.144404,-0.0221577,0.612985,-0.653854,0.00039682,1.47541,-24.9373,3.28584,24.8602,2.64557,2.03148,-0.0566557,-1.68241,0.862454,0.301496,0.368072,-0.596273,0.25959,0.321291,-0.0525066,0.0732058,-0.78734,0.788991,-1.11213,-0.0241239,
0.011116,-0.200276,-0.334578,-1.65951,0.0108188,-0.123498,-0.383604,0.181272,-0.0564613,0.194924,-0.0660545,0.580224,-0.74274,0.0136553,0,0,0,0,0,0,0,0.0186248,-0.199918,-0.323481,-1.65957,0.111843,1.36923,0.401632,0.0963162,0.00765719,0.144404,-0.0221577,0.612985,-0.653854,0.00039682,1.47541,-24.9373,3.28584,24.8602,2.64557,2.03148,-0.0566557,-1.68241,0.862454,0.301496,0.368072,-0.596273,0.25959,0.321291,-0.0525066,0.0732058,-0.78734,0.788991,-1.11213,-0.0241239,
0.0210814,-0.200264,-0.320792,-1.66051,0.118858,-0.211344,-0.383609,0.237181,-0.0342767,0.262208,-0.0900191,0.595579,-0.895341,0.012726,0,0,0,0,0,0,0,0.0186248,-0.199918,-0.323481,-1.65957,0.111843,1.36923,0.401632,0.0963162,0.00765719,0.144404,-0.0221577,0.612985,-0.653854,0.00039682,1.47541,-24.9373,3.28584,24.8602,2.64557,2.03148,-0.0566557,-1.94987,0.815487,0.114177,0.456707,-0.797141,0.179968,0.242302,-0.166414,-0.0194697,-0.770018,0.831225,-1.05335,-0.024483,
0.0221254,-0.2004,-0.31963,-1.66089,0.121347,-0.215193,-0.38356,0.260989,-0.033858,0.290438,-0.0958976,0.622168,-0.962107,0.0122154,0,0,0,0,0,0,0,0.0186248,-0.199918,-0.323481,-1.65957,0.111843,1.36923,0.401632,0.0963162,0.00765719,0.144404,-0.0221577,0.612985,-0.653854,0.00039682,1.47541,-24.9373,3.28584,24.8602,2.64557,2.03148,-0.0566557,-1.94987,0.815487,0.114177,0.456707,-0.797141,0.179968,0.242302,-0.166414,-0.0194697,-0.770018,0.831225,-1.05335,-0.024483,
0.0232474,-0.200527,-0.318377,-1.66129,0.123962,-0.219266,-0.383513,0.28051,-0.0317477,0.313338,-0.100625,0.653888,-1.01831,0.0117607,0,0,0,0,0,0,0,0.0186248,-0.199918,-0.323481,-1.65957,0.111843,1.36923,0.401632,0.0963162,0.00765719,0.144404,-0.0221577,0.612985,-0.653854,0.00039682,1.47541,-24.9373,3.28584,24.8602,2.64557,2.03148,-0.0566557,-1.45216,1.02945,-0.306538,0.360811,-0.340846,0.336277,0.396414,0.123982,0.139361,-0.903717,0.871084,-0.972242,-0.0251367,
0.0244341,-0.200642,-0.317048,-1.66171,0.126713,-0.223527,-0.383468,0.296678,-0.0287391,0.332109,-0.104734,0.687666,-1.06522,0.011349,0,0,0,0,0,0,0,0.0186248,-0.199918,-0.323481,-1.65957,0.111843,1.36923,0.401632,0.0963162,0.00765719,0.144404,-0.0221577,0.612985,-0.653854,0.00039682,1.47541,-24.9373,3.28584,24.8602,2.64557,2.03148,-0.0566557,-2.50138,1.67539,-0.300783,-0.148063,-1.16271,0.454744,0.502884,-0.342136,0.325645,-0.76007,0.874805,-0.969576,-0.0233361,
0.025675,-0.200744,-0.315658,-1.66215,0.129599,-0.227928,-0.383424,0.310216,-0.0255413,0.347698,-0.109143,0.72151,-1.10025,0.0109916,0,0,0,0,0,0,0,0.0222274,-0.199919,-0.318805,-1.66035,0.127836,1.35026,0.401628,0.124948,-0.00600765,0.168704,-0.0288654,0.429666,-0.571446,-0.000810579,1.67774,-25.3618,3.48817,24.5865,1.46087,2.46911,-0.0301054,-2.50138,1.67539,-0.300783,-0.148063,-1.16271,0.454744,0.502884,-0.342136,0.325645,-0.76007,0.874805,-0.969576,-0.0233361,
0.0269619,-0.200835,-0.314214,-1.66261,0.132616,-0.232396,-0.383381,0.32172,-0.0227358,0.360854,-0.114938,0.754149,-1.11707,0.0107132,0,0,0,0,0,0,0,0.0222274,-0.199919,-0.318805,-1.66035,0.127836,1.35026,0.401628,0.124948,-0.00600765,0.168704,-0.0288654,0.429666,-0.571446,-0.000810579,1.67774,-25.3618,3.48817,24.5865,1.46087,2.46911,-0.0301054,-1.7414,0.785816,-0.511705,0.306604,-0.595634,0.167246,0.221749,-0.0327358,0.00570653,-0.761871,0.64576,-0.785076,-0.0231799,
0.0282876,-0.200913,-0.312727,-1.66309,0.135755,-0.236894,-0.383339,0.33143,-0.0194729,0.371844,-0.119668,0.78486,-1.1243,0.0104213,0,0,0,0,0,0,0,0.0222274,-0.199919,-0.318805,-1.66035,0.127836,1.35026,0.401628,0.124948,-0.00600765,0.168704,-0.0288654,0.429666,-0.571446,-0.000810579,1.67774,-25.3618,3.48817,24.5865,1.46087,2.46911,-0.0301054,-1.7414,0.785816,-0.511705,0.306604,-0.595634,0.167246,0.221749,-0.0327358,0.00570653,-0.761871,0.64576,-0.785076,-0.0231799,
0.0296461,-0.200977,-0.311203,-1.66358,0.139008,-0.241386,-0.383299,0.339623,-0.0160166,0.381076,-0.123559,0.813221,-1.12306,0.0101233,0,0,0,0,0,0,0,0.0222274,-0.199919,-0.318805,-1.66035,0.127836,1.35026,0.401628,0.124948,-0.00600765,0.168704,-0.0288654,0.429666,-0.571446,-0.000810579,1.67774,-25.3618,3.48817,24.5865,1.46087,2.46911,-0.0301054,-1.95988,0.371526,-0.665942,0.481529,-0.723191,-0.04788,0.0209239,-0.0902431,-0.224372,-0.732292,0.486752,-0.717126,-0.0224833,
0.0310325,-0.201028,-0.309647,-1.66409,0.142364,-0.245823,-0.383259,0.346609,-0.012897,0.388943,-0.12773,0.839021,-1.10938,0.00988081,0,0,0,0,0,0,0,0.0222274,-0.199919,-0.318805,-1.66035,0.127836,1.35026,0.401628,0.124948,-0.00600765,0.168704,-0.0288654,0.429666,-0.571446,-0.000810579,1.67774,-25.3618,3.48817,24.5865,1.46087,2.46911,-0.0301054,-1.95988,0.371526,-0.665942,0.481529,-0.723191,-0.04788,0.0209239,-0.0902431,-0.224372,-0.732292,0.486752,-0.717126,-0.0224833,
0.0324425,-0.201067,-0.308065,-1.66461,0.145813,-0.25018,-0.383221,0.352485,-0.00961612,0.395536,-0.130815,0.862242,-1.08916,0.009643,0,0,0,0,0,0,0,0.0267903,-0.200181,-0.313103,-1.66165,0.141203,1.33183,0.401631,0.158047,-0.00696249,0.18743,-0.0396655,0.459123,-0.608079,0.000857409,2.94727,-24.7865,5.01161,24.5111,2.31598,1.79986,-0.0566557,-2.28472,0.706036,-0.609189,0.198732,-0.972194,0.0617389,0.112088,-0.226324,-0.0666046,-0.687254,0.475148,-0.739984,-0.0230568,
0.0338719,-0.201092,-0.306461,-1.66515,0.149345,-0.254441,-0.383183,0.357365,-0.00624409,0.401026,-0.132755,0.882956,-1.0653,0.00941048,0,0,0,0,0,0,0,0.0267903,-0.200181,-0.313103,-1.66165,0.141203,1.33183,0.401631,0.158047,-0.00696249,0.18743,-0.0396655,0.459123,-0.608079,0.000857409,2.94727,-24.7865,5.01161,24.5111,2.31598,1.79986,-0.0566557,-2.34388,0.89762,-0.59517,-0.0437966,-1.04698,0.146913,0.187328,-0.276533,0.0611385,-0.62445,0.401559,-0.69574,-0.0244797,
0.0353174,-0.201104,-0.304838,-1.66568,0.15295,-0.258599,-0.383146,0.36137,-0.00293103,0.405566,-0.133776,0.901294,-1.0394,0.00918697,0,0,0,0,0,0,0,0.0267903,-0.200181,-0.313103,-1.66165,0.141203,1.33183,0.401631,0.158047,-0.00696249,0.18743,-0.0396655,0.459123,-0.608079,0.000857409,2.94727,-24.7865,5.01161,24.5111,2.31598,1.79986,-0.0566557,-2.34388,0.89762,-0.59517,-0.0437966,-1.04698,0.146913,0.187328,-0.276533,0.0611385,-0.62445,0.401559,-0.69574,-0.0244797,
0.0367759,-0.201103,-0.303201,-1.66622,0.15662,-0.262648,-0.38311,0.364613,0.000206843,0.409282,-0.134108,0.917426,-1.0124,0.00897099,0,0,0,0,0,0,0,0.0267903,-0.200181,-0.313103,-1.66165,0.141203,1.33183,0.401631,0.158047,-0.00696249,0.18743,-0.0396655,0.459123,-0.608079,0.000857409,2.94727,-24.7865,5.01161,24.5111,2.31598,1.79986,-0.0566557,-2.00632,-0.00353896,-1.16495,0.55799,-0.509062,-0.189153,-0.146898,0.139281,-0.332003,-0.896837,0.216072,-0.698746,-0.0230243,
0.0382446,-0.20109,-0.301552,-1.66675,0.160346,-0.266588,-0.383075,0.367188,0.00310037,0.41228,-0.133936,0.931533,-0.984898,0.00876584,0,0,0,0,0,0,0,0.0267903,-0.200181,-0.313103,-1.66165,0.141203,1.33183,0.401631,0.158047,-0.00696249,0.18743,-0.0396655,0.459123,-0.608079,0.000857409,2.94727,-24.7865,5.01161,24.5111,2.31598,1.79986,-0.0566557,-2.00632,-0.00353896,-1.16495,0.55799,-0.509062,-0.189153,-0.146898,0.139281,-0.332003,-0.896837,0.216072,-0.698746,-0.0230243,
0.0397213,-0.201067,-0.299893,-1.66729,0.164121,-0.270417,-0.383041,0.369179,0.00571734,0.414651,-0.133391,0.943801,-0.957257,0.00857098,0,0,0,0,0,0,0,0.0267903,-0.200181,-0.313103,-1.66165,0.141203,1.33183,0.401631,0.158047,-0.00696249,0.18743,-0.0396655,0.459123,-0.608079,0.000857409,2.94727,-24.7865,5.01161,24.5111,2.31598,1.79986,-0.0566557,-2.81973,-0.33282,-1.3951,0.785761,-0.906416,-0.418663,-0.368961,0.007677,-0.585628,-1.0145,0.123854,-0.82279,-0.022837,
0.0412039,-0.201035,-0.298228,-1.66782,0.167939,-0.274136,-0.383007,0.370655,0.00804959,0.41647,-0.132572,0.954407,-0.929709,0.00838432,0,0,0,0,0,0,0,0.0323126,-0.200354,-0.305906,-1.66317,0.159388,1.31154,0.401634,0.166782,-0.0010619,0.243133,-0.0480816,0.58974,-0.597148,0.00167924,2.59418,-24.7627,4.48793,24.4635,2.63366,1.6076,-0.0767973,-2.81973,-0.33282,-1.3951,0.785761,-0.906416,-0.418663,-0.368961,0.007677,-0.585628,-1.0145,0.123854,-0.82279,-0.022837,
0.0426907,-0.200995,-0.296556,-1.66834,0.171793,-0.277745,-0.382975,0.37168,0.0101045,0.417804,-0.131546,0.963522,-0.902402,0.00820667,0,0,0,0,0,0,0,0.0323126,-0.200354,-0.305906,-1.66317,0.159388,1.31154,0.401634,0.166782,-0.0010619,0.243133,-0.0480816,0.58974,-0.597148,0.00167924,2.59418,-24.7627,4.48793,24.4635,2.63366,1.6076,-0.0767973,-3.11586,0.1498,-1.01708,0.427148,-1.27052,-0.229406,-0.174644,-0.252576,-0.363424,-0.858936,0.194192,-0.852996,-0.0231664,
0.0441799,-0.200947,-0.294881,-1.66886,0.175678,-0.281247,-0.382942,0.372306,0.011898,0.418712,-0.130364,0.9713,-0.875423,0.00803807,0,0,0,0,0,0,0,0.0323126,-0.200354,-0.305906,-1.66317,0.159388,1.31154,0.401634,0.166782,-0.0010619,0.243133,-0.0480816,0.58974,-0.597148,0.00167924,2.59418,-24.7627,4.48793,24.4635,2.63366,1.6076,-0.0767973,-2.79691,0.34008,-0.681667,0.332473,-1.20534,-0.102442,-0.0332084,-0.294406,-0.24491,-0.739625,0.306117,-0.820532,-0.0226691,
0.0456702,-0.200893,-0.293205,-1.66938,0.17959,-0.284642,-0.382911,0.372583,0.0134506,0.419242,-0.129061,0.977884,-0.848826,0.00787637,0,0,0,0,0,0,0,0.0323126,-0.200354,-0.305906,-1.66317,0.159388,1.31154,0.401634,0.166782,-0.0010619,0.243133,-0.0480816,0.58974,-0.597148,0.00167924,2.59418,-24.7627,4.48793,24.4635,2.63366,1.6076,-0.0767973,-2.79691,0.34008,-0.681667,0.332473,-1.20534,-0.102442,-0.0332084,-0.294406,-0.24491,-0.739625,0.306117,-0.820532,-0.0226691,
0.0471604,-0.200834,-0.291527,-1.66989,0.183523,-0.287933,-0.38288,0.372551,0.0147844,0.419441,-0.127666,0.983405,-0.822643,0.00772276,0,0,0,0,0,0,0,0.0323126,-0.200354,-0.305906,-1.66317,0.159388,1.31154,0.401634,0.166782,-0.0010619,0.243133,-0.0480816,0.58974,-0.597148,0.00167924,2.59418,-24.7627,4.48793,24.4635,2.63366,1.6076,-0.0767973,-2.77625,0.186686,-1.02926,0.574608,-1.01405,-0.166099,-0.0884966,-0.118805,-0.353128,-0.934171,0.374622,-0.874183,-0.0219713,
0.0486494,-0.200771,-0.289849,-1.6704,0.187475,-0.29112,-0.38285,0.372247,0.0159215,0.419346,-0.126199,0.987981,-0.796886,0.00757479,0,0,0,0,0,0,0,0.0385763,-0.200338,-0.297795,-1.66492,0.178602,1.2934,0.40163,0.218776,0.00631227,0.260693,-0.0523942,0.588469,-0.530595,-0.000916731,2.36408,-24.9611,3.98805,24.8602,3.44574,1.64696,-0.0163725,-2.77625,0.186686,-1.02926,0.574608,-1.01405,-0.166099,-0.0884966,-0.118805,-0.353128,-0.934171,0.374622,-0.874183,-0.0219713,
0.0501362,-0.200703,-0.288173,-1.67089,0.191442,-0.294207,-0.38282,0.371705,0.0168835,0.418994,-0.124676,0.991718,-0.771565,0.00743321,0,0,0,0,0,0,0,0.0385763,-0.200338,-0.297795,-1.66492,0.178602,1.2934,0.40163,0.218776,0.00631227,0.260693,-0.0523942,0.588469,-0.530595,-0.000916731,2.36408,-24.9611,3.98805,24.8602,3.44574,1.64696,-0.0163725,-2.82659,-0.00513203,-1.02674,0.840386,-1.04405,-0.268214,-0.194564,-0.141324,-0.489772,-0.963744,0.489209,-0.899389,-0.0213914,
0.05162,-0.200632,-0.2865,-1.67139,0.195421,-0.297193,-0.382791,0.370953,0.0176903,0.418415,-0.123111,0.994711,-0.746679,0.0072969,0,0,0,0,0,0,0,0.0385763,-0.200338,-0.297795,-1.66492,0.178602,1.2934,0.40163,0.218776,0.00631227,0.260693,-0.0523942,0.588469,-0.530595,-0.000916731,2.36408,-24.9611,3.98805,24.8602,3.44574,1.64696,-0.0163725,-2.45965,0.0809483,-0.865167,0.899988,-0.872475,-0.201394,-0.131693,-0.0977552,-0.438977,-0.92714,0.649851,-0.872368,-0.0215588,
0.0531001,-0.200559,-0.284829,-1.67187,0.199409,-0.300082,-0.382762,0.370016,0.0183605,0.417635,-0.121512,0.997044,-0.722227,0.00716685,0,0,0,0,0,0,0,0.0385763,-0.200338,-0.297795,-1.66492,0.178602,1.2934,0.40163,0.218776,0.00631227,0.260693,-0.0523942,0.588469,-0.530595,-0.000916731,2.36408,-24.9611,3.98805,24.8602,3.44574,1.64696,-0.0163725,-2.45965,0.0809483,-0.865167,0.899988,-0.872475,-0.201394,-0.131693,-0.0977552,-0.438977,-0.92714,0.649851,-0.872368,-0.0215588,
0.0545758,-0.200483,-0.283162,-1.67235,0.203404,-0.302875,-0.382734,0.368917,0.0189104,0.41668,-0.11989,0.998796,-0.698204,0.00704153,0,0,0,0,0,0,0,0.0385763,-0.200338,-0.297795,-1.66492,0.178602,1.2934,0.40163,0.218776,0.00631227,0.260693,-0.0523942,0.588469,-0.530595,-0.000916731,2.36408,-24.9611,3.98805,24.8602,3.44574,1.64696,-0.0163725,-1.85829,0.661708,-0.776854,0.572987,-0.473337,0.129712,0.197394,0.105035,-0.0879244,-0.958793,0.798935,-0.871489,-0.0227424,
0.0560465,-0.200406,-0.2815,-1.67283,0.207404,-0.305574,-0.382706,0.367675,0.0193552,0.41557,-0.11825,1.00003,-0.674605,0.00691993,0,0,0,0,0,0,0,0.0385763,-0.200338,-0.297795,-1.66492,0.178602,1.2934,0.40163,0.218776,0.00631227,0.260693,-0.0523942,0.588469,-0.530595,-0.000916731,2.36408,-24.9611,3.98805,24.8602,3.44574,1.64696,-0.0163725,-1.85829,0.661708,-0.776854,0.572987,-0.473337,0.129712,0.197394,0.105035,-0.0879244,-0.958793,0.798935,-0.871489,-0.0227424,
0.0217033,-0.200586,-0.32014,-1.66103,0.117836,-0.210093,-0.383622,0.30624,-0.064444,0.337654,-0.141534,0.489127,-0.745754,0.0117195,0,0,0,0,0,0,0,0.0457859,-0.200313,-0.289143,-1.66679,0.196737,1.27847,0.401631,0.223148,0.00260681,0.2978,-0.0583366,0.579911,-0.457496,-0.00173954,2.01099,-25.1872,3.48817,24.9118,3.28735,1.53435,-0.00996382,-1.64097,1.3109,-0.757293,0.188551,-0.33562,0.441932,0.513188,0.176307,0.247823,-0.976324,0.932271,-0.87762,-0.0242943,
0.0498525,-0.200724,-0.284608,-1.66831,0.203488,-0.298733,-0.383638,0.372911,-0.0386921,0.417606,-0.140852,0.576121,-0.574243,0.0106591,0,0,0,0,0,0,0,0.0457859,-0.200313,-0.289143,-1.66679,0.196737,1.27847,0.401631,0.223148,0.00260681,0.2978,-0.0583366,0.579911,-0.457496,-0.00173954,2.01099,-25.1872,3.48817,24.9118,3.28735,1.53435,-0.00996382,-1.47982,1.83694,-0.690851,-0.138185,-0.297171,0.68203,0.760527,0.166635,0.507112,-0.924246,1.04007,-0.835258,-0.0250532,
0.0514432,-0.200872,-0.28282,-1.6689,0.205902,-0.301159,-0.383597,0.397669,-0.0368567,0.446925,-0.146756,0.603542,-0.606429,0.0103839,0,0,0,0,0,0,0,0.0457859,-0.200313,-0.289143,-1.66679,0.196737,1.27847,0.401631,0.223148,0.00260681,0.2978,-0.0583366,0.579911,-0.457496,-0.00173954,2.01099,-25.1872,3.48817,24.9118,3.28735,1.53435,-0.00996382,-1.47982,1.83694,-0.690851,-0.138185,-0.297171,0.68203,0.760527,0.166635,0.507112,-0.924246,1.04007,-0.835258,-0.0250532,
0.0531144,-0.201006,-0.280938,-1.6695,0.208444,-0.303678,-0.383557,0.417806,-0.0335357,0.470598,-0.15097,0.635487,-0.629794,0.0100947,0,0,0,0,0,0,0,0.0457859,-0.200313,-0.289143,-1.66679,0.196737,1.27847,0.401631,0.223148,0.00260681,0.2978,-0.0583366,0.579911,-0.457496,-0.00173954,2.01099,-25.1872,3.48817,24.9118,3.28735,1.53435,-0.00996382,-1.1259,3.1226,-0.771605,-0.967513,-0.050218,1.28514,1.35324,0.316207,1.18462,-0.966023,1.22347,-0.822509,-0.0268192,
0.0548523,-0.201126,-0.278978,-1.67012,0.21112,-0.306229,-0.383517,0.434461,-0.0301167,0.490008,-0.155644,0.669043,-0.637772,0.00990015,0,0,0,0,0,0,0,0.0457859,-0.200313,-0.289143,-1.66679,0.196737,1.27847,0.401631,0.223148,0.00260681,0.2978,-0.0583366,0.579911,-0.457496,-0.00173954,2.01099,-25.1872,3.48817,24.9118,3.28735,1.53435,-0.00996382,-1.1259,3.1226,-0.771605,-0.967513,-0.050218,1.28514,1.35324,0.316207,1.18462,-0.966023,1.22347,-0.822509,-0.0268192,
0.0566448,-0.201231,-0.276954,-1.67076,0.21393,-0.308785,-0.383478,0.448125,-0.0260532,0.50585,-0.158837,0.702396,-0.639018,0.00970297,0,0,0,0,0,0,0,0.0561007,-0.20028,-0.276555,-1.66946,0.217638,1.2625,0.401638,0.262865,-0.00534471,0.33207,-0.0691802,0.398489,-0.304412,0.000339859,3.1258,-25.5879,4.38875,24.4119,2.17498,1.62774,-0.0703886,-2.28712,1.5603,-0.497844,-0.0104383,-1.02246,0.456707,0.519364,-0.292587,0.296967,-0.704906,0.993143,-0.773403,-0.0229178,
0.0584821,-0.201317,-0.274879,-1.6714,0.216867,-0.311326,-0.38344,0.459334,-0.0217087,0.518799,-0.160849,0.734397,-0.635199,0.00945683,0,0,0,0,0,0,0,0.0561007,-0.20028,-0.276555,-1.66946,0.217638,1.2625,0.401638,0.262865,-0.00534471,0.33207,-0.0691802,0.398489,-0.304412,0.000339859,3.1258,-25.5879,4.38875,24.4119,2.17498,1.62774,-0.0703886,-2.28712,1.5603,-0.497844,-0.0104383,-1.02246,0.456707,0.519364,-0.292587,0.296967,-0.704906,0.993143,-0.773403,-0.0229178,
0.0603567,-0.201389,-0.272761,-1.67205,0.219925,-0.313813,-0.383403,0.46864,-0.0177954,0.529512,-0.163056,0.764313,-0.621761,0.00926931,0,0,0,0,0,0,0,0.0561007,-0.20028,-0.276555,-1.66946,0.217638,1.2625,0.401638,0.262865,-0.00534471,0.33207,-0.0691802,0.398489,-0.304412,0.000339859,3.1258,-25.5879,4.38875,24.4119,2.17498,1.62774,-0.0703886,-2.84844,-0.895468,-0.789107,1.48133,-1.32007,-0.678676,-0.561515,-0.446924,-0.994098,-0.680013,0.539102,-0.669065,-0.0199636,
0.0622616,-0.201444,-0.270608,-1.67271,0.223092,-0.316228,-0.383367,0.476242,-0.0138798,0.538274,-0.164325,0.791799,-0.603811,0.00909158,0,0,0,0,0,0,0,0.0561007,-0.20028,-0.276555,-1.66946,0.217638,1.2625,0.401638,0.262865,-0.00534471,0.33207,-0.0691802,0.398489,-0.304412,0.000339859,3.1258,-25.5879,4.38875,24.4119,2.17498,1.62774,-0.0703886,-2.84844,-0.895468,-0.789107,1.48133,-1.32007,-0.678676,-0.561515,-0.446924,-0.994098,-0.680013,0.539102,-0.669065,-0.0199636,
0.0641911,-0.201484,-0.268426,-1.67337,0.226359,-0.318562,-0.383331,0.48237,-0.0100313,0.545377,-0.164674,0.81673,-0.583627,0.00891976,0,0,0,0,0,0,0,0.0561007,-0.20028,-0.276555,-1.66946,0.217638,1.2625,0.401638,0.262865,-0.00534471,0.33207,-0.0691802,0.398489,-0.304412,0.000339859,3.1258,-25.5879,4.38875,24.4119,2.17498,1.62774,-0.0703886,-2.76377,-0.611597,-1.01472,1.23829,-1.13747,-0.518635,-0.423787,-0.285805,-0.790496,-0.791495,0.502612,-0.695108,-0.0212503,
0.0661401,-0.20151,-0.266222,-1.67403,0.229715,-0.320812,-0.383296,0.487237,-0.00637612,0.551072,-0.164326,0.839113,-0.562338,0.00875927,0,0,0,0,0,0,0,0.0652959,-0.200357,-0.264938,-1.67189,0.231641,1.25379,0.401635,0.300634,-0.00440348,0.35193,-0.0696155,0.446521,-0.234422,0.000624123,2.87189,-25.0881,4.18641,24.5865,2.59063,1.57464,-0.050247,-2.44479,0.251316,-1.04584,0.582562,-0.848225,-0.0615189,0.00802879,-0.0811101,-0.250169,-0.869559,0.527676,-0.745011,-0.0245307,
0.0681042,-0.201522,-0.264,-1.67468,0.233151,-0.322974,-0.383262,0.491025,-0.00300135,0.555571,-0.163488,0.859038,-0.540549,0.00860528,0,0,0,0,0,0,0,0.0652959,-0.200357,-0.264938,-1.67189,0.231641,1.25379,0.401635,0.300634,-0.00440348,0.35193,-0.0696155,0.446521,-0.234422,0.000624123,2.87189,-25.0881,4.18641,24.5865,2.59063,1.57464,-0.050247,-2.44479,0.251316,-1.04584,0.582562,-0.848225,-0.0615189,0.00802879,-0.0811101,-0.250169,-0.869559,0.527676,-0.745011,-0.0245307,
0.0700797,-0.201522,-0.261764,-1.67533,0.236658,-0.325048,-0.383228,0.493889,5.04833e-05,0.559046,-0.162308,0.876643,-0.518599,0.00846175,0,0,0,0,0,0,0,0.0652959,-0.200357,-0.264938,-1.67189,0.231641,1.25379,0.401635,0.300634,-0.00440348,0.35193,-0.0696155,0.446521,-0.234422,0.000624123,2.87189,-25.0881,4.18641,24.5865,2.59063,1.57464,-0.050247,-2.25512,-0.432469,-1.68401,0.937874,-0.4099,-0.314162,-0.233796,0.281806,-0.537123,-1.13007,0.293866,-0.741042,-0.0229905,
0.0720636,-0.20151,-0.259517,-1.67597,0.240226,-0.327035,-0.383195,0.495959,0.0027694,0.561645,-0.160888,0.892092,-0.496681,0.00832893,0,0,0,0,0,0,0,0.0652959,-0.200357,-0.264938,-1.67189,0.231641,1.25379,0.401635,0.300634,-0.00440348,0.35193,-0.0696155,0.446521,-0.234422,0.000624123,2.87189,-25.0881,4.18641,24.5865,2.59063,1.57464,-0.050247,-2.25512,-0.432469,-1.68401,0.937874,-0.4099,-0.314162,-0.233796,0.281806,-0.537123,-1.13007,0.293866,-0.741042,-0.0229905,
0.0740529,-0.20149,-0.257263,-1.67661,0.243849,-0.328935,-0.383162,0.497342,0.00516456,0.56349,-0.159296,0.905562,-0.474911,0.00820292,0,0,0,0,0,0,0,0.0652959,-0.200357,-0.264938,-1.67189,0.231641,1.25379,0.401635,0.300634,-0.00440348,0.35193,-0.0696155,0.446521,-0.234422,0.000624123,2.87189,-25.0881,4.18641,24.5865,2.59063,1.57464,-0.050247,-2.37312,-0.743959,-1.72845,1.01336,-0.463261,-0.430548,-0.357621,0.267849,-0.639197,-1.12168,0.135519,-0.734301,-0.0233655,
0.0760455,-0.201461,-0.255004,-1.67724,0.247518,-0.330748,-0.383129,0.498134,0.00725642,0.564683,-0.157577,0.91723,-0.453354,0.00808492,0,0,0,0,0,0,0,0.0652959,-0.200357,-0.264938,-1.67189,0.231641,1.25379,0.401635,0.300634,-0.00440348,0.35193,-0.0696155,0.446521,-0.234422,0.000624123,2.87189,-25.0881,4.18641,24.5865,2.59063,1.57464,-0.050247,-2.37312,-0.743959,-1.72845,1.01336,-0.463261,-0.430548,-0.357621,0.267849,-0.639197,-1.12168,0.135519,-0.734301,-0.0233655,
0.0780391,-0.201424,-0.252743,-1.67786,0.251227,-0.332476,-0.383097,0.49841,0.00907044,0.565313,-0.155763,0.927269,-0.432054,0.00797502,0,0,0,0,0,0,0,0.0750858,-0.20037,-0.253067,-1.67421,0.249051,1.24794,0.401638,0.309417,0.00122678,0.378477,-0.0743494,0.567928,-0.144435,0.00109755,2.69336,-25.3102,3.91267,24.6103,3.40912,1.21667,-0.0767973,-2.13478,0.50039,-1.73774,0.123544,-0.263847,0.184278,0.243257,0.421006,0.0676611,-1.17816,0.229604,-0.78431,-0.0277103,
0.0800321,-0.201382,-0.250481,-1.67848,0.25497,-0.334121,-0.383066,0.498241,0.0106341,0.565453,-0.153877,0.935845,-0.411038,0.00787014,0,0,0,0,0,0,0,0.0750858,-0.20037,-0.253067,-1.67421,0.249051,1.24794,0.401638,0.309417,0.00122678,0.378477,-0.0743494,0.567928,-0.144435,0.00109755,2.69336,-25.3102,3.91267,24.6103,3.40912,1.21667,-0.0767973,-1.81307,0.903121,-1.5552,-0.0861533,-0.0785017,0.40103,0.469709,0.503308,0.285162,-1.17314,0.356267,-0.811053,-0.0279935,
0.0820228,-0.201334,-0.248221,-1.67909,0.258742,-0.335682,-0.383035,0.497684,0.0119743,0.56517,-0.151935,0.943112,-0.390324,0.00777304,0,0,0,0,0,0,0,0.0750858,-0.20037,-0.253067,-1.67421,0.249051,1.24794,0.401638,0.309417,0.00122678,0.378477,-0.0743494,0.567928,-0.144435,0.00109755,2.69336,-25.3102,3.91267,24.6103,3.40912,1.21667,-0.0767973,-1.81307,0.903121,-1.5552,-0.0861533,-0.0785017,0.40103,0.469709,0.503308,0.285162,-1.17314,0.356267,-0.811053,-0.0279935,
0.08401,-0.201282,-0.245962,-1.67969,0.262539,-0.337162,-0.383004,0.496791,0.0131161,0.564518,-0.14995,0.949213,-0.369927,0.00768022,0,0,0,0,0,0,0,0.0750858,-0.20037,-0.253067,-1.67421,0.249051,1.24794,0.401638,0.309417,0.00122678,0.378477,-0.0743494,0.567928,-0.144435,0.00109755,2.69336,-25.3102,3.91267,24.6103,3.40912,1.21667,-0.0767973,-2.04591,-0.467254,-1.63392,0.924738,-0.19536,-0.246201,-0.15308,0.417241,-0.479286,-1.19282,0.292115,-0.798469,-0.0242918,
0.0859928,-0.201225,-0.243708,-1.68028,0.266352,-0.338561,-0.382974,0.495715,0.014052,0.563602,-0.147888,0.953261,-0.349845,0.00757904,0,0,0,0,0,0,0,0.0750858,-0.20037,-0.253067,-1.67421,0.249051,1.24794,0.401638,0.309417,0.00122678,0.378477,-0.0743494,0.567928,-0.144435,0.00109755,2.69336,-25.3102,3.91267,24.6103,3.40912,1.21667,-0.0767973,-2.04591,-0.467254,-1.63392,0.924738,-0.19536,-0.246201,-0.15308,0.417241,-0.479286,-1.19282,0.292115,-0.798469,-0.0242918,
0.0879742,-0.201167,-0.241456,-1.68086,0.270141,-0.339881,-0.382944,0.495333,0.0145568,0.562918,-0.14542,0.947272,-0.329998,0.00736853,0,0,0,0,0,0,0,0.0854387,-0.200326,-0.240595,-1.67655,0.267081,1.24469,0.401636,0.338729,0.0053071,0.429199,-0.0801969,0.579299,-0.0785113,0.000185686,1.32465,-25.7347,2.43684,24.3365,3.44574,1.13701,-0.0566557,-2.12941,-1.58731,-1.73842,1.80096,-0.203956,-0.780196,-0.691057,0.391101,-1.09926,-1.22997,0.294542,-0.777902,-0.0230815,
0.0899535,-0.201108,-0.239207,-1.68143,0.273883,-0.341123,-0.382916,0.494831,0.0147942,0.562397,-0.142834,0.935297,-0.310486,0.00718493,0,0,0,0,0,0,0,0.0854387,-0.200326,-0.240595,-1.67655,0.267081,1.24469,0.401636,0.338729,0.0053071,0.429199,-0.0801969,0.579299,-0.0785113,0.000185686,1.32465,-25.7347,2.43684,24.3365,3.44574,1.13701,-0.0566557,-2.35572,-0.859429,-1.18024,1.42221,-0.590869,-0.474732,-0.395538,0.0884105,-0.759398,-1.02958,0.536473,-0.81371,-0.0246709,
0.0919298,-0.201048,-0.23696,-1.68199,0.277561,-0.342288,-0.382888,0.494072,0.0148692,0.561782,-0.140247,0.919698,-0.291373,0.00702443,0,0,0,0,0,0,0,0.0854387,-0.200326,-0.240595,-1.67655,0.267081,1.24469,0.401636,0.338729,0.0053071,0.429199,-0.0801969,0.579299,-0.0785113,0.000185686,1.32465,-25.7347,2.43684,24.3365,3.44574,1.13701,-0.0566557,-2.35572,-0.859429,-1.18024,1.42221,-0.590869,-0.474732,-0.395538,0.0884105,-0.759398,-1.02958,0.536473,-0.81371,-0.0246709,
0.0939018,-0.200989,-0.234716,-1.68254,0.281169,-0.343379,-0.38286,0.493016,0.0148473,0.560944,-0.13771,0.901894,-0.272692,0.00687803,0,0,0,0,0,0,0,0.0854387,-0.200326,-0.240595,-1.67655,0.267081,1.24469,0.401636,0.338729,0.0053071,0.429199,-0.0801969,0.579299,-0.0785113,0.000185686,1.32465,-25.7347,2.43684,24.3365,3.44574,1.13701,-0.0566557,-2.07975,0.123831,-0.881815,0.829798,-0.496829,-0.00390768,0.0840316,0.110275,-0.253067,-0.971314,0.740277,-0.842568,-0.0261197,
0.0958685,-0.20093,-0.232477,-1.68308,0.2847,-0.344397,-0.382833,0.491666,0.0147685,0.559833,-0.135243,0.882752,-0.25445,0.00674342,0,0,0,0,0,0,0,0.0854387,-0.200326,-0.240595,-1.67655,0.267081,1.24469,0.401636,0.338729,0.0053071,0.429199,-0.0801969,0.579299,-0.0785113,0.000185686,1.32465,-25.7347,2.43684,24.3365,3.44574,1.13701,-0.0566557,-2.07975,0.123831,-0.881815,0.829798,-0.496829,-0.00390768,0.0840316,0.110275,-0.253067,-0.971314,0.740277,-0.842568,-0.0261197,
0.0503416,-0.201034,-0.284089,-1.66888,0.202768,-0.295775,-0.383639,0.426548,-0.0646471,0.476674,-0.188901,0.500392,-0.2525,0.0105463,0,0,0,0,0,0,0,0.0854387,-0.200326,-0.240595,-1.67655,0.267081,1.24469,0.401636,0.338729,0.0053071,0.429199,-0.0801969,0.579299,-0.0785113,0.000185686,1.32465,-25.7347,2.43684,24.3365,3.44574,1.13701,-0.0566557,-1.99621,0.340624,-0.836124,0.773895,-0.435071,0.0945163,0.178892,0.13943,-0.157573,-0.987788,0.862698,-0.860452,-0.0259213,
0.0908186,-0.20073,-0.234521,-1.67848,0.273931,-0.326558,-0.383644,0.480355,-0.0364162,0.543519,-0.172994,0.584233,-0.0433017,0.0097817,0,0,0,0,0,0,0,0.0964334,-0.200254,-0.227335,-1.67917,0.284049,1.24387,0.401632,0.364654,0.000952854,0.422782,-0.08774,0.530333,-6.65861e-05,-0.00108244,1.12232,-26.0362,2.1393,24.3365,3.45214,1.14342,-0.0227812,-2.21346,1.46735,-0.670239,0.0615084,-0.663897,0.596098,0.66998,0.0142537,0.412435,-0.922855,1.04895,-0.892719,-0.0282932,
0.0928326,-0.200865,-0.232237,-1.67919,0.276368,-0.326749,-0.383606,0.503512,-0.0338095,0.57106,-0.177104,0.609153,-0.0476876,0.00965528,0,0,0,0,0,0,0,0.0964334,-0.200254,-0.227335,-1.67917,0.284049,1.24387,0.401632,0.364654,0.000952854,0.422782,-0.08774,0.530333,-6.65861e-05,-0.00108244,1.12232,-26.0362,2.1393,24.3365,3.45214,1.14342,-0.0227812,-2.21346,1.46735,-0.670239,0.0615084,-0.663897,0.596098,0.66998,0.0142537,0.412435,-0.922855,1.04895,-0.892719,-0.0282932,
0.0949207,-0.200984,-0.229865,-1.6799,0.278919,-0.326952,-0.383567,0.52202,-0.029773,0.593027,-0.178775,0.637909,-0.0508226,0.00957853,0,0,0,0,0,0,0,0.0964334,-0.200254,-0.227335,-1.67917,0.284049,1.24387,0.401632,0.364654,0.000952854,0.422782,-0.08774,0.530333,-6.65861e-05,-0.00108244,1.12232,-26.0362,2.1393,24.3365,3.45214,1.14342,-0.0227812,-1.26238,3.66558,-0.809655,-1.41935,0.116433,1.67428,1.74282,0.551055,1.61141,-1.10502,1.28238,-0.940404,-0.032182,
0.0970681,-0.201085,-0.227423,-1.68062,0.281591,-0.327164,-0.38353,0.53684,-0.0251607,0.61057,-0.179042,0.668076,-0.0529954,0.00941048,0,0,0,0,0,0,0,0.0964334,-0.200254,-0.227335,-1.67917,0.284049,1.24387,0.401632,0.364654,0.000952854,0.422782,-0.08774,0.530333,-6.65861e-05,-0.00108244,1.12232,-26.0362,2.1393,24.3365,3.45214,1.14342,-0.0227812,-1.26238,3.66558,-0.809655,-1.41935,0.116433,1.67428,1.74282,0.551055,1.61141,-1.10502,1.28238,-0.940404,-0.032182,
0.0992636,-0.201169,-0.224924,-1.68134,0.284383,-0.327357,-0.383493,0.548872,-0.0209533,0.624723,-0.179651,0.69799,-0.0482147,0.00929828,0,0,0,0,0,0,0,0.0964334,-0.200254,-0.227335,-1.67917,0.284049,1.24387,0.401632,0.364654,0.000952854,0.422782,-0.08774,0.530333,-6.65861e-05,-0.00108244,1.12232,-26.0362,2.1393,24.3365,3.45214,1.14342,-0.0227812,-1.83155,1.18249,-0.965035,0.231503,-0.206833,0.513894,0.548113,0.332025,0.343477,-1.09938,1.00141,-0.910627,-0.0279337,
0.101501,-0.201237,-0.222378,-1.68206,0.287258,-0.327518,-0.383456,0.55936,-0.0170481,0.636487,-0.17925,0.718747,-0.0404104,0.00909964,0,0,0,0,0,0,0,0.108033,-0.200236,-0.213607,-1.68177,0.297544,1.24422,0.401637,0.37037,-0.00306552,0.456912,-0.0836301,0.363851,0.0208884,0.000583333,2.41565,-26.187,2.88911,23.7375,2.44415,1.26244,-0.0703886,-1.83155,1.18249,-0.965035,0.231503,-0.206833,0.513894,0.548113,0.332025,0.343477,-1.09938,1.00141,-0.910627,-0.0279337,
0.103776,-0.201291,-0.219791,-1.68277,0.290166,-0.327643,-0.383421,0.568625,-0.0136051,0.646625,-0.177833,0.726847,-0.0311326,0.0088386,0,0,0,0,0,0,0,0.108033,-0.200236,-0.213607,-1.68177,0.297544,1.24422,0.401637,0.37037,-0.00306552,0.456912,-0.0836301,0.363851,0.0208884,0.000583333,2.41565,-26.187,2.88911,23.7375,2.44415,1.26244,-0.0703886,-2.99516,-1.57343,-1.18014,2.00655,-1.00787,-0.790709,-0.687095,-0.179443,-1.15424,-0.999382,0.623093,-0.83135,-0.0234228,
0.10608,-0.201333,-0.217171,-1.68347,0.293074,-0.327728,-0.383386,0.576209,-0.0105656,0.655221,-0.175918,0.726992,-0.0211514,0.00861746,0,0,0,0,0,0,0,0.108033,-0.200236,-0.213607,-1.68177,0.297544,1.24422,0.401637,0.37037,-0.00306552,0.456912,-0.0836301,0.363851,0.0208884,0.000583333,2.41565,-26.187,2.88911,23.7375,2.44415,1.26244,-0.0703886,-2.82544,-0.785503,-1.58569,1.42838,-0.70912,-0.399886,-0.278352,0.0911144,-0.729839,-1.18125,0.647609,-0.852879,-0.0245036,
0.108409,-0.201365,-0.214522,-1.68417,0.295962,-0.327771,-0.383353,0.582207,-0.0078863,0.66225,-0.17378,0.721981,-0.010831,0.00842048,0,0,0,0,0,0,0,0.108033,-0.200236,-0.213607,-1.68177,0.297544,1.24422,0.401637,0.37037,-0.00306552,0.456912,-0.0836301,0.363851,0.0208884,0.000583333,2.41565,-26.187,2.88911,23.7375,2.44415,1.26244,-0.0703886,-2.82544,-0.785503,-1.58569,1.42838,-0.70912,-0.399886,-0.278352,0.0911144,-0.729839,-1.18125,0.647609,-0.852879,-0.0245036,
0.110756,-0.201387,-0.21185,-1.68485,0.298816,-0.327772,-0.38332,0.586775,-0.00552792,0.667792,-0.171562,0.713539,-0.000340461,0.00824345,0,0,0,0,0,0,0,0.108033,-0.200236,-0.213607,-1.68177,0.297544,1.24422,0.401637,0.37037,-0.00306552,0.456912,-0.0836301,0.363851,0.0208884,0.000583333,2.41565,-26.187,2.88911,23.7375,2.44415,1.26244,-0.0703886,-3.26452,-0.212282,-1.67441,0.945858,-0.973074,-0.120527,-0.0615176,0.00677742,-0.342373,-1.19974,0.630331,-0.905693,-0.0270884,
0.113117,-0.201401,-0.209162,-1.68553,0.301627,-0.327731,-0.383287,0.590086,-0.00345411,0.671984,-0.169331,0.702759,0.0102441,0.00808448,0,0,0,0,0,0,0,0.108033,-0.200236,-0.213607,-1.68177,0.297544,1.24422,0.401637,0.37037,-0.00306552,0.456912,-0.0836301,0.363851,0.0208884,0.000583333,2.41565,-26.187,2.88911,23.7375,2.44415,1.26244,-0.0703886,-3.26452,-0.212282,-1.67441,0.945858,-0.973074,-0.120527,-0.0615176,0.00677742,-0.342373,-1.19974,0.630331,-0.905693,-0.0270884,
0.115486,-0.201407,-0.206463,-1.6862,0.304388,-0.327648,-0.383256,0.592304,-0.00163239,0.67498,-0.167116,0.690359,0.0208885,0.00793544,0,0,0,0,0,0,0,0.123706,-0.200276,-0.194374,-1.68553,0.313479,1.24718,0.401635,0.39466,0.000357297,0.463132,-0.0976132,0.44302,0.0839571,0.000290963,1.32465,-25.8855,2.38923,24.1898,2.43774,1.48125,-0.0566557,-2.72692,0.768433,-1.98041,0.0646969,-0.531274,0.377097,0.414588,0.333111,0.266441,-1.27739,0.524238,-0.832902,-0.0293782,
0.11786,-0.201408,-0.203755,-1.68686,0.307096,-0.327521,-0.383224,0.593578,-3.30176e-05,0.676931,-0.164928,0.676845,0.0315749,0.00779446,0,0,0,0,0,0,0,0.123706,-0.200276,-0.194374,-1.68553,0.313479,1.24718,0.401635,0.39466,0.000357297,0.463132,-0.0976132,0.44302,0.0839571,0.000290963,1.32465,-25.8855,2.38923,24.1898,2.43774,1.48125,-0.0566557,-2.28384,-0.0463,-2.46178,0.444578,-0.102627,0.0207399,0.0588774,0.596706,-0.112089,-1.37787,0.274504,-0.699662,-0.0277135,
0.120236,-0.201402,-0.201043,-1.68751,0.309746,-0.327352,-0.383194,0.594039,0.00137141,0.677977,-0.16277,0.662615,0.0422891,0.00766245,0,0,0,0,0,0,0,0.123706,-0.200276,-0.194374,-1.68553,0.313479,1.24718,0.401635,0.39466,0.000357297,0.463132,-0.0976132,0.44302,0.0839571,0.000290963,1.32465,-25.8855,2.38923,24.1898,2.43774,1.48125,-0.0566557,-2.28384,-0.0463,-2.46178,0.444578,-0.102627,0.0207399,0.0588774,0.596706,-0.112089,-1.37787,0.274504,-0.699662,-0.0277135,
0.122611,-0.201392,-0.19833,-1.68815,0.312338,-0.32714,-0.383164,0.593795,0.00260827,0.678236,-0.160642,0.648057,0.053012,0.00753275,0,0,0,0,0,0,0,0.123706,-0.200276,-0.194374,-1.68553,0.313479,1.24718,0.401635,0.39466,0.000357297,0.463132,-0.0976132,0.44302,0.0839571,0.000290963,1.32465,-25.8855,2.38923,24.1898,2.43774,1.48125,-0.0566557,-2.10743,-0.157174,-2.46318,0.462453,-0.0447045,-0.033129,0.00138258,0.596483,-0.158398,-1.31206,0.225495,-0.611683,-0.0276246,
0.124983,-0.201377,-0.195619,-1.68879,0.314873,-0.326885,-0.383134,0.592924,0.00370704,0.677801,-0.158552,0.633667,0.0637181,0.00740882,0,0,0,0,0,0,0,0.123706,-0.200276,-0.194374,-1.68553,0.313479,1.24718,0.401635,0.39466,0.000357297,0.463132,-0.0976132,0.44302,0.0839571,0.000290963,1.32465,-25.8855,2.38923,24.1898,2.43774,1.48125,-0.0566557,-2.10743,-0.157174,-2.46318,0.462453,-0.0447045,-0.033129,0.00138258,0.596483,-0.158398,-1.31206,0.225495,-0.611683,-0.0276246,
0.127349,-0.201358,-0.192912,-1.68941,0.317354,-0.326588,-0.383105,0.591455,0.00470497,0.676729,-0.156528,0.620258,0.0743714,0.00729938,0,0,0,0,0,0,0,0.136766,-0.200221,-0.178919,-1.68822,0.327692,1.24968,0.401634,0.41088,0.00174746,0.507448,-0.0824452,0.402901,0.074324,-0.000814714,0.793033,-26.4845,1.48866,24.4873,2.71881,1.74035,-0.0365141,-1.73198,0.429454,-2.42979,0.101631,0.15864,0.220631,0.266506,0.693831,0.110256,-1.27549,0.336482,-0.540186,-0.0266671,
0.129707,-0.201336,-0.190211,-1.69003,0.319786,-0.326248,-0.383076,0.589447,0.0056229,0.675106,-0.154565,0.608095,0.0849384,0.00728484,0,0,0,0,0,0,0,0.136766,-0.200221,-0.178919,-1.68822,0.327692,1.24968,0.401634,0.41088,0.00174746,0.507448,-0.0824452,0.402901,0.074324,-0.000814714,0.793033,-26.4845,1.48866,24.4873,2.71881,1.74035,-0.0365141,-1.73198,0.429454,-2.42979,0.101631,0.15864,0.220631,0.266506,0.693831,0.110256,-1.27549,0.336482,-0.540186,-0.0266671,
0.132058,-0.201311,-0.187518,-1.69064,0.322143,-0.325866,-0.383047,0.587875,0.00625108,0.673408,-0.152227,0.589159,0.0955135,0.00715432,0,0,0,0,0,0,0,0.136766,-0.200221,-0.178919,-1.68822,0.327692,1.24968,0.401634,0.41088,0.00174746,0.507448,-0.0824452,0.402901,0.074324,-0.000814714,0.793033,-26.4845,1.48866,24.4873,2.71881,1.74035,-0.0365141,-1.61648,-0.740512,-2.56674,0.915745,0.209192,-0.357474,-0.30658,0.644556,-0.545038,-1.22618,0.253535,-0.402945,-0.0245207,
0.134402,-0.201284,-0.184831,-1.69124,0.324411,-0.325442,-0.383019,0.586039,0.00668405,0.671662,-0.149845,0.567013,0.106031,0.00701922,0,0,0,0,0,0,0,0.136766,-0.200221,-0.178919,-1.68822,0.327692,1.24968,0.401634,0.41088,0.00174746,0.507448,-0.0824452,0.402901,0.074324,-0.000814714,0.793033,-26.4845,1.48866,24.4873,2.71881,1.74035,-0.0365141,-1.63609,-0.437767,-2.75352,0.70011,0.172413,-0.254168,-0.20298,0.627669,-0.421078,-1.19816,0.28394,-0.301086,-0.0244129,
0.136738,-0.201256,-0.182152,-1.69183,0.326585,-0.324976,-0.382991,0.583885,0.00699651,0.669701,-0.147517,0.543461,0.116426,0.0069021,0,0,0,0,0,0,0,0.136766,-0.200221,-0.178919,-1.68822,0.327692,1.24968,0.401634,0.41088,0.00174746,0.507448,-0.0824452,0.402901,0.074324,-0.000814714,0.793033,-26.4845,1.48866,24.4873,2.71881,1.74035,-0.0365141,-1.63609,-0.437767,-2.75352,0.70011,0.172413,-0.254168,-0.20298,0.627669,-0.421078,-1.19816,0.28394,-0.301086,-0.0244129,
0.139064,-0.201227,-0.179482,-1.69241,0.328663,-0.32447,-0.382964,0.581426,0.0072369,0.667463,-0.145265,0.519433,0.126656,0.00679269,0,0,0,0,0,0,0,0.151138,-0.199991,-0.161971,-1.69062,0.339615,1.25179,0.401633,0.451894,0.0104172,0.517477,-0.0667206,0.301333,0.0619615,-0.000104057,0.25745,-26.8099,0.988783,24.2889,3.01178,1.73394,-0.0429228,-2.28802,-0.564093,-2.2829,0.903526,-0.542925,-0.350684,-0.309558,0.107935,-0.524612,-0.915621,0.412674,-0.254248,-0.0218518,
0.141378,-0.201197,-0.176823,-1.69298,0.330644,-0.323923,-0.382937,0.578698,0.00743335,0.664949,-0.143086,0.495404,0.136699,0.00669107,0,0,0,0,0,0,0,0.151138,-0.199991,-0.161971,-1.69062,0.339615,1.25179,0.401633,0.451894,0.0104172,0.517477,-0.0667206,0.301333,0.0619615,-0.000104057,0.25745,-26.8099,0.988783,24.2889,3.01178,1.73394,-0.0429228,-2.28802,-0.564093,-2.2829,0.903526,-0.542925,-0.350684,-0.309558,0.107935,-0.524612,-0.915621,0.412674,-0.254248,-0.0218518,
0.143681,-0.201167,-0.174174,-1.69355,0.332531,-0.323337,-0.382911,0.575743,0.00760132,0.662184,-0.140971,0.471608,0.146546,0.00659129,0,0,0,0,0,0,0,0.151138,-0.199991,-0.161971,-1.69062,0.339615,1.25179,0.401633,0.451894,0.0104172,0.517477,-0.0667206,0.301333,0.0619615,-0.000104057,0.25745,-26.8099,0.988783,24.2889,3.01178,1.73394,-0.0429228,-2.2625,0.399605,-2.17934,0.313225,-0.592942,0.074273,0.0912844,0.0891812,-0.0329077,-0.857669,0.585851,-0.230699,-0.0237097,
0.145972,-0.201136,-0.171537,-1.6941,0.334323,-0.322712,-0.382885,0.572599,0.00774883,0.6592,-0.138912,0.448158,0.156194,0.00649266,0,0,0,0,0,0,0,0.151138,-0.199991,-0.161971,-1.69062,0.339615,1.25179,0.401633,0.451894,0.0104172,0.517477,-0.0667206,0.301333,0.0619615,-0.000104057,0.25745,-26.8099,0.988783,24.2889,3.01178,1.73394,-0.0429228,-2.2625,0.399605,-2.17934,0.313225,-0.592942,0.074273,0.0912844,0.0891812,-0.0329077,-0.857669,0.585851,-0.230699,-0.0237097,
0.0912497,-0.200933,-0.234083,-1.67876,0.272213,-0.324551,-0.383645,0.526422,-0.0533357,0.593518,-0.19406,0.389981,0.170854,0.00960078,0,0,0,0,0,0,0,0.151138,-0.199991,-0.161971,-1.69062,0.339615,1.25179,0.401633,0.451894,0.0104172,0.517477,-0.0667206,0.301333,0.0619615,-0.000104057,0.25745,-26.8099,0.988783,24.2889,3.01178,1.73394,-0.0429228,-1.86297,1.64003,-2.55039,-0.517774,-0.151333,0.637824,0.667043,0.457726,0.580882,-1.03888,0.722985,-0.227494,-0.0253877,
0.1575,-0.200367,-0.15471,-1.69266,0.343158,-0.316516,-0.383648,0.559515,-0.0330607,0.639914,-0.185065,0.296498,0.238792,0.00985708,0,0,0,0,0,0,0,0.151138,-0.199991,-0.161971,-1.69062,0.339615,1.25179,0.401633,0.451894,0.0104172,0.517477,-0.0667206,0.301333,0.0619615,-0.000104057,0.25745,-26.8099,0.988783,24.2889,3.01178,1.73394,-0.0429228,-1.98754,0.976676,-2.36989,0.00159613,-0.311488,0.323464,0.34618,0.291579,0.223477,-0.947523,0.741897,-0.204505,-0.0243965,
0.159823,-0.20048,-0.152049,-1.69341,0.344366,-0.315519,-0.38361,0.580675,-0.0283494,0.665201,-0.186355,0.302012,0.249165,0.00953924,0,0,0,0,0,0,0,0.165237,-0.199677,-0.145067,-1.69272,0.34759,1.25439,0.401635,0.426284,0.00741806,0.530347,-0.0604839,0.191631,0.089574,-0.000890592,0.384403,-27.0082,0.786451,24.6103,2.83508,1.82,-0.0429228,-1.98754,0.976676,-2.36989,0.00159613,-0.311488,0.323464,0.34618,0.291579,0.223477,-0.947523,0.741897,-0.204505,-0.0243965,
0.162213,-0.200573,-0.149308,-1.69415,0.345608,-0.314482,-0.383572,0.597425,-0.0233478,0.685276,-0.186526,0.310451,0.259258,0.00935286,0,0,0,0,0,0,0,0.165237,-0.199677,-0.145067,-1.69272,0.34759,1.25439,0.401635,0.426284,0.00741806,0.530347,-0.0604839,0.191631,0.089574,-0.000890592,0.384403,-27.0082,0.786451,24.6103,2.83508,1.82,-0.0429228,-1.96004,2.10127,-2.28428,-0.773306,-0.313284,0.858806,0.868702,0.346883,0.837161,-0.937068,0.854097,-0.231724,-0.0286757,
0.164657,-0.200647,-0.146502,-1.69489,0.346863,-0.31341,-0.383536,0.611219,-0.0185123,0.70142,-0.18548,0.313865,0.268011,0.00917065,0,0,0,0,0,0,0,0.165237,-0.199677,-0.145067,-1.69272,0.34759,1.25439,0.401635,0.426284,0.00741806,0.530347,-0.0604839,0.191631,0.089574,-0.000890592,0.384403,-27.0082,0.786451,24.6103,2.83508,1.82,-0.0429228,-1.96004,2.10127,-2.28428,-0.773306,-0.313284,0.858806,0.868702,0.346883,0.837161,-0.937068,0.854097,-0.231724,-0.0286757,
0.167148,-0.200704,-0.143644,-1.69563,0.348097,-0.312308,-0.3835,0.622723,-0.0141906,0.714647,-0.183569,0.308457,0.275497,0.00892349,0,0,0,0,0,0,0,0.165237,-0.199677,-0.145067,-1.69272,0.34759,1.25439,0.401635,0.426284,0.00741806,0.530347,-0.0604839,0.191631,0.089574,-0.000890592,0.384403,-27.0082,0.786451,24.6103,2.83508,1.82,-0.0429228,-1.70552,-0.231141,-2.51282,0.805878,-0.00956829,-0.21913,-0.23076,0.424278,-0.365205,-1.03202,0.643921,-0.194918,-0.0274114,
0.169675,-0.200746,-0.140742,-1.69635,0.34929,-0.31118,-0.383465,0.631769,-0.0104115,0.725349,-0.181433,0.298231,0.28194,0.00871159,0,0,0,0,0,0,0,0.165237,-0.199677,-0.145067,-1.69272,0.34759,1.25439,0.401635,0.426284,0.00741806,0.530347,-0.0604839,0.191631,0.089574,-0.000890592,0.384403,-27.0082,0.786451,24.6103,2.83508,1.82,-0.0429228,-2.56322,-2.11895,-2.44572,2.07521,-0.689527,-1.05305,-0.990913,-0.0831697,-1.35682,-0.891855,0.457207,-0.165279,-0.0236638,
0.17223,-0.200774,-0.137807,-1.69707,0.350431,-0.31003,-0.383431,0.638663,-0.00712754,0.733748,-0.179297,0.285288,0.287584,0.00852165,0,0,0,0,0,0,0,0.179095,-0.19967,-0.128211,-1.69497,0.351394,1.25836,0.401636,0.447582,-0.00195908,0.571633,-0.0835586,0.0846688,0.164047,0.000602626,2.38788,-27.032,2.51222,24.5349,3.31115,1.72661,-0.0566557,-2.56322,-2.11895,-2.44572,2.07521,-0.689527,-1.05305,-0.990913,-0.0831697,-1.35682,-0.891855,0.457207,-0.165279,-0.0236638,
0.174805,-0.200791,-0.134847,-1.69778,0.351514,-0.308859,-0.383398,0.643718,-0.004276,0.74012,-0.177228,0.270767,0.292656,0.00834841,0,0,0,0,0,0,0,0.179095,-0.19967,-0.128211,-1.69497,0.351394,1.25836,0.401636,0.447582,-0.00195908,0.571633,-0.0835586,0.0846688,0.164047,0.000602626,2.38788,-27.032,2.51222,24.5349,3.31115,1.72661,-0.0566557,-2.5651,-0.207419,-2.65283,0.704678,-0.593334,-0.139336,-0.0502232,0.138277,-0.345133,-1.00698,0.583315,-0.216388,-0.0263431,
0.177394,-0.200799,-0.131868,-1.69848,0.352535,-0.30767,-0.383365,0.647219,-0.0017972,0.744747,-0.175229,0.255297,0.297346,0.00819343,0,0,0,0,0,0,0,0.179095,-0.19967,-0.128211,-1.69497,0.351394,1.25836,0.401636,0.447582,-0.00195908,0.571633,-0.0835586,0.0846688,0.164047,0.000602626,2.38788,-27.032,2.51222,24.5349,3.31115,1.72661,-0.0566557,-2.5651,-0.207419,-2.65283,0.704678,-0.593334,-0.139336,-0.0502232,0.138277,-0.345133,-1.00698,0.583315,-0.216388,-0.0263431,
0.179991,-0.200797,-0.128876,-1.69917,0.353492,-0.306463,-0.383333,0.649413,0.00035988,0.747892,-0.173285,0.239241,0.301801,0.0080487,0,0,0,0,0,0,0,0.179095,-0.19967,-0.128211,-1.69497,0.351394,1.25836,0.401636,0.447582,-0.00195908,0.571633,-0.0835586,0.0846688,0.164047,0.000602626,2.38788,-27.032,2.51222,24.5349,3.31115,1.72661,-0.0566557,-3.06697,0.522345,-3.01722,0.0923613,-0.821662,0.232908,0.240999,0.146489,0.163143,-1.11241,0.572932,-0.2529,-0.0285341,
0.182593,-0.200788,-0.125877,-1.69986,0.354384,-0.305238,-0.383301,0.650514,0.00223874,0.749789,-0.171376,0.222825,0.306125,0.00791009,0,0,0,0,0,0,0,0.179095,-0.19967,-0.128211,-1.69497,0.351394,1.25836,0.401636,0.447582,-0.00195908,0.571633,-0.0835586,0.0846688,0.164047,0.000602626,2.38788,-27.032,2.51222,24.5349,3.31115,1.72661,-0.0566557,-2.64356,0.134874,-3.27327,0.189111,-0.467523,0.0594522,0.0484948,0.360781,0.00737211,-1.18619,0.392301,-0.190835,-0.0276837,
0.185196,-0.200773,-0.122874,-1.70054,0.355209,-0.303997,-0.38327,0.650698,0.00387665,0.750637,-0.169488,0.206226,0.31039,0.00778201,0,0,0,0,0,0,0,0.194544,-0.199719,-0.109909,-1.69761,0.354233,1.2651,0.401636,0.461369,-0.0011085,0.561449,-0.0752914,0.0872973,0.219958,0.000501048,1.12232,-26.4845,1.51246,24.4873,2.85339,1.89232,-0.0566557,-2.64356,0.134874,-3.27327,0.189111,-0.467523,0.0594522,0.0484948,0.360781,0.00737211,-1.18619,0.392301,-0.190835,-0.0276837,
0.187797,-0.200751,-0.119872,-1.70121,0.355967,-0.302738,-0.383239,0.65011,0.00530837,0.750599,-0.167612,0.189665,0.314633,0.00765371,0,0,0,0,0,0,0,0.194544,-0.199719,-0.109909,-1.69761,0.354233,1.2651,0.401636,0.461369,-0.0011085,0.561449,-0.0752914,0.0872973,0.219958,0.000501048,1.12232,-26.4845,1.51246,24.4873,2.85339,1.89232,-0.0566557,-1.91102,0.292654,-3.70712,-0.0265505,0.207108,0.0997858,0.0805744,0.81391,0.0683705,-1.37646,0.323201,-0.136014,-0.0267238,
0.190392,-0.200725,-0.116873,-1.70187,0.356662,-0.301463,-0.383209,0.648848,0.00657073,0.749793,-0.165756,0.17359,0.318863,0.00751906,0,0,0,0,0,0,0,0.194544,-0.199719,-0.109909,-1.69761,0.354233,1.2651,0.401636,0.461369,-0.0011085,0.561449,-0.0752914,0.0872973,0.219958,0.000501048,1.12232,-26.4845,1.51246,24.4873,2.85339,1.89232,-0.0566557,-1.91102,0.292654,-3.70712,-0.0265505,0.207108,0.0997858,0.0805744,0.81391,0.0683705,-1.37646,0.323201,-0.136014,-0.0267238,
0.19298,-0.200694,-0.11388,-1.70253,0.357298,-0.300171,-0.38318,0.646921,0.00771288,0.748275,-0.163974,0.159118,0.323057,0.00732411,0,0,0,0,0,0,0,0.194544,-0.199719,-0.109909,-1.69761,0.354233,1.2651,0.401636,0.461369,-0.0011085,0.561449,-0.0752914,0.0872973,0.219958,0.000501048,1.12232,-26.4845,1.51246,24.4873,2.85339,1.89232,-0.0566557,-2.14471,0.895739,-3.35412,-0.39734,-0.129272,0.392069,0.391057,0.593589,0.381682,-1.20098,0.421823,-0.117148,-0.0260866,
0.195557,-0.200659,-0.110895,-1.70318,0.357888,-0.298862,-0.383151,0.644272,0.00878415,0.746112,-0.162322,0.147493,0.32717,0.00732602,0,0,0,0,0,0,0,0.194544,-0.199719,-0.109909,-1.69761,0.354233,1.2651,0.401636,0.461369,-0.0011085,0.561449,-0.0752914,0.0872973,0.219958,0.000501048,1.12232,-26.4845,1.51246,24.4873,2.85339,1.89232,-0.0566557,-2.14471,0.895739,-3.35412,-0.39734,-0.129272,0.392069,0.391057,0.593589,0.381682,-1.20098,0.421823,-0.117148,-0.0260866,
