PerkyPenguin/Analysis-on-Approximated-Derivatives/Code_and_Data/PaperData/Real_Robot/Scene_1/contact_change/3/trajectory.csv
Commanded Joint 0 Position,Commanded Joint 1 Position,Commanded Joint 2 Position,Commanded Joint 3 Position,Commanded Joint 4 Position,Commanded Joint 5 Position,Commanded Joint 6 Position,Commanded Joint 0 Velocity,Commanded Joint 1 Velocity,Commanded Joint 2 Velocity,Commanded Joint 3 Velocity,Commanded Joint 4 Velocity,Commanded Joint 5 Velocity,Commanded Joint 6 Velocity,Commanded Joint 0 Torque,Commanded Joint 1 Torque,Commanded Joint 2 Torque,Commanded Joint 3 Torque,Commanded Joint 4 Torque,Commanded Joint 5 Torque,Commanded Joint 6 Torque,Actual Joint 0 Position,Actual Joint 1 Position,Actual Joint 2 Position,Actual Joint 3 Position,Actual Joint 4 Position,Actual Joint 5 Position,Actual Joint 6 Position,Actual Joint 0 Velocity,Actual Joint 1 Velocity,Actual Joint 2 Velocity,Actual Joint 3 Velocity,Actual Joint 4 Velocity,Actual Joint 5 Velocity,Actual Joint 6 Velocity,Actual Joint 0 Torque,Actual Joint 1 Torque,Actual Joint 2 Torque,Actual Joint 3 Torque,Actual Joint 4 Torque,Actual Joint 5 Torque,Actual Joint 6 Torque,EE ext force 0,EE ext force 1,EE ext force 2,EE ext force 3,EE ext force 4,EE ext force 5,joint ext torque 0,joint ext torque 1,joint ext torque 2,joint ext torque 3,joint ext torque 4,joint ext torque 5,joint ext torque 6,
0.0318859,-0.332644,-0.315497,-1.87703,-0.148852,-0.0190835,-0.381052,-0.00158931,0.00753674,-0.0183975,-0.163845,-0.00298572,0.220145,-0.00223036,0,0,0,0,0,0,0,0.0318846,-0.33265,-0.315358,-1.8754,-0.148703,1.54951,0.404371,-0.000148689,-0.00401855,-0.00143827,-0.000946515,0.0044304,0.000787723,-0.000636874,0.134464,-20.7677,3.4366,26.5781,0.452877,3.18596,0.0101778,0.126609,-0.00815634,-0.229429,0.213382,0.184316,0.0165416,0.0365584,0.133337,-0.0701631,-0.157375,0.161036,-0.0594806,0.00188712,
0.0318761,-0.332552,-0.315585,-1.87773,-0.14886,-0.0181743,-0.381061,-0.00244181,0.0231264,-0.0219868,-0.173924,-0.0021699,0.227296,-0.00213025,0,0,0,0,0,0,0,0.0318822,-0.332636,-0.315355,-1.87539,-0.148713,1.54951,0.404375,-0.00104086,-0.00505728,-0.00262064,0.00123563,0.013384,-0.000962432,0.000894515,0.134464,-20.9184,3.41279,26.5027,0.502316,3.21892,-0.0301054,0.224897,-0.0160245,-0.269604,0.219014,0.271622,0.0306143,0.0525023,0.187598,-0.0598609,-0.181197,0.154937,-0.0584167,0.000877757,
0.03187,-0.33269,-0.315371,-1.87537,-0.1486,-0.021296,-0.381022,-0.000469217,-0.00269856,-0.000584638,0.00123738,0.00443602,-0.000214372,4.59102e-05,0,0,0,0,0,0,0,0.0318822,-0.332636,-0.315355,-1.87539,-0.148713,1.54951,0.404375,-0.00104086,-0.00505728,-0.00262064,0.00123563,0.013384,-0.000962432,0.000894515,0.134464,-20.9184,3.41279,26.5027,0.502316,3.21892,-0.0301054,0.224897,-0.0160245,-0.269604,0.219014,0.271622,0.0306143,0.0525023,0.187598,-0.0598609,-0.181197,0.154937,-0.0584167,0.000877757,
0.0318686,-0.3327,-0.315373,-1.87536,-0.148587,-0.0212961,-0.381022,-0.000351594,-0.00235167,-0.000421159,0.00111625,0.00337253,-2.27421e-05,3.52476e-05,0,0,0,0,0,0,0,0.0318822,-0.332636,-0.315355,-1.87539,-0.148713,1.54951,0.404375,-0.00104086,-0.00505728,-0.00262064,0.00123563,0.013384,-0.000962432,0.000894515,0.134464,-20.9184,3.41279,26.5027,0.502316,3.21892,-0.0301054,0.640234,-0.0271727,-0.491542,0.267246,0.643703,0.0930515,0.108122,0.420558,-0.0125065,-0.296732,0.169525,-0.0484935,-0.000440865,
0.0318676,-0.332708,-0.315374,-1.87536,-0.148576,-0.0212956,-0.381021,-0.000265052,-0.00205617,-0.000305882,0.00100134,0.00256441,0.000121594,2.73221e-05,0,0,0,0,0,0,0,0.0318822,-0.332636,-0.315355,-1.87539,-0.148713,1.54951,0.404375,-0.00104086,-0.00505728,-0.00262064,0.00123563,0.013384,-0.000962432,0.000894515,0.134464,-20.9184,3.41279,26.5027,0.502316,3.21892,-0.0301054,-0.0739121,-0.100973,-0.5115,0.291346,0.104623,-0.0503664,-0.0292692,0.118854,-0.1495,-0.211008,0.139101,-0.0270127,0.000663991,
0.0318668,-0.332715,-0.315375,-1.87535,-0.148569,-0.0212948,-0.381021,-0.000201151,-0.00180393,-0.000224699,0.000895855,0.00194646,0.000222751,2.14342e-05,0,0,0,0,0,0,0,0.0318822,-0.332636,-0.315355,-1.87539,-0.148713,1.54951,0.404375,-0.00104086,-0.00505728,-0.00262064,0.00123563,0.013384,-0.000962432,0.000894515,0.134464,-20.9184,3.41279,26.5027,0.502316,3.21892,-0.0301054,-0.0739121,-0.100973,-0.5115,0.291346,0.104623,-0.0503664,-0.0292692,0.118854,-0.1495,-0.211008,0.139101,-0.0270127,0.000663991,
0.0318662,-0.332722,-0.315376,-1.87535,-0.148563,-0.0212936,-0.381021,-0.000153735,-0.00158856,-0.000167636,0.000800536,0.00147085,0.00028713,1.70506e-05,0,0,0,0,0,0,0,0.0318784,-0.332699,-0.31535,-1.8757,-0.148752,1.54971,0.404374,-0.00228266,-0.00231621,0.00262645,-0.016978,0.0118714,0.00984104,0.000988752,0.182071,-20.4186,3.26204,25.983,0.843807,3.07976,-0.0227812,-0.519965,0.111799,-1.31019,0.260439,0.0830032,-0.0291006,-0.0031002,0.244125,-0.147512,-0.520215,0.145392,-0.0699233,0.000773673,
0.0318657,-0.332727,-0.315376,-1.87535,-0.148558,-0.0212923,-0.381021,-0.00011835,-0.00140469,-0.00012764,0.000715143,0.00110237,0.000321461,1.3775e-05,0,0,0,0,0,0,0,0.0318784,-0.332699,-0.31535,-1.8757,-0.148752,1.54971,0.404374,-0.00228266,-0.00231621,0.00262645,-0.016978,0.0118714,0.00984104,0.000988752,0.182071,-20.4186,3.26204,25.983,0.843807,3.07976,-0.0227812,-0.519965,0.111799,-1.31019,0.260439,0.0830032,-0.0291006,-0.0031002,0.244125,-0.147512,-0.520215,0.145392,-0.0699233,0.000773673,
0.0317403,-0.332632,-0.315449,-1.87527,-0.146982,-0.0220538,-0.381024,-0.0125539,0.00027657,-0.01025,0.0102496,0.192253,-0.0866178,0.000253769,0,0,0,0,0,0,0,0.0318784,-0.332699,-0.31535,-1.8757,-0.148752,1.54971,0.404374,-0.00228266,-0.00231621,0.00262645,-0.016978,0.0118714,0.00984104,0.000988752,0.182071,-20.4186,3.26204,25.983,0.843807,3.07976,-0.0227812,0.706721,0.0197553,-1.35857,0.368145,0.984034,0.126363,0.14416,0.734798,-0.0244081,-0.636737,0.186795,-0.050215,0.000711864,
0.0317587,-0.332628,-0.315426,-1.87566,-0.147046,-0.0218566,-0.381026,-0.01093,0.00583966,-0.00891348,0.00582709,0.190072,-0.0889396,0.000156718,0,0,0,0,0,0,0,0.0318784,-0.332699,-0.31535,-1.8757,-0.148752,1.54971,0.404374,-0.00228266,-0.00231621,0.00262645,-0.016978,0.0118714,0.00984104,0.000988752,0.182071,-20.4186,3.26204,25.983,0.843807,3.07976,-0.0227812,0.706721,0.0197553,-1.35857,0.368145,0.984034,0.126363,0.14416,0.734798,-0.0244081,-0.636737,0.186795,-0.050215,0.000711864,
0.0317164,-0.33261,-0.315464,-1.87564,-0.146153,-0.0222791,-0.381025,-0.010578,0.00451984,-0.00967069,0.00536773,0.223248,-0.105632,0.000339883,0,0,0,0,0,0,0,0.0318784,-0.332699,-0.31535,-1.8757,-0.148752,1.54971,0.404374,-0.00228266,-0.00231621,0.00262645,-0.016978,0.0118714,0.00984104,0.000988752,0.182071,-20.4186,3.26204,25.983,0.843807,3.07976,-0.0227812,0.0480235,-0.0591426,-0.587025,0.291779,0.208754,-0.0132517,0.0107116,0.181615,-0.121952,-0.246386,0.162155,-0.0207371,0.0018059,
0.0316772,-0.332597,-0.315503,-1.87562,-0.145157,-0.0227552,-0.381023,-0.00979857,0.00320413,-0.00963168,0.00451108,0.248929,-0.11901,0.000446847,0,0,0,0,0,0,0,0.0318784,-0.332699,-0.31535,-1.8757,-0.148752,1.54971,0.404374,-0.00228266,-0.00231621,0.00262645,-0.016978,0.0118714,0.00984104,0.000988752,0.182071,-20.4186,3.26204,25.983,0.843807,3.07976,-0.0227812,0.0480235,-0.0591426,-0.587025,0.291779,0.208754,-0.0132517,0.0107116,0.181615,-0.121952,-0.246386,0.162155,-0.0207371,0.0018059,
0.031642,-0.332589,-0.315539,-1.87561,-0.144081,-0.0232746,-0.381021,-0.00879784,0.00207236,-0.00910226,0.00361712,0.268946,-0.129872,0.000507368,0,0,0,0,0,0,0,0.0318741,-0.332674,-0.315367,-1.87565,-0.148552,1.54968,0.404372,0.00016176,0.00652863,0.00156129,0.00224174,0.0132463,0.00203877,8.49917e-05,0.106693,-20.97,3.41279,26.3797,0.850216,3.15209,-0.0026396,0.76844,0.0113422,-0.722567,0.254263,0.797579,0.130953,0.144205,0.531949,0.0237207,-0.375034,0.160156,-0.0248472,9.37751e-05,
0.0316112,-0.332584,-0.315573,-1.8756,-0.142943,-0.0238295,-0.381019,-0.00770069,0.00116263,-0.00828768,0.00280022,0.284621,-0.138705,0.000538542,0,0,0,0,0,0,0,0.0318741,-0.332674,-0.315367,-1.87565,-0.148552,1.54968,0.404372,0.00016176,0.00652863,0.00156129,0.00224174,0.0132463,0.00203877,8.49917e-05,0.106693,-20.97,3.41279,26.3797,0.850216,3.15209,-0.0026396,-0.130269,0.202506,-0.633743,0.124983,0.11163,0.0660532,0.0792198,0.147575,-0.0121053,-0.277332,0.180824,-0.0442741,0.00111135,
0.0315848,-0.332634,-0.315834,-1.87521,-0.125057,-0.0343559,-0.380919,-0.00658407,-0.00701092,-0.00669406,0.000642653,0.910139,-0.49352,0.00345737,0,0,0,0,0,0,0,0.0318741,-0.332674,-0.315367,-1.87565,-0.148552,1.54968,0.404372,0.00016176,0.00652863,0.00156129,0.00224174,0.0132463,0.00203877,8.49917e-05,0.106693,-20.97,3.41279,26.3797,0.850216,3.15209,-0.0026396,-0.130269,0.202506,-0.633743,0.124983,0.11163,0.0660532,0.0792198,0.147575,-0.0121053,-0.277332,0.180824,-0.0442741,0.00111135,
0.0315902,-0.332569,-0.315505,-1.87544,-0.14406,-0.0238181,-0.381,-0.0253186,0.0084066,-0.0181018,0.0238523,0.533425,-0.308101,0.00277087,0,0,0,0,0,0,0,0.0318741,-0.332674,-0.315367,-1.87565,-0.148552,1.54968,0.404372,0.00016176,0.00652863,0.00156129,0.00224174,0.0132463,0.00203877,8.49917e-05,0.106693,-20.97,3.41279,26.3797,0.850216,3.15209,-0.0026396,-0.0965768,0.181605,-0.366279,0.132,0.0306978,0.0617137,0.0729297,0.0556309,-0.0136771,-0.170705,0.212305,-0.036859,0.000449733,
0.0315891,-0.332531,-0.315514,-1.87535,-0.143851,-0.0236225,-0.381006,-0.0250446,0.0084584,-0.0176259,0.0241373,0.534186,-0.283966,0.00256391,0,0,0,0,0,0,0,0.0318741,-0.332674,-0.315367,-1.87565,-0.148552,1.54968,0.404372,0.00016176,0.00652863,0.00156129,0.00224174,0.0132463,0.00203877,8.49917e-05,0.106693,-20.97,3.41279,26.3797,0.850216,3.15209,-0.0026396,-0.0965768,0.181605,-0.366279,0.132,0.0306978,0.0617137,0.0729297,0.0556309,-0.0136771,-0.170705,0.212305,-0.036859,0.000449733,
0.0314966,-0.332515,-0.315588,-1.87527,-0.141307,-0.0249689,-0.380995,-0.0231177,0.00401441,-0.0186676,0.0195435,0.63609,-0.336611,0.00297747,0,0,0,0,0,0,0,0.0317643,-0.332664,-0.315406,-1.87557,-0.146591,1.54936,0.404367,-0.0119523,0.0064906,-0.00303004,0.0113059,0.195198,-0.0480867,-0.00109425,0.689884,-21.093,3.76192,26.1813,1.8399,2.56249,0.0440523,0.375406,-0.111843,-0.39167,0.404288,0.395522,0.00984774,0.011451,0.25866,-0.114174,-0.237238,0.262068,-0.055438,-0.000252791,
0.0314157,-0.332514,-0.315659,-1.87521,-0.138439,-0.0264816,-0.380982,-0.0202237,0.000273554,-0.017765,0.0148706,0.716931,-0.378155,0.00321766,0,0,0,0,0,0,0,0.0317643,-0.332664,-0.315406,-1.87557,-0.146591,1.54936,0.404367,-0.0119523,0.0064906,-0.00303004,0.0113059,0.195198,-0.0480867,-0.00109425,0.689884,-21.093,3.76192,26.1813,1.8399,2.56249,0.0440523,0.375406,-0.111843,-0.39167,0.404288,0.395522,0.00984774,0.011451,0.25866,-0.114174,-0.237238,0.262068,-0.055438,-0.000252791,
0.0313483,-0.332524,-0.315722,-1.87517,-0.135312,-0.0281254,-0.380968,-0.0168538,-0.00260513,-0.0156787,0.0106372,0.781629,-0.410959,0.00334974,0,0,0,0,0,0,0,0.0317643,-0.332664,-0.315406,-1.87557,-0.146591,1.54936,0.404367,-0.0119523,0.0064906,-0.00303004,0.0113059,0.195198,-0.0480867,-0.00109425,0.689884,-21.093,3.76192,26.1813,1.8399,2.56249,0.0440523,0.433175,0.0126078,-0.423884,0.425188,0.475719,0.0715831,0.0734713,0.317685,-0.0768294,-0.311932,0.360314,-0.109353,-0.00314657,
0.0312951,-0.332543,-0.315774,-1.87514,-0.131977,-0.0298721,-0.380955,-0.0133094,-0.00468272,-0.0129222,0.00695784,0.833807,-0.436675,0.00341126,0,0,0,0,0,0,0,0.0317643,-0.332664,-0.315406,-1.87557,-0.146591,1.54936,0.404367,-0.0119523,0.0064906,-0.00303004,0.0113059,0.195198,-0.0480867,-0.00109425,0.689884,-21.093,3.76192,26.1813,1.8399,2.56249,0.0440523,0.312691,0.105159,0.00221521,0.452616,0.278139,0.0859627,0.0936604,0.15788,-0.0850829,-0.215116,0.497833,-0.185915,-0.00197193,
0.0325332,-0.332695,-0.314608,-1.87542,-0.145367,-0.026726,-0.380868,0.0767304,-0.00863897,0.0901593,0.0133431,0.377308,-0.644694,0.0131141,0,0,0,0,0,0,0,0.0317643,-0.332664,-0.315406,-1.87557,-0.146591,1.54936,0.404367,-0.0119523,0.0064906,-0.00303004,0.0113059,0.195198,-0.0480867,-0.00109425,0.689884,-21.093,3.76192,26.1813,1.8399,2.56249,0.0440523,0.312691,0.105159,0.00221521,0.452616,0.278139,0.0859627,0.0936604,0.15788,-0.0850829,-0.215116,0.497833,-0.185915,-0.00197193,
0.0324334,-0.332743,-0.314678,-1.87535,-0.142066,-0.0273898,-0.380865,0.0790671,-0.013506,0.0899059,0.0114658,0.464123,-0.667573,0.0136764,0,0,0,0,0,0,0,0.0317643,-0.332664,-0.315406,-1.87557,-0.146591,1.54936,0.404367,-0.0119523,0.0064906,-0.00303004,0.0113059,0.195198,-0.0480867,-0.00109425,0.689884,-21.093,3.76192,26.1813,1.8399,2.56249,0.0440523,0.817677,0.0766885,0.214252,0.567341,0.620058,0.148398,0.149615,0.329085,-0.0570402,-0.250899,0.607563,-0.254895,-0.00105163,
0.03282,-0.332818,-0.314229,-1.87536,-0.139896,-0.0304746,-0.380811,0.0966633,-0.0187873,0.112164,-0.00297216,0.542518,-0.771191,0.0132509,0,0,0,0,0,0,0,0.0310804,-0.332659,-0.315689,-1.8753,-0.137572,1.54767,0.404368,-0.0279009,-0.00614036,-0.0165555,0.00474496,0.36854,-0.0629529,-0.00119116,0.840641,-20.9938,3.96425,26.3559,1.54052,2.70165,0.0303194,0.817677,0.0766885,0.214252,0.567341,0.620058,0.148398,0.149615,0.329085,-0.0570402,-0.250899,0.607563,-0.254895,-0.00105163,
0.0332662,-0.332904,-0.313708,-1.87543,-0.137441,-0.0338299,-0.38076,0.111542,-0.0215862,0.130169,-0.0175272,0.613659,-0.838824,0.0128646,0,0,0,0,0,0,0,0.0310804,-0.332659,-0.315689,-1.8753,-0.137572,1.54767,0.404368,-0.0279009,-0.00614036,-0.0165555,0.00474496,0.36854,-0.0629529,-0.00119116,0.840641,-20.9938,3.96425,26.3559,1.54052,2.70165,0.0303194,0.276658,-0.087709,0.543283,0.672991,0.149419,-0.00724856,0.00542358,0.036143,-0.226948,-0.118623,0.619691,-0.305786,-0.000793997,
0.0337633,-0.332992,-0.313129,-1.87555,-0.134732,-0.0373622,-0.38071,0.124278,-0.0219706,0.144948,-0.0300809,0.677318,-0.883083,0.0125086,0,0,0,0,0,0,0,0.0310804,-0.332659,-0.315689,-1.8753,-0.137572,1.54767,0.404368,-0.0279009,-0.00614036,-0.0165555,0.00474496,0.36854,-0.0629529,-0.00119116,0.840641,-20.9938,3.96425,26.3559,1.54052,2.70165,0.0303194,0.608122,-0.159938,0.491565,0.85499,0.507175,0.0100097,0.0553996,0.275172,-0.290484,-0.289708,0.702509,-0.429546,0.00837267,
0.0343042,-0.333074,-0.312499,-1.87571,-0.131797,-0.0410075,-0.380661,0.135236,-0.020565,0.157297,-0.0403757,0.733672,-0.911309,0.0121808,0,0,0,0,0,0,0,0.0310804,-0.332659,-0.315689,-1.8753,-0.137572,1.54767,0.404368,-0.0279009,-0.00614036,-0.0165555,0.00474496,0.36854,-0.0629529,-0.00119116,0.840641,-20.9938,3.96425,26.3559,1.54052,2.70165,0.0303194,0.608122,-0.159938,0.491565,0.85499,0.507175,0.0100097,0.0553996,0.275172,-0.290484,-0.289708,0.702509,-0.429546,0.00837267,
0.0348831,-0.333146,-0.311828,-1.87591,-0.128664,-0.0447202,-0.380614,0.144705,-0.0179954,0.167765,-0.0486736,0.783163,-0.928177,0.0118767,0,0,0,0,0,0,0,0.0310804,-0.332659,-0.315689,-1.8753,-0.137572,1.54767,0.404368,-0.0279009,-0.00614036,-0.0165555,0.00474496,0.36854,-0.0629529,-0.00119116,0.840641,-20.9938,3.96425,26.3559,1.54052,2.70165,0.0303194,0.748034,0.13613,0.995626,0.589463,0.527413,0.147362,0.189816,0.254198,-0.103812,-0.206341,0.703336,-0.518591,0.0146358,
0.0331603,-0.333064,-0.313989,-1.87585,-0.143239,-0.0272377,-0.380831,0.157747,-0.0441134,0.171424,-0.0373438,0.343468,-0.657692,0.0162178,0,0,0,0,0,0,0,0.0309102,-0.332808,-0.315689,-1.87494,-0.128122,1.54373,0.404373,-0.00194936,-0.0116856,0.0144349,0.0113086,0.289393,-0.190987,-0.000496774,1.75708,-20.6209,5.61067,25.4077,1.60095,2.05163,0.0303194,0.748034,0.13613,0.995626,0.589463,0.527413,0.147362,0.189816,0.254198,-0.103812,-0.206341,0.703336,-0.518591,0.0146358,
0.0323973,-0.333359,-0.314157,-1.87528,-0.123915,-0.0338364,-0.380807,0.163507,-0.0541472,0.17837,-0.0452493,0.404579,-0.704774,0.0172167,0,0,0,0,0,0,0,0.0309102,-0.332808,-0.315689,-1.87494,-0.128122,1.54373,0.404373,-0.00194936,-0.0116856,0.0144349,0.0113086,0.289393,-0.190987,-0.000496774,1.75708,-20.6209,5.61067,25.4077,1.60095,2.05163,0.0303194,1.32777,0.504172,1.06808,0.303415,0.997474,0.383899,0.384942,0.540465,0.20278,-0.30231,0.696297,-0.576105,0.0154744,
0.0331661,-0.333586,-0.313296,-1.87553,-0.122038,-0.0369464,-0.380741,0.192188,-0.056765,0.215435,-0.0631284,0.469345,-0.777496,0.0163058,0,0,0,0,0,0,0,0.0309102,-0.332808,-0.315689,-1.87494,-0.128122,1.54373,0.404373,-0.00194936,-0.0116856,0.0144349,0.0113086,0.289393,-0.190987,-0.000496774,1.75708,-20.6209,5.61067,25.4077,1.60095,2.05163,0.0303194,1.32777,0.504172,1.06808,0.303415,0.997474,0.383899,0.384942,0.540465,0.20278,-0.30231,0.696297,-0.576105,0.0154744,
0.0340297,-0.333809,-0.312316,-1.87585,-0.119898,-0.0402251,-0.380679,0.215908,-0.0558206,0.244877,-0.0783041,0.534861,-0.819671,0.0155556,0,0,0,0,0,0,0,0.0309102,-0.332808,-0.315689,-1.87494,-0.128122,1.54373,0.404373,-0.00194936,-0.0116856,0.0144349,0.0113086,0.289393,-0.190987,-0.000496774,1.75708,-20.6209,5.61067,25.4077,1.60095,2.05163,0.0303194,1.0658,1.56489,1.27759,-0.365301,0.851753,0.77684,0.751114,0.494488,0.698831,-0.374532,0.816901,-0.729285,0.0178034,
0.0349726,-0.334019,-0.311242,-1.87621,-0.117506,-0.0435941,-0.380619,0.235716,-0.0523642,0.268667,-0.090373,0.597997,-0.842263,0.0149231,0,0,0,0,0,0,0,0.0309102,-0.332808,-0.315689,-1.87494,-0.128122,1.54373,0.404373,-0.00194936,-0.0116856,0.0144349,0.0113086,0.289393,-0.190987,-0.000496774,1.75708,-20.6209,5.61067,25.4077,1.60095,2.05163,0.0303194,0.284489,2.01908,1.22985,-0.644151,0.414748,0.840939,0.831263,0.319933,0.790266,-0.463409,0.829776,-0.867331,0.0222933,
0.0359821,-0.334208,-0.310089,-1.87661,-0.114878,-0.0470014,-0.380562,0.252381,-0.0473965,0.288191,-0.0997661,0.657011,-0.851812,0.0143784,0,0,0,0,0,0,0,0.0309102,-0.332808,-0.315689,-1.87494,-0.128122,1.54373,0.404373,-0.00194936,-0.0116856,0.0144349,0.0113086,0.289393,-0.190987,-0.000496774,1.75708,-20.6209,5.61067,25.4077,1.60095,2.05163,0.0303194,0.284489,2.01908,1.22985,-0.644151,0.414748,0.840939,0.831263,0.319933,0.790266,-0.463409,0.829776,-0.867331,0.0222933,
0.0330894,-0.333576,-0.313504,-1.87568,-0.125016,-0.0337701,-0.380813,0.238729,-0.0728831,0.255714,-0.082341,0.291088,-0.713888,0.016844,0,0,0,0,0,0,0,0.0311332,-0.333303,-0.315028,-1.87488,-0.119295,1.53647,0.404384,0.0175119,-0.0214526,0.0384069,-0.00927065,0.21209,-0.230398,0.00459227,2.03479,-21.4699,5.73762,26.2051,1.22833,2.13769,0.0101778,0.016925,1.12732,1.01396,-0.108411,0.374152,0.427335,0.440385,0.3586,0.302785,-0.539825,0.648299,-0.90953,0.0254587,
0.033394,-0.334081,-0.312714,-1.87577,-0.116566,-0.0409798,-0.380774,0.241552,-0.0729801,0.261243,-0.098606,0.27435,-0.661906,0.0184959,0,0,0,0,0,0,0,0.0311332,-0.333303,-0.315028,-1.87488,-0.119295,1.53647,0.404384,0.0175119,-0.0214526,0.0384069,-0.00927065,0.21209,-0.230398,0.00459227,2.03479,-21.4699,5.73762,26.2051,1.22833,2.13769,0.0101778,0.016925,1.12732,1.01396,-0.108411,0.374152,0.427335,0.440385,0.3586,0.302785,-0.539825,0.648299,-0.90953,0.0254587,
0.0345154,-0.334369,-0.311471,-1.87624,-0.115198,-0.0438391,-0.380705,0.280358,-0.0720545,0.310823,-0.116314,0.342002,-0.714821,0.0172882,0,0,0,0,0,0,0,0.0311332,-0.333303,-0.315028,-1.87488,-0.119295,1.53647,0.404384,0.0175119,-0.0214526,0.0384069,-0.00927065,0.21209,-0.230398,0.00459227,2.03479,-21.4699,5.73762,26.2051,1.22833,2.13769,0.0101778,-1.01525,-0.483121,1.11951,0.787608,-0.338059,-0.402387,-0.351052,-0.0252083,-0.625403,-0.376044,0.333273,-0.924676,0.0277934,
0.0357643,-0.334638,-0.31007,-1.87675,-0.113542,-0.0468182,-0.38064,0.312226,-0.0672952,0.350351,-0.129709,0.414122,-0.744784,0.0163262,0,0,0,0,0,0,0,0.0311332,-0.333303,-0.315028,-1.87488,-0.119295,1.53647,0.404384,0.0175119,-0.0214526,0.0384069,-0.00927065,0.21209,-0.230398,0.00459227,2.03479,-21.4699,5.73762,26.2051,1.22833,2.13769,0.0101778,-1.19211,0.29886,1.05428,0.21583,-0.434765,-0.0956357,-0.0463383,-0.0532574,-0.231757,-0.414103,0.33387,-0.93608,0.0261543,
0.0371189,-0.33488,-0.30854,-1.87731,-0.111598,-0.0498555,-0.380578,0.338653,-0.0603917,0.382323,-0.139832,0.485955,-0.759329,0.0155356,0,0,0,0,0,0,0,0.0311332,-0.333303,-0.315028,-1.87488,-0.119295,1.53647,0.404384,0.0175119,-0.0214526,0.0384069,-0.00927065,0.21209,-0.230398,0.00459227,2.03479,-21.4699,5.73762,26.2051,1.22833,2.13769,0.0101778,-1.19211,0.29886,1.05428,0.21583,-0.434765,-0.0956357,-0.0463383,-0.0532574,-0.231757,-0.414103,0.33387,-0.93608,0.0261543,
0.0385619,-0.335089,-0.306906,-1.8779,-0.109379,-0.0529089,-0.380518,0.360728,-0.0524703,0.408501,-0.147517,0.554709,-0.763336,0.0148687,0,0,0,0,0,0,0,0.0325568,-0.334287,-0.312789,-1.87538,-0.11128,1.52835,0.404393,0.0719,-0.0363671,0.0744187,-0.0336352,0.202287,-0.26095,0.00299816,1.85627,-21.3945,5.98756,26.5027,1.30798,2.44256,-0.00996382,-0.664477,1.29169,1.00067,-0.44611,-0.067901,0.39557,0.401266,0.153175,0.372877,-0.482607,0.427479,-0.908688,0.0270772,
0.0340078,-0.334284,-0.31215,-1.87611,-0.117524,-0.0410578,-0.380797,0.307693,-0.091448,0.328321,-0.13118,0.175971,-0.68235,0.0170682,0,0,0,0,0,0,0,0.0325568,-0.334287,-0.312789,-1.87538,-0.11128,1.52835,0.404393,0.0719,-0.0363671,0.0744187,-0.0336352,0.202287,-0.26095,0.00299816,1.85627,-21.3945,5.98756,26.5027,1.30798,2.44256,-0.00996382,-0.664477,1.29169,1.00067,-0.44611,-0.067901,0.39557,0.401266,0.153175,0.372877,-0.482607,0.427479,-0.908688,0.0270772,
0.0356826,-0.335293,-0.309596,-1.87684,-0.10915,-0.0482642,-0.380757,0.322782,-0.0895755,0.34658,-0.148474,0.213966,-0.557725,0.0189281,0,0,0,0,0,0,0,0.0325568,-0.334287,-0.312789,-1.87538,-0.11128,1.52835,0.404393,0.0719,-0.0363671,0.0744187,-0.0336352,0.202287,-0.26095,0.00299816,1.85627,-21.3945,5.98756,26.5027,1.30798,2.44256,-0.00996382,-1.48316,-0.101533,0.598976,0.354063,-0.540026,-0.303473,-0.262918,-0.0613448,-0.422991,-0.451599,0.1357,-0.836162,0.0287207,
0.037156,-0.335632,-0.307978,-1.87749,-0.108034,-0.0506464,-0.380687,0.36835,-0.0847664,0.404707,-0.163276,0.27886,-0.595548,0.0175343,0,0,0,0,0,0,0,0.0325568,-0.334287,-0.312789,-1.87538,-0.11128,1.52835,0.404393,0.0719,-0.0363671,0.0744187,-0.0336352,0.202287,-0.26095,0.00299816,1.85627,-21.3945,5.98756,26.5027,1.30798,2.44256,-0.00996382,-1.42869,-0.25791,0.414151,0.340917,-0.522302,-0.346605,-0.284879,-0.0620298,-0.459065,-0.403254,0.00433965,-0.71431,0.0276804,
0.0387782,-0.335938,-0.306173,-1.87819,-0.106628,-0.0531121,-0.380621,0.405553,-0.07662,0.451042,-0.17374,0.351558,-0.616403,0.0164403,0,0,0,0,0,0,0,0.0325568,-0.334287,-0.312789,-1.87538,-0.11128,1.52835,0.404393,0.0719,-0.0363671,0.0744187,-0.0336352,0.202287,-0.26095,0.00299816,1.85627,-21.3945,5.98756,26.5027,1.30798,2.44256,-0.00996382,-1.42869,-0.25791,0.414151,0.340917,-0.522302,-0.346605,-0.284879,-0.0620298,-0.459065,-0.403254,0.00433965,-0.71431,0.0276804,
0.0405231,-0.336206,-0.30422,-1.87891,-0.104924,-0.0556131,-0.380559,0.436218,-0.066945,0.488428,-0.181403,0.426102,-0.625273,0.015554,0,0,0,0,0,0,0,0.0325568,-0.334287,-0.312789,-1.87538,-0.11128,1.52835,0.404393,0.0719,-0.0363671,0.0744187,-0.0336352,0.202287,-0.26095,0.00299816,1.85627,-21.3945,5.98756,26.5027,1.30798,2.44256,-0.00996382,-0.0756345,1.15816,0.0172304,-0.52808,0.538971,0.446518,0.46475,0.567178,0.447242,-0.67293,0.170411,-0.667318,0.0282603,
0.0423697,-0.336433,-0.302144,-1.87966,-0.102928,-0.058116,-0.3805,0.461665,-0.0567914,0.518899,-0.18713,0.498866,-0.625704,0.0148167,0,0,0,0,0,0,0,0.0370666,-0.336808,-0.307474,-1.87716,-0.103979,1.51576,0.404406,0.13826,-0.0753012,0.150246,-0.0530754,0.102188,-0.302862,0.000629375,2.69336,-20.8193,6.48744,25.4593,0.795284,2.74102,-0.00996382,-0.0756345,1.15816,0.0172304,-0.52808,0.538971,0.446518,0.46475,0.567178,0.447242,-0.67293,0.170411,-0.667318,0.0282603,
0.0443012,-0.33662,-0.299968,-1.88043,-0.100657,-0.0605967,-0.380443,0.482876,-0.0467659,0.543934,-0.191437,0.567746,-0.620189,0.0141889,0,0,0,0,0,0,0,0.0370666,-0.336808,-0.307474,-1.87716,-0.103979,1.51576,0.404406,0.13826,-0.0753012,0.150246,-0.0530754,0.102188,-0.302862,0.000629375,2.69336,-20.8193,6.48744,25.4593,0.795284,2.74102,-0.00996382,-0.623987,-0.176912,-0.148318,0.35318,0.173757,-0.193249,-0.148793,0.365446,-0.319326,-0.606054,0.0360427,-0.621991,0.0308494,
0.036316,-0.335444,-0.309244,-1.87708,-0.109944,-0.0487417,-0.380792,0.385086,-0.10428,0.394921,-0.176533,0.133374,-0.59804,0.0167897,0,0,0,0,0,0,0,0.0370666,-0.336808,-0.307474,-1.87716,-0.103979,1.51576,0.404406,0.13826,-0.0753012,0.150246,-0.0530754,0.102188,-0.302862,0.000629375,2.69336,-20.8193,6.48744,25.4593,0.795284,2.74102,-0.00996382,-0.623987,-0.176912,-0.148318,0.35318,0.173757,-0.193249,-0.148793,0.365446,-0.319326,-0.606054,0.0360427,-0.621991,0.0308494,
0.0411632,-0.33815,-0.303316,-1.87902,-0.102815,-0.0601896,-0.380749,0.405892,-0.110873,0.433281,-0.18155,0.142157,-0.475645,0.0186007,0,0,0,0,0,0,0,0.0370666,-0.336808,-0.307474,-1.87716,-0.103979,1.51576,0.404406,0.13826,-0.0753012,0.150246,-0.0530754,0.102188,-0.302862,0.000629375,2.69336,-20.8193,6.48744,25.4593,0.795284,2.74102,-0.00996382,-2.38406,-1.49219,-0.237946,1.14137,-1.14571,-0.983459,-0.847655,-0.391427,-1.24303,-0.354049,-0.175627,-0.538237,0.0330761,
0.0429778,-0.338552,-0.301328,-1.8798,-0.10196,-0.0621905,-0.38068,0.453665,-0.10054,0.496985,-0.194925,0.213753,-0.500222,0.0172647,0,0,0,0,0,0,0,0.0370666,-0.336808,-0.307474,-1.87716,-0.103979,1.51576,0.404406,0.13826,-0.0753012,0.150246,-0.0530754,0.102188,-0.302862,0.000629375,2.69336,-20.8193,6.48744,25.4593,0.795284,2.74102,-0.00996382,-1.911,-0.596093,-0.479514,0.56309,-0.777409,-0.534105,-0.424436,-0.167572,-0.70873,-0.463635,-0.0912261,-0.487698,0.0294381,
0.0449531,-0.338904,-0.299139,-1.88062,-0.100789,-0.0642411,-0.380615,0.493824,-0.0879352,0.547032,-0.20399,0.292697,-0.512642,0.0161869,0,0,0,0,0,0,0,0.0427306,-0.339196,-0.301245,-1.8795,-0.0999853,1.50603,0.40442,0.196013,-0.0809285,0.203551,-0.0813746,0.137029,-0.309576,0.00199484,3.42731,-20.371,7.56257,25.4315,1.68701,2.55608,-0.0566557,-1.911,-0.596093,-0.479514,0.56309,-0.777409,-0.534105,-0.424436,-0.167572,-0.70873,-0.463635,-0.0912261,-0.487698,0.0294381,
0.047061,-0.339203,-0.29679,-1.88146,-0.0992955,-0.0663051,-0.380554,0.526968,-0.0746695,0.587363,-0.210535,0.373326,-0.516017,0.0153014,0,0,0,0,0,0,0,0.0427306,-0.339196,-0.301245,-1.8795,-0.0999853,1.50603,0.40442,0.196013,-0.0809285,0.203551,-0.0813746,0.137029,-0.309576,0.00199484,3.42731,-20.371,7.56257,25.4315,1.68701,2.55608,-0.0566557,-0.250346,1.90399,-0.766909,-0.942084,0.503819,0.74038,0.762817,0.598218,0.774295,-0.815396,0.265022,-0.508939,0.0245381,
0.0492786,-0.339449,-0.294309,-1.88232,-0.0974877,-0.0683567,-0.380496,0.554399,-0.0616149,0.620194,-0.215397,0.451945,-0.51288,0.0145587,0,0,0,0,0,0,0,0.0427306,-0.339196,-0.301245,-1.8795,-0.0999853,1.50603,0.40442,0.196013,-0.0809285,0.203551,-0.0813746,0.137029,-0.309576,0.00199484,3.42731,-20.371,7.56257,25.4315,1.68701,2.55608,-0.0566557,-0.250346,1.90399,-0.766909,-0.942084,0.503819,0.74038,0.762817,0.598218,0.774295,-0.815396,0.265022,-0.508939,0.0245381,
0.0515873,-0.339646,-0.291721,-1.8832,-0.0953823,-0.0703771,-0.38044,0.577172,-0.0492294,0.647096,-0.219026,0.526375,-0.505109,0.0139227,0,0,0,0,0,0,0,0.0427306,-0.339196,-0.301245,-1.8795,-0.0999853,1.50603,0.40442,0.196013,-0.0809285,0.203551,-0.0813746,0.137029,-0.309576,0.00199484,3.42731,-20.371,7.56257,25.4315,1.68701,2.55608,-0.0566557,-1.20492,1.08971,-0.138065,-0.440785,-0.411864,0.251328,0.25769,-0.00758546,0.258195,-0.465248,0.241415,-0.510277,0.0280865,
0.0420575,-0.338262,-0.303671,-1.87923,-0.103246,-0.0603319,-0.380796,0.485864,-0.120827,0.408652,-0.206259,0.1035,-0.480581,0.0153313,0,0,0,0,0,0,0,0.0427306,-0.339196,-0.301245,-1.8795,-0.0999853,1.50603,0.40442,0.196013,-0.0809285,0.203551,-0.0813746,0.137029,-0.309576,0.00199484,3.42731,-20.371,7.56257,25.4315,1.68701,2.55608,-0.0566557,-2.4505,-1.14799,-0.695557,1.03617,-1.12494,-0.828827,-0.707749,-0.352629,-1.08919,-0.472071,-0.0465254,-0.479159,0.0264124,
0.0480262,-0.340574,-0.296927,-1.88176,-0.0985227,-0.0691239,-0.380746,0.505698,-0.110801,0.443313,-0.214468,0.16678,-0.387352,0.0173527,0,0,0,0,0,0,0,0.0494511,-0.341833,-0.293662,-1.88244,-0.0987065,1.49813,0.404417,0.242077,-0.0775905,0.303658,-0.0966776,0.0704052,-0.257837,-0.00127938,5.33161,-19.4228,8.98683,25.3601,2.27935,2.59545,0.017502,-2.4505,-1.14799,-0.695557,1.03617,-1.12494,-0.828827,-0.707749,-0.352629,-1.08919,-0.472071,-0.0465254,-0.479159,0.0264124,
0.0502319,-0.340966,-0.2949,-1.88267,-0.0975754,-0.070724,-0.380681,0.551441,-0.0980416,0.506586,-0.22618,0.236838,-0.400028,0.0160462,0,0,0,0,0,0,0,0.0494511,-0.341833,-0.293662,-1.88244,-0.0987065,1.49813,0.404417,0.242077,-0.0775905,0.303658,-0.0966776,0.0704052,-0.257837,-0.00127938,5.33161,-19.4228,8.98683,25.3601,2.27935,2.59545,0.017502,-2.5372,-0.721803,-1.06856,0.840817,-1.08157,-0.641307,-0.47786,-0.283618,-0.929043,-0.616079,0.0284675,-0.479337,0.0217956,
0.0525866,-0.341301,-0.292667,-1.8836,-0.0963227,-0.0723421,-0.380621,0.588669,-0.0837198,0.558261,-0.233757,0.313183,-0.40452,0.0150447,0,0,0,0,0,0,0,0.0494511,-0.341833,-0.293662,-1.88244,-0.0987065,1.49813,0.404417,0.242077,-0.0775905,0.303658,-0.0966776,0.0704052,-0.257837,-0.00127938,5.33161,-19.4228,8.98683,25.3601,2.27935,2.59545,0.017502,-2.5372,-0.721803,-1.06856,0.840817,-1.08157,-0.641307,-0.47786,-0.283618,-0.929043,-0.616079,0.0284675,-0.479337,0.0217956,
0.0550634,-0.341579,-0.290264,-1.88456,-0.0947608,-0.0739525,-0.380564,0.619203,-0.0693196,0.600962,-0.238994,0.390475,-0.402602,0.0142388,0,0,0,0,0,0,0,0.0494511,-0.341833,-0.293662,-1.88244,-0.0987065,1.49813,0.404417,0.242077,-0.0775905,0.303658,-0.0966776,0.0704052,-0.257837,-0.00127938,5.33161,-19.4228,8.98683,25.3601,2.27935,2.59545,0.017502,-1.03064,2.44692,-0.747628,-1.1325,-0.11773,0.877432,0.944418,0.236287,0.876545,-0.756642,0.491105,-0.518834,0.0151638,
0.0576408,-0.341801,-0.287717,-1.88553,-0.0928989,-0.0755363,-0.38051,0.644346,-0.0555497,0.636631,-0.242715,0.465461,-0.395936,0.0135709,0,0,0,0,0,0,0,0.0494511,-0.341833,-0.293662,-1.88244,-0.0987065,1.49813,0.404417,0.242077,-0.0775905,0.303658,-0.0966776,0.0704052,-0.257837,-0.00127938,5.33161,-19.4228,8.98683,25.3601,2.27935,2.59545,0.017502,-1.03064,2.44692,-0.747628,-1.1325,-0.11773,0.877432,0.944418,0.236287,0.876545,-0.756642,0.491105,-0.518834,0.0151638,
0.0482287,-0.340623,-0.297008,-1.88196,-0.098616,-0.0691296,-0.380805,0.527185,-0.114993,0.43572,-0.236305,0.157187,-0.382214,0.0133715,0,0,0,0,0,0,0,0.0494511,-0.341833,-0.293662,-1.88244,-0.0987065,1.49813,0.404417,0.242077,-0.0775905,0.303658,-0.0966776,0.0704052,-0.257837,-0.00127938,5.33161,-19.4228,8.98683,25.3601,2.27935,2.59545,0.017502,-0.821343,1.74036,-0.98414,-0.564264,0.143767,0.591222,0.591324,0.415802,0.543225,-0.873093,0.521873,-0.54102,0.0117687,
0.0554412,-0.343132,-0.288765,-1.88496,-0.0973891,-0.0758877,-0.38078,0.560808,-0.102268,0.478324,-0.236216,0.172729,-0.280755,0.0148895,0,0,0,0,0,0,0,0.0589206,-0.344652,-0.284533,-1.88589,-0.0973187,1.49164,0.404415,0.322622,-0.0864018,0.303229,-0.122556,0.0284265,-0.14338,-0.00232935,3.91132,-20.0694,6.83656,24.5111,1.40594,2.57531,0.0440523,-3.84102,-0.817469,-1.37628,1.1282,-1.91938,-0.841807,-0.711682,-0.704535,-1.16909,-0.669676,0.227139,-0.542629,0.015993,
0.057862,-0.343486,-0.286633,-1.88594,-0.096386,-0.0770434,-0.380725,0.605199,-0.0885434,0.533112,-0.247433,0.250783,-0.288932,0.0139062,0,0,0,0,0,0,0,0.0589206,-0.344652,-0.284533,-1.88589,-0.0973187,1.49164,0.404415,0.322622,-0.0864018,0.303229,-0.122556,0.0284265,-0.14338,-0.00232935,3.91132,-20.0694,6.83656,24.5111,1.40594,2.57531,0.0440523,-3.84102,-0.817469,-1.37628,1.1282,-1.91938,-0.841807,-0.711682,-0.704535,-1.16909,-0.669676,0.227139,-0.542629,0.015993,
0.060431,-0.343781,-0.284319,-1.88696,-0.0950635,-0.0782093,-0.380672,0.642245,-0.0738189,0.578294,-0.254373,0.330621,-0.291471,0.0131773,0,0,0,0,0,0,0,0.0589206,-0.344652,-0.284533,-1.88589,-0.0973187,1.49164,0.404415,0.322622,-0.0864018,0.303229,-0.122556,0.0284265,-0.14338,-0.00232935,3.91132,-20.0694,6.83656,24.5111,1.40594,2.57531,0.0440523,-3.61116,1.36196,-1.44637,-0.327839,-1.79682,0.13684,0.292614,-0.615958,-0.0220042,-0.733346,0.403968,-0.500717,0.00875602,
0.0631251,-0.344019,-0.281856,-1.888,-0.0934295,-0.0793658,-0.380621,0.673516,-0.0594047,0.61593,-0.258951,0.408508,-0.289128,0.0126007,0,0,0,0,0,0,0,0.0589206,-0.344652,-0.284533,-1.88589,-0.0973187,1.49164,0.404415,0.322622,-0.0864018,0.303229,-0.122556,0.0284265,-0.14338,-0.00232935,3.91132,-20.0694,6.83656,24.5111,1.40594,2.57531,0.0440523,-3.61116,1.36196,-1.44637,-0.327839,-1.79682,0.13684,0.292614,-0.615958,-0.0220042,-0.733346,0.403968,-0.500717,0.00875602,
0.0659255,-0.344202,-0.279265,-1.88905,-0.0915004,-0.0804977,-0.380573,0.700116,-0.0458671,0.647575,-0.262026,0.482281,-0.282968,0.01213,0,0,0,0,0,0,0,0.0589206,-0.344652,-0.284533,-1.88589,-0.0973187,1.49164,0.404415,0.322622,-0.0864018,0.303229,-0.122556,0.0284265,-0.14338,-0.00232935,3.91132,-20.0694,6.83656,24.5111,1.40594,2.57531,0.0440523,-1.75613,2.49546,-1.02419,-1.03896,-0.609298,0.814691,0.831323,-0.0112631,0.824579,-0.757757,0.633396,-0.476919,0.00547578,
0.053198,-0.342722,-0.290678,-1.88401,-0.0980801,-0.0747647,-0.38084,0.506224,-0.111967,0.411533,-0.216202,0.102845,-0.267785,0.0164333,0,0,0,0,0,0,0,0.0702353,-0.347339,-0.274402,-1.8902,-0.0961919,1.48834,0.404423,0.380098,-0.0962004,0.306982,-0.154001,0.0223603,-0.0449947,-0.00118518,2.61798,-20.0694,5.28932,25.0348,1.29608,2.62841,0.017502,-1.75613,2.49546,-1.02419,-1.03896,-0.609298,0.814691,0.831323,-0.0112631,0.824579,-0.757757,0.633396,-0.476919,0.00547578,
0.0766864,-0.348497,-0.269011,-1.8928,-0.0946558,-0.0839036,-0.380775,0.590122,-0.0868855,0.513775,-0.23208,0.202072,-0.154374,0.0155262,0,0,0,0,0,0,0,0.0702353,-0.347339,-0.274402,-1.8902,-0.0961919,1.48834,0.404423,0.380098,-0.0962004,0.306982,-0.154001,0.0223603,-0.0449947,-0.00118518,2.61798,-20.0694,5.28932,25.0348,1.29608,2.62841,0.017502,-1.90128,-0.199417,-1.72866,0.850691,-0.435668,-0.321332,-0.213439,0.128828,-0.657988,-0.944901,0.420013,-0.479506,0.00970264,
0.0792065,-0.348792,-0.266758,-1.89376,-0.0935207,-0.0846109,-0.380717,0.63001,-0.0737935,0.563209,-0.239978,0.28377,-0.176834,0.0144885,0,0,0,0,0,0,0,0.0702353,-0.347339,-0.274402,-1.8902,-0.0961919,1.48834,0.404423,0.380098,-0.0962004,0.306982,-0.154001,0.0223603,-0.0449947,-0.00118518,2.61798,-20.0694,5.28932,25.0348,1.29608,2.62841,0.017502,-2.69596,-0.385247,-2.43916,0.979863,-0.804229,-0.450433,-0.246992,0.00799624,-0.874775,-1.10151,0.33009,-0.444396,0.00537877,
0.0818603,-0.349034,-0.264341,-1.89474,-0.092062,-0.0853763,-0.380662,0.663473,-0.060552,0.604113,-0.245447,0.364665,-0.191351,0.0136742,0,0,0,0,0,0,0,0.0702353,-0.347339,-0.274402,-1.8902,-0.0961919,1.48834,0.404423,0.380098,-0.0962004,0.306982,-0.154001,0.0223603,-0.0449947,-0.00118518,2.61798,-20.0694,5.28932,25.0348,1.29608,2.62841,0.017502,-2.69596,-0.385247,-2.43916,0.979863,-0.804229,-0.450433,-0.246992,0.00799624,-0.874775,-1.10151,0.33009,-0.444396,0.00537877,
0.0846275,-0.349226,-0.261788,-1.89574,-0.0902938,-0.0861735,-0.38061,0.691791,-0.0478533,0.638282,-0.249394,0.442054,-0.19931,0.0130181,0,0,0,0,0,0,0,0.0702353,-0.347339,-0.274402,-1.8902,-0.0961919,1.48834,0.404423,0.380098,-0.0962004,0.306982,-0.154001,0.0223603,-0.0449947,-0.00118518,2.61798,-20.0694,5.28932,25.0348,1.29608,2.62841,0.017502,-1.93823,1.66717,-2.22047,-0.389246,-0.31991,0.485962,0.561725,0.304116,0.331636,-1.16418,0.556522,-0.461271,0.00120381,
0.0874912,-0.34937,-0.25912,-1.89675,-0.0882362,-0.0869818,-0.38056,0.715915,-0.0360027,0.66707,-0.252235,0.514406,-0.202054,0.0124792,0,0,0,0,0,0,0,0.0702353,-0.347339,-0.274402,-1.8902,-0.0961919,1.48834,0.404423,0.380098,-0.0962004,0.306982,-0.154001,0.0223603,-0.0449947,-0.00118518,2.61798,-20.0694,5.28932,25.0348,1.29608,2.62841,0.017502,-1.93823,1.66717,-2.22047,-0.389246,-0.31991,0.485962,0.561725,0.304116,0.331636,-1.16418,0.556522,-0.461271,0.00120381,
0.0743259,-0.348149,-0.271066,-1.89187,-0.0954641,-0.0832861,-0.380837,0.541892,-0.0982775,0.453512,-0.21962,0.124118,-0.123142,0.0168649,0,0,0,0,0,0,0,0.0835453,-0.350115,-0.262853,-1.89517,-0.0948671,1.48751,0.404425,0.420591,-0.081961,0.343604,-0.153961,0.0259211,-0.00264028,-0.000794642,0.638309,-20.3432,4.26179,26.1813,0.97839,2.54235,0.0239107,-1.49829,-0.0298582,-1.10808,0.586679,-0.365577,-0.194774,-0.162313,0.0796601,-0.409315,-0.71296,0.39156,-0.436748,0.00356934,
0.0902719,-0.351113,-0.257121,-1.89774,-0.0930522,-0.0841779,-0.380766,0.608968,-0.0745912,0.53713,-0.227885,0.229671,-0.108189,0.0160575,0,0,0,0,0,0,0,0.0835453,-0.350115,-0.262853,-1.89517,-0.0948671,1.48751,0.404425,0.420591,-0.081961,0.343604,-0.153961,0.0259211,-0.00264028,-0.000794642,0.638309,-20.3432,4.26179,26.1813,0.97839,2.54235,0.0239107,-1.49829,-0.0298582,-1.10808,0.586679,-0.365577,-0.194774,-0.162313,0.0796601,-0.409315,-0.71296,0.39156,-0.436748,0.00356934,
0.0928559,-0.351365,-0.25479,-1.89868,-0.0918029,-0.0847072,-0.380706,0.645981,-0.0627889,0.582896,-0.234919,0.312342,-0.132314,0.0149472,0,0,0,0,0,0,0,0.0835453,-0.350115,-0.262853,-1.89517,-0.0948671,1.48751,0.404425,0.420591,-0.081961,0.343604,-0.153961,0.0259211,-0.00264028,-0.000794642,0.638309,-20.3432,4.26179,26.1813,0.97839,2.54235,0.0239107,-1.95402,-0.818172,-1.46749,1.04035,-0.579581,-0.53468,-0.404551,-0.0113053,-0.868798,-0.763109,0.21053,-0.412585,-0.000362189,
0.0955642,-0.351568,-0.252306,-1.89964,-0.0902315,-0.0853022,-0.38065,0.677097,-0.0508503,0.620885,-0.23976,0.392837,-0.148744,0.0140683,0,0,0,0,0,0,0,0.0835453,-0.350115,-0.262853,-1.89517,-0.0948671,1.48751,0.404425,0.420591,-0.081961,0.343604,-0.153961,0.0259211,-0.00264028,-0.000794642,0.638309,-20.3432,4.26179,26.1813,0.97839,2.54235,0.0239107,-1.19785,0.874135,-1.55117,-0.078967,-0.0252413,0.26414,0.36055,0.343215,0.0874824,-0.8908,0.36592,-0.390131,-0.00463671,
0.0983781,-0.351726,-0.249695,-1.90061,-0.0883555,-0.0859367,-0.380597,0.703469,-0.0393963,0.652702,-0.243248,0.468993,-0.158636,0.0133562,0,0,0,0,0,0,0,0.0835453,-0.350115,-0.262853,-1.89517,-0.0948671,1.48751,0.404425,0.420591,-0.081961,0.343604,-0.153961,0.0259211,-0.00264028,-0.000794642,0.638309,-20.3432,4.26179,26.1813,0.97839,2.54235,0.0239107,-1.19785,0.874135,-1.55117,-0.078967,-0.0252413,0.26414,0.36055,0.343215,0.0874824,-0.8908,0.36592,-0.390131,-0.00463671,
0.101282,-0.35184,-0.246977,-1.90159,-0.086197,-0.0865896,-0.380545,0.725963,-0.0286945,0.679565,-0.245751,0.539638,-0.16322,0.0127687,0,0,0,0,0,0,0,0.102299,-0.352867,-0.246371,-1.90159,-0.0911785,1.48763,0.404424,0.443189,-0.0454233,0.39613,-0.141738,0.0784256,-0.000883695,-1.79002e-05,3.42731,-20.6209,6.11055,25.134,1.56433,2.13769,0.017502,-0.993858,2.6568,-0.600401,-1.30564,-0.165708,1.02896,1.03743,0.206613,1.0981,-0.65102,0.570174,-0.44247,-0.0069776,
0.0878361,-0.350815,-0.25927,-1.89682,-0.0939709,-0.0837452,-0.38083,0.564349,-0.0848298,0.481532,-0.216606,0.148546,-0.075975,0.0174596,0,0,0,0,0,0,0,0.102299,-0.352867,-0.246371,-1.90159,-0.0911785,1.48763,0.404424,0.443189,-0.0454233,0.39613,-0.141738,0.0784256,-0.000883695,-1.79002e-05,3.42731,-20.6209,6.11055,25.134,1.56433,2.13769,0.017502,-0.993858,2.6568,-0.600401,-1.30564,-0.165708,1.02896,1.03743,0.206613,1.0981,-0.65102,0.570174,-0.44247,-0.0069776,
0.109325,-0.353576,-0.240261,-1.90413,-0.0887485,-0.0837871,-0.380764,0.630473,-0.0542224,0.563429,-0.227164,0.279725,-0.0811385,0.0161518,0,0,0,0,0,0,0,0.102299,-0.352867,-0.246371,-1.90159,-0.0911785,1.48763,0.404424,0.443189,-0.0454233,0.39613,-0.141738,0.0784256,-0.000883695,-1.79002e-05,3.42731,-20.6209,6.11055,25.134,1.56433,2.13769,0.017502,-2.98295,-1.08657,-0.453063,1.11653,-1.60787,-0.728881,-0.63108,-0.699412,-0.996845,-0.352081,0.189398,-0.486991,0.00272113,
0.111983,-0.353756,-0.237839,-1.90506,-0.08731,-0.0842028,-0.380704,0.664505,-0.0449646,0.605509,-0.23378,0.359605,-0.103926,0.0150199,0,0,0,0,0,0,0,0.102299,-0.352867,-0.246371,-1.90159,-0.0911785,1.48763,0.404424,0.443189,-0.0454233,0.39613,-0.141738,0.0784256,-0.000883695,-1.79002e-05,3.42731,-20.6209,6.11055,25.134,1.56433,2.13769,0.017502,-2.98295,-1.08657,-0.453063,1.11653,-1.60787,-0.728881,-0.63108,-0.699412,-0.996845,-0.352081,0.189398,-0.486991,0.00272113,
0.114755,-0.353897,-0.235277,-1.90601,-0.0855632,-0.0846821,-0.380647,0.693099,-0.0351939,0.640494,-0.23797,0.436714,-0.119827,0.0141271,0,0,0,0,0,0,0,0.102299,-0.352867,-0.246371,-1.90159,-0.0911785,1.48763,0.404424,0.443189,-0.0454233,0.39613,-0.141738,0.0784256,-0.000883695,-1.79002e-05,3.42731,-20.6209,6.11055,25.134,1.56433,2.13769,0.017502,-3.25058,-1.12255,-1.30054,1.16246,-1.49863,-0.741909,-0.614899,-0.512128,-1.05028,-0.658263,0.145274,-0.493168,0.00263066,
0.117625,-0.354,-0.232597,-1.90698,-0.0835263,-0.0852004,-0.380594,0.717332,-0.0256418,0.669826,-0.240785,0.509221,-0.129585,0.0134029,0,0,0,0,0,0,0,0.102299,-0.352867,-0.246371,-1.90159,-0.0911785,1.48763,0.404424,0.443189,-0.0454233,0.39613,-0.141738,0.0784256,-0.000883695,-1.79002e-05,3.42731,-20.6209,6.11055,25.134,1.56433,2.13769,0.017502,-2.26501,2.20865,-1.36961,-0.973396,-0.709415,0.760761,0.805265,0.0687969,0.759192,-0.931598,0.50958,-0.55356,-0.00274138,
0.120568,-0.354066,-0.229815,-1.90795,-0.0812178,-0.0857369,-0.380543,0.735905,-0.0165204,0.695683,-0.242727,0.577116,-0.134117,0.0127191,0,0,0,0,0,0,0,0.11685,-0.353817,-0.233177,-1.90553,-0.0869799,1.48788,0.40443,0.475832,-0.02265,0.424781,-0.125391,0.0949543,0.0223729,0.00057799,1.40003,-21.4421,3.78572,25.5823,1.1679,1.98571,-0.0026396,-2.26501,2.20865,-1.36961,-0.973396,-0.709415,0.760761,0.805265,0.0687969,0.759192,-0.931598,0.50958,-0.55356,-0.00274138,
0.106803,-0.35336,-0.242514,-1.90322,-0.0898674,-0.0834625,-0.380829,0.589319,-0.0612529,0.512471,-0.215494,0.200322,-0.0519957,0.0176198,0,0,0,0,0,0,0,0.11685,-0.353817,-0.233177,-1.90553,-0.0869799,1.48788,0.40443,0.475832,-0.02265,0.424781,-0.125391,0.0949543,0.0223729,0.00057799,1.40003,-21.4421,3.78572,25.5823,1.1679,1.98571,-0.0026396,-3.25688,-0.723279,-0.908619,0.9452,-1.51903,-0.565387,-0.490479,-0.522286,-0.812533,-0.646482,0.271765,-0.616747,0.00462487,
0.124094,-0.354348,-0.226788,-1.90799,-0.0842267,-0.0831117,-0.380759,0.645504,-0.041728,0.582783,-0.221793,0.308138,-0.0448178,0.0161842,0,0,0,0,0,0,0,0.11685,-0.353817,-0.233177,-1.90553,-0.0869799,1.48788,0.40443,0.475832,-0.02265,0.424781,-0.125391,0.0949543,0.0223729,0.00057799,1.40003,-21.4421,3.78572,25.5823,1.1679,1.98571,-0.0026396,-3.25688,-0.723279,-0.908619,0.9452,-1.51903,-0.565387,-0.490479,-0.522286,-0.812533,-0.646482,0.271765,-0.616747,0.00462487,
0.126803,-0.354485,-0.2243,-1.9089,-0.082677,-0.0833841,-0.380699,0.67727,-0.0340839,0.621946,-0.22851,0.387434,-0.0680998,0.0150624,0,0,0,0,0,0,0,0.11685,-0.353817,-0.233177,-1.90553,-0.0869799,1.48788,0.40443,0.475832,-0.02265,0.424781,-0.125391,0.0949543,0.0223729,0.00057799,1.40003,-21.4421,3.78572,25.5823,1.1679,1.98571,-0.0026396,-3.2389,-0.937285,-1.66076,1.04685,-1.32605,-0.623121,-0.501206,-0.347288,-0.921168,-0.837305,0.173103,-0.522307,0.00453064,
0.129611,-0.354587,-0.221677,-1.90983,-0.0808206,-0.0837231,-0.380642,0.701897,-0.0255734,0.655661,-0.232627,0.464108,-0.0847356,0.0140866,0,0,0,0,0,0,0,0.11685,-0.353817,-0.233177,-1.90553,-0.0869799,1.48788,0.40443,0.475832,-0.02265,0.424781,-0.125391,0.0949543,0.0223729,0.00057799,1.40003,-21.4421,3.78572,25.5823,1.1679,1.98571,-0.0026396,-2.56429,3.30071,-2.40463,-1.68763,-0.572345,1.2545,1.31365,0.352404,1.32,-1.32009,0.574534,-0.53487,-0.00130148,
0.132493,-0.354655,-0.218938,-1.91077,-0.078674,-0.0841041,-0.380589,0.720586,-0.017016,0.684854,-0.235331,0.536649,-0.0952643,0.0132229,0,0,0,0,0,0,0,0.132143,-0.354151,-0.219447,-1.909,-0.0822986,1.48843,0.404426,0.486272,-0.00335638,0.419421,-0.0959549,0.11474,0.0311137,-0.00108739,-0.908932,-21.7159,1.61165,25.8084,0.93536,2.04522,0.0303194,-2.56429,3.30071,-2.40463,-1.68763,-0.572345,1.2545,1.31365,0.352404,1.32,-1.32009,0.574534,-0.53487,-0.00130148,
0.135435,-0.35469,-0.2161,-1.91172,-0.0762594,-0.0845071,-0.38054,0.735548,-0.00884401,0.709603,-0.237082,0.603649,-0.100734,0.0124917,0,0,0,0,0,0,0,0.132143,-0.354151,-0.219447,-1.909,-0.0822986,1.48843,0.404426,0.486272,-0.00335638,0.419421,-0.0959549,0.11474,0.0311137,-0.00108739,-0.908932,-21.7159,1.61165,25.8084,0.93536,2.04522,0.0303194,-3.22579,1.2561,-1.48516,-0.324192,-1.35562,0.325041,0.356749,-0.293727,0.261561,-0.869551,0.486853,-0.551807,0.00473522,
0.121512,-0.354181,-0.229119,-1.9071,-0.0854593,-0.0829325,-0.380824,0.607157,-0.0466922,0.535485,-0.209366,0.227996,-0.0161492,0.0176187,0,0,0,0,0,0,0,0.132143,-0.354151,-0.219447,-1.909,-0.0822986,1.48843,0.404426,0.486272,-0.00335638,0.419421,-0.0959549,0.11474,0.0311137,-0.00108739,-0.908932,-21.7159,1.61165,25.8084,0.93536,2.04522,0.0303194,-3.22579,1.2561,-1.48516,-0.324192,-1.35562,0.325041,0.356749,-0.293727,0.261561,-0.869551,0.486853,-0.551807,0.00473522,
0.139401,-0.354581,-0.213026,-1.91133,-0.079363,-0.082219,-0.380758,0.645129,-0.0356621,0.586598,-0.213686,0.320973,-0.0137033,0.0165717,0,0,0,0,0,0,0,0.132143,-0.354151,-0.219447,-1.909,-0.0822986,1.48843,0.404426,0.486272,-0.00335638,0.419421,-0.0959549,0.11474,0.0311137,-0.00108739,-0.908932,-21.7159,1.61165,25.8084,0.93536,2.04522,0.0303194,-2.34625,-2.12132,-2.08303,1.92167,-0.572534,-1.0491,-0.914983,0.0247597,-1.51613,-0.979174,0.186153,-0.454106,0.00786505,
0.142092,-0.354697,-0.210515,-1.91221,-0.0777634,-0.0823661,-0.380697,0.672885,-0.0289373,0.627627,-0.221186,0.399892,-0.0367828,0.0152311,0,0,0,0,0,0,0,0.132143,-0.354151,-0.219447,-1.909,-0.0822986,1.48843,0.404426,0.486272,-0.00335638,0.419421,-0.0959549,0.11474,0.0311137,-0.00108739,-0.908932,-21.7159,1.61165,25.8084,0.93536,2.04522,0.0303194,-2.85854,-0.947815,-2.7301,1.11968,-0.762726,-0.546314,-0.40793,0.0592263,-0.906106,-1.17932,0.24093,-0.414012,0.00497842,
0.144873,-0.354781,-0.207868,-1.91311,-0.0758597,-0.0825816,-0.38064,0.695133,-0.0210951,0.661828,-0.225552,0.475938,-0.0538619,0.014145,0,0,0,0,0,0,0,0.132143,-0.354151,-0.219447,-1.909,-0.0822986,1.48843,0.404426,0.486272,-0.00335638,0.419421,-0.0959549,0.11474,0.0311137,-0.00108739,-0.908932,-21.7159,1.61165,25.8084,0.93536,2.04522,0.0303194,-2.85854,-0.947815,-2.7301,1.11968,-0.762726,-0.546314,-0.40793,0.0592263,-0.906106,-1.17932,0.24093,-0.414012,0.00497842,
0.147725,-0.354833,-0.205106,-1.91403,-0.0736703,-0.082842,-0.380587,0.71307,-0.0131343,0.69051,-0.228305,0.547331,-0.0651059,0.0132379,0,0,0,0,0,0,0,0.148089,-0.354216,-0.204359,-1.91246,-0.0772113,1.48907,0.404433,0.519996,0.00431534,0.474737,-0.103176,0.188599,0.0133515,0.00120978,0.539127,-21.1922,3.21443,24.6103,1.25305,2.26403,-0.0301054,-3.0649,2.85667,-2.41552,-1.39346,-1.01013,1.08006,1.09287,0.0772482,1.15457,-1.17585,0.610297,-0.432312,-0.000100188,
0.150635,-0.354855,-0.202247,-1.91495,-0.0712177,-0.0831273,-0.380537,0.727499,-0.00548479,0.714742,-0.23007,0.613171,-0.0713368,0.0124638,0,0,0,0,0,0,0,0.148089,-0.354216,-0.204359,-1.91246,-0.0772113,1.48907,0.404433,0.519996,0.00431534,0.474737,-0.103176,0.188599,0.0133515,0.00120978,0.539127,-21.1922,3.21443,24.6103,1.25305,2.26403,-0.0301054,-3.0649,2.85667,-2.41552,-1.39346,-1.01013,1.08006,1.09287,0.0772482,1.15457,-1.17585,0.610297,-0.432312,-0.000100188,
0.13682,-0.354438,-0.215372,-1.91047,-0.0806469,-0.0821642,-0.380824,0.608858,-0.0388702,0.537983,-0.19927,0.242706,0.0134484,0.0181616,0,0,0,0,0,0,0,0.148089,-0.354216,-0.204359,-1.91246,-0.0772113,1.48907,0.404433,0.519996,0.00431534,0.474737,-0.103176,0.188599,0.0133515,0.00120978,0.539127,-21.1922,3.21443,24.6103,1.25305,2.26403,-0.0301054,-2.56461,2.11466,-1.71978,-0.911432,-0.912329,0.788432,0.80341,-0.0256252,0.802424,-0.895787,0.581603,-0.395701,0.00353306,
0.155613,-0.354518,-0.197481,-1.91479,-0.0733872,-0.0816286,-0.380761,0.659988,-0.0248713,0.619426,-0.212637,0.393124,-0.0108204,0.0157159,0,0,0,0,0,0,0,0.148089,-0.354216,-0.204359,-1.91246,-0.0772113,1.48907,0.404433,0.519996,0.00431534,0.474737,-0.103176,0.188599,0.0133515,0.00120978,0.539127,-21.1922,3.21443,24.6103,1.25305,2.26403,-0.0301054,-2.07252,-2.09762,-2.73307,1.84244,-0.241522,-0.984959,-0.849004,0.247616,-1.44693,-1.1416,0.161907,-0.33621,0.0107816,
0.158348,-0.354593,-0.194859,-1.91567,-0.0715179,-0.0817434,-0.380703,0.683684,-0.0186641,0.655589,-0.219324,0.467313,-0.0287052,0.0144937,0,0,0,0,0,0,0,0.148089,-0.354216,-0.204359,-1.91246,-0.0772113,1.48907,0.404433,0.519996,0.00431534,0.474737,-0.103176,0.188599,0.0133515,0.00120978,0.539127,-21.1922,3.21443,24.6103,1.25305,2.26403,-0.0301054,-2.07252,-2.09762,-2.73307,1.84244,-0.241522,-0.984959,-0.849004,0.247616,-1.44693,-1.1416,0.161907,-0.33621,0.0107816,
0.161158,-0.354639,-0.192116,-1.91656,-0.0693664,-0.0819102,-0.380649,0.702697,-0.0115207,0.685786,-0.223072,0.537872,-0.0416922,0.0134902,0,0,0,0,0,0,0,0.164125,-0.354209,-0.189191,-1.91626,-0.0717218,1.49012,0.404432,0.526154,-0.000453572,0.529266,-0.117504,0.256032,0.0229667,0.000793118,0.868412,-20.9422,3.4366,24.4873,1.61377,2.19811,-0.0227812,-3.14777,0.0314302,-3.0489,0.42797,-0.880134,-0.0848382,-0.00733149,0.0871812,-0.29958,-1.27938,0.348307,-0.376415,0.00392437,
0.16403,-0.354656,-0.189271,-1.91746,-0.0669523,-0.0821093,-0.380598,0.717949,-0.00432727,0.711192,-0.225312,0.603538,-0.049787,0.0126456,0,0,0,0,0,0,0,0.164125,-0.354209,-0.189191,-1.91626,-0.0717218,1.49012,0.404432,0.526154,-0.000453572,0.529266,-0.117504,0.256032,0.0229667,0.000793118,0.868412,-20.9422,3.4366,24.4873,1.61377,2.19811,-0.0227812,-3.14777,0.0314302,-3.0489,0.42797,-0.880134,-0.0848382,-0.00733149,0.0871812,-0.29958,-1.27938,0.348307,-0.376415,0.00392437,
0.166951,-0.354646,-0.18634,-1.91837,-0.0642974,-0.0823239,-0.38055,0.730094,0.00254296,0.732732,-0.226636,0.663723,-0.0536376,0.0119355,0,0,0,0,0,0,0,0.164125,-0.354209,-0.189191,-1.91626,-0.0717218,1.49012,0.404432,0.526154,-0.000453572,0.529266,-0.117504,0.256032,0.0229667,0.000793118,0.868412,-20.9422,3.4366,24.4873,1.61377,2.19811,-0.0227812,-2.9943,1.573,-1.86141,-0.582121,-1.16423,0.583039,0.586583,-0.154363,0.574595,-0.899128,0.54218,-0.38956,0.00290706,
0.169909,-0.354611,-0.183336,-1.91928,-0.0614244,-0.0825399,-0.380505,0.739659,0.008935,0.75111,-0.227302,0.718251,-0.0540217,0.0113348,0,0,0,0,0,0,0,0.164125,-0.354209,-0.189191,-1.91626,-0.0717218,1.49012,0.404432,0.526154,-0.000453572,0.529266,-0.117504,0.256032,0.0229667,0.000793118,0.868412,-20.9422,3.4366,24.4873,1.61377,2.19811,-0.0227812,-2.9943,1.573,-1.86141,-0.582121,-1.16423,0.583039,0.586583,-0.154363,0.574595,-0.899128,0.54218,-0.38956,0.00290706,
0.152973,-0.354419,-0.199959,-1.91394,-0.0749596,-0.0815853,-0.380824,0.630182,-0.0280043,0.575861,-0.199402,0.317634,0.00987124,0.0172261,0,0,0,0,0,0,0,0.164125,-0.354209,-0.189191,-1.91626,-0.0717218,1.49012,0.404432,0.526154,-0.000453572,0.529266,-0.117504,0.256032,0.0229667,0.000793118,0.868412,-20.9422,3.4366,24.4873,1.61377,2.19811,-0.0227812,-2.11962,-0.610141,-2.21609,0.795085,-0.442294,-0.312755,-0.235098,0.148819,-0.572138,-0.992676,0.290586,-0.337891,0.00334575,
0.171785,-0.354469,-0.181949,-1.91857,-0.0671607,-0.0804817,-0.38077,0.668013,-0.0199019,0.644442,-0.20908,0.451391,0.000187737,0.0150192,0,0,0,0,0,0,0,0.186048,-0.354053,-0.167635,-1.92157,-0.0612091,1.49164,0.404432,0.53486,0.00329993,0.525556,-0.121063,0.331571,0.0165493,0.000131719,1.90784,-21.9182,4.16261,25.4831,1.82708,2.05804,-0.0227812,-2.17075,0.401597,-3.103,0.0729872,-0.16353,0.155069,0.260673,0.505829,-0.0432904,-1.35842,0.310709,-0.335705,-0.00128117,
0.174541,-0.354523,-0.179241,-1.91943,-0.0650762,-0.0805392,-0.380714,0.688827,-0.0134942,0.676964,-0.214971,0.521134,-0.0143702,0.0138773,0,0,0,0,0,0,0,0.186048,-0.354053,-0.167635,-1.92157,-0.0612091,1.49164,0.404432,0.53486,0.00329993,0.525556,-0.121063,0.331571,0.0165493,0.000131719,1.90784,-21.9182,4.16261,25.4831,1.82708,2.05804,-0.0227812,-2.17075,0.401597,-3.103,0.0729872,-0.16353,0.155069,0.260673,0.505829,-0.0432904,-1.35842,0.310709,-0.335705,-0.00128117,
0.177362,-0.354549,-0.176424,-1.92031,-0.0627286,-0.0806377,-0.380663,0.705434,-0.00646984,0.704225,-0.218305,0.586902,-0.0246156,0.01295,0,0,0,0,0,0,0,0.186048,-0.354053,-0.167635,-1.92157,-0.0612091,1.49164,0.404432,0.53486,0.00329993,0.525556,-0.121063,0.331571,0.0165493,0.000131719,1.90784,-21.9182,4.16261,25.4831,1.82708,2.05804,-0.0227812,-2.61354,0.89111,-2.38892,-0.204241,-0.688192,0.357984,0.40776,0.158742,0.253521,-1.11048,0.436303,-0.380678,-0.00125552,
0.180237,-0.354548,-0.173515,-1.92119,-0.0601376,-0.0807601,-0.380614,0.718649,0.000455225,0.727231,-0.220286,0.647749,-0.0306029,0.0121817,0,0,0,0,0,0,0,0.186048,-0.354053,-0.167635,-1.92157,-0.0612091,1.49164,0.404432,0.53486,0.00329993,0.525556,-0.121063,0.331571,0.0165493,0.000131719,1.90784,-21.9182,4.16261,25.4831,1.82708,2.05804,-0.0227812,-2.61354,0.89111,-2.38892,-0.204241,-0.688192,0.357984,0.40776,0.158742,0.253521,-1.11048,0.436303,-0.380678,-0.00125552,
0.183153,-0.35452,-0.170528,-1.92207,-0.0573245,-0.0808918,-0.380568,0.729093,0.00698723,0.746766,-0.221418,0.703259,-0.0329233,0.0115249,0,0,0,0,0,0,0,0.186048,-0.354053,-0.167635,-1.92157,-0.0612091,1.49164,0.404432,0.53486,0.00329993,0.525556,-0.121063,0.331571,0.0165493,0.000131719,1.90784,-21.9182,4.16261,25.4831,1.82708,2.05804,-0.0227812,-2.15315,0.890682,-1.80896,-0.181904,-0.537166,0.347759,0.316878,0.155873,0.300183,-0.934578,0.49645,-0.3881,-0.00183387,
0.186102,-0.354468,-0.167475,-1.92296,-0.0543111,-0.0810208,-0.380524,0.737235,0.0130111,0.763451,-0.221932,0.753365,-0.0322507,0.0109526,0,0,0,0,0,0,0,0.186048,-0.354053,-0.167635,-1.92157,-0.0612091,1.49164,0.404432,0.53486,0.00329993,0.525556,-0.121063,0.331571,0.0165493,0.000131719,1.90784,-21.9182,4.16261,25.4831,1.82708,2.05804,-0.0227812,-1.55398,-0.623031,-2.09007,0.709456,-0.0624739,-0.278719,-0.241665,0.343056,-0.492177,-0.988592,0.262593,-0.329194,-0.000205899,
0.169113,-0.35439,-0.184527,-1.91774,-0.0689663,-0.0804825,-0.38083,0.641668,-0.0239422,0.6055,-0.197618,0.379502,0.0173768,0.0164558,0,0,0,0,0,0,0,0.203075,-0.353873,-0.150664,-1.92556,-0.051688,1.49281,0.404433,0.527777,0.00474592,0.543468,-0.116375,0.34692,0.0223786,0.000190129,2.21332,-22.0174,3.63893,25.3839,1.28326,2.58263,-0.0301054,-1.55398,-0.623031,-2.09007,0.709456,-0.0624739,-0.278719,-0.241665,0.343056,-0.492177,-0.988592,0.262593,-0.329194,-0.000205899,
0.210715,-0.354047,-0.143257,-1.92784,-0.0463221,-0.0776572,-0.380772,0.665419,-0.0124707,0.657701,-0.205145,0.507765,0.0159357,0.0147654,0,0,0,0,0,0,0,0.203075,-0.353873,-0.150664,-1.92556,-0.051688,1.49281,0.404433,0.527777,0.00474592,0.543468,-0.116375,0.34692,0.0223786,0.000190129,2.21332,-22.0174,3.63893,25.3839,1.28326,2.58263,-0.0301054,-2.12599,0.115768,-2.10509,0.181956,-0.521488,0.0808471,0.183538,0.132123,-0.0926352,-0.925842,0.272638,-0.282777,-0.00364727,
0.213457,-0.354072,-0.140498,-1.92868,-0.0440466,-0.0776389,-0.380718,0.685411,-0.00627239,0.689659,-0.210789,0.568869,0.00457532,0.0136375,0,0,0,0,0,0,0,0.203075,-0.353873,-0.150664,-1.92556,-0.051688,1.49281,0.404433,0.527777,0.00474592,0.543468,-0.116375,0.34692,0.0223786,0.000190129,2.21332,-22.0174,3.63893,25.3839,1.28326,2.58263,-0.0301054,-2.12599,0.115768,-2.10509,0.181956,-0.521488,0.0808471,0.183538,0.132123,-0.0926352,-0.925842,0.272638,-0.282777,-0.00364727,
0.216262,-0.35407,-0.137633,-1.92954,-0.0415373,-0.0776523,-0.380667,0.701253,0.000426333,0.716314,-0.213931,0.627322,-0.00335725,0.0127108,0,0,0,0,0,0,0,0.203075,-0.353873,-0.150664,-1.92556,-0.051688,1.49281,0.404433,0.527777,0.00474592,0.543468,-0.116375,0.34692,0.0223786,0.000190129,2.21332,-22.0174,3.63893,25.3839,1.28326,2.58263,-0.0301054,-2.61906,1.7327,-1.41591,-0.742812,-1.07846,0.785908,0.860314,-0.169792,0.750132,-0.694342,0.556433,-0.306417,-0.00352201,
0.219117,-0.354042,-0.134678,-1.9304,-0.0388094,-0.0776833,-0.380619,0.713762,0.0069627,0.738695,-0.215747,0.68197,-0.00773811,0.0119289,0,0,0,0,0,0,0,0.203075,-0.353873,-0.150664,-1.92556,-0.051688,1.49281,0.404433,0.527777,0.00474592,0.543468,-0.116375,0.34692,0.0223786,0.000190129,2.21332,-22.0174,3.63893,25.3839,1.28326,2.58263,-0.0301054,-2.61906,1.7327,-1.41591,-0.742812,-1.07846,0.785908,0.860314,-0.169792,0.750132,-0.694342,0.556433,-0.306417,-0.00352201,
0.222011,-0.35399,-0.131648,-1.93127,-0.0358805,-0.0777193,-0.380574,0.723542,0.0130733,0.757615,-0.216735,0.732219,-0.00899561,0.0112586,0,0,0,0,0,0,0,0.219514,-0.353367,-0.133837,-1.92919,-0.0413497,1.49371,0.40443,0.532767,0.0110512,0.555819,-0.101638,0.312839,0.0327456,0.000500735,1.4278,-22.4657,2.81373,25.0864,0.593868,2.7282,-0.0026396,-1.58206,0.375235,-1.86554,0.181754,-0.117999,0.157824,0.166372,0.332292,0.00757651,-0.944383,0.517727,-0.340845,0.0027244,
0.208054,-0.353997,-0.145888,-1.92702,-0.0483531,-0.0777209,-0.380832,0.639932,-0.0165255,0.61929,-0.194084,0.446047,0.0288884,0.0161861,0,0,0,0,0,0,0,0.219514,-0.353367,-0.133837,-1.92919,-0.0413497,1.49371,0.40443,0.532767,0.0110512,0.555819,-0.101638,0.312839,0.0327456,0.000500735,1.4278,-22.4657,2.81373,25.0864,0.593868,2.7282,-0.0026396,-1.24481,-1.2856,-2.72105,1.1132,0.371209,-0.549144,-0.511059,0.612357,-0.836022,-1.214,0.242656,-0.301157,0.00541621,
0.227092,-0.353494,-0.126305,-1.93137,-0.0361508,-0.0765014,-0.38078,0.658548,-0.00912131,0.666117,-0.198425,0.499704,0.0400479,0.0144889,0,0,0,0,0,0,0,0.219514,-0.353367,-0.133837,-1.92919,-0.0413497,1.49371,0.40443,0.532767,0.0110512,0.555819,-0.101638,0.312839,0.0327456,0.000500735,1.4278,-22.4657,2.81373,25.0864,0.593868,2.7282,-0.0026396,-1.24481,-1.2856,-2.72105,1.1132,0.371209,-0.549144,-0.511059,0.612357,-0.836022,-1.214,0.242656,-0.301157,0.00541621,
0.229802,-0.353507,-0.123518,-1.93219,-0.0338947,-0.0763837,-0.380727,0.677578,-0.00320388,0.696637,-0.204423,0.564014,0.0294159,0.0133998,0,0,0,0,0,0,0,0.219514,-0.353367,-0.133837,-1.92919,-0.0413497,1.49371,0.40443,0.532767,0.0110512,0.555819,-0.101638,0.312839,0.0327456,0.000500735,1.4278,-22.4657,2.81373,25.0864,0.593868,2.7282,-0.0026396,-1.91796,-0.402873,-2.00578,0.478271,-0.479717,-0.111533,-0.0107291,0.0722236,-0.312454,-0.809499,0.229226,-0.196328,0.00393405,
0.232573,-0.353494,-0.120629,-1.93302,-0.0313966,-0.0762969,-0.380677,0.692694,0.00323901,0.722224,-0.207732,0.624523,0.0217024,0.0124909,0,0,0,0,0,0,0,0.219514,-0.353367,-0.133837,-1.92919,-0.0413497,1.49371,0.40443,0.532767,0.0110512,0.555819,-0.101638,0.312839,0.0327456,0.000500735,1.4278,-22.4657,2.81373,25.0864,0.593868,2.7282,-0.0026396,-1.91796,-0.402873,-2.00578,0.478271,-0.479717,-0.111533,-0.0107291,0.0722236,-0.312454,-0.809499,0.229226,-0.196328,0.00393405,
0.235391,-0.353456,-0.117654,-1.93386,-0.0286748,-0.0762279,-0.38063,0.704645,0.00952147,0.743804,-0.209637,0.680449,0.0172461,0.0117177,0,0,0,0,0,0,0,0.219514,-0.353367,-0.133837,-1.92919,-0.0413497,1.49371,0.40443,0.532767,0.0110512,0.555819,-0.101638,0.312839,0.0327456,0.000500735,1.4278,-22.4657,2.81373,25.0864,0.593868,2.7282,-0.0026396,-1.94123,2.56694,-1.72756,-1.40697,-0.55867,1.1639,1.17746,0.214053,1.26042,-0.780898,0.554625,-0.192724,-0.000602731,
0.238247,-0.353395,-0.114605,-1.9347,-0.025749,-0.076165,-0.380586,0.71399,0.0153785,0.762114,-0.210681,0.731449,0.0157307,0.0110511,0,0,0,0,0,0,0,0.236249,-0.352844,-0.11657,-1.93272,-0.0300115,1.49458,0.40443,0.541724,0.012596,0.533973,-0.111307,0.310848,0.0405549,0.000570061,-0.349545,-22.7156,0.814222,26.1575,1.5094,2.39678,-0.00996382,-1.60071,0.961589,-2.74056,-0.347035,0.147166,0.447294,0.438437,0.667545,0.380265,-1.25253,0.499957,-0.292493,0.00384779,
0.241132,-0.353312,-0.111495,-1.93555,-0.0226391,-0.0760983,-0.380544,0.721167,0.0207186,0.777737,-0.211111,0.777475,0.0166704,0.0104699,0,0,0,0,0,0,0,0.236249,-0.352844,-0.11657,-1.93272,-0.0300115,1.49458,0.40443,0.541724,0.012596,0.533973,-0.111307,0.310848,0.0405549,0.000570061,-0.349545,-22.7156,0.814222,26.1575,1.5094,2.39678,-0.00996382,-1.60071,0.961589,-2.74056,-0.347035,0.147166,0.447294,0.438437,0.667545,0.380265,-1.25253,0.499957,-0.292493,0.00384779,
0.224458,-0.353458,-0.128969,-1.93058,-0.0381496,-0.0766616,-0.380838,0.634412,-0.0127814,0.629627,-0.186547,0.433049,0.0513111,0.0158143,0,0,0,0,0,0,0,0.236249,-0.352844,-0.11657,-1.93272,-0.0300115,1.49458,0.40443,0.541724,0.012596,0.533973,-0.111307,0.310848,0.0405549,0.000570061,-0.349545,-22.7156,0.814222,26.1575,1.5094,2.39678,-0.00996382,-1.6574,-1.65566,-2.7578,1.29155,0.0220822,-0.651193,-0.582315,0.373383,-0.961341,-1.1308,0.203299,-0.238048,0.00730068,
0.24367,-0.352906,-0.109067,-1.93491,-0.0248006,-0.0755375,-0.380781,0.645212,-0.00338362,0.665243,-0.196738,0.499215,0.0488681,0.0145128,0,0,0,0,0,0,0,0.236249,-0.352844,-0.11657,-1.93272,-0.0300115,1.49458,0.40443,0.541724,0.012596,0.533973,-0.111307,0.310848,0.0405549,0.000570061,-0.349545,-22.7156,0.814222,26.1575,1.5094,2.39678,-0.00996382,-1.6574,-1.65566,-2.7578,1.29155,0.0220822,-0.651193,-0.582315,0.373383,-0.961341,-1.1308,0.203299,-0.238048,0.00730068,
0.246329,-0.352897,-0.106281,-1.93571,-0.0225509,-0.0753768,-0.380728,0.664633,0.00216899,0.696436,-0.201909,0.562412,0.0401761,0.0133898,0,0,0,0,0,0,0,0.236249,-0.352844,-0.11657,-1.93272,-0.0300115,1.49458,0.40443,0.541724,0.012596,0.533973,-0.111307,0.310848,0.0405549,0.000570061,-0.349545,-22.7156,0.814222,26.1575,1.5094,2.39678,-0.00996382,-1.75842,-1.41485,-2.35128,1.08538,-0.277923,-0.51235,-0.406632,0.141074,-0.795891,-0.897734,0.150295,-0.16036,0.00305427,
0.249049,-0.352864,-0.103391,-1.93653,-0.0200624,-0.0752402,-0.380678,0.680071,0.00814281,0.72253,-0.204697,0.622143,0.0341578,0.0124432,0,0,0,0,0,0,0,0.253218,-0.35223,-0.0982372,-1.93586,-0.0181286,1.49597,0.40443,0.54996,0.0167026,0.604361,-0.105084,0.436284,0.0399134,0.00100257,1.09455,-22.3665,2.31386,25.6815,1.98639,2.25762,-0.00996382,-1.75842,-1.41485,-2.35128,1.08538,-0.277923,-0.51235,-0.406632,0.141074,-0.795891,-0.897734,0.150295,-0.16036,0.00305427,
0.251818,-0.352809,-0.100413,-1.93736,-0.0173522,-0.0751159,-0.380631,0.692272,0.0139385,0.744496,-0.206226,0.677543,0.0310793,0.0116373,0,0,0,0,0,0,0,0.253218,-0.35223,-0.0982372,-1.93586,-0.0181286,1.49597,0.40443,0.54996,0.0167026,0.604361,-0.105084,0.436284,0.0399134,0.00100257,1.09455,-22.3665,2.31386,25.6815,1.98639,2.25762,-0.00996382,-1.34667,2.32717,-2.92574,-1.35125,0.338216,1.06424,1.08455,0.907735,1.10598,-1.30187,0.535467,-0.213142,-0.00370159,
0.254625,-0.352731,-0.0973605,-1.93819,-0.0144394,-0.0749933,-0.380587,0.701812,0.0193244,0.763102,-0.206974,0.728198,0.030638,0.0109435,0,0,0,0,0,0,0,0.253218,-0.35223,-0.0982372,-1.93586,-0.0181286,1.49597,0.40443,0.54996,0.0167026,0.604361,-0.105084,0.436284,0.0399134,0.00100257,1.09455,-22.3665,2.31386,25.6815,1.98639,2.25762,-0.00996382,-1.83543,2.28762,-2.71471,-1.3181,-0.0600831,1.06789,1.01847,0.679252,1.17783,-1.21172,0.569016,-0.240413,-0.00305327,
0.241089,-0.352892,-0.111728,-1.93412,-0.0267975,-0.075733,-0.380839,0.620759,-0.00700512,0.627757,-0.186396,0.434064,0.0582639,0.0158063,0,0,0,0,0,0,0,0.253218,-0.35223,-0.0982372,-1.93586,-0.0181286,1.49597,0.40443,0.54996,0.0167026,0.604361,-0.105084,0.436284,0.0399134,0.00100257,1.09455,-22.3665,2.31386,25.6815,1.98639,2.25762,-0.00996382,-1.83543,2.28762,-2.71471,-1.3181,-0.0600831,1.06789,1.01847,0.679252,1.17783,-1.21172,0.569016,-0.240413,-0.00305327,
0.260858,-0.352242,-0.0902604,-1.93799,-0.0116936,-0.0740036,-0.380794,0.65955,0.000730243,0.698192,-0.191529,0.591615,0.0659218,0.0133844,0,0,0,0,0,0,0,0.253218,-0.35223,-0.0982372,-1.93586,-0.0181286,1.49597,0.40443,0.54996,0.0167026,0.604361,-0.105084,0.436284,0.0399134,0.00100257,1.09455,-22.3665,2.31386,25.6815,1.98639,2.25762,-0.00996382,-1.50757,-1.83392,-2.61441,1.32447,0.0487639,-0.689828,-0.632695,0.33865,-0.979951,-1.05907,0.165176,-0.207281,0.00231078,
0.26356,-0.352217,-0.087361,-1.93877,-0.00911243,-0.0737632,-0.380745,0.675334,0.00617751,0.724844,-0.196687,0.645284,0.0601013,0.0123934,0,0,0,0,0,0,0,0.253218,-0.35223,-0.0982372,-1.93586,-0.0181286,1.49597,0.40443,0.54996,0.0167026,0.604361,-0.105084,0.436284,0.0399134,0.00100257,1.09455,-22.3665,2.31386,25.6815,1.98639,2.25762,-0.00996382,-1.50757,-1.83392,-2.61441,1.32447,0.0487639,-0.689828,-0.632695,0.33865,-0.979951,-1.05907,0.165176,-0.207281,0.00231078,
0.266311,-0.35217,-0.0843723,-1.93957,-0.00632887,-0.0735391,-0.380698,0.6877,0.0119642,0.747177,-0.199417,0.695891,0.0560345,0.0115584,0,0,0,0,0,0,0,0.271227,-0.351684,-0.0789989,-1.93914,-0.0054345,1.49815,0.40443,0.533108,0.0168412,0.619058,-0.10757,0.427583,0.0624704,0.00017307,1.30085,-22.3903,1.7386,25.4315,1.44897,2.32995,-0.0026396,-1.48449,-0.11857,-2.93306,0.177922,0.192848,0.0640362,0.155104,0.621285,-0.122512,-1.21631,0.302665,-0.195329,-0.0015557,
0.2691,-0.352099,-0.0813083,-1.94037,-0.00335786,-0.0733222,-0.380655,0.6973,0.0175137,0.765997,-0.20088,0.742752,0.0542101,0.0108444,0,0,0,0,0,0,0,0.271227,-0.351684,-0.0789989,-1.93914,-0.0054345,1.49815,0.40443,0.533108,0.0168412,0.619058,-0.10757,0.427583,0.0624704,0.00017307,1.30085,-22.3903,1.7386,25.4315,1.44897,2.32995,-0.0026396,-1.48449,-0.11857,-2.93306,0.177922,0.192848,0.0640362,0.155104,0.621285,-0.122512,-1.21631,0.302665,-0.195329,-0.0015557,
0.271918,-0.352009,-0.0781805,-1.94118,-0.00021568,-0.0731043,-0.380614,0.704625,0.0226161,0.781947,-0.201567,0.785545,0.0544894,0.0102268,0,0,0,0,0,0,0,0.271227,-0.351684,-0.0789989,-1.93914,-0.0054345,1.49815,0.40443,0.533108,0.0168412,0.619058,-0.10757,0.427583,0.0624704,0.00017307,1.30085,-22.3903,1.7386,25.4315,1.44897,2.32995,-0.0026396,-1.33395,0.829885,-3.01187,-0.426613,0.425655,0.437519,0.438394,0.877568,0.377002,-1.34958,0.456552,-0.262975,-0.00118474,
0.25822,-0.352245,-0.0930531,-1.93722,-0.01406,-0.0742673,-0.380848,0.639314,-0.00288116,0.666347,-0.181074,0.536087,0.0712051,0.0145739,0,0,0,0,0,0,0,0.271227,-0.351684,-0.0789989,-1.93914,-0.0054345,1.49815,0.40443,0.533108,0.0168412,0.619058,-0.10757,0.427583,0.0624704,0.00017307,1.30085,-22.3903,1.7386,25.4315,1.44897,2.32995,-0.0026396,-2.32994,0.34267,-2.45274,-0.0795572,-0.48997,0.335573,0.356827,0.264217,0.259661,-1.06539,0.420568,-0.275924,-0.000340317,
0.278755,-0.351661,-0.0709548,-1.94123,0.000937487,-0.0715848,-0.380798,0.649871,0.00398763,0.702787,-0.187245,0.588168,0.0857233,0.0131303,0,0,0,0,0,0,0,0.271227,-0.351684,-0.0789989,-1.93914,-0.0054345,1.49815,0.40443,0.533108,0.0168412,0.619058,-0.10757,0.427583,0.0624704,0.00017307,1.30085,-22.3903,1.7386,25.4315,1.44897,2.32995,-0.0026396,-2.32994,0.34267,-2.45274,-0.0795572,-0.48997,0.335573,0.356827,0.264217,0.259661,-1.06539,0.420568,-0.275924,-0.000340317,
0.281416,-0.351623,-0.0680391,-1.942,0.00350864,-0.0712641,-0.380749,0.665301,0.00929553,0.728926,-0.192107,0.642787,0.0801861,0.0121501,0,0,0,0,0,0,0,0.294662,-0.351124,-0.0530796,-1.94367,0.0116721,1.50181,0.404431,0.541714,0.0109256,0.607291,-0.103721,0.448988,0.0860666,0.00133,-0.476498,-22.3903,0.0644055,25.257,1.36932,2.27044,-0.0163725,-1.41865,-1.44523,-2.49034,1.04621,0.103759,-0.485793,-0.404207,0.386375,-0.764015,-1.05152,0.229072,-0.224487,0.00261368,
0.284126,-0.351564,-0.0650356,-1.94278,0.0062844,-0.070959,-0.380704,0.677403,0.0148427,0.75088,-0.194691,0.693941,0.0762736,0.0113213,0,0,0,0,0,0,0,0.294662,-0.351124,-0.0530796,-1.94367,0.0116721,1.50181,0.404431,0.541714,0.0109256,0.607291,-0.103721,0.448988,0.0860666,0.00133,-0.476498,-22.3903,0.0644055,25.257,1.36932,2.27044,-0.0163725,-1.41865,-1.44523,-2.49034,1.04621,0.103759,-0.485793,-0.404207,0.386375,-0.764015,-1.05152,0.229072,-0.224487,0.00261368,
0.286873,-0.351484,-0.061958,-1.94356,0.00924874,-0.0706612,-0.380662,0.686803,0.0201159,0.769409,-0.196071,0.741085,0.0744477,0.01061,0,0,0,0,0,0,0,0.294662,-0.351124,-0.0530796,-1.94367,0.0116721,1.50181,0.404431,0.541714,0.0109256,0.607291,-0.103721,0.448988,0.0860666,0.00133,-0.476498,-22.3903,0.0644055,25.257,1.36932,2.27044,-0.0163725,-1.32994,0.911049,-2.97104,-0.517343,0.442747,0.49161,0.493034,0.909592,0.441597,-1.35451,0.483032,-0.279599,-0.00183323,
0.289649,-0.351384,-0.0588174,-1.94435,0.0123847,-0.0703629,-0.380622,0.693975,0.0249333,0.785135,-0.196703,0.783989,0.0745879,0.00999241,0,0,0,0,0,0,0,0.294662,-0.351124,-0.0530796,-1.94367,0.0116721,1.50181,0.404431,0.541714,0.0109256,0.607291,-0.103721,0.448988,0.0860666,0.00133,-0.476498,-22.3903,0.0644055,25.257,1.36932,2.27044,-0.0163725,-1.27661,0.791201,-2.85243,-0.433137,0.491728,0.431249,0.400536,0.926256,0.391196,-1.35617,0.508254,-0.325557,-0.000391222,
0.276155,-0.351677,-0.073766,-1.94048,-0.00141519,-0.0719277,-0.38085,0.63007,0.000268091,0.671683,-0.177469,0.531086,0.090761,0.0143165,0,0,0,0,0,0,0,0.294662,-0.351124,-0.0530796,-1.94367,0.0116721,1.50181,0.404431,0.541714,0.0109256,0.607291,-0.103721,0.448988,0.0860666,0.00133,-0.476498,-22.3903,0.0644055,25.257,1.36932,2.27044,-0.0163725,-1.27661,0.791201,-2.85243,-0.433137,0.491728,0.431249,0.400536,0.926256,0.391196,-1.35617,0.508254,-0.325557,-0.000391222,
0.302072,-0.351123,-0.0450013,-1.94567,0.0182628,-0.0676444,-0.3808,0.639517,0.00299255,0.706433,-0.18017,0.602666,0.109722,0.0129371,0,0,0,0,0,0,0,0.294662,-0.351124,-0.0530796,-1.94367,0.0116721,1.50181,0.404431,0.541714,0.0109256,0.607291,-0.103721,0.448988,0.0860666,0.00133,-0.476498,-22.3903,0.0644055,25.257,1.36932,2.27044,-0.0163725,-0.657941,-0.170473,-2.93692,0.108422,0.858291,-0.0177325,0.0188204,1.00971,-0.175232,-1.33311,0.332429,-0.247983,0.000188167,
0.304692,-0.351089,-0.0420703,-1.94641,0.0208798,-0.0672267,-0.380752,0.654969,0.00873119,0.732758,-0.185148,0.654242,0.104431,0.0119479,0,0,0,0,0,0,0,0.311748,-0.350827,-0.0337705,-1.94709,0.0247661,1.50539,0.404432,0.529414,0.00944501,0.608654,-0.0999754,0.462071,0.105825,0.000795549,0.638309,-22.2435,0.488905,25.6815,1.90033,2.31713,-0.0227812,-0.657941,-0.170473,-2.93692,0.108422,0.858291,-0.0177325,0.0188204,1.00971,-0.175232,-1.33311,0.332429,-0.247983,0.000188167,
0.30736,-0.35103,-0.0390511,-1.94717,0.0236913,-0.0668247,-0.380708,0.66707,0.014538,0.754802,-0.18793,0.702891,0.1005,0.0111045,0,0,0,0,0,0,0,0.311748,-0.350827,-0.0337705,-1.94709,0.0247661,1.50539,0.404432,0.529414,0.00944501,0.608654,-0.0999754,0.462071,0.105825,0.000795549,0.638309,-22.2435,0.488905,25.6815,1.90033,2.31713,-0.0227812,-1.20993,0.137955,-2.94709,-0.0551954,0.479244,0.181151,0.222169,0.841118,0.0468116,-1.30503,0.412796,-0.24653,-0.0018222,
0.310066,-0.35095,-0.0359577,-1.94792,0.0266832,-0.066431,-0.380666,0.676445,0.0199655,0.773361,-0.189519,0.747973,0.0984171,0.0103842,0,0,0,0,0,0,0,0.311748,-0.350827,-0.0337705,-1.94709,0.0247661,1.50539,0.404432,0.529414,0.00944501,0.608654,-0.0999754,0.462071,0.105825,0.000795549,0.638309,-22.2435,0.488905,25.6815,1.90033,2.31713,-0.0227812,-1.20993,0.137955,-2.94709,-0.0551954,0.479244,0.181151,0.222169,0.841118,0.0468116,-1.30503,0.412796,-0.24653,-0.0018222,
0.3128,-0.350851,-0.0328014,-1.94869,0.0298399,-0.0660385,-0.380627,0.683575,0.0248669,0.789073,-0.19035,0.789173,0.0981134,0.0097586,0,0,0,0,0,0,0,0.311748,-0.350827,-0.0337705,-1.94709,0.0247661,1.50539,0.404432,0.529414,0.00944501,0.608654,-0.0999754,0.462071,0.105825,0.000795549,0.638309,-22.2435,0.488905,25.6815,1.90033,2.31713,-0.0227812,-1.2889,-0.0671401,-2.49277,0.209521,0.325708,0.0951815,0.104684,0.656958,-0.0604296,-1.14906,0.522307,-0.274913,0.000191538,
0.315561,-0.350734,-0.0295993,-1.94945,0.0331469,-0.0656412,-0.380591,0.690269,0.0292153,0.800525,-0.190649,0.826747,0.0993477,0.00916695,0,0,0,0,0,0,0,0.311748,-0.350827,-0.0337705,-1.94709,0.0247661,1.50539,0.404432,0.529414,0.00944501,0.608654,-0.0999754,0.462071,0.105825,0.000795549,0.638309,-22.2435,0.488905,25.6815,1.90033,2.31713,-0.0227812,-0.904674,-0.744706,-2.11105,0.677962,0.401334,-0.221911,-0.175966,0.526911,-0.461637,-0.954142,0.442513,-0.214394,0.00124813,
0.299514,-0.351135,-0.0478271,-1.94495,0.0158521,-0.0680833,-0.380852,0.619787,-0.0014676,0.674935,-0.170543,0.549228,0.114324,0.0140827,0,0,0,0,0,0,0,0.328136,-0.350289,-0.0145817,-1.95006,0.0375209,1.509,0.404427,0.525664,0.0152901,0.630949,-0.0982349,0.422743,0.119544,-0.000952207,1.4516,-22.2435,1.3141,25.8084,1.62567,2.57531,0.017502,-0.904674,-0.744706,-2.11105,0.677962,0.401334,-0.221911,-0.175966,0.526911,-0.461637,-0.954142,0.442513,-0.214394,0.00124813,
0.335453,-0.350232,-0.00637885,-1.952,0.0439371,-0.0600576,-0.38081,0.630986,0.00762173,0.714952,-0.175131,0.592732,0.141441,0.0125006,0,0,0,0,0,0,0,0.328136,-0.350289,-0.0145817,-1.95006,0.0375209,1.509,0.404427,0.525664,0.0152901,0.630949,-0.0982349,0.422743,0.119544,-0.000952207,1.4516,-22.2435,1.3141,25.8084,1.62567,2.57531,0.017502,-0.496452,-0.708042,-2.47559,0.536083,0.752405,-0.253779,-0.207918,0.769009,-0.474663,-1.07552,0.364526,-0.165535,0.0013154,
0.338036,-0.35018,-0.00341777,-1.95272,0.0465246,-0.0595182,-0.380763,0.645781,0.0130411,0.740268,-0.180241,0.64687,0.134861,0.0115628,0,0,0,0,0,0,0,0.328136,-0.350289,-0.0145817,-1.95006,0.0375209,1.509,0.404427,0.525664,0.0152901,0.630949,-0.0982349,0.422743,0.119544,-0.000952207,1.4516,-22.2435,1.3141,25.8084,1.62567,2.57531,0.017502,-0.496452,-0.708042,-2.47559,0.536083,0.752405,-0.253779,-0.207918,0.769009,-0.474663,-1.07552,0.364526,-0.165535,0.0013154,
0.340665,-0.350106,-0.000371451,-1.95346,0.0493132,-0.0590001,-0.38072,0.657401,0.0184758,0.76158,-0.183125,0.697153,0.129526,0.010754,0,0,0,0,0,0,0,0.328136,-0.350289,-0.0145817,-1.95006,0.0375209,1.509,0.404427,0.525664,0.0152901,0.630949,-0.0982349,0.422743,0.119544,-0.000952207,1.4516,-22.2435,1.3141,25.8084,1.62567,2.57531,0.017502,-1.3491,1.32874,-2.3192,-0.757657,0.163573,0.703258,0.700568,0.683044,0.695658,-1.02436,0.576542,-0.192021,-0.00239769,
0.343337,-0.350012,0.00273925,-1.95419,0.0522875,-0.0584961,-0.38068,0.66785,0.0235059,0.777675,-0.184823,0.743576,0.125991,0.0100087,0,0,0,0,0,0,0,0.328136,-0.350289,-0.0145817,-1.95006,0.0375209,1.509,0.404427,0.525664,0.0152901,0.630949,-0.0982349,0.422743,0.119544,-0.000952207,1.4516,-22.2435,1.3141,25.8084,1.62567,2.57531,0.017502,-1.3491,1.32874,-2.3192,-0.757657,0.163573,0.703258,0.700568,0.683044,0.695658,-1.02436,0.576542,-0.192021,-0.00239769,
0.346043,-0.3499,0.00589822,-1.95494,0.0554329,-0.0579993,-0.380643,0.676572,0.0279937,0.789744,-0.185777,0.786333,0.1242,0.00938208,0,0,0,0,0,0,0,0.345547,-0.349531,0.00583074,-1.95298,0.0517018,1.51272,0.404431,0.531433,0.0270628,0.638061,-0.0975979,0.390642,0.1214,0.00144461,0.638309,-22.8426,0.0644055,26.0822,1.49109,2.42333,-0.0163725,-1.62374,1.64654,-1.79979,-0.845831,-0.167595,0.871149,0.849738,0.451904,0.8892,-0.817429,0.682875,-0.198321,-0.00180836,
0.332929,-0.350262,-0.00923865,-1.9513,0.0415662,-0.0606234,-0.38086,0.612107,0.00338094,0.684911,-0.165341,0.53534,0.147115,0.0135875,0,0,0,0,0,0,0,0.345547,-0.349531,0.00583074,-1.95298,0.0517018,1.51272,0.404431,0.531433,0.0270628,0.638061,-0.0975979,0.390642,0.1214,0.00144461,0.638309,-22.8426,0.0644055,26.0822,1.49109,2.42333,-0.0163725,-1.62374,1.64654,-1.79979,-0.845831,-0.167595,0.871149,0.849738,0.451904,0.8892,-0.817429,0.682875,-0.198321,-0.00180836,
0.352784,-0.349364,0.0141383,-1.95492,0.0579474,-0.0562386,-0.380812,0.622999,0.0156111,0.722134,-0.174722,0.5834,0.151295,0.0120496,0,0,0,0,0,0,0,0.345547,-0.349531,0.00583074,-1.95298,0.0517018,1.51272,0.404431,0.531433,0.0270628,0.638061,-0.0975979,0.390642,0.1214,0.00144461,0.638309,-22.8426,0.0644055,26.0822,1.49109,2.42333,-0.0163725,-0.371842,-0.583547,-2.10521,0.514816,0.754543,-0.218457,-0.175599,0.715219,-0.445254,-0.953291,0.443864,-0.172869,0.00482336,
0.355338,-0.349284,0.0171158,-1.95564,0.0605097,-0.0556555,-0.380768,0.638467,0.0201166,0.744378,-0.179408,0.640582,0.145787,0.0111194,0,0,0,0,0,0,0,0.345547,-0.349531,0.00583074,-1.95298,0.0517018,1.51272,0.404431,0.531433,0.0270628,0.638061,-0.0975979,0.390642,0.1214,0.00144461,0.638309,-22.8426,0.0644055,26.0822,1.49109,2.42333,-0.0163725,-0.514208,0.101848,-2.61898,-0.0905859,0.820094,0.0949668,0.148593,0.949496,-0.0529843,-1.16622,0.415053,-0.183797,0.00385507,
0.357944,-0.349185,0.0201622,-1.95636,0.0632841,-0.0550909,-0.380727,0.651388,0.0246975,0.761594,-0.181921,0.693607,0.141159,0.0103294,0,0,0,0,0,0,0,0.345547,-0.349531,0.00583074,-1.95298,0.0517018,1.51272,0.404431,0.531433,0.0270628,0.638061,-0.0975979,0.390642,0.1214,0.00144461,0.638309,-22.8426,0.0644055,26.0822,1.49109,2.42333,-0.0163725,-0.514208,0.101848,-2.61898,-0.0905859,0.820094,0.0949668,0.148593,0.949496,-0.0529843,-1.16622,0.415053,-0.183797,0.00385507,
0.36059,-0.349069,0.0232629,-1.9571,0.0662534,-0.0545387,-0.380688,0.661571,0.028926,0.775182,-0.183268,0.742311,0.138031,0.0095694,0,0,0,0,0,0,0,0.345547,-0.349531,0.00583074,-1.95298,0.0517018,1.51272,0.404431,0.531433,0.0270628,0.638061,-0.0975979,0.390642,0.1214,0.00144461,0.638309,-22.8426,0.0644055,26.0822,1.49109,2.42333,-0.0163725,-1.7415,0.375179,-2.31831,-0.164795,-0.0588547,0.397329,0.390986,0.501653,0.329145,-1.04252,0.563473,-0.253653,0.00409655,
0.363268,-0.348939,0.0264063,-1.95783,0.0693996,-0.0539929,-0.380652,0.669431,0.032673,0.785841,-0.183884,0.786547,0.136445,0.0089557,0,0,0,0,0,0,0,0.36241,-0.348728,0.0261601,-1.95567,0.0655121,1.51666,0.40443,0.522074,0.0362117,0.616652,-0.0800545,0.387931,0.139677,2.35105e-05,0.0828892,-23.3385,-0.736986,25.856,1.30798,2.40319,-0.00996382,-1.7415,0.375179,-2.31831,-0.164795,-0.0588547,0.397329,0.390986,0.501653,0.329145,-1.04252,0.563473,-0.253653,0.00409655,
0.350292,-0.349427,0.0112498,-1.95422,0.0556138,-0.0568438,-0.380861,0.605217,0.0123784,0.693608,-0.165348,0.521892,0.155419,0.0130397,0,0,0,0,0,0,0,0.36241,-0.348728,0.0261601,-1.95567,0.0655121,1.51666,0.40443,0.522074,0.0362117,0.616652,-0.0800545,0.387931,0.139677,2.35105e-05,0.0828892,-23.3385,-0.736986,25.856,1.30798,2.40319,-0.00996382,-2.55577,0.662985,-1.99462,-0.280478,-0.714512,0.666515,0.663235,0.149113,0.632402,-0.883834,0.633797,-0.269443,0.0015495,
0.369448,-0.348517,0.0343474,-1.95751,0.0717126,-0.0519841,-0.380815,0.609007,0.0181355,0.711519,-0.168596,0.578254,0.177976,0.0119839,0,0,0,0,0,0,0,0.36241,-0.348728,0.0261601,-1.95567,0.0655121,1.51666,0.40443,0.522074,0.0362117,0.616652,-0.0800545,0.387931,0.139677,2.35105e-05,0.0828892,-23.3385,-0.736986,25.856,1.30798,2.40319,-0.00996382,-0.903702,-0.684001,-2.30112,0.460359,0.456415,-0.138356,-0.0801738,0.621554,-0.343931,-1.03148,0.410215,-0.209736,0.00243884,
0.37195,-0.348429,0.0372806,-1.95821,0.0742536,-0.0512986,-0.380771,0.625664,0.0220674,0.733317,-0.173891,0.635255,0.171389,0.0109752,0,0,0,0,0,0,0,0.36241,-0.348728,0.0261601,-1.95567,0.0655121,1.51666,0.40443,0.522074,0.0362117,0.616652,-0.0800545,0.387931,0.139677,2.35105e-05,0.0828892,-23.3385,-0.736986,25.856,1.30798,2.40319,-0.00996382,-0.903702,-0.684001,-2.30112,0.460359,0.456415,-0.138356,-0.0801738,0.621554,-0.343931,-1.03148,0.410215,-0.209736,0.00243884,
0.374506,-0.348324,0.0402835,-1.95892,0.0770068,-0.050637,-0.38073,0.638881,0.0262208,0.750729,-0.176715,0.688301,0.165392,0.0101409,0,0,0,0,0,0,0,0.36241,-0.348728,0.0261601,-1.95567,0.0655121,1.51666,0.40443,0.522074,0.0362117,0.616652,-0.0800545,0.387931,0.139677,2.35105e-05,0.0828892,-23.3385,-0.736986,25.856,1.30798,2.40319,-0.00996382,-0.676268,0.874212,-2.70136,-0.642216,0.799741,0.432366,0.444819,1.08264,0.379313,-1.23683,0.532124,-0.220219,0.000980679,
0.377103,-0.348204,0.0433418,-1.95963,0.079955,-0.0499936,-0.380693,0.649255,0.0300958,0.764552,-0.178245,0.737038,0.16085,0.00938606,0,0,0,0,0,0,0,0.378652,-0.347924,0.0460616,-1.95818,0.0788159,1.52105,0.404431,0.529518,0.0275474,0.625215,-0.0732985,0.399904,0.143859,0.000835404,-1.61908,-23.1639,-2.68492,25.8322,0.923458,2.36382,-0.0163725,-0.676268,0.874212,-2.70136,-0.642216,0.799741,0.432366,0.444819,1.08264,0.379313,-1.23683,0.532124,-0.220219,0.000980679,
0.379732,-0.34807,0.0464435,-1.96034,0.0830802,-0.049362,-0.380658,0.657278,0.0335322,0.775429,-0.178989,0.781315,0.157897,0.0087315,0,0,0,0,0,0,0,0.378652,-0.347924,0.0460616,-1.95818,0.0788159,1.52105,0.404431,0.529518,0.0275474,0.625215,-0.0732985,0.399904,0.143859,0.000835404,-1.61908,-23.1639,-2.68492,25.8322,0.923458,2.36382,-0.0163725,-1.19522,0.107741,-2.57853,-0.11308,0.432254,0.219779,0.195516,0.798636,0.14558,-1.19601,0.538945,-0.273489,0.00397075,
0.369448,-0.348517,0.0343474,-1.95751,0.0717118,-0.051984,-0.380815,0.609013,0.0181346,0.711524,-0.168596,0.57816,0.177993,0.0119837,0,0,0,0,0,0,0,0.378652,-0.347924,0.0460616,-1.95818,0.0788159,1.52105,0.404431,0.529518,0.0275474,0.625215,-0.0732985,0.399904,0.143859,0.000835404,-1.61908,-23.1639,-2.68492,25.8322,0.923458,2.36382,-0.0163725,-1.19522,0.107741,-2.57853,-0.11308,0.432254,0.219779,0.195516,0.798636,0.14558,-1.19601,0.538945,-0.273489,0.00397075,
0.385684,-0.347779,0.0543005,-1.95994,0.0852305,-0.0474812,-0.380822,0.606759,0.0137645,0.713124,-0.162058,0.596721,0.190122,0.0113841,0,0,0,0,0,0,0,0.378652,-0.347924,0.0460616,-1.95818,0.0788159,1.52105,0.404431,0.529518,0.0275474,0.625215,-0.0732985,0.399904,0.143859,0.000835404,-1.61908,-23.1639,-2.68492,25.8322,0.923458,2.36382,-0.0163725,-1.22847,-0.527006,-2.42645,0.307044,0.277712,0.00291785,0.0506266,0.586574,-0.1649,-1.06921,0.4454,-0.216042,0.00379372,
0.388172,-0.347705,0.0572329,-1.96061,0.0878424,-0.0467415,-0.38078,0.622001,0.0184344,0.733091,-0.16758,0.652993,0.184919,0.0104579,0,0,0,0,0,0,0,0.378652,-0.347924,0.0460616,-1.95818,0.0788159,1.52105,0.404431,0.529518,0.0275474,0.625215,-0.0732985,0.399904,0.143859,0.000835404,-1.61908,-23.1639,-2.68492,25.8322,0.923458,2.36382,-0.0163725,-1.40818,0.85466,-2.69492,-0.652842,0.253872,0.588669,0.644603,0.810334,0.530326,-1.16458,0.537844,-0.199425,0.000200894,
0.390708,-0.347613,0.0602291,-1.96129,0.0906616,-0.0460222,-0.380742,0.634072,0.0231326,0.749056,-0.170623,0.70479,0.179833,0.00964042,0,0,0,0,0,0,0,0.378652,-0.347924,0.0460616,-1.95818,0.0788159,1.52105,0.404431,0.529518,0.0275474,0.625215,-0.0732985,0.399904,0.143859,0.000835404,-1.61908,-23.1639,-2.68492,25.8322,0.923458,2.36382,-0.0163725,-1.40818,0.85466,-2.69492,-0.652842,0.253872,0.588669,0.644603,0.810334,0.530326,-1.16458,0.537844,-0.199425,0.000200894,
0.393282,-0.347503,0.0632759,-1.96198,0.0936696,-0.0453189,-0.380706,0.643525,0.0274079,0.761718,-0.172357,0.751993,0.175819,0.00892383,0,0,0,0,0,0,0,0.39534,-0.346966,0.0667138,-1.96048,0.0920025,1.52612,0.404432,0.518984,0.0250734,0.624551,-0.0668065,0.435629,0.165732,0.000132496,0.00751081,-22.7156,-1.23686,25.6815,1.56433,2.37664,-0.0227812,-0.9655,0.677693,-3.0113,-0.576145,0.733358,0.416739,0.42755,1.10864,0.354091,-1.35632,0.596896,-0.242123,0.00114122,
0.395885,-0.347379,0.0663626,-1.96267,0.096848,-0.0446266,-0.380673,0.650805,0.0311354,0.771655,-0.173285,0.79461,0.173093,0.00829728,0,0,0,0,0,0,0,0.39534,-0.346966,0.0667138,-1.96048,0.0920025,1.52612,0.404432,0.518984,0.0250734,0.624551,-0.0668065,0.435629,0.165732,0.000132496,0.00751081,-22.7156,-1.23686,25.6815,1.56433,2.37664,-0.0227812,-0.9655,0.677693,-3.0113,-0.576145,0.733358,0.416739,0.42755,1.10864,0.354091,-1.35632,0.596896,-0.242123,0.00114122,
0.39851,-0.347241,0.0694799,-1.96337,0.100179,-0.0439402,-0.380642,0.656272,0.0343111,0.779333,-0.173649,0.832777,0.1716,0.00775214,0,0,0,0,0,0,0,0.39534,-0.346966,0.0667138,-1.96048,0.0920025,1.52612,0.404432,0.518984,0.0250734,0.624551,-0.0668065,0.435629,0.165732,0.000132496,0.00751081,-22.7156,-1.23686,25.6815,1.56433,2.37664,-0.0227812,-0.677633,-0.424537,-2.85376,0.184117,0.886061,-0.0732035,-0.0738123,1.00569,-0.22926,-1.31201,0.556207,-0.254253,0.00406077,
0.385685,-0.347779,0.0543009,-1.95994,0.0852217,-0.0474798,-0.380822,0.606829,0.0137557,0.713177,-0.162055,0.595707,0.190281,0.0113814,0,0,0,0,0,0,0,0.39534,-0.346966,0.0667138,-1.96048,0.0920025,1.52612,0.404432,0.518984,0.0250734,0.624551,-0.0668065,0.435629,0.165732,0.000132496,0.00751081,-22.7156,-1.23686,25.6815,1.56433,2.37664,-0.0227812,-0.677633,-0.424537,-2.85376,0.184117,0.886061,-0.0732035,-0.0738123,1.00569,-0.22926,-1.31201,0.556207,-0.254253,0.00406077,
0.402286,-0.346839,0.0748932,-1.96216,0.0987135,-0.0421416,-0.380826,0.599238,0.0126145,0.707684,-0.155784,0.617016,0.211831,0.0110005,0,0,0,0,0,0,0,0.39534,-0.346966,0.0667138,-1.96048,0.0920025,1.52612,0.404432,0.518984,0.0250734,0.624551,-0.0668065,0.435629,0.165732,0.000132496,0.00751081,-22.7156,-1.23686,25.6815,1.56433,2.37664,-0.0227812,-0.935301,-0.79901,-2.71859,0.388751,0.49401,-0.133359,-0.077527,0.691038,-0.316874,-1.12566,0.408276,-0.140945,0.00124087,
0.404742,-0.346769,0.0778025,-1.96281,0.101392,-0.0413171,-0.380786,0.614104,0.0173724,0.727309,-0.161545,0.669645,0.206133,0.0100849,0,0,0,0,0,0,0,0.412038,-0.346064,0.0874793,-1.96258,0.10561,1.53168,0.40443,0.528259,0.0271686,0.638873,-0.0644099,0.490583,0.169039,-0.000338412,0.0313145,-22.1919,-1.63756,25.6577,2.0285,2.31713,-0.0026396,-1.63957,0.946213,-2.89932,-0.763388,0.12558,0.68998,0.726255,0.796924,0.66763,-1.18198,0.586321,-0.153584,-0.00440291,
0.407246,-0.346681,0.0807743,-1.96347,0.104265,-0.0405156,-0.380748,0.625853,0.0220975,0.742958,-0.164812,0.718299,0.200385,0.00927401,0,0,0,0,0,0,0,0.412038,-0.346064,0.0874793,-1.96258,0.10561,1.53168,0.40443,0.528259,0.0271686,0.638873,-0.0644099,0.490583,0.169039,-0.000338412,0.0313145,-22.1919,-1.63756,25.6577,2.0285,2.31713,-0.0026396,-1.63957,0.946213,-2.89932,-0.763388,0.12558,0.68998,0.726255,0.796924,0.66763,-1.18198,0.586321,-0.153584,-0.00440291,
0.409786,-0.346575,0.0837956,-1.96414,0.107317,-0.0397332,-0.380714,0.635028,0.0263606,0.755325,-0.166748,0.762802,0.195594,0.00857136,0,0,0,0,0,0,0,0.412038,-0.346064,0.0874793,-1.96258,0.10561,1.53168,0.40443,0.528259,0.0271686,0.638873,-0.0644099,0.490583,0.169039,-0.000338412,0.0313145,-22.1919,-1.63756,25.6577,2.0285,2.31713,-0.0026396,-1.21178,1.42258,-3.1026,-1.04694,0.612637,0.76015,0.782912,1.16298,0.733718,-1.34153,0.747251,-0.20014,-0.000556819,
0.412357,-0.346455,0.0868564,-1.96481,0.110506,-0.0389655,-0.380682,0.6428,0.0300958,0.765198,-0.167596,0.797498,0.191907,0.00799271,0,0,0,0,0,0,0,0.412038,-0.346064,0.0874793,-1.96258,0.10561,1.53168,0.40443,0.528259,0.0271686,0.638873,-0.0644099,0.490583,0.169039,-0.000338412,0.0313145,-22.1919,-1.63756,25.6577,2.0285,2.31713,-0.0026396,-1.21178,1.42258,-3.1026,-1.04694,0.612637,0.76015,0.782912,1.16298,0.733718,-1.34153,0.747251,-0.20014,-0.000556819,
0.402294,-0.346839,0.0748975,-1.96216,0.0986226,-0.0421308,-0.380826,0.599956,0.0125348,0.708218,-0.155702,0.606545,0.213098,0.0109758,0,0,0,0,0,0,0,0.412038,-0.346064,0.0874793,-1.96258,0.10561,1.53168,0.40443,0.528259,0.0271686,0.638873,-0.0644099,0.490583,0.169039,-0.000338412,0.0313145,-22.1919,-1.63756,25.6577,2.0285,2.31713,-0.0026396,-0.538159,-0.329939,-2.9373,0.0913427,0.935356,-0.0541615,-0.0397205,1.02281,-0.212207,-1.26272,0.580833,-0.159833,0.00320902,
0.419031,-0.345915,0.0957572,-1.96423,0.112793,-0.0364802,-0.380838,0.601025,0.0140881,0.713377,-0.152479,0.648677,0.222286,0.0102325,0,0,0,0,0,0,0,0.412038,-0.346064,0.0874793,-1.96258,0.10561,1.53168,0.40443,0.528259,0.0271686,0.638873,-0.0644099,0.490583,0.169039,-0.000338412,0.0313145,-22.1919,-1.63756,25.6577,2.0285,2.31713,-0.0026396,-0.693057,-1.10177,-2.72546,0.559047,0.655516,-0.278517,-0.218612,0.726526,-0.494137,-1.12787,0.422734,-0.124661,0.00174316,
0.421488,-0.345841,0.0986812,-1.96486,0.115571,-0.0356088,-0.380801,0.614193,0.0185355,0.731006,-0.158071,0.694479,0.217852,0.00939493,0,0,0,0,0,0,0,0.433365,-0.344896,0.114416,-1.96525,0.12452,1.53921,0.404431,0.509003,0.026214,0.631822,-0.0699232,0.491675,0.180128,0.000428502,0.614505,-22.4419,-1.31224,25.7092,1.80877,2.3565,-0.0163725,-0.693057,-1.10177,-2.72546,0.559047,0.655516,-0.278517,-0.218612,0.726526,-0.494137,-1.12787,0.422734,-0.124661,0.00174316,
0.423989,-0.345749,0.101662,-1.96551,0.118496,-0.0347573,-0.380766,0.625232,0.0229984,0.745159,-0.160933,0.731366,0.212856,0.00868423,0,0,0,0,0,0,0,0.433365,-0.344896,0.114416,-1.96525,0.12452,1.53921,0.404431,0.509003,0.026214,0.631822,-0.0699232,0.491675,0.180128,0.000428502,0.614505,-22.4419,-1.31224,25.7092,1.80877,2.3565,-0.0163725,-0.952435,0.691766,-2.84523,-0.637437,0.58806,0.444307,0.479001,0.994072,0.385744,-1.19015,0.583425,-0.140644,-0.000729959,
0.426527,-0.345641,0.104689,-1.96616,0.121525,-0.0339237,-0.380734,0.6345,0.0270057,0.756704,-0.162253,0.757229,0.208422,0.00812283,0,0,0,0,0,0,0,0.433365,-0.344896,0.114416,-1.96525,0.12452,1.53921,0.404431,0.509003,0.026214,0.631822,-0.0699232,0.491675,0.180128,0.000428502,0.614505,-22.4419,-1.31224,25.7092,1.80877,2.3565,-0.0163725,-0.952435,0.691766,-2.84523,-0.637437,0.58806,0.444307,0.479001,0.994072,0.385744,-1.19015,0.583425,-0.140644,-0.000729959,
0.429094,-0.345519,0.107753,-1.96681,0.124626,-0.0331035,-0.380703,0.64168,0.0303649,0.76611,-0.162809,0.775129,0.205037,0.00759583,0,0,0,0,0,0,0,0.433365,-0.344896,0.114416,-1.96525,0.12452,1.53921,0.404431,0.509003,0.026214,0.631822,-0.0699232,0.491675,0.180128,0.000428502,0.614505,-22.4419,-1.31224,25.7092,1.80877,2.3565,-0.0163725,-1.69731,1.05116,-2.90261,-0.821675,0.220423,0.753759,0.759801,0.912558,0.73554,-1.24535,0.757405,-0.221329,1.87912e-05,
0.419092,-0.345917,0.0957898,-1.96422,0.112074,-0.0364544,-0.380839,0.606554,0.0136091,0.717437,-0.151032,0.565987,0.225517,0.0100706,0,0,0,0,0,0,0,0.433365,-0.344896,0.114416,-1.96525,0.12452,1.53921,0.404431,0.509003,0.026214,0.631822,-0.0699232,0.491675,0.180128,0.000428502,0.614505,-22.4419,-1.31224,25.7092,1.80877,2.3565,-0.0163725,-1.69731,1.05116,-2.90261,-0.821675,0.220423,0.753759,0.759801,0.912558,0.73554,-1.24535,0.757405,-0.221329,1.87912e-05,
0.44027,-0.344724,0.122603,-1.96688,0.130925,-0.028816,-0.380839,0.595055,0.0160831,0.707607,-0.14874,0.556561,0.235412,0.00995148,0,0,0,0,0,0,0,0.449952,-0.34414,0.135171,-1.96755,0.138556,1.54602,0.40443,0.510812,0.0243342,0.643979,-0.0772693,0.451109,0.219994,0.000390834,0.539127,-22.4419,-1.76055,25.6815,1.41235,2.62841,-0.00996382,-1.60656,-0.6548,-2.68876,0.303824,0.140793,0.134694,0.191308,0.574237,-0.0429685,-1.14253,0.59946,-0.209424,0.00331627,
0.442708,-0.344643,0.12551,-1.96749,0.133214,-0.0278873,-0.380802,0.609667,0.0201186,0.726694,-0.153554,0.572354,0.232165,0.00915773,0,0,0,0,0,0,0,0.449952,-0.34414,0.135171,-1.96755,0.138556,1.54602,0.40443,0.510812,0.0243342,0.643979,-0.0772693,0.451109,0.219994,0.000390834,0.539127,-22.4419,-1.76055,25.6815,1.41235,2.62841,-0.00996382,-1.60656,-0.6548,-2.68876,0.303824,0.140793,0.134694,0.191308,0.574237,-0.0429685,-1.14253,0.59946,-0.209424,0.00331627,
0.445192,-0.344547,0.128478,-1.96811,0.13555,-0.0269749,-0.380768,0.621054,0.0239798,0.741992,-0.156148,0.584005,0.228095,0.00843108,0,0,0,0,0,0,0,0.449952,-0.34414,0.135171,-1.96755,0.138556,1.54602,0.40443,0.510812,0.0243342,0.643979,-0.0772693,0.451109,0.219994,0.000390834,0.539127,-22.4419,-1.76055,25.6815,1.41235,2.62841,-0.00996382,-0.270354,-1.342,-2.8622,0.620478,1.01537,-0.440255,-0.34583,0.921991,-0.705922,-1.24125,0.417184,-0.154888,0.00415447,
0.447713,-0.344438,0.131495,-1.96874,0.137904,-0.026078,-0.380737,0.630233,0.0273732,0.754184,-0.157408,0.588502,0.224238,0.00783579,0,0,0,0,0,0,0,0.449952,-0.34414,0.135171,-1.96755,0.138556,1.54602,0.40443,0.510812,0.0243342,0.643979,-0.0772693,0.451109,0.219994,0.000390834,0.539127,-22.4419,-1.76055,25.6815,1.41235,2.62841,-0.00996382,-1.41687,0.885361,-3.37242,-0.955617,0.495679,0.642015,0.65544,1.1613,0.649367,-1.44716,0.645688,-0.225311,0.00120278,
0.450263,-0.344317,0.13455,-1.96938,0.140253,-0.0251938,-0.380708,0.637294,0.0301769,0.763851,-0.157927,0.587111,0.221039,0.00732592,0,0,0,0,0,0,0,0.449952,-0.34414,0.135171,-1.96755,0.138556,1.54602,0.40443,0.510812,0.0243342,0.643979,-0.0772693,0.451109,0.219994,0.000390834,0.539127,-22.4419,-1.76055,25.6815,1.41235,2.62841,-0.00996382,-1.41687,0.885361,-3.37242,-0.955617,0.495679,0.642015,0.65544,1.1613,0.649367,-1.44716,0.645688,-0.225311,0.00120278,
0.452832,-0.344187,0.137635,-1.97001,0.142582,-0.0243193,-0.38068,0.642331,0.0323949,0.771293,-0.158052,0.582342,0.218618,0.00687753,0,0,0,0,0,0,0,0.449952,-0.34414,0.135171,-1.96755,0.138556,1.54602,0.40443,0.510812,0.0243342,0.643979,-0.0772693,0.451109,0.219994,0.000390834,0.539127,-22.4419,-1.76055,25.6815,1.41235,2.62841,-0.00996382,-0.697548,-0.848249,-2.76563,0.309064,0.751142,-0.161194,-0.149549,0.867986,-0.316939,-1.21839,0.528237,-0.195158,0.00698911,
0.440494,-0.344717,0.122717,-1.96677,0.128097,-0.0289749,-0.380841,0.614743,0.0153785,0.721702,-0.139634,0.235088,0.218705,0.00957238,0,0,0,0,0,0,0,0.465522,-0.343541,0.154581,-1.96969,0.151435,1.55264,0.404431,0.498537,0.0252986,0.627875,-0.0646058,0.374076,0.210134,0.000921279,0.840641,-22.5926,-1.78832,25.2332,1.02691,2.54876,-0.0163725,-1.59553,-0.158114,-2.86034,-0.210835,0.0979746,0.347286,0.394082,0.683131,0.273177,-1.17465,0.504301,-0.170762,0.0035294,
0.472494,-0.343357,0.162788,-1.97115,0.153977,-0.015218,-0.380837,0.60181,0.0158905,0.712999,-0.134473,0.153856,0.244096,0.00985793,0,0,0,0,0,0,0,0.465522,-0.343541,0.154581,-1.96969,0.151435,1.55264,0.404431,0.498537,0.0252986,0.627875,-0.0646058,0.374076,0.210134,0.000921279,0.840641,-22.5926,-1.78832,25.2332,1.02691,2.54876,-0.0163725,-1.59553,-0.158114,-2.86034,-0.210835,0.0979746,0.347286,0.394082,0.683131,0.273177,-1.17465,0.504301,-0.170762,0.0035294,
0.474955,-0.343283,0.165721,-1.97171,0.154422,-0.0142727,-0.380801,0.615407,0.0185195,0.733363,-0.14051,0.111277,0.236329,0.00900884,0,0,0,0,0,0,0,0.465522,-0.343541,0.154581,-1.96969,0.151435,1.55264,0.404431,0.498537,0.0252986,0.627875,-0.0646058,0.374076,0.210134,0.000921279,0.840641,-22.5926,-1.78832,25.2332,1.02691,2.54876,-0.0163725,-1.11097,0.504638,-3.07274,-0.758521,0.490966,0.453706,0.522792,1.03993,0.415734,-1.29276,0.486175,-0.168762,0.00494058,
0.477457,-0.343199,0.168716,-1.97229,0.154724,-0.0133622,-0.380768,0.625404,0.0212078,0.748688,-0.14442,0.0753892,0.227629,0.00831768,0,0,0,0,0,0,0,0.465522,-0.343541,0.154581,-1.96969,0.151435,1.55264,0.404431,0.498537,0.0252986,0.627875,-0.0646058,0.374076,0.210134,0.000921279,0.840641,-22.5926,-1.78832,25.2332,1.02691,2.54876,-0.0163725,-1.11097,0.504638,-3.07274,-0.758521,0.490966,0.453706,0.522792,1.03993,0.415734,-1.29276,0.486175,-0.168762,0.00494058,
0.479986,-0.343104,0.171756,-1.97288,0.154906,-0.0124855,-0.380737,0.632344,0.0236209,0.759983,-0.147181,0.0455735,0.219177,0.00773928,0,0,0,0,0,0,0,0.465522,-0.343541,0.154581,-1.96969,0.151435,1.55264,0.404431,0.498537,0.0252986,0.627875,-0.0646058,0.374076,0.210134,0.000921279,0.840641,-22.5926,-1.78832,25.2332,1.02691,2.54876,-0.0163725,-1.22847,0.28534,-3.04432,-0.62771,0.414587,0.404389,0.430927,0.97864,0.390475,-1.29781,0.497152,-0.195168,0.00831966,
0.482533,-0.343001,0.174828,-1.97347,0.154992,-0.0116397,-0.380708,0.636746,0.025678,0.767986,-0.149242,0.0215372,0.211463,0.00730306,0,0,0,0,0,0,0,0.481024,-0.343041,0.17406,-1.97172,0.16083,1.5588,0.404431,0.502369,0.0181395,0.634582,-0.0525782,0.165513,0.204001,0.000971283,-0.349545,-22.5926,-2.91106,26.0068,0.898739,2.44256,-0.0163725,-1.22847,0.28534,-3.04432,-0.62771,0.414587,0.404389,0.430927,0.97864,0.390475,-1.29781,0.497152,-0.195168,0.00831966,
0.472664,-0.343427,0.16275,-1.97104,0.148438,-0.0152341,-0.380843,0.605709,0.00520774,0.708574,-0.128157,-0.45296,0.245058,0.00965318,0,0,0,0,0,0,0,0.481024,-0.343041,0.17406,-1.97172,0.16083,1.5588,0.404431,0.502369,0.0181395,0.634582,-0.0525782,0.165513,0.204001,0.000971283,-0.349545,-22.5926,-2.91106,26.0068,0.898739,2.44256,-0.0163725,-1.27321,-0.581471,-2.88376,-0.0939181,0.290678,0.130458,0.140298,0.76729,0.0883766,-1.25311,0.393084,-0.221327,0.0122049,
0.487951,-0.343017,0.182152,-1.97306,0.157354,-0.00897758,-0.38083,0.586339,-0.000542973,0.69583,-0.128635,-0.43985,0.25609,0.0103731,0,0,0,0,0,0,0,0.481024,-0.343041,0.17406,-1.97172,0.16083,1.5588,0.404431,0.502369,0.0181395,0.634582,-0.0525782,0.165513,0.204001,0.000971283,-0.349545,-22.5926,-2.91106,26.0068,0.898739,2.44256,-0.0163725,-1.11048,-0.778906,-2.77054,-0.0674605,0.251716,0.0438422,0.0863218,0.705319,0.00509147,-1.20103,0.21401,-0.202548,0.012886,
0.490305,-0.343016,0.184979,-1.97361,0.155226,-0.00796867,-0.380791,0.588413,0.000245023,0.706648,-0.138289,-0.532127,0.252226,0.00958545,0,0,0,0,0,0,0,0.481024,-0.343041,0.17406,-1.97172,0.16083,1.5588,0.404431,0.502369,0.0181395,0.634582,-0.0525782,0.165513,0.204001,0.000971283,-0.349545,-22.5926,-2.91106,26.0068,0.898739,2.44256,-0.0163725,-1.11048,-0.778906,-2.77054,-0.0674605,0.251716,0.0438422,0.0863218,0.705319,0.00509147,-1.20103,0.21401,-0.202548,0.012886,
0.492656,-0.343008,0.187827,-1.97419,0.152838,-0.00698317,-0.380755,0.587811,0.00200244,0.712145,-0.145273,-0.596796,0.246376,0.00910487,0,0,0,0,0,0,0,0.481024,-0.343041,0.17406,-1.97172,0.16083,1.5588,0.404431,0.502369,0.0181395,0.634582,-0.0525782,0.165513,0.204001,0.000971283,-0.349545,-22.5926,-2.91106,26.0068,0.898739,2.44256,-0.0163725,-1.92765,0.503613,-2.9006,-1.01966,-0.315437,0.729174,0.76643,0.696185,0.85555,-1.19989,0.208045,-0.201453,0.00832501,
0.494997,-0.342991,0.190683,-1.9748,0.150275,-0.00602305,-0.380721,0.585217,0.00417972,0.714003,-0.150538,-0.640916,0.24003,0.00855441,0,0,0,0,0,0,0,0.481024,-0.343041,0.17406,-1.97172,0.16083,1.5588,0.404431,0.502369,0.0181395,0.634582,-0.0525782,0.165513,0.204001,0.000971283,-0.349545,-22.5926,-2.91106,26.0068,0.898739,2.44256,-0.0163725,-1.92765,0.503613,-2.9006,-1.01966,-0.315437,0.729174,0.76643,0.696185,0.85555,-1.19989,0.208045,-0.201453,0.00832501,
0.497324,-0.342965,0.193537,-1.97541,0.147582,-0.00508802,-0.380688,0.581743,0.00657827,0.713417,-0.154349,-0.6732,0.233757,0.00830436,0,0,0,0,0,0,0,0.49723,-0.342407,0.194065,-1.97337,0.162542,1.56526,0.404429,0.52073,0.0171986,0.619392,-0.0536879,-0.0639991,0.219057,0.000114172,-1.21045,-22.6164,-3.5855,26.1575,0.635983,2.43615,0.00376909,-1.76978,0.915179,-3.43318,-1.5483,-0.0831487,0.8179,0.813186,1.04346,1.05718,-1.46622,0.144491,-0.249047,0.0100448,
0.499633,-0.342929,0.196382,-1.97604,0.144801,-0.00417576,-0.380656,0.577191,0.00892287,0.711273,-0.15726,-0.695336,0.228066,0.00797833,0,0,0,0,0,0,0,0.49723,-0.342407,0.194065,-1.97337,0.162542,1.56526,0.404429,0.52073,0.0171986,0.619392,-0.0536879,-0.0639991,0.219057,0.000114172,-1.21045,-22.6164,-3.5855,26.1575,0.635983,2.43615,0.00376909,-0.407294,-1.20688,-3.04355,-0.139959,0.564279,-0.277353,-0.26283,0.876487,-0.229075,-1.33693,-0.132259,-0.186872,0.0145505,
0.487651,-0.343045,0.181839,-1.97306,0.15668,-0.00927866,-0.380857,0.553756,-0.00343973,0.659051,-0.12848,-0.539935,0.22374,0.00909772,0,0,0,0,0,0,0,0.49723,-0.342407,0.194065,-1.97337,0.162542,1.56526,0.404429,0.52073,0.0171986,0.619392,-0.0536879,-0.0639991,0.219057,0.000114172,-1.21045,-22.6164,-3.5855,26.1575,0.635983,2.43615,0.00376909,-0.407294,-1.20688,-3.04355,-0.139959,0.564279,-0.277353,-0.26283,0.876487,-0.229075,-1.33693,-0.132259,-0.186872,0.0145505,
0.503695,-0.342426,0.201762,-1.97475,0.156756,-0.00257394,-0.380852,0.537339,-0.00411849,0.649174,-0.131497,-0.639691,0.245518,0.00961291,0,0,0,0,0,0,0,0.49723,-0.342407,0.194065,-1.97337,0.162542,1.56526,0.404429,0.52073,0.0171986,0.619392,-0.0536879,-0.0639991,0.219057,0.000114172,-1.21045,-22.6164,-3.5855,26.1575,0.635983,2.43615,0.00376909,-0.80598,-1.25595,-2.70829,-0.128618,-0.00151494,-0.133456,-0.0634735,0.506803,-0.0680305,-1.10667,-0.338186,-0.113363,0.0128767,
0.505813,-0.34244,0.20436,-1.97532,0.153844,-0.00161696,-0.380817,0.529517,-0.00349239,0.649433,-0.142404,-0.728134,0.239244,0.00887952,0,0,0,0,0,0,0,0.49723,-0.342407,0.194065,-1.97337,0.162542,1.56526,0.404429,0.52073,0.0171986,0.619392,-0.0536879,-0.0639991,0.219057,0.000114172,-1.21045,-22.6164,-3.5855,26.1575,0.635983,2.43615,0.00376909,-0.80598,-1.25595,-2.70829,-0.128618,-0.00151494,-0.133456,-0.0634735,0.506803,-0.0680305,-1.10667,-0.338186,-0.113363,0.0128767,
0.507897,-0.342446,0.206943,-1.97592,0.1507,-0.000689311,-0.380782,0.520959,-0.00153159,0.645717,-0.150435,-0.785902,0.231913,0.0086192,0,0,0,0,0,0,0,0.51427,-0.341873,0.215181,-1.97482,0.156348,1.57224,0.40443,0.534366,0.0141117,0.667734,-0.051392,-0.283404,0.208496,0.000230859,-0.932736,-22.1166,-4.06157,25.5347,-0.420536,2.54876,-0.00996382,-0.717232,-0.326114,-3.10619,-0.998065,0.054271,0.158163,0.248946,0.811598,0.346946,-1.26697,-0.480097,-0.108147,0.00903576,
