PerkyPenguin/Analysis-on-Approximated-Derivatives/Code_and_Data/PaperData/Real_Robot/Scene_1/contact_change/2/trajectory.csv
Commanded Joint 0 Position,Commanded Joint 1 Position,Commanded Joint 2 Position,Commanded Joint 3 Position,Commanded Joint 4 Position,Commanded Joint 5 Position,Commanded Joint 6 Position,Commanded Joint 0 Velocity,Commanded Joint 1 Velocity,Commanded Joint 2 Velocity,Commanded Joint 3 Velocity,Commanded Joint 4 Velocity,Commanded Joint 5 Velocity,Commanded Joint 6 Velocity,Commanded Joint 0 Torque,Commanded Joint 1 Torque,Commanded Joint 2 Torque,Commanded Joint 3 Torque,Commanded Joint 4 Torque,Commanded Joint 5 Torque,Commanded Joint 6 Torque,Actual Joint 0 Position,Actual Joint 1 Position,Actual Joint 2 Position,Actual Joint 3 Position,Actual Joint 4 Position,Actual Joint 5 Position,Actual Joint 6 Position,Actual Joint 0 Velocity,Actual Joint 1 Velocity,Actual Joint 2 Velocity,Actual Joint 3 Velocity,Actual Joint 4 Velocity,Actual Joint 5 Velocity,Actual Joint 6 Velocity,Actual Joint 0 Torque,Actual Joint 1 Torque,Actual Joint 2 Torque,Actual Joint 3 Torque,Actual Joint 4 Torque,Actual Joint 5 Torque,Actual Joint 6 Torque,EE ext force 0,EE ext force 1,EE ext force 2,EE ext force 3,EE ext force 4,EE ext force 5,joint ext torque 0,joint ext torque 1,joint ext torque 2,joint ext torque 3,joint ext torque 4,joint ext torque 5,joint ext torque 6,
0.0129696,-0.20434,-0.3314,-1.66271,-0.093138,-0.093947,-0.383468,-0.00224015,0.0148951,-0.0124742,-0.150764,0.00228501,0.198554,-0.00215443,0,0,0,0,0,0,0,0.0129774,-0.204341,-0.331303,-1.6612,-0.0931122,1.47487,0.401951,0.00118258,0.00868536,0.00144466,-0.000654343,-0.0031861,-0.0014676,6.18044e-05,-0.0956386,-25.211,1.88936,25.9552,0.471188,2.97356,-0.0429228,-0.986161,-0.076623,-0.291366,0.0950981,-0.32928,-0.159802,-0.0661215,-0.00819714,-0.249614,-0.302452,-0.127341,-0.314562,-0.0427769,
0.0129555,-0.204207,-0.331462,-1.66335,-0.0931305,-0.093125,-0.383476,-0.00352785,0.0333034,-0.0154899,-0.159888,0.00187401,0.205482,-0.00204554,0,0,0,0,0,0,0,0.0129774,-0.204341,-0.331303,-1.6612,-0.0931122,1.47487,0.401951,0.00118258,0.00868536,0.00144466,-0.000654343,-0.0031861,-0.0014676,6.18044e-05,-0.0956386,-25.211,1.88936,25.9552,0.471188,2.97356,-0.0429228,-0.975104,-0.141416,-0.29738,0.13202,-0.31486,-0.187786,-0.0921631,0.00220895,-0.281762,-0.305541,-0.143104,-0.313579,-0.0417116,
0.0129945,-0.204255,-0.331287,-1.66123,-0.0931398,-0.0959389,-0.383448,0.000900995,0.00419014,0.000831913,-0.0020813,-0.000994718,-0.000776676,-3.86723e-05,0,0,0,0,0,0,0,0.0129774,-0.204341,-0.331303,-1.6612,-0.0931122,1.47487,0.401951,0.00118258,0.00868536,0.00144466,-0.000654343,-0.0031861,-0.0014676,6.18044e-05,-0.0956386,-25.211,1.88936,25.9552,0.471188,2.97356,-0.0429228,-0.975104,-0.141416,-0.29738,0.13202,-0.31486,-0.187786,-0.0921631,0.00220895,-0.281762,-0.305541,-0.143104,-0.313579,-0.0417116,
0.0129977,-0.204241,-0.331284,-1.66124,-0.0931425,-0.0959428,-0.383448,0.000800163,0.00363723,0.000731803,-0.00186746,-0.000680492,-0.000971344,-3.40042e-05,0,0,0,0,0,0,0,0.0129774,-0.204341,-0.331303,-1.6612,-0.0931122,1.47487,0.401951,0.00118258,0.00868536,0.00144466,-0.000654343,-0.0031861,-0.0014676,6.18044e-05,-0.0956386,-25.211,1.88936,25.9552,0.471188,2.97356,-0.0429228,-0.647629,-0.139865,-0.565645,0.178845,0.0284195,-0.13077,-0.0396344,0.236129,-0.23239,-0.439279,-0.130701,-0.306285,-0.039947,
0.0130006,-0.204228,-0.331281,-1.66124,-0.0931443,-0.0959472,-0.383448,0.000711963,0.00316167,0.000646224,-0.00166255,-0.00044403,-0.00110727,-2.96956e-05,0,0,0,0,0,0,0,0.012976,-0.204401,-0.331308,-1.66129,-0.0930867,1.47494,0.401951,0.00115225,-0.00811525,-0.000136453,-0.0137038,-0.000355958,0.0164029,-0.00032176,-0.0956386,-24.3898,1.91316,24.0152,0.312802,2.96715,-0.0429228,-0.647629,-0.139865,-0.565645,0.178845,0.0284195,-0.13077,-0.0396344,0.236129,-0.23239,-0.439279,-0.130701,-0.306285,-0.039947,
0.0130031,-0.204217,-0.331279,-1.66125,-0.0931453,-0.095952,-0.383448,0.000634858,0.00274893,0.000572542,-0.0014746,-0.000268124,-0.00119065,-2.59177e-05,0,0,0,0,0,0,0,0.012976,-0.204401,-0.331308,-1.66129,-0.0930867,1.47494,0.401951,0.00115225,-0.00811525,-0.000136453,-0.0137038,-0.000355958,0.0164029,-0.00032176,-0.0956386,-24.3898,1.91316,24.0152,0.312802,2.96715,-0.0429228,-1.52057,0.179537,-0.836055,-0.0362673,-0.561962,-0.142023,-0.0510933,-0.0619756,-0.220415,-0.417975,-0.133764,-0.295789,-0.0387091,
0.0130054,-0.204208,-0.331277,-1.66126,-0.0931459,-0.0959569,-0.383448,0.000567219,0.00238928,0.000508592,-0.001305,-0.000138886,-0.00123154,-2.26523e-05,0,0,0,0,0,0,0,0.012976,-0.204401,-0.331308,-1.66129,-0.0930867,1.47494,0.401951,0.00115225,-0.00811525,-0.000136453,-0.0137038,-0.000355958,0.0164029,-0.00032176,-0.0956386,-24.3898,1.91316,24.0152,0.312802,2.96715,-0.0429228,-2.22497,0.182675,-1.0094,-0.0305021,-1.07661,-0.263993,-0.16738,-0.342491,-0.345266,-0.361616,-0.144242,-0.263201,-0.0376952,
0.0130074,-0.204199,-0.331275,-1.66126,-0.0931461,-0.0959619,-0.383448,0.000507624,0.00207524,0.000452668,-0.00115296,-4.54578e-05,-0.00123971,-1.98348e-05,0,0,0,0,0,0,0,0.012976,-0.204401,-0.331308,-1.66129,-0.0930867,1.47494,0.401951,0.00115225,-0.00811525,-0.000136453,-0.0137038,-0.000355958,0.0164029,-0.00032176,-0.0956386,-24.3898,1.91316,24.0152,0.312802,2.96715,-0.0429228,-2.22497,0.182675,-1.0094,-0.0305021,-1.07661,-0.263993,-0.16738,-0.342491,-0.345266,-0.361616,-0.144242,-0.263201,-0.0376952,
0.0128672,-0.204217,-0.331384,-1.6611,-0.0915907,-0.0968837,-0.383446,-0.010654,0.00872644,-0.00944925,0.00750816,0.17433,-0.107892,0.000359846,0,0,0,0,0,0,0,0.012976,-0.204401,-0.331308,-1.66129,-0.0930867,1.47494,0.401951,0.00115225,-0.00811525,-0.000136453,-0.0137038,-0.000355958,0.0164029,-0.00032176,-0.0956386,-24.3898,1.91316,24.0152,0.312802,2.96715,-0.0429228,-0.354989,-0.296501,-1.42532,0.412303,0.516609,-0.146408,-0.0547386,0.624612,-0.285946,-0.741145,-0.129788,-0.249567,-0.0393783,
0.0128537,-0.204369,-0.331404,-1.66119,-0.0915541,-0.0967476,-0.383447,-0.0116457,0.0029402,-0.0104967,0.00943118,0.174024,-0.104494,0.000381068,0,0,0,0,0,0,0,0.0129768,-0.204372,-0.331302,-1.66153,-0.0930879,1.47545,0.401953,-0.00112302,5.84993e-05,-0.000665469,0.00500329,0.00647396,-0.00464005,0.000238089,-0.0718349,-24.9611,1.91316,25.9314,0.294491,3.3178,-0.0630644,-0.354989,-0.296501,-1.42532,0.412303,0.516609,-0.146408,-0.0547386,0.624612,-0.285946,-0.741145,-0.129788,-0.249567,-0.0393783,
0.0128075,-0.204362,-0.331448,-1.66116,-0.0907313,-0.09725,-0.383445,-0.0115345,0.0018362,-0.0111252,0.00818534,0.205699,-0.1256,0.000519838,0,0,0,0,0,0,0,0.0129768,-0.204372,-0.331302,-1.66153,-0.0930879,1.47545,0.401953,-0.00112302,5.84993e-05,-0.000665469,0.00500329,0.00647396,-0.00464005,0.000238089,-0.0718349,-24.9611,1.91316,25.9314,0.294491,3.3178,-0.0630644,-0.932346,-0.145912,-0.85593,0.201257,-0.174229,-0.180136,-0.0837889,0.127754,-0.288913,-0.421833,-0.12914,-0.215932,-0.039757,
0.0127639,-0.204359,-0.331492,-1.66113,-0.089811,-0.0978209,-0.383443,-0.0108964,0.00073809,-0.0109697,0.0067611,0.230078,-0.14273,0.000592776,0,0,0,0,0,0,0,0.0129768,-0.204372,-0.331302,-1.66153,-0.0930879,1.47545,0.401953,-0.00112302,5.84993e-05,-0.000665469,0.00500329,0.00647396,-0.00464005,0.000238089,-0.0718349,-24.9611,1.91316,25.9314,0.294491,3.3178,-0.0630644,-0.932346,-0.145912,-0.85593,0.201257,-0.174229,-0.180136,-0.0837889,0.127754,-0.288913,-0.421833,-0.12914,-0.215932,-0.039757,
0.0127241,-0.20436,-0.331533,-1.66111,-0.088815,-0.0984479,-0.38344,-0.00996842,-0.00018494,-0.0103383,0.00545695,0.249004,-0.156757,0.000627845,0,0,0,0,0,0,0,0.0129768,-0.204372,-0.331302,-1.66153,-0.0930879,1.47545,0.401953,-0.00112302,5.84993e-05,-0.000665469,0.00500329,0.00647396,-0.00464005,0.000238089,-0.0718349,-24.9611,1.91316,25.9314,0.294491,3.3178,-0.0630644,-0.489935,-0.0575251,-1.10311,0.179227,0.27772,-0.0607666,0.033889,0.432436,-0.17287,-0.587596,-0.122419,-0.234418,-0.0413599,
0.0126885,-0.204363,-0.331571,-1.66109,-0.0877598,-0.0991209,-0.383438,-0.00889545,-0.0009034,-0.00943307,0.00433519,0.263793,-0.168237,0.000639772,0,0,0,0,0,0,0,0.0129768,-0.204372,-0.331302,-1.66153,-0.0930879,1.47545,0.401953,-0.00112302,5.84993e-05,-0.000665469,0.00500329,0.00647396,-0.00464005,0.000238089,-0.0718349,-24.9611,1.91316,25.9314,0.294491,3.3178,-0.0630644,-1.54901,-0.0533483,-0.787339,0.151715,-0.653112,-0.246272,-0.144784,-0.145833,-0.353426,-0.354067,-0.108346,-0.252073,-0.0410786,
0.0126574,-0.204369,-0.331605,-1.66108,-0.0866582,-0.0998312,-0.383435,-0.00776869,-0.00143293,-0.00838704,0.00338793,0.275403,-0.17759,0.000637185,0,0,0,0,0,0,0,0.0129768,-0.204372,-0.331302,-1.66153,-0.0930879,1.47545,0.401953,-0.00112302,5.84993e-05,-0.000665469,0.00500329,0.00647396,-0.00464005,0.000238089,-0.0718349,-24.9611,1.91316,25.9314,0.294491,3.3178,-0.0630644,-1.54901,-0.0533483,-0.787339,0.151715,-0.653112,-0.246272,-0.144784,-0.145833,-0.353426,-0.354067,-0.108346,-0.252073,-0.0410786,
0.0126821,-0.204268,-0.331513,-1.66087,-0.0885275,-0.0995986,-0.383417,-0.0268316,0.00835993,-0.022022,0.0346004,0.52145,-0.422777,0.00330659,0,0,0,0,0,0,0,0.0129248,-0.204268,-0.331347,-1.66147,-0.09219,1.47548,0.401952,-0.00340489,0.00333782,-0.00367287,0.00268219,0.0676821,-0.00299839,0.000439508,0.412174,-25.8617,2.33766,25.9076,0.953671,2.94701,-0.0566557,-1.31617,-0.236781,-0.678477,0.349815,-0.528868,-0.285658,-0.179667,-0.101208,-0.423531,-0.349532,-0.0370455,-0.258286,-0.0419521,
0.0126336,-0.204112,-0.331558,-1.66106,-0.0871507,-0.0988885,-0.383416,-0.0257662,0.00922614,-0.0215579,0.0320914,0.552001,-0.401685,0.00320464,0,0,0,0,0,0,0,0.0129248,-0.204268,-0.331347,-1.66147,-0.09219,1.47548,0.401952,-0.00340489,0.00333782,-0.00367287,0.00268219,0.0676821,-0.00299839,0.000439508,0.412174,-25.8617,2.33766,25.9076,0.953671,2.94701,-0.0566557,-1.31617,-0.236781,-0.678477,0.349815,-0.528868,-0.285658,-0.179667,-0.101208,-0.423531,-0.349532,-0.0370455,-0.258286,-0.0419521,
0.0125376,-0.204095,-0.331644,-1.66095,-0.0845659,-0.100787,-0.383402,-0.0239848,0.0042247,-0.0214359,0.0256646,0.646193,-0.474624,0.0034962,0,0,0,0,0,0,0,0.0129248,-0.204268,-0.331347,-1.66147,-0.09219,1.47548,0.401952,-0.00340489,0.00333782,-0.00367287,0.00268219,0.0676821,-0.00299839,0.000439508,0.412174,-25.8617,2.33766,25.9076,0.953671,2.94701,-0.0566557,-0.718435,-0.239843,-0.841835,0.489633,0.0082054,-0.181602,-0.0759379,0.235033,-0.350287,-0.530634,0.0678848,-0.304494,-0.0415982,
0.0124531,-0.204094,-0.331723,-1.66088,-0.0816822,-0.102916,-0.383388,-0.0211413,0.000109041,-0.0196698,0.019517,0.720932,-0.53229,0.00364728,0,0,0,0,0,0,0,0.0129248,-0.204268,-0.331347,-1.66147,-0.09219,1.47548,0.401952,-0.00340489,0.00333782,-0.00367287,0.00268219,0.0676821,-0.00299839,0.000439508,0.412174,-25.8617,2.33766,25.9076,0.953671,2.94701,-0.0566557,-1.1132,-0.198735,-0.413758,0.428036,-0.466965,-0.232172,-0.124224,-0.108243,-0.391019,-0.321559,0.102485,-0.305088,-0.042262,
0.0123821,-0.204106,-0.33179,-1.66082,-0.0785588,-0.105228,-0.383373,-0.0177534,-0.00298309,-0.0169395,0.0141432,0.780843,-0.57789,0.00371483,0,0,0,0,0,0,0,0.0129248,-0.204268,-0.331347,-1.66147,-0.09219,1.47548,0.401952,-0.00340489,0.00333782,-0.00367287,0.00268219,0.0676821,-0.00299839,0.000439508,0.412174,-25.8617,2.33766,25.9076,0.953671,2.94701,-0.0566557,-1.1132,-0.198735,-0.413758,0.428036,-0.466965,-0.232172,-0.124224,-0.108243,-0.391019,-0.321559,0.102485,-0.305088,-0.042262,
0.0123255,-0.204127,-0.331845,-1.66078,-0.0752416,-0.107683,-0.383358,-0.0141383,-0.00515498,-0.0136904,0.00958158,0.8293,-0.613716,0.00372945,0,0,0,0,0,0,0,0.0128688,-0.204239,-0.331429,-1.66135,-0.08867,1.4752,0.401952,-0.00633891,0.00812956,-0.0102186,0.0123117,0.19082,-0.028358,0.000739899,0.487552,-25.7863,2.31386,25.9552,1.58264,2.5158,-0.050247,-1.32833,-0.332706,0.2393,0.515185,-0.8652,-0.328947,-0.218339,-0.435607,-0.495775,-0.0849191,0.173393,-0.338482,-0.0440303,
0.0165555,-0.204877,-0.327159,-1.662,-0.0736848,-0.12431,-0.383035,0.15539,-0.0193593,0.176764,-0.0443782,0.770767,-1.14274,0.0104324,0,0,0,0,0,0,0,0.0128688,-0.204239,-0.331429,-1.66135,-0.08867,1.4752,0.401952,-0.00633891,0.00812956,-0.0102186,0.0123117,0.19082,-0.028358,0.000739899,0.487552,-25.7863,2.31386,25.9552,1.58264,2.5158,-0.050247,-1.32833,-0.332706,0.2393,0.515185,-0.8652,-0.328947,-0.218339,-0.435607,-0.495775,-0.0849191,0.173393,-0.338482,-0.0440303,
0.0135219,-0.204362,-0.330642,-1.66135,-0.0888021,-0.100817,-0.383301,0.0727255,-0.0149488,0.0854276,0.00277679,0.379675,-0.634656,0.0120279,0,0,0,0,0,0,0,0.0128688,-0.204239,-0.331429,-1.66135,-0.08867,1.4752,0.401952,-0.00633891,0.00812956,-0.0102186,0.0123117,0.19082,-0.028358,0.000739899,0.487552,-25.7863,2.31386,25.9552,1.58264,2.5158,-0.050247,-0.487946,-0.395997,0.596217,0.729269,-0.306555,-0.206953,-0.0910976,-0.159628,-0.420463,-0.1569,0.369648,-0.439251,-0.0448693,
0.0134754,-0.204345,-0.330735,-1.66123,-0.0843683,-0.101231,-0.383295,0.0744728,-0.0166169,0.0859502,0.00125259,0.438834,-0.642823,0.0124607,0,0,0,0,0,0,0,0.0128688,-0.204239,-0.331429,-1.66135,-0.08867,1.4752,0.401952,-0.00633891,0.00812956,-0.0102186,0.0123117,0.19082,-0.028358,0.000739899,0.487552,-25.7863,2.31386,25.9552,1.58264,2.5158,-0.050247,-0.279986,-0.379511,0.618851,0.901422,-0.099947,-0.159898,-0.0316926,-0.0251455,-0.421121,-0.282517,0.529751,-0.548695,-0.0449023,
0.0138503,-0.20443,-0.330303,-1.66127,-0.0823189,-0.104323,-0.383247,0.0937137,-0.0211384,0.107994,-0.00815716,0.512352,-0.773057,0.0120169,0,0,0,0,0,0,0,0.0128688,-0.204239,-0.331429,-1.66135,-0.08867,1.4752,0.401952,-0.00633891,0.00812956,-0.0102186,0.0123117,0.19082,-0.028358,0.000739899,0.487552,-25.7863,2.31386,25.9552,1.58264,2.5158,-0.050247,-0.279986,-0.379511,0.618851,0.901422,-0.099947,-0.159898,-0.0316926,-0.0251455,-0.421121,-0.282517,0.529751,-0.548695,-0.0449023,
0.014291,-0.204524,-0.329797,-1.66133,-0.0799997,-0.107841,-0.383201,0.110187,-0.0234878,0.126595,-0.0169925,0.579809,-0.879498,0.0116165,0,0,0,0,0,0,0,0.0125879,-0.204312,-0.331667,-1.66093,-0.0756576,1.4713,0.401955,0.00879974,-0.00548227,0.00404731,0.00574125,0.280167,-0.147875,-0.000146521,1.75708,-24.362,4.03566,25.7092,1.03332,2.22375,-0.0365141,0.259353,-0.979587,0.397958,1.51052,0.50974,-0.335625,-0.189933,0.398545,-0.691827,-0.573369,0.591097,-0.686078,-0.0401211,
0.0147885,-0.20462,-0.329227,-1.66143,-0.0774357,-0.111708,-0.383156,0.124368,-0.0241259,0.142419,-0.0250061,0.641,-0.966719,0.0112568,0,0,0,0,0,0,0,0.0125879,-0.204312,-0.331667,-1.66093,-0.0756576,1.4713,0.401955,0.00879974,-0.00548227,0.00404731,0.00574125,0.280167,-0.147875,-0.000146521,1.75708,-24.362,4.03566,25.7092,1.03332,2.22375,-0.0365141,0.259353,-0.979587,0.397958,1.51052,0.50974,-0.335625,-0.189933,0.398545,-0.691827,-0.573369,0.591097,-0.686078,-0.0401211,
0.015335,-0.204714,-0.328603,-1.66156,-0.0746516,-0.115861,-0.383112,0.136635,-0.0234819,0.155976,-0.0321596,0.696032,-1.03828,0.0109298,0,0,0,0,0,0,0,0.0125879,-0.204312,-0.331667,-1.66093,-0.0756576,1.4713,0.401955,0.00879974,-0.00548227,0.00404731,0.00574125,0.280167,-0.147875,-0.000146521,1.75708,-24.362,4.03566,25.7092,1.03332,2.22375,-0.0365141,-0.814927,0.304996,1.27031,0.480329,-0.555698,0.0403917,0.163463,-0.300284,-0.180838,-0.219619,0.669679,-0.803192,-0.0331665,
0.0159242,-0.204802,-0.327933,-1.66172,-0.0716708,-0.120249,-0.383069,0.147286,-0.0219136,0.167655,-0.038488,0.745203,-1.09701,0.0106282,0,0,0,0,0,0,0,0.0125879,-0.204312,-0.331667,-1.66093,-0.0756576,1.4713,0.401955,0.00879974,-0.00548227,0.00404731,0.00574125,0.280167,-0.147875,-0.000146521,1.75708,-24.362,4.03566,25.7092,1.03332,2.22375,-0.0365141,0.274143,0.434547,1.56626,0.285733,0.207172,0.279044,0.349155,0.105488,0.126853,-0.249461,0.629028,-0.807282,-0.0282658,
0.0142083,-0.204706,-0.329995,-1.6618,-0.0857111,-0.100981,-0.383268,0.155272,-0.0504198,0.17189,-0.0519531,0.299723,-0.624853,0.0145106,0,0,0,0,0,0,0,0.0125879,-0.204312,-0.331667,-1.66093,-0.0756576,1.4713,0.401955,0.00879974,-0.00548227,0.00404731,0.00574125,0.280167,-0.147875,-0.000146521,1.75708,-24.362,4.03566,25.7092,1.03332,2.22375,-0.0365141,0.274143,0.434547,1.56626,0.285733,0.207172,0.279044,0.349155,0.105488,0.126853,-0.249461,0.629028,-0.807282,-0.0282658,
0.0140397,-0.204875,-0.330112,-1.66145,-0.0718597,-0.105809,-0.383249,0.162938,-0.0560679,0.17995,-0.0572351,0.360342,-0.68546,0.0154064,0,0,0,0,0,0,0,0.0125879,-0.204312,-0.331667,-1.66093,-0.0756576,1.4713,0.401955,0.00879974,-0.00548227,0.00404731,0.00574125,0.280167,-0.147875,-0.000146521,1.75708,-24.362,4.03566,25.7092,1.03332,2.22375,-0.0365141,0.494439,0.610317,1.71866,0.156365,0.44259,0.388575,0.436396,0.269952,0.266727,-0.340724,0.626077,-0.929541,-0.0221015,
0.0148179,-0.205108,-0.329243,-1.66172,-0.0701836,-0.109041,-0.383191,0.194547,-0.0582527,0.217265,-0.0668462,0.419026,-0.807897,0.0145236,0,0,0,0,0,0,0,0.0129113,-0.204529,-0.331183,-1.66075,-0.0671242,1.46487,0.40196,0.0149616,-0.015688,0.0233407,0.00852135,0.312065,-0.265654,0.000931028,2.76874,-24.7627,4.93623,24.4873,2.04681,1.48125,-0.0365141,0.494439,0.610317,1.71866,0.156365,0.44259,0.388575,0.436396,0.269952,0.266727,-0.340724,0.626077,-0.929541,-0.0221015,
0.0157009,-0.205339,-0.328252,-1.66202,-0.0682599,-0.112672,-0.383136,0.220739,-0.0576957,0.24772,-0.0752858,0.480935,-0.90766,0.0138055,0,0,0,0,0,0,0,0.0129113,-0.204529,-0.331183,-1.66075,-0.0671242,1.46487,0.40196,0.0149616,-0.015688,0.0233407,0.00852135,0.312065,-0.265654,0.000931028,2.76874,-24.7627,4.93623,24.4873,2.04681,1.48125,-0.0365141,0.0129676,1.04064,1.39767,-0.00864829,0.280878,0.495053,0.55275,0.268055,0.367245,-0.525022,0.712633,-1.05939,-0.0177018,
0.0166716,-0.20556,-0.327161,-1.66235,-0.0660897,-0.116627,-0.383083,0.242674,-0.0553589,0.272871,-0.0828676,0.542552,-0.988838,0.0132063,0,0,0,0,0,0,0,0.0129113,-0.204529,-0.331183,-1.66075,-0.0671242,1.46487,0.40196,0.0149616,-0.015688,0.0233407,0.00852135,0.312065,-0.265654,0.000931028,2.76874,-24.7627,4.93623,24.4873,2.04681,1.48125,-0.0365141,0.0129676,1.04064,1.39767,-0.00864829,0.280878,0.495053,0.55275,0.268055,0.367245,-0.525022,0.712633,-1.05939,-0.0177018,
0.0177164,-0.205768,-0.325985,-1.66271,-0.0636827,-0.120846,-0.383032,0.261199,-0.0518654,0.293855,-0.0896754,0.601747,-1.05489,0.0126957,0,0,0,0,0,0,0,0.0129113,-0.204529,-0.331183,-1.66075,-0.0671242,1.46487,0.40196,0.0149616,-0.015688,0.0233407,0.00852135,0.312065,-0.265654,0.000931028,2.76874,-24.7627,4.93623,24.4873,2.04681,1.48125,-0.0365141,-0.647671,1.69034,0.963812,-0.386712,-0.0217813,0.66805,0.739747,0.186532,0.55775,-0.66848,0.758003,-1.1304,-0.012408,
0.0188241,-0.205958,-0.324739,-1.66309,-0.0610535,-0.125281,-0.382983,0.276945,-0.0476206,0.311499,-0.0956833,0.65731,-1.1087,0.0122338,0,0,0,0,0,0,0,0.0129113,-0.204529,-0.331183,-1.66075,-0.0671242,1.46487,0.40196,0.0149616,-0.015688,0.0233407,0.00852135,0.312065,-0.265654,0.000931028,2.76874,-24.7627,4.93623,24.4873,2.04681,1.48125,-0.0365141,-1.4352,-0.334285,1.15355,0.818982,-0.650387,-0.377928,-0.284488,-0.18865,-0.591791,-0.462167,0.391778,-1.07373,-0.00605894,
0.0147272,-0.205147,-0.329418,-1.66194,-0.0731088,-0.105568,-0.383254,0.238742,-0.0803795,0.260569,-0.104307,0.230995,-0.667039,0.0151883,0,0,0,0,0,0,0,0.0139474,-0.205193,-0.329589,-1.66105,-0.060279,1.45694,0.401959,0.0521891,-0.0340001,0.0845937,-0.0193778,0.234309,-0.276795,-0.000457219,3.32813,-24.9373,5.88838,25.134,1.27777,1.78612,0.0101778,-1.4352,-0.334285,1.15355,0.818982,-0.650387,-0.377928,-0.284488,-0.18865,-0.591791,-0.462167,0.391778,-1.07373,-0.00605894,
0.0164857,-0.206129,-0.326849,-1.66215,-0.0575456,-0.120974,-0.383235,0.264353,-0.0836685,0.290945,-0.109341,0.263851,-0.734546,0.0159726,0,0,0,0,0,0,0,0.0139474,-0.205193,-0.329589,-1.66105,-0.060279,1.45694,0.401959,0.0521891,-0.0340001,0.0845937,-0.0193778,0.234309,-0.276795,-0.000457219,3.32813,-24.9373,5.88838,25.134,1.27777,1.78612,0.0101778,-1.64255,-1.59823,1.05686,1.53553,-0.717774,-0.979062,-0.885645,-0.191568,-1.24057,-0.452205,0.094992,-1.04029,-0.00223372,
0.0177001,-0.206454,-0.3255,-1.66263,-0.0562523,-0.124353,-0.383175,0.303595,-0.0813346,0.337258,-0.119509,0.323324,-0.844639,0.0149813,0,0,0,0,0,0,0,0.0139474,-0.205193,-0.329589,-1.66105,-0.060279,1.45694,0.401959,0.0521891,-0.0340001,0.0845937,-0.0193778,0.234309,-0.276795,-0.000457219,3.32813,-24.9373,5.88838,25.134,1.27777,1.78612,0.0101778,-1.64255,-1.59823,1.05686,1.53553,-0.717774,-0.979062,-0.885645,-0.191568,-1.24057,-0.452205,0.094992,-1.04029,-0.00223372,
0.0190438,-0.20676,-0.324,-1.66314,-0.0546945,-0.12809,-0.383118,0.335947,-0.0764985,0.374907,-0.128136,0.389448,-0.934366,0.0142021,0,0,0,0,0,0,0,0.0139474,-0.205193,-0.329589,-1.66105,-0.060279,1.45694,0.401959,0.0521891,-0.0340001,0.0845937,-0.0193778,0.234309,-0.276795,-0.000457219,3.32813,-24.9373,5.88838,25.134,1.27777,1.78612,0.0101778,-0.622097,0.30087,0.839233,0.247676,0.0884733,0.045942,0.0966819,0.286709,-0.0694746,-0.627882,0.296846,-1.02466,-0.00266759,
0.0204955,-0.207041,-0.322377,-1.66369,-0.0528652,-0.132119,-0.383064,0.362907,-0.0702476,0.405866,-0.135732,0.45731,-1.00724,0.0135691,0,0,0,0,0,0,0,0.0139474,-0.205193,-0.329589,-1.66105,-0.060279,1.45694,0.401959,0.0521891,-0.0340001,0.0845937,-0.0193778,0.234309,-0.276795,-0.000457219,3.32813,-24.9373,5.88838,25.134,1.27777,1.78612,0.0101778,-0.622097,0.30087,0.839233,0.247676,0.0884733,0.045942,0.0966819,0.286709,-0.0694746,-0.627882,0.296846,-1.02466,-0.00266759,
0.0220378,-0.207294,-0.32065,-1.66425,-0.0507698,-0.136385,-0.383012,0.385573,-0.0631201,0.431537,-0.142219,0.52386,-1.06653,0.012938,0,0,0,0,0,0,0,0.0139474,-0.205193,-0.329589,-1.66105,-0.060279,1.45694,0.401959,0.0521891,-0.0340001,0.0845937,-0.0193778,0.234309,-0.276795,-0.000457219,3.32813,-24.9373,5.88838,25.134,1.27777,1.78612,0.0101778,-0.90995,1.98632,0.554707,-0.904437,-0.0869793,0.747133,0.771543,0.218187,0.759907,-0.667576,0.447956,-1.00997,-0.00143808,
0.0236562,-0.20752,-0.318838,-1.66486,-0.04842,-0.140782,-0.382962,0.404597,-0.0565205,0.453086,-0.150819,0.587451,-1.09917,0.0124678,0,0,0,0,0,0,0,0.0165092,-0.206602,-0.326714,-1.66203,-0.0526751,1.44624,0.401972,0.0878388,-0.0545419,0.109952,-0.0430401,0.148578,-0.315376,0.00193648,3.1496,-25.2864,5.71382,25.011,1.03332,2.12487,-0.0566557,-1.35539,0.249891,-0.19975,0.269955,-0.150203,-0.103892,-0.0592201,0.291941,-0.212518,-0.82707,0.153431,-0.927369,0.00140321,
0.0170809,-0.20639,-0.32625,-1.66261,-0.0586109,-0.12073,-0.383253,0.329843,-0.107275,0.360355,-0.152862,0.153771,-0.715491,0.0147353,0,0,0,0,0,0,0,0.0165092,-0.206602,-0.326714,-1.66203,-0.0526751,1.44624,0.401972,0.0878388,-0.0545419,0.109952,-0.0430401,0.148578,-0.315376,0.00193648,3.1496,-25.2864,5.71382,25.011,1.03332,2.12487,-0.0566557,-1.35539,0.249891,-0.19975,0.269955,-0.150203,-0.103892,-0.0592201,0.291941,-0.212518,-0.82707,0.153431,-0.927369,0.00140321,
0.0197886,-0.207852,-0.3232,-1.66366,-0.0513302,-0.131818,-0.383211,0.337316,-0.108445,0.369144,-0.155328,0.143859,-0.740641,0.0165807,0,0,0,0,0,0,0,0.0165092,-0.206602,-0.326714,-1.66203,-0.0526751,1.44624,0.401972,0.0878388,-0.0545419,0.109952,-0.0430401,0.148578,-0.315376,0.00193648,3.1496,-25.2864,5.71382,25.011,1.03332,2.12487,-0.0566557,-1.89168,-0.964428,0.0831731,0.930331,-0.70468,-0.730857,-0.656293,-0.0908324,-0.902533,-0.559882,-0.0851173,-0.820768,0.00247001,
0.0213272,-0.208268,-0.321499,-1.66433,-0.0505013,-0.135176,-0.383149,0.384646,-0.103927,0.425277,-0.167388,0.207221,-0.839495,0.0155179,0,0,0,0,0,0,0,0.0165092,-0.206602,-0.326714,-1.66203,-0.0526751,1.44624,0.401972,0.0878388,-0.0545419,0.109952,-0.0430401,0.148578,-0.315376,0.00193648,3.1496,-25.2864,5.71382,25.011,1.03332,2.12487,-0.0566557,-1.89168,-0.964428,0.0831731,0.930331,-0.70468,-0.730857,-0.656293,-0.0908324,-0.902533,-0.559882,-0.0851173,-0.820768,0.00247001,
0.0230212,-0.208655,-0.319616,-1.66504,-0.0493794,-0.138814,-0.383091,0.423501,-0.0967522,0.47066,-0.178142,0.280489,-0.90949,0.0145594,0,0,0,0,0,0,0,0.0165092,-0.206602,-0.326714,-1.66203,-0.0526751,1.44624,0.401972,0.0878388,-0.0545419,0.109952,-0.0430401,0.148578,-0.315376,0.00193648,3.1496,-25.2864,5.71382,25.011,1.03332,2.12487,-0.0566557,-1.74866,-0.69238,0.0222425,0.816615,-0.623513,-0.582301,-0.50282,-0.0584032,-0.757162,-0.574084,0.0208891,-0.797517,0.00355886,
0.0248439,-0.209009,-0.317585,-1.6658,-0.04795,-0.142602,-0.383035,0.45566,-0.0884718,0.507784,-0.189305,0.357356,-0.947041,0.0137989,0,0,0,0,0,0,0,0.0202487,-0.20865,-0.321534,-1.66373,-0.0460822,1.43284,0.401978,0.146601,-0.0679453,0.175298,-0.0604274,0.143554,-0.437619,0.000630066,2.84412,-24.7112,5.28932,25.1855,1.74194,2.39678,-0.0301054,-1.74866,-0.69238,0.0222425,0.816615,-0.623513,-0.582301,-0.50282,-0.0584032,-0.757162,-0.574084,0.0208891,-0.797517,0.00355886,
0.0267739,-0.209326,-0.315432,-1.6666,-0.0462152,-0.146428,-0.382983,0.482506,-0.0794152,0.538357,-0.20006,0.43369,-0.956592,0.0131995,0,0,0,0,0,0,0,0.0202487,-0.20865,-0.321534,-1.66373,-0.0460822,1.43284,0.401978,0.146601,-0.0679453,0.175298,-0.0604274,0.143554,-0.437619,0.000630066,2.84412,-24.7112,5.28932,25.1855,1.74194,2.39678,-0.0301054,-1.80046,1.34047,-0.207857,-0.434282,-0.59728,0.316634,0.379734,-0.00235925,0.254313,-0.709131,0.337122,-0.871989,0.00311502,
0.0337282,-0.210299,-0.309367,-1.66973,-0.0444127,-0.153099,-0.382952,0.616074,-0.0647676,0.66298,-0.259775,0.51008,-0.888378,0.0113834,0,0,0,0,0,0,0,0.0202487,-0.20865,-0.321534,-1.66373,-0.0460822,1.43284,0.401978,0.146601,-0.0679453,0.175298,-0.0604274,0.143554,-0.437619,0.000630066,2.84412,-24.7112,5.28932,25.1855,1.74194,2.39678,-0.0301054,-1.88074,-0.113635,-0.152876,0.474586,-0.716821,-0.348965,-0.291962,-0.104648,-0.479466,-0.5895,0.131568,-0.770149,0.00746383,
0.0205632,-0.20805,-0.323122,-1.66406,-0.0520718,-0.131578,-0.383247,0.41004,-0.125751,0.391355,-0.19421,0.0684264,-0.720441,0.0140732,0,0,0,0,0,0,0,0.0202487,-0.20865,-0.321534,-1.66373,-0.0460822,1.43284,0.401978,0.146601,-0.0679453,0.175298,-0.0604274,0.143554,-0.437619,0.000630066,2.84412,-24.7112,5.28932,25.1855,1.74194,2.39678,-0.0301054,-1.88074,-0.113635,-0.152876,0.474586,-0.716821,-0.348965,-0.291962,-0.104648,-0.479466,-0.5895,0.131568,-0.770149,0.00746383,
0.024665,-0.210107,-0.317365,-1.66586,-0.0449829,-0.145886,-0.383212,0.433541,-0.124073,0.43019,-0.203096,0.121172,-0.764201,0.0158754,0,0,0,0,0,0,0,0.0202487,-0.20865,-0.321534,-1.66373,-0.0460822,1.43284,0.401978,0.146601,-0.0679453,0.175298,-0.0604274,0.143554,-0.437619,0.000630066,2.84412,-24.7112,5.28932,25.1855,1.74194,2.39678,-0.0301054,-1.92445,-0.66765,-0.252925,0.722914,-0.735757,-0.591981,-0.507199,-0.113323,-0.753793,-0.54857,-0.0562304,-0.692254,0.00801124,
0.0265904,-0.210576,-0.315395,-1.66673,-0.044247,-0.149152,-0.383153,0.481337,-0.117106,0.492377,-0.21949,0.183985,-0.816534,0.014775,0,0,0,0,0,0,0,0.0202487,-0.20865,-0.321534,-1.66373,-0.0460822,1.43284,0.401978,0.146601,-0.0679453,0.175298,-0.0604274,0.143554,-0.437619,0.000630066,2.84412,-24.7112,5.28932,25.1855,1.74194,2.39678,-0.0301054,-1.92445,-0.66765,-0.252925,0.722914,-0.735757,-0.591981,-0.507199,-0.113323,-0.753793,-0.54857,-0.0562304,-0.692254,0.00801124,
0.0286722,-0.211004,-0.313222,-1.66767,-0.0432185,-0.152498,-0.383097,0.520443,-0.107091,0.543386,-0.232895,0.257127,-0.836324,0.0139647,0,0,0,0,0,0,0,0.025734,-0.211095,-0.314944,-1.66617,-0.0438453,1.41944,0.401984,0.208977,-0.0844703,0.235169,-0.0942081,0.117224,-0.447774,0.00280189,5.51014,-23.5646,8.41157,24.4873,2.26654,1.85296,0.00376909,-2.04567,-0.0458025,-0.0694883,0.318911,-0.882851,-0.330883,-0.247279,-0.215671,-0.455954,-0.50492,0.0497481,-0.737373,0.0094741,
0.0308834,-0.211384,-0.310879,-1.66863,-0.0418834,-0.15585,-0.383044,0.552803,-0.0949883,0.585776,-0.242432,0.333762,-0.838124,0.0132999,0,0,0,0,0,0,0,0.025734,-0.211095,-0.314944,-1.66617,-0.0438453,1.41944,0.401984,0.208977,-0.0844703,0.235169,-0.0942081,0.117224,-0.447774,0.00280189,5.51014,-23.5646,8.41157,24.4873,2.26654,1.85296,0.00376909,-0.698865,2.68426,0.171204,-1.46317,0.0237381,1.09909,1.1316,0.27147,1.1656,-0.619777,0.468151,-0.792016,0.00407533,
0.0332024,-0.211712,-0.308392,-1.66963,-0.0402449,-0.159167,-0.382993,0.579749,-0.081987,0.621525,-0.248887,0.409625,-0.829262,0.0127402,0,0,0,0,0,0,0,0.025734,-0.211095,-0.314944,-1.66617,-0.0438453,1.41944,0.401984,0.208977,-0.0844703,0.235169,-0.0942081,0.117224,-0.447774,0.00280189,5.51014,-23.5646,8.41157,24.4873,2.26654,1.85296,0.00376909,-0.698865,2.68426,0.171204,-1.46317,0.0237381,1.09909,1.1316,0.27147,1.1656,-0.619777,0.468151,-0.792016,0.00407533,
0.0356115,-0.211988,-0.305784,-1.67064,-0.0383161,-0.162423,-0.382944,0.602291,-0.0689468,0.652044,-0.253121,0.482195,-0.813837,0.0122593,0,0,0,0,0,0,0,0.025734,-0.211095,-0.314944,-1.66617,-0.0438453,1.41944,0.401984,0.208977,-0.0844703,0.235169,-0.0942081,0.117224,-0.447774,0.00280189,5.51014,-23.5646,8.41157,24.4873,2.26654,1.85296,0.00376909,-2.37121,0.652483,0.357134,-0.0613937,-1.32463,-0.0765264,-0.0492192,-0.541794,-0.126752,-0.328986,0.291028,-0.766355,0.0106084,
0.0251738,-0.210237,-0.317586,-1.6662,-0.0452142,-0.145659,-0.383266,0.482644,-0.135011,0.412548,-0.236559,0.0981045,-0.745833,0.0121687,0,0,0,0,0,0,0,0.025734,-0.211095,-0.314944,-1.66617,-0.0438453,1.41944,0.401984,0.208977,-0.0844703,0.235169,-0.0942081,0.117224,-0.447774,0.00280189,5.51014,-23.5646,8.41157,24.4873,2.26654,1.85296,0.00376909,-2.37121,0.652483,0.357134,-0.0613937,-1.32463,-0.0765264,-0.0492192,-0.541794,-0.126752,-0.328986,0.291028,-0.766355,0.0106084,
0.0310971,-0.212675,-0.310486,-1.66881,-0.0426967,-0.158455,-0.38323,0.512208,-0.131673,0.446852,-0.250599,0.134854,-0.640813,0.0139721,0,0,0,0,0,0,0,0.0362404,-0.215221,-0.30325,-1.67144,-0.0426011,1.40303,0.402004,0.266802,-0.095104,0.315746,-0.123315,0.0461979,-0.376662,0.00100416,5.02613,-23.3385,7.56257,24.5865,2.3645,2.35009,-0.050247,-3.3151,-0.999235,-0.721301,1.15145,-1.63024,-0.938171,-0.818735,-0.563189,-1.18646,-0.593948,0.0495147,-0.73803,0.0122842,
0.0333406,-0.213158,-0.30847,-1.66987,-0.0418947,-0.161099,-0.383177,0.560881,-0.120791,0.503948,-0.264799,0.200502,-0.661008,0.0130909,0,0,0,0,0,0,0,0.0362404,-0.215221,-0.30325,-1.67144,-0.0426011,1.40303,0.402004,0.266802,-0.095104,0.315746,-0.123315,0.0461979,-0.376662,0.00100416,5.02613,-23.3385,7.56257,24.5865,2.3645,2.35009,-0.050247,-3.3151,-0.999235,-0.721301,1.15145,-1.63024,-0.938171,-0.818735,-0.563189,-1.18646,-0.593948,0.0495147,-0.73803,0.0122842,
0.0357469,-0.213587,-0.306266,-1.67096,-0.0408014,-0.16377,-0.383128,0.601585,-0.107166,0.551108,-0.273557,0.273332,-0.66755,0.0124223,0,0,0,0,0,0,0,0.0362404,-0.215221,-0.30325,-1.67144,-0.0426011,1.40303,0.402004,0.266802,-0.095104,0.315746,-0.123315,0.0461979,-0.376662,0.00100416,5.02613,-23.3385,7.56257,24.5865,2.3645,2.35009,-0.050247,-2.14374,1.26766,-1.0457,-0.35217,-0.689793,0.262991,0.372008,0.0140625,0.150855,-0.820595,0.320404,-0.708763,0.00503306,
0.0382912,-0.213958,-0.303903,-1.67208,-0.0394101,-0.166428,-0.38308,0.636068,-0.0926924,0.590628,-0.27912,0.34782,-0.664716,0.0118895,0,0,0,0,0,0,0,0.0362404,-0.215221,-0.30325,-1.67144,-0.0426011,1.40303,0.402004,0.266802,-0.095104,0.315746,-0.123315,0.0461979,-0.376662,0.00100416,5.02613,-23.3385,7.56257,24.5865,2.3645,2.35009,-0.050247,-0.452953,2.60506,-0.606814,-1.21209,0.409943,1.09521,1.12334,0.573149,1.11498,-0.867297,0.598027,-0.712413,0.00209759,
0.0409535,-0.214271,-0.301407,-1.67321,-0.0377277,-0.16905,-0.383034,0.665573,-0.0783658,0.624144,-0.28266,0.420608,-0.655447,0.0114516,0,0,0,0,0,0,0,0.0362404,-0.215221,-0.30325,-1.67144,-0.0426011,1.40303,0.402004,0.266802,-0.095104,0.315746,-0.123315,0.0461979,-0.376662,0.00100416,5.02613,-23.3385,7.56257,24.5865,2.3645,2.35009,-0.050247,-0.452953,2.60506,-0.606814,-1.21209,0.409943,1.09521,1.12334,0.573149,1.11498,-0.867297,0.598027,-0.712413,0.00209759,
0.0310925,-0.212745,-0.310476,-1.66908,-0.042684,-0.158539,-0.383281,0.511802,-0.137819,0.44748,-0.279172,0.136747,-0.647641,0.0103473,0,0,0,0,0,0,0,0.0466372,-0.218511,-0.293806,-1.67593,-0.0420746,1.39205,0.402015,0.347324,-0.101865,0.335158,-0.150552,0.0180975,-0.317882,0.0022467,4.92694,-23.1917,6.662,23.7375,1.94336,2.48284,-0.0703886,-1.83319,0.00991926,-0.469088,0.562808,-0.697952,-0.267787,-0.219353,-0.11669,-0.423165,-0.607858,0.34592,-0.666108,0.007297,
0.0528343,-0.219994,-0.288369,-1.67902,-0.040764,-0.183717,-0.383244,0.568353,-0.11711,0.512466,-0.282685,0.178959,-0.453392,0.0108202,0,0,0,0,0,0,0,0.0466372,-0.218511,-0.293806,-1.67593,-0.0420746,1.39205,0.402015,0.347324,-0.101865,0.335158,-0.150552,0.0180975,-0.317882,0.0022467,4.92694,-23.1917,6.662,23.7375,1.94336,2.48284,-0.0703886,-1.83319,0.00991926,-0.469088,0.562808,-0.697952,-0.267787,-0.219353,-0.11669,-0.423165,-0.607858,0.34592,-0.666108,0.007297,
0.055267,-0.220409,-0.286135,-1.68019,-0.0397323,-0.185616,-0.383203,0.608154,-0.103729,0.558533,-0.293761,0.257932,-0.474863,0.0102366,0,0,0,0,0,0,0,0.0466372,-0.218511,-0.293806,-1.67593,-0.0420746,1.39205,0.402015,0.347324,-0.101865,0.335158,-0.150552,0.0180975,-0.317882,0.0022467,4.92694,-23.1917,6.662,23.7375,1.94336,2.48284,-0.0703886,-2.81204,-1.25565,-1.71139,1.5375,-0.979214,-0.954028,-0.823776,-0.10682,-1.28212,-0.931775,0.168209,-0.645693,0.00869299,
0.0578344,-0.220766,-0.283746,-1.6814,-0.0383849,-0.187559,-0.383164,0.641868,-0.0892893,0.597211,-0.300681,0.336833,-0.485766,0.00976499,0,0,0,0,0,0,0,0.0466372,-0.218511,-0.293806,-1.67593,-0.0420746,1.39205,0.402015,0.347324,-0.101865,0.335158,-0.150552,0.0180975,-0.317882,0.0022467,4.92694,-23.1917,6.662,23.7375,1.94336,2.48284,-0.0703886,-1.04386,1.65213,-1.76563,-0.478558,0.326026,0.601402,0.704067,0.662289,0.477879,-1.13509,0.47013,-0.614198,0.00142613,
0.0605173,-0.221066,-0.281226,-1.68262,-0.0367337,-0.189514,-0.383126,0.670723,-0.0749764,0.630054,-0.30514,0.412804,-0.488605,0.00934091,0,0,0,0,0,0,0,0.0466372,-0.218511,-0.293806,-1.67593,-0.0420746,1.39205,0.402015,0.347324,-0.101865,0.335158,-0.150552,0.0180975,-0.317882,0.0022467,4.92694,-23.1917,6.662,23.7375,1.94336,2.48284,-0.0703886,-1.04386,1.65213,-1.76563,-0.478558,0.326026,0.601402,0.704067,0.662289,0.477879,-1.13509,0.47013,-0.614198,0.00142613,
0.0632998,-0.221312,-0.278593,-1.68385,-0.0347968,-0.191455,-0.38309,0.69561,-0.0613485,0.658201,-0.307965,0.48423,-0.485402,0.00907286,0,0,0,0,0,0,0,0.0466372,-0.218511,-0.293806,-1.67593,-0.0420746,1.39205,0.402015,0.347324,-0.101865,0.335158,-0.150552,0.0180975,-0.317882,0.0022467,4.92694,-23.1917,6.662,23.7375,1.94336,2.48284,-0.0703886,-0.401423,1.06602,-0.998343,-0.0967968,0.521079,0.407951,0.446792,0.636471,0.300801,-0.908111,0.500177,-0.591155,0.00212764,
0.0661686,-0.221506,-0.275863,-1.68509,-0.0325956,-0.193366,-0.383055,0.717199,-0.0486579,0.682502,-0.309601,0.550292,-0.477693,0.00885281,0,0,0,0,0,0,0,0.057799,-0.222067,-0.283933,-1.68121,-0.0414605,1.38425,0.402011,0.38675,-0.121865,0.355223,-0.206173,0.00926038,-0.206535,-0.00118813,3.85974,-23.5646,5.76143,24.4119,1.75384,2.31713,0.017502,-0.401423,1.06602,-0.998343,-0.0967968,0.521079,0.407951,0.446792,0.636471,0.300801,-0.908111,0.500177,-0.591155,0.00212764,
0.0505609,-0.219526,-0.290419,-1.67789,-0.0414798,-0.181903,-0.383287,0.520601,-0.126839,0.456884,-0.263594,0.104778,-0.4189,0.0116045,0,0,0,0,0,0,0,0.057799,-0.222067,-0.283933,-1.68121,-0.0414605,1.38425,0.402011,0.38675,-0.121865,0.355223,-0.206173,0.00926038,-0.206535,-0.00118813,3.85974,-23.5646,5.76143,24.4119,1.75384,2.31713,0.017502,-1.75236,-0.916696,-1.22644,1.29026,-0.385811,-0.651081,-0.559982,0.131409,-0.930738,-0.840593,0.288677,-0.60484,0.00585942,
0.0642075,-0.2235,-0.27827,-1.68441,-0.039992,-0.190269,-0.383233,0.582611,-0.108721,0.527952,-0.280835,0.196321,-0.353441,0.01205,0,0,0,0,0,0,0,0.057799,-0.222067,-0.283933,-1.68121,-0.0414605,1.38425,0.402011,0.38675,-0.121865,0.355223,-0.206173,0.00926038,-0.206535,-0.00118813,3.85974,-23.5646,5.76143,24.4119,1.75384,2.31713,0.017502,-1.75236,-0.916696,-1.22644,1.29026,-0.385811,-0.651081,-0.559982,0.131409,-0.930738,-0.840593,0.288677,-0.60484,0.00585942,
0.066689,-0.22388,-0.275982,-1.68556,-0.0388876,-0.191791,-0.383188,0.620374,-0.0949013,0.571808,-0.287794,0.276108,-0.38044,0.0112598,0,0,0,0,0,0,0,0.057799,-0.222067,-0.283933,-1.68121,-0.0414605,1.38425,0.402011,0.38675,-0.121865,0.355223,-0.206173,0.00926038,-0.206535,-0.00118813,3.85974,-23.5646,5.76143,24.4119,1.75384,2.31713,0.017502,-2.29262,-0.301326,-1.96235,0.826126,-0.516501,-0.415035,-0.293266,0.191393,-0.670001,-1.05069,0.236192,-0.606097,0.00126181,
0.0692989,-0.224203,-0.273547,-1.68673,-0.0374687,-0.193381,-0.383145,0.652477,-0.0809777,0.608773,-0.292476,0.354705,-0.397435,0.0107087,0,0,0,0,0,0,0,0.057799,-0.222067,-0.283933,-1.68121,-0.0414605,1.38425,0.402011,0.38675,-0.121865,0.355223,-0.206173,0.00926038,-0.206535,-0.00118813,3.85974,-23.5646,5.76143,24.4119,1.75384,2.31713,0.017502,-1.18027,2.01121,-2.03838,-0.737507,0.392339,0.764782,0.840739,0.78375,0.685229,-1.28056,0.497587,-0.66652,-0.00241886,
0.0720189,-0.224474,-0.270986,-1.68791,-0.0357496,-0.195006,-0.383104,0.680003,-0.0675791,0.640229,-0.295704,0.429784,-0.406375,0.0102627,0,0,0,0,0,0,0,0.0704031,-0.2256,-0.272307,-1.68744,-0.0394756,1.37874,0.402018,0.430428,-0.119525,0.339758,-0.205856,0.0390027,-0.134543,-0.00141379,-0.932736,-24.4612,1.53627,26.5781,1.04522,2.35009,0.0303194,-1.18027,2.01121,-2.03838,-0.737507,0.392339,0.764782,0.840739,0.78375,0.685229,-1.28056,0.497587,-0.66652,-0.00241886,
0.0748339,-0.224694,-0.268318,-1.6891,-0.0337495,-0.196642,-0.383064,0.703761,-0.0549887,0.667215,-0.297859,0.50003,-0.408945,0.00988808,0,0,0,0,0,0,0,0.0704031,-0.2256,-0.272307,-1.68744,-0.0394756,1.37874,0.402018,0.430428,-0.119525,0.339758,-0.205856,0.0390027,-0.134543,-0.00141379,-0.932736,-24.4612,1.53627,26.5781,1.04522,2.35009,0.0303194,0.17229,2.49934,-0.72389,-1.15958,0.934414,1.1286,1.12058,0.899536,1.16521,-0.95291,0.617474,-0.659475,-0.00268743,
0.0777314,-0.224867,-0.265555,-1.6903,-0.0314903,-0.198268,-0.383026,0.724375,-0.0433261,0.690522,-0.29915,0.564793,-0.406507,0.0095687,0,0,0,0,0,0,0,0.0704031,-0.2256,-0.272307,-1.68744,-0.0394756,1.37874,0.402018,0.430428,-0.119525,0.339758,-0.205856,0.0390027,-0.134543,-0.00141379,-0.932736,-24.4612,1.53627,26.5781,1.04522,2.35009,0.0303194,0.17229,2.49934,-0.72389,-1.15958,0.934414,1.1286,1.12058,0.899536,1.16521,-0.95291,0.617474,-0.659475,-0.00268743,
0.061877,-0.223065,-0.280381,-1.68328,-0.0407773,-0.188856,-0.383281,0.537618,-0.121016,0.475364,-0.269602,0.119252,-0.314643,0.0129863,0,0,0,0,0,0,0,0.0704031,-0.2256,-0.272307,-1.68744,-0.0394756,1.37874,0.402018,0.430428,-0.119525,0.339758,-0.205856,0.0390027,-0.134543,-0.00141379,-0.932736,-24.4612,1.53627,26.5781,1.04522,2.35009,0.0303194,-0.879714,0.108487,-0.201457,0.381309,-0.0818262,-0.0573351,-0.00312017,0.174522,-0.1982,-0.564638,0.329215,-0.600144,-0.00135207,
0.0769252,-0.22697,-0.266542,-1.69057,-0.0376535,-0.194877,-0.383214,0.59064,-0.10335,0.536221,-0.272435,0.222197,-0.27949,0.0131238,0,0,0,0,0,0,0,0.0704031,-0.2256,-0.272307,-1.68744,-0.0394756,1.37874,0.402018,0.430428,-0.119525,0.339758,-0.205856,0.0390027,-0.134543,-0.00141379,-0.932736,-24.4612,1.53627,26.5781,1.04522,2.35009,0.0303194,-0.879714,0.108487,-0.201457,0.381309,-0.0818262,-0.0573351,-0.00312017,0.174522,-0.1982,-0.564638,0.329215,-0.600144,-0.00135207,
0.0794359,-0.22733,-0.264224,-1.69168,-0.0364588,-0.196117,-0.383165,0.62767,-0.0899784,0.579491,-0.278271,0.298677,-0.309912,0.0122887,0,0,0,0,0,0,0,0.0704031,-0.2256,-0.272307,-1.68744,-0.0394756,1.37874,0.402018,0.430428,-0.119525,0.339758,-0.205856,0.0390027,-0.134543,-0.00141379,-0.932736,-24.4612,1.53627,26.5781,1.04522,2.35009,0.0303194,-2.7384,-2.0247,-0.102301,1.82952,-1.56155,-1.1986,-1.03216,-0.754523,-1.55373,-0.254736,0.0996913,-0.562175,0.000819586,
0.0820723,-0.227637,-0.261761,-1.69281,-0.0349613,-0.197439,-0.383118,0.6591,-0.0766622,0.615899,-0.282319,0.374354,-0.330537,0.0116096,0,0,0,0,0,0,0,0.0847766,-0.22873,-0.258695,-1.6943,-0.0368396,1.37499,0.40203,0.443389,-0.0782033,0.437641,-0.200608,0.14023,-0.103107,0.000926531,2.72113,-23.3663,4.83705,25.1102,2.0166,2.11114,-0.0227812,-1.77739,0.737884,0.255221,-0.0168008,-0.941337,0.151177,0.270223,-0.375428,0.00383451,-0.313554,0.462099,-0.625226,-0.00176906,
0.0848163,-0.227893,-0.259173,-1.69395,-0.0331738,-0.198811,-0.383074,0.686,-0.0639155,0.646821,-0.285217,0.446883,-0.343006,0.0110473,0,0,0,0,0,0,0,0.0847766,-0.22873,-0.258695,-1.6943,-0.0368396,1.37499,0.40203,0.443389,-0.0782033,0.437641,-0.200608,0.14023,-0.103107,0.000926531,2.72113,-23.3663,4.83705,25.1102,2.0166,2.11114,-0.0227812,-1.77739,0.737884,0.255221,-0.0168008,-0.941337,0.151177,0.270223,-0.375428,0.00383451,-0.313554,0.462099,-0.625226,-0.00176906,
0.087653,-0.228101,-0.25648,-1.6951,-0.0311142,-0.200206,-0.383032,0.709174,-0.0519607,0.673295,-0.28723,0.514909,-0.348857,0.0105738,0,0,0,0,0,0,0,0.0847766,-0.22873,-0.258695,-1.6943,-0.0368396,1.37499,0.40203,0.443389,-0.0782033,0.437641,-0.200608,0.14023,-0.103107,0.000926531,2.72113,-23.3663,4.83705,25.1102,2.0166,2.11114,-0.0227812,-0.13685,1.57806,0.224624,-0.564795,0.368873,0.679536,0.701901,0.415041,0.64327,-0.563887,0.588699,-0.659022,-0.0015389,
0.09057,-0.228264,-0.253696,-1.69625,-0.0288032,-0.201604,-0.382991,0.729246,-0.0408868,0.696113,-0.288499,0.577737,-0.349396,0.0101698,0,0,0,0,0,0,0,0.0847766,-0.22873,-0.258695,-1.6943,-0.0368396,1.37499,0.40203,0.443389,-0.0782033,0.437641,-0.200608,0.14023,-0.103107,0.000926531,2.72113,-23.3663,4.83705,25.1102,2.0166,2.11114,-0.0227812,-0.13685,1.57806,0.224624,-0.564795,0.368873,0.679536,0.701901,0.415041,0.64327,-0.563887,0.588699,-0.659022,-0.0015389,
0.0745627,-0.226557,-0.268687,-1.68948,-0.0385423,-0.193759,-0.383266,0.546542,-0.115562,0.484221,-0.263108,0.148769,-0.238069,0.014118,0,0,0,0,0,0,0,0.0847766,-0.22873,-0.258695,-1.6943,-0.0368396,1.37499,0.40203,0.443389,-0.0782033,0.437641,-0.200608,0.14023,-0.103107,0.000926531,2.72113,-23.3663,4.83705,25.1102,2.0166,2.11114,-0.0227812,-1.47565,0.0474312,-0.655222,0.424266,-0.288272,-0.124089,-0.0690134,0.155865,-0.270925,-0.727924,0.302813,-0.66349,0.00186402,
0.0917802,-0.229738,-0.252361,-1.69741,-0.0339208,-0.19807,-0.383202,0.625671,-0.0766245,0.576061,-0.27161,0.309964,-0.230244,0.0129182,0,0,0,0,0,0,0,0.0988494,-0.231042,-0.245523,-1.70023,-0.0342201,1.37377,0.402037,0.459276,-0.057257,0.435359,-0.169538,0.152013,-0.0223031,-0.000824219,3.3797,-24.2629,4.88862,24.5627,1.49749,2.31713,-0.0026396,-3.04778,-0.0647381,-1.02683,0.456858,-1.35044,-0.281489,-0.157036,-0.385543,-0.468048,-0.682646,0.215914,-0.667463,-0.000961606,
0.0944125,-0.230002,-0.249905,-1.69852,-0.0323976,-0.199111,-0.383153,0.658085,-0.0660417,0.613989,-0.276667,0.380783,-0.260188,0.0121127,0,0,0,0,0,0,0,0.0988494,-0.231042,-0.245523,-1.70023,-0.0342201,1.37377,0.402037,0.459276,-0.057257,0.435359,-0.169538,0.152013,-0.0223031,-0.000824219,3.3797,-24.2629,4.88862,24.5627,1.49749,2.31713,-0.0026396,-3.04778,-0.0647381,-1.02683,0.456858,-1.35044,-0.281489,-0.157036,-0.385543,-0.468048,-0.682646,0.215914,-0.667463,-0.000961606,
0.0971549,-0.230223,-0.247321,-1.69964,-0.0305972,-0.200235,-0.383107,0.685606,-0.0552582,0.645955,-0.279893,0.450106,-0.281022,0.0114628,0,0,0,0,0,0,0,0.0988494,-0.231042,-0.245523,-1.70023,-0.0342201,1.37377,0.402037,0.459276,-0.057257,0.435359,-0.169538,0.152013,-0.0223031,-0.000824219,3.3797,-24.2629,4.88862,24.5627,1.49749,2.31713,-0.0026396,-1.94161,0.57785,-0.829894,0.150938,-0.564825,0.0979604,0.210336,0.03791,-0.0782959,-0.771472,0.436889,-0.691863,-0.000459336,
0.0999916,-0.230402,-0.244628,-1.70077,-0.028533,-0.201411,-0.383064,0.709173,-0.0448266,0.673138,-0.282032,0.516049,-0.294041,0.0109238,0,0,0,0,0,0,0,0.0988494,-0.231042,-0.245523,-1.70023,-0.0342201,1.37377,0.402037,0.459276,-0.057257,0.435359,-0.169538,0.152013,-0.0223031,-0.000824219,3.3797,-24.2629,4.88862,24.5627,1.49749,2.31713,-0.0026396,-1.94161,0.57785,-0.829894,0.150938,-0.564825,0.0979604,0.210336,0.03791,-0.0782959,-0.771472,0.436889,-0.691863,-0.000459336,
0.10291,-0.230542,-0.241843,-1.7019,-0.0262228,-0.202614,-0.383022,0.729485,-0.0349804,0.696434,-0.283376,0.577556,-0.300621,0.0104682,0,0,0,0,0,0,0,0.0988494,-0.231042,-0.245523,-1.70023,-0.0342201,1.37377,0.402037,0.459276,-0.057257,0.435359,-0.169538,0.152013,-0.0223031,-0.000824219,3.3797,-24.2629,4.88862,24.5627,1.49749,2.31713,-0.0026396,-0.362441,0.882537,-0.882672,0.00028639,0.67982,0.345929,0.381171,0.760205,0.219259,-0.98621,0.544831,-0.694568,0.000686476,
0.0892775,-0.229431,-0.254665,-1.69633,-0.0351606,-0.197149,-0.383253,0.586966,-0.0856441,0.530639,-0.26266,0.240825,-0.190759,0.0139433,0,0,0,0,0,0,0,0.0988494,-0.231042,-0.245523,-1.70023,-0.0342201,1.37377,0.402037,0.459276,-0.057257,0.435359,-0.169538,0.152013,-0.0223031,-0.000824219,3.3797,-24.2629,4.88862,24.5627,1.49749,2.31713,-0.0026396,-0.362441,0.882537,-0.882672,0.00028639,0.67982,0.345929,0.381171,0.760205,0.219259,-0.98621,0.544831,-0.694568,0.000686476,
0.105914,-0.231928,-0.239123,-1.70317,-0.0311716,-0.198312,-0.383186,0.630182,-0.0690977,0.581306,-0.25967,0.319384,-0.153329,0.0136062,0,0,0,0,0,0,0,0.113925,-0.232802,-0.231188,-1.70583,-0.0298804,1.37362,0.402046,0.461073,-0.0514204,0.468029,-0.16922,0.127184,0.000740499,0.00114636,2.16175,-24.5366,3.38899,23.5669,1.08825,1.88592,-0.0365141,-2.43169,-1.34414,-1.45968,1.43693,-0.661635,-0.796094,-0.696068,0.0249068,-1.08789,-0.938619,0.200862,-0.695401,0.00178574,
0.108563,-0.232168,-0.236648,-1.70423,-0.0296157,-0.199067,-0.383136,0.662156,-0.0599014,0.618845,-0.26542,0.388991,-0.18886,0.0127134,0,0,0,0,0,0,0,0.113925,-0.232802,-0.231188,-1.70583,-0.0298804,1.37362,0.402046,0.461073,-0.0514204,0.468029,-0.16922,0.127184,0.000740499,0.00114636,2.16175,-24.5366,3.38899,23.5669,1.08825,1.88592,-0.0365141,-3.13468,-0.504803,-1.61512,0.832792,-1.16055,-0.428005,-0.280539,-0.205755,-0.687879,-0.912354,0.252629,-0.684222,-0.00432789,
0.11132,-0.232369,-0.234046,-1.70531,-0.0277867,-0.199926,-0.383088,0.689256,-0.0501831,0.650438,-0.269017,0.457237,-0.214826,0.0119899,0,0,0,0,0,0,0,0.113925,-0.232802,-0.231188,-1.70583,-0.0298804,1.37362,0.402046,0.461073,-0.0514204,0.468029,-0.16922,0.127184,0.000740499,0.00114636,2.16175,-24.5366,3.38899,23.5669,1.08825,1.88592,-0.0365141,-3.13468,-0.504803,-1.61512,0.832792,-1.16055,-0.428005,-0.280539,-0.205755,-0.687879,-0.912354,0.252629,-0.684222,-0.00432789,
0.114169,-0.232531,-0.231337,-1.70639,-0.0256978,-0.200856,-0.383042,0.712431,-0.0406218,0.677271,-0.271417,0.522223,-0.232384,0.0113879,0,0,0,0,0,0,0,0.113925,-0.232802,-0.231188,-1.70583,-0.0298804,1.37362,0.402046,0.461073,-0.0514204,0.468029,-0.16922,0.127184,0.000740499,0.00114636,2.16175,-24.5366,3.38899,23.5669,1.08825,1.88592,-0.0365141,-0.893072,2.47737,-1.48344,-1.14635,0.560686,1.07286,1.12316,0.890016,1.05025,-1.2234,0.638541,-0.747263,-0.00922847,
0.117099,-0.232657,-0.228536,-1.70749,-0.0233663,-0.201828,-0.382999,0.732381,-0.0315054,0.700238,-0.272983,0.582878,-0.242927,0.0108776,0,0,0,0,0,0,0,0.113925,-0.232802,-0.231188,-1.70583,-0.0298804,1.37362,0.402046,0.461073,-0.0514204,0.468029,-0.16922,0.127184,0.000740499,0.00114636,2.16175,-24.5366,3.38899,23.5669,1.08825,1.88592,-0.0365141,-0.893072,2.47737,-1.48344,-1.14635,0.560686,1.07286,1.12316,0.890016,1.05025,-1.2234,0.638541,-0.747263,-0.00922847,
0.103393,-0.231652,-0.241448,-1.70213,-0.0324492,-0.197698,-0.383241,0.591926,-0.0760733,0.536264,-0.249079,0.251601,-0.108398,0.0147178,0,0,0,0,0,0,0,0.135341,-0.234621,-0.210576,-1.71339,-0.0222541,1.37395,0.402056,0.491644,-0.0243756,0.489761,-0.160085,0.191224,0.00314515,0.000877555,2.89569,-24.5128,3.98805,24.3881,1.39404,2.20452,-0.0365141,-1.65525,0.307166,-1.29698,0.309232,-0.0215919,0.039144,0.0884261,0.467173,-0.113667,-1.09328,0.416546,-0.798522,-0.00560414,
0.142745,-0.235194,-0.20376,-1.71628,-0.0186244,-0.197662,-0.383171,0.65417,-0.0455936,0.610545,-0.256828,0.368902,-0.111179,0.0133379,0,0,0,0,0,0,0,0.135341,-0.234621,-0.210576,-1.71339,-0.0222541,1.37395,0.402056,0.491644,-0.0243756,0.489761,-0.160085,0.191224,0.00314515,0.000877555,2.89569,-24.5128,3.98805,24.3881,1.39404,2.20452,-0.0365141,-2.79963,-1.55271,-1.40251,1.49814,-0.911182,-0.844886,-0.712507,-0.121991,-1.15773,-0.91076,0.152553,-0.730249,-0.00432952,
0.145476,-0.235348,-0.201183,-1.71733,-0.0168777,-0.198244,-0.383121,0.682856,-0.0385055,0.644218,-0.262471,0.43669,-0.145459,0.0125001,0,0,0,0,0,0,0,0.135341,-0.234621,-0.210576,-1.71339,-0.0222541,1.37395,0.402056,0.491644,-0.0243756,0.489761,-0.160085,0.191224,0.00314515,0.000877555,2.89569,-24.5128,3.98805,24.3881,1.39404,2.20452,-0.0365141,-2.79963,-1.55271,-1.40251,1.49814,-0.911182,-0.844886,-0.712507,-0.121991,-1.15773,-0.91076,0.152553,-0.730249,-0.00432952,
0.148305,-0.235471,-0.198493,-1.71839,-0.0148695,-0.198927,-0.383074,0.707229,-0.0307298,0.672673,-0.265774,0.50205,-0.170877,0.0118149,0,0,0,0,0,0,0,0.135341,-0.234621,-0.210576,-1.71339,-0.0222541,1.37395,0.402056,0.491644,-0.0243756,0.489761,-0.160085,0.191224,0.00314515,0.000877555,2.89569,-24.5128,3.98805,24.3881,1.39404,2.20452,-0.0365141,-2.92079,0.00298965,-1.07923,0.433021,-1.14403,-0.116026,0.0126614,-0.238462,-0.313552,-0.788586,0.330418,-0.722054,-0.00967369,
0.151217,-0.235563,-0.195705,-1.71947,-0.0126151,-0.199681,-0.383029,0.728111,-0.0229683,0.696916,-0.267817,0.563592,-0.188336,0.0112392,0,0,0,0,0,0,0,0.135341,-0.234621,-0.210576,-1.71339,-0.0222541,1.37395,0.402056,0.491644,-0.0243756,0.489761,-0.160085,0.191224,0.00314515,0.000877555,2.89569,-24.5128,3.98805,24.3881,1.39404,2.20452,-0.0365141,-1.91312,1.7646,-0.433128,-0.712388,-0.565537,0.728696,0.769556,0.0876238,0.7012,-0.74224,0.604285,-0.776719,-0.0110812,
0.154202,-0.235625,-0.192834,-1.72054,-0.0101328,-0.200477,-0.382986,0.746112,-0.0155155,0.717717,-0.269014,0.620576,-0.199083,0.0107503,0,0,0,0,0,0,0,0.150724,-0.235097,-0.195614,-1.71828,-0.0156419,1.3744,0.402059,0.503631,-0.0121441,0.465245,-0.163743,0.184847,0.0240003,0.000236027,1.93164,-25.1634,3.31361,24.6857,0.923458,2.14501,-0.0301054,-1.91312,1.7646,-0.433128,-0.712388,-0.565537,0.728696,0.769556,0.0876238,0.7012,-0.74224,0.604285,-0.776719,-0.0110812,
0.157249,-0.235659,-0.189891,-1.72162,-0.00744207,-0.201294,-0.382945,0.761705,-0.0085008,0.735673,-0.26955,0.672683,-0.204317,0.0103212,0,0,0,0,0,0,0,0.150724,-0.235097,-0.195614,-1.71828,-0.0156419,1.3744,0.402059,0.503631,-0.0121441,0.465245,-0.163743,0.184847,0.0240003,0.000236027,1.93164,-25.1634,3.31361,24.6857,0.923458,2.14501,-0.0301054,-1.83529,0.255697,-0.0216631,0.232122,-0.734383,0.0512757,0.109942,-0.173408,-0.0671163,-0.489788,0.395204,-0.688519,-0.00768034,
0.140128,-0.235012,-0.206202,-1.71525,-0.0201,-0.197217,-0.383224,0.61993,-0.0502134,0.570371,-0.24586,0.301072,-0.0687088,0.0143842,0,0,0,0,0,0,0,0.150724,-0.235097,-0.195614,-1.71828,-0.0156419,1.3744,0.402059,0.503631,-0.0121441,0.465245,-0.163743,0.184847,0.0240003,0.000236027,1.93164,-25.1634,3.31361,24.6857,0.923458,2.14501,-0.0301054,-1.83529,0.255697,-0.0216631,0.232122,-0.734383,0.0512757,0.109942,-0.173408,-0.0671163,-0.489788,0.395204,-0.688519,-0.00768034,
0.158073,-0.235531,-0.18887,-1.72116,-0.0120936,-0.196937,-0.38316,0.650188,-0.035096,0.606264,-0.253791,0.360638,-0.0864457,0.0140198,0,0,0,0,0,0,0,0.150724,-0.235097,-0.195614,-1.71828,-0.0156419,1.3744,0.402059,0.503631,-0.0121441,0.465245,-0.163743,0.184847,0.0240003,0.000236027,1.93164,-25.1634,3.31361,24.6857,0.923458,2.14501,-0.0301054,-2.28748,-1.3994,-0.870652,1.29315,-0.811027,-0.698829,-0.572207,-0.186699,-0.972735,-0.668131,0.144842,-0.621506,-0.00565406,
0.160791,-0.235648,-0.186306,-1.72219,-0.0103827,-0.197414,-0.383107,0.679617,-0.0291581,0.640987,-0.258652,0.42773,-0.119272,0.0130987,0,0,0,0,0,0,0,0.150724,-0.235097,-0.195614,-1.71828,-0.0156419,1.3744,0.402059,0.503631,-0.0121441,0.465245,-0.163743,0.184847,0.0240003,0.000236027,1.93164,-25.1634,3.31361,24.6857,0.923458,2.14501,-0.0301054,-2.28748,-1.3994,-0.870652,1.29315,-0.811027,-0.698829,-0.572207,-0.186699,-0.972735,-0.668131,0.144842,-0.621506,-0.00565406,
0.163609,-0.235738,-0.183625,-1.72324,-0.00841132,-0.197988,-0.383058,0.704583,-0.0224399,0.670268,-0.261361,0.492836,-0.143502,0.0123381,0,0,0,0,0,0,0,0.167279,-0.23512,-0.179446,-1.72326,-0.00708217,1.37465,0.402067,0.508481,-1.60209e-05,0.487799,-0.15088,0.252939,0.00477623,0.00062818,0.717655,-25.5602,2.1393,24.9594,1.25305,2.15142,-0.050247,-2.03617,0.358312,-1.24506,0.151727,-0.470699,0.119718,0.214561,0.155586,-0.0324844,-0.869936,0.379139,-0.626303,-0.00698576,
0.166513,-0.2358,-0.180844,-1.72429,-0.00619362,-0.198629,-0.383011,0.725933,-0.0156279,0.695163,-0.262925,0.554425,-0.16003,0.0116897,0,0,0,0,0,0,0,0.167279,-0.23512,-0.179446,-1.72326,-0.00708217,1.37465,0.402067,0.508481,-1.60209e-05,0.487799,-0.15088,0.252939,0.00477623,0.00062818,0.717655,-25.5602,2.1393,24.9594,1.25305,2.15142,-0.050247,-2.03617,0.358312,-1.24506,0.151727,-0.470699,0.119718,0.214561,0.155586,-0.0324844,-0.869936,0.379139,-0.626303,-0.00698576,
0.16949,-0.235836,-0.177978,-1.72534,-0.00374703,-0.199309,-0.382967,0.744305,-0.00902046,0.716482,-0.263726,0.611648,-0.170075,0.0111485,0,0,0,0,0,0,0,0.167279,-0.23512,-0.179446,-1.72326,-0.00708217,1.37465,0.402067,0.508481,-1.60209e-05,0.487799,-0.15088,0.252939,0.00477623,0.00062818,0.717655,-25.5602,2.1393,24.9594,1.25305,2.15142,-0.050247,-1.97386,2.53676,-1.1605,-1.27669,-0.455126,1.12145,1.15807,0.271888,1.1514,-0.880861,0.665347,-0.625648,-0.00841309,
0.172531,-0.235847,-0.175039,-1.7264,-0.00109059,-0.200008,-0.382924,0.760191,-0.00275638,0.73485,-0.263933,0.664111,-0.174807,0.0106623,0,0,0,0,0,0,0,0.167279,-0.23512,-0.179446,-1.72326,-0.00708217,1.37465,0.402067,0.508481,-1.60209e-05,0.487799,-0.15088,0.252939,0.00477623,0.00062818,0.717655,-25.5602,2.1393,24.9594,1.25305,2.15142,-0.050247,-1.44267,1.03854,-1.72928,-0.37528,0.110297,0.45007,0.467333,0.586084,0.406189,-1.06046,0.413019,-0.553197,-0.00532425,
0.155472,-0.235391,-0.191295,-1.72014,-0.0135361,-0.196592,-0.383216,0.615075,-0.0385494,0.564723,-0.243979,0.294105,-0.0456046,0.0151161,0,0,0,0,0,0,0,0.167279,-0.23512,-0.179446,-1.72326,-0.00708217,1.37465,0.402067,0.508481,-1.60209e-05,0.487799,-0.15088,0.252939,0.00477623,0.00062818,0.717655,-25.5602,2.1393,24.9594,1.25305,2.15142,-0.050247,-1.44267,1.03854,-1.72928,-0.37528,0.110297,0.45007,0.467333,0.586084,0.406189,-1.06046,0.413019,-0.553197,-0.00532425,
0.174752,-0.235461,-0.172545,-1.72606,-0.00291781,-0.196621,-0.383151,0.659669,-0.028231,0.61789,-0.248421,0.405045,-0.073325,0.01409,0,0,0,0,0,0,0,0.167279,-0.23512,-0.179446,-1.72326,-0.00708217,1.37465,0.402067,0.508481,-1.60209e-05,0.487799,-0.15088,0.252939,0.00477623,0.00062818,0.717655,-25.5602,2.1393,24.9594,1.25305,2.15142,-0.050247,-2.04117,0.0918587,-1.99922,0.168604,-0.337373,0.0388437,0.13838,0.296366,-0.104951,-0.988261,0.220627,-0.459429,-0.00420176,
0.177505,-0.235553,-0.169939,-1.72707,-0.00105287,-0.197025,-0.383098,0.688112,-0.0227837,0.651543,-0.253205,0.466234,-0.101181,0.0131494,0,0,0,0,0,0,0,0.1848,-0.234971,-0.162669,-1.72816,0.000921066,1.37491,0.402065,0.554053,0.00732262,0.525796,-0.148114,0.300553,0.00164436,-0.0010605,1.65393,-25.9847,2.73836,24.3881,1.90673,1.80627,0.0101778,-2.04117,0.0918587,-1.99922,0.168604,-0.337373,0.0388437,0.13838,0.296366,-0.104951,-0.988261,0.220627,-0.459429,-0.00420176,
0.180354,-0.235619,-0.16722,-1.72809,0.00105167,-0.197512,-0.383049,0.712184,-0.0164955,0.679866,-0.255701,0.526136,-0.121662,0.0123827,0,0,0,0,0,0,0,0.1848,-0.234971,-0.162669,-1.72816,0.000921066,1.37491,0.402065,0.554053,0.00732262,0.525796,-0.148114,0.300553,0.00164436,-0.0010605,1.65393,-25.9847,2.73836,24.3881,1.90673,1.80627,0.0101778,-2.69538,-1.28247,-1.78648,1.21622,-0.901317,-0.598323,-0.489086,-0.157005,-0.852661,-0.826642,0.217075,-0.47149,-0.00131372,
0.183285,-0.235659,-0.164404,-1.72912,0.00338428,-0.198053,-0.383002,0.732726,-0.010096,0.703899,-0.257031,0.583152,-0.135349,0.011717,0,0,0,0,0,0,0,0.1848,-0.234971,-0.162669,-1.72816,0.000921066,1.37491,0.402065,0.554053,0.00732262,0.525796,-0.148114,0.300553,0.00164436,-0.0010605,1.65393,-25.9847,2.73836,24.3881,1.90673,1.80627,0.0101778,-2.03483,1.36658,-1.64744,-0.523694,-0.394838,0.619832,0.660447,0.289446,0.572061,-0.936463,0.554504,-0.512059,-0.00453042,
0.186286,-0.235675,-0.161506,-1.73015,0.00592972,-0.198626,-0.382957,0.750366,-0.0038928,0.72444,-0.257617,0.63636,-0.143259,0.01116,0,0,0,0,0,0,0,0.1848,-0.234971,-0.162669,-1.72816,0.000921066,1.37491,0.402065,0.554053,0.00732262,0.525796,-0.148114,0.300553,0.00164436,-0.0010605,1.65393,-25.9847,2.73836,24.3881,1.90673,1.80627,0.0101778,-2.03483,1.36658,-1.64744,-0.523694,-0.394838,0.619832,0.660447,0.289446,0.572061,-0.936463,0.554504,-0.512059,-0.00453042,
0.189343,-0.235666,-0.158535,-1.73118,0.00867288,-0.199212,-0.382915,0.764363,0.00201144,0.742801,-0.257655,0.685791,-0.146411,0.0106381,0,0,0,0,0,0,0,0.1848,-0.234971,-0.162669,-1.72816,0.000921066,1.37491,0.402065,0.554053,0.00732262,0.525796,-0.148114,0.300553,0.00164436,-0.0010605,1.65393,-25.9847,2.73836,24.3881,1.90673,1.80627,0.0101778,-2.06784,-0.760757,-2.02303,0.803343,-0.31822,-0.343417,-0.299888,0.251419,-0.512282,-0.998777,0.251134,-0.473146,-0.00118886,
0.172114,-0.235349,-0.175017,-1.72506,-0.00453799,-0.196327,-0.383207,0.625625,-0.0309912,0.577575,-0.238229,0.345171,-0.0392576,0.0152107,0,0,0,0,0,0,0,0.202164,-0.234864,-0.145734,-1.7333,0.00916164,1.37544,0.402071,0.535951,0.00320552,0.525831,-0.164701,0.302588,0.00859072,-0.000550841,2.74494,-25.9093,3.38899,24.761,1.45446,1.99212,-0.0026396,-2.06784,-0.760757,-2.02303,0.803343,-0.31822,-0.343417,-0.299888,0.251419,-0.512282,-0.998777,0.251134,-0.473146,-0.00118886,
0.209882,-0.235076,-0.138518,-1.7361,0.0139297,-0.195718,-0.383153,0.676863,-0.0165384,0.640315,-0.24556,0.4532,-0.0584784,0.0137222,0,0,0,0,0,0,0,0.202164,-0.234864,-0.145734,-1.7333,0.00916164,1.37544,0.402071,0.535951,0.00320552,0.525831,-0.164701,0.302588,0.00859072,-0.000550841,2.74494,-25.9093,3.38899,24.761,1.45446,1.99212,-0.0026396,-1.88068,0.332121,-2.25804,-0.0731223,-0.128878,0.199256,0.297652,0.475865,0.0797029,-1.0874,0.228389,-0.430639,-0.00792197,
0.212694,-0.235121,-0.135833,-1.7371,0.0159726,-0.196043,-0.383101,0.702956,-0.0113512,0.671161,-0.249636,0.51073,-0.0813805,0.0128401,0,0,0,0,0,0,0,0.202164,-0.234864,-0.145734,-1.7333,0.00916164,1.37544,0.402071,0.535951,0.00320552,0.525831,-0.164701,0.302588,0.00859072,-0.000550841,2.74494,-25.9093,3.38899,24.761,1.45446,1.99212,-0.0026396,-1.88068,0.332121,-2.25804,-0.0731223,-0.128878,0.199256,0.297652,0.475865,0.0797029,-1.0874,0.228389,-0.430639,-0.00792197,
0.215594,-0.235143,-0.133045,-1.7381,0.0182389,-0.196435,-0.383053,0.725085,-0.00557642,0.697193,-0.251708,0.566579,-0.0978898,0.0121107,0,0,0,0,0,0,0,0.202164,-0.234864,-0.145734,-1.7333,0.00916164,1.37544,0.402071,0.535951,0.00320552,0.525831,-0.164701,0.302588,0.00859072,-0.000550841,2.74494,-25.9093,3.38899,24.761,1.45446,1.99212,-0.0026396,-1.43592,0.36037,-2.18303,-0.0147739,0.266204,0.200061,0.279581,0.702763,0.0676729,-1.18007,0.332322,-0.50105,-0.00800467,
0.218565,-0.235142,-0.130165,-1.73911,0.0207187,-0.196869,-0.383007,0.742764,0.000229298,0.720022,-0.252732,0.61994,-0.108525,0.0114494,0,0,0,0,0,0,0,0.202164,-0.234864,-0.145734,-1.7333,0.00916164,1.37544,0.402071,0.535951,0.00320552,0.525831,-0.164701,0.302588,0.00859072,-0.000550841,2.74494,-25.9093,3.38899,24.761,1.45446,1.99212,-0.0026396,-1.43592,0.36037,-2.18303,-0.0147739,0.266204,0.200061,0.279581,0.702763,0.0676729,-1.18007,0.332322,-0.50105,-0.00800467,
0.221584,-0.235119,-0.1272,-1.74013,0.0234023,-0.197326,-0.382964,0.754708,0.00586299,0.741225,-0.253091,0.670891,-0.114174,0.0107826,0,0,0,0,0,0,0,0.202164,-0.234864,-0.145734,-1.7333,0.00916164,1.37544,0.402071,0.535951,0.00320552,0.525831,-0.164701,0.302588,0.00859072,-0.000550841,2.74494,-25.9093,3.38899,24.761,1.45446,1.99212,-0.0026396,-2.64073,0.341086,-1.68305,0.0578566,-0.774861,0.22635,0.25195,0.0640395,0.155168,-0.929538,0.411128,-0.565286,-0.00853451,
0.207175,-0.235009,-0.141079,-1.73512,0.0121169,-0.195484,-0.383208,0.645742,-0.0196514,0.603512,-0.236907,0.396077,-0.03009,0.01473,0,0,0,0,0,0,0,0.220215,-0.234758,-0.128086,-1.73871,0.0193837,1.37626,0.402074,0.533457,0.0104685,0.541307,-0.155578,0.289415,0.0338513,-0.000123754,2.34027,-26.5599,2.91292,25.0348,1.3446,1.99212,0.0101778,-1.15063,-0.919149,-2.23401,0.78297,0.502243,-0.382228,-0.3159,0.754853,-0.580724,-1.20802,0.181421,-0.502318,-0.00687061,
0.227973,-0.234899,-0.1208,-1.74142,0.0240785,-0.19452,-0.383147,0.679547,-0.0111245,0.645053,-0.238715,0.449618,-0.0258578,0.0138363,0,0,0,0,0,0,0,0.220215,-0.234758,-0.128086,-1.73871,0.0193837,1.37626,0.402074,0.533457,0.0104685,0.541307,-0.155578,0.289415,0.0338513,-0.000123754,2.34027,-26.5599,2.91292,25.0348,1.3446,1.99212,0.0101778,-1.15063,-0.919149,-2.23401,0.78297,0.502243,-0.382228,-0.3159,0.754853,-0.580724,-1.20802,0.181421,-0.502318,-0.00687061,
0.230788,-0.234924,-0.118096,-1.74239,0.0261139,-0.194712,-0.383096,0.703912,-0.00632686,0.675934,-0.24289,0.508867,-0.0480903,0.0129206,0,0,0,0,0,0,0,0.220215,-0.234758,-0.128086,-1.73871,0.0193837,1.37626,0.402074,0.533457,0.0104685,0.541307,-0.155578,0.289415,0.0338513,-0.000123754,2.34027,-26.5599,2.91292,25.0348,1.3446,1.99212,0.0101778,-1.34957,-0.849206,-2.08507,0.67146,0.222464,-0.320495,-0.215606,0.562436,-0.52267,-1.06811,0.122299,-0.437209,-0.00824316,
0.233674,-0.234928,-0.115281,-1.74337,0.0283827,-0.19497,-0.383048,0.721359,-0.000871575,0.703737,-0.245031,0.567185,-0.0643255,0.0120467,0,0,0,0,0,0,0,0.220215,-0.234758,-0.128086,-1.73871,0.0193837,1.37626,0.402074,0.533457,0.0104685,0.541307,-0.155578,0.289415,0.0338513,-0.000123754,2.34027,-26.5599,2.91292,25.0348,1.3446,1.99212,0.0101778,-1.34957,-0.849206,-2.08507,0.67146,0.222464,-0.320495,-0.215606,0.562436,-0.52267,-1.06811,0.122299,-0.437209,-0.00824316,
0.236615,-0.234909,-0.112371,-1.74435,0.030873,-0.19527,-0.383002,0.735207,0.00460607,0.727433,-0.246076,0.622579,-0.074989,0.0112968,0,0,0,0,0,0,0,0.220215,-0.234758,-0.128086,-1.73871,0.0193837,1.37626,0.402074,0.533457,0.0104685,0.541307,-0.155578,0.289415,0.0338513,-0.000123754,2.34027,-26.5599,2.91292,25.0348,1.3446,1.99212,0.0101778,-2.04267,2.23433,-1.6611,-1.31569,-0.399189,1.12694,1.17786,0.406338,1.16749,-0.936056,0.522322,-0.470861,-0.0137029,
0.239599,-0.23487,-0.109381,-1.74534,0.0335698,-0.195593,-0.38296,0.746151,0.00984594,0.747709,-0.246425,0.674206,-0.0808617,0.0106645,0,0,0,0,0,0,0,0.237588,-0.234569,-0.1113,-1.74368,0.0299046,1.37704,0.402084,0.570699,0.013032,0.521918,-0.15975,0.290244,0.0431516,0.00139206,-1.61908,-26.8099,-0.76079,26.106,1.38122,1.99212,-0.0365141,-1.71216,0.403592,-1.17392,0.0181104,-0.333603,0.255394,0.258695,0.193,0.198582,-0.745506,0.447026,-0.466564,-0.0084917,
0.242618,-0.234811,-0.10632,-1.74632,0.0364564,-0.195924,-0.382919,0.754709,0.0147387,0.765136,-0.246246,0.721644,-0.0827824,0.0101179,0,0,0,0,0,0,0,0.237588,-0.234569,-0.1113,-1.74368,0.0299046,1.37704,0.402084,0.570699,0.013032,0.521918,-0.15975,0.290244,0.0431516,0.00139206,-1.61908,-26.8099,-0.76079,26.106,1.38122,1.99212,-0.0365141,-1.71216,0.403592,-1.17392,0.0181104,-0.333603,0.255394,0.258695,0.193,0.198582,-0.745506,0.447026,-0.466564,-0.0084917,
0.225255,-0.234854,-0.12338,-1.74046,0.02228,-0.194417,-0.383203,0.649084,-0.0137936,0.609179,-0.229823,0.390402,0.00128252,0.0148577,0,0,0,0,0,0,0,0.237588,-0.234569,-0.1113,-1.74368,0.0299046,1.37704,0.402084,0.570699,0.013032,0.521918,-0.15975,0.290244,0.0431516,0.00139206,-1.61908,-26.8099,-0.76079,26.106,1.38122,1.99212,-0.0365141,-1.75652,-0.724079,-1.05706,0.687027,-0.56886,-0.230071,-0.159047,-0.0957842,-0.384081,-0.538159,0.224393,-0.33098,-0.00699208,
0.245365,-0.23464,-0.103945,-1.74636,0.0347009,-0.193578,-0.383139,0.676793,-0.00505727,0.652461,-0.234838,0.458838,-0.00889455,0.0137429,0,0,0,0,0,0,0,0.237588,-0.234569,-0.1113,-1.74368,0.0299046,1.37704,0.402084,0.570699,0.013032,0.521918,-0.15975,0.290244,0.0431516,0.00139206,-1.61908,-26.8099,-0.76079,26.106,1.38122,1.99212,-0.0365141,-1.75652,-0.724079,-1.05706,0.687027,-0.56886,-0.230071,-0.159047,-0.0957842,-0.384081,-0.538159,0.224393,-0.33098,-0.00699208,
0.248154,-0.234642,-0.101208,-1.74731,0.0367762,-0.193691,-0.383088,0.697274,-0.000500974,0.684195,-0.238505,0.518834,-0.0284186,0.0127463,0,0,0,0,0,0,0,0.237588,-0.234569,-0.1113,-1.74368,0.0299046,1.37704,0.402084,0.570699,0.013032,0.521918,-0.15975,0.290244,0.0431516,0.00139206,-1.61908,-26.8099,-0.76079,26.106,1.38122,1.99212,-0.0365141,-1.03473,-0.997668,-1.75712,0.798758,0.214818,-0.39108,-0.290503,0.421824,-0.601753,-0.841261,0.163136,-0.300285,-0.00589158,
0.251009,-0.234624,-0.0983642,-1.74828,0.0390832,-0.193861,-0.38304,0.713672,0.00455024,0.711039,-0.240298,0.576748,-0.0424947,0.0119078,0,0,0,0,0,0,0,0.255095,-0.234069,-0.0935119,-1.74863,0.0404272,1.37773,0.402083,0.559213,0.0153866,0.570323,-0.148275,0.374622,0.0135924,-0.00124308,1.50318,-26.4092,2.1631,24.9356,1.81518,1.93261,0.017502,-1.74914,2.70293,-2.06531,-1.64818,-0.104969,1.34339,1.38555,0.653688,1.41054,-1.02042,0.605735,-0.350228,-0.0112963,
0.253916,-0.234586,-0.0954286,-1.74924,0.0416087,-0.194067,-0.382996,0.726764,0.00956861,0.733877,-0.241093,0.631377,-0.0514994,0.0111901,0,0,0,0,0,0,0,0.255095,-0.234069,-0.0935119,-1.74863,0.0404272,1.37773,0.402083,0.559213,0.0153866,0.570323,-0.148275,0.374622,0.0135924,-0.00124308,1.50318,-26.4092,2.1631,24.9356,1.81518,1.93261,0.017502,-1.74914,2.70293,-2.06531,-1.64818,-0.104969,1.34339,1.38555,0.653688,1.41054,-1.02042,0.605735,-0.350228,-0.0112963,
0.256865,-0.234528,-0.092415,-1.7502,0.0443369,-0.194292,-0.382953,0.737131,0.0143382,0.753419,-0.241235,0.682037,-0.0561662,0.0105626,0,0,0,0,0,0,0,0.255095,-0.234069,-0.0935119,-1.74863,0.0404272,1.37773,0.402083,0.559213,0.0153866,0.570323,-0.148275,0.374622,0.0135924,-0.00124308,1.50318,-26.4092,2.1631,24.9356,1.81518,1.93261,0.017502,-1.95397,0.576692,-1.81015,-0.188843,-0.38413,0.385013,0.382438,0.256484,0.360431,-0.846329,0.439924,-0.338841,-0.00694032,
0.259846,-0.234453,-0.0893341,-1.75117,0.0472506,-0.194521,-0.382913,0.745224,0.018768,0.770229,-0.240881,0.728418,-0.0572497,0.0100085,0,0,0,0,0,0,0,0.255095,-0.234069,-0.0935119,-1.74863,0.0404272,1.37773,0.402083,0.559213,0.0153866,0.570323,-0.148275,0.374622,0.0135924,-0.00124308,1.50318,-26.4092,2.1631,24.9356,1.81518,1.93261,0.017502,-1.95397,0.576692,-1.81015,-0.188843,-0.38413,0.385013,0.382438,0.256484,0.360431,-0.846329,0.439924,-0.338841,-0.00694032,
0.242658,-0.23462,-0.106555,-1.74542,0.0328656,-0.193542,-0.383194,0.651161,-0.0077615,0.614744,-0.226901,0.398656,0.0150722,0.0148505,0,0,0,0,0,0,0,0.255095,-0.234069,-0.0935119,-1.74863,0.0404272,1.37773,0.402083,0.559213,0.0153866,0.570323,-0.148275,0.374622,0.0135924,-0.00124308,1.50318,-26.4092,2.1631,24.9356,1.81518,1.93261,0.017502,-1.70941,-1.33888,-2.08639,0.983872,-0.201288,-0.479494,-0.422941,0.208505,-0.656039,-0.864025,0.155041,-0.26984,-0.00459734,
0.262948,-0.234123,-0.0858867,-1.75122,0.0460201,-0.192935,-0.383146,0.680122,-0.00351061,0.672315,-0.228686,0.518786,-0.00438231,0.0132073,0,0,0,0,0,0,0,0.255095,-0.234069,-0.0935119,-1.74863,0.0404272,1.37773,0.402083,0.559213,0.0153866,0.570323,-0.148275,0.374622,0.0135924,-0.00124308,1.50318,-26.4092,2.1631,24.9356,1.81518,1.93261,0.017502,-1.70941,-1.33888,-2.08639,0.983872,-0.201288,-0.479494,-0.422941,0.208505,-0.656039,-0.864025,0.155041,-0.26984,-0.00459734,
0.265743,-0.234118,-0.0830799,-1.75215,0.0483096,-0.193007,-0.383097,0.698561,0.00125371,0.701704,-0.232444,0.57236,-0.0180223,0.0122869,0,0,0,0,0,0,0,0.279214,-0.233151,-0.0687181,-1.75482,0.055065,1.37865,0.40209,0.561404,0.0185832,0.591708,-0.141283,0.388285,0.0175949,0.000107377,0.892215,-26.6075,1.26253,25.011,2.05963,1.78612,-0.0301054,-1.15639,-1.22461,-2.17011,0.896715,0.193781,-0.462065,-0.361296,0.420589,-0.679161,-0.893201,0.155962,-0.208551,-0.00743079,
0.268596,-0.234093,-0.0801738,-1.75309,0.0508063,-0.193118,-0.383051,0.713253,0.00642999,0.726523,-0.234207,0.624193,-0.0276159,0.0114928,0,0,0,0,0,0,0,0.279214,-0.233151,-0.0687181,-1.75482,0.055065,1.37865,0.40209,0.561404,0.0185832,0.591708,-0.141283,0.388285,0.0175949,0.000107377,0.892215,-26.6075,1.26253,25.011,2.05963,1.78612,-0.0301054,-1.57224,1.484,-2.54998,-0.885427,0.169666,0.8004,0.861797,0.774474,0.769231,-1.14837,0.516721,-0.294973,-0.0140027,
0.271495,-0.234047,-0.0771833,-1.75403,0.053499,-0.193251,-0.383008,0.724885,0.0114867,0.747616,-0.234938,0.673173,-0.0332098,0.0108018,0,0,0,0,0,0,0,0.279214,-0.233151,-0.0687181,-1.75482,0.055065,1.37865,0.40209,0.561404,0.0185832,0.591708,-0.141283,0.388285,0.0175949,0.000107377,0.892215,-26.6075,1.26253,25.011,2.05963,1.78612,-0.0301054,-1.57224,1.484,-2.54998,-0.885427,0.169666,0.8004,0.861797,0.774474,0.769231,-1.14837,0.516721,-0.294973,-0.0140027,
0.274431,-0.233982,-0.0741207,-1.75497,0.0563736,-0.193392,-0.382967,0.733989,0.0162218,0.765649,-0.235015,0.718656,-0.035307,0.0101962,0,0,0,0,0,0,0,0.279214,-0.233151,-0.0687181,-1.75482,0.055065,1.37865,0.40209,0.561404,0.0185832,0.591708,-0.141283,0.388285,0.0175949,0.000107377,0.892215,-26.6075,1.26253,25.011,2.05963,1.78612,-0.0301054,-1.83744,0.981997,-2.32999,-0.536109,-0.0985665,0.599886,0.605588,0.551818,0.591733,-1.04657,0.495269,-0.312433,-0.0131075,
0.260228,-0.234109,-0.0885759,-1.75031,0.043945,-0.192918,-0.383199,0.656941,-0.00644656,0.637349,-0.220319,0.465193,0.0117949,0.0142572,0,0,0,0,0,0,0,0.279214,-0.233151,-0.0687181,-1.75482,0.055065,1.37865,0.40209,0.561404,0.0185832,0.591708,-0.141283,0.388285,0.0175949,0.000107377,0.892215,-26.6075,1.26253,25.011,2.05963,1.78612,-0.0301054,-1.83744,0.981997,-2.32999,-0.536109,-0.0985665,0.599886,0.605588,0.551818,0.591733,-1.04657,0.495269,-0.312433,-0.0131075,
0.287042,-0.233161,-0.0609151,-1.75734,0.0608795,-0.191829,-0.383144,0.676269,0.000326328,0.684869,-0.222874,0.53758,0.0152518,0.0128944,0,0,0,0,0,0,0,0.297162,-0.23262,-0.0501379,-1.75946,0.0665255,1.37991,0.402092,0.545215,0.0183387,0.603631,-0.15546,0.41877,0.0357076,0.000477126,1.70551,-26.6591,1.53627,25.2847,2.24273,1.86577,-0.0163725,-1.47968,-1.70015,-2.36581,1.15466,0.0462355,-0.620389,-0.57109,0.343147,-0.810283,-0.958048,0.131139,-0.238597,-0.0102742,
0.289816,-0.233141,-0.0580646,-1.75825,0.06324,-0.191812,-0.383096,0.693442,0.00501855,0.71262,-0.226666,0.590135,0.00429853,0.0120033,0,0,0,0,0,0,0,0.297162,-0.23262,-0.0501379,-1.75946,0.0665255,1.37991,0.402092,0.545215,0.0183387,0.603631,-0.15546,0.41877,0.0357076,0.000477126,1.70551,-26.6591,1.53627,25.2847,2.24273,1.86577,-0.0163725,-1.47968,-1.70015,-2.36581,1.15466,0.0462355,-0.620389,-0.57109,0.343147,-0.810283,-0.958048,0.131139,-0.238597,-0.0102742,
0.292644,-0.233101,-0.0551201,-1.75916,0.065802,-0.191825,-0.383051,0.707108,0.0100376,0.736118,-0.228424,0.640487,-0.0033583,0.0112271,0,0,0,0,0,0,0,0.297162,-0.23262,-0.0501379,-1.75946,0.0665255,1.37991,0.402092,0.545215,0.0183387,0.603631,-0.15546,0.41877,0.0357076,0.000477126,1.70551,-26.6591,1.53627,25.2847,2.24273,1.86577,-0.0163725,-1.52168,-0.733154,-2.26593,0.528107,0.0107373,-0.167884,-0.0858882,0.408801,-0.329951,-0.950418,0.246462,-0.247975,-0.0114649,
0.295516,-0.233041,-0.0520956,-1.76008,0.068553,-0.191856,-0.383009,0.717897,0.0148774,0.756127,-0.229134,0.687762,-0.00759822,0.0105489,0,0,0,0,0,0,0,0.297162,-0.23262,-0.0501379,-1.75946,0.0665255,1.37991,0.402092,0.545215,0.0183387,0.603631,-0.15546,0.41877,0.0357076,0.000477126,1.70551,-26.6591,1.53627,25.2847,2.24273,1.86577,-0.0163725,-1.31804,1.6889,-2.68029,-1.0877,0.473389,0.879796,0.894541,1.02874,0.895702,-1.27352,0.571259,-0.332999,-0.0141713,
0.298421,-0.232964,-0.0490026,-1.761,0.0714789,-0.191891,-0.382969,0.726301,0.0193562,0.773258,-0.229184,0.731459,-0.00879885,0.0099528,0,0,0,0,0,0,0,0.297162,-0.23262,-0.0501379,-1.75946,0.0665255,1.37991,0.402092,0.545215,0.0183387,0.603631,-0.15546,0.41877,0.0357076,0.000477126,1.70551,-26.6591,1.53627,25.2847,2.24273,1.86577,-0.0163725,-1.31804,1.6889,-2.68029,-1.0877,0.473389,0.879796,0.894541,1.02874,0.895702,-1.27352,0.571259,-0.332999,-0.0141713,
0.301352,-0.23287,-0.0458506,-1.76191,0.0745643,-0.191921,-0.382931,0.732713,0.0234158,0.787995,-0.228749,0.771363,-0.00744853,0.00942563,0,0,0,0,0,0,0,0.297162,-0.23262,-0.0501379,-1.75946,0.0665255,1.37991,0.402092,0.545215,0.0183387,0.603631,-0.15546,0.41877,0.0357076,0.000477126,1.70551,-26.6591,1.53627,25.2847,2.24273,1.86577,-0.0163725,-1.47012,0.505039,-2.91011,-0.354488,0.432857,0.380967,0.410111,0.934927,0.322206,-1.33326,0.445487,-0.346984,-0.0131327,
0.284337,-0.233162,-0.0636545,-1.75645,0.0587292,-0.19189,-0.383195,0.654696,-0.0026509,0.651965,-0.214391,0.484162,0.0277598,0.0138909,0,0,0,0,0,0,0,0.314355,-0.23226,-0.0320633,-1.76401,0.0777773,1.38165,0.402092,0.556266,0.0136024,0.5988,-0.147474,0.368086,0.0634658,-0.000720658,1.78089,-26.8575,1.46089,25.3323,1.53412,2.10473,-0.0163725,-1.47012,0.505039,-2.91011,-0.354488,0.432857,0.380967,0.410111,0.934927,0.322206,-1.33326,0.445487,-0.346984,-0.0131327,
0.322063,-0.232243,-0.0241843,-1.76648,0.083466,-0.188396,-0.383144,0.665506,0.00362646,0.69032,-0.216453,0.529895,0.0507372,0.0127702,0,0,0,0,0,0,0,0.314355,-0.23226,-0.0320633,-1.76401,0.0777773,1.38165,0.402092,0.556266,0.0136024,0.5988,-0.147474,0.368086,0.0634658,-0.000720658,1.78089,-26.8575,1.46089,25.3323,1.53412,2.10473,-0.0163725,-1.08745,-1.71248,-2.74764,1.09573,0.549154,-0.636497,-0.555609,0.699901,-0.867453,-1.19735,0.182425,-0.289976,-0.0100043,
0.324792,-0.232209,-0.0213143,-1.76736,0.0858014,-0.188238,-0.383096,0.682311,0.00846788,0.717498,-0.220113,0.58386,0.0395014,0.0118831,0,0,0,0,0,0,0,0.314355,-0.23226,-0.0320633,-1.76401,0.0777773,1.38165,0.402092,0.556266,0.0136024,0.5988,-0.147474,0.368086,0.0634658,-0.000720658,1.78089,-26.8575,1.46089,25.3323,1.53412,2.10473,-0.0163725,-1.06681,-0.695975,-2.59228,0.441445,0.523632,-0.1854,-0.123944,0.76564,-0.341716,-1.15466,0.304523,-0.278111,-0.0125803,
0.327575,-0.232156,-0.018352,-1.76825,0.0883415,-0.188112,-0.383052,0.695728,0.013404,0.740577,-0.221948,0.635018,0.0314757,0.011104,0,0,0,0,0,0,0,0.314355,-0.23226,-0.0320633,-1.76401,0.0777773,1.38165,0.402092,0.556266,0.0136024,0.5988,-0.147474,0.368086,0.0634658,-0.000720658,1.78089,-26.8575,1.46089,25.3323,1.53412,2.10473,-0.0163725,-1.06681,-0.695975,-2.59228,0.441445,0.523632,-0.1854,-0.123944,0.76564,-0.341716,-1.15466,0.304523,-0.278111,-0.0125803,
0.330401,-0.232084,-0.0153109,-1.76914,0.0910723,-0.188005,-0.38301,0.706348,0.0180488,0.760274,-0.222782,0.682699,0.0267003,0.0104206,0,0,0,0,0,0,0,0.314355,-0.23226,-0.0320633,-1.76401,0.0777773,1.38165,0.402092,0.556266,0.0136024,0.5988,-0.147474,0.368086,0.0634658,-0.000720658,1.78089,-26.8575,1.46089,25.3323,1.53412,2.10473,-0.0163725,-1.70208,1.83043,-2.10041,-1.1119,-0.013597,1.00647,1.00326,0.686841,1.05065,-1.00937,0.657623,-0.314132,-0.0127499,
0.333259,-0.231994,-0.0122022,-1.77003,0.0939785,-0.187906,-0.382971,0.714638,0.0222741,0.777166,-0.222953,0.726543,0.0248109,0.00981896,0,0,0,0,0,0,0,0.332088,-0.231753,-0.0128576,-1.76856,0.0901943,1.38349,0.402089,0.554128,0.0166267,0.575728,-0.141619,0.347151,0.0692854,-0.000457749,0.590702,-27.032,0.286573,25.5823,1.17981,2.32354,0.017502,-1.70208,1.83043,-2.10041,-1.1119,-0.013597,1.00647,1.00326,0.686841,1.05065,-1.00937,0.657623,-0.314132,-0.0127499,
0.336143,-0.23189,-0.00903534,-1.77092,0.0970442,-0.187804,-0.382934,0.720972,0.0260489,0.791717,-0.222624,0.76643,0.0253544,0.00928704,0,0,0,0,0,0,0,0.332088,-0.231753,-0.0128576,-1.76856,0.0901943,1.38349,0.402089,0.554128,0.0166267,0.575728,-0.141619,0.347151,0.0692854,-0.000457749,0.590702,-27.032,0.286573,25.5823,1.17981,2.32354,0.017502,-1.06241,1.20514,-1.84687,-0.706008,0.278012,0.641844,0.646537,0.697129,0.639422,-0.883191,0.542786,-0.239971,-0.00932712,
0.319401,-0.232258,-0.0269456,-1.76561,0.0813464,-0.188598,-0.383195,0.644501,-3.04563e-05,0.658215,-0.208794,0.474152,0.06383,0.01374,0,0,0,0,0,0,0,0.332088,-0.231753,-0.0128576,-1.76856,0.0901943,1.38349,0.402089,0.554128,0.0166267,0.575728,-0.141619,0.347151,0.0692854,-0.000457749,0.590702,-27.032,0.286573,25.5823,1.17981,2.32354,0.017502,-1.06241,1.20514,-1.84687,-0.706008,0.278012,0.641844,0.646537,0.697129,0.639422,-0.883191,0.542786,-0.239971,-0.00932712,
0.339578,-0.231703,-0.00504719,-1.77096,0.0956942,-0.186382,-0.383146,0.647952,0.00622052,0.686012,-0.211435,0.514735,0.0680834,0.0129163,0,0,0,0,0,0,0,0.332088,-0.231753,-0.0128576,-1.76856,0.0901943,1.38349,0.402089,0.554128,0.0166267,0.575728,-0.141619,0.347151,0.0692854,-0.000457749,0.590702,-27.032,0.286573,25.5823,1.17981,2.32354,0.017502,-0.994053,-0.773974,-1.86473,0.577024,0.217087,-0.214081,-0.138749,0.408843,-0.382568,-0.784963,0.305176,-0.176851,-0.00931047,
0.34224,-0.23166,-0.00219091,-1.77182,0.0979714,-0.186147,-0.383098,0.665549,0.0108952,0.71407,-0.215054,0.5693,0.0587666,0.0119882,0,0,0,0,0,0,0,0.332088,-0.231753,-0.0128576,-1.76856,0.0901943,1.38349,0.402089,0.554128,0.0166267,0.575728,-0.141619,0.347151,0.0692854,-0.000457749,0.590702,-27.032,0.286573,25.5823,1.17981,2.32354,0.017502,-1.20935,-0.717355,-1.47648,0.667768,-0.0492872,-0.158984,-0.0940896,0.185727,-0.329039,-0.622631,0.407498,-0.178448,-0.00994222,
0.344959,-0.231597,0.000760584,-1.77269,0.100456,-0.185939,-0.383054,0.679642,0.0156334,0.737874,-0.216833,0.62112,0.0520894,0.0111701,0,0,0,0,0,0,0,0.332088,-0.231753,-0.0128576,-1.76856,0.0901943,1.38349,0.402089,0.554128,0.0166267,0.575728,-0.141619,0.347151,0.0692854,-0.000457749,0.590702,-27.032,0.286573,25.5823,1.17981,2.32354,0.017502,-1.20935,-0.717355,-1.47648,0.667768,-0.0492872,-0.158984,-0.0940896,0.185727,-0.329039,-0.622631,0.407498,-0.178448,-0.00994222,
0.347722,-0.231517,0.00379327,-1.77356,0.103134,-0.185746,-0.383012,0.690835,0.0200581,0.758171,-0.21761,0.669494,0.048222,0.0104533,0,0,0,0,0,0,0,0.349317,-0.231062,0.00637525,-1.77289,0.102541,1.38552,0.402099,0.551898,0.029741,0.617457,-0.134263,0.399244,0.0714264,0.000351571,0.0313145,-26.8099,-0.33629,25.3839,1.60095,2.15783,-0.0365141,-1.87946,1.91471,-1.94393,-1.11953,-0.243206,1.08521,1.08364,0.526447,1.13143,-0.85913,0.726666,-0.229247,-0.0153098,
0.350521,-0.231421,0.00689552,-1.77443,0.10599,-0.185558,-0.382973,0.699608,0.0240501,0.775563,-0.217728,0.714041,0.0468993,0.00982494,0,0,0,0,0,0,0,0.349317,-0.231062,0.00637525,-1.77289,0.102541,1.38552,0.402099,0.551898,0.029741,0.617457,-0.134263,0.399244,0.0714264,0.000351571,0.0313145,-26.8099,-0.33629,25.3839,1.60095,2.15783,-0.0365141,-1.87946,1.91471,-1.94393,-1.11953,-0.243206,1.08521,1.08364,0.526447,1.13143,-0.85913,0.726666,-0.229247,-0.0153098,
0.353346,-0.231311,0.0100577,-1.7753,0.109009,-0.185367,-0.382935,0.706325,0.0275862,0.790547,-0.217358,0.754629,0.0477543,0.00927374,0,0,0,0,0,0,0,0.349317,-0.231062,0.00637525,-1.77289,0.102541,1.38552,0.402099,0.551898,0.029741,0.617457,-0.134263,0.399244,0.0714264,0.000351571,0.0313145,-26.8099,-0.33629,25.3839,1.60095,2.15783,-0.0365141,-1.77909,0.81828,-2.20474,-0.4891,-0.159551,0.605232,0.587125,0.481604,0.616821,-0.901522,0.562997,-0.190032,-0.0153664,
0.339578,-0.231703,-0.00504714,-1.77096,0.0956934,-0.186382,-0.383146,0.647959,0.00621882,0.686017,-0.211437,0.514641,0.0681133,0.0129158,0,0,0,0,0,0,0,0.349317,-0.231062,0.00637525,-1.77289,0.102541,1.38552,0.402099,0.551898,0.029741,0.617457,-0.134263,0.399244,0.0714264,0.000351571,0.0313145,-26.8099,-0.33629,25.3839,1.60095,2.15783,-0.0365141,-1.77909,0.81828,-2.20474,-0.4891,-0.159551,0.605232,0.587125,0.481604,0.616821,-0.901522,0.562997,-0.190032,-0.0153664,
0.356864,-0.230905,0.0144525,-1.77526,0.108588,-0.184182,-0.383144,0.650393,0.0138716,0.704763,-0.208482,0.557061,0.0854949,0.0122219,0,0,0,0,0,0,0,0.349317,-0.231062,0.00637525,-1.77289,0.102541,1.38552,0.402099,0.551898,0.029741,0.617457,-0.134263,0.399244,0.0714264,0.000351571,0.0313145,-26.8099,-0.33629,25.3839,1.60095,2.15783,-0.0365141,-1.82414,-0.41819,-2.14482,0.315167,-0.305631,0.10359,0.147525,0.219226,0.00235199,-0.796076,0.405274,-0.141022,-0.0134881,
0.359528,-0.230835,0.0173738,-1.7761,0.111019,-0.18387,-0.383099,0.665962,0.0176253,0.730328,-0.211886,0.607655,0.0780582,0.0113696,0,0,0,0,0,0,0,0.366927,-0.230086,0.0259745,-1.77684,0.114589,1.38806,0.402094,0.537461,0.0323993,0.618675,-0.121594,0.402476,0.0786602,-0.00122309,1.55078,-26.6829,0.889601,25.5069,2.16308,2.15142,0.0101778,-0.791393,-0.226855,-2.62959,0.120618,0.687791,-0.00594601,0.0654931,0.870344,-0.154026,-1.10156,0.454793,-0.161345,-0.0123416,
0.362242,-0.230749,0.020382,-1.77696,0.113641,-0.183579,-0.383056,0.678354,0.0215444,0.752059,-0.213379,0.65544,0.0726802,0.0106152,0,0,0,0,0,0,0,0.366927,-0.230086,0.0259745,-1.77684,0.114589,1.38806,0.402094,0.537461,0.0323993,0.618675,-0.121594,0.402476,0.0786602,-0.00122309,1.55078,-26.6829,0.889601,25.5069,2.16308,2.15142,0.0101778,-0.791393,-0.226855,-2.62959,0.120618,0.687791,-0.00594601,0.0654931,0.870344,-0.154026,-1.10156,0.454793,-0.161345,-0.0123416,
0.364994,-0.230648,0.0234645,-1.77781,0.11644,-0.1833,-0.383017,0.688084,0.0252197,0.770629,-0.213875,0.699898,0.0697005,0.00995461,0,0,0,0,0,0,0,0.366927,-0.230086,0.0259745,-1.77684,0.114589,1.38806,0.402094,0.537461,0.0323993,0.618675,-0.121594,0.402476,0.0786602,-0.00122309,1.55078,-26.6829,0.889601,25.5069,2.16308,2.15142,0.0101778,-0.696702,0.88348,-2.92772,-0.632043,0.978445,0.429708,0.452806,1.25007,0.369217,-1.30563,0.644005,-0.21233,-0.0119884,
0.367776,-0.230534,0.026611,-1.77867,0.119403,-0.183024,-0.382979,0.695518,0.0285213,0.786609,-0.213754,0.740773,0.068983,0.00939911,0,0,0,0,0,0,0,0.366927,-0.230086,0.0259745,-1.77684,0.114589,1.38806,0.402094,0.537461,0.0323993,0.618675,-0.121594,0.402476,0.0786602,-0.00122309,1.55078,-26.6829,0.889601,25.5069,2.16308,2.15142,0.0101778,-0.696702,0.88348,-2.92772,-0.632043,0.978445,0.429708,0.452806,1.25007,0.369217,-1.30563,0.644005,-0.21233,-0.0119884,
0.370586,-0.230408,0.0298152,-1.77952,0.122464,-0.182744,-0.382943,0.70254,0.0314121,0.801064,-0.212628,0.765192,0.0700561,0.00890812,0,0,0,0,0,0,0,0.366927,-0.230086,0.0259745,-1.77684,0.114589,1.38806,0.402094,0.537461,0.0323993,0.618675,-0.121594,0.402476,0.0786602,-0.00122309,1.55078,-26.6829,0.889601,25.5069,2.16308,2.15142,0.0101778,-0.947097,-0.332436,-2.80109,0.122821,0.6599,-0.0213151,-0.018099,0.900019,-0.10801,-1.18407,0.46604,-0.193013,-0.0110821,
0.356865,-0.230906,0.014453,-1.77526,0.10858,-0.184179,-0.383144,0.650464,0.0138542,0.704824,-0.208489,0.556039,0.0857864,0.0122166,0,0,0,0,0,0,0,0.366927,-0.230086,0.0259745,-1.77684,0.114589,1.38806,0.402094,0.537461,0.0323993,0.618675,-0.121594,0.402476,0.0786602,-0.00122309,1.55078,-26.6829,0.889601,25.5069,2.16308,2.15142,0.0101778,-0.976102,-1.19601,-2.6553,0.677606,0.509936,-0.356685,-0.313904,0.667224,-0.513196,-1.07203,0.336903,-0.160841,-0.012029,
0.374318,-0.22992,0.0340595,-1.77912,0.120653,-0.181425,-0.383151,0.637582,0.0144653,0.705612,-0.201968,0.557103,0.106407,0.0121233,0,0,0,0,0,0,0,0.389897,-0.228893,0.0525377,-1.78161,0.130722,1.39198,0.402097,0.521383,0.0248671,0.631743,-0.122949,0.427639,0.1115,-0.000592454,1.60236,-26.4845,0.711073,25.1102,2.32788,1.79345,-0.00996382,-0.976102,-1.19601,-2.6553,0.677606,0.509936,-0.356685,-0.313904,0.667224,-0.513196,-1.07203,0.336903,-0.160841,-0.012029,
0.376931,-0.229847,0.0369849,-1.77994,0.123079,-0.181024,-0.383106,0.653308,0.0181703,0.731367,-0.20566,0.606566,0.10032,0.0112679,0,0,0,0,0,0,0,0.389897,-0.228893,0.0525377,-1.78161,0.130722,1.39198,0.402097,0.521383,0.0248671,0.631743,-0.122949,0.427639,0.1115,-0.000592454,1.60236,-26.4845,0.711073,25.1102,2.32788,1.79345,-0.00996382,-1.5436,0.456697,-2.66591,-0.392868,0.233466,0.459462,0.525218,0.783582,0.377446,-1.13558,0.566888,-0.225135,-0.014942,
0.379594,-0.229759,0.0399981,-1.78077,0.125693,-0.180641,-0.383064,0.66573,0.0220398,0.753294,-0.207327,0.653431,0.0957647,0.0105326,0,0,0,0,0,0,0,0.389897,-0.228893,0.0525377,-1.78161,0.130722,1.39198,0.402097,0.521383,0.0248671,0.631743,-0.122949,0.427639,0.1115,-0.000592454,1.60236,-26.4845,0.711073,25.1102,2.32788,1.79345,-0.00996382,-1.5436,0.456697,-2.66591,-0.392868,0.233466,0.459462,0.525218,0.783582,0.377446,-1.13558,0.566888,-0.225135,-0.014942,
0.382302,-0.229656,0.0430888,-1.7816,0.12843,-0.180268,-0.383024,0.67692,0.02565,0.772684,-0.207375,0.684383,0.0930843,0.00988754,0,0,0,0,0,0,0,0.389897,-0.228893,0.0525377,-1.78161,0.130722,1.39198,0.402097,0.521383,0.0248671,0.631743,-0.122949,0.427639,0.1115,-0.000592454,1.60236,-26.4845,0.711073,25.1102,2.32788,1.79345,-0.00996382,-1.62203,1.25232,-2.65515,-0.901645,0.274439,0.80168,0.826114,0.93961,0.789941,-1.19981,0.711162,-0.278262,-0.0165211,
0.385057,-0.229541,0.0462374,-1.78243,0.131237,-0.179899,-0.382987,0.688733,0.0287412,0.787153,-0.206636,0.701636,0.092309,0.00926879,0,0,0,0,0,0,0,0.389897,-0.228893,0.0525377,-1.78161,0.130722,1.39198,0.402097,0.521383,0.0248671,0.631743,-0.122949,0.427639,0.1115,-0.000592454,1.60236,-26.4845,0.711073,25.1102,2.32788,1.79345,-0.00996382,-1.62203,1.25232,-2.65515,-0.901645,0.274439,0.80168,0.826114,0.93961,0.789941,-1.19981,0.711162,-0.278262,-0.0165211,
0.374325,-0.229921,0.0340647,-1.77912,0.120561,-0.181402,-0.383152,0.638306,0.0142979,0.70623,-0.201996,0.546585,0.109068,0.0120696,0,0,0,0,0,0,0,0.407119,-0.228171,0.0725884,-1.78541,0.143084,1.3959,0.402104,0.545499,0.0299218,0.625588,-0.118053,0.408205,0.122811,0.000423109,1.09455,-26.9606,-0.237108,25.011,1.46087,1.99212,-0.0365141,-1.33531,0.0604433,-3.00545,-0.257734,0.550775,0.257527,0.254967,1.00847,0.214359,-1.33967,0.54392,-0.289619,-0.0147164,
0.41445,-0.227996,0.0808133,-1.7876,0.149184,-0.173091,-0.383147,0.631244,0.0157211,0.716209,-0.194824,0.55705,0.146891,0.011694,0,0,0,0,0,0,0,0.407119,-0.228171,0.0725884,-1.78541,0.143084,1.3959,0.402104,0.545499,0.0299218,0.625588,-0.118053,0.408205,0.122811,0.000423109,1.09455,-26.9606,-0.237108,25.011,1.46087,1.99212,-0.0365141,-1.33531,0.0604433,-3.00545,-0.257734,0.550775,0.257527,0.254967,1.00847,0.214359,-1.33967,0.54392,-0.289619,-0.0147164,
0.41704,-0.227918,0.0837802,-1.7884,0.151546,-0.172531,-0.383104,0.647507,0.0195395,0.741713,-0.198141,0.590601,0.140098,0.0109127,0,0,0,0,0,0,0,0.407119,-0.228171,0.0725884,-1.78541,0.143084,1.3959,0.402104,0.545499,0.0299218,0.625588,-0.118053,0.408205,0.122811,0.000423109,1.09455,-26.9606,-0.237108,25.011,1.46087,1.99212,-0.0365141,-1.44364,-1.90911,-2.35315,1.15265,0.118239,-0.495871,-0.4427,0.342691,-0.688397,-0.981722,0.330854,-0.239883,-0.0117249,
0.419694,-0.227825,0.0868251,-1.78919,0.153992,-0.171992,-0.383063,0.663537,0.0232474,0.761218,-0.199334,0.611459,0.134547,0.0101587,0,0,0,0,0,0,0,0.407119,-0.228171,0.0725884,-1.78541,0.143084,1.3959,0.402104,0.545499,0.0299218,0.625588,-0.118053,0.408205,0.122811,0.000423109,1.09455,-26.9606,-0.237108,25.011,1.46087,1.99212,-0.0365141,-2.08076,1.0067,-2.57501,-0.813899,-0.100785,0.845408,0.905407,0.736731,0.817656,-1.14618,0.655336,-0.297796,-0.0178863,
0.422401,-0.22772,0.0899331,-1.78999,0.156494,-0.171469,-0.383026,0.676678,0.0264178,0.776996,-0.199662,0.625461,0.130748,0.00942131,0,0,0,0,0,0,0,0.407119,-0.228171,0.0725884,-1.78541,0.143084,1.3959,0.402104,0.545499,0.0299218,0.625588,-0.118053,0.408205,0.122811,0.000423109,1.09455,-26.9606,-0.237108,25.011,1.46087,1.99212,-0.0365141,-2.08076,1.0067,-2.57501,-0.813899,-0.100785,0.845408,0.905407,0.736731,0.817656,-1.14618,0.655336,-0.297796,-0.0178863,
0.425148,-0.227604,0.0930913,-1.79079,0.159044,-0.170955,-0.38299,0.686589,0.029008,0.789548,-0.199667,0.637634,0.128707,0.00883105,0,0,0,0,0,0,0,0.424664,-0.227418,0.0934621,-1.78934,0.155493,1.40047,0.402104,0.532513,0.018972,0.645599,-0.116768,0.341525,0.151934,0.00256687,1.50318,-26.7107,0.389723,25.0348,1.37573,2.11114,-0.0365141,-1.22861,0.913287,-2.85698,-0.822646,0.701333,0.598952,0.636063,1.22646,0.55618,-1.38424,0.692408,-0.354937,-0.0141955,
0.427926,-0.227479,0.0962893,-1.79159,0.161613,-0.170442,-0.382957,0.694691,0.03115,0.799501,-0.199037,0.642127,0.12808,0.00831813,0,0,0,0,0,0,0,0.424664,-0.227418,0.0934621,-1.78934,0.155493,1.40047,0.402104,0.532513,0.018972,0.645599,-0.116768,0.341525,0.151934,0.00256687,1.50318,-26.7107,0.389723,25.0348,1.37573,2.11114,-0.0365141,-1.22861,0.913287,-2.85698,-0.822646,0.701333,0.598952,0.636063,1.22646,0.55618,-1.38424,0.692408,-0.354937,-0.0141955,
0.414516,-0.228006,0.080858,-1.78759,0.148363,-0.17299,-0.383153,0.637517,0.0145506,0.721493,-0.193683,0.462477,0.158605,0.0112124,0,0,0,0,0,0,0,0.424664,-0.227418,0.0934621,-1.78934,0.155493,1.40047,0.402104,0.532513,0.018972,0.645599,-0.116768,0.341525,0.151934,0.00256687,1.50318,-26.7107,0.389723,25.0348,1.37573,2.11114,-0.0365141,-0.513899,-1.64366,-2.84259,0.79283,1.0539,-0.577823,-0.508728,1.0134,-0.785947,-1.33604,0.365256,-0.316728,-0.00915153,
0.431987,-0.227316,0.101821,-1.79143,0.16009,-0.168138,-0.383154,0.633392,0.0106964,0.726018,-0.185457,0.396266,0.181873,0.0110493,0,0,0,0,0,0,0,0.424664,-0.227418,0.0934621,-1.78934,0.155493,1.40047,0.402104,0.532513,0.018972,0.645599,-0.116768,0.341525,0.151934,0.00256687,1.50318,-26.7107,0.389723,25.0348,1.37573,2.11114,-0.0365141,-0.954946,-1.48356,-2.72863,0.659827,0.649939,-0.386789,-0.333877,0.809286,-0.546523,-1.24417,0.33759,-0.302778,-0.0115254,
0.434592,-0.227257,0.104813,-1.79219,0.161704,-0.16743,-0.383113,0.651422,0.0146465,0.747955,-0.188992,0.40363,0.177019,0.0101768,0,0,0,0,0,0,0,0.424664,-0.227418,0.0934621,-1.78934,0.155493,1.40047,0.402104,0.532513,0.018972,0.645599,-0.116768,0.341525,0.151934,0.00256687,1.50318,-26.7107,0.389723,25.0348,1.37573,2.11114,-0.0365141,-0.954946,-1.48356,-2.72863,0.659827,0.649939,-0.386789,-0.333877,0.809286,-0.546523,-1.24417,0.33759,-0.302778,-0.0115254,
0.437253,-0.227184,0.107875,-1.79295,0.163352,-0.166739,-0.383075,0.665254,0.0183209,0.765416,-0.191022,0.412085,0.172767,0.00946052,0,0,0,0,0,0,0,0.424664,-0.227418,0.0934621,-1.78934,0.155493,1.40047,0.402104,0.532513,0.018972,0.645599,-0.116768,0.341525,0.151934,0.00256687,1.50318,-26.7107,0.389723,25.0348,1.37573,2.11114,-0.0365141,-1.54665,1.15296,-2.62641,-1.05261,0.316726,0.800719,0.829165,1.03858,0.812754,-1.24548,0.624912,-0.325241,-0.0149603,
0.439959,-0.227098,0.110992,-1.79372,0.165012,-0.16606,-0.38304,0.676515,0.021569,0.779292,-0.191864,0.414988,0.169574,0.008843,0,0,0,0,0,0,0,0.441276,-0.226733,0.1136,-1.79294,0.166756,1.40548,0.402099,0.525827,0.0184294,0.611069,-0.116178,0.304649,0.178167,-0.00100598,-0.754208,-26.6829,-1.96288,25.7092,1.38122,2.21734,0.00376909,-1.54665,1.15296,-2.62641,-1.05261,0.316726,0.800719,0.829165,1.03858,0.812754,-1.24548,0.624912,-0.325241,-0.0149603,
0.4427,-0.227001,0.114153,-1.79449,0.166669,-0.16539,-0.383007,0.685197,0.0242733,0.790231,-0.192087,0.414261,0.167659,0.00832333,0,0,0,0,0,0,0,0.441276,-0.226733,0.1136,-1.79294,0.166756,1.40548,0.402099,0.525827,0.0184294,0.611069,-0.116178,0.304649,0.178167,-0.00100598,-0.754208,-26.6829,-1.96288,25.7092,1.38122,2.21734,0.00376909,-2.78218,2.89404,-2.40165,-2.13649,-0.57731,1.79931,1.78312,0.820802,1.97151,-1.11297,0.834605,-0.337594,-0.0173866,
0.432212,-0.227337,0.10197,-1.79136,0.157135,-0.167952,-0.383173,0.654252,0.00740505,0.743471,-0.179388,0.059477,0.203492,0.0094987,0,0,0,0,0,0,0,0.441276,-0.226733,0.1136,-1.79294,0.166756,1.40548,0.402099,0.525827,0.0184294,0.611069,-0.116178,0.304649,0.178167,-0.00100598,-0.754208,-26.6829,-1.96288,25.7092,1.38122,2.21734,0.00376909,-2.78218,2.89404,-2.40165,-2.13649,-0.57731,1.79931,1.78312,0.820802,1.97151,-1.11297,0.834605,-0.337594,-0.0173866,
0.448611,-0.226636,0.121908,-1.7949,0.167682,-0.16267,-0.38317,0.637926,0.00874414,0.727438,-0.173381,-0.00457894,0.225941,0.0100453,0,0,0,0,0,0,0,0.441276,-0.226733,0.1136,-1.79294,0.166756,1.40548,0.402099,0.525827,0.0184294,0.611069,-0.116178,0.304649,0.178167,-0.00100598,-0.754208,-26.6829,-1.96288,25.7092,1.38122,2.21734,0.00376909,-0.792116,-0.725843,-2.26913,0.214141,0.606461,-0.117701,-0.0974895,0.795663,-0.211,-1.07079,0.402269,-0.27118,-0.00683355,
0.451235,-0.22659,0.124914,-1.79561,0.167438,-0.161773,-0.383133,0.656085,0.0112901,0.751511,-0.177855,-0.0611429,0.224096,0.00926384,0,0,0,0,0,0,0,0.441276,-0.226733,0.1136,-1.79294,0.166756,1.40548,0.402099,0.525827,0.0184294,0.611069,-0.116178,0.304649,0.178167,-0.00100598,-0.754208,-26.6829,-1.96288,25.7092,1.38122,2.21734,0.00376909,-1.08607,-1.75189,-1.51237,1.08083,0.0164704,-0.412057,-0.353727,0.121398,-0.5881,-0.647806,0.284027,-0.189174,-0.00587695,
0.453913,-0.226535,0.127993,-1.79633,0.167015,-0.16089,-0.383099,0.66952,0.0139373,0.769583,-0.180688,-0.105557,0.220906,0.00865597,0,0,0,0,0,0,0,0.458056,-0.225834,0.13394,-1.79625,0.174712,1.41116,0.402105,0.539371,0.0304466,0.662736,-0.107525,0.204228,0.190044,0.00115478,1.14612,-26.7345,-0.713182,25.733,1.94976,1.97198,-0.050247,-1.08607,-1.75189,-1.51237,1.08083,0.0164704,-0.412057,-0.353727,0.121398,-0.5881,-0.647806,0.284027,-0.189174,-0.00587695,
0.456629,-0.226469,0.131124,-1.79706,0.166458,-0.16002,-0.383066,0.679014,0.0163883,0.782807,-0.182664,-0.139275,0.217498,0.0080219,0,0,0,0,0,0,0,0.458056,-0.225834,0.13394,-1.79625,0.174712,1.41116,0.402105,0.539371,0.0304466,0.662736,-0.107525,0.204228,0.190044,0.00115478,1.14612,-26.7345,-0.713182,25.733,1.94976,1.97198,-0.050247,-1.81343,-0.056253,-1.63682,-0.055964,-0.349471,0.440349,0.494915,0.262905,0.372299,-0.720084,0.493653,-0.228829,-0.00759224,
0.45937,-0.226395,0.134292,-1.7978,0.165804,-0.159162,-0.383036,0.685176,0.0185634,0.792138,-0.184116,-0.163487,0.214435,0.00757266,0,0,0,0,0,0,0,0.458056,-0.225834,0.13394,-1.79625,0.174712,1.41116,0.402105,0.539371,0.0304466,0.662736,-0.107525,0.204228,0.190044,0.00115478,1.14612,-26.7345,-0.713182,25.733,1.94976,1.97198,-0.050247,-1.81343,-0.056253,-1.63682,-0.055964,-0.349471,0.440349,0.494915,0.262905,0.372299,-0.720084,0.493653,-0.228829,-0.00759224,
0.462128,-0.226313,0.137487,-1.79854,0.165061,-0.158314,-0.383007,0.689442,0.0205284,0.798565,-0.184801,-0.185752,0.211862,0.0071953,0,0,0,0,0,0,0,0.458056,-0.225834,0.13394,-1.79625,0.174712,1.41116,0.402105,0.539371,0.0304466,0.662736,-0.107525,0.204228,0.190044,0.00115478,1.14612,-26.7345,-0.713182,25.733,1.94976,1.97198,-0.050247,-1.74691,0.554529,-1.98255,-0.632287,-0.191826,0.664484,0.691317,0.551463,0.674601,-0.896028,0.47421,-0.251906,-0.00679785,
0.448751,-0.226768,0.12193,-1.79492,0.162905,-0.161653,-0.383191,0.642334,-0.00593282,0.728219,-0.176223,-0.528218,0.333927,0.00888152,0,0,0,0,0,0,0,0.458056,-0.225834,0.13394,-1.79625,0.174712,1.41116,0.402105,0.539371,0.0304466,0.662736,-0.107525,0.204228,0.190044,0.00115478,1.14612,-26.7345,-0.713182,25.733,1.94976,1.97198,-0.050247,-0.95557,-1.05281,-1.91618,0.319483,0.134983,-0.129581,-0.0850063,0.419023,-0.204455,-0.82343,0.140778,-0.185304,-0.00629798,
0.465571,-0.225779,0.142445,-1.79822,0.171304,-0.156016,-0.383179,0.640777,0.000353773,0.732985,-0.176825,-0.449714,0.326988,0.00908061,0,0,0,0,0,0,0,0.458056,-0.225834,0.13394,-1.79625,0.174712,1.41116,0.402105,0.539371,0.0304466,0.662736,-0.107525,0.204228,0.190044,0.00115478,1.14612,-26.7345,-0.713182,25.733,1.94976,1.97198,-0.050247,-0.95557,-1.05281,-1.91618,0.319483,0.134983,-0.129581,-0.0850063,0.419023,-0.204455,-0.82343,0.140778,-0.185304,-0.00629798,
0.468158,-0.225778,0.145426,-1.79895,0.169096,-0.15467,-0.383145,0.646571,0.000113352,0.7453,-0.181989,-0.552002,0.336491,0.00856621,0,0,0,0,0,0,0,0.475551,-0.224889,0.154517,-1.79914,0.175551,1.4173,0.402103,0.576127,0.0318437,0.682893,-0.0916245,-0.0146563,0.201054,-0.00114391,-0.528073,-26.8099,-1.8637,25.7092,0.966488,2.09832,-0.0026396,-0.146448,-1.04369,-2.23747,0.0931332,0.707822,-0.334318,-0.28626,0.790442,-0.395171,-0.987698,-0.031816,-0.164061,-0.0097743,
0.470751,-0.225775,0.148433,-1.79969,0.166607,-0.153307,-0.383112,0.648257,0.000878731,0.751742,-0.185342,-0.622252,0.340847,0.00822761,0,0,0,0,0,0,0,0.475551,-0.224889,0.154517,-1.79914,0.175551,1.4173,0.402103,0.576127,0.0318437,0.682893,-0.0916245,-0.0146563,0.201054,-0.00114391,-0.528073,-26.8099,-1.8637,25.7092,0.966488,2.09832,-0.0026396,-0.146448,-1.04369,-2.23747,0.0931332,0.707822,-0.334318,-0.28626,0.790442,-0.395171,-0.987698,-0.031816,-0.164061,-0.0097743,
0.473342,-0.225766,0.15145,-1.80044,0.163907,-0.151938,-0.38308,0.64783,0.00218949,0.754285,-0.187286,-0.674927,0.342228,0.00798723,0,0,0,0,0,0,0,0.475551,-0.224889,0.154517,-1.79914,0.175551,1.4173,0.402103,0.576127,0.0318437,0.682893,-0.0916245,-0.0146563,0.201054,-0.00114391,-0.528073,-26.8099,-1.8637,25.7092,0.966488,2.09832,-0.0026396,-0.45586,0.323027,-2.9304,-1.0987,0.747927,0.27426,0.314135,1.26103,0.333667,-1.32777,0.0110594,-0.228786,-0.0140537,
0.475924,-0.225751,0.154467,-1.80119,0.161051,-0.15057,-0.383049,0.64559,0.00367205,0.754206,-0.188459,-0.714064,0.342029,0.00771004,0,0,0,0,0,0,0,0.475551,-0.224889,0.154517,-1.79914,0.175551,1.4173,0.402103,0.576127,0.0318437,0.682893,-0.0916245,-0.0146563,0.201054,-0.00114391,-0.528073,-26.8099,-1.8637,25.7092,0.966488,2.09832,-0.0026396,-1.21715,0.239623,-2.86536,-1.08943,0.130467,0.492366,0.513192,0.951092,0.60256,-1.25744,-0.044665,-0.248699,-0.0162481,
0.478493,-0.22573,0.157476,-1.80195,0.158079,-0.149206,-0.383019,0.642077,0.0051776,0.752257,-0.189099,-0.743133,0.34098,0.00763138,0,0,0,0,0,0,0,0.475551,-0.224889,0.154517,-1.79914,0.175551,1.4173,0.402103,0.576127,0.0318437,0.682893,-0.0916245,-0.0146563,0.201054,-0.00114391,-0.528073,-26.8099,-1.8637,25.7092,0.966488,2.09832,-0.0026396,-1.21715,0.239623,-2.86536,-1.08943,0.130467,0.492366,0.513192,0.951092,0.60256,-1.25744,-0.044665,-0.248699,-0.0162481,
0.46531,-0.225836,0.142163,-1.79828,0.170687,-0.155738,-0.383189,0.611528,-0.00488689,0.700231,-0.179561,-0.541246,0.35227,0.0086225,0,0,0,0,0,0,0,0.499283,-0.223841,0.182916,-1.80267,0.168766,1.42733,0.402109,0.56737,0.0299426,0.678941,-0.079457,-0.268978,0.270648,0.00116294,-0.57568,-26.7583,-2.51036,25.3839,-0.322574,2.46911,-0.0429228,-1.27387,-1.37236,-2.63777,-0.0641977,-0.165711,-0.0276959,0.0346157,0.479533,-0.00753739,-1.10392,-0.321447,-0.232871,-0.0143554,
0.506428,-0.2239,0.191168,-1.80458,0.161343,-0.139072,-0.383186,0.595915,-0.00990573,0.693533,-0.174509,-0.751836,0.381434,0.008643,0,0,0,0,0,0,0,0.499283,-0.223841,0.182916,-1.80267,0.168766,1.42733,0.402109,0.56737,0.0299426,0.678941,-0.079457,-0.268978,0.270648,0.00116294,-0.57568,-26.7583,-2.51036,25.3839,-0.322574,2.46911,-0.0429228,-1.27387,-1.37236,-2.63777,-0.0641977,-0.165711,-0.0276959,0.0346157,0.479533,-0.00753739,-1.10392,-0.321447,-0.232871,-0.0143554,
0.50879,-0.223941,0.193939,-1.80531,0.158034,-0.137542,-0.383152,0.590358,-0.0101408,0.692775,-0.181227,-0.82731,0.382535,0.00852718,0,0,0,0,0,0,0,0.499283,-0.223841,0.182916,-1.80267,0.168766,1.42733,0.402109,0.56737,0.0299426,0.678941,-0.079457,-0.268978,0.270648,0.00116294,-0.57568,-26.7583,-2.51036,25.3839,-0.322574,2.46911,-0.0429228,-0.663948,-2.30675,-2.55297,0.457988,0.0547419,-0.512314,-0.419467,0.395875,-0.549828,-1.04882,-0.581631,-0.190396,-0.0116045,
0.511122,-0.223977,0.196693,-1.80605,0.154536,-0.136022,-0.383119,0.583138,-0.00907911,0.688505,-0.185508,-0.874481,0.379967,0.00821486,0,0,0,0,0,0,0,0.499283,-0.223841,0.182916,-1.80267,0.168766,1.42733,0.402109,0.56737,0.0299426,0.678941,-0.079457,-0.268978,0.270648,0.00116294,-0.57568,-26.7583,-2.51036,25.3839,-0.322574,2.46911,-0.0429228,-0.663948,-2.30675,-2.55297,0.457988,0.0547419,-0.512314,-0.419467,0.395875,-0.549828,-1.04882,-0.581631,-0.190396,-0.0116045,
0.513423,-0.224006,0.199422,-1.8068,0.150923,-0.134519,-0.383086,0.575145,-0.00735693,0.682239,-0.188258,-0.903258,0.375764,0.00818659,0,0,0,0,0,0,0,0.499283,-0.223841,0.182916,-1.80267,0.168766,1.42733,0.402109,0.56737,0.0299426,0.678941,-0.079457,-0.268978,0.270648,0.00116294,-0.57568,-26.7583,-2.51036,25.3839,-0.322574,2.46911,-0.0429228,-0.535727,-1.24095,-2.78716,-0.394441,0.160419,-0.162219,-0.0951193,0.694,-0.0978831,-1.14998,-0.601955,-0.164333,-0.0158812,
