PerkyPenguin/Analysis-on-Approximated-Derivatives/Code_and_Data/PaperData/Real_Robot/Scene_1/contact_change/10/trajectory.csv
Commanded Joint 0 Position,Commanded Joint 1 Position,Commanded Joint 2 Position,Commanded Joint 3 Position,Commanded Joint 4 Position,Commanded Joint 5 Position,Commanded Joint 6 Position,Commanded Joint 0 Velocity,Commanded Joint 1 Velocity,Commanded Joint 2 Velocity,Commanded Joint 3 Velocity,Commanded Joint 4 Velocity,Commanded Joint 5 Velocity,Commanded Joint 6 Velocity,Commanded Joint 0 Torque,Commanded Joint 1 Torque,Commanded Joint 2 Torque,Commanded Joint 3 Torque,Commanded Joint 4 Torque,Commanded Joint 5 Torque,Commanded Joint 6 Torque,Actual Joint 0 Position,Actual Joint 1 Position,Actual Joint 2 Position,Actual Joint 3 Position,Actual Joint 4 Position,Actual Joint 5 Position,Actual Joint 6 Position,Actual Joint 0 Velocity,Actual Joint 1 Velocity,Actual Joint 2 Velocity,Actual Joint 3 Velocity,Actual Joint 4 Velocity,Actual Joint 5 Velocity,Actual Joint 6 Velocity,Actual Joint 0 Torque,Actual Joint 1 Torque,Actual Joint 2 Torque,Actual Joint 3 Torque,Actual Joint 4 Torque,Actual Joint 5 Torque,Actual Joint 6 Torque,EE ext force 0,EE ext force 1,EE ext force 2,EE ext force 3,EE ext force 4,EE ext force 5,joint ext torque 0,joint ext torque 1,joint ext torque 2,joint ext torque 3,joint ext torque 4,joint ext torque 5,joint ext torque 6,
0.0125136,-0.201978,-0.331646,-1.66027,-0.0929114,-0.0928354,-0.383151,-0.00158075,0.0199146,-0.0118306,-0.152809,0.00136222,0.198615,-0.00217826,0,0,0,0,0,0,0,0.0125083,-0.202073,-0.331554,-1.65871,-0.0928552,1.47597,0.402267,3.06968e-05,0.000150149,0.000834227,4.31316e-05,0.000545794,0.000750093,-0.000189389,-0.0440639,-25.1357,1.91316,25.8084,0.324703,2.97997,-0.0429228,-0.950498,-0.0927116,-0.466721,0.120005,-0.222444,-0.156591,-0.06305,0.0866439,-0.250584,-0.382332,-0.144694,-0.323887,-0.0477128,
0.0125019,-0.201827,-0.331705,-1.66091,-0.0929067,-0.092015,-0.38316,-0.00292664,0.0377398,-0.0148644,-0.16172,0.00117757,0.205101,-0.00206754,0,0,0,0,0,0,0,0.0125066,-0.202072,-0.331556,-1.65871,-0.0928522,1.47596,0.402268,-8.38536e-05,-0.00667842,0.000275207,0.00120711,0.00583978,0.000742407,0.000422549,-0.0202602,-25.1634,1.93696,25.8084,0.288082,3.00652,-0.050247,-1.07123,-0.0724624,-0.411493,0.0909864,-0.339434,-0.168267,-0.0727631,0.010009,-0.258989,-0.34247,-0.149046,-0.319853,-0.0480662,
0.0125059,-0.202141,-0.331555,-1.65867,-0.0927893,-0.0948247,-0.38313,-3.9386e-05,-0.00344979,4.60028e-05,0.00177472,0.0029566,0.000717782,1.01821e-05,0,0,0,0,0,0,0,0.0125066,-0.202072,-0.331556,-1.65871,-0.0928522,1.47596,0.402268,-8.38536e-05,-0.00667842,0.000275207,0.00120711,0.00583978,0.000742407,0.000422549,-0.0202602,-25.1634,1.93696,25.8084,0.288082,3.00652,-0.050247,-1.07123,-0.0724624,-0.411493,0.0909864,-0.339434,-0.168267,-0.0727631,0.010009,-0.258989,-0.34247,-0.149046,-0.319853,-0.0480662,
0.0125058,-0.202154,-0.331554,-1.65867,-0.0927795,-0.0948213,-0.38313,-3.26791e-05,-0.00303999,3.39095e-05,0.00159648,0.00246126,0.000837174,9.20765e-06,0,0,0,0,0,0,0,0.0125066,-0.202072,-0.331556,-1.65871,-0.0928522,1.47596,0.402268,-8.38536e-05,-0.00667842,0.000275207,0.00120711,0.00583978,0.000742407,0.000422549,-0.0202602,-25.1634,1.93696,25.8084,0.288082,3.00652,-0.050247,-0.951788,-0.075551,-0.473752,0.103887,-0.233197,-0.148965,-0.0553457,0.0764409,-0.241047,-0.371796,-0.14426,-0.310941,-0.0474717,
0.0125056,-0.202164,-0.331554,-1.65866,-0.0927713,-0.0948177,-0.38313,-2.69234e-05,-0.00269115,2.25429e-05,0.00143061,0.00204294,0.000900865,8.23553e-06,0,0,0,0,0,0,0,0.0125066,-0.202072,-0.331556,-1.65871,-0.0928522,1.47596,0.402268,-8.38536e-05,-0.00667842,0.000275207,0.00120711,0.00583978,0.000742407,0.000422549,-0.0202602,-25.1634,1.93696,25.8084,0.288082,3.00652,-0.050247,-1.71541,0.199003,-0.692046,-0.0772607,-0.758119,-0.160357,-0.0652188,-0.193048,-0.234866,-0.346362,-0.141043,-0.301869,-0.046821,
0.0125056,-0.202174,-0.331554,-1.65866,-0.0927645,-0.094814,-0.38313,-2.22743e-05,-0.00239189,1.18729e-05,0.00128083,0.00168961,0.00091858,7.39525e-06,0,0,0,0,0,0,0,0.0125066,-0.202072,-0.331556,-1.65871,-0.0928522,1.47596,0.402268,-8.38536e-05,-0.00667842,0.000275207,0.00120711,0.00583978,0.000742407,0.000422549,-0.0202602,-25.1634,1.93696,25.8084,0.288082,3.00652,-0.050247,-1.71541,0.199003,-0.692046,-0.0772607,-0.758119,-0.160357,-0.0652188,-0.193048,-0.234866,-0.346362,-0.141043,-0.301869,-0.046821,
0.0125055,-0.202182,-0.331554,-1.65865,-0.092759,-0.0948104,-0.38313,-1.85937e-05,-0.0021342,1.94748e-06,0.00114707,0.00139083,0.000900983,6.70533e-06,0,0,0,0,0,0,0,0.0125013,-0.202157,-0.331555,-1.65908,-0.0928676,1.47655,0.402271,-0.00106439,-0.00585528,0.00369013,-0.0205437,0.0042701,0.0476889,0.000115264,0.0551182,-24.362,1.88936,25.5069,0.416256,3.13286,-0.0767973,-2.68353,0.157679,-1.33098,0.0265451,-1.27577,-0.346254,-0.241456,-0.38996,-0.442652,-0.459635,-0.1688,-0.297924,-0.0479786,
0.0125054,-0.20219,-0.331554,-1.65865,-0.0927544,-0.094807,-0.38313,-1.5692e-05,-0.00191183,-7.19751e-06,0.00102814,0.00113783,0.000857474,6.15013e-06,0,0,0,0,0,0,0,0.0125013,-0.202157,-0.331555,-1.65908,-0.0928676,1.47655,0.402271,-0.00106439,-0.00585528,0.00369013,-0.0205437,0.0042701,0.0476889,0.000115264,0.0551182,-24.362,1.88936,25.5069,0.416256,3.13286,-0.0767973,-2.68353,0.157679,-1.33098,0.0265451,-1.27577,-0.346254,-0.241456,-0.38996,-0.442652,-0.459635,-0.1688,-0.297924,-0.0479786,
0.0123824,-0.202073,-0.331649,-1.65856,-0.0912558,-0.0957727,-0.383129,-0.0117191,-8.81906e-05,-0.0103499,0.0117052,0.179297,-0.10651,0.000401123,0,0,0,0,0,0,0,0.0125013,-0.202157,-0.331555,-1.65908,-0.0928676,1.47655,0.402271,-0.00106439,-0.00585528,0.00369013,-0.0205437,0.0042701,0.0476889,0.000115264,0.0551182,-24.362,1.88936,25.5069,0.416256,3.13286,-0.0767973,-0.658859,-0.202286,-1.76716,0.385923,0.426525,-0.147436,-0.0465698,0.635321,-0.2952,-0.848808,-0.141049,-0.267671,-0.0488055,
0.0123908,-0.202086,-0.33164,-1.659,-0.0913004,-0.0949252,-0.383127,-0.0106927,0.00588199,-0.00965061,0.00899069,0.176378,-0.0909614,0.00032454,0,0,0,0,0,0,0,0.0125013,-0.202157,-0.331555,-1.65908,-0.0928676,1.47655,0.402271,-0.00106439,-0.00585528,0.00369013,-0.0205437,0.0042701,0.0476889,0.000115264,0.0551182,-24.362,1.88936,25.5069,0.416256,3.13286,-0.0767973,-0.658859,-0.202286,-1.76716,0.385923,0.426525,-0.147436,-0.0465698,0.635321,-0.2952,-0.848808,-0.141049,-0.267671,-0.0488055,
0.0123482,-0.202069,-0.331682,-1.65897,-0.0904697,-0.0953837,-0.383125,-0.0106461,0.0043363,-0.0102894,0.00792384,0.207675,-0.114632,0.000470674,0,0,0,0,0,0,0,0.0125013,-0.202157,-0.331555,-1.65908,-0.0928676,1.47655,0.402271,-0.00106439,-0.00585528,0.00369013,-0.0205437,0.0042701,0.0476889,0.000115264,0.0551182,-24.362,1.88936,25.5069,0.416256,3.13286,-0.0767973,-1.60897,-0.064915,-0.929632,0.132226,-0.671021,-0.256521,-0.154618,-0.143389,-0.359224,-0.362238,-0.147852,-0.213666,-0.0465654,
0.0123079,-0.202057,-0.331722,-1.65894,-0.0895426,-0.0959188,-0.383123,-0.0100742,0.00283596,-0.0101668,0.00656938,0.231769,-0.133768,0.000548823,0,0,0,0,0,0,0,0.0125013,-0.202157,-0.331555,-1.65908,-0.0928676,1.47655,0.402271,-0.00106439,-0.00585528,0.00369013,-0.0205437,0.0042701,0.0476889,0.000115264,0.0551182,-24.362,1.88936,25.5069,0.416256,3.13286,-0.0767973,-0.801377,0.0519762,-1.10155,0.0745466,0.0158634,-0.0591595,0.037105,0.2752,-0.158352,-0.52342,-0.134214,-0.209822,-0.0486535,
0.0122711,-0.202051,-0.331761,-1.65892,-0.0885407,-0.0965164,-0.383121,-0.00921395,0.00156841,-0.00958285,0.00529639,0.250479,-0.1494,0.000588235,0,0,0,0,0,0,0,0.0124897,-0.20205,-0.33157,-1.65904,-0.0925854,1.47672,0.402268,-0.00119526,0.000643336,0.000137309,0.000312733,0.0429722,0.00111083,0.000597958,0.134464,-25.5126,2.06392,25.9552,0.893246,3.03307,-0.050247,-0.801377,0.0519762,-1.10155,0.0745466,0.0158634,-0.0591595,0.037105,0.2752,-0.158352,-0.52342,-0.134214,-0.209822,-0.0486535,
0.0122382,-0.202049,-0.331796,-1.6589,-0.0874803,-0.0971651,-0.383118,-0.00820836,0.000561058,-0.00873284,0.00419146,0.265099,-0.162178,0.000604109,0,0,0,0,0,0,0,0.0124897,-0.20205,-0.33157,-1.65904,-0.0925854,1.47672,0.402268,-0.00119526,0.000643336,0.000137309,0.000312733,0.0429722,0.00111083,0.000597958,0.134464,-25.5126,2.06392,25.9552,0.893246,3.03307,-0.050247,-1.43524,0.185889,-1.06727,0.0291928,-0.481268,-0.11138,-0.0107126,-0.0111089,-0.212312,-0.45898,-0.0781371,-0.23946,-0.048061,
0.0122203,-0.201983,-0.331749,-1.65867,-0.0882728,-0.0978373,-0.383097,-0.0257827,0.0113619,-0.021059,0.0348246,0.523916,-0.415945,0.0032263,0,0,0,0,0,0,0,0.0124897,-0.20205,-0.33157,-1.65904,-0.0925854,1.47672,0.402268,-0.00119526,0.000643336,0.000137309,0.000312733,0.0429722,0.00111083,0.000597958,0.134464,-25.5126,2.06392,25.9552,0.893246,3.03307,-0.050247,-1.43524,0.185889,-1.06727,0.0291928,-0.481268,-0.11138,-0.0107126,-0.0111089,-0.212312,-0.45898,-0.0781371,-0.23946,-0.048061,
0.0122102,-0.201902,-0.331763,-1.65862,-0.0877083,-0.0976849,-0.383102,-0.0252485,0.00886123,-0.0206719,0.0330743,0.542331,-0.406211,0.00311672,0,0,0,0,0,0,0,0.0124897,-0.20205,-0.33157,-1.65904,-0.0925854,1.47672,0.402268,-0.00119526,0.000643336,0.000137309,0.000312733,0.0429722,0.00111083,0.000597958,0.134464,-25.5126,2.06392,25.9552,0.893246,3.03307,-0.050247,-1.65347,-0.0706414,-0.752382,0.227234,-0.788107,-0.264237,-0.153867,-0.247352,-0.392106,-0.31018,-0.0333911,-0.234251,-0.0477597,
0.0121154,-0.201886,-0.331847,-1.65851,-0.0851525,-0.0996057,-0.383088,-0.0237149,0.00390518,-0.0208975,0.026526,0.638963,-0.48021,0.00343382,0,0,0,0,0,0,0,0.0124897,-0.20205,-0.33157,-1.65904,-0.0925854,1.47672,0.402268,-0.00119526,0.000643336,0.000137309,0.000312733,0.0429722,0.00111083,0.000597958,0.134464,-25.5126,2.06392,25.9552,0.893246,3.03307,-0.050247,-0.952277,-0.18833,-0.847436,0.433229,-0.201728,-0.192126,-0.0854129,0.103673,-0.352519,-0.469785,0.0612965,-0.270352,-0.0488948,
0.0120312,-0.201887,-0.331924,-1.65843,-0.0822905,-0.101761,-0.383074,-0.0210281,-0.000199381,-0.0193612,0.0202318,0.715484,-0.538707,0.0036014,0,0,0,0,0,0,0,0.0124351,-0.202015,-0.331634,-1.65894,-0.0900849,1.4766,0.402267,-0.00257294,0.000757513,0.000632551,0.0102322,0.132923,-0.0191419,-0.000428704,0.384403,-25.5602,2.21467,25.983,1.29608,2.80785,-0.0365141,-0.952277,-0.18833,-0.847436,0.433229,-0.201728,-0.192126,-0.0854129,0.103673,-0.352519,-0.469785,0.0612965,-0.270352,-0.0488948,
0.0119603,-0.2019,-0.331992,-1.65837,-0.0791837,-0.1041,-0.383059,-0.0177368,-0.00328748,-0.0167807,0.0147246,0.776711,-0.584982,0.00367991,0,0,0,0,0,0,0,0.0124351,-0.202015,-0.331634,-1.65894,-0.0900849,1.4766,0.402267,-0.00257294,0.000757513,0.000632551,0.0102322,0.132923,-0.0191419,-0.000428704,0.384403,-25.5602,2.21467,25.983,1.29608,2.80785,-0.0365141,-1.06784,-0.2308,-0.422266,0.464466,-0.467088,-0.228894,-0.119522,-0.12362,-0.393582,-0.297826,0.124586,-0.271453,-0.0512423,
0.0119036,-0.201922,-0.332046,-1.65833,-0.0758791,-0.106586,-0.383044,-0.0141782,-0.00545392,-0.013627,0.0100503,0.826147,-0.621359,0.00370191,0,0,0,0,0,0,0,0.0124351,-0.202015,-0.331634,-1.65894,-0.0900849,1.4766,0.402267,-0.00257294,0.000757513,0.000632551,0.0102322,0.132923,-0.0191419,-0.000428704,0.384403,-25.5602,2.21467,25.983,1.29608,2.80785,-0.0365141,-1.06784,-0.2308,-0.422266,0.464466,-0.467088,-0.228894,-0.119522,-0.12362,-0.393582,-0.297826,0.124586,-0.271453,-0.0512423,
0.0118613,-0.201949,-0.332087,-1.65831,-0.0724135,-0.109184,-0.38303,-0.0105644,-0.00685728,-0.0102095,0.00612019,0.86639,-0.649642,0.00368701,0,0,0,0,0,0,0,0.0124351,-0.202015,-0.331634,-1.65894,-0.0900849,1.4766,0.402267,-0.00257294,0.000757513,0.000632551,0.0102322,0.132923,-0.0191419,-0.000428704,0.384403,-25.5602,2.21467,25.983,1.29608,2.80785,-0.0365141,-1.07215,-0.204447,0.0629584,0.502698,-0.631746,-0.214785,-0.0962342,-0.288082,-0.396431,-0.172372,0.242154,-0.32856,-0.0533441,
0.013096,-0.202157,-0.330848,-1.65892,-0.0893606,-0.0995624,-0.382985,0.0730376,-0.0158138,0.0861728,0.00284034,0.369891,-0.633671,0.012018,0,0,0,0,0,0,0,0.0124351,-0.202015,-0.331634,-1.65894,-0.0900849,1.4766,0.402267,-0.00257294,0.000757513,0.000632551,0.0102322,0.132923,-0.0191419,-0.000428704,0.384403,-25.5602,2.21467,25.983,1.29608,2.80785,-0.0365141,-1.07215,-0.204447,0.0629584,0.502698,-0.631746,-0.214785,-0.0962342,-0.288082,-0.396431,-0.172372,0.242154,-0.32856,-0.0533441,
0.0130677,-0.202165,-0.330894,-1.65881,-0.0861655,-0.0997747,-0.382983,0.0755352,-0.0194,0.0880751,0.00292143,0.416117,-0.638896,0.0123442,0,0,0,0,0,0,0,0.0121381,-0.201956,-0.332007,-1.65864,-0.0811308,1.47464,0.402264,-0.0120929,-0.00688348,-0.0110808,0.0117405,0.370364,-0.0888457,-0.000684332,0.967594,-25.2626,2.71455,25.3601,1.81518,2.17797,-0.00996382,-0.324194,-0.219089,0.350162,0.728427,-0.0993473,-0.0881352,0.040629,-0.00811882,-0.325833,-0.289965,0.468095,-0.461439,-0.0522522,
0.0134444,-0.202259,-0.330458,-1.65883,-0.0841838,-0.102853,-0.382935,0.0941588,-0.023577,0.109147,-0.0067282,0.495419,-0.769593,0.0119475,0,0,0,0,0,0,0,0.0121381,-0.201956,-0.332007,-1.65864,-0.0811308,1.47464,0.402264,-0.0120929,-0.00688348,-0.0110808,0.0117405,0.370364,-0.0888457,-0.000684332,0.967594,-25.2626,2.71455,25.3601,1.81518,2.17797,-0.00996382,-0.324194,-0.219089,0.350162,0.728427,-0.0993473,-0.0881352,0.040629,-0.00811882,-0.325833,-0.289965,0.468095,-0.461439,-0.0522522,
0.0138853,-0.202362,-0.329949,-1.6589,-0.0819155,-0.106359,-0.382889,0.110239,-0.0257016,0.127102,-0.0158111,0.567071,-0.876488,0.0115772,0,0,0,0,0,0,0,0.0121381,-0.201956,-0.332007,-1.65864,-0.0811308,1.47464,0.402264,-0.0120929,-0.00688348,-0.0110808,0.0117405,0.370364,-0.0888457,-0.000684332,0.967594,-25.2626,2.71455,25.3601,1.81518,2.17797,-0.00996382,-0.451228,-0.487892,0.473677,1.08398,-0.154387,-0.23436,-0.091564,-0.0248495,-0.534103,-0.365693,0.589756,-0.5986,-0.0466432,
0.014382,-0.202467,-0.329379,-1.65899,-0.0793902,-0.110216,-0.382844,0.124177,-0.0261776,0.142505,-0.0240386,0.631336,-0.964159,0.0112369,0,0,0,0,0,0,0,0.0121381,-0.201956,-0.332007,-1.65864,-0.0811308,1.47464,0.402264,-0.0120929,-0.00688348,-0.0110808,0.0117405,0.370364,-0.0888457,-0.000684332,0.967594,-25.2626,2.71455,25.3601,1.81518,2.17797,-0.00996382,0.0311859,-0.211256,0.504519,0.999826,0.291084,-0.0316517,0.120119,0.259181,-0.345397,-0.529946,0.694436,-0.717687,-0.0374658,
0.0149272,-0.202568,-0.328756,-1.65912,-0.0766356,-0.11436,-0.3828,0.136302,-0.0254079,0.155792,-0.0313682,0.688641,-1.03615,0.0109223,0,0,0,0,0,0,0,0.0121381,-0.201956,-0.332007,-1.65864,-0.0811308,1.47464,0.402264,-0.0120929,-0.00688348,-0.0110808,0.0117405,0.370364,-0.0888457,-0.000684332,0.967594,-25.2626,2.71455,25.3601,1.81518,2.17797,-0.00996382,0.0311859,-0.211256,0.504519,0.999826,0.291084,-0.0316517,0.120119,0.259181,-0.345397,-0.529946,0.694436,-0.717687,-0.0374658,
0.0137989,-0.202526,-0.330152,-1.65937,-0.087512,-0.0995248,-0.382954,0.156253,-0.0531841,0.174182,-0.0506519,0.276557,-0.620982,0.0144797,0,0,0,0,0,0,0,0.0121381,-0.201956,-0.332007,-1.65864,-0.0811308,1.47464,0.402264,-0.0120929,-0.00688348,-0.0110808,0.0117405,0.370364,-0.0888457,-0.000684332,0.967594,-25.2626,2.71455,25.3601,1.81518,2.17797,-0.00996382,-0.243506,0.16079,1.31237,0.584291,-0.158357,0.077003,0.207065,-0.0938991,-0.161626,-0.246429,0.676551,-0.772894,-0.030887,
0.0134965,-0.202573,-0.330571,-1.65911,-0.0767849,-0.102008,-0.382934,0.157735,-0.0611493,0.173269,-0.053399,0.391261,-0.655374,0.0157665,0,0,0,0,0,0,0,0.012136,-0.202114,-0.331873,-1.6584,-0.0718168,1.47064,0.402271,0.00454454,-0.00820451,0.0163083,0.00563784,0.25301,-0.170649,0.000270756,1.72931,-24.7112,4.18641,25.1102,1.31439,1.91887,-0.0429228,-0.243506,0.16079,1.31237,0.584291,-0.158357,0.077003,0.207065,-0.0938991,-0.161626,-0.246429,0.676551,-0.772894,-0.030887,
0.01426,-0.202826,-0.329721,-1.65937,-0.0750208,-0.105143,-0.382875,0.190857,-0.0634315,0.212605,-0.063272,0.441006,-0.783802,0.0147688,0,0,0,0,0,0,0,0.012136,-0.202114,-0.331873,-1.6584,-0.0718168,1.47064,0.402271,0.00454454,-0.00820451,0.0163083,0.00563784,0.25301,-0.170649,0.000270756,1.72931,-24.7112,4.18641,25.1102,1.31439,1.91887,-0.0429228,0.240584,-0.153377,1.46422,0.736254,0.243111,0.0130519,0.101576,0.148689,-0.199462,-0.306596,0.590777,-0.825408,-0.0281118,
0.0151324,-0.203078,-0.328743,-1.65965,-0.0730341,-0.108696,-0.382819,0.218112,-0.0627947,0.244465,-0.0719895,0.496695,-0.888286,0.0139723,0,0,0,0,0,0,0,0.012136,-0.202114,-0.331873,-1.6584,-0.0718168,1.47064,0.402271,0.00454454,-0.00820451,0.0163083,0.00563784,0.25301,-0.170649,0.000270756,1.72931,-24.7112,4.18641,25.1102,1.31439,1.91887,-0.0429228,0.318523,1.26228,1.12802,-0.104667,0.540832,0.656,0.720284,0.426424,0.524367,-0.601794,0.77266,-0.999573,-0.0240424,
0.0160956,-0.203319,-0.32766,-1.65997,-0.0708181,-0.112589,-0.382766,0.240802,-0.0602728,0.270595,-0.0798666,0.553987,-0.973208,0.0133193,0,0,0,0,0,0,0,0.012136,-0.202114,-0.331873,-1.6584,-0.0718168,1.47064,0.402271,0.00454454,-0.00820451,0.0163083,0.00563784,0.25301,-0.170649,0.000270756,1.72931,-24.7112,4.18641,25.1102,1.31439,1.91887,-0.0429228,0.318523,1.26228,1.12802,-0.104667,0.540832,0.656,0.720284,0.426424,0.524367,-0.601794,0.77266,-0.999573,-0.0240424,
0.0171351,-0.203545,-0.326491,-1.66032,-0.0683774,-0.116758,-0.382714,0.259867,-0.0565361,0.29226,-0.0869829,0.610178,-1.04225,0.0127707,0,0,0,0,0,0,0,0.012136,-0.202114,-0.331873,-1.6584,-0.0718168,1.47064,0.402271,0.00454454,-0.00820451,0.0163083,0.00563784,0.25301,-0.170649,0.000270756,1.72931,-24.7112,4.18641,25.1102,1.31439,1.91887,-0.0429228,-0.891101,1.56985,1.15749,-0.351108,-0.340288,0.575227,0.646064,-0.0506298,0.469772,-0.504299,0.745671,-1.06786,-0.0170726,
0.0182391,-0.203753,-0.32525,-1.6607,-0.0657228,-0.121152,-0.382665,0.275999,-0.0520349,0.310387,-0.0933355,0.663657,-1.09843,0.0122982,0,0,0,0,0,0,0,0.0126297,-0.202648,-0.330964,-1.65855,-0.0654081,1.4645,0.402278,0.026029,-0.0268775,0.0478125,-0.0136442,0.159525,-0.186651,0.00130177,2.69336,-25.6593,5.06318,25.8084,1.10656,2.15783,-0.050247,-0.891101,1.56985,1.15749,-0.351108,-0.340288,0.575227,0.646064,-0.0506298,0.469772,-0.504299,0.745671,-1.06786,-0.0170726,
0.0141901,-0.202849,-0.329874,-1.65961,-0.0780486,-0.101774,-0.38294,0.234133,-0.0859313,0.25424,-0.100592,0.260461,-0.637751,0.0154802,0,0,0,0,0,0,0,0.0126297,-0.202648,-0.330964,-1.65855,-0.0654081,1.4645,0.402278,0.026029,-0.0268775,0.0478125,-0.0136442,0.159525,-0.186651,0.00130177,2.69336,-25.6593,5.06318,25.8084,1.10656,2.15783,-0.050247,-1.25309,0.0310611,0.88766,0.571614,-0.472224,-0.179788,-0.0950506,-0.0682936,-0.364138,-0.524051,0.413477,-1.01672,-0.0125659,
0.0149125,-0.203568,-0.328518,-1.65962,-0.0635018,-0.112714,-0.382908,0.24622,-0.0842817,0.270303,-0.106691,0.199298,-0.688902,0.0165969,0,0,0,0,0,0,0,0.0126297,-0.202648,-0.330964,-1.65855,-0.0654081,1.4645,0.402278,0.026029,-0.0268775,0.0478125,-0.0136442,0.159525,-0.186651,0.00130177,2.69336,-25.6593,5.06318,25.8084,1.10656,2.15783,-0.050247,-1.25309,0.0310611,0.88766,0.571614,-0.472224,-0.179788,-0.0950506,-0.0682936,-0.364138,-0.524051,0.413477,-1.01672,-0.0125659,
0.0160642,-0.203901,-0.32724,-1.66009,-0.0624454,-0.115949,-0.382845,0.287921,-0.0831166,0.31946,-0.117097,0.264097,-0.808956,0.0155301,0,0,0,0,0,0,0,0.0126297,-0.202648,-0.330964,-1.65855,-0.0654081,1.4645,0.402278,0.026029,-0.0268775,0.0478125,-0.0136442,0.159525,-0.186651,0.00130177,2.69336,-25.6593,5.06318,25.8084,1.10656,2.15783,-0.050247,-2.1015,-0.944507,1.1429,1.08049,-1.16134,-0.764624,-0.674728,-0.478042,-0.977443,-0.328022,0.179594,-1.0117,-0.00945651,
0.0173536,-0.204217,-0.325802,-1.6606,-0.0611027,-0.119576,-0.382787,0.32234,-0.0791042,0.359463,-0.125951,0.335685,-0.906698,0.0146773,0,0,0,0,0,0,0,0.0126297,-0.202648,-0.330964,-1.65855,-0.0654081,1.4645,0.402278,0.026029,-0.0268775,0.0478125,-0.0136442,0.159525,-0.186651,0.00130177,2.69336,-25.6593,5.06318,25.8084,1.10656,2.15783,-0.050247,-1.18097,0.924334,0.767231,-0.165368,-0.342747,0.235743,0.300547,0.0439297,0.147604,-0.579177,0.36349,-1.02521,-0.0107281,
0.0187578,-0.204511,-0.324233,-1.66113,-0.0594671,-0.12352,-0.382731,0.351056,-0.0734413,0.392402,-0.133825,0.408896,-0.985965,0.0140091,0,0,0,0,0,0,0,0.0126297,-0.202648,-0.330964,-1.65855,-0.0654081,1.4645,0.402278,0.026029,-0.0268775,0.0478125,-0.0136442,0.159525,-0.186651,0.00130177,2.69336,-25.6593,5.06318,25.8084,1.10656,2.15783,-0.050247,-1.18097,0.924334,0.767231,-0.165368,-0.342747,0.235743,0.300547,0.0439297,0.147604,-0.579177,0.36349,-1.02521,-0.0107281,
0.0202587,-0.204778,-0.322554,-1.66169,-0.057545,-0.127721,-0.382677,0.375231,-0.0667281,0.419762,-0.140639,0.480533,-1.05034,0.0133586,0,0,0,0,0,0,0,0.0146364,-0.203726,-0.328527,-1.65919,-0.0574976,1.45516,0.402279,0.0760708,-0.046212,0.0779398,-0.0285051,0.174779,-0.294648,0.000858983,2.01099,-25.338,4.53554,25.4315,1.24115,2.36382,-0.0227812,-1.24822,1.38267,-0.0850151,-0.380747,-0.0626371,0.423722,0.469008,0.348624,0.359714,-0.907917,0.382131,-1.04929,-0.00586495,
0.0155134,-0.203833,-0.327915,-1.66009,-0.0645845,-0.112473,-0.382928,0.312342,-0.10817,0.340205,-0.150699,0.0874197,-0.67034,0.0152546,0,0,0,0,0,0,0,0.0146364,-0.203726,-0.328527,-1.65919,-0.0574976,1.45516,0.402279,0.0760708,-0.046212,0.0779398,-0.0285051,0.174779,-0.294648,0.000858983,2.01099,-25.338,4.53554,25.4315,1.24115,2.36382,-0.0227812,-1.24822,1.38267,-0.0850151,-0.380747,-0.0626371,0.423722,0.469008,0.348624,0.359714,-0.907917,0.382131,-1.04929,-0.00586495,
0.017773,-0.204986,-0.325191,-1.6608,-0.0561421,-0.122676,-0.382897,0.328179,-0.111132,0.357885,-0.154814,0.13694,-0.726909,0.0169933,0,0,0,0,0,0,0,0.0146364,-0.203726,-0.328527,-1.65919,-0.0574976,1.45516,0.402279,0.0760708,-0.046212,0.0779398,-0.0285051,0.174779,-0.294648,0.000858983,2.01099,-25.338,4.53554,25.4315,1.24115,2.36382,-0.0227812,-2.4193,-0.380509,-0.151545,0.64106,-0.956461,-0.566011,-0.49048,-0.164531,-0.721454,-0.686429,0.0180737,-0.932248,0.00042295,
0.0192831,-0.205413,-0.323526,-1.66146,-0.0553557,-0.126028,-0.382834,0.377518,-0.106767,0.41629,-0.165538,0.196603,-0.838013,0.0158001,0,0,0,0,0,0,0,0.0146364,-0.203726,-0.328527,-1.65919,-0.0574976,1.45516,0.402279,0.0760708,-0.046212,0.0779398,-0.0285051,0.174779,-0.294648,0.000858983,2.01099,-25.338,4.53554,25.4315,1.24115,2.36382,-0.0227812,-2.4193,-0.380509,-0.151545,0.64106,-0.956461,-0.566011,-0.49048,-0.164531,-0.721454,-0.686429,0.0180737,-0.932248,0.00042295,
0.0209547,-0.205812,-0.321672,-1.66216,-0.0542839,-0.12972,-0.382775,0.417922,-0.0997053,0.463515,-0.175132,0.267937,-0.92293,0.0148382,0,0,0,0,0,0,0,0.0146364,-0.203726,-0.328527,-1.65919,-0.0574976,1.45516,0.402279,0.0760708,-0.046212,0.0779398,-0.0285051,0.174779,-0.294648,0.000858983,2.01099,-25.338,4.53554,25.4315,1.24115,2.36382,-0.0227812,-2.32777,-0.566667,-0.252071,0.662119,-0.879097,-0.625736,-0.540648,-0.118195,-0.779956,-0.666576,-0.103965,-0.860965,-0.000542844,
0.0227603,-0.206177,-0.319664,-1.6629,-0.0529078,-0.133649,-0.382719,0.451384,-0.0912051,0.502077,-0.18434,0.344024,-0.982134,0.0139774,0,0,0,0,0,0,0,0.0180526,-0.205544,-0.324337,-1.66061,-0.0524717,1.4448,0.402279,0.120725,-0.0687873,0.151184,-0.0641492,0.127734,-0.358217,-0.00128347,2.54261,-24.9611,5.26155,25.2332,1.71081,2.41692,0.017502,-0.736389,1.07927,-0.456767,-0.33185,0.361886,0.376178,0.417071,0.603685,0.32579,-0.934284,0.195556,-0.868304,-0.00120968,
0.024677,-0.206508,-0.317528,-1.66368,-0.0512254,-0.137657,-0.382665,0.479169,-0.0829011,0.533932,-0.196314,0.420597,-1.00212,0.0133705,0,0,0,0,0,0,0,0.0180526,-0.205544,-0.324337,-1.66061,-0.0524717,1.4448,0.402279,0.120725,-0.0687873,0.151184,-0.0641492,0.127734,-0.358217,-0.00128347,2.54261,-24.9611,5.26155,25.2332,1.71081,2.41692,0.017502,-0.736389,1.07927,-0.456767,-0.33185,0.361886,0.376178,0.417071,0.603685,0.32579,-0.934284,0.195556,-0.868304,-0.00120968,
0.0266872,-0.206802,-0.315287,-1.66451,-0.0492472,-0.141665,-0.382614,0.502562,-0.0734504,0.560188,-0.206069,0.494572,-1.0019,0.0128324,0,0,0,0,0,0,0,0.0180526,-0.205544,-0.324337,-1.66061,-0.0524717,1.4448,0.402279,0.120725,-0.0687873,0.151184,-0.0641492,0.127734,-0.358217,-0.00128347,2.54261,-24.9611,5.26155,25.2332,1.71081,2.41692,0.017502,-1.70618,-0.235411,-0.442371,0.597943,-0.405413,-0.378283,-0.31857,0.147891,-0.527625,-0.783365,0.0933755,-0.833594,0.00399698,
0.0185698,-0.205186,-0.325139,-1.6612,-0.0568864,-0.122438,-0.382935,0.402603,-0.128605,0.377829,-0.19402,0.0613797,-0.706759,0.0144893,0,0,0,0,0,0,0,0.0180526,-0.205544,-0.324337,-1.66061,-0.0524717,1.4448,0.402279,0.120725,-0.0687873,0.151184,-0.0641492,0.127734,-0.358217,-0.00128347,2.54261,-24.9611,5.26155,25.2332,1.71081,2.41692,0.017502,-1.70618,-0.235411,-0.442371,0.597943,-0.405413,-0.378283,-0.31857,0.147891,-0.527625,-0.783365,0.0933755,-0.833594,0.00399698,
0.0223069,-0.207025,-0.320411,-1.66272,-0.0517182,-0.13346,-0.382905,0.422859,-0.126232,0.413136,-0.198046,0.0897344,-0.7514,0.0163771,0,0,0,0,0,0,0,0.0180526,-0.205544,-0.324337,-1.66061,-0.0524717,1.4448,0.402279,0.120725,-0.0687873,0.151184,-0.0641492,0.127734,-0.358217,-0.00128347,2.54261,-24.9611,5.26155,25.2332,1.71081,2.41692,0.017502,-2.49956,-1.64798,-1.10441,1.59994,-0.752094,-1.12825,-0.998619,0.0477781,-1.42968,-0.912637,-0.12009,-0.804619,0.0049303,
0.0241976,-0.207504,-0.318499,-1.66357,-0.051108,-0.136797,-0.382844,0.47268,-0.119732,0.477823,-0.212595,0.152553,-0.834095,0.0151486,0,0,0,0,0,0,0,0.0180526,-0.205544,-0.324337,-1.66061,-0.0524717,1.4448,0.402279,0.120725,-0.0687873,0.151184,-0.0641492,0.127734,-0.358217,-0.00128347,2.54261,-24.9611,5.26155,25.2332,1.71081,2.41692,0.017502,-2.49956,-1.64798,-1.10441,1.59994,-0.752094,-1.12825,-0.998619,0.0477781,-1.42968,-0.912637,-0.12009,-0.804619,0.0049303,
0.026251,-0.207949,-0.316376,-1.66448,-0.0501995,-0.140275,-0.382787,0.513361,-0.111127,0.530929,-0.227828,0.227126,-0.869526,0.0143036,0,0,0,0,0,0,0,0.0230022,-0.208362,-0.317969,-1.66311,-0.0509745,1.43312,0.402286,0.185265,-0.089305,0.235637,-0.0834754,0.0821903,-0.414169,-0.00116809,4.69684,-23.9891,7.53877,24.5111,2.22992,1.85937,0.00376909,-3.10663,-0.260972,-0.661643,0.594686,-1.42603,-0.601137,-0.496912,-0.411187,-0.778571,-0.665556,0.0430541,-0.81029,0.0033334,
0.0284393,-0.208349,-0.314076,-1.66544,-0.0489753,-0.143795,-0.382732,0.547058,-0.100055,0.574907,-0.239487,0.306042,-0.880106,0.0136078,0,0,0,0,0,0,0,0.0230022,-0.208362,-0.317969,-1.66311,-0.0509745,1.43312,0.402286,0.185265,-0.089305,0.235637,-0.0834754,0.0821903,-0.414169,-0.00116809,4.69684,-23.9891,7.53877,24.5111,2.22992,1.85937,0.00376909,-1.61575,2.93956,0.104035,-1.67669,-0.643548,1.0722,1.09505,-0.0880553,1.17552,-0.545469,0.43704,-0.810861,-0.00291421,
0.0307398,-0.208699,-0.311628,-1.66643,-0.047437,-0.147301,-0.38268,0.575134,-0.0875752,0.611901,-0.247643,0.384582,-0.876372,0.013022,0,0,0,0,0,0,0,0.0230022,-0.208362,-0.317969,-1.66311,-0.0509745,1.43312,0.402286,0.185265,-0.089305,0.235637,-0.0834754,0.0821903,-0.414169,-0.00116809,4.69684,-23.9891,7.53877,24.5111,2.22992,1.85937,0.00376909,-1.61575,2.93956,0.104035,-1.67669,-0.643548,1.0722,1.09505,-0.0880553,1.17552,-0.545469,0.43704,-0.810861,-0.00291421,
0.0227736,-0.207156,-0.320614,-1.66307,-0.0519321,-0.133217,-0.38296,0.468217,-0.137406,0.396744,-0.233035,0.0683266,-0.730016,0.012559,0,0,0,0,0,0,0,0.0230022,-0.208362,-0.317969,-1.66311,-0.0509745,1.43312,0.402286,0.185265,-0.089305,0.235637,-0.0834754,0.0821903,-0.414169,-0.00116809,4.69684,-23.9891,7.53877,24.5111,2.22992,1.85937,0.00376909,-1.53001,1.72474,0.434913,-0.874727,-0.700565,0.540203,0.548838,-0.182786,0.585136,-0.408609,0.335863,-0.776716,-0.00194525,
0.0282563,-0.210021,-0.31361,-1.66563,-0.050209,-0.145077,-0.382926,0.504086,-0.139043,0.439166,-0.242042,0.10626,-0.692702,0.0140677,0,0,0,0,0,0,0,0.0230022,-0.208362,-0.317969,-1.66311,-0.0509745,1.43312,0.402286,0.185265,-0.089305,0.235637,-0.0834754,0.0821903,-0.414169,-0.00116809,4.69684,-23.9891,7.53877,24.5111,2.22992,1.85937,0.00376909,-1.53001,1.72474,0.434913,-0.874727,-0.700565,0.540203,0.548838,-0.182786,0.585136,-0.408609,0.335863,-0.776716,-0.00194525,
0.0304698,-0.210538,-0.311623,-1.66667,-0.0495066,-0.147969,-0.382874,0.553371,-0.129128,0.496879,-0.259697,0.175581,-0.723194,0.0131855,0,0,0,0,0,0,0,0.0325766,-0.212392,-0.307877,-1.66764,-0.0497804,1.41664,0.402298,0.240599,-0.10284,0.309386,-0.119579,0.0250087,-0.390485,-0.000212338,4.74842,-24.1121,7.03889,24.4357,2.23632,2.12487,-0.0227812,-2.70507,-0.93858,-0.166392,1.03454,-1.32979,-0.825174,-0.722549,-0.458871,-1.04126,-0.493801,0.0409573,-0.769009,0.00362188,
0.0328483,-0.211001,-0.309445,-1.66776,-0.0484988,-0.15091,-0.382824,0.59464,-0.115865,0.544509,-0.27119,0.251953,-0.735153,0.012514,0,0,0,0,0,0,0,0.0325766,-0.212392,-0.307877,-1.66764,-0.0497804,1.41664,0.402298,0.240599,-0.10284,0.309386,-0.119579,0.0250087,-0.390485,-0.000212338,4.74842,-24.1121,7.03889,24.4357,2.23632,2.12487,-0.0227812,-2.35075,0.220366,-0.895944,0.421104,-0.776123,-0.242459,-0.130692,-0.0181981,-0.434727,-0.863307,0.242589,-0.829854,-0.000610401,
0.0353669,-0.211407,-0.307107,-1.66887,-0.0471801,-0.15385,-0.382776,0.629646,-0.101292,0.584435,-0.278743,0.32969,-0.735032,0.0119775,0,0,0,0,0,0,0,0.0325766,-0.212392,-0.307877,-1.66764,-0.0497804,1.41664,0.402298,0.240599,-0.10284,0.309386,-0.119579,0.0250087,-0.390485,-0.000212338,4.74842,-24.1121,7.03889,24.4357,2.23632,2.12487,-0.0227812,-2.35075,0.220366,-0.895944,0.421104,-0.776123,-0.242459,-0.130692,-0.0181981,-0.434727,-0.863307,0.242589,-0.829854,-0.000610401,
0.0380055,-0.211753,-0.304634,-1.67001,-0.0455586,-0.156758,-0.382729,0.659646,-0.086584,0.618334,-0.283699,0.40537,-0.726897,0.0115354,0,0,0,0,0,0,0,0.0325766,-0.212392,-0.307877,-1.66764,-0.0497804,1.41664,0.402298,0.240599,-0.10284,0.309386,-0.119579,0.0250087,-0.390485,-0.000212338,4.74842,-24.1121,7.03889,24.4357,2.23632,2.12487,-0.0227812,-2.01628,2.52911,-0.139562,-1.18649,-0.868298,0.838935,0.872745,-0.18586,0.866347,-0.617082,0.58053,-0.834224,-0.00566378,
0.0407477,-0.212042,-0.302044,-1.67115,-0.0436505,-0.159611,-0.382685,0.685562,-0.0723883,0.647414,-0.286871,0.477028,-0.713381,0.0111631,0,0,0,0,0,0,0,0.0325766,-0.212392,-0.307877,-1.66764,-0.0497804,1.41664,0.402298,0.240599,-0.10284,0.309386,-0.119579,0.0250087,-0.390485,-0.000212338,4.74842,-24.1121,7.03889,24.4357,2.23632,2.12487,-0.0227812,-2.01628,2.52911,-0.139562,-1.18649,-0.868298,0.838935,0.872745,-0.18586,0.866347,-0.617082,0.58053,-0.834224,-0.00566378,
0.0282516,-0.210098,-0.3136,-1.66593,-0.0501972,-0.145014,-0.382975,0.503752,-0.144864,0.439703,-0.270201,0.107873,-0.69739,0.0105771,0,0,0,0,0,0,0,0.0419763,-0.215622,-0.299412,-1.67205,-0.0498336,1.40665,0.402306,0.342444,-0.101302,0.294319,-0.161187,-0.000898559,-0.299388,0.000791375,5.20465,-23.4654,7.26106,24.5627,2.25464,2.33727,-0.050247,-2.87336,0.880408,0.0476698,-0.0955289,-1.6207,-0.0185092,0.0577544,-0.676596,-0.117807,-0.385553,0.400086,-0.771312,-0.00296959,
0.0479833,-0.217102,-0.294202,-1.67517,-0.0488327,-0.169698,-0.382948,0.554552,-0.118708,0.496945,-0.285524,0.151392,-0.517431,0.0112921,0,0,0,0,0,0,0,0.0419763,-0.215622,-0.299412,-1.67205,-0.0498336,1.40665,0.402306,0.342444,-0.101302,0.294319,-0.161187,-0.000898559,-0.299388,0.000791375,5.20465,-23.4654,7.26106,24.5627,2.25464,2.33727,-0.050247,-2.87336,0.880408,0.0476698,-0.0955289,-1.6207,-0.0185092,0.0577544,-0.676596,-0.117807,-0.385553,0.400086,-0.771312,-0.00296959,
0.0503678,-0.217528,-0.292021,-1.67636,-0.0479082,-0.171881,-0.382905,0.596127,-0.106666,0.545176,-0.297983,0.231133,-0.545936,0.0106476,0,0,0,0,0,0,0,0.0419763,-0.215622,-0.299412,-1.67205,-0.0498336,1.40665,0.402306,0.342444,-0.101302,0.294319,-0.161187,-0.000898559,-0.299388,0.000791375,5.20465,-23.4654,7.26106,24.5627,2.25464,2.33727,-0.050247,-2.93094,-0.945086,-1.11386,1.32241,-1.21416,-0.83245,-0.683633,-0.293353,-1.15079,-0.797091,0.230606,-0.750884,-0.000770999,
0.052893,-0.2179,-0.289679,-1.67758,-0.0466611,-0.174124,-0.382865,0.6313,-0.0930291,0.585544,-0.305961,0.311752,-0.560684,0.010125,0,0,0,0,0,0,0,0.0419763,-0.215622,-0.299412,-1.67205,-0.0498336,1.40665,0.402306,0.342444,-0.101302,0.294319,-0.161187,-0.000898559,-0.299388,0.000791375,5.20465,-23.4654,7.26106,24.5627,2.25464,2.33727,-0.050247,-1.24435,1.15065,-1.18553,-0.0843425,0.0280928,0.346574,0.437227,0.421279,0.193622,-0.98432,0.50714,-0.70592,-0.00576888,
0.0555385,-0.218217,-0.2872,-1.67883,-0.0451015,-0.176386,-0.382826,0.661377,-0.0791207,0.619754,-0.311148,0.389922,-0.565443,0.00967809,0,0,0,0,0,0,0,0.0419763,-0.215622,-0.299412,-1.67205,-0.0498336,1.40665,0.402306,0.342444,-0.101302,0.294319,-0.161187,-0.000898559,-0.299388,0.000791375,5.20465,-23.4654,7.26106,24.5627,2.25464,2.33727,-0.050247,-1.24435,1.15065,-1.18553,-0.0843425,0.0280928,0.346574,0.437227,0.421279,0.193622,-0.98432,0.50714,-0.70592,-0.00576888,
0.0582878,-0.218479,-0.284604,-1.68009,-0.0432465,-0.178638,-0.382789,0.687308,-0.0656285,0.649038,-0.314449,0.46374,-0.562952,0.00927437,0,0,0,0,0,0,0,0.0419763,-0.215622,-0.299412,-1.67205,-0.0498336,1.40665,0.402306,0.342444,-0.101302,0.294319,-0.161187,-0.000898559,-0.299388,0.000791375,5.20465,-23.4654,7.26106,24.5627,2.25464,2.33727,-0.050247,-0.29774,3.02461,-0.57595,-1.47731,0.494659,1.31641,1.32093,0.617753,1.37636,-0.859727,0.693501,-0.691295,-0.0112552,
0.0457651,-0.216627,-0.29619,-1.67403,-0.0494383,-0.167628,-0.382993,0.504655,-0.126547,0.438472,-0.265128,0.0781122,-0.470273,0.0121105,0,0,0,0,0,0,0,0.0538489,-0.219416,-0.289239,-1.67737,-0.0490614,1.39727,0.402305,0.360093,-0.120503,0.311925,-0.192806,0.0116842,-0.243005,-0.000760665,4.56989,-23.5408,6.51124,23.8882,1.77856,2.31072,-0.0026396,-0.29774,3.02461,-0.57595,-1.47731,0.494659,1.31641,1.32093,0.617753,1.37636,-0.859727,0.693501,-0.691295,-0.0112552,
0.0599925,-0.220932,-0.283886,-1.68055,-0.0478175,-0.177902,-0.382929,0.564201,-0.117314,0.506852,-0.282661,0.172005,-0.414608,0.0127404,0,0,0,0,0,0,0,0.0538489,-0.219416,-0.289239,-1.67737,-0.0490614,1.39727,0.402305,0.360093,-0.120503,0.311925,-0.192806,0.0116842,-0.243005,-0.000760665,4.56989,-23.5408,6.51124,23.8882,1.77856,2.31072,-0.0026396,-1.69654,0.652331,-0.917422,0.135552,-0.44617,0.0737892,0.151725,0.0933287,-0.0712578,-0.770596,0.393114,-0.644606,-0.00737643,
0.0624111,-0.221347,-0.28167,-1.68172,-0.0468163,-0.179685,-0.382882,0.604631,-0.103835,0.553933,-0.290781,0.250283,-0.445884,0.0118524,0,0,0,0,0,0,0,0.0538489,-0.219416,-0.289239,-1.67737,-0.0490614,1.39727,0.402305,0.360093,-0.120503,0.311925,-0.192806,0.0116842,-0.243005,-0.000760665,4.56989,-23.5408,6.51124,23.8882,1.77856,2.31072,-0.0026396,-1.69654,0.652331,-0.917422,0.135552,-0.44617,0.0737892,0.151725,0.0933287,-0.0712578,-0.770596,0.393114,-0.644606,-0.00737643,
0.0649666,-0.221706,-0.279296,-1.6829,-0.0455002,-0.181548,-0.382837,0.638881,-0.0898255,0.593438,-0.296212,0.329047,-0.465607,0.011113,0,0,0,0,0,0,0,0.0538489,-0.219416,-0.289239,-1.67737,-0.0490614,1.39727,0.402305,0.360093,-0.120503,0.311925,-0.192806,0.0116842,-0.243005,-0.000760665,4.56989,-23.5408,6.51124,23.8882,1.77856,2.31072,-0.0026396,-2.60847,-0.808702,-1.76209,1.23444,-0.8095,-0.685678,-0.538518,-0.00961565,-1.00371,-0.972244,0.240277,-0.643931,-0.00844456,
0.0676393,-0.222011,-0.276789,-1.6841,-0.0438789,-0.183452,-0.382795,0.668173,-0.0761089,0.626939,-0.299969,0.405308,-0.47614,0.0105773,0,0,0,0,0,0,0,0.0538489,-0.219416,-0.289239,-1.67737,-0.0490614,1.39727,0.402305,0.360093,-0.120503,0.311925,-0.192806,0.0116842,-0.243005,-0.000760665,4.56989,-23.5408,6.51124,23.8882,1.77856,2.31072,-0.0026396,-0.688278,1.44531,-1.68868,-0.249766,0.668439,0.569866,0.632868,0.876608,0.439203,-1.25119,0.559597,-0.709753,-0.0170321,
0.0704129,-0.222263,-0.274166,-1.68531,-0.0419696,-0.18537,-0.382754,0.69341,-0.0630759,0.655604,-0.302518,0.477319,-0.479494,0.0101548,0,0,0,0,0,0,0,0.0663073,-0.223276,-0.277605,-1.68376,-0.0478258,1.39065,0.402313,0.399029,-0.124662,0.354769,-0.210313,0.0126747,-0.147819,0.000111768,1.70551,-23.6162,3.83729,24.7095,1.19171,2.2503,-0.0227812,-0.688278,1.44531,-1.68868,-0.249766,0.668439,0.569866,0.632868,0.876608,0.439203,-1.25119,0.559597,-0.709753,-0.0170321,
0.0577357,-0.220463,-0.285913,-1.67942,-0.0485055,-0.176243,-0.38298,0.51582,-0.12847,0.45006,-0.269418,0.0991304,-0.369509,0.0138309,0,0,0,0,0,0,0,0.0663073,-0.223276,-0.277605,-1.68376,-0.0478258,1.39065,0.402313,0.399029,-0.124662,0.354769,-0.210313,0.0126747,-0.147819,0.000111768,1.70551,-23.6162,3.83729,24.7095,1.19171,2.2503,-0.0227812,-0.507113,0.707351,-1.05267,0.153882,0.59577,0.25737,0.291907,0.733513,0.124044,-1.03356,0.460965,-0.706155,-0.0162152,
0.0727583,-0.224709,-0.271899,-1.68691,-0.0462885,-0.183432,-0.382916,0.585444,-0.108748,0.531072,-0.275036,0.202043,-0.326953,0.0131664,0,0,0,0,0,0,0,0.0663073,-0.223276,-0.277605,-1.68376,-0.0478258,1.39065,0.402313,0.399029,-0.124662,0.354769,-0.210313,0.0126747,-0.147819,0.000111768,1.70551,-23.6162,3.83729,24.7095,1.19171,2.2503,-0.0227812,-0.507113,0.707351,-1.05267,0.153882,0.59577,0.25737,0.291907,0.733513,0.124044,-1.03356,0.460965,-0.706155,-0.0162152,
0.0752495,-0.225091,-0.269601,-1.68804,-0.0451619,-0.184882,-0.382866,0.622792,-0.0954207,0.574549,-0.281532,0.281653,-0.362273,0.0122979,0,0,0,0,0,0,0,0.0663073,-0.223276,-0.277605,-1.68376,-0.0478258,1.39065,0.402313,0.399029,-0.124662,0.354769,-0.210313,0.0126747,-0.147819,0.000111768,1.70551,-23.6162,3.83729,24.7095,1.19171,2.2503,-0.0227812,-1.80068,-0.936603,-1.5427,1.20978,-0.198222,-0.609004,-0.473476,0.324685,-0.912806,-1.02653,0.168707,-0.678537,-0.0157868,
0.0778677,-0.225419,-0.267156,-1.68918,-0.0437216,-0.186427,-0.38282,0.65455,-0.0820417,0.611193,-0.286143,0.360083,-0.386385,0.0116185,0,0,0,0,0,0,0,0.0663073,-0.223276,-0.277605,-1.68376,-0.0478258,1.39065,0.402313,0.399029,-0.124662,0.354769,-0.210313,0.0126747,-0.147819,0.000111768,1.70551,-23.6162,3.83729,24.7095,1.19171,2.2503,-0.0227812,-1.80068,-0.936603,-1.5427,1.20978,-0.198222,-0.609004,-0.473476,0.324685,-0.912806,-1.02653,0.168707,-0.678537,-0.0157868,
0.0805948,-0.225696,-0.264587,-1.69034,-0.0419815,-0.188032,-0.382776,0.68178,-0.0691484,0.642371,-0.289499,0.435027,-0.401309,0.0110549,0,0,0,0,0,0,0,0.0663073,-0.223276,-0.277605,-1.68376,-0.0478258,1.39065,0.402313,0.399029,-0.124662,0.354769,-0.210313,0.0126747,-0.147819,0.000111768,1.70551,-23.6162,3.83729,24.7095,1.19171,2.2503,-0.0227812,-1.40211,0.23462,-1.30861,0.432034,0.0241834,-0.0309391,0.0871186,0.441893,-0.251077,-1.01939,0.345805,-0.705998,-0.018948,
0.0834159,-0.225924,-0.261911,-1.69151,-0.0399608,-0.189668,-0.382733,0.705283,-0.0569887,0.669111,-0.291881,0.505171,-0.408834,0.0105801,0,0,0,0,0,0,0,0.0799408,-0.226808,-0.26522,-1.69026,-0.0457523,1.38653,0.402319,0.444416,-0.101146,0.383762,-0.200662,0.036367,-0.0853047,0.000338219,-0.932736,-24.5128,1.51246,26.4551,1.06353,2.36382,-0.0365141,-1.61955,0.130761,0.715173,0.347269,-0.934816,-0.111514,-0.0741419,-0.429276,-0.219755,-0.206578,0.392237,-0.674672,-0.0183991,
0.0704165,-0.224274,-0.274024,-1.68581,-0.0470967,-0.182125,-0.382968,0.540992,-0.120818,0.478946,-0.265052,0.125087,-0.278597,0.0143152,0,0,0,0,0,0,0,0.0799408,-0.226808,-0.26522,-1.69026,-0.0457523,1.38653,0.402319,0.444416,-0.101146,0.383762,-0.200662,0.036367,-0.0853047,0.000338219,-0.932736,-24.5128,1.51246,26.4551,1.06353,2.36382,-0.0365141,-1.61955,0.130761,0.715173,0.347269,-0.934816,-0.111514,-0.0741419,-0.429276,-0.219755,-0.206578,0.392237,-0.674672,-0.0183991,
0.0866853,-0.228023,-0.259184,-1.69334,-0.0437829,-0.186724,-0.382907,0.606062,-0.0925476,0.554447,-0.268999,0.239712,-0.258452,0.0134762,0,0,0,0,0,0,0,0.0799408,-0.226808,-0.26522,-1.69026,-0.0457523,1.38653,0.402319,0.444416,-0.101146,0.383762,-0.200662,0.036367,-0.0853047,0.000338219,-0.932736,-24.5128,1.51246,26.4551,1.06353,2.36382,-0.0365141,-1.62656,-0.154763,0.731126,0.422478,-0.978195,-0.218056,-0.138845,-0.472409,-0.352889,-0.140784,0.249862,-0.615409,-0.0196555,
0.0892478,-0.228347,-0.256805,-1.69444,-0.0425089,-0.18791,-0.382857,0.640617,-0.0809593,0.594717,-0.274973,0.318492,-0.296356,0.0126084,0,0,0,0,0,0,0,0.0799408,-0.226808,-0.26522,-1.69026,-0.0457523,1.38653,0.402319,0.444416,-0.101146,0.383762,-0.200662,0.036367,-0.0853047,0.000338219,-0.932736,-24.5128,1.51246,26.4551,1.06353,2.36382,-0.0365141,-1.62656,-0.154763,0.731126,0.422478,-0.978195,-0.218056,-0.138845,-0.472409,-0.352889,-0.140784,0.249862,-0.615409,-0.0196555,
0.0919279,-0.228624,-0.25429,-1.69556,-0.0409284,-0.189203,-0.382809,0.670041,-0.0692144,0.628731,-0.27913,0.39513,-0.323268,0.0119002,0,0,0,0,0,0,0,0.0799408,-0.226808,-0.26522,-1.69026,-0.0457523,1.38653,0.402319,0.444416,-0.101146,0.383762,-0.200662,0.036367,-0.0853047,0.000338219,-0.932736,-24.5128,1.51246,26.4551,1.06353,2.36382,-0.0365141,-2.24794,-0.360114,-0.166781,0.631284,-1.10807,-0.358057,-0.226678,-0.413534,-0.56565,-0.40786,0.214462,-0.623369,-0.0170163,
0.0947091,-0.228855,-0.251659,-1.69669,-0.0390574,-0.190566,-0.382764,0.695299,-0.0578391,0.657721,-0.282125,0.46774,-0.340934,0.01131,0,0,0,0,0,0,0,0.094232,-0.229424,-0.2518,-1.69678,-0.0428148,1.38438,0.402324,0.469434,-0.0751604,0.410513,-0.183485,0.094269,-0.0534293,0.000647052,-0.476498,-24.8857,1.68703,25.8084,1.09466,2.35009,-0.0365141,-2.24794,-0.360114,-0.166781,0.631284,-1.10807,-0.358057,-0.226678,-0.413534,-0.56565,-0.40786,0.214462,-0.623369,-0.0170163,
0.0975776,-0.229043,-0.248929,-1.69782,-0.0369163,-0.191971,-0.382721,0.717118,-0.0470695,0.682618,-0.284228,0.535288,-0.351034,0.0108098,0,0,0,0,0,0,0,0.094232,-0.229424,-0.2518,-1.69678,-0.0428148,1.38438,0.402324,0.469434,-0.0751604,0.410513,-0.183485,0.094269,-0.0534293,0.000647052,-0.476498,-24.8857,1.68703,25.8084,1.09466,2.35009,-0.0365141,-1.3948,1.74339,0.0568658,-0.751274,-0.521815,0.672222,0.731812,-0.0435626,0.645234,-0.487403,0.514999,-0.668359,-0.0174332,
0.100522,-0.229192,-0.246112,-1.69897,-0.0345271,-0.193391,-0.382679,0.73606,-0.0370115,0.704136,-0.285575,0.597295,-0.355018,0.0103801,0,0,0,0,0,0,0,0.094232,-0.229424,-0.2518,-1.69678,-0.0428148,1.38438,0.402324,0.469434,-0.0751604,0.410513,-0.183485,0.094269,-0.0534293,0.000647052,-0.476498,-24.8857,1.68703,25.8084,1.09466,2.35009,-0.0365141,-1.76212,0.623851,-0.115255,0.0281491,-0.704225,0.132597,0.193553,-0.14453,0.0279219,-0.517846,0.403792,-0.685264,-0.0141564,
0.0842611,-0.227653,-0.261402,-1.69227,-0.0447417,-0.18569,-0.382961,0.565017,-0.102741,0.506281,-0.259439,0.161984,-0.208364,0.0145198,0,0,0,0,0,0,0,0.094232,-0.229424,-0.2518,-1.69678,-0.0428148,1.38438,0.402324,0.469434,-0.0751604,0.410513,-0.183485,0.094269,-0.0534293,0.000647052,-0.476498,-24.8857,1.68703,25.8084,1.09466,2.35009,-0.0365141,-1.76212,0.623851,-0.115255,0.0281491,-0.704225,0.132597,0.193553,-0.14453,0.0279219,-0.517846,0.403792,-0.685264,-0.0141564,
0.101201,-0.230437,-0.24551,-1.69977,-0.0402337,-0.188316,-0.382899,0.622406,-0.0782,0.572941,-0.263063,0.286626,-0.209476,0.0137409,0,0,0,0,0,0,0,0.094232,-0.229424,-0.2518,-1.69678,-0.0428148,1.38438,0.402324,0.469434,-0.0751604,0.410513,-0.183485,0.094269,-0.0534293,0.000647052,-0.476498,-24.8857,1.68703,25.8084,1.09466,2.35009,-0.0365141,-1.95304,-1.1145,-1.13533,1.22129,-0.466395,-0.659302,-0.54521,0.0843837,-0.934325,-0.828163,0.163223,-0.649711,-0.0107132,
0.103821,-0.23071,-0.243066,-1.70085,-0.0387891,-0.189305,-0.382847,0.655006,-0.0682775,0.611056,-0.268889,0.361164,-0.247375,0.0128397,0,0,0,0,0,0,0,0.094232,-0.229424,-0.2518,-1.69678,-0.0428148,1.38438,0.402324,0.469434,-0.0751604,0.410513,-0.183485,0.094269,-0.0534293,0.000647052,-0.476498,-24.8857,1.68703,25.8084,1.09466,2.35009,-0.0365141,-1.95304,-1.1145,-1.13533,1.22129,-0.466395,-0.659302,-0.54521,0.0843837,-0.934325,-0.828163,0.163223,-0.649711,-0.0107132,
0.106552,-0.230942,-0.240493,-1.70194,-0.0370544,-0.190404,-0.382799,0.682728,-0.0579675,0.643226,-0.272746,0.433651,-0.274774,0.0121036,0,0,0,0,0,0,0,0.109304,-0.231395,-0.23785,-1.70253,-0.0392513,1.3839,0.40233,0.491148,-0.0578724,0.464851,-0.161256,0.189534,-0.0159585,0.000891332,2.3125,-24.0129,4.21419,24.162,1.87011,2.05163,-0.050247,-2.04912,-0.619002,-1.58839,0.959963,-0.355544,-0.434527,-0.324819,0.233349,-0.694018,-1.01298,0.269057,-0.671837,-0.0132905,
0.109378,-0.231133,-0.23781,-1.70304,-0.0350452,-0.191577,-0.382753,0.7065,-0.0478704,0.670622,-0.275434,0.502303,-0.293147,0.0114889,0,0,0,0,0,0,0,0.109304,-0.231395,-0.23785,-1.70253,-0.0392513,1.3839,0.40233,0.491148,-0.0578724,0.464851,-0.161256,0.189534,-0.0159585,0.000891332,2.3125,-24.0129,4.21419,24.162,1.87011,2.05163,-0.050247,-2.04912,-0.619002,-1.58839,0.959963,-0.355544,-0.434527,-0.324819,0.233349,-0.694018,-1.01298,0.269057,-0.671837,-0.0132905,
0.112286,-0.231286,-0.235034,-1.70415,-0.0327807,-0.192793,-0.382709,0.727016,-0.0382497,0.694132,-0.277263,0.566143,-0.304058,0.0109661,0,0,0,0,0,0,0,0.109304,-0.231395,-0.23785,-1.70253,-0.0392513,1.3839,0.40233,0.491148,-0.0578724,0.464851,-0.161256,0.189534,-0.0159585,0.000891332,2.3125,-24.0129,4.21419,24.162,1.87011,2.05163,-0.050247,-1.23714,1.82261,-0.789737,-0.666527,-0.0264164,0.737665,0.772812,0.388153,0.691814,-0.868972,0.630114,-0.704991,-0.017024,
0.115265,-0.231403,-0.232176,-1.70526,-0.0302818,-0.194029,-0.382667,0.744811,-0.0292249,0.714436,-0.27838,0.624718,-0.308906,0.0105169,0,0,0,0,0,0,0,0.109304,-0.231395,-0.23785,-1.70253,-0.0392513,1.3839,0.40233,0.491148,-0.0578724,0.464851,-0.161256,0.189534,-0.0159585,0.000891332,2.3125,-24.0129,4.21419,24.162,1.87011,2.05163,-0.050247,-1.87209,0.0775791,-0.752348,0.426615,-0.514716,-0.0903742,-0.0426186,0.049238,-0.233869,-0.748935,0.367499,-0.69008,-0.0153136,
0.0987114,-0.230124,-0.247802,-1.69872,-0.0413802,-0.187478,-0.382953,0.583607,-0.0862756,0.527315,-0.253047,0.213067,-0.160566,0.0148308,0,0,0,0,0,0,0,0.109304,-0.231395,-0.23785,-1.70253,-0.0392513,1.3839,0.40233,0.491148,-0.0578724,0.464851,-0.161256,0.189534,-0.0159585,0.000891332,2.3125,-24.0129,4.21419,24.162,1.87011,2.05163,-0.050247,-1.87209,0.0775791,-0.752348,0.426615,-0.514716,-0.0903742,-0.0426186,0.049238,-0.233869,-0.748935,0.367499,-0.69008,-0.0153136,
0.116598,-0.232281,-0.231174,-1.70538,-0.0356946,-0.188186,-0.382895,0.646006,-0.0691095,0.600423,-0.253216,0.361493,-0.157331,0.0135196,0,0,0,0,0,0,0,0.125105,-0.233035,-0.222603,-1.7083,-0.0347945,1.38389,0.402333,0.471686,-0.0485251,0.465852,-0.170786,0.173451,-0.00279962,0.0014822,4.01447,-24.3382,5.06318,23.9636,1.78405,2.13128,-0.0767973,-2.30839,0.178551,-1.67432,0.341328,-0.482575,-0.0355622,0.0926145,0.225315,-0.240873,-1.05625,0.309209,-0.700324,-0.0211336,
0.1193,-0.232521,-0.228634,-1.70642,-0.0339775,-0.188966,-0.382844,0.675602,-0.0600589,0.635049,-0.259531,0.42926,-0.195212,0.0126496,0,0,0,0,0,0,0,0.125105,-0.233035,-0.222603,-1.7083,-0.0347945,1.38389,0.402333,0.471686,-0.0485251,0.465852,-0.170786,0.173451,-0.00279962,0.0014822,4.01447,-24.3382,5.06318,23.9636,1.78405,2.13128,-0.0767973,-2.30839,0.178551,-1.67432,0.341328,-0.482575,-0.0355622,0.0926145,0.225315,-0.240873,-1.05625,0.309209,-0.700324,-0.0211336,
0.122103,-0.232723,-0.225977,-1.70748,-0.0319971,-0.189859,-0.382796,0.700748,-0.050502,0.664275,-0.263616,0.495095,-0.223133,0.0119403,0,0,0,0,0,0,0,0.125105,-0.233035,-0.222603,-1.7083,-0.0347945,1.38389,0.402333,0.471686,-0.0485251,0.465852,-0.170786,0.173451,-0.00279962,0.0014822,4.01447,-24.3382,5.06318,23.9636,1.78405,2.13128,-0.0767973,-2.64881,-0.336421,-1.54007,0.872356,-0.689551,-0.29788,-0.177383,0.0818746,-0.570007,-1.07225,0.450495,-0.811917,-0.0197233,
0.124992,-0.232888,-0.22322,-1.70854,-0.0297676,-0.190828,-0.382751,0.722301,-0.0410972,0.689165,-0.266432,0.557391,-0.242319,0.0113477,0,0,0,0,0,0,0,0.125105,-0.233035,-0.222603,-1.7083,-0.0347945,1.38389,0.402333,0.471686,-0.0485251,0.465852,-0.170786,0.173451,-0.00279962,0.0014822,4.01447,-24.3382,5.06318,23.9636,1.78405,2.13128,-0.0767973,-2.64881,-0.336421,-1.54007,0.872356,-0.689551,-0.29788,-0.177383,0.0818746,-0.570007,-1.07225,0.450495,-0.811917,-0.0197233,
0.127956,-0.233016,-0.220378,-1.70961,-0.0273065,-0.191845,-0.382708,0.740893,-0.0321233,0.710521,-0.268352,0.615273,-0.254215,0.0108413,0,0,0,0,0,0,0,0.125105,-0.233035,-0.222603,-1.7083,-0.0347945,1.38389,0.402333,0.471686,-0.0485251,0.465852,-0.170786,0.173451,-0.00279962,0.0014822,4.01447,-24.3382,5.06318,23.9636,1.78405,2.13128,-0.0767973,-1.3749,0.979764,-1.33757,-0.0134656,0.275893,0.370795,0.417705,0.680348,0.226365,-1.2233,0.626182,-0.871854,-0.0191654,
0.130984,-0.233111,-0.217462,-1.71069,-0.0246331,-0.192886,-0.382666,0.757014,-0.0237027,0.728965,-0.269546,0.668339,-0.260155,0.0104047,0,0,0,0,0,0,0,0.125105,-0.233035,-0.222603,-1.7083,-0.0347945,1.38389,0.402333,0.471686,-0.0485251,0.465852,-0.170786,0.173451,-0.00279962,0.0014822,4.01447,-24.3382,5.06318,23.9636,1.78405,2.13128,-0.0767973,-1.3749,0.979764,-1.33757,-0.0134656,0.275893,0.370795,0.417705,0.680348,0.226365,-1.2233,0.626182,-0.871854,-0.0191654,
0.114013,-0.232005,-0.233576,-1.70437,-0.0371405,-0.187556,-0.382949,0.610694,-0.076002,0.559002,-0.241997,0.294535,-0.109571,0.0145974,0,0,0,0,0,0,0,0.147066,-0.234449,-0.201238,-1.71558,-0.0262064,1.38435,0.402338,0.52521,-0.00862094,0.489693,-0.156308,0.254244,0.00607871,9.72942e-06,2.41565,-25.0881,3.68654,25.1855,1.75384,1.98571,-0.0301054,-2.4177,-0.0149617,-1.29627,0.497637,-0.59855,-0.107847,-0.0316821,0.128933,-0.28768,-1.00246,0.377838,-0.797913,-0.0178381,
0.154605,-0.234893,-0.194275,-1.71846,-0.0219595,-0.187305,-0.38289,0.663803,-0.0367119,0.621716,-0.255807,0.413675,-0.117836,0.013333,0,0,0,0,0,0,0,0.147066,-0.234449,-0.201238,-1.71558,-0.0262064,1.38435,0.402338,0.52521,-0.00862094,0.489693,-0.156308,0.254244,0.00607871,9.72942e-06,2.41565,-25.0881,3.68654,25.1855,1.75384,1.98571,-0.0301054,-3.87462,-0.292446,-0.504983,0.62218,-2.07324,-0.267508,-0.155894,-0.858565,-0.445369,-0.482551,0.324577,-0.744159,-0.0185207,
0.157371,-0.235018,-0.191658,-1.7195,-0.0200553,-0.187924,-0.38284,0.691359,-0.0310839,0.6542,-0.261353,0.476053,-0.154732,0.0124886,0,0,0,0,0,0,0,0.147066,-0.234449,-0.201238,-1.71558,-0.0262064,1.38435,0.402338,0.52521,-0.00862094,0.489693,-0.156308,0.254244,0.00607871,9.72942e-06,2.41565,-25.0881,3.68654,25.1855,1.75384,1.98571,-0.0301054,-3.87462,-0.292446,-0.504983,0.62218,-2.07324,-0.267508,-0.155894,-0.858565,-0.445369,-0.482551,0.324577,-0.744159,-0.0185207,
0.16023,-0.235116,-0.188932,-1.72056,-0.0179082,-0.188653,-0.382793,0.714728,-0.0245308,0.681583,-0.264539,0.536783,-0.182223,0.0117942,0,0,0,0,0,0,0,0.147066,-0.234449,-0.201238,-1.71558,-0.0262064,1.38435,0.402338,0.52521,-0.00862094,0.489693,-0.156308,0.254244,0.00607871,9.72942e-06,2.41565,-25.0881,3.68654,25.1855,1.75384,1.98571,-0.0301054,-2.34139,1.87372,-0.446977,-0.781615,-0.900544,0.795439,0.879416,-0.098363,0.744667,-0.686906,0.623995,-0.760621,-0.0228913,
0.163168,-0.235187,-0.186113,-1.72163,-0.0155308,-0.189458,-0.382748,0.734717,-0.0178018,0.704866,-0.266468,0.594342,-0.201301,0.0112118,0,0,0,0,0,0,0,0.147066,-0.234449,-0.201238,-1.71558,-0.0262064,1.38435,0.402338,0.52521,-0.00862094,0.489693,-0.156308,0.254244,0.00607871,9.72942e-06,2.41565,-25.0881,3.68654,25.1855,1.75384,1.98571,-0.0301054,-2.34139,1.87372,-0.446977,-0.781615,-0.900544,0.795439,0.879416,-0.098363,0.744667,-0.686906,0.623995,-0.760621,-0.0228913,
0.166176,-0.235232,-0.183213,-1.7227,-0.0129393,-0.190311,-0.382706,0.751927,-0.0112243,0.724812,-0.267564,0.647881,-0.2133,0.0107198,0,0,0,0,0,0,0,0.162971,-0.234607,-0.186046,-1.72032,-0.0189814,1.38469,0.40234,0.521632,-0.0034656,0.510562,-0.148067,0.23397,0.0162995,0.000593164,2.03479,-25.2626,3.13905,24.2889,0.893246,2.18438,-0.0365141,-1.68431,1.00469,-0.625986,-0.13172,-0.300792,0.405713,0.440118,0.222418,0.310102,-0.831234,0.608578,-0.773703,-0.0190757,
0.169243,-0.235252,-0.180245,-1.72377,-0.0101513,-0.191189,-0.382664,0.766819,-0.00495351,0.74201,-0.268012,0.696998,-0.219496,0.0102793,0,0,0,0,0,0,0,0.162971,-0.234607,-0.186046,-1.72032,-0.0189814,1.38469,0.40234,0.521632,-0.0034656,0.510562,-0.148067,0.23397,0.0162995,0.000593164,2.03479,-25.2626,3.13905,24.2889,0.893246,2.18438,-0.0365141,-2.17205,-1.13647,-0.730022,1.19001,-0.757097,-0.569796,-0.478897,-0.17276,-0.813902,-0.649268,0.266773,-0.639368,-0.0145774,
0.15195,-0.234746,-0.196762,-1.71744,-0.0236142,-0.186834,-0.382944,0.630876,-0.0395569,0.58282,-0.244832,0.352189,-0.0721498,0.0143555,0,0,0,0,0,0,0,0.162971,-0.234607,-0.186046,-1.72032,-0.0189814,1.38469,0.40234,0.521632,-0.0034656,0.510562,-0.148067,0.23397,0.0162995,0.000593164,2.03479,-25.2626,3.13905,24.2889,0.893246,2.18438,-0.0365141,-2.17205,-1.13647,-0.730022,1.19001,-0.757097,-0.569796,-0.478897,-0.17276,-0.813902,-0.649268,0.266773,-0.639368,-0.0145774,
0.170564,-0.234995,-0.178994,-1.72311,-0.0148457,-0.186706,-0.382884,0.667488,-0.0321649,0.627425,-0.248737,0.408551,-0.0923985,0.0135968,0,0,0,0,0,0,0,0.162971,-0.234607,-0.186046,-1.72032,-0.0189814,1.38469,0.40234,0.521632,-0.0034656,0.510562,-0.148067,0.23397,0.0162995,0.000593164,2.03479,-25.2626,3.13905,24.2889,0.893246,2.18438,-0.0365141,-2.13809,-1.75389,-1.28394,1.56915,-0.57071,-0.83231,-0.701627,-0.0366098,-1.14876,-0.794235,0.163223,-0.580878,-0.0155533,
0.173342,-0.235102,-0.176359,-1.72413,-0.0129532,-0.187213,-0.382833,0.694335,-0.0267488,0.658959,-0.254276,0.473135,-0.1267,0.0127343,0,0,0,0,0,0,0,0.162971,-0.234607,-0.186046,-1.72032,-0.0189814,1.38469,0.40234,0.521632,-0.0034656,0.510562,-0.148067,0.23397,0.0162995,0.000593164,2.03479,-25.2626,3.13905,24.2889,0.893246,2.18438,-0.0365141,-2.13809,-1.75389,-1.28394,1.56915,-0.57071,-0.83231,-0.701627,-0.0366098,-1.14876,-0.794235,0.163223,-0.580878,-0.0155533,
0.17621,-0.235184,-0.173616,-1.72516,-0.0108123,-0.187822,-0.382785,0.717168,-0.0204447,0.685646,-0.257409,0.535206,-0.152305,0.0120246,0,0,0,0,0,0,0,0.179938,-0.234549,-0.169455,-1.72526,-0.00940828,1.38486,0.402342,0.525669,0.00159736,0.480282,-0.150649,0.267538,0.00124945,-0.000445508,0.00751081,-25.8855,1.43709,25.5069,0.850216,2.26403,-0.0163725,-1.9587,1.60395,-1.16046,-0.641975,-0.46874,0.722132,0.785506,0.197488,0.666916,-0.835138,0.585049,-0.590177,-0.0221112,
0.179157,-0.235239,-0.170782,-1.7262,-0.0084382,-0.188502,-0.38274,0.736744,-0.0139877,0.708408,-0.259274,0.593531,-0.170038,0.0114083,0,0,0,0,0,0,0,0.179938,-0.234549,-0.169455,-1.72526,-0.00940828,1.38486,0.402342,0.525669,0.00159736,0.480282,-0.150649,0.267538,0.00124945,-0.000445508,0.00751081,-25.8855,1.43709,25.5069,0.850216,2.26403,-0.0163725,-1.9587,1.60395,-1.16046,-0.641975,-0.46874,0.722132,0.785506,0.197488,0.666916,-0.835138,0.585049,-0.590177,-0.0221112,
0.182172,-0.23527,-0.167871,-1.72724,-0.00584838,-0.189226,-0.382696,0.753627,-0.00769195,0.727957,-0.260308,0.647456,-0.181111,0.0108999,0,0,0,0,0,0,0,0.179938,-0.234549,-0.169455,-1.72526,-0.00940828,1.38486,0.402342,0.525669,0.00159736,0.480282,-0.150649,0.267538,0.00124945,-0.000445508,0.00751081,-25.8855,1.43709,25.5069,0.850216,2.26403,-0.0163725,-2.27652,3.84956,-1.05159,-2.19935,-0.747214,1.76635,1.76659,0.179517,1.92705,-0.802947,0.792639,-0.592154,-0.0254071,
0.185245,-0.235277,-0.164891,-1.72828,-0.00306154,-0.189973,-0.382654,0.768257,-0.00170201,0.744844,-0.260704,0.696711,-0.186711,0.0104443,0,0,0,0,0,0,0,0.179938,-0.234549,-0.169455,-1.72526,-0.00940828,1.38486,0.402342,0.525669,0.00159736,0.480282,-0.150649,0.267538,0.00124945,-0.000445508,0.00751081,-25.8855,1.43709,25.5069,0.850216,2.26403,-0.0163725,-1.72688,-0.404805,-1.62769,0.60489,-0.180279,-0.189759,-0.163623,0.297908,-0.330291,-0.926105,0.29916,-0.510823,-0.0181103,
0.167894,-0.234866,-0.181504,-1.72212,-0.0164799,-0.186336,-0.382939,0.635496,-0.034843,0.589867,-0.237651,0.343561,-0.0502701,0.0146419,0,0,0,0,0,0,0,0.179938,-0.234549,-0.169455,-1.72526,-0.00940828,1.38486,0.402342,0.525669,0.00159736,0.480282,-0.150649,0.267538,0.00124945,-0.000445508,0.00751081,-25.8855,1.43709,25.5069,0.850216,2.26403,-0.0163725,-1.72688,-0.404805,-1.62769,0.60489,-0.180279,-0.189759,-0.163623,0.297908,-0.330291,-0.926105,0.29916,-0.510823,-0.0181103,
0.187438,-0.234864,-0.162523,-1.72803,-0.00507998,-0.18654,-0.382875,0.661317,-0.026404,0.620476,-0.245614,0.416987,-0.0862825,0.014203,0,0,0,0,0,0,0,0.179938,-0.234549,-0.169455,-1.72526,-0.00940828,1.38486,0.402342,0.525669,0.00159736,0.480282,-0.150649,0.267538,0.00124945,-0.000445508,0.00751081,-25.8855,1.43709,25.5069,0.850216,2.26403,-0.0163725,-2.06885,-1.15383,-1.68843,1.02286,-0.493707,-0.504625,-0.404504,0.0634986,-0.728102,-0.826599,0.137338,-0.437997,-0.0173507,
0.190196,-0.23495,-0.159907,-1.72904,-0.00317289,-0.187002,-0.382822,0.689523,-0.0213674,0.653875,-0.250418,0.476772,-0.115505,0.0132366,0,0,0,0,0,0,0,0.196839,-0.234407,-0.153028,-1.73004,-0.000207823,1.38514,0.402347,0.554538,0.00513565,0.546239,-0.156109,0.329126,0.0053997,-3.68637e-05,2.41565,-25.8855,3.53578,24.5111,2.07794,1.73394,-0.0227812,-2.06885,-1.15383,-1.68843,1.02286,-0.493707,-0.504625,-0.404504,0.0634986,-0.728102,-0.826599,0.137338,-0.437997,-0.0173507,
0.19305,-0.235012,-0.157179,-1.73005,-0.00103087,-0.18755,-0.382772,0.713398,-0.0154523,0.68198,-0.252987,0.535506,-0.136985,0.0124513,0,0,0,0,0,0,0,0.196839,-0.234407,-0.153028,-1.73004,-0.000207823,1.38514,0.402347,0.554538,0.00513565,0.546239,-0.156109,0.329126,0.0053997,-3.68637e-05,2.41565,-25.8855,3.53578,24.5111,2.07794,1.73394,-0.0227812,-2.18042,-0.594051,-1.89685,0.714598,-0.42783,-0.242586,-0.15462,0.185246,-0.440434,-0.966322,0.284141,-0.499043,-0.0164572,
0.195985,-0.235049,-0.154356,-1.73107,0.00133533,-0.188155,-0.382725,0.733771,-0.00937241,0.705825,-0.254399,0.591548,-0.151409,0.0117728,0,0,0,0,0,0,0,0.196839,-0.234407,-0.153028,-1.73004,-0.000207823,1.38514,0.402347,0.554538,0.00513565,0.546239,-0.156109,0.329126,0.0053997,-3.68637e-05,2.41565,-25.8855,3.53578,24.5111,2.07794,1.73394,-0.0227812,-2.18042,-0.594051,-1.89685,0.714598,-0.42783,-0.242586,-0.15462,0.185246,-0.440434,-0.966322,0.284141,-0.499043,-0.0164572,
0.198989,-0.235063,-0.151451,-1.73209,0.00391145,-0.188795,-0.38268,0.751043,-0.00343087,0.726329,-0.255067,0.64403,-0.159855,0.0111883,0,0,0,0,0,0,0,0.196839,-0.234407,-0.153028,-1.73004,-0.000207823,1.38514,0.402347,0.554538,0.00513565,0.546239,-0.156109,0.329126,0.0053997,-3.68637e-05,2.41565,-25.8855,3.53578,24.5111,2.07794,1.73394,-0.0227812,-2.38852,3.3872,-1.68771,-1.96757,-0.58312,1.60829,1.61319,0.381563,1.74091,-1.00932,0.7127,-0.563382,-0.0228265,
0.184793,-0.234759,-0.165004,-1.72705,-0.00674793,-0.186195,-0.382932,0.627605,-0.028778,0.580433,-0.235583,0.358785,-0.0502794,0.0153111,0,0,0,0,0,0,0,0.196839,-0.234407,-0.153028,-1.73004,-0.000207823,1.38514,0.402347,0.554538,0.00513565,0.546239,-0.156109,0.329126,0.0053997,-3.68637e-05,2.41565,-25.8855,3.53578,24.5111,2.07794,1.73394,-0.0227812,-1.73116,-0.225066,-1.8336,0.356536,-0.103811,-0.0574846,-0.0261372,0.401216,-0.16869,-1.00149,0.251456,-0.498963,-0.0164522,
0.204707,-0.234627,-0.145639,-1.73277,0.00489606,-0.186108,-0.382881,0.687159,-0.0178349,0.652021,-0.241216,0.480851,-0.0682573,0.013427,0,0,0,0,0,0,0,0.214553,-0.234355,-0.135943,-1.73533,0.00905657,1.386,0.402352,0.565493,-0.00399113,0.567085,-0.17135,0.337547,0.0247983,0.000365037,1.47541,-26.0362,1.86159,24.6619,1.41784,2.01226,-0.0301054,-1.73116,-0.225066,-1.8336,0.356536,-0.103811,-0.0574846,-0.0261372,0.401216,-0.16869,-1.00149,0.251456,-0.498963,-0.0164522,
0.207554,-0.234679,-0.142916,-1.73376,0.00704491,-0.18648,-0.38283,0.711607,-0.0129897,0.680836,-0.245571,0.537211,-0.0931102,0.0125879,0,0,0,0,0,0,0,0.214553,-0.234355,-0.135943,-1.73533,0.00905657,1.386,0.402352,0.565493,-0.00399113,0.567085,-0.17135,0.337547,0.0247983,0.000365037,1.47541,-26.0362,1.86159,24.6619,1.41784,2.01226,-0.0301054,-1.32943,-2.93388,-2.08895,2.12449,0.24443,-1.30045,-1.20608,0.418082,-1.63788,-1.04459,-0.0656579,-0.456445,-0.0130927,
0.210482,-0.234709,-0.140095,-1.73475,0.00941151,-0.186925,-0.382783,0.732162,-0.00745176,0.705339,-0.247846,0.591649,-0.111172,0.0118787,0,0,0,0,0,0,0,0.214553,-0.234355,-0.135943,-1.73533,0.00905657,1.386,0.402352,0.565493,-0.00399113,0.567085,-0.17135,0.337547,0.0247983,0.000365037,1.47541,-26.0362,1.86159,24.6619,1.41784,2.01226,-0.0301054,-1.32943,-2.93388,-2.08895,2.12449,0.24443,-1.30045,-1.20608,0.418082,-1.63788,-1.04459,-0.0656579,-0.456445,-0.0130927,
0.213465,-0.234716,-0.137181,-1.73574,0.0119897,-0.187417,-0.382738,0.745759,-0.0017493,0.728467,-0.249072,0.644551,-0.123004,0.0111465,0,0,0,0,0,0,0,0.214553,-0.234355,-0.135943,-1.73533,0.00905657,1.386,0.402352,0.565493,-0.00399113,0.567085,-0.17135,0.337547,0.0247983,0.000365037,1.47541,-26.0362,1.86159,24.6619,1.41784,2.01226,-0.0301054,-1.93561,0.132363,-2.10714,0.0960531,-0.110991,0.140625,0.201194,0.487104,0.027026,-1.128,0.304266,-0.532847,-0.0173344,
0.216491,-0.234701,-0.134187,-1.73674,0.0147664,-0.187936,-0.382696,0.756363,0.00378252,0.748324,-0.249567,0.694166,-0.129601,0.0105149,0,0,0,0,0,0,0,0.214553,-0.234355,-0.135943,-1.73533,0.00905657,1.386,0.402352,0.565493,-0.00399113,0.567085,-0.17135,0.337547,0.0247983,0.000365037,1.47541,-26.0362,1.86159,24.6619,1.41784,2.01226,-0.0301054,-1.54915,1.15913,-2.15622,-0.608898,0.245883,0.599613,0.604919,0.792608,0.589293,-1.2409,0.421004,-0.56312,-0.0179503,
0.219549,-0.234665,-0.131126,-1.73774,0.0177262,-0.188463,-0.382656,0.764573,0.0090007,0.765413,-0.249525,0.739955,-0.131874,0.00998756,0,0,0,0,0,0,0,0.214553,-0.234355,-0.135943,-1.73533,0.00905657,1.386,0.402352,0.565493,-0.00399113,0.567085,-0.17135,0.337547,0.0247983,0.000365037,1.47541,-26.0362,1.86159,24.6619,1.41784,2.01226,-0.0301054,-1.54915,1.15913,-2.15622,-0.608898,0.245883,0.599613,0.604919,0.792608,0.589293,-1.2409,0.421004,-0.56312,-0.0179503,
0.201958,-0.234556,-0.148247,-1.73181,0.00297266,-0.185835,-0.382934,0.658045,-0.0204334,0.617722,-0.232082,0.424343,-0.0375247,0.0143943,0,0,0,0,0,0,0,0.231682,-0.234294,-0.118871,-1.74029,0.0188693,1.38702,0.402351,0.532499,0.00639835,0.535641,-0.157804,0.305091,0.0412618,0.000391822,2.92347,-26.4845,3.26204,25.134,1.49109,1.99853,-0.0163725,-1.88876,0.945079,-1.71208,-0.542399,-0.290166,0.548311,0.625786,0.380934,0.50168,-0.938626,0.299607,-0.466809,-0.0179833,
0.239412,-0.234453,-0.111611,-1.74296,0.0236683,-0.183819,-0.382869,0.677407,-0.0122889,0.643517,-0.234798,0.455735,-0.0338248,0.0139509,0,0,0,0,0,0,0,0.231682,-0.234294,-0.118871,-1.74029,0.0188693,1.38702,0.402351,0.532499,0.00639835,0.535641,-0.157804,0.305091,0.0412618,0.000391822,2.92347,-26.4845,3.26204,25.134,1.49109,1.99853,-0.0163725,-1.88876,0.945079,-1.71208,-0.542399,-0.290166,0.548311,0.625786,0.380934,0.50168,-0.938626,0.299607,-0.466809,-0.0179833,
0.242209,-0.234483,-0.108905,-1.74392,0.0257265,-0.184051,-0.382818,0.699123,-0.00749404,0.67648,-0.239069,0.514541,-0.058031,0.0129087,0,0,0,0,0,0,0,0.231682,-0.234294,-0.118871,-1.74029,0.0188693,1.38702,0.402351,0.532499,0.00639835,0.535641,-0.157804,0.305091,0.0412618,0.000391822,2.92347,-26.4845,3.26204,25.134,1.49109,1.99853,-0.0163725,-1.30394,-2.56885,-1.33585,1.88494,-0.0997579,-1.09731,-0.994346,0.0740312,-1.4034,-0.689977,0.00420196,-0.374326,-0.0125607,
0.245074,-0.234491,-0.106088,-1.74488,0.0280148,-0.184354,-0.38277,0.716411,-0.00211118,0.704385,-0.241376,0.572089,-0.0757852,0.0120232,0,0,0,0,0,0,0,0.231682,-0.234294,-0.118871,-1.74029,0.0188693,1.38702,0.402351,0.532499,0.00639835,0.535641,-0.157804,0.305091,0.0412618,0.000391822,2.92347,-26.4845,3.26204,25.134,1.49109,1.99853,-0.0163725,-1.36116,0.863929,-1.31653,-0.358191,-0.0795603,0.477588,0.515044,0.378815,0.428072,-0.77804,0.426939,-0.398741,-0.0192498,
0.247995,-0.234478,-0.103175,-1.74585,0.0305224,-0.184704,-0.382725,0.730181,0.00328798,0.728111,-0.242624,0.626883,-0.087617,0.0112862,0,0,0,0,0,0,0,0.231682,-0.234294,-0.118871,-1.74029,0.0188693,1.38702,0.402351,0.532499,0.00639835,0.535641,-0.157804,0.305091,0.0412618,0.000391822,2.92347,-26.4845,3.26204,25.134,1.49109,1.99853,-0.0163725,-1.36116,0.863929,-1.31653,-0.358191,-0.0795603,0.477588,0.515044,0.378815,0.428072,-0.77804,0.426939,-0.398741,-0.0192498,
0.250959,-0.234444,-0.100182,-1.74683,0.0332345,-0.185082,-0.382682,0.741102,0.00846393,0.748382,-0.243165,0.678034,-0.0944237,0.0106494,0,0,0,0,0,0,0,0.249473,-0.233902,-0.10089,-1.74527,0.0309128,1.38771,0.402355,0.549093,0.0130429,0.538075,-0.15756,0.333776,0.0237385,0.000241027,-0.655026,-27.032,0.139784,26.106,1.04522,2.15142,-0.00996382,-1.44237,1.37146,-0.86548,-0.677226,-0.338772,0.713582,0.707313,0.192871,0.740959,-0.576223,0.486971,-0.362782,-0.0170939,
0.253958,-0.234391,-0.0971187,-1.7478,0.0361349,-0.18547,-0.382642,0.749655,0.0133092,0.765798,-0.243161,0.725094,-0.0970914,0.0100882,0,0,0,0,0,0,0,0.249473,-0.233902,-0.10089,-1.74527,0.0309128,1.38771,0.402355,0.549093,0.0130429,0.538075,-0.15756,0.333776,0.0237385,0.000241027,-0.655026,-27.032,0.139784,26.106,1.04522,2.15142,-0.00996382,-1.44237,1.37146,-0.86548,-0.677226,-0.338772,0.713582,0.707313,0.192871,0.740959,-0.576223,0.486971,-0.362782,-0.0170939,
0.236702,-0.234403,-0.114185,-1.74202,0.0218454,-0.183683,-0.382925,0.646783,-0.0150572,0.606956,-0.226209,0.398754,-0.00390299,0.0150142,0,0,0,0,0,0,0,0.249473,-0.233902,-0.10089,-1.74527,0.0309128,1.38771,0.402355,0.549093,0.0130429,0.538075,-0.15756,0.333776,0.0237385,0.000241027,-0.655026,-27.032,0.139784,26.106,1.04522,2.15142,-0.00996382,-1.68016,0.48192,-1.22953,-0.215736,-0.510315,0.350741,0.40909,0.0606322,0.302014,-0.568712,0.26626,-0.26052,-0.0158047,
0.257219,-0.233976,-0.0935111,-1.74792,0.0360267,-0.183136,-0.382868,0.673567,-0.00532904,0.654942,-0.23205,0.480678,-0.0275355,0.0136593,0,0,0,0,0,0,0,0.249473,-0.233902,-0.10089,-1.74527,0.0309128,1.38771,0.402355,0.549093,0.0130429,0.538075,-0.15756,0.333776,0.0237385,0.000241027,-0.655026,-27.032,0.139784,26.106,1.04522,2.15142,-0.00996382,-1.68016,0.48192,-1.22953,-0.215736,-0.510315,0.350741,0.40909,0.0606322,0.302014,-0.568712,0.26626,-0.26052,-0.0158047,
0.259994,-0.233979,-0.0907644,-1.74886,0.0381754,-0.183323,-0.382818,0.693895,-0.000895048,0.686675,-0.235821,0.537186,-0.0467405,0.0126733,0,0,0,0,0,0,0,0.249473,-0.233902,-0.10089,-1.74527,0.0309128,1.38771,0.402355,0.549093,0.0130429,0.538075,-0.15756,0.333776,0.0237385,0.000241027,-0.655026,-27.032,0.139784,26.106,1.04522,2.15142,-0.00996382,-1.44138,-1.15517,-1.8082,0.905835,-0.116267,-0.415043,-0.316776,0.211614,-0.624265,-0.772069,0.171578,-0.255897,-0.0119586,
0.262835,-0.233963,-0.0879106,-1.74981,0.0405445,-0.183566,-0.38277,0.710168,0.00404759,0.713443,-0.237714,0.592283,-0.0605515,0.0118315,0,0,0,0,0,0,0,0.249473,-0.233902,-0.10089,-1.74527,0.0309128,1.38771,0.402355,0.549093,0.0130429,0.538075,-0.15756,0.333776,0.0237385,0.000241027,-0.655026,-27.032,0.139784,26.106,1.04522,2.15142,-0.00996382,-1.76723,0.57298,-1.79427,-0.14811,-0.26322,0.389269,0.429157,0.301188,0.315916,-0.832325,0.478115,-0.311462,-0.0149929,
0.265728,-0.233927,-0.0849659,-1.75077,0.043123,-0.183843,-0.382726,0.723141,0.00897179,0.736174,-0.238599,0.644622,-0.0693344,0.0111017,0,0,0,0,0,0,0,0.273567,-0.233191,-0.0763446,-1.75166,0.0457576,1.38846,0.402362,0.546588,0.0182285,0.552558,-0.139657,0.291925,0.026112,0.00086197,-0.655026,-27.3573,-0.260912,25.8798,0.9967,2.21734,-0.0365141,-1.76723,0.57298,-1.79427,-0.14811,-0.26322,0.389269,0.429157,0.301188,0.315916,-0.832325,0.478115,-0.311462,-0.0149929,
0.268661,-0.233872,-0.0819435,-1.75172,0.0458967,-0.184138,-0.382684,0.733389,0.0136598,0.7556,-0.238825,0.693411,-0.0738095,0.0104632,0,0,0,0,0,0,0,0.273567,-0.233191,-0.0763446,-1.75166,0.0457576,1.38846,0.402362,0.546588,0.0182285,0.552558,-0.139657,0.291925,0.026112,0.00086197,-0.655026,-27.3573,-0.260912,25.8798,0.9967,2.21734,-0.0365141,-1.8931,0.950356,-1.78216,-0.457047,-0.367382,0.583238,0.582572,0.291721,0.583105,-0.821586,0.476786,-0.307523,-0.0167757,
0.254525,-0.233954,-0.0961308,-1.74699,0.034104,-0.183026,-0.382923,0.648082,-0.00791141,0.617138,-0.224036,0.424862,-0.00391108,0.0148063,0,0,0,0,0,0,0,0.273567,-0.233191,-0.0763446,-1.75166,0.0457576,1.38846,0.402362,0.546588,0.0182285,0.552558,-0.139657,0.291925,0.026112,0.00086197,-0.655026,-27.3573,-0.260912,25.8798,0.9967,2.21734,-0.0365141,-1.8931,0.950356,-1.78216,-0.457047,-0.367382,0.583238,0.582572,0.291721,0.583105,-0.821586,0.476786,-0.307523,-0.0167757,
0.281223,-0.233231,-0.0688541,-1.7542,0.0506319,-0.182143,-0.382863,0.664645,-0.00275517,0.662272,-0.224739,0.467547,-0.00309814,0.0135381,0,0,0,0,0,0,0,0.273567,-0.233191,-0.0763446,-1.75166,0.0457576,1.38846,0.402362,0.546588,0.0182285,0.552558,-0.139657,0.291925,0.026112,0.00086197,-0.655026,-27.3573,-0.260912,25.8798,0.9967,2.21734,-0.0365141,-2.01934,0.0327894,-2.0851,0.041268,-0.43196,0.206533,0.263239,0.215472,0.126656,-0.851061,0.286567,-0.255036,-0.0161792,
0.283959,-0.233224,-0.0660831,-1.75511,0.0527434,-0.182223,-0.382812,0.684131,0.00171532,0.69274,-0.22897,0.527871,-0.0200455,0.012573,0,0,0,0,0,0,0,0.273567,-0.233191,-0.0763446,-1.75166,0.0457576,1.38846,0.402362,0.546588,0.0182285,0.552558,-0.139657,0.291925,0.026112,0.00086197,-0.655026,-27.3573,-0.260912,25.8798,0.9967,2.21734,-0.0365141,-2.01934,0.0327894,-2.0851,0.041268,-0.43196,0.206533,0.263239,0.215472,0.126656,-0.851061,0.286567,-0.255036,-0.0161792,
0.286759,-0.233198,-0.0632088,-1.75604,0.0550852,-0.182353,-0.382765,0.699803,0.00665083,0.718585,-0.231087,0.585452,-0.0324271,0.0117333,0,0,0,0,0,0,0,0.291532,-0.23261,-0.057823,-1.75614,0.0572483,1.38908,0.402365,0.577706,0.0103267,0.56622,-0.14482,0.323987,0.0319133,0.000789937,-2.53155,-26.5837,-2.08586,25.4831,1.5039,1.9262,-0.0163725,-1.48344,-0.30575,-2.25887,0.261562,0.0389793,0.0114431,0.103861,0.46357,-0.136824,-0.958643,0.271081,-0.250082,-0.0161248,
0.289608,-0.233152,-0.0602463,-1.75696,0.0576427,-0.182515,-0.382721,0.712337,0.0115045,0.740636,-0.232098,0.639373,-0.0403316,0.0110002,0,0,0,0,0,0,0,0.291532,-0.23261,-0.057823,-1.75614,0.0572483,1.38908,0.402365,0.577706,0.0103267,0.56622,-0.14482,0.323987,0.0319133,0.000789937,-2.53155,-26.5837,-2.08586,25.4831,1.5039,1.9262,-0.0163725,-1.48344,-0.30575,-2.25887,0.261562,0.0389793,0.0114431,0.103861,0.46357,-0.136824,-0.958643,0.271081,-0.250082,-0.0161248,
0.292497,-0.233088,-0.0572081,-1.75789,0.0603993,-0.182692,-0.38268,0.722266,0.0160671,0.759551,-0.232403,0.689133,-0.0443221,0.0103562,0,0,0,0,0,0,0,0.291532,-0.23261,-0.057823,-1.75614,0.0572483,1.38908,0.402365,0.577706,0.0103267,0.56622,-0.14482,0.323987,0.0319133,0.000789937,-2.53155,-26.5837,-2.08586,25.4831,1.5039,1.9262,-0.0163725,-0.398085,-0.0947277,-2.47183,0.150292,1.02366,-0.0299697,-0.0230885,1.07086,-0.13852,-1.20637,0.385503,-0.304472,-0.0149298,
0.278564,-0.23322,-0.0715032,-1.7533,0.0487617,-0.182131,-0.382917,0.640399,-0.00530354,0.626189,-0.215669,0.405915,0.0168799,0.0146141,0,0,0,0,0,0,0,0.291532,-0.23261,-0.057823,-1.75614,0.0572483,1.38908,0.402365,0.577706,0.0103267,0.56622,-0.14482,0.323987,0.0319133,0.000789937,-2.53155,-26.5837,-2.08586,25.4831,1.5039,1.9262,-0.0163725,-1.36874,-0.507581,-2.25989,0.389907,0.192185,-0.0875793,-0.0498637,0.552533,-0.209395,-1.02636,0.301769,-0.308206,-0.0133185,
0.299242,-0.232662,-0.0500791,-1.75863,0.0625719,-0.181407,-0.382869,0.66611,-0.00231118,0.680393,-0.218991,0.503842,0.010435,0.0130024,0,0,0,0,0,0,0,0.291532,-0.23261,-0.057823,-1.75614,0.0572483,1.38908,0.402365,0.577706,0.0103267,0.56622,-0.14482,0.323987,0.0319133,0.000789937,-2.53155,-26.5837,-2.08586,25.4831,1.5039,1.9262,-0.0163725,-1.36874,-0.507581,-2.25989,0.389907,0.192185,-0.0875793,-0.0498637,0.552533,-0.209395,-1.02636,0.301769,-0.308206,-0.0133185,
0.301977,-0.232651,-0.0472456,-1.75952,0.0648187,-0.181419,-0.38282,0.683609,0.00265948,0.708392,-0.222882,0.561709,-0.00296693,0.0120947,0,0,0,0,0,0,0,0.291532,-0.23261,-0.057823,-1.75614,0.0572483,1.38908,0.402365,0.577706,0.0103267,0.56622,-0.14482,0.323987,0.0319133,0.000789937,-2.53155,-26.5837,-2.08586,25.4831,1.5039,1.9262,-0.0163725,-1.17194,-1.19506,-2.67966,0.714564,0.414145,-0.390776,-0.285418,0.669679,-0.594053,-1.14018,0.13241,-0.259903,-0.0151424,
0.304768,-0.23262,-0.0443167,-1.76042,0.0672844,-0.181469,-0.382775,0.697645,0.00783429,0.732207,-0.224872,0.616414,-0.0124973,0.0112975,0,0,0,0,0,0,0,0.308767,-0.232271,-0.0393748,-1.76071,0.0683267,1.39044,0.402361,0.55174,0.0104273,0.598111,-0.151392,0.397576,0.0408768,-0.000913988,0.384403,-26.4092,0.461134,25.0864,2.05963,1.89965,0.017502,-1.36307,0.978272,-2.66801,-0.697086,0.358834,0.600781,0.668254,0.887379,0.551556,-1.2071,0.411825,-0.293588,-0.0184727,
0.307603,-0.232569,-0.0413065,-1.76132,0.0699535,-0.181542,-0.382733,0.708819,0.0127782,0.75257,-0.225832,0.667288,-0.0182216,0.0105984,0,0,0,0,0,0,0,0.308767,-0.232271,-0.0393748,-1.76071,0.0683267,1.39044,0.402361,0.55174,0.0104273,0.598111,-0.151392,0.397576,0.0408768,-0.000913988,0.384403,-26.4092,0.461134,25.0864,2.05963,1.89965,0.017502,-1.36307,0.978272,-2.66801,-0.697086,0.358834,0.600781,0.668254,0.887379,0.551556,-1.2071,0.411825,-0.293588,-0.0184727,
0.310473,-0.232499,-0.0382262,-1.76223,0.0728095,-0.181625,-0.382693,0.717605,0.0173369,0.770068,-0.226115,0.713992,-0.0206137,0.00998229,0,0,0,0,0,0,0,0.308767,-0.232271,-0.0393748,-1.76071,0.0683267,1.39044,0.402361,0.55174,0.0104273,0.598111,-0.151392,0.397576,0.0408768,-0.000913988,0.384403,-26.4092,0.461134,25.0864,2.05963,1.89965,0.017502,-1.13936,0.0306428,-2.41865,-0.0067204,0.466321,0.136706,0.135874,0.801964,0.0725726,-1.14389,0.39446,-0.325881,-0.0144655,
0.313371,-0.232413,-0.0350855,-1.76313,0.0758352,-0.181705,-0.382655,0.724386,0.0214629,0.785169,-0.225886,0.756427,-0.0202222,0.00943639,0,0,0,0,0,0,0,0.308767,-0.232271,-0.0393748,-1.76071,0.0683267,1.39044,0.402361,0.55174,0.0104273,0.598111,-0.151392,0.397576,0.0408768,-0.000913988,0.384403,-26.4092,0.461134,25.0864,2.05963,1.89965,0.017502,-1.13936,0.0306428,-2.41865,-0.0067204,0.466321,0.136706,0.135874,0.801964,0.0725726,-1.14389,0.39446,-0.325881,-0.0144655,
0.296578,-0.232652,-0.0528007,-1.75775,0.0605565,-0.181449,-0.382921,0.644366,-0.0058798,0.647313,-0.210875,0.443869,0.0263907,0.0139746,0,0,0,0,0,0,0,0.308767,-0.232271,-0.0393748,-1.76071,0.0683267,1.39044,0.402361,0.55174,0.0104273,0.598111,-0.151392,0.397576,0.0408768,-0.000913988,0.384403,-26.4092,0.461134,25.0864,2.05963,1.89965,0.017502,-0.698862,0.0152216,-2.85192,-0.148174,0.877419,0.0873515,0.114903,1.09774,0.012058,-1.29659,0.281896,-0.272482,-0.0156391,
0.316425,-0.232277,-0.0314959,-1.76317,0.0742463,-0.179913,-0.382875,0.661372,0.00179239,0.690452,-0.215001,0.545584,0.025353,0.0126739,0,0,0,0,0,0,0,0.325968,-0.232,-0.0210096,-1.76525,0.0792014,1.39236,0.40237,0.54335,0.0106351,0.622368,-0.142698,0.390535,0.0443173,-0.000407625,1.47541,-26.6591,1.06416,25.1855,1.58264,2.11846,-0.0163725,-0.698862,0.0152216,-2.85192,-0.148174,0.877419,0.0873515,0.114903,1.09774,0.012058,-1.29659,0.281896,-0.272482,-0.0156391,
0.319137,-0.232251,-0.0286253,-1.76404,0.076635,-0.179854,-0.382828,0.678142,0.00654572,0.717644,-0.218395,0.597183,0.0147309,0.0117711,0,0,0,0,0,0,0,0.325968,-0.232,-0.0210096,-1.76525,0.0792014,1.39236,0.40237,0.54335,0.0106351,0.622368,-0.142698,0.390535,0.0443173,-0.000407625,1.47541,-26.6591,1.06416,25.1855,1.58264,2.11846,-0.0163725,-0.697102,-0.657846,-2.59066,0.315726,0.706095,-0.198039,-0.127216,0.855885,-0.342914,-1.12436,0.19466,-0.215664,-0.0161059,
0.321903,-0.232206,-0.0256626,-1.76492,0.0792211,-0.179824,-0.382784,0.691506,0.0114011,0.740694,-0.220093,0.646531,0.00740233,0.010982,0,0,0,0,0,0,0,0.325968,-0.232,-0.0210096,-1.76525,0.0792014,1.39236,0.40237,0.54335,0.0106351,0.622368,-0.142698,0.390535,0.0443173,-0.000407625,1.47541,-26.6591,1.06416,25.1855,1.58264,2.11846,-0.0163725,-1.49914,0.851615,-2.22027,-0.542367,0.0693475,0.579166,0.631404,0.622229,0.53305,-0.978915,0.475592,-0.244814,-0.0201768,
0.324712,-0.232142,-0.0226212,-1.76581,0.0819923,-0.179811,-0.382743,0.702065,0.0159903,0.760339,-0.220849,0.692805,0.00332782,0.0102919,0,0,0,0,0,0,0,0.325968,-0.232,-0.0210096,-1.76525,0.0792014,1.39236,0.40237,0.54335,0.0106351,0.622368,-0.142698,0.390535,0.0443173,-0.000407625,1.47541,-26.6591,1.06416,25.1855,1.58264,2.11846,-0.0163725,-1.49914,0.851615,-2.22027,-0.542367,0.0693475,0.579166,0.631404,0.622229,0.53305,-0.978915,0.475592,-0.244814,-0.0201768,
0.327553,-0.232061,-0.0195125,-1.76669,0.0849345,-0.179802,-0.382705,0.710293,0.0201864,0.777169,-0.220975,0.735544,0.00210965,0.0096855,0,0,0,0,0,0,0,0.325968,-0.232,-0.0210096,-1.76525,0.0792014,1.39236,0.40237,0.54335,0.0106351,0.622368,-0.142698,0.390535,0.0443173,-0.000407625,1.47541,-26.6591,1.06416,25.1855,1.58264,2.11846,-0.0163725,-1.08098,1.48294,-1.76595,-0.828688,0.257804,0.77573,0.77762,0.694504,0.778713,-0.851542,0.634237,-0.23347,-0.0205822,
0.330419,-0.231965,-0.0163459,-1.76757,0.0880327,-0.179789,-0.382668,0.716565,0.0239545,0.791658,-0.22062,0.774555,0.00328155,0.00915018,0,0,0,0,0,0,0,0.343083,-0.231533,-0.00237882,-1.76962,0.090671,1.3938,0.402368,0.559186,0.0150287,0.602442,-0.140423,0.34503,0.0490185,-0.00144339,0.285221,-26.8575,-0.0109729,25.2847,0.9967,2.25762,0.00376909,-1.08098,1.48294,-1.76595,-0.828688,0.257804,0.77573,0.77762,0.694504,0.778713,-0.851542,0.634237,-0.23347,-0.0205822,
0.333304,-0.231856,-0.0131291,-1.76845,0.0912721,-0.179764,-0.382633,0.721173,0.0272976,0.80419,-0.219877,0.809836,0.00640948,0.0086747,0,0,0,0,0,0,0,0.343083,-0.231533,-0.00237882,-1.76962,0.090671,1.3938,0.402368,0.559186,0.0150287,0.602442,-0.140423,0.34503,0.0490185,-0.00144339,0.285221,-26.8575,-0.0109729,25.2847,0.9967,2.25762,0.00376909,-0.677013,-0.970548,-1.66629,0.756789,0.37654,-0.341811,-0.289484,0.416994,-0.516888,-0.718101,0.323142,-0.16315,-0.0171138,
0.313779,-0.232285,-0.0342577,-1.76231,0.0720639,-0.180014,-0.382926,0.640361,-0.00183789,0.658251,-0.207912,0.492996,0.0381128,0.0136692,0,0,0,0,0,0,0,0.343083,-0.231533,-0.00237882,-1.76962,0.090671,1.3938,0.402368,0.559186,0.0150287,0.602442,-0.140423,0.34503,0.0490185,-0.00144339,0.285221,-26.8575,-0.0109729,25.2847,0.9967,2.25762,0.00376909,-0.677013,-0.970548,-1.66629,0.756789,0.37654,-0.341811,-0.289484,0.416994,-0.516888,-0.718101,0.323142,-0.16315,-0.0171138,
0.350643,-0.231493,0.00560298,-1.772,0.0962667,-0.176307,-0.382874,0.651744,0.00554595,0.69745,-0.209678,0.526049,0.0487446,0.0124387,0,0,0,0,0,0,0,0.343083,-0.231533,-0.00237882,-1.76962,0.090671,1.3938,0.402368,0.559186,0.0150287,0.602442,-0.140423,0.34503,0.0490185,-0.00144339,0.285221,-26.8575,-0.0109729,25.2847,0.9967,2.25762,0.00376909,-1.0155,-0.348053,-1.61807,0.368653,0.120672,-0.0110754,0.0533869,0.342231,-0.15541,-0.674212,0.409318,-0.150802,-0.0176264,
0.353314,-0.231453,0.00849722,-1.77286,0.0985947,-0.176147,-0.382827,0.667809,0.0102393,0.723561,-0.213302,0.582003,0.0398771,0.0115666,0,0,0,0,0,0,0,0.343083,-0.231533,-0.00237882,-1.76962,0.090671,1.3938,0.402368,0.559186,0.0150287,0.602442,-0.140423,0.34503,0.0490185,-0.00144339,0.285221,-26.8575,-0.0109729,25.2847,0.9967,2.25762,0.00376909,-0.965346,0.34737,-1.78093,-0.0428814,0.337774,0.267126,0.306451,0.59116,0.158618,-0.819914,0.594958,-0.208983,-0.0176887,
0.356037,-0.231393,0.0114806,-1.77372,0.101132,-0.176013,-0.382784,0.680687,0.0149509,0.745835,-0.215094,0.634331,0.0336289,0.0107928,0,0,0,0,0,0,0,0.361883,-0.230609,0.0195302,-1.77411,0.104842,1.39497,0.402371,0.530726,0.0281563,0.606172,-0.11682,0.420371,0.0358558,-9.95167e-05,0.134464,-26.8099,-0.387865,25.257,1.44256,2.25762,-0.0301054,-0.965346,0.34737,-1.78093,-0.0428814,0.337774,0.267126,0.306451,0.59116,0.158618,-0.819914,0.594958,-0.208983,-0.0176887,
0.358801,-0.231315,0.0145402,-1.77458,0.103863,-0.175892,-0.382744,0.690906,0.0193234,0.764919,-0.215884,0.682639,0.030154,0.0101116,0,0,0,0,0,0,0,0.361883,-0.230609,0.0195302,-1.77411,0.104842,1.39497,0.402371,0.530726,0.0281563,0.606172,-0.11682,0.420371,0.0358558,-9.95167e-05,0.134464,-26.8099,-0.387865,25.257,1.44256,2.25762,-0.0301054,-2.25777,2.26954,-2.30785,-1.40387,-0.334336,1.32468,1.32358,0.622562,1.39513,-1.0041,0.811371,-0.256952,-0.0215872,
0.361596,-0.231222,0.0176656,-1.77544,0.10677,-0.175775,-0.382706,0.698878,0.0232494,0.781349,-0.216016,0.726758,0.0291867,0.00951043,0,0,0,0,0,0,0,0.361883,-0.230609,0.0195302,-1.77411,0.104842,1.39497,0.402371,0.530726,0.0281563,0.606172,-0.11682,0.420371,0.0358558,-9.95167e-05,0.134464,-26.8099,-0.387865,25.257,1.44256,2.25762,-0.0301054,-2.25777,2.26954,-2.30785,-1.40387,-0.334336,1.32468,1.32358,0.622562,1.39513,-1.0041,0.811371,-0.256952,-0.0215872,
0.364416,-0.231116,0.020848,-1.77631,0.109837,-0.175654,-0.38267,0.704859,0.0267123,0.795602,-0.21567,0.766736,0.0303913,0.00901279,0,0,0,0,0,0,0,0.361883,-0.230609,0.0195302,-1.77411,0.104842,1.39497,0.402371,0.530726,0.0281563,0.606172,-0.11682,0.420371,0.0358558,-9.95167e-05,0.134464,-26.8099,-0.387865,25.257,1.44256,2.25762,-0.0301054,-1.53829,0.0917578,-2.3017,-0.00737276,0.0855605,0.271343,0.281731,0.548544,0.201736,-0.969147,0.550432,-0.215342,-0.0172728,
0.350643,-0.231494,0.00560303,-1.772,0.0962659,-0.176307,-0.382874,0.651751,0.00554432,0.697456,-0.209679,0.525952,0.0487727,0.0124382,0,0,0,0,0,0,0,0.361883,-0.230609,0.0195302,-1.77411,0.104842,1.39497,0.402371,0.530726,0.0281563,0.606172,-0.11682,0.420371,0.0358558,-9.95167e-05,0.134464,-26.8099,-0.387865,25.257,1.44256,2.25762,-0.0301054,-1.40833,-1.19525,-2.15781,0.855414,0.0842526,-0.280879,-0.209277,0.345841,-0.476616,-0.88361,0.41853,-0.204514,-0.0140764,
0.369272,-0.230511,0.027497,-1.77639,0.11099,-0.174989,-0.38287,0.638841,0.00896576,0.697606,-0.203387,0.560964,0.0673069,0.0123574,0,0,0,0,0,0,0,0.361883,-0.230609,0.0195302,-1.77411,0.104842,1.39497,0.402371,0.530726,0.0281563,0.606172,-0.11682,0.420371,0.0358558,-9.95167e-05,0.134464,-26.8099,-0.387865,25.257,1.44256,2.25762,-0.0301054,-1.40833,-1.19525,-2.15781,0.855414,0.0842526,-0.280879,-0.209277,0.345841,-0.476616,-0.88361,0.41853,-0.204514,-0.0140764,
0.371894,-0.230458,0.0303958,-1.77722,0.113425,-0.174744,-0.382824,0.655608,0.0130484,0.724702,-0.207519,0.608825,0.0611634,0.0114549,0,0,0,0,0,0,0,0.379102,-0.229637,0.0392207,-1.77776,0.117078,1.39634,0.402373,0.531358,0.0272706,0.626737,-0.112326,0.392346,0.0472841,-0.00101468,1.32465,-26.6075,0.762648,25.5347,2.08343,2.19079,-0.0026396,-0.486439,-0.220285,-2.58685,0.119106,0.951169,-0.0558362,-0.000794714,1.01556,-0.204709,-1.14638,0.506073,-0.194826,-0.0142996,
0.37457,-0.230389,0.0333864,-1.77806,0.116045,-0.174518,-0.382781,0.668937,0.0173325,0.747646,-0.209481,0.654822,0.0565768,0.010656,0,0,0,0,0,0,0,0.379102,-0.229637,0.0392207,-1.77776,0.117078,1.39634,0.402373,0.531358,0.0272706,0.626737,-0.112326,0.392346,0.0472841,-0.00101468,1.32465,-26.6075,0.762648,25.5347,2.08343,2.19079,-0.0026396,-0.486439,-0.220285,-2.58685,0.119106,0.951169,-0.0558362,-0.000794714,1.01556,-0.204709,-1.14638,0.506073,-0.194826,-0.0142996,
0.377287,-0.230304,0.0364553,-1.7789,0.118837,-0.174301,-0.382741,0.679332,0.0213494,0.767223,-0.210338,0.698212,0.0541383,0.00999027,0,0,0,0,0,0,0,0.379102,-0.229637,0.0392207,-1.77776,0.117078,1.39634,0.402373,0.531358,0.0272706,0.626737,-0.112326,0.392346,0.0472841,-0.00101468,1.32465,-26.6075,0.762648,25.5347,2.08343,2.19079,-0.0026396,-1.66971,1.69176,-2.83669,-1.17618,0.306962,0.981286,0.99027,1.03154,1.00297,-1.26297,0.762841,-0.268465,-0.0169883,
0.38004,-0.230204,0.0395929,-1.77974,0.121761,-0.174086,-0.382704,0.688208,0.0249563,0.784392,-0.210172,0.730793,0.0536978,0.00941496,0,0,0,0,0,0,0,0.379102,-0.229637,0.0392207,-1.77776,0.117078,1.39634,0.402373,0.531358,0.0272706,0.626737,-0.112326,0.392346,0.0472841,-0.00101468,1.32465,-26.6075,0.762648,25.5347,2.08343,2.19079,-0.0026396,-1.66971,1.69176,-2.83669,-1.17618,0.306962,0.981286,0.99027,1.03154,1.00297,-1.26297,0.762841,-0.268465,-0.0169883,
0.382835,-0.230092,0.0427799,-1.78058,0.124751,-0.173867,-0.382668,0.698673,0.0280479,0.796748,-0.209172,0.747663,0.0549429,0.00884508,0,0,0,0,0,0,0,0.379102,-0.229637,0.0392207,-1.77776,0.117078,1.39634,0.402373,0.531358,0.0272706,0.626737,-0.112326,0.392346,0.0472841,-0.00101468,1.32465,-26.6075,0.762648,25.5347,2.08343,2.19079,-0.0026396,-2.87183,0.831488,-2.41894,-0.581065,-0.812593,0.896934,0.907475,0.250138,0.916542,-0.95307,0.63721,-0.246054,-0.01608,
0.369273,-0.230511,0.0274976,-1.77639,0.110981,-0.174986,-0.38287,0.638915,0.00894887,0.697669,-0.203392,0.5599,0.0675871,0.0123522,0,0,0,0,0,0,0,0.396357,-0.228833,0.0588947,-1.78131,0.129076,1.39833,0.402379,0.540354,0.0285384,0.639258,-0.115263,0.399301,0.0681875,0.00175788,0.919986,-26.7821,-0.288683,24.8364,1.76574,2.06536,-0.0566557,-0.758296,-1.22218,-2.60557,0.67861,0.660754,-0.390829,-0.328881,0.735534,-0.569878,-1.07718,0.345761,-0.166751,-0.0138787,
0.403779,-0.228698,0.0671223,-1.78354,0.135206,-0.171261,-0.382871,0.638699,0.0122948,0.715513,-0.198363,0.565032,0.0980792,0.0116911,0,0,0,0,0,0,0,0.396357,-0.228833,0.0588947,-1.78131,0.129076,1.39833,0.402379,0.540354,0.0285384,0.639258,-0.115263,0.399301,0.0681875,0.00175788,0.919986,-26.7821,-0.288683,24.8364,1.76574,2.06536,-0.0566557,-0.758296,-1.22218,-2.60557,0.67861,0.660754,-0.390829,-0.328881,0.735534,-0.569878,-1.07718,0.345761,-0.166751,-0.0138787,
0.406392,-0.228633,0.0700822,-1.78435,0.137667,-0.170893,-0.382827,0.653274,0.0162942,0.739992,-0.202463,0.615251,0.0919557,0.0109139,0,0,0,0,0,0,0,0.396357,-0.228833,0.0588947,-1.78131,0.129076,1.39833,0.402379,0.540354,0.0285384,0.639258,-0.115263,0.399301,0.0681875,0.00175788,0.919986,-26.7821,-0.288683,24.8364,1.76574,2.06536,-0.0566557,-0.423103,-0.377257,-2.85253,0.0744109,1.08515,-0.118399,-0.0604505,1.14729,-0.263074,-1.26814,0.468874,-0.210207,-0.0152722,
0.409055,-0.228552,0.0731275,-1.78516,0.140286,-0.170545,-0.382786,0.665686,0.0203805,0.761303,-0.204081,0.654516,0.087147,0.0102245,0,0,0,0,0,0,0,0.396357,-0.228833,0.0588947,-1.78131,0.129076,1.39833,0.402379,0.540354,0.0285384,0.639258,-0.115263,0.399301,0.0681875,0.00175788,0.919986,-26.7821,-0.288683,24.8364,1.76574,2.06536,-0.0566557,-0.423103,-0.377257,-2.85253,0.0744109,1.08515,-0.118399,-0.0604505,1.14729,-0.263074,-1.26814,0.468874,-0.210207,-0.0152722,
0.411771,-0.228455,0.076236,-1.78598,0.142997,-0.170208,-0.382748,0.679149,0.0240617,0.777142,-0.204244,0.67787,0.0841558,0.00955103,0,0,0,0,0,0,0,0.396357,-0.228833,0.0588947,-1.78131,0.129076,1.39833,0.402379,0.540354,0.0285384,0.639258,-0.115263,0.399301,0.0681875,0.00175788,0.919986,-26.7821,-0.288683,24.8364,1.76574,2.06536,-0.0566557,-1.17788,0.165388,-2.59454,-0.211957,0.489232,0.271236,0.297344,0.871059,0.195437,-1.13765,0.579972,-0.228328,-0.0158122,
0.414532,-0.228347,0.0793968,-1.7868,0.145765,-0.169876,-0.382712,0.690136,0.0271039,0.790196,-0.203821,0.69204,0.0830161,0.00891846,0,0,0,0,0,0,0,0.396357,-0.228833,0.0588947,-1.78131,0.129076,1.39833,0.402379,0.540354,0.0285384,0.639258,-0.115263,0.399301,0.0681875,0.00175788,0.919986,-26.7821,-0.288683,24.8364,1.76574,2.06536,-0.0566557,-1.17788,0.165388,-2.59454,-0.211957,0.489232,0.271236,0.297344,0.871059,0.195437,-1.13765,0.579972,-0.228328,-0.0158122,
0.417326,-0.228229,0.0825994,-1.78761,0.148572,-0.169542,-0.382679,0.698514,0.0295448,0.800646,-0.203157,0.701664,0.0835115,0.00835189,0,0,0,0,0,0,0,0.418652,-0.228024,0.0852704,-1.78639,0.146188,1.40175,0.402372,0.527051,0.0227516,0.638918,-0.119844,0.418022,0.086818,-0.000368557,2.38788,-26.6075,1.01259,25.0586,1.8399,2.00493,0.0101778,-2.24313,0.438699,-2.62011,-0.441652,-0.300142,0.646921,0.672315,0.528941,0.629523,-1.07071,0.578017,-0.235857,-0.0171182,
0.403788,-0.2287,0.0671282,-1.78354,0.135101,-0.171241,-0.382871,0.639526,0.0121274,0.716214,-0.19831,0.552865,0.100424,0.0116317,0,0,0,0,0,0,0,0.418652,-0.228024,0.0852704,-1.78639,0.146188,1.40175,0.402372,0.527051,0.0227516,0.638918,-0.119844,0.418022,0.086818,-0.000368557,2.38788,-26.6075,1.01259,25.0586,1.8399,2.00493,0.0101778,-1.24337,-0.755855,-2.4443,0.336776,0.269897,-0.0544415,0.0189387,0.59018,-0.195675,-1.00764,0.398375,-0.184267,-0.0125978,
0.425934,-0.227898,0.0935203,-1.78856,0.152306,-0.167609,-0.38288,0.627813,0.012454,0.718394,-0.192804,0.552459,0.119237,0.011587,0,0,0,0,0,0,0,0.418652,-0.228024,0.0852704,-1.78639,0.146188,1.40175,0.402372,0.527051,0.0227516,0.638918,-0.119844,0.418022,0.086818,-0.000368557,2.38788,-26.6075,1.01259,25.0586,1.8399,2.00493,0.0101778,-1.24337,-0.755855,-2.4443,0.336776,0.269897,-0.0544415,0.0189387,0.59018,-0.195675,-1.00764,0.398375,-0.184267,-0.0125978,
0.428522,-0.227831,0.0964849,-1.78935,0.154618,-0.16715,-0.382837,0.646976,0.0165823,0.741151,-0.19596,0.577987,0.114829,0.0107347,0,0,0,0,0,0,0,0.418652,-0.228024,0.0852704,-1.78639,0.146188,1.40175,0.402372,0.527051,0.0227516,0.638918,-0.119844,0.418022,0.086818,-0.000368557,2.38788,-26.6075,1.01259,25.0586,1.8399,2.00493,0.0101778,-0.0724983,-0.71624,-2.87331,0.213277,1.32589,-0.332092,-0.278828,1.2394,-0.489574,-1.29848,0.432745,-0.207439,-0.0112314,
0.431172,-0.22775,0.0995245,-1.79014,0.157001,-0.166705,-0.382797,0.662677,0.0204142,0.759887,-0.197301,0.595702,0.111239,0.00993438,0,0,0,0,0,0,0,0.418652,-0.228024,0.0852704,-1.78639,0.146188,1.40175,0.402372,0.527051,0.0227516,0.638918,-0.119844,0.418022,0.086818,-0.000368557,2.38788,-26.6075,1.01259,25.0586,1.8399,2.00493,0.0101778,-0.0724983,-0.71624,-2.87331,0.213277,1.32589,-0.332092,-0.278828,1.2394,-0.489574,-1.29848,0.432745,-0.207439,-0.0112314,
0.433872,-0.227655,0.102625,-1.79093,0.15944,-0.166269,-0.382761,0.674972,0.0236691,0.77502,-0.197866,0.609745,0.109048,0.00922167,0,0,0,0,0,0,0,0.434196,-0.22755,0.103893,-1.79,0.157778,1.40487,0.402374,0.532599,0.0179548,0.62401,-0.116634,0.365205,0.113606,-0.00146529,-0.222592,-26.9606,-1.31224,25.5823,1.13128,2.32995,0.017502,-0.755356,0.308683,-2.86187,-0.447114,0.918845,0.23878,0.256858,1.20744,0.177552,-1.31018,0.59338,-0.253984,-0.0127622,
0.43661,-0.22755,0.105773,-1.79172,0.161918,-0.165836,-0.382726,0.684592,0.0263665,0.78705,-0.197859,0.619508,0.10824,0.00865951,0,0,0,0,0,0,0,0.434196,-0.22755,0.103893,-1.79,0.157778,1.40487,0.402374,0.532599,0.0179548,0.62401,-0.116634,0.365205,0.113606,-0.00146529,-0.222592,-26.9606,-1.31224,25.5823,1.13128,2.32995,0.017502,-1.61211,0.905391,-2.93544,-0.949187,0.25784,0.709933,0.713986,0.995423,0.744637,-1.26323,0.558766,-0.237269,-0.0150043,
0.43938,-0.227435,0.108959,-1.79251,0.164409,-0.165401,-0.382693,0.692259,0.0285668,0.79654,-0.197292,0.622889,0.108646,0.00812672,0,0,0,0,0,0,0,0.434196,-0.22755,0.103893,-1.79,0.157778,1.40487,0.402374,0.532599,0.0179548,0.62401,-0.116634,0.365205,0.113606,-0.00146529,-0.222592,-26.9606,-1.31224,25.5823,1.13128,2.32995,0.017502,-1.61211,0.905391,-2.93544,-0.949187,0.25784,0.709933,0.713986,0.995423,0.744637,-1.26323,0.558766,-0.237269,-0.0150043,
0.426001,-0.227906,0.0935661,-1.78855,0.15146,-0.167511,-0.382885,0.63426,0.0113207,0.723815,-0.191536,0.455097,0.130642,0.0111126,0,0,0,0,0,0,0,0.434196,-0.22755,0.103893,-1.79,0.157778,1.40487,0.402374,0.532599,0.0179548,0.62401,-0.116634,0.365205,0.113606,-0.00146529,-0.222592,-26.9606,-1.31224,25.5823,1.13128,2.32995,0.017502,-1.91825,0.458699,-2.56777,-0.579158,-0.127918,0.633808,0.679615,0.646274,0.616229,-1.06688,0.513407,-0.21811,-0.0151669,
0.441433,-0.227459,0.112159,-1.79208,0.162333,-0.164096,-0.382885,0.628088,0.00964453,0.718845,-0.184008,0.382825,0.154557,0.011013,0,0,0,0,0,0,0,0.434196,-0.22755,0.103893,-1.79,0.157778,1.40487,0.402374,0.532599,0.0179548,0.62401,-0.116634,0.365205,0.113606,-0.00146529,-0.222592,-26.9606,-1.31224,25.5823,1.13128,2.32995,0.017502,-1.91825,0.458699,-2.56777,-0.579158,-0.127918,0.633808,0.679615,0.646274,0.616229,-1.06688,0.513407,-0.21811,-0.0151669,
0.444018,-0.227405,0.115125,-1.79283,0.163881,-0.163488,-0.382844,0.646174,0.013422,0.741345,-0.187746,0.387011,0.152136,0.0101269,0,0,0,0,0,0,0,0.434196,-0.22755,0.103893,-1.79,0.157778,1.40487,0.402374,0.532599,0.0179548,0.62401,-0.116634,0.365205,0.113606,-0.00146529,-0.222592,-26.9606,-1.31224,25.5823,1.13128,2.32995,0.017502,-0.224777,-0.887003,-2.1454,0.463613,1.00396,-0.347401,-0.282551,0.898349,-0.53324,-1.02031,0.48997,-0.221966,-0.0074854,
0.44666,-0.227337,0.118162,-1.79359,0.165444,-0.162889,-0.382806,0.660409,0.0169929,0.759203,-0.189724,0.390841,0.149718,0.00940943,0,0,0,0,0,0,0,0.453479,-0.226728,0.127212,-1.79418,0.170804,1.4097,0.402382,0.54461,0.0229585,0.664381,-0.10674,0.330245,0.142267,0.000713835,-0.476498,-26.6075,-1.93511,25.4831,1.30798,2.24389,-0.0429228,-0.224777,-0.887003,-2.1454,0.463613,1.00396,-0.347401,-0.282551,0.898349,-0.53324,-1.02031,0.48997,-0.221966,-0.0074854,
0.449347,-0.227257,0.121255,-1.79436,0.167008,-0.162297,-0.382771,0.671772,0.0201199,0.773319,-0.190595,0.39114,0.147996,0.00874972,0,0,0,0,0,0,0,0.453479,-0.226728,0.127212,-1.79418,0.170804,1.4097,0.402382,0.54461,0.0229585,0.664381,-0.10674,0.330245,0.142267,0.000713835,-0.476498,-26.6075,-1.93511,25.4831,1.30798,2.24389,-0.0429228,-1.61132,0.402431,-2.04366,-0.34396,0.0211517,0.524703,0.555936,0.594146,0.472202,-0.908005,0.659108,-0.23063,-0.0116106,
0.452067,-0.227166,0.124392,-1.79512,0.168575,-0.161708,-0.382739,0.680127,0.0226925,0.784233,-0.191006,0.3916,0.147301,0.00813498,0,0,0,0,0,0,0,0.453479,-0.226728,0.127212,-1.79418,0.170804,1.4097,0.402382,0.54461,0.0229585,0.664381,-0.10674,0.330245,0.142267,0.000713835,-0.476498,-26.6075,-1.93511,25.4831,1.30798,2.24389,-0.0429228,-1.76969,-0.399746,-1.54169,0.258017,-0.368089,0.286889,0.317847,0.142969,0.206533,-0.637169,0.517434,-0.188141,-0.0117105,
0.454812,-0.227067,0.127561,-1.79588,0.170139,-0.161117,-0.382708,0.686165,0.0247938,0.792437,-0.190994,0.391087,0.147601,0.00765222,0,0,0,0,0,0,0,0.453479,-0.226728,0.127212,-1.79418,0.170804,1.4097,0.402382,0.54461,0.0229585,0.664381,-0.10674,0.330245,0.142267,0.000713835,-0.476498,-26.6075,-1.93511,25.4831,1.30798,2.24389,-0.0429228,-1.76969,-0.399746,-1.54169,0.258017,-0.368089,0.286889,0.317847,0.142969,0.206533,-0.637169,0.517434,-0.188141,-0.0117105,
0.441665,-0.227479,0.112312,-1.79201,0.1593,-0.16391,-0.382903,0.649468,0.00640058,0.736732,-0.177679,0.0373863,0.176214,0.00948315,0,0,0,0,0,0,0,0.453479,-0.226728,0.127212,-1.79418,0.170804,1.4097,0.402382,0.54461,0.0229585,0.664381,-0.10674,0.330245,0.142267,0.000713835,-0.476498,-26.6075,-1.93511,25.4831,1.30798,2.24389,-0.0429228,-1.4244,0.490541,-1.77549,-0.493684,-0.10621,0.548193,0.5978,0.479476,0.520988,-0.743039,0.454919,-0.154578,-0.0135697,
0.461089,-0.226629,0.135846,-1.79611,0.171956,-0.158752,-0.382899,0.656635,0.00790509,0.748953,-0.172177,0.0105519,0.202195,0.00910094,0,0,0,0,0,0,0,0.470209,-0.225837,0.147247,-1.79747,0.179039,1.41426,0.402379,0.541197,0.0231761,0.6424,-0.105407,0.237893,0.141426,-6.5337e-05,0.816837,-26.0362,-0.887743,25.4077,2.0166,1.95916,-0.0163725,-1.4244,0.490541,-1.77549,-0.493684,-0.10621,0.548193,0.5978,0.479476,0.520988,-0.743039,0.454919,-0.154578,-0.0135697,
0.463774,-0.226589,0.138922,-1.79682,0.171754,-0.157946,-0.382865,0.671292,0.0099552,0.768918,-0.176746,-0.0505472,0.201432,0.00844893,0,0,0,0,0,0,0,0.470209,-0.225837,0.147247,-1.79747,0.179039,1.41426,0.402379,0.541197,0.0231761,0.6424,-0.105407,0.237893,0.141426,-6.5337e-05,0.816837,-26.0362,-0.887743,25.4077,2.0166,1.95916,-0.0163725,0.154953,-0.625403,-1.94243,0.173484,1.06516,-0.323161,-0.263965,0.919006,-0.462047,-0.910382,0.341299,-0.155194,-0.00978285,
0.4665,-0.22654,0.142055,-1.79754,0.171368,-0.157149,-0.382834,0.681428,0.0122058,0.783414,-0.17971,-0.0965387,0.199164,0.0078453,0,0,0,0,0,0,0,0.470209,-0.225837,0.147247,-1.79747,0.179039,1.41426,0.402379,0.541197,0.0231761,0.6424,-0.105407,0.237893,0.141426,-6.5337e-05,0.816837,-26.0362,-0.887743,25.4077,2.0166,1.95916,-0.0163725,0.154953,-0.625403,-1.94243,0.173484,1.06516,-0.323161,-0.263965,0.919006,-0.462047,-0.910382,0.341299,-0.155194,-0.00978285,
0.469253,-0.226483,0.14523,-1.79826,0.17084,-0.156363,-0.382804,0.688205,0.0143734,0.793617,-0.181684,-0.132101,0.196556,0.00739502,0,0,0,0,0,0,0,0.470209,-0.225837,0.147247,-1.79747,0.179039,1.41426,0.402379,0.541197,0.0231761,0.6424,-0.105407,0.237893,0.141426,-6.5337e-05,0.816837,-26.0362,-0.887743,25.4077,2.0166,1.95916,-0.0163725,-1.2222,0.208542,-2.3007,-0.453683,0.312907,0.385117,0.416871,0.817529,0.349953,-1.04772,0.514456,-0.244475,-0.0110167,
0.472024,-0.226417,0.148432,-1.799,0.170188,-0.155587,-0.382776,0.692695,0.0163733,0.8006,-0.182815,-0.162858,0.194142,0.00701354,0,0,0,0,0,0,0,0.470209,-0.225837,0.147247,-1.79747,0.179039,1.41426,0.402379,0.541197,0.0231761,0.6424,-0.105407,0.237893,0.141426,-6.5337e-05,0.816837,-26.0362,-0.887743,25.4077,2.0166,1.95916,-0.0163725,-1.2222,0.208542,-2.3007,-0.453683,0.312907,0.385117,0.416871,0.817529,0.349953,-1.04772,0.514456,-0.244475,-0.0110167,
0.474804,-0.226345,0.151652,-1.79973,0.169432,-0.154817,-0.38275,0.695105,0.0181099,0.805069,-0.183453,-0.1891,0.192273,0.00666437,0,0,0,0,0,0,0,0.470209,-0.225837,0.147247,-1.79747,0.179039,1.41426,0.402379,0.541197,0.0231761,0.6424,-0.105407,0.237893,0.141426,-6.5337e-05,0.816837,-26.0362,-0.887743,25.4077,2.0166,1.95916,-0.0163725,-1.32856,-0.560391,-2.38385,-0.0643989,0.141941,0.160157,0.197061,0.63556,0.112948,-1.04001,0.333118,-0.235474,-0.00787154,
0.461214,-0.226763,0.135848,-1.79614,0.167223,-0.157772,-0.382911,0.662372,-0.00683127,0.748615,-0.173563,-0.532035,0.305555,0.00851675,0,0,0,0,0,0,0,0.488401,-0.224843,0.16922,-1.80037,0.182447,1.41954,0.402378,0.560803,0.0331106,0.662983,-0.0786509,0.00370841,0.169716,0.000309778,0.816837,-26.8337,-0.986925,25.2332,0.795284,2.02508,-0.0365141,-1.39585,-0.623248,-2.44653,-0.177013,-0.0346599,0.19649,0.248459,0.563408,0.176962,-1.02511,0.143211,-0.207738,-0.0100945,
0.495928,-0.224849,0.177762,-1.80223,0.176887,-0.147771,-0.382906,0.638367,-0.00600301,0.733132,-0.171954,-0.616653,0.315358,0.00920114,0,0,0,0,0,0,0,0.488401,-0.224843,0.16922,-1.80037,0.182447,1.41954,0.402378,0.560803,0.0331106,0.662983,-0.0786509,0.00370841,0.169716,0.000309778,0.816837,-26.8337,-0.986925,25.2332,0.795284,2.02508,-0.0365141,-1.39585,-0.623248,-2.44653,-0.177013,-0.0346599,0.19649,0.248459,0.563408,0.176962,-1.02511,0.143211,-0.207738,-0.0100945,
0.498495,-0.224875,0.180734,-1.80295,0.174066,-0.146479,-0.382871,0.641707,-0.00637349,0.742901,-0.179114,-0.705299,0.322808,0.00881288,0,0,0,0,0,0,0,0.488401,-0.224843,0.16922,-1.80037,0.182447,1.41954,0.402378,0.560803,0.0331106,0.662983,-0.0786509,0.00370841,0.169716,0.000309778,0.816837,-26.8337,-0.986925,25.2332,0.795284,2.02508,-0.0365141,-0.209497,-1.28275,-2.59356,0.103468,0.754756,-0.383708,-0.340729,0.880884,-0.435956,-1.14657,-0.048839,-0.197452,-0.0100291,
0.501064,-0.224896,0.183724,-1.80368,0.170996,-0.145179,-0.382837,0.642138,-0.00542006,0.747457,-0.183383,-0.767569,0.325016,0.00849691,0,0,0,0,0,0,0,0.488401,-0.224843,0.16922,-1.80037,0.182447,1.41954,0.402378,0.560803,0.0331106,0.662983,-0.0786509,0.00370841,0.169716,0.000309778,0.816837,-26.8337,-0.986925,25.2332,0.795284,2.02508,-0.0365141,-0.209497,-1.28275,-2.59356,0.103468,0.754756,-0.383708,-0.340729,0.880884,-0.435956,-1.14657,-0.048839,-0.197452,-0.0100291,
0.503625,-0.224912,0.186718,-1.80443,0.167752,-0.143881,-0.382804,0.640366,-0.00393037,0.748547,-0.186105,-0.811013,0.324652,0.00811193,0,0,0,0,0,0,0,0.488401,-0.224843,0.16922,-1.80037,0.182447,1.41954,0.402378,0.560803,0.0331106,0.662983,-0.0786509,0.00370841,0.169716,0.000309778,0.816837,-26.8337,-0.986925,25.2332,0.795284,2.02508,-0.0365141,-1.09914,-0.495956,-2.87365,-0.541558,0.250896,0.189606,0.216678,0.883985,0.231791,-1.26414,0.0226923,-0.258773,-0.0141187,
0.506174,-0.224921,0.189707,-1.80518,0.164387,-0.142589,-0.382772,0.637103,-0.00224457,0.747269,-0.187839,-0.841224,0.323048,0.00815819,0,0,0,0,0,0,0,0.5065,-0.224026,0.190586,-1.80293,0.180156,1.42567,0.402381,0.572067,0.0211568,0.665276,-0.0751811,-0.20903,0.227298,0.000809369,-1.66668,-26.909,-3.5855,25.856,0.373226,2.24389,-0.0301054,-1.09914,-0.495956,-2.87365,-0.541558,0.250896,0.189606,0.216678,0.883985,0.231791,-1.26414,0.0226923,-0.258773,-0.0141187,
0.508705,-0.224923,0.192685,-1.80593,0.160938,-0.141305,-0.382741,0.632842,-0.000531723,0.744385,-0.188865,-0.862144,0.320904,0.00758283,0,0,0,0,0,0,0,0.5065,-0.224026,0.190586,-1.80293,0.180156,1.42567,0.402381,0.572067,0.0211568,0.665276,-0.0751811,-0.20903,0.227298,0.000809369,-1.66668,-26.909,-3.5855,25.856,0.373226,2.24389,-0.0301054,-2.00372,-0.491855,-2.68327,-0.537307,-0.521694,0.506682,0.541594,0.472788,0.582792,-1.11442,-0.026182,-0.255331,-0.0148187,
