PerkyPenguin/Analysis-on-Approximated-Derivatives/Code_and_Data/PaperData/Real_Robot/Scene_2/set_interval/3/trajectory.csv
Commanded Joint 0 Position,Commanded Joint 1 Position,Commanded Joint 2 Position,Commanded Joint 3 Position,Commanded Joint 4 Position,Commanded Joint 5 Position,Commanded Joint 6 Position,Commanded Joint 0 Velocity,Commanded Joint 1 Velocity,Commanded Joint 2 Velocity,Commanded Joint 3 Velocity,Commanded Joint 4 Velocity,Commanded Joint 5 Velocity,Commanded Joint 6 Velocity,Commanded Joint 0 Torque,Commanded Joint 1 Torque,Commanded Joint 2 Torque,Commanded Joint 3 Torque,Commanded Joint 4 Torque,Commanded Joint 5 Torque,Commanded Joint 6 Torque,Actual Joint 0 Position,Actual Joint 1 Position,Actual Joint 2 Position,Actual Joint 3 Position,Actual Joint 4 Position,Actual Joint 5 Position,Actual Joint 6 Position,Actual Joint 0 Velocity,Actual Joint 1 Velocity,Actual Joint 2 Velocity,Actual Joint 3 Velocity,Actual Joint 4 Velocity,Actual Joint 5 Velocity,Actual Joint 6 Velocity,Actual Joint 0 Torque,Actual Joint 1 Torque,Actual Joint 2 Torque,Actual Joint 3 Torque,Actual Joint 4 Torque,Actual Joint 5 Torque,Actual Joint 6 Torque,EE ext force 0,EE ext force 1,EE ext force 2,EE ext force 3,EE ext force 4,EE ext force 5,joint ext torque 0,joint ext torque 1,joint ext torque 2,joint ext torque 3,joint ext torque 4,joint ext torque 5,joint ext torque 6,
0.020137,-0.0546953,0.511146,-1.5671,0.0399164,-0.0131249,0.531628,0.0109,0.0308488,0.0152266,-0.143972,-0.0657278,0.202335,-0.00125728,0,0,0,0,0,0,0,0.0200802,-0.0548414,0.511039,-1.56567,0.0402844,1.55566,1.31704,0.00224987,-0.000925073,-0.00103378,0.000684322,-0.0165791,-9.71175e-05,-8.56607e-05,0.0313145,-27.4327,-0.812364,26.9788,1.28326,3.11272,0.104477,2.04752,1.76124,2.12251,-0.849246,1.09223,0.152396,0.152456,0.415051,0.166098,0.222992,0.159449,-0.311849,0.0881134,
0.0201947,-0.054491,0.511224,-1.56772,0.0395761,-0.0122811,0.531623,0.0144281,0.0510824,0.0195593,-0.154857,-0.0850807,0.210948,-0.00135171,0,0,0,0,0,0,0,0.0200802,-0.0548414,0.511039,-1.56567,0.0402844,1.55566,1.31704,0.00224987,-0.000925073,-0.00103378,0.000684322,-0.0165791,-9.71175e-05,-8.56607e-05,0.0313145,-27.4327,-0.812364,26.9788,1.28326,3.11272,0.104477,2.16924,1.77388,2.1271,-0.86906,1.17373,0.12324,0.121863,0.45629,0.139094,0.214389,0.145085,-0.310073,0.0882349,
0.0200775,-0.0548568,0.511037,-1.56566,0.0401416,-0.0151348,0.531642,-0.000362258,-0.000793111,-0.000297857,0.000203331,-0.00601238,0.000234897,-9.80874e-06,0,0,0,0,0,0,0,0.0200802,-0.0548414,0.511039,-1.56567,0.0402844,1.55566,1.31704,0.00224987,-0.000925073,-0.00103378,0.000684322,-0.0165791,-9.71175e-05,-8.56607e-05,0.0313145,-27.4327,-0.812364,26.9788,1.28326,3.11272,0.104477,2.16924,1.77388,2.1271,-0.86906,1.17373,0.12324,0.121863,0.45629,0.139094,0.214389,0.145085,-0.310073,0.0882349,
0.0200759,-0.0548596,0.511036,-1.56566,0.0401223,-0.015134,0.531642,-0.000398511,-0.000689031,-0.000334371,0.000216147,-0.00482519,0.00020519,-4.0789e-06,0,0,0,0,0,0,0,0.0200802,-0.0548414,0.511039,-1.56567,0.0402844,1.55566,1.31704,0.00224987,-0.000925073,-0.00103378,0.000684322,-0.0165791,-9.71175e-05,-8.56607e-05,0.0313145,-27.4327,-0.812364,26.9788,1.28326,3.11272,0.104477,2.08124,1.55927,2.20158,-0.685901,1.05188,0.0498552,0.046414,0.361592,0.0617756,0.28506,0.133825,-0.284851,0.0878122,
0.0200742,-0.054862,0.511034,-1.56566,0.0401067,-0.0151333,0.531642,-0.000409853,-0.000601563,-0.000344221,0.000219312,-0.00390914,0.000182339,-4.49526e-07,0,0,0,0,0,0,0,0.0200748,-0.0549002,0.51104,-1.56587,0.0403002,1.55586,1.31704,0.00102129,-0.0123486,0.000113276,-0.0273775,-0.0194478,0.024961,-0.000913039,0.182071,-26.5083,-0.736986,24.5627,1.01501,3.06603,0.110886,2.08124,1.55927,2.20158,-0.685901,1.05188,0.0498552,0.046414,0.361592,0.0617756,0.28506,0.133825,-0.284851,0.0878122,
0.0200726,-0.0548641,0.511033,-1.56566,0.0400939,-0.0151326,0.531642,-0.000405168,-0.000529365,-0.000337,0.000215286,-0.00319486,0.000162503,1.85604e-06,0,0,0,0,0,0,0,0.0200748,-0.0549002,0.51104,-1.56587,0.0403002,1.55586,1.31704,0.00102129,-0.0123486,0.000113276,-0.0273775,-0.0194478,0.024961,-0.000913039,0.182071,-26.5083,-0.736986,24.5627,1.01501,3.06603,0.110886,1.19951,1.09416,1.7132,-0.427692,0.566935,0.0833042,0.0767837,0.168076,0.0928203,0.217665,0.150884,-0.270074,0.0895869,
0.0200711,-0.054866,0.511032,-1.56566,0.0400834,-0.0151321,0.531642,-0.000390447,-0.000470402,-0.00031918,0.00020669,-0.00263224,0.000142925,3.29023e-06,0,0,0,0,0,0,0,0.0200748,-0.0549002,0.51104,-1.56587,0.0403002,1.55586,1.31704,0.00102129,-0.0123486,0.000113276,-0.0273775,-0.0194478,0.024961,-0.000913039,0.182071,-26.5083,-0.736986,24.5627,1.01501,3.06603,0.110886,1.19951,1.09416,1.7132,-0.427692,0.566935,0.0833042,0.0767837,0.168076,0.0928203,0.217665,0.150884,-0.270074,0.0895869,
0.0200696,-0.0548677,0.511031,-1.56566,0.0400747,-0.0151316,0.531642,-0.000369764,-0.000422646,-0.000295156,0.000195558,-0.00218461,0.000122123,4.14227e-06,0,0,0,0,0,0,0,0.0200748,-0.0549002,0.51104,-1.56587,0.0403002,1.55586,1.31704,0.00102129,-0.0123486,0.000113276,-0.0273775,-0.0194478,0.024961,-0.000913039,0.182071,-26.5083,-0.736986,24.5627,1.01501,3.06603,0.110886,1.44218,1.50445,0.853279,-0.958534,1.07499,0.200234,0.19201,0.603187,0.232153,-0.156312,0.135384,-0.278596,0.0897715,
0.0200682,-0.0548692,0.511029,-1.56566,0.0400674,-0.0151312,0.531642,-0.000345882,-0.000384272,-0.000267898,0.00018331,-0.0018249,9.95537e-05,4.60568e-06,0,0,0,0,0,0,0,0.0200748,-0.0549002,0.51104,-1.56587,0.0403002,1.55586,1.31704,0.00102129,-0.0123486,0.000113276,-0.0273775,-0.0194478,0.024961,-0.000913039,0.182071,-26.5083,-0.736986,24.5627,1.01501,3.06603,0.110886,1.99314,1.9103,0.997638,-1.20655,1.41,0.231517,0.226705,0.75701,0.266106,-0.135538,0.143255,-0.243717,0.0889579,
0.0200669,-0.0548706,0.511028,-1.56566,0.0400612,-0.0151309,0.531642,-0.000320656,-0.000353692,-0.000239389,0.000170883,-0.00153302,7.5251e-05,4.81236e-06,0,0,0,0,0,0,0,0.0200629,-0.0549218,0.511032,-1.56619,0.0402948,1.55634,1.31704,0.00350616,0.00101337,0.00165832,0.00128161,-0.00320978,-2.2751e-05,0.000297654,0.182071,-27.6589,-0.76079,27.1771,0.800778,3.26562,0.0706026,1.99314,1.9103,0.997638,-1.20655,1.41,0.231517,0.226705,0.75701,0.266106,-0.135538,0.143255,-0.243717,0.0889579,
0.0200657,-0.0548719,0.511028,-1.56566,0.040056,-0.0151307,0.531642,-0.000295309,-0.000329554,-0.000210926,0.000158863,-0.00129394,4.95644e-05,4.85267e-06,0,0,0,0,0,0,0,0.0200629,-0.0549218,0.511032,-1.56619,0.0402948,1.55634,1.31704,0.00350616,0.00101337,0.00165832,0.00128161,-0.00320978,-2.2751e-05,0.000297654,0.182071,-27.6589,-0.76079,27.1771,0.800778,3.26562,0.0706026,2.37653,1.73209,1.48263,-0.940579,1.47393,0.0419346,0.0299452,0.688892,0.0724748,0.0637207,0.135767,-0.198815,0.0893174,
0.0200646,-0.0548732,0.511027,-1.56566,0.0400517,-0.0151306,0.531642,-0.000270623,-0.000310711,-0.000183333,0.000147597,-0.00109636,2.29797e-05,4.78832e-06,0,0,0,0,0,0,0,0.0200629,-0.0549218,0.511032,-1.56619,0.0402948,1.55634,1.31704,0.00350616,0.00101337,0.00165832,0.00128161,-0.00320978,-2.2751e-05,0.000297654,0.182071,-27.6589,-0.76079,27.1771,0.800778,3.26562,0.0706026,2.37653,1.73209,1.48263,-0.940579,1.47393,0.0419346,0.0299452,0.688892,0.0724748,0.0637207,0.135767,-0.198815,0.0893174,
0.0200637,-0.0548743,0.511026,-1.56566,0.0400479,-0.0151306,0.531642,-0.000247079,-0.000296204,-0.000157107,0.000137267,-0.0009317,-3.98896e-06,4.66124e-06,0,0,0,0,0,0,0,0.0200629,-0.0549218,0.511032,-1.56619,0.0402948,1.55634,1.31704,0.00350616,0.00101337,0.00165832,0.00128161,-0.00320978,-2.2751e-05,0.000297654,0.182071,-27.6589,-0.76079,27.1771,0.800778,3.26562,0.0706026,2.2317,1.99177,1.40861,-1.14262,1.41186,0.202069,0.178509,0.677022,0.249655,0.0280359,0.157514,-0.209849,0.0882381,
0.0200628,-0.0548755,0.511026,-1.56566,0.0400448,-0.0151307,0.531642,-0.00022495,-0.000285229,-0.000132524,0.000127947,-0.000793398,-3.08617e-05,4.49959e-06,0,0,0,0,0,0,0,0.0200629,-0.0549218,0.511032,-1.56619,0.0402948,1.55634,1.31704,0.00350616,0.00101337,0.00165832,0.00128161,-0.00320978,-2.2751e-05,0.000297654,0.182071,-27.6589,-0.76079,27.1771,0.800778,3.26562,0.0706026,2.2317,1.99177,1.40861,-1.14262,1.41186,0.202069,0.178509,0.677022,0.249655,0.0280359,0.157514,-0.209849,0.0882381,
0.0200619,-0.0548766,0.511025,-1.56566,0.0400421,-0.015131,0.531642,-0.00020437,-0.00027712,-0.00010971,0.000119644,-0.000676404,-5.7224e-05,4.322e-06,0,0,0,0,0,0,0,0.0200629,-0.0549218,0.511032,-1.56619,0.0402948,1.55634,1.31704,0.00350616,0.00101337,0.00165832,0.00128161,-0.00320978,-2.2751e-05,0.000297654,0.182071,-27.6589,-0.76079,27.1771,0.800778,3.26562,0.0706026,1.75995,1.70286,1.42294,-0.927502,1.06281,0.203102,0.173415,0.482579,0.250311,0.0759482,0.158748,-0.223933,0.0879709,
0.0200612,-0.0548777,0.511025,-1.56566,0.0400397,-0.0151313,0.531642,-0.000185377,-0.000271325,-8.8691e-05,0.000112318,-0.00057679,-8.27392e-05,4.14058e-06,0,0,0,0,0,0,0,0.0200673,-0.0549201,0.511036,-1.56614,0.0403315,1.55638,1.31704,0.000851031,0.000214949,0.000122388,-0.00160389,0.0109219,-0.00155017,-0.000241838,0.134464,-27.6827,-0.812364,26.6534,0.452877,2.9406,0.0843355,1.69505,1.45215,1.8202,-0.670903,0.838978,0.105127,0.0731519,0.27676,0.145371,0.250478,0.123069,-0.216293,0.0888666,
0.0200605,-0.0548788,0.511025,-1.56566,0.0400378,-0.0151317,0.531642,-0.000167949,-0.000267385,-6.94304e-05,0.000105908,-0.000491477,-0.000107149,3.96294e-06,0,0,0,0,0,0,0,0.0200673,-0.0549201,0.511036,-1.56614,0.0403315,1.55638,1.31704,0.000851031,0.000214949,0.000122388,-0.00160389,0.0109219,-0.00155017,-0.000241838,0.134464,-27.6827,-0.812364,26.6534,0.452877,2.9406,0.0843355,1.69505,1.45215,1.8202,-0.670903,0.838978,0.105127,0.0731519,0.27676,0.145371,0.250478,0.123069,-0.216293,0.0888666,
0.0200599,-0.0548798,0.511024,-1.56565,0.0400361,-0.0151322,0.531642,-0.000152028,-0.000264928,-5.18521e-05,0.000100337,-0.000418027,-0.000130268,3.79363e-06,0,0,0,0,0,0,0,0.0200673,-0.0549201,0.511036,-1.56614,0.0403315,1.55638,1.31704,0.000851031,0.000214949,0.000122388,-0.00160389,0.0109219,-0.00155017,-0.000241838,0.134464,-27.6827,-0.812364,26.6534,0.452877,2.9406,0.0843355,1.68584,1.55283,1.57946,-0.801733,0.948206,0.154179,0.110707,0.390665,0.210538,0.135519,0.138486,-0.236853,0.088267,
0.0200594,-0.0548809,0.511024,-1.56565,0.0400347,-0.0151329,0.531642,-0.000137531,-0.000263644,-3.58575e-05,9.55265e-05,-0.000354494,-0.000151976,3.63519e-06,0,0,0,0,0,0,0,0.0200673,-0.0549201,0.511036,-1.56614,0.0403315,1.55638,1.31704,0.000851031,0.000214949,0.000122388,-0.00160389,0.0109219,-0.00155017,-0.000241838,0.134464,-27.6827,-0.812364,26.6534,0.452877,2.9406,0.0843355,1.68584,1.55283,1.57946,-0.801733,0.948206,0.154179,0.110707,0.390665,0.210538,0.135519,0.138486,-0.236853,0.088267,
0.0200589,-0.0548819,0.511024,-1.56565,0.0400335,-0.0151335,0.531642,-0.000124363,-0.000263283,-2.13364e-05,9.13952e-05,-0.000299311,-0.000172204,3.48878e-06,0,0,0,0,0,0,0,0.0200673,-0.0549201,0.511036,-1.56614,0.0403315,1.55638,1.31704,0.000851031,0.000214949,0.000122388,-0.00160389,0.0109219,-0.00155017,-0.000241838,0.134464,-27.6827,-0.812364,26.6534,0.452877,2.9406,0.0843355,1.85767,1.64309,1.4441,-0.889801,1.13541,0.146976,0.101995,0.521787,0.207823,0.0649758,0.151944,-0.236011,0.0886722,
0.0200584,-0.054883,0.511024,-1.56565,0.0400325,-0.0151343,0.531642,-0.000112427,-0.000263639,-8.17485e-06,8.78663e-05,-0.000251203,-0.000190929,3.35471e-06,0,0,0,0,0,0,0,0.0200667,-0.0549416,0.511036,-1.56615,0.0402658,1.55638,1.31705,-0.00241814,4.19484e-05,-0.000926882,-1.20188e-05,0.00930148,0.00526353,0.000980575,0.182071,-27.3811,-0.812364,26.828,0.825497,2.97356,0.050461,1.65877,1.64544,1.66312,-0.83796,0.904615,0.205275,0.170786,0.356457,0.253303,0.165702,0.154817,-0.237237,0.0880732,
0.020058,-0.054884,0.511024,-1.56565,0.0400317,-0.0151351,0.531642,-0.000101622,-0.000264546,3.74028e-06,8.48679e-05,-0.000209125,-0.000208162,3.23273e-06,0,0,0,0,0,0,0,0.0200667,-0.0549416,0.511036,-1.56615,0.0402658,1.55638,1.31705,-0.00241814,4.19484e-05,-0.000926882,-1.20188e-05,0.00930148,0.00526353,0.000980575,0.182071,-27.3811,-0.812364,26.828,0.825497,2.97356,0.050461,1.65877,1.64544,1.66312,-0.83796,0.904615,0.205275,0.170786,0.356457,0.253303,0.165702,0.154817,-0.237237,0.0880732,
0.0200576,-0.0548851,0.511024,-1.56565,0.040031,-0.015136,0.531642,-9.18518e-05,-0.000265869,1.4518e-05,8.2334e-05,-0.000172216,-0.000223942,3.12227e-06,0,0,0,0,0,0,0,0.0200667,-0.0549416,0.511036,-1.56615,0.0402658,1.55638,1.31705,-0.00241814,4.19484e-05,-0.000926882,-1.20188e-05,0.00930148,0.00526353,0.000980575,0.182071,-27.3811,-0.812364,26.828,0.825497,2.97356,0.050461,1.69436,1.75084,1.49187,-0.96881,1.01987,0.244103,0.227391,0.462348,0.280287,0.067351,0.156575,-0.26299,0.088405,
0.0200573,-0.0548862,0.511024,-1.56565,0.0400304,-0.015137,0.531642,-8.30254e-05,-0.000267499,2.42614e-05,8.02048e-05,-0.000139757,-0.000238325,3.02256e-06,0,0,0,0,0,0,0,0.0200667,-0.0549416,0.511036,-1.56615,0.0402658,1.55638,1.31705,-0.00241814,4.19484e-05,-0.000926882,-1.20188e-05,0.00930148,0.00526353,0.000980575,0.182071,-27.3811,-0.812364,26.828,0.825497,2.97356,0.050461,1.69436,1.75084,1.49187,-0.96881,1.01987,0.244103,0.227391,0.462348,0.280287,0.067351,0.156575,-0.26299,0.088405,
0.020057,-0.0548872,0.511025,-1.56565,0.04003,-0.015138,0.531642,-7.50562e-05,-0.00026935,3.3067e-05,7.84267e-05,-0.000111146,-0.000251381,2.93279e-06,0,0,0,0,0,0,0,0.0200667,-0.0549416,0.511036,-1.56615,0.0402658,1.55638,1.31705,-0.00241814,4.19484e-05,-0.000926882,-1.20188e-05,0.00930148,0.00526353,0.000980575,0.182071,-27.3811,-0.812364,26.828,0.825497,2.97356,0.050461,2.1496,1.6583,1.20554,-1.00729,1.46167,0.0720763,0.0735328,0.754495,0.0946493,-0.0921617,0.113334,-0.27419,0.0897119,
0.0200567,-0.0548883,0.511025,-1.56565,0.0400296,-0.015139,0.531642,-6.78644e-05,-0.000271351,4.10237e-05,7.69523e-05,-8.58754e-05,-0.000263191,2.85208e-06,0,0,0,0,0,0,0,0.0200667,-0.0549416,0.511036,-1.56615,0.0402658,1.55638,1.31705,-0.00241814,4.19484e-05,-0.000926882,-1.20188e-05,0.00930148,0.00526353,0.000980575,0.182071,-27.3811,-0.812364,26.828,0.825497,2.97356,0.050461,1.74875,1.62252,1.36406,-0.90572,1.0921,0.169622,0.183603,0.517002,0.175514,0.0320917,0.14201,-0.249687,0.0897842,
0.0200565,-0.0548894,0.511025,-1.56565,0.0400294,-0.0151401,0.531642,-6.13763e-05,-0.000273447,4.82134e-05,7.57394e-05,-6.35146e-05,-0.000273837,2.77961e-06,0,0,0,0,0,0,0,0.020044,-0.0549653,0.510996,-1.56615,0.0402677,1.55635,1.31704,0.00159564,-0.00243164,-1.51719e-05,-0.00171943,-0.0111763,-0.00297958,-0.000109926,0.182071,-27.4327,-0.836168,26.951,0.819088,3.21252,0.0779268,1.74875,1.62252,1.36406,-0.90572,1.0921,0.169622,0.183603,0.517002,0.175514,0.0320917,0.14201,-0.249687,0.0897842,
0.0200563,-0.0548905,0.511025,-1.56565,0.0400292,-0.0151413,0.531642,-5.55244e-05,-0.000275596,5.47109e-05,7.47511e-05,-4.36962e-05,-0.000283407,2.71456e-06,0,0,0,0,0,0,0,0.020044,-0.0549653,0.510996,-1.56615,0.0402677,1.55635,1.31704,0.00159564,-0.00243164,-1.51719e-05,-0.00171943,-0.0111763,-0.00297958,-0.000109926,0.182071,-27.4327,-0.836168,26.951,0.819088,3.21252,0.0779268,1.86154,1.6369,1.50309,-0.866016,1.11756,0.145711,0.164171,0.504124,0.145002,0.0885329,0.153371,-0.234602,0.0892392,
0.0202561,-0.0551255,0.511218,-1.56542,-0.0159394,-0.0503088,0.531487,-0.00518498,0.000926051,-0.00514917,-0.00229178,-0.33392,-0.212138,-0.000692778,0,0,0,0,0,0,0,0.020044,-0.0549653,0.510996,-1.56615,0.0402677,1.55635,1.31704,0.00159564,-0.00243164,-1.51719e-05,-0.00171943,-0.0111763,-0.00297958,-0.000109926,0.182071,-27.4327,-0.836168,26.951,0.819088,3.21252,0.0779268,1.86154,1.6369,1.50309,-0.866016,1.11756,0.145711,0.164171,0.504124,0.145002,0.0885329,0.153371,-0.234602,0.0892392,
0.0202213,-0.0552747,0.511192,-1.56596,-0.00572912,-0.0438955,0.531559,-0.00442906,0.000198527,-0.00430528,-0.00208587,-0.25606,-0.169767,-0.000337867,0,0,0,0,0,0,0,0.020044,-0.0549653,0.510996,-1.56615,0.0402677,1.55635,1.31704,0.00159564,-0.00243164,-1.51719e-05,-0.00171943,-0.0111763,-0.00297958,-0.000109926,0.182071,-27.4327,-0.836168,26.951,0.819088,3.21252,0.0779268,2.03594,1.73487,1.46647,-0.965624,1.25624,0.141687,0.157998,0.586012,0.146517,0.0514727,0.135361,-0.237253,0.0880925,
0.0202034,-0.0552738,0.511175,-1.56597,-0.00673808,-0.044566,0.531558,-0.00448888,0.000210696,-0.00436727,-0.00210005,-0.252239,-0.167623,-0.000336085,0,0,0,0,0,0,0,0.020044,-0.0549653,0.510996,-1.56615,0.0402677,1.55635,1.31704,0.00159564,-0.00243164,-1.51719e-05,-0.00171943,-0.0111763,-0.00297958,-0.000109926,0.182071,-27.4327,-0.836168,26.951,0.819088,3.21252,0.0779268,2.03594,1.73487,1.46647,-0.965624,1.25624,0.141687,0.157998,0.586012,0.146517,0.0514727,0.135361,-0.237253,0.0880925,
0.0201852,-0.055273,0.511157,-1.56597,-0.00773078,-0.0452273,0.531557,-0.00454982,0.000216671,-0.00443011,-0.00212029,-0.248177,-0.16532,-0.000335404,0,0,0,0,0,0,0,0.0200735,-0.0549846,0.511007,-1.56612,0.0400063,1.55632,1.31704,0.00124895,0.00153558,-3.75312e-05,0.00543998,-0.0459008,-0.00974191,-0.000418846,-0.147213,-27.4565,-0.963121,26.5305,-0.0900305,2.96715,0.0843355,1.9512,1.80542,1.46104,-0.995094,1.19879,0.197379,0.199056,0.55648,0.216568,0.0633198,0.160607,-0.228525,0.0883039,
0.0201667,-0.0552721,0.511139,-1.56598,-0.00870614,-0.0458786,0.531555,-0.00461366,0.000216937,-0.00449556,-0.00214863,-0.24384,-0.162829,-0.000335852,0,0,0,0,0,0,0,0.0200735,-0.0549846,0.511007,-1.56612,0.0400063,1.55632,1.31704,0.00124895,0.00153558,-3.75312e-05,0.00543998,-0.0459008,-0.00974191,-0.000418846,-0.147213,-27.4565,-0.963121,26.5305,-0.0900305,2.96715,0.0843355,1.88339,1.98622,1.5322,-1.16586,1.1414,0.294108,0.274529,0.523299,0.33944,0.0454255,0.129154,-0.272563,0.0904877,
0.020148,-0.0552713,0.511121,-1.56599,-0.00966289,-0.046519,0.531554,-0.00468252,0.000211999,-0.00456564,-0.00218745,-0.239187,-0.160114,-0.0003375,0,0,0,0,0,0,0,0.0200735,-0.0549846,0.511007,-1.56612,0.0400063,1.55632,1.31704,0.00124895,0.00153558,-3.75312e-05,0.00543998,-0.0459008,-0.00974191,-0.000418846,-0.147213,-27.4565,-0.963121,26.5305,-0.0900305,2.96715,0.0843355,1.88339,1.98622,1.5322,-1.16586,1.1414,0.294108,0.274529,0.523299,0.33944,0.0454255,0.129154,-0.272563,0.0904877,
0.020129,-0.0552705,0.511102,-1.566,-0.0105996,-0.0471476,0.531552,-0.00475893,0.000202403,-0.00464285,-0.00223961,-0.234168,-0.157132,-0.000340345,0,0,0,0,0,0,0,0.0200735,-0.0549846,0.511007,-1.56612,0.0400063,1.55632,1.31704,0.00124895,0.00153558,-3.75312e-05,0.00543998,-0.0459008,-0.00974191,-0.000418846,-0.147213,-27.4565,-0.963121,26.5305,-0.0900305,2.96715,0.0843355,1.39892,2.17344,1.61408,-1.38009,0.74595,0.511274,0.466815,0.29154,0.588402,0.0667687,0.0537603,-0.320957,0.0900756,
0.0201096,-0.0552697,0.511083,-1.56601,-0.0115145,-0.0477629,0.531551,-0.00484602,0.000188749,-0.00473021,-0.00230847,-0.228723,-0.153834,-0.000344537,0,0,0,0,0,0,0,0.0200735,-0.0549846,0.511007,-1.56612,0.0400063,1.55632,1.31704,0.00124895,0.00153558,-3.75312e-05,0.00543998,-0.0459008,-0.00974191,-0.000418846,-0.147213,-27.4565,-0.963121,26.5305,-0.0900305,2.96715,0.0843355,1.39892,2.17344,1.61408,-1.38009,0.74595,0.511274,0.466815,0.29154,0.588402,0.0667687,0.0537603,-0.320957,0.0900756,
0.0200898,-0.055269,0.511064,-1.56602,-0.0124056,-0.0483635,0.53155,-0.00494774,0.000171707,-0.00483154,-0.00239807,-0.222775,-0.150158,-0.000349932,0,0,0,0,0,0,0,0.0200735,-0.0549846,0.511007,-1.56612,0.0400063,1.55632,1.31704,0.00124895,0.00153558,-3.75312e-05,0.00543998,-0.0459008,-0.00974191,-0.000418846,-0.147213,-27.4565,-0.963121,26.5305,-0.0900305,2.96715,0.0843355,1.43587,1.93396,1.77713,-1.26003,0.66151,0.386738,0.320132,0.193298,0.482993,0.128115,-0.0571231,-0.32766,0.0893505,
0.0200695,-0.0552684,0.511044,-1.56603,-0.0132705,-0.0489476,0.531548,-0.00506905,0.000152035,-0.00495167,-0.00251318,-0.21623,-0.146028,-0.000356338,0,0,0,0,0,0,0,0.020193,-0.0549898,0.511091,-1.56615,0.0349937,1.55583,1.31704,-0.000260063,0.000507659,0.000358696,-0.00947024,-0.174373,-0.0258123,-0.000314412,-0.500302,-27.4327,-1.31224,26.9272,0.190121,2.84081,0.0907442,1.737,1.8121,2.00349,-1.16609,0.782226,0.243701,0.170766,0.21241,0.34322,0.182248,-0.112892,-0.335685,0.089468,
0.0200486,-0.0552679,0.511024,-1.56604,-0.0141064,-0.0495131,0.531547,-0.00521637,0.0001306,-0.00509686,-0.00265952,-0.208973,-0.141358,-0.000363606,0,0,0,0,0,0,0,0.020193,-0.0549898,0.511091,-1.56615,0.0349937,1.55583,1.31704,-0.000260063,0.000507659,0.000358696,-0.00947024,-0.174373,-0.0258123,-0.000314412,-0.500302,-27.4327,-1.31224,26.9272,0.190121,2.84081,0.0907442,1.737,1.8121,2.00349,-1.16609,0.782226,0.243701,0.170766,0.21241,0.34322,0.182248,-0.112892,-0.335685,0.089468,
0.0200271,-0.0552675,0.511003,-1.56605,-0.0149098,-0.0500572,0.531545,-0.00539803,0.00010838,-0.00527519,-0.00284383,-0.200854,-0.136041,-0.000371229,0,0,0,0,0,0,0,0.020193,-0.0549898,0.511091,-1.56615,0.0349937,1.55583,1.31704,-0.000260063,0.000507659,0.000358696,-0.00947024,-0.174373,-0.0258123,-0.000314412,-0.500302,-27.4327,-1.31224,26.9272,0.190121,2.84081,0.0907442,2.1209,1.70856,2.02013,-1.15524,1.0739,0.0858838,0.00949453,0.376642,0.190049,0.113242,-0.171352,-0.378792,0.0892934,
0.0200046,-0.0552671,0.510981,-1.56606,-0.0156765,-0.050577,0.531544,-0.00562495,8.64374e-05,-0.00549733,-0.00307417,-0.191686,-0.129951,-0.000378335,0,0,0,0,0,0,0,0.020193,-0.0549898,0.511091,-1.56615,0.0349937,1.55583,1.31704,-0.000260063,0.000507659,0.000358696,-0.00947024,-0.174373,-0.0258123,-0.000314412,-0.500302,-27.4327,-1.31224,26.9272,0.190121,2.84081,0.0907442,2.1209,1.70856,2.02013,-1.15524,1.0739,0.0858838,0.00949453,0.376642,0.190049,0.113242,-0.171352,-0.378792,0.0892934,
0.0199809,-0.0552668,0.510957,-1.56608,-0.0164014,-0.0510688,0.531542,-0.00591159,6.58634e-05,-0.00577736,-0.00336015,-0.181229,-0.12294,-0.000383285,0,0,0,0,0,0,0,0.020193,-0.0549898,0.511091,-1.56615,0.0349937,1.55583,1.31704,-0.000260063,0.000507659,0.000358696,-0.00947024,-0.174373,-0.0258123,-0.000314412,-0.500302,-27.4327,-1.31224,26.9272,0.190121,2.84081,0.0907442,2.39116,1.41518,2.19133,-1.01667,1.22826,-0.128082,-0.210702,0.439974,-0.0200675,0.0889309,-0.271424,-0.454508,0.089306,
0.0199558,-0.0552667,0.510933,-1.56609,-0.0170781,-0.0515281,0.531541,-0.00627728,4.75154e-05,-0.00613414,-0.00371357,-0.169171,-0.114829,-0.000383851,0,0,0,0,0,0,0,0.0202868,-0.0550052,0.511124,-1.56616,0.0293146,1.55487,1.31704,-0.0020319,0.00109341,-0.000393948,-0.000497832,-0.161041,-0.0191175,0.000325819,-0.528073,-27.3811,-1.43523,26.951,0.392452,2.73461,0.0706026,2.39116,1.41518,2.19133,-1.01667,1.22826,-0.128082,-0.210702,0.439974,-0.0200675,0.0889309,-0.271424,-0.454508,0.089306,
0.0199288,-0.0552665,0.510907,-1.56611,-0.0176986,-0.0519497,0.531539,-0.00674828,3.12278e-05,-0.00659334,-0.00415011,-0.155105,-0.105406,-0.000374853,0,0,0,0,0,0,0,0.0202868,-0.0550052,0.511124,-1.56616,0.0293146,1.55487,1.31704,-0.0020319,0.00109341,-0.000393948,-0.000497832,-0.161041,-0.0191175,0.000325819,-0.528073,-27.3811,-1.43523,26.951,0.392452,2.73461,0.0706026,2.39227,1.24581,2.30001,-0.935475,1.22838,-0.206452,-0.281752,0.439427,-0.106715,0.0654729,-0.3143,-0.52619,0.0881651,
0.0198994,-0.0552665,0.510878,-1.56613,-0.0182525,-0.0523274,0.531538,-0.00736138,1.32548e-05,-0.00719086,-0.00469456,-0.138486,-0.0944059,-0.000345705,0,0,0,0,0,0,0,0.0202868,-0.0550052,0.511124,-1.56616,0.0293146,1.55487,1.31704,-0.0020319,0.00109341,-0.000393948,-0.000497832,-0.161041,-0.0191175,0.000325819,-0.528073,-27.3811,-1.43523,26.951,0.392452,2.73461,0.0706026,2.41006,1.30546,2.30174,-0.975277,1.29306,-0.181728,-0.235865,0.499213,-0.101109,0.0197426,-0.284815,-0.568561,0.0865964,
0.0198667,-0.0552666,0.510846,-1.56615,-0.0187267,-0.0526532,0.531537,-0.00817137,-2.21439e-05,-0.00798006,-0.00539838,-0.118561,-0.0814642,-0.000272622,0,0,0,0,0,0,0,0.0202868,-0.0550052,0.511124,-1.56616,0.0293146,1.55487,1.31704,-0.0020319,0.00109341,-0.000393948,-0.000497832,-0.161041,-0.0191175,0.000325819,-0.528073,-27.3811,-1.43523,26.951,0.392452,2.73461,0.0706026,2.41006,1.30546,2.30174,-0.975277,1.29306,-0.181728,-0.235865,0.499213,-0.101109,0.0197426,-0.284815,-0.568561,0.0865964,
0.0198296,-0.0552671,0.51081,-1.56617,-0.0191036,-0.052917,0.531536,-0.00926952,-0.00013082,-0.00905031,-0.00639883,-0.0942081,-0.0659558,-0.000147684,0,0,0,0,0,0,0,0.0202868,-0.0550052,0.511124,-1.56616,0.0293146,1.55487,1.31704,-0.0020319,0.00109341,-0.000393948,-0.000497832,-0.161041,-0.0191175,0.000325819,-0.528073,-27.3811,-1.43523,26.951,0.392452,2.73461,0.0706026,2.5859,1.39511,2.44817,-1.02366,1.40256,-0.190439,-0.221418,0.551186,-0.130966,0.0193804,-0.283067,-0.604203,0.0866914,
0.0197916,-0.0552648,0.510772,-1.5662,-0.0194079,-0.0531349,0.531536,-0.00948725,0.000559901,-0.00936161,-0.00577377,-0.0760801,-0.0544585,-5.27688e-05,0,0,0,0,0,0,0,0.0202868,-0.0550052,0.511124,-1.56616,0.0293146,1.55487,1.31704,-0.0020319,0.00109341,-0.000393948,-0.000497832,-0.161041,-0.0191175,0.000325819,-0.528073,-27.3811,-1.43523,26.951,0.392452,2.73461,0.0706026,2.5859,1.39511,2.44817,-1.02366,1.40256,-0.190439,-0.221418,0.551186,-0.130966,0.0193804,-0.283067,-0.604203,0.0866914,
0.0197544,-0.0552597,0.510735,-1.56622,-0.0196562,-0.0533158,0.531536,-0.00931212,0.00129664,-0.009254,-0.00485709,-0.0620852,-0.0452189,-1.32765e-05,0,0,0,0,0,0,0,0.020223,-0.0550096,0.511065,-1.56615,0.0244001,1.55465,1.31704,-0.00408708,0.00103645,-0.00158889,-0.00131469,-0.144705,-0.000450254,-0.00158636,0.106693,-27.4089,-0.859972,26.9272,0.795284,2.80785,0.110886,2.40672,1.61598,2.49075,-1.13551,1.29547,-0.0369438,-0.0525908,0.504987,0.00990177,0.0279739,-0.221486,-0.619634,0.0857346,
0.0197187,-0.0552521,0.5107,-1.56623,-0.0198605,-0.053466,0.531536,-0.00892866,0.0018929,-0.00891581,-0.00399704,-0.0510564,-0.0375648,9.14062e-07,0,0,0,0,0,0,0,0.020223,-0.0550096,0.511065,-1.56615,0.0244001,1.55465,1.31704,-0.00408708,0.00103645,-0.00158889,-0.00131469,-0.144705,-0.000450254,-0.00158636,0.106693,-27.4089,-0.859972,26.9272,0.795284,2.80785,0.110886,2.33407,1.78586,2.47557,-1.21543,1.2767,0.0630222,0.0590892,0.511181,0.0998646,0.0223242,-0.161162,-0.619427,0.0851444,
0.019685,-0.0552428,0.510666,-1.56625,-0.0200294,-0.0535907,0.531536,-0.00843295,0.00232438,-0.0084496,-0.00326184,-0.0422413,-0.0311615,3.511e-06,0,0,0,0,0,0,0,0.020223,-0.0550096,0.511065,-1.56615,0.0244001,1.55465,1.31704,-0.00408708,0.00103645,-0.00158889,-0.00131469,-0.144705,-0.000450254,-0.00158636,0.106693,-27.4089,-0.859972,26.9272,0.795284,2.80785,0.110886,2.33407,1.78586,2.47557,-1.21543,1.2767,0.0630222,0.0590892,0.511181,0.0998646,0.0223242,-0.161162,-0.619427,0.0851444,
0.0196534,-0.0552324,0.510634,-1.56626,-0.0201699,-0.0536938,0.531536,-0.00788189,0.00260972,-0.00791719,-0.00264611,-0.0351141,-0.0257905,3.24637e-07,0,0,0,0,0,0,0,0.020223,-0.0550096,0.511065,-1.56615,0.0244001,1.55465,1.31704,-0.00408708,0.00103645,-0.00158889,-0.00131469,-0.144705,-0.000450254,-0.00158636,0.106693,-27.4089,-0.859972,26.9272,0.795284,2.80785,0.110886,1.94336,2.02999,2.42241,-1.33845,1.03931,0.287747,0.29499,0.405028,0.315997,0.034396,-0.0772055,-0.614068,0.0836379,
0.0196242,-0.0552212,0.510605,-1.56626,-0.020287,-0.053779,0.531536,-0.00731125,0.00277577,-0.00735789,-0.00212951,-0.0292918,-0.0212839,-5.8625e-06,0,0,0,0,0,0,0,0.020223,-0.0550096,0.511065,-1.56615,0.0244001,1.55465,1.31704,-0.00408708,0.00103645,-0.00158889,-0.00131469,-0.144705,-0.000450254,-0.00158636,0.106693,-27.4089,-0.859972,26.9272,0.795284,2.80785,0.110886,1.94336,2.02999,2.42241,-1.33845,1.03931,0.287747,0.29499,0.405028,0.315997,0.034396,-0.0772055,-0.614068,0.0836379,
0.0195972,-0.0552099,0.510577,-1.56627,-0.020385,-0.053849,0.531536,-0.00674392,0.00284799,-0.00679704,-0.00169217,-0.0244895,-0.017503,-1.35357e-05,0,0,0,0,0,0,0,0.0199934,-0.0549975,0.510867,-1.56617,0.0187909,1.55466,1.31704,-0.00775588,0.0015293,-0.014429,-0.00119473,-0.127861,0.000902675,-0.00103162,0.487552,-27.5835,-0.610033,27.1255,0.672604,2.76116,0.0907442,1.83584,2.02707,2.49036,-1.23797,0.963879,0.319348,0.336958,0.363684,0.332414,0.0849212,0.00937798,-0.599557,0.0837537,
0.0184633,-0.0535904,0.509225,-1.56645,-0.14745,-0.194958,0.530056,-0.0325766,0.020898,-0.0336476,-0.0202461,-1.19465,-1.03224,-0.00715997,0,0,0,0,0,0,0,0.0199934,-0.0549975,0.510867,-1.56617,0.0187909,1.55466,1.31704,-0.00775588,0.0015293,-0.014429,-0.00119473,-0.127861,0.000902675,-0.00103162,0.487552,-27.5835,-0.610033,27.1255,0.672604,2.76116,0.0907442,1.83584,2.02707,2.49036,-1.23797,0.963879,0.319348,0.336958,0.363684,0.332414,0.0849212,0.00937798,-0.599557,0.0837537,
0.0178326,-0.0538353,0.508589,-1.5663,-0.113772,-0.147388,0.53084,-0.0262617,0.013449,-0.0269792,-0.0115007,-0.62185,-0.76001,-0.00275718,0,0,0,0,0,0,0,0.0199934,-0.0549975,0.510867,-1.56617,0.0187909,1.55466,1.31704,-0.00775588,0.0015293,-0.014429,-0.00119473,-0.127861,0.000902675,-0.00103162,0.487552,-27.5835,-0.610033,27.1255,0.672604,2.76116,0.0907442,2.12106,2.03386,2.5171,-1.20659,1.17929,0.244235,0.272542,0.483714,0.245269,0.0742862,0.0393749,-0.593152,0.0829036,
0.0177277,-0.0537828,0.508481,-1.56634,-0.116211,-0.150406,0.530829,-0.0262173,0.0131247,-0.0269439,-0.0113645,-0.609888,-0.754395,-0.0026905,0,0,0,0,0,0,0,0.0199934,-0.0549975,0.510867,-1.56617,0.0187909,1.55466,1.31704,-0.00775588,0.0015293,-0.014429,-0.00119473,-0.127861,0.000902675,-0.00103162,0.487552,-27.5835,-0.610033,27.1255,0.672604,2.76116,0.0907442,2.19412,2.22868,2.6006,-1.25682,1.22173,0.312932,0.347642,0.502104,0.307225,0.113328,0.115761,-0.570275,0.0846765,
0.017623,-0.0537318,0.508373,-1.56639,-0.1186,-0.153398,0.530819,-0.0261891,0.0127641,-0.0269244,-0.0112558,-0.597224,-0.74809,-0.00262875,0,0,0,0,0,0,0,0.0199934,-0.0549975,0.510867,-1.56617,0.0187909,1.55466,1.31704,-0.00775588,0.0015293,-0.014429,-0.00119473,-0.127861,0.000902675,-0.00103162,0.487552,-27.5835,-0.610033,27.1255,0.672604,2.76116,0.0907442,2.19412,2.22868,2.6006,-1.25682,1.22173,0.312932,0.347642,0.502104,0.307225,0.113328,0.115761,-0.570275,0.0846765,
0.0175182,-0.0536823,0.508266,-1.56643,-0.120935,-0.156362,0.530809,-0.0261824,0.012366,-0.0269258,-0.0111821,-0.583734,-0.740932,-0.00257164,0,0,0,0,0,0,0,0.0199934,-0.0549975,0.510867,-1.56617,0.0187909,1.55466,1.31704,-0.00775588,0.0015293,-0.014429,-0.00119473,-0.127861,0.000902675,-0.00103162,0.487552,-27.5835,-0.610033,27.1255,0.672604,2.76116,0.0907442,3.36826,4.08545,3.0538,-2.41892,1.89837,0.822121,0.864457,0.799607,0.838108,0.196741,0.215148,-0.468186,0.0920212,
0.0174134,-0.0536346,0.508158,-1.56648,-0.123212,-0.159293,0.530798,-0.0262031,0.0119291,-0.0269539,-0.0111526,-0.569274,-0.732723,-0.00252029,0,0,0,0,0,0,0,0.0199732,-0.0550533,0.510707,-1.56585,0.0108311,1.55156,1.31704,0.00549954,-0.0149362,0.000949164,0.0233422,-0.526592,-0.303577,-0.000626101,-1.3136,-26.8099,-1.98668,24.4119,-0.512089,1.30273,0.0843355,3.36826,4.08545,3.0538,-2.41892,1.89837,0.822121,0.864457,0.799607,0.838108,0.196741,0.215148,-0.468186,0.0920212,
0.0173084,-0.0535888,0.50805,-1.56652,-0.125427,-0.162186,0.530789,-0.026258,0.0114517,-0.0270154,-0.0111781,-0.553679,-0.723229,-0.00247553,0,0,0,0,0,0,0,0.0199732,-0.0550533,0.510707,-1.56585,0.0108311,1.55156,1.31704,0.00549954,-0.0149362,0.000949164,0.0233422,-0.526592,-0.303577,-0.000626101,-1.3136,-26.8099,-1.98668,24.4119,-0.512089,1.30273,0.0843355,3.30374,4.15161,3.28757,-2.52031,1.69646,0.854929,0.869991,0.620215,0.90144,0.289982,0.0922797,-0.465416,0.0959856,
0.017203,-0.053545,0.507941,-1.56657,-0.127574,-0.165034,0.530779,-0.0263548,0.010932,-0.027118,-0.0112718,-0.536759,-0.712166,-0.00243855,0,0,0,0,0,0,0,0.0199732,-0.0550533,0.510707,-1.56585,0.0108311,1.55156,1.31704,0.00549954,-0.0149362,0.000949164,0.0233422,-0.526592,-0.303577,-0.000626101,-1.3136,-26.8099,-1.98668,24.4119,-0.512089,1.30273,0.0843355,3.30374,4.15161,3.28757,-2.52031,1.69646,0.854929,0.869991,0.620215,0.90144,0.289982,0.0922797,-0.465416,0.0959856,
0.017097,-0.0535036,0.507832,-1.56661,-0.129647,-0.167831,0.530769,-0.0265025,0.0103683,-0.0272703,-0.011449,-0.518301,-0.699196,-0.00241103,0,0,0,0,0,0,0,0.0199732,-0.0550533,0.510707,-1.56585,0.0108311,1.55156,1.31704,0.00549954,-0.0149362,0.000949164,0.0233422,-0.526592,-0.303577,-0.000626101,-1.3136,-26.8099,-1.98668,24.4119,-0.512089,1.30273,0.0843355,2.58248,3.71015,3.14219,-2.49233,1.22892,0.838608,0.823298,0.394231,0.920702,0.165166,-0.128884,-0.621073,0.0973284,
0.0169901,-0.0534645,0.507722,-1.56666,-0.131639,-0.170567,0.53076,-0.0267107,0.00975911,-0.027482,-0.0117286,-0.498062,-0.683913,-0.00239404,0,0,0,0,0,0,0,0.0199732,-0.0550533,0.510707,-1.56585,0.0108311,1.55156,1.31704,0.00549954,-0.0149362,0.000949164,0.0233422,-0.526592,-0.303577,-0.000626101,-1.3136,-26.8099,-1.98668,24.4119,-0.512089,1.30273,0.0843355,3.59787,2.83288,3.4862,-2.13161,1.85534,0.137039,0.117504,0.681033,0.220237,0.0499084,-0.470503,-0.809171,0.0954501,
0.0168822,-0.0534281,0.507611,-1.56671,-0.133542,-0.17323,0.53075,-0.02699,0.00910327,-0.0277636,-0.0121325,-0.475772,-0.665835,-0.00239,0,0,0,0,0,0,0,0.0202118,-0.0551698,0.510795,-1.56503,-0.00801551,1.5367,1.31703,0.00454461,-0.00847398,0.00592287,0.0172895,-0.583359,-0.532895,0.00114373,-1.38897,-26.5837,-2.13744,25.6061,-0.340885,1.43548,0.0706026,3.59787,2.83288,3.4862,-2.13161,1.85534,0.137039,0.117504,0.681033,0.220237,0.0499084,-0.470503,-0.809171,0.0954501,
0.0167728,-0.0533945,0.507499,-1.56676,-0.135347,-0.175808,0.53074,-0.0273519,0.00840066,-0.0281262,-0.0126869,-0.451136,-0.644386,-0.00240198,0,0,0,0,0,0,0,0.0202118,-0.0551698,0.510795,-1.56503,-0.00801551,1.5367,1.31703,0.00454461,-0.00847398,0.00592287,0.0172895,-0.583359,-0.532895,0.00114373,-1.38897,-26.5837,-2.13744,25.6061,-0.340885,1.43548,0.0706026,3.50477,2.04519,4.22803,-1.56667,1.60063,-0.21026,-0.242827,0.45061,-0.130324,0.185045,-0.600961,-0.998887,0.0929718,
0.0166615,-0.0533639,0.507385,-1.56681,-0.137042,-0.178283,0.530731,-0.0278072,0.0076525,-0.0285807,-0.0134225,-0.423838,-0.618888,-0.00243314,0,0,0,0,0,0,0,0.0202118,-0.0551698,0.510795,-1.56503,-0.00801551,1.5367,1.31703,0.00454461,-0.00847398,0.00592287,0.0172895,-0.583359,-0.532895,0.00114373,-1.38897,-26.5837,-2.13744,25.6061,-0.340885,1.43548,0.0706026,3.50477,2.04519,4.22803,-1.56667,1.60063,-0.21026,-0.242827,0.45061,-0.130324,0.185045,-0.600961,-0.998887,0.0929718,
0.0165481,-0.0533365,0.507268,-1.56687,-0.138616,-0.180637,0.530721,-0.0283658,0.00686225,-0.0291368,-0.0143751,-0.393551,-0.588542,-0.00248868,0,0,0,0,0,0,0,0.0202118,-0.0551698,0.510795,-1.56503,-0.00801551,1.5367,1.31703,0.00454461,-0.00847398,0.00592287,0.0172895,-0.583359,-0.532895,0.00114373,-1.38897,-26.5837,-2.13744,25.6061,-0.340885,1.43548,0.0706026,3.57502,1.42795,4.39651,-1.22004,1.71393,-0.524101,-0.570994,0.537098,-0.437833,0.0798077,-0.677958,-1.18957,0.0910012,
0.0164319,-0.0533123,0.507149,-1.56693,-0.140056,-0.182847,0.53071,-0.0290347,0.00603659,-0.0298013,-0.0155861,-0.359959,-0.55241,-0.00257559,0,0,0,0,0,0,0,0.0202118,-0.0551698,0.510795,-1.56503,-0.00801551,1.5367,1.31703,0.00454461,-0.00847398,0.00592287,0.0172895,-0.583359,-0.532895,0.00114373,-1.38897,-26.5837,-2.13744,25.6061,-0.340885,1.43548,0.0706026,2.77494,0.716704,4.59327,-0.829662,1.14374,-0.637056,-0.695105,0.229809,-0.548259,0.0680812,-0.790305,-1.38323,0.0878664,
0.0163127,-0.0532916,0.507026,-1.567,-0.141347,-0.184885,0.5307,-0.029815,0.00518734,-0.0305752,-0.0171028,-0.322778,-0.509395,-0.00270467,0,0,0,0,0,0,0,0.0202777,-0.0553373,0.510899,-1.56498,-0.0250064,1.52044,1.31703,0.00111769,-0.00909071,0.00162595,-0.00203641,-0.517294,-0.512319,-0.000628319,-1.28582,-26.9844,-2.08586,26.106,-0.255741,1.51513,0.110886,2.63967,0.468998,4.44615,-0.815192,1.16438,-0.718463,-0.776848,0.296849,-0.625679,-0.0923095,-0.876139,-1.51235,0.0834527,
0.0161899,-0.0532742,0.506901,-1.56708,-0.142475,-0.186718,0.530688,-0.0306979,0.00433545,-0.03145,-0.0189749,-0.281805,-0.45823,-0.00288449,0,0,0,0,0,0,0,0.0202777,-0.0553373,0.510899,-1.56498,-0.0250064,1.52044,1.31703,0.00111769,-0.00909071,0.00162595,-0.00203641,-0.517294,-0.512319,-0.000628319,-1.28582,-26.9844,-2.08586,26.106,-0.255741,1.51513,0.110886,2.63967,0.468998,4.44615,-0.815192,1.16438,-0.718463,-0.776848,0.296849,-0.625679,-0.0923095,-0.876139,-1.51235,0.0834527,
0.0160633,-0.0532601,0.506771,-1.56716,-0.143423,-0.188308,0.530676,-0.031656,0.00352175,-0.0323986,-0.0212403,-0.236987,-0.39748,-0.00302396,0,0,0,0,0,0,0,0.0202777,-0.0553373,0.510899,-1.56498,-0.0250064,1.52044,1.31703,0.00111769,-0.00909071,0.00162595,-0.00203641,-0.517294,-0.512319,-0.000628319,-1.28582,-26.9844,-2.08586,26.106,-0.255741,1.51513,0.110886,3.37416,0.735688,3.91676,-1.18929,2.02381,-0.805413,-0.837584,0.918174,-0.722614,-0.487533,-0.867347,-1.62717,0.0788565,
0.0159328,-0.0532488,0.506638,-1.56726,-0.144177,-0.18961,0.53067,-0.0326143,0.00284325,-0.0333619,-0.023867,-0.188561,-0.325655,-0.00140469,0,0,0,0,0,0,0,0.0202777,-0.0553373,0.510899,-1.56498,-0.0250064,1.52044,1.31703,0.00111769,-0.00909071,0.00162595,-0.00203641,-0.517294,-0.512319,-0.000628319,-1.28582,-26.9844,-2.08586,26.106,-0.255741,1.51513,0.110886,3.39363,0.633124,3.84508,-1.0839,2.13587,-0.860526,-0.864166,1.02306,-0.808927,-0.550092,-0.795737,-1.66645,0.0753903,
0.0158056,-0.0532307,0.506507,-1.56734,-0.144785,-0.190692,0.530665,-0.0318028,0.0045164,-0.0326559,-0.021567,-0.15201,-0.270388,-0.00125592,0,0,0,0,0,0,0,0.0201421,-0.0554967,0.510821,-1.56499,-0.0397397,1.50393,1.31703,-0.00159184,-0.00771281,-0.000234745,-0.00201335,-0.444622,-0.471732,0.000420829,-0.373349,-26.9844,-1.43523,26.106,0.281674,1.93261,0.0641939,3.39363,0.633124,3.84508,-1.0839,2.13587,-0.860526,-0.864166,1.02306,-0.808927,-0.550092,-0.795737,-1.66645,0.0753903,
0.0156844,-0.0532053,0.506382,-1.56742,-0.145278,-0.191594,0.53066,-0.0302862,0.00635192,-0.0312135,-0.0182837,-0.123208,-0.225615,-0.00129611,0,0,0,0,0,0,0,0.0201421,-0.0554967,0.510821,-1.56499,-0.0397397,1.50393,1.31703,-0.00159184,-0.00771281,-0.000234745,-0.00201335,-0.444622,-0.471732,0.000420829,-0.373349,-26.9844,-1.43523,26.106,0.281674,1.93261,0.0641939,2.35115,0.579114,3.95101,-0.880647,1.32984,-0.595205,-0.583543,0.560847,-0.568289,-0.357548,-0.664983,-1.61411,0.0737213,
0.0155706,-0.0531741,0.506264,-1.56748,-0.145678,-0.192349,0.530655,-0.0284684,0.00779728,-0.029443,-0.0151142,-0.0999776,-0.18859,-0.00137054,0,0,0,0,0,0,0,0.0201421,-0.0554967,0.510821,-1.56499,-0.0397397,1.50393,1.31703,-0.00159184,-0.00771281,-0.000234745,-0.00201335,-0.444622,-0.471732,0.000420829,-0.373349,-26.9844,-1.43523,26.106,0.281674,1.93261,0.0641939,2.35115,0.579114,3.95101,-0.880647,1.32984,-0.595205,-0.583543,0.560847,-0.568289,-0.357548,-0.664983,-1.61411,0.0737213,
0.0154644,-0.053139,0.506154,-1.56753,-0.146001,-0.192979,0.530649,-0.026538,0.00877917,-0.0275405,-0.0123116,-0.0809602,-0.157723,-0.0014488,0,0,0,0,0,0,0,0.0201421,-0.0554967,0.510821,-1.56499,-0.0397397,1.50393,1.31703,-0.00159184,-0.00771281,-0.000234745,-0.00201335,-0.444622,-0.471732,0.000420829,-0.373349,-26.9844,-1.43523,26.106,0.281674,1.93261,0.0641939,1.67567,1.02708,3.70025,-1.16519,0.963824,-0.203944,-0.183211,0.422747,-0.178732,-0.391959,-0.539897,-1.59555,0.0714792,
0.015366,-0.0531016,0.506052,-1.56757,-0.146262,-0.193507,0.530643,-0.0245959,0.0093529,-0.0256135,-0.00988975,-0.0652169,-0.131905,-0.00152265,0,0,0,0,0,0,0,0.0201421,-0.0554967,0.510821,-1.56499,-0.0397397,1.50393,1.31703,-0.00159184,-0.00771281,-0.000234745,-0.00201335,-0.444622,-0.471732,0.000420829,-0.373349,-26.9844,-1.43523,26.106,0.281674,1.93261,0.0641939,1.67567,1.02708,3.70025,-1.16519,0.963824,-0.203944,-0.183211,0.422747,-0.178732,-0.391959,-0.539897,-1.59555,0.0714792,
0.0152752,-0.0530632,0.505957,-1.5676,-0.146471,-0.193948,0.530636,-0.0227008,0.00959824,-0.023725,-0.00780404,-0.0520606,-0.110274,-0.00158978,0,0,0,0,0,0,0,0.0201421,-0.0554967,0.510821,-1.56499,-0.0397397,1.50393,1.31703,-0.00159184,-0.00771281,-0.000234745,-0.00201335,-0.444622,-0.471732,0.000420829,-0.373349,-26.9844,-1.43523,26.106,0.281674,1.93261,0.0641939,1.17897,0.941421,3.44288,-1.01516,0.705497,-0.10649,-0.077963,0.327317,-0.0955069,-0.38138,-0.40423,-1.53827,0.0725302,
-0.00903537,-0.0420306,0.480223,-1.58031,-0.168099,-0.222943,0.518431,-0.202286,0.108126,-0.212011,-0.0966423,-1.24041,-1.31745,-0.0570324,0,0,0,0,0,0,0,0.0198378,-0.0554583,0.510413,-1.56511,-0.0518168,1.49037,1.31703,-0.0151762,0.00148089,-0.0174206,-0.00648648,-0.332837,-0.391998,5.98175e-05,0.0551182,-27.5319,-1.01073,26.8518,0.837399,2.90032,0.0641939,0.940024,1.43311,3.73127,-0.977585,0.273697,0.196385,0.231198,-0.0287966,0.190427,0.025503,-0.179112,-1.24047,0.0719054,
-0.00327566,-0.0473191,0.48619,-1.57595,-0.232119,-0.19406,0.525019,-0.171949,0.0535793,-0.178662,-0.0648594,-0.77143,0.138177,-0.019661,0,0,0,0,0,0,0,0.0198378,-0.0554583,0.510413,-1.56511,-0.0518168,1.49037,1.31703,-0.0151762,0.00148089,-0.0174206,-0.00648648,-0.332837,-0.391998,5.98175e-05,0.0551182,-27.5319,-1.01073,26.8518,0.837399,2.90032,0.0641939,0.940024,1.43311,3.73127,-0.977585,0.273697,0.196385,0.231198,-0.0287966,0.190427,0.025503,-0.179112,-1.24047,0.0719054,
-0.00396966,-0.0471115,0.485469,-1.57621,-0.234899,-0.193303,0.524943,-0.173501,0.0519008,-0.180241,-0.0638382,-0.694916,0.1892,-0.0189365,0,0,0,0,0,0,0,0.0198378,-0.0554583,0.510413,-1.56511,-0.0518168,1.49037,1.31703,-0.0151762,0.00148089,-0.0174206,-0.00648648,-0.332837,-0.391998,5.98175e-05,0.0551182,-27.5319,-1.01073,26.8518,0.837399,2.90032,0.0641939,1.14615,2.3601,3.86269,-1.25776,0.187729,0.580151,0.620935,-0.183699,0.566813,0.379959,0.0634784,-0.873842,0.0704851,
-0.00466962,-0.046911,0.484742,-1.57646,-0.237348,-0.192335,0.52487,-0.174991,0.0501171,-0.181752,-0.0628783,-0.612336,0.242061,-0.0182506,0,0,0,0,0,0,0,0.0198378,-0.0554583,0.510413,-1.56511,-0.0518168,1.49037,1.31703,-0.0151762,0.00148089,-0.0174206,-0.00648648,-0.332837,-0.391998,5.98175e-05,0.0551182,-27.5319,-1.01073,26.8518,0.837399,2.90032,0.0641939,1.14615,2.3601,3.86269,-1.25776,0.187729,0.580151,0.620935,-0.183699,0.566813,0.379959,0.0634784,-0.873842,0.0704851,
-0.00537537,-0.0467181,0.484009,-1.57671,-0.239441,-0.191148,0.524799,-0.176438,0.0482152,-0.183211,-0.061982,-0.52315,0.296867,-0.0176063,0,0,0,0,0,0,0,0.0198378,-0.0554583,0.510413,-1.56511,-0.0518168,1.49037,1.31703,-0.0151762,0.00148089,-0.0174206,-0.00648648,-0.332837,-0.391998,5.98175e-05,0.0551182,-27.5319,-1.01073,26.8518,0.837399,2.90032,0.0641939,0.610783,5.15336,3.85974,-2.78363,-0.37135,2.02609,2.07256,-0.551509,2.03927,0.744163,0.503474,-0.424254,0.0622329,
-0.00608681,-0.0465334,0.48327,-1.57695,-0.241148,-0.189733,0.524731,-0.177858,0.0461852,-0.184634,-0.0611476,-0.426748,0.353681,-0.0170113,0,0,0,0,0,0,0,0.0191303,-0.0554381,0.509432,-1.56555,-0.0647347,1.47575,1.31693,-0.0298255,-0.00281475,-0.0491305,-0.00501218,-0.704993,-0.626139,-0.00698451,-5.77679,-25.338,-6.75933,23.1424,-0.621952,2.64855,-0.0227812,-0.233351,4.92837,2.0075,-2.93774,-0.212898,2.18315,2.21308,-0.109365,2.22367,0.108195,0.648711,-0.443561,0.0355242,
-0.00680382,-0.0463573,0.482526,-1.57719,-0.242438,-0.188083,0.524665,-0.179254,0.0440237,-0.186023,-0.0603681,-0.32252,0.41248,-0.0164669,0,0,0,0,0,0,0,0.0191303,-0.0554381,0.509432,-1.56555,-0.0647347,1.47575,1.31693,-0.0298255,-0.00281475,-0.0491305,-0.00501218,-0.704993,-0.626139,-0.00698451,-5.77679,-25.338,-6.75933,23.1424,-0.621952,2.64855,-0.0227812,-0.233351,4.92837,2.0075,-2.93774,-0.212898,2.18315,2.21308,-0.109365,2.22367,0.108195,0.648711,-0.443561,0.0355242,
-0.00752623,-0.0461904,0.481777,-1.57743,-0.243278,-0.186191,0.524602,-0.180603,0.0417379,-0.187357,-0.0596256,-0.20997,0.473087,-0.015988,0,0,0,0,0,0,0,0.0191303,-0.0554381,0.509432,-1.56555,-0.0647347,1.47575,1.31693,-0.0298255,-0.00281475,-0.0491305,-0.00501218,-0.704993,-0.626139,-0.00698451,-5.77679,-25.338,-6.75933,23.1424,-0.621952,2.64855,-0.0227812,0.192645,2.20418,1.88479,-1.38671,-0.0537251,0.850351,0.882489,-0.105116,0.854992,0.0744052,0.120364,-0.520405,0.021694,
-0.0082536,-0.0460329,0.481022,-1.57767,-0.243634,-0.18405,0.524539,-0.181843,0.0393544,-0.188572,-0.0588822,-0.0889288,0.535062,-0.0155814,0,0,0,0,0,0,0,0.0191303,-0.0554381,0.509432,-1.56555,-0.0647347,1.47575,1.31693,-0.0298255,-0.00281475,-0.0491305,-0.00501218,-0.704993,-0.626139,-0.00698451,-5.77679,-25.338,-6.75933,23.1424,-0.621952,2.64855,-0.0227812,0.192645,2.20418,1.88479,-1.38671,-0.0537251,0.850351,0.882489,-0.105116,0.854992,0.0744052,0.120364,-0.520405,0.021694,
-0.00898491,-0.0458852,0.480264,-1.5779,-0.243473,-0.18166,0.524478,-0.182826,0.0369327,-0.189524,-0.0580629,0.0400762,0.597508,-0.0152688,0,0,0,0,0,0,0,0.0191303,-0.0554381,0.509432,-1.56555,-0.0647347,1.47575,1.31693,-0.0298255,-0.00281475,-0.0491305,-0.00501218,-0.704993,-0.626139,-0.00698451,-5.77679,-25.338,-6.75933,23.1424,-0.621952,2.64855,-0.0227812,4.05796,1.22148,1.84178,-0.845329,2.35352,-0.604862,-0.566274,1.01055,-0.616986,0.0937992,-0.318687,-0.180185,0.0177229,
-0.00971799,-0.0457469,0.479505,-1.57813,-0.242773,-0.179025,0.524418,-0.18327,0.0345898,-0.189936,-0.0570239,0.175179,0.658749,-0.015074,0,0,0,0,0,0,0,0.0191303,-0.0554381,0.509432,-1.56555,-0.0647347,1.47575,1.31693,-0.0298255,-0.00281475,-0.0491305,-0.00501218,-0.704993,-0.626139,-0.00698451,-5.77679,-25.338,-6.75933,23.1424,-0.621952,2.64855,-0.0227812,4.37875,2.19655,1.35219,-1.45127,2.65593,-0.20751,-0.178473,1.21042,-0.195542,0.0712921,-0.164046,0.0598752,0.00354753,
-0.0104486,-0.0456167,0.478747,-1.57835,-0.241524,-0.176162,0.524358,-0.182661,0.0325362,-0.189303,-0.0555042,0.312156,0.71587,-0.0150602,0,0,0,0,0,0,0,0.0171687,-0.0561472,0.507261,-1.56795,-0.094207,1.46013,1.31652,-0.0751574,-0.0246525,-0.0884392,-0.0769865,-0.579789,-0.255637,-0.00573592,-1.92059,-25.5602,-2.96263,27.4747,0.6488,3.95501,0.0303194,4.37875,2.19655,1.35219,-1.45127,2.65593,-0.20751,-0.178473,1.21042,-0.195542,0.0712921,-0.164046,0.0598752,0.00354753,
-0.0111691,-0.0454922,0.478,-1.57856,-0.239752,-0.173106,0.524296,-0.180129,0.0311301,-0.186767,-0.0530494,0.442981,0.764075,-0.0153459,0,0,0,0,0,0,0,0.0171687,-0.0561472,0.507261,-1.56795,-0.094207,1.46013,1.31652,-0.0751574,-0.0246525,-0.0884392,-0.0769865,-0.579789,-0.255637,-0.00573592,-1.92059,-25.5602,-2.96263,27.4747,0.6488,3.95501,0.0303194,3.60934,2.84117,1.06384,-1.87051,2.15027,0.332544,0.357949,0.96363,0.359045,0.107631,-0.0580879,0.168762,-0.0145673,
-0.0118664,-0.0453683,0.477276,-1.57876,-0.237535,-0.169922,0.524231,-0.174307,0.0309606,-0.180979,-0.0488747,0.554189,0.79598,-0.0162028,0,0,0,0,0,0,0,0.0171687,-0.0561472,0.507261,-1.56795,-0.094207,1.46013,1.31652,-0.0751574,-0.0246525,-0.0884392,-0.0769865,-0.579789,-0.255637,-0.00573592,-1.92059,-25.5602,-2.96263,27.4747,0.6488,3.95501,0.0303194,3.60934,2.84117,1.06384,-1.87051,2.15027,0.332544,0.357949,0.96363,0.359045,0.107631,-0.0580879,0.168762,-0.0145673,
-0.0125192,-0.0452361,0.476597,-1.57892,-0.235033,-0.166719,0.524158,-0.163199,0.0330543,-0.169954,-0.0414674,0.625505,0.80059,-0.0182353,0,0,0,0,0,0,0,0.0171687,-0.0561472,0.507261,-1.56795,-0.094207,1.46013,1.31652,-0.0751574,-0.0246525,-0.0884392,-0.0769865,-0.579789,-0.255637,-0.00573592,-1.92059,-25.5602,-2.96263,27.4747,0.6488,3.95501,0.0303194,3.11603,0.915285,1.90862,-0.46421,1.19589,-0.377442,-0.357834,0.160619,-0.386875,0.657557,-0.399989,0.261885,-0.0206213,
-0.0130947,-0.0450775,0.475993,-1.57903,-0.23252,-0.16368,0.524071,-0.143883,0.0396655,-0.150774,-0.0270455,0.628309,0.759806,-0.0219303,0,0,0,0,0,0,0,0.0171687,-0.0561472,0.507261,-1.56795,-0.094207,1.46013,1.31652,-0.0751574,-0.0246525,-0.0884392,-0.0769865,-0.579789,-0.255637,-0.00573592,-1.92059,-25.5602,-2.96263,27.4747,0.6488,3.95501,0.0303194,3.11603,0.915285,1.90862,-0.46421,1.19589,-0.377442,-0.357834,0.160619,-0.386875,0.657557,-0.399989,0.261885,-0.0206213,
-0.0135401,-0.0448483,0.475521,-1.579,-0.230444,-0.161146,0.524018,-0.111347,0.0572818,-0.11806,0.00621027,0.51897,0.633539,-0.0130926,0,0,0,0,0,0,0,0.014312,-0.0565518,0.503412,-1.57078,-0.101589,1.4573,1.31641,-0.102043,-0.0114374,-0.143937,-0.0863482,-0.0175205,0.00665062,-0.00191685,-1.18664,-25.6593,-2.13744,27.3001,0.843807,3.75542,0.017502,3.53187,0.332866,1.91696,-0.0952474,1.44109,-0.741973,-0.723636,0.264779,-0.759821,0.666398,-0.494212,0.276709,-0.0243539,
-0.0139028,-0.0446199,0.475135,-1.57896,-0.228639,-0.158923,0.523965,-0.0906672,0.0571029,-0.0965555,0.0106368,0.451304,0.555813,-0.0132765,0,0,0,0,0,0,0,0.014312,-0.0565518,0.503412,-1.57078,-0.101589,1.4573,1.31641,-0.102043,-0.0114374,-0.143937,-0.0863482,-0.0175205,0.00665062,-0.00191685,-1.18664,-25.6593,-2.13744,27.3001,0.843807,3.75542,0.017502,3.96233,1.02479,0.726744,-0.729196,2.30981,-0.531498,-0.513642,0.995609,-0.526667,0.150633,-0.305544,0.283463,-0.0277849,
-0.0142068,-0.0444115,0.47481,-1.57893,-0.227008,-0.156923,0.523911,-0.0760087,0.052109,-0.0812841,0.00776624,0.407702,0.499815,-0.0136889,0,0,0,0,0,0,0,0.014312,-0.0565518,0.503412,-1.57078,-0.101589,1.4573,1.31641,-0.102043,-0.0114374,-0.143937,-0.0863482,-0.0175205,0.00665062,-0.00191685,-1.18664,-25.6593,-2.13744,27.3001,0.843807,3.75542,0.017502,3.96233,1.02479,0.726744,-0.729196,2.30981,-0.531498,-0.513642,0.995609,-0.526667,0.150633,-0.305544,0.283463,-0.0277849,
-0.014467,-0.0442264,0.47453,-1.57892,-0.225491,-0.155099,0.523855,-0.0650485,0.0462615,-0.0698872,0.00380604,0.37937,0.456102,-0.013943,0,0,0,0,0,0,0,0.014312,-0.0565518,0.503412,-1.57078,-0.101589,1.4573,1.31641,-0.102043,-0.0114374,-0.143937,-0.0863482,-0.0175205,0.00665062,-0.00191685,-1.18664,-25.6593,-2.13744,27.3001,0.843807,3.75542,0.017502,3.5601,-0.269052,0.0759498,0.0934686,2.31629,-1.01248,-0.997784,1.13103,-1.02598,-0.0621244,-0.281124,0.219218,-0.0296364,
-0.0146934,-0.0440635,0.474286,-1.57891,-0.224046,-0.153416,0.523798,-0.0565993,0.0407267,-0.0611289,0.000351382,0.361204,0.420801,-0.0141032,0,0,0,0,0,0,0,0.014312,-0.0565518,0.503412,-1.57078,-0.101589,1.4573,1.31641,-0.102043,-0.0114374,-0.143937,-0.0863482,-0.0175205,0.00665062,-0.00191685,-1.18664,-25.6593,-2.13744,27.3001,0.843807,3.75542,0.017502,3.5601,-0.269052,0.0759498,0.0934686,2.31629,-1.01248,-0.997784,1.13103,-1.02598,-0.0621244,-0.281124,0.219218,-0.0296364,
-0.0148932,-0.0439203,0.474069,-1.57892,-0.222646,-0.151848,0.523741,-0.0499517,0.0358027,-0.0542625,-0.00233733,0.349941,0.391918,-0.0142111,0,0,0,0,0,0,0,0.014312,-0.0565518,0.503412,-1.57078,-0.101589,1.4573,1.31641,-0.102043,-0.0114374,-0.143937,-0.0863482,-0.0175205,0.00665062,-0.00191685,-1.18664,-25.6593,-2.13744,27.3001,0.843807,3.75542,0.017502,2.13974,-0.309243,0.0754498,0.188606,1.37975,-0.66737,-0.653522,0.666637,-0.684714,-0.0120391,-0.156634,0.139075,-0.0245711,
-0.0150717,-0.0437942,0.473874,-1.57894,-0.221273,-0.150375,0.523684,-0.0446367,0.0315197,-0.0487925,-0.00434698,0.343377,0.368177,-0.0142872,0,0,0,0,0,0,0,0.0108729,-0.0560498,0.499168,-1.57196,-0.100969,1.45863,1.31638,-0.109094,0.033194,-0.126035,-0.0153279,-0.00766361,0.0574965,-0.00126595,0.590702,-28.1825,-0.33629,26.9034,0.404354,3.15209,-0.0026396,2.13974,-0.309243,0.0754498,0.188606,1.37975,-0.66737,-0.653522,0.666637,-0.684714,-0.0120391,-0.156634,0.139075,-0.0245711,
-0.015233,-0.0436829,0.473696,-1.57896,-0.219913,-0.148981,0.523627,-0.0403266,0.0278289,-0.0443721,-0.00582507,0.33999,0.348632,-0.0143424,0,0,0,0,0,0,0,0.0108729,-0.0560498,0.499168,-1.57196,-0.100969,1.45863,1.31638,-0.109094,0.033194,-0.126035,-0.0153279,-0.00766361,0.0574965,-0.00126595,0.590702,-28.1825,-0.33629,26.9034,0.404354,3.15209,-0.0026396,1.23125,0.449652,-0.191124,-0.308828,0.916054,-0.0844613,-0.073964,0.507831,-0.085746,-0.0946279,0.0229608,0.111436,-0.0232887,
-0.0153802,-0.0435843,0.473533,-1.57899,-0.218558,-0.147651,0.523569,-0.0367857,0.0246618,-0.0407523,-0.00690442,0.33872,0.332537,-0.0143835,0,0,0,0,0,0,0,0.0108729,-0.0560498,0.499168,-1.57196,-0.100969,1.45863,1.31638,-0.109094,0.033194,-0.126035,-0.0153279,-0.00766361,0.0574965,-0.00126595,0.590702,-28.1825,-0.33629,26.9034,0.404354,3.15209,-0.0026396,0.209068,1.39691,-1.32725,-1.14552,0.768794,0.620531,0.632846,0.70524,0.645105,-0.562941,0.233368,0.0275725,-0.0267489,
-0.0155156,-0.0434965,0.473382,-1.57902,-0.217202,-0.146374,0.523512,-0.0338415,0.0219496,-0.0377512,-0.0076893,0.338826,0.319282,-0.0144147,0,0,0,0,0,0,0,0.0108729,-0.0560498,0.499168,-1.57196,-0.100969,1.45863,1.31638,-0.109094,0.033194,-0.126035,-0.0153279,-0.00766361,0.0574965,-0.00126595,0.590702,-28.1825,-0.33629,26.9034,0.404354,3.15209,-0.0026396,0.209068,1.39691,-1.32725,-1.14552,0.768794,0.620531,0.632846,0.70524,0.645105,-0.562941,0.233368,0.0275725,-0.0267489,
-0.0284772,-0.0328744,0.459691,-1.58597,-0.222723,-0.273145,0.513527,-0.337244,0.17527,-0.352603,-0.14142,-1.23143,-1.10882,-0.0756484,0,0,0,0,0,0,0,0.0108729,-0.0560498,0.499168,-1.57196,-0.100969,1.45863,1.31638,-0.109094,0.033194,-0.126035,-0.0153279,-0.00766361,0.0574965,-0.00126595,0.590702,-28.1825,-0.33629,26.9034,0.404354,3.15209,-0.0026396,-0.587073,1.71129,-1.82822,-1.40291,0.556193,0.96,0.979992,0.758207,0.984885,-0.816254,0.406139,-0.0933608,-0.0275334,
-0.0219193,-0.0427066,0.464924,-1.58351,-0.219286,-0.168633,0.522292,-0.199513,0.0792797,-0.207436,-0.0671758,-0.222438,-0.260382,-0.0339219,0,0,0,0,0,0,0,0.00701539,-0.055042,0.495035,-1.57194,-0.10172,1.46091,1.31636,-0.130822,0.0323415,-0.129652,-0.00252299,-0.0266452,0.0998832,0.000140231,1.57856,-28.5555,0.512709,25.8322,0.440975,2.42974,-0.0365141,-0.587073,1.71129,-1.82822,-1.40291,0.556193,0.96,0.979992,0.758207,0.984885,-0.816254,0.406139,-0.0933608,-0.0275334,
-0.0227176,-0.0423947,0.464094,-1.58378,-0.219919,-0.16959,0.522159,-0.199565,0.0779849,-0.20749,-0.0665832,-0.158411,-0.239185,-0.0331774,0,0,0,0,0,0,0,0.00701539,-0.055042,0.495035,-1.57194,-0.10172,1.46091,1.31636,-0.130822,0.0323415,-0.129652,-0.00252299,-0.0266452,0.0998832,0.000140231,1.57856,-28.5555,0.512709,25.8322,0.440975,2.42974,-0.0365141,-1.86984,1.57638,-0.925434,-1.09491,-0.652241,1.21125,1.2439,-0.0253411,1.20939,-0.440904,0.458562,-0.183268,-0.0252264,
-0.0235162,-0.0420884,0.463263,-1.58404,-0.220281,-0.170458,0.52203,-0.199664,0.076577,-0.207589,-0.0659856,-0.0903314,-0.216982,-0.0324439,0,0,0,0,0,0,0,0.00701539,-0.055042,0.495035,-1.57194,-0.10172,1.46091,1.31636,-0.130822,0.0323415,-0.129652,-0.00252299,-0.0266452,0.0998832,0.000140231,1.57856,-28.5555,0.512709,25.8322,0.440975,2.42974,-0.0365141,-1.86984,1.57638,-0.925434,-1.09491,-0.652241,1.21125,1.2439,-0.0253411,1.20939,-0.440904,0.458562,-0.183268,-0.0252264,
-0.0243155,-0.0417882,0.462432,-1.5843,-0.220351,-0.171233,0.521903,-0.199826,0.0750468,-0.207746,-0.0653896,-0.0176638,-0.193684,-0.0317302,0,0,0,0,0,0,0,0.00701539,-0.055042,0.495035,-1.57194,-0.10172,1.46091,1.31636,-0.130822,0.0323415,-0.129652,-0.00252299,-0.0266452,0.0998832,0.000140231,1.57856,-28.5555,0.512709,25.8322,0.440975,2.42974,-0.0365141,-3.63204,3.54886,0.0284314,-2.16137,-2.30582,2.58211,2.61817,-1.09023,2.59683,0.0716793,0.667598,-0.0972068,-0.0301407,
-0.0251158,-0.0414946,0.4616,-1.58456,-0.220111,-0.17191,0.521779,-0.200066,0.0733846,-0.20798,-0.0648033,0.0601893,-0.169186,-0.031035,0,0,0,0,0,0,0,0.00701539,-0.055042,0.495035,-1.57194,-0.10172,1.46091,1.31636,-0.130822,0.0323415,-0.129652,-0.00252299,-0.0266452,0.0998832,0.000140231,1.57856,-28.5555,0.512709,25.8322,0.440975,2.42974,-0.0365141,-1.6022,2.09008,-1.2764,-1.61814,-0.314313,1.37936,1.39481,0.222587,1.41152,-0.648078,0.404096,-0.207759,-0.024512,
-0.0259174,-0.0412083,0.460767,-1.58482,-0.219535,-0.172483,0.521657,-0.200401,0.0715807,-0.208305,-0.0642368,0.143882,-0.143353,-0.0303624,0,0,0,0,0,0,0,0.00272417,-0.0538141,0.490552,-1.57213,-0.108007,1.46087,1.31597,-0.133967,0.016449,-0.1384,-0.0162676,-0.251904,-0.0403001,-0.0173067,-0.119442,-27.032,-1.16149,25.5069,-0.963444,1.65429,-0.0026396,-1.6022,2.09008,-1.2764,-1.61814,-0.314313,1.37936,1.39481,0.222587,1.41152,-0.648078,0.404096,-0.207759,-0.024512,
-0.0267208,-0.0409298,0.459932,-1.58507,-0.218599,-0.172947,0.521538,-0.200843,0.0696256,-0.208734,-0.0637034,0.234114,-0.116022,-0.0297165,0,0,0,0,0,0,0,0.00272417,-0.0538141,0.490552,-1.57213,-0.108007,1.46087,1.31597,-0.133967,0.016449,-0.1384,-0.0162676,-0.251904,-0.0403001,-0.0173067,-0.119442,-27.032,-1.16149,25.5069,-0.963444,1.65429,-0.0026396,0.661561,0.819466,-1.51812,-1.18486,1.50649,0.206726,0.239787,1.28888,0.222972,-1.1469,-0.0105242,-0.469833,-0.0400729,
-0.0275264,-0.0406598,0.459095,-1.58532,-0.217272,-0.173295,0.521422,-0.201403,0.0675106,-0.209279,-0.0632209,0.331609,-0.0869921,-0.0291051,0,0,0,0,0,0,0,0.00272417,-0.0538141,0.490552,-1.57213,-0.108007,1.46087,1.31597,-0.133967,0.016449,-0.1384,-0.0162676,-0.251904,-0.0403001,-0.0173067,-0.119442,-27.032,-1.16149,25.5069,-0.963444,1.65429,-0.0026396,0.661561,0.819466,-1.51812,-1.18486,1.50649,0.206726,0.239787,1.28888,0.222972,-1.1469,-0.0105242,-0.469833,-0.0400729,
-0.0283347,-0.0403988,0.458255,-1.58558,-0.215524,-0.173519,0.521308,-0.202081,0.0652289,-0.209938,-0.0628129,0.437069,-0.0560132,-0.0285304,0,0,0,0,0,0,0,0.00272417,-0.0538141,0.490552,-1.57213,-0.108007,1.46087,1.31597,-0.133967,0.016449,-0.1384,-0.0162676,-0.251904,-0.0403001,-0.0173067,-0.119442,-27.032,-1.16149,25.5069,-0.963444,1.65429,-0.0026396,1.24514,-0.691941,-0.726932,-0.234299,1.65462,-0.655978,-0.617579,1.24142,-0.667456,-1.02996,-0.329651,-0.670396,-0.049338,
-0.0291461,-0.0401477,0.457413,-1.58583,-0.21332,-0.17361,0.521196,-0.202862,0.0627788,-0.210698,-0.0625086,0.551088,-0.0227859,-0.0280052,0,0,0,0,0,0,0,0.00272417,-0.0538141,0.490552,-1.57213,-0.108007,1.46087,1.31597,-0.133967,0.016449,-0.1384,-0.0162676,-0.251904,-0.0403001,-0.0173067,-0.119442,-27.032,-1.16149,25.5069,-0.963444,1.65429,-0.0026396,0.96096,-1.52231,-0.490989,0.28698,1.36425,-0.972102,-0.940204,1.04512,-0.98984,-0.968808,-0.463754,-0.761146,-0.0541923,
-0.0299573,-0.0399054,0.45657,-1.58607,-0.210661,-0.17356,0.521086,-0.202793,0.0605776,-0.210697,-0.0620912,0.66475,0.0125185,-0.02753,0,0,0,0,0,0,0,0.00272417,-0.0538141,0.490552,-1.57213,-0.108007,1.46087,1.31597,-0.133967,0.016449,-0.1384,-0.0162676,-0.251904,-0.0403001,-0.0173067,-0.119442,-27.032,-1.16149,25.5069,-0.963444,1.65429,-0.0026396,0.96096,-1.52231,-0.490989,0.28698,1.36425,-0.972102,-0.940204,1.04512,-0.98984,-0.968808,-0.463754,-0.761146,-0.0541923,
-0.0307551,-0.0396672,0.455739,-1.58632,-0.207653,-0.173363,0.520977,-0.199447,0.0595606,-0.207654,-0.0611707,0.751932,0.0492824,-0.0271206,0,0,0,0,0,0,0,-0.0010816,-0.0531518,0.485861,-1.57264,-0.110865,1.46045,1.31582,-0.132238,0.0226502,-0.163896,-0.0215969,-0.00500018,-0.0105848,0.00156431,-0.805783,-27.0598,-1.78832,25.6339,-0.0112951,2.29058,-0.0703886,0.875144,-1.70971,-0.033122,0.499089,1.12547,-1.04298,-1.01256,0.834874,-1.06701,-0.796638,-0.489406,-0.778935,-0.0548101,
-0.0315317,-0.0394325,0.454929,-1.58656,-0.204374,-0.173004,0.520869,-0.194138,0.0586569,-0.202528,-0.0608807,0.819575,0.0898741,-0.0268965,0,0,0,0,0,0,0,-0.0010816,-0.0531518,0.485861,-1.57264,-0.110865,1.46045,1.31582,-0.132238,0.0226502,-0.163896,-0.0215969,-0.00500018,-0.0105848,0.00156431,-0.805783,-27.0598,-1.78832,25.6339,-0.0112951,2.29058,-0.0703886,0.875144,-1.70971,-0.033122,0.499089,1.12547,-1.04298,-1.01256,0.834874,-1.06701,-0.796638,-0.489406,-0.778935,-0.0548101,
-0.0322817,-0.0392025,0.454145,-1.58681,-0.200885,-0.172462,0.520762,-0.18751,0.0575023,-0.19599,-0.0613692,0.872434,0.135353,-0.0268746,0,0,0,0,0,0,0,-0.0010816,-0.0531518,0.485861,-1.57264,-0.110865,1.46045,1.31582,-0.132238,0.0226502,-0.163896,-0.0215969,-0.00500018,-0.0105848,0.00156431,-0.805783,-27.0598,-1.78832,25.6339,-0.0112951,2.29058,-0.0703886,1.02434,-1.79096,0.0238912,0.532771,1.24494,-1.12234,-1.09641,0.904468,-1.1422,-0.829549,-0.51364,-0.823231,-0.0555388,
-0.0330014,-0.0389786,0.453391,-1.58706,-0.197229,-0.171718,0.520653,-0.179929,0.0559811,-0.188423,-0.0625038,0.913852,0.18598,-0.0271277,0,0,0,0,0,0,0,-0.0010816,-0.0531518,0.485861,-1.57264,-0.110865,1.46045,1.31582,-0.132238,0.0226502,-0.163896,-0.0215969,-0.00500018,-0.0105848,0.00156431,-0.805783,-27.0598,-1.78832,25.6339,-0.0112951,2.29058,-0.0703886,1.02434,-1.79096,0.0238912,0.532771,1.24494,-1.12234,-1.09641,0.904468,-1.1422,-0.829549,-0.51364,-0.823231,-0.0555388,
-0.0336876,-0.0387622,0.452671,-1.58731,-0.193445,-0.170755,0.520542,-0.171551,0.0541063,-0.179982,-0.0639941,0.946133,0.240816,-0.0278233,0,0,0,0,0,0,0,-0.0010816,-0.0531518,0.485861,-1.57264,-0.110865,1.46045,1.31582,-0.132238,0.0226502,-0.163896,-0.0215969,-0.00500018,-0.0105848,0.00156431,-0.805783,-27.0598,-1.78832,25.6339,-0.0112951,2.29058,-0.0703886,0.762226,-1.72385,-0.0440555,0.447038,1.12463,-1.02254,-0.99915,0.870989,-1.03651,-0.885943,-0.510982,-0.872371,-0.0609217,
-0.0343369,-0.038554,0.451989,-1.58758,-0.189562,-0.169568,0.520425,-0.162319,0.0520368,-0.170589,-0.0652745,0.970712,0.296768,-0.0293139,0,0,0,0,0,0,0,-0.00612165,-0.0524625,0.480297,-1.57349,-0.106093,1.46046,1.31578,-0.168024,0.0147797,-0.172954,-0.0270081,0.28099,-0.00130626,0.00102129,-0.702633,-27.0836,-1.58599,25.3601,0.745846,2.07818,-0.0767973,1.04426,-1.57255,-0.660905,0.290503,1.67192,-1.02081,-0.997566,1.32333,-1.02863,-1.19281,-0.393944,-0.912488,-0.0653306,
-0.0349445,-0.0383531,0.45135,-1.58784,-0.185609,-0.168179,0.520296,-0.151898,0.0502415,-0.159869,-0.0651452,0.988172,0.347211,-0.0322495,0,0,0,0,0,0,0,-0.00612165,-0.0524625,0.480297,-1.57349,-0.106093,1.46046,1.31578,-0.168024,0.0147797,-0.172954,-0.0270081,0.28099,-0.00130626,0.00102129,-0.702633,-27.0836,-1.58599,25.3601,0.745846,2.07818,-0.0767973,1.04426,-1.57255,-0.660905,0.290503,1.67192,-1.02081,-0.997566,1.32333,-1.02863,-1.19281,-0.393944,-0.912488,-0.0653306,
-0.0355025,-0.0381528,0.450762,-1.58808,-0.181617,-0.166662,0.520148,-0.139495,0.0500809,-0.146976,-0.060631,0.998031,0.379219,-0.0368716,0,0,0,0,0,0,0,-0.00612165,-0.0524625,0.480297,-1.57349,-0.106093,1.46046,1.31578,-0.168024,0.0147797,-0.172954,-0.0270081,0.28099,-0.00130626,0.00102129,-0.702633,-27.0836,-1.58599,25.3601,0.745846,2.07818,-0.0767973,-0.190205,-1.48972,-1.13825,0.300173,1.0869,-0.686581,-0.668848,1.14916,-0.691271,-1.32084,-0.173137,-0.966053,-0.0657032,
-0.0359657,-0.0379159,0.45027,-1.58824,-0.177937,-0.165226,0.520039,-0.115807,0.0592098,-0.123007,-0.0403711,0.919948,0.358909,-0.0272618,0,0,0,0,0,0,0,-0.00612165,-0.0524625,0.480297,-1.57349,-0.106093,1.46046,1.31578,-0.168024,0.0147797,-0.172954,-0.0270081,0.28099,-0.00130626,0.00102129,-0.702633,-27.0836,-1.58599,25.3601,0.745846,2.07818,-0.0767973,-0.190205,-1.48972,-1.13825,0.300173,1.0869,-0.686581,-0.668848,1.14916,-0.691271,-1.32084,-0.173137,-0.966053,-0.0657032,
-0.0363638,-0.0376817,0.449845,-1.58838,-0.174457,-0.163801,0.519931,-0.099528,0.0585482,-0.106228,-0.0354451,0.8701,0.356403,-0.0271569,0,0,0,0,0,0,0,-0.00612165,-0.0524625,0.480297,-1.57349,-0.106093,1.46046,1.31578,-0.168024,0.0147797,-0.172954,-0.0270081,0.28099,-0.00130626,0.00102129,-0.702633,-27.0836,-1.58599,25.3601,0.745846,2.07818,-0.0767973,-2.05668,-1.64928,-0.417485,0.787586,-0.502465,-0.319058,-0.30453,0.185836,-0.343954,-0.858517,0.0611765,-0.952144,-0.0673267,
-0.0367134,-0.0374616,0.44947,-1.58852,-0.171107,-0.162365,0.519821,-0.0874099,0.0550292,-0.093747,-0.0345038,0.837407,0.358962,-0.0274837,0,0,0,0,0,0,0,-0.00612165,-0.0524625,0.480297,-1.57349,-0.106093,1.46046,1.31578,-0.168024,0.0147797,-0.172954,-0.0270081,0.28099,-0.00130626,0.00102129,-0.702633,-27.0836,-1.58599,25.3601,0.745846,2.07818,-0.0767973,-1.67186,-1.45466,-0.51819,0.841294,-0.156809,-0.325946,-0.310906,0.405311,-0.35711,-0.856958,0.262111,-0.870382,-0.0666801,
-0.0370255,-0.0372582,0.449133,-1.58866,-0.167844,-0.160914,0.51971,-0.0780209,0.0508439,-0.0841024,-0.0342867,0.815926,0.362703,-0.0277218,0,0,0,0,0,0,0,-0.0131059,-0.0515945,0.472203,-1.57452,-0.090794,1.4622,1.31572,-0.164911,0.0192866,-0.196945,-0.0323404,0.400734,0.0597588,-0.00405583,0.967594,-27.9326,0.0366345,25.5069,1.23474,2.95983,-0.117081,-1.67186,-1.45466,-0.51819,0.841294,-0.156809,-0.325946,-0.310906,0.405311,-0.35711,-0.856958,0.262111,-0.870382,-0.0666801,
-0.0373078,-0.0370715,0.448827,-1.58879,-0.164635,-0.159448,0.519598,-0.0705651,0.0466916,-0.0764689,-0.0339648,0.802032,0.366478,-0.0278895,0,0,0,0,0,0,0,-0.0131059,-0.0515945,0.472203,-1.57452,-0.090794,1.4622,1.31572,-0.164911,0.0192866,-0.196945,-0.0323404,0.400734,0.0597588,-0.00405583,0.967594,-27.9326,0.0366345,25.5069,1.23474,2.95983,-0.117081,-1.35965,-0.894814,-1.07846,0.603675,0.214671,-0.118995,-0.107514,0.672532,-0.143819,-0.910301,0.489667,-0.659053,-0.0705432,
-0.0375659,-0.0369003,0.448546,-1.58893,-0.161462,-0.157968,0.519486,-0.0645373,0.042793,-0.0703185,-0.0334081,0.793332,0.369976,-0.0280126,0,0,0,0,0,0,0,-0.0131059,-0.0515945,0.472203,-1.57452,-0.090794,1.4622,1.31572,-0.164911,0.0192866,-0.196945,-0.0323404,0.400734,0.0597588,-0.00405583,0.967594,-27.9326,0.0366345,25.5069,1.23474,2.95983,-0.117081,-1.35965,-0.894814,-1.07846,0.603675,0.214671,-0.118995,-0.107514,0.672532,-0.143819,-0.910301,0.489667,-0.659053,-0.0705432,
-0.0421203,-0.0353848,0.443991,-1.59582,-0.273827,-0.290219,0.510617,-0.312353,0.1365,-0.324759,-0.149266,-1.21066,-0.80368,-0.0846883,0,0,0,0,0,0,0,-0.0131059,-0.0515945,0.472203,-1.57452,-0.090794,1.4622,1.31572,-0.164911,0.0192866,-0.196945,-0.0323404,0.400734,0.0597588,-0.00405583,0.967594,-27.9326,0.0366345,25.5069,1.23474,2.95983,-0.117081,-1.73099,0.398223,-1.55186,-0.124613,0.0194322,0.601186,0.608959,0.596175,0.594145,-0.857344,0.749376,-0.406242,-0.0705232,
-0.0426484,-0.0443026,0.441335,-1.58935,-0.20527,-0.0886409,0.519777,-0.15343,0.0278717,-0.160262,-0.0806644,-0.452358,0.654947,-0.0451407,0,0,0,0,0,0,0,-0.0131059,-0.0515945,0.472203,-1.57452,-0.090794,1.4622,1.31572,-0.164911,0.0192866,-0.196945,-0.0323404,0.400734,0.0597588,-0.00405583,0.967594,-27.9326,0.0366345,25.5069,1.23474,2.95983,-0.117081,-1.73099,0.398223,-1.55186,-0.124613,0.0194322,0.601186,0.608959,0.596175,0.594145,-0.857344,0.749376,-0.406242,-0.0705232,
-0.0432608,-0.0441946,0.440695,-1.58967,-0.206941,-0.0858587,0.519599,-0.153105,0.0269959,-0.159933,-0.080596,-0.417911,0.695558,-0.0444891,0,0,0,0,0,0,0,-0.01852,-0.0508125,0.466222,-1.57508,-0.0809713,1.46267,1.3157,-0.180899,0.0182149,-0.182913,-0.0191047,0.248904,-0.00317456,-0.000401377,1.88404,-28.3571,1.03639,25.5069,0.672604,2.85363,-0.110672,-1.10743,1.93347,-1.94975,-1.13198,0.566696,1.19432,1.20368,0.926408,1.21018,-0.949573,0.917845,-0.229611,-0.0690159,
-0.0438722,-0.0440901,0.440057,-1.58999,-0.208465,-0.0829059,0.519424,-0.152845,0.0261215,-0.159664,-0.0805807,-0.380883,0.738192,-0.0438644,0,0,0,0,0,0,0,-0.01852,-0.0508125,0.466222,-1.57508,-0.0809713,1.46267,1.3157,-0.180899,0.0182149,-0.182913,-0.0191047,0.248904,-0.00317456,-0.000401377,1.88404,-28.3571,1.03639,25.5069,0.672604,2.85363,-0.110672,-2.28433,4.48285,-1.48975,-2.67327,-0.584872,2.70632,2.71762,0.152842,2.75127,-0.555784,1.13878,-0.0131444,-0.0748934,
-0.0444828,-0.0439891,0.439419,-1.59032,-0.209828,-0.0797744,0.51925,-0.15266,0.0252437,-0.159468,-0.0806159,-0.340804,0.78289,-0.0432749,0,0,0,0,0,0,0,-0.01852,-0.0508125,0.466222,-1.57508,-0.0809713,1.46267,1.3157,-0.180899,0.0182149,-0.182913,-0.0191047,0.248904,-0.00317456,-0.000401377,1.88404,-28.3571,1.03639,25.5069,0.672604,2.85363,-0.110672,-2.28433,4.48285,-1.48975,-2.67327,-0.584872,2.70632,2.71762,0.152842,2.75127,-0.555784,1.13878,-0.0131444,-0.0748934,
-0.0450923,-0.04389,0.438782,-1.59063,-0.211018,-0.0764811,0.51908,-0.152367,0.0247788,-0.159151,-0.0794113,-0.297501,0.823318,-0.0427352,0,0,0,0,0,0,0,-0.01852,-0.0508125,0.466222,-1.57508,-0.0809713,1.46267,1.3157,-0.180899,0.0182149,-0.182913,-0.0191047,0.248904,-0.00317456,-0.000401377,1.88404,-28.3571,1.03639,25.5069,0.672604,2.85363,-0.110672,-1.78988,3.53807,-2.79083,-2.3701,0.422219,2.13526,2.12827,0.992762,2.19974,-1.23344,1.04883,-0.188761,-0.0762576,
-0.0457,-0.0437914,0.438148,-1.59094,-0.21202,-0.0730607,0.51891,-0.151928,0.0246508,-0.158681,-0.0767061,-0.250352,0.855088,-0.0422627,0,0,0,0,0,0,0,-0.01852,-0.0508125,0.466222,-1.57508,-0.0809713,1.46267,1.3157,-0.180899,0.0182149,-0.182913,-0.0191047,0.248904,-0.00317456,-0.000401377,1.88404,-28.3571,1.03639,25.5069,0.672604,2.85363,-0.110672,-1.78988,3.53807,-2.79083,-2.3701,0.422219,2.13526,2.12827,0.992762,2.19974,-1.23344,1.04883,-0.188761,-0.0762576,
-0.0463061,-0.0436943,0.437515,-1.59124,-0.212812,-0.0695378,0.518743,-0.151535,0.0242847,-0.158259,-0.0737438,-0.198168,0.880745,-0.0418554,0,0,0,0,0,0,0,-0.01852,-0.0508125,0.466222,-1.57508,-0.0809713,1.46267,1.3157,-0.180899,0.0182149,-0.182913,-0.0191047,0.248904,-0.00317456,-0.000401377,1.88404,-28.3571,1.03639,25.5069,0.672604,2.85363,-0.110672,-1.45279,-0.0101046,-2.31962,-0.342281,0.276197,0.38899,0.3902,0.75266,0.404894,-1.09109,0.28618,-0.332389,-0.0861386,
-0.0469112,-0.0436,0.436883,-1.59152,-0.213372,-0.0659311,0.518577,-0.151266,0.023563,-0.157959,-0.0708929,-0.139934,0.901669,-0.0415097,0,0,0,0,0,0,0,-0.0236587,-0.0504423,0.460719,-1.57642,-0.087344,1.46344,1.31529,-0.133602,-0.00150912,-0.151768,-0.0830411,-0.291057,0.179357,-0.0160116,-0.373349,-29.0038,-1.13768,26.705,-1.33606,4.432,-0.0163725,-1.45279,-0.0101046,-2.31962,-0.342281,0.276197,0.38899,0.3902,0.75266,0.404894,-1.09109,0.28618,-0.332389,-0.0861386,
-0.0475158,-0.0435101,0.436251,-1.59179,-0.21367,-0.062256,0.518412,-0.151159,0.0224953,-0.157818,-0.0682603,-0.0745976,0.918779,-0.0412293,0,0,0,0,0,0,0,-0.0236587,-0.0504423,0.460719,-1.57642,-0.087344,1.46344,1.31529,-0.133602,-0.00150912,-0.151768,-0.0830411,-0.291057,0.179357,-0.0160116,-0.373349,-29.0038,-1.13768,26.705,-1.33606,4.432,-0.0163725,0.911011,-1.69718,-2.38681,0.464775,1.47411,-0.89543,-0.891782,1.16866,-0.892164,-0.922457,-0.379306,0.0112717,-0.0862427,
-0.0481208,-0.0434256,0.43562,-1.59206,-0.213675,-0.0585249,0.518248,-0.151238,0.0211191,-0.157857,-0.0658822,-0.00104858,0.932767,-0.0410243,0,0,0,0,0,0,0,-0.0236587,-0.0504423,0.460719,-1.57642,-0.087344,1.46344,1.31529,-0.133602,-0.00150912,-0.151768,-0.0830411,-0.291057,0.179357,-0.0160116,-0.373349,-29.0038,-1.13768,26.705,-1.33606,4.432,-0.0163725,-0.308115,-1.67282,-2.33533,0.572238,0.303346,-0.570004,-0.578128,0.406914,-0.562745,-0.52661,-0.372167,0.282959,-0.0873515,
-0.0487268,-0.0433477,0.434988,-1.59231,-0.213348,-0.0547481,0.518084,-0.151502,0.0194758,-0.158076,-0.0637862,0.0817546,0.944188,-0.0409091,0,0,0,0,0,0,0,-0.0236587,-0.0504423,0.460719,-1.57642,-0.087344,1.46344,1.31529,-0.133602,-0.00150912,-0.151768,-0.0830411,-0.291057,0.179357,-0.0160116,-0.373349,-29.0038,-1.13768,26.705,-1.33606,4.432,-0.0163725,-0.308115,-1.67282,-2.33533,0.572238,0.303346,-0.570004,-0.578128,0.406914,-0.562745,-0.52661,-0.372167,0.282959,-0.0873515,
-0.0493344,-0.0432772,0.434354,-1.59256,-0.21265,-0.0509342,0.517921,-0.151903,0.0176114,-0.158431,-0.0620116,0.17447,0.953483,-0.0408998,0,0,0,0,0,0,0,-0.0236587,-0.0504423,0.460719,-1.57642,-0.087344,1.46344,1.31529,-0.133602,-0.00150912,-0.151768,-0.0830411,-0.291057,0.179357,-0.0160116,-0.373349,-29.0038,-1.13768,26.705,-1.33606,4.432,-0.0163725,0.0815741,-1.72594,-1.8365,0.641495,0.164471,-0.647531,-0.654559,0.139664,-0.644192,-0.189038,-0.529762,0.466974,-0.100745,
-0.0499436,-0.0432149,0.433719,-1.5928,-0.211543,-0.0470903,0.517757,-0.15229,0.0155938,-0.158778,-0.0606106,0.276754,0.960982,-0.0410269,0,0,0,0,0,0,0,-0.0277299,-0.050539,0.455534,-1.57967,-0.0962581,1.47294,1.31513,-0.125978,-0.00493695,-0.161353,-0.116807,-0.211924,0.378427,-0.00469572,-0.702633,-28.008,-1.56218,27.4509,-1.08612,4.39263,-0.0630644,0.0815741,-1.72594,-1.8365,0.641495,0.164471,-0.647531,-0.654559,0.139664,-0.644192,-0.189038,-0.529762,0.466974,-0.100745,
-0.0505529,-0.0431606,0.433084,-1.59304,-0.209998,-0.0432228,0.517591,-0.152321,0.0135515,-0.158793,-0.0596223,0.386238,0.966872,-0.0413587,0,0,0,0,0,0,0,-0.0277299,-0.050539,0.455534,-1.57967,-0.0962581,1.47294,1.31513,-0.125978,-0.00493695,-0.161353,-0.116807,-0.211924,0.378427,-0.00469572,-0.702633,-28.008,-1.56218,27.4509,-1.08612,4.39263,-0.0630644,1.529,-2.55766,-1.70553,0.96836,0.963342,-1.35022,-1.35765,0.457727,-1.34806,-0.166289,-0.920753,0.538233,-0.105094,
-0.0511583,-0.0431136,0.432452,-1.59328,-0.208009,-0.0393384,0.517423,-0.151351,0.0117555,-0.157856,-0.0589671,0.497169,0.971095,-0.042085,0,0,0,0,0,0,0,-0.0277299,-0.050539,0.455534,-1.57967,-0.0962581,1.47294,1.31513,-0.125978,-0.00493695,-0.161353,-0.116807,-0.211924,0.378427,-0.00469572,-0.702633,-28.008,-1.56218,27.4509,-1.08612,4.39263,-0.0630644,3.26,-2.32759,-2.05081,0.551564,2.23336,-1.60876,-1.61194,1.14081,-1.59239,-0.382921,-1.1516,0.616354,-0.105861,
-0.0517515,-0.0430703,0.431833,-1.59351,-0.205613,-0.035446,0.517248,-0.148301,0.0108218,-0.154921,-0.0581058,0.599032,0.973097,-0.0436973,0,0,0,0,0,0,0,-0.0277299,-0.050539,0.455534,-1.57967,-0.0962581,1.47294,1.31513,-0.125978,-0.00493695,-0.161353,-0.116807,-0.211924,0.378427,-0.00469572,-0.702633,-28.008,-1.56218,27.4509,-1.08612,4.39263,-0.0630644,3.26,-2.32759,-2.05081,0.551564,2.23336,-1.60876,-1.61194,1.14081,-1.59239,-0.382921,-1.1516,0.616354,-0.105861,
-0.0523172,-0.0430211,0.431239,-1.59373,-0.202913,-0.031562,0.517061,-0.141439,0.0123185,-0.148294,-0.0549678,0.674902,0.971012,-0.0466507,0,0,0,0,0,0,0,-0.0277299,-0.050539,0.455534,-1.57967,-0.0962581,1.47294,1.31513,-0.125978,-0.00493695,-0.161353,-0.116807,-0.211924,0.378427,-0.00469572,-0.702633,-28.008,-1.56218,27.4509,-1.08612,4.39263,-0.0630644,3.53356,-1.58327,-3.13601,-0.106152,2.90676,-1.29428,-1.294,1.70959,-1.25994,-0.822163,-1.0419,0.644114,-0.113092,
-0.0528196,-0.0429198,0.43071,-1.59384,-0.200147,-0.028013,0.516908,-0.125591,0.0253222,-0.132428,-0.02778,0.691674,0.887247,-0.038356,0,0,0,0,0,0,0,-0.0277299,-0.050539,0.455534,-1.57967,-0.0962581,1.47294,1.31513,-0.125978,-0.00493695,-0.161353,-0.116807,-0.211924,0.378427,-0.00469572,-0.702633,-28.008,-1.56218,27.4509,-1.08612,4.39263,-0.0630644,3.53356,-1.58327,-3.13601,-0.106152,2.90676,-1.29428,-1.294,1.70959,-1.25994,-0.822163,-1.0419,0.644114,-0.113092,
-0.0532774,-0.0428119,0.430225,-1.59393,-0.197287,-0.0246664,0.516755,-0.114444,0.026962,-0.121125,-0.0220713,0.714784,0.836658,-0.038214,0,0,0,0,0,0,0,-0.0320357,-0.0506254,0.450667,-1.58266,-0.097079,1.48726,1.31504,-0.139273,-0.000448398,-0.148639,-0.0827046,0.0277745,0.518348,-0.00225128,-0.627255,-28.4047,-1.41142,27.0779,-0.00488642,4.30657,-0.0630644,2.83811,-2.05581,-2.68336,0.44237,2.18103,-1.36894,-1.36641,1.22795,-1.35684,-0.506417,-0.952493,0.70781,-0.115512,
-0.0536991,-0.0427097,0.429777,-1.59402,-0.194335,-0.0214643,0.516602,-0.105443,0.0255636,-0.111979,-0.0225232,0.738057,0.80051,-0.0384081,0,0,0,0,0,0,0,-0.0320357,-0.0506254,0.450667,-1.58266,-0.097079,1.48726,1.31504,-0.139273,-0.000448398,-0.148639,-0.0827046,0.0277745,0.518348,-0.00225128,-0.627255,-28.4047,-1.41142,27.0779,-0.00488642,4.30657,-0.0630644,2.19967,-2.21061,-1.74231,0.841394,1.39805,-1.32153,-1.31877,0.669637,-1.3279,-0.112615,-0.824908,0.679989,-0.117914,
-0.0540901,-0.0426153,0.429361,-1.59412,-0.191296,-0.018375,0.516447,-0.0977354,0.0235833,-0.104141,-0.0245246,0.759712,0.772323,-0.0385388,0,0,0,0,0,0,0,-0.0320357,-0.0506254,0.450667,-1.58266,-0.097079,1.48726,1.31504,-0.139273,-0.000448398,-0.148639,-0.0827046,0.0277745,0.518348,-0.00225128,-0.627255,-28.4047,-1.41142,27.0779,-0.00488642,4.30657,-0.0630644,2.19967,-2.21061,-1.74231,0.841394,1.39805,-1.32153,-1.31877,0.669637,-1.3279,-0.112615,-0.824908,0.679989,-0.117914,
-0.054454,-0.0425285,0.428972,-1.59422,-0.188179,-0.0153771,0.516293,-0.0909781,0.0217048,-0.0972694,-0.0267206,0.77932,0.749494,-0.038632,0,0,0,0,0,0,0,-0.0320357,-0.0506254,0.450667,-1.58266,-0.097079,1.48726,1.31504,-0.139273,-0.000448398,-0.148639,-0.0827046,0.0277745,0.518348,-0.00225128,-0.627255,-28.4047,-1.41142,27.0779,-0.00488642,4.30657,-0.0630644,1.91269,-1.70211,-1.55093,0.736562,1.31369,-1.03541,-1.03493,0.683095,-1.04252,-0.122365,-0.521447,0.589125,-0.119679,
-0.054794,-0.0424482,0.428607,-1.59434,-0.184992,-0.0124542,0.516138,-0.0849978,0.0200831,-0.091188,-0.0287417,0.796872,0.730711,-0.0387073,0,0,0,0,0,0,0,-0.0320357,-0.0506254,0.450667,-1.58266,-0.097079,1.48726,1.31504,-0.139273,-0.000448398,-0.148639,-0.0827046,0.0277745,0.518348,-0.00225128,-0.627255,-28.4047,-1.41142,27.0779,-0.00488642,4.30657,-0.0630644,1.91269,-1.70211,-1.55093,0.736562,1.31369,-1.03541,-1.03493,0.683095,-1.04252,-0.122365,-0.521447,0.589125,-0.119679,
-0.0551127,-0.0423733,0.428264,-1.59446,-0.181742,-0.00959361,0.515983,-0.0796825,0.0187223,-0.0857832,-0.0305114,0.812487,0.71515,-0.0387722,0,0,0,0,0,0,0,-0.0378518,-0.0501428,0.444189,-1.5859,-0.0912667,1.51243,1.31492,-0.130988,0.0179772,-0.16614,-0.0522993,0.162782,0.639778,0.000432207,1.27307,-30.1781,0.512709,27.5739,1.54052,3.49724,-0.137222,1.43217,-1.10501,-1.47645,0.58167,1.07001,-0.648717,-0.650453,0.601179,-0.655899,-0.0906229,-0.207818,0.571426,-0.122895,
-0.0476566,-0.0356893,0.435979,-1.5944,-0.259954,-0.241467,0.512153,-0.188304,0.0939495,-0.197438,-0.124774,-1.20119,-0.315098,-0.0813565,0,0,0,0,0,0,0,-0.0378518,-0.0501428,0.444189,-1.5859,-0.0912667,1.51243,1.31492,-0.130988,0.0179772,-0.16614,-0.0522993,0.162782,0.639778,0.000432207,1.27307,-30.1781,0.512709,27.5739,1.54052,3.49724,-0.137222,1.43217,-1.10501,-1.47645,0.58167,1.07001,-0.648717,-0.650453,0.601179,-0.655899,-0.0906229,-0.207818,0.571426,-0.122895,
-0.0542672,-0.0426083,0.426761,-1.59663,-0.187237,-0.0625535,0.518992,-0.0676646,0.0462223,-0.0730224,-0.0655965,-0.468574,-0.254488,-0.0516762,0,0,0,0,0,0,0,-0.0378518,-0.0501428,0.444189,-1.5859,-0.0912667,1.51243,1.31492,-0.130988,0.0179772,-0.16614,-0.0522993,0.162782,0.639778,0.000432207,1.27307,-30.1781,0.512709,27.5739,1.54052,3.49724,-0.137222,0.00763548,-0.241591,-1.56999,0.255871,0.278965,0.0737326,0.0677273,0.283351,0.0717276,-0.104696,0.195509,0.499876,-0.12858,
-0.0545329,-0.0424259,0.426474,-1.59689,-0.189153,-0.0635897,0.518788,-0.0664267,0.0455794,-0.0717787,-0.0652172,-0.479042,-0.259039,-0.0511842,0,0,0,0,0,0,0,-0.0378518,-0.0501428,0.444189,-1.5859,-0.0912667,1.51243,1.31492,-0.130988,0.0179772,-0.16614,-0.0522993,0.162782,0.639778,0.000432207,1.27307,-30.1781,0.512709,27.5739,1.54052,3.49724,-0.137222,-0.862206,0.485561,-1.33749,0.013761,-0.234531,0.600898,0.595953,0.0597781,0.596814,-0.0708184,0.523718,0.394407,-0.129258,
-0.0547938,-0.0422464,0.426192,-1.59715,-0.191115,-0.0646453,0.518585,-0.0652096,0.044885,-0.0705562,-0.0648055,-0.49049,-0.263914,-0.0507011,0,0,0,0,0,0,0,-0.0378518,-0.0501428,0.444189,-1.5859,-0.0912667,1.51243,1.31492,-0.130988,0.0179772,-0.16614,-0.0522993,0.162782,0.639778,0.000432207,1.27307,-30.1781,0.512709,27.5739,1.54052,3.49724,-0.137222,-0.862206,0.485561,-1.33749,0.013761,-0.234531,0.600898,0.595953,0.0597781,0.596814,-0.0708184,0.523718,0.394407,-0.129258,
-0.0550498,-0.0420699,0.425914,-1.5974,-0.193127,-0.0657217,0.518384,-0.0640084,0.0441332,-0.0693501,-0.0643694,-0.502878,-0.269095,-0.0502263,0,0,0,0,0,0,0,-0.0421467,-0.04916,0.439101,-1.58665,-0.0912181,1.52912,1.31474,-0.116733,0.0191562,-0.14158,0.00887147,-0.374957,0.286733,-0.00570289,0.233646,-28.1825,-0.411669,23.2416,0.740353,1.49499,-0.177505,-1.15342,2.68415,-1.64341,-1.32465,-0.0642508,1.73281,1.72521,0.301599,1.7599,-0.326045,0.957842,0.309229,-0.127079,
-0.0553011,-0.0418966,0.425642,-1.59766,-0.195192,-0.0668198,0.518185,-0.0628212,0.0433169,-0.0681578,-0.0639194,-0.516139,-0.274524,-0.0497627,0,0,0,0,0,0,0,-0.0421467,-0.04916,0.439101,-1.58665,-0.0912181,1.52912,1.31474,-0.116733,0.0191562,-0.14158,0.00887147,-0.374957,0.286733,-0.00570289,0.233646,-28.1825,-0.411669,23.2416,0.740353,1.49499,-0.177505,-1.15342,2.68415,-1.64341,-1.32465,-0.0642508,1.73281,1.72521,0.301599,1.7599,-0.326045,0.957842,0.309229,-0.127079,
-0.0555477,-0.0417269,0.425374,-1.59791,-0.197312,-0.0679402,0.517988,-0.0616489,0.0424272,-0.0669803,-0.0634695,-0.530165,-0.280092,-0.0493109,0,0,0,0,0,0,0,-0.0421467,-0.04916,0.439101,-1.58665,-0.0912181,1.52912,1.31474,-0.116733,0.0191562,-0.14158,0.00887147,-0.374957,0.286733,-0.00570289,0.233646,-28.1825,-0.411669,23.2416,0.740353,1.49499,-0.177505,0.374792,3.10774,-2.59343,-1.74828,1.69186,1.59711,1.5874,1.53513,1.64225,-1.02296,1.10091,0.122595,-0.118735,
-0.0557897,-0.0415611,0.425111,-1.59817,-0.199491,-0.0690826,0.517792,-0.0604978,0.0414532,-0.065823,-0.063039,-0.544784,-0.285615,-0.0488716,0,0,0,0,0,0,0,-0.0421467,-0.04916,0.439101,-1.58665,-0.0912181,1.52912,1.31474,-0.116733,0.0191562,-0.14158,0.00887147,-0.374957,0.286733,-0.00570289,0.233646,-28.1825,-0.411669,23.2416,0.740353,1.49499,-0.177505,-0.00704327,2.56225,-1.8385,-1.58617,1.16415,1.38478,1.38172,1.13345,1.42329,-0.896952,0.771069,-0.0909484,-0.120045,
-0.0560272,-0.0413996,0.424852,-1.59842,-0.20173,-0.0702459,0.517598,-0.0593819,0.0403808,-0.0646991,-0.062655,-0.559721,-0.290805,-0.0484443,0,0,0,0,0,0,0,-0.0421467,-0.04916,0.439101,-1.58665,-0.0912181,1.52912,1.31474,-0.116733,0.0191562,-0.14158,0.00887147,-0.374957,0.286733,-0.00570289,0.233646,-28.1825,-0.411669,23.2416,0.740353,1.49499,-0.177505,-0.00704327,2.56225,-1.8385,-1.58617,1.16415,1.38478,1.38172,1.13345,1.42329,-0.896952,0.771069,-0.0909484,-0.120045,
-0.0562605,-0.0412428,0.424597,-1.59867,-0.204028,-0.0714268,0.517406,-0.0583266,0.0391921,-0.0636332,-0.0623555,-0.574556,-0.295229,-0.048032,0,0,0,0,0,0,0,-0.0421467,-0.04916,0.439101,-1.58665,-0.0912181,1.52912,1.31474,-0.116733,0.0191562,-0.14158,0.00887147,-0.374957,0.286733,-0.00570289,0.233646,-28.1825,-0.411669,23.2416,0.740353,1.49499,-0.177505,-0.663114,0.749941,-1.3426,-0.867744,0.652208,0.577048,0.568438,0.844087,0.615604,-1.04477,0.165977,-0.550352,-0.125211,
-0.05649,-0.0410913,0.424347,-1.59891,-0.206383,-0.0726198,0.517216,-0.0573747,0.0378639,-0.0626666,-0.0621928,-0.588639,-0.298253,-0.0476296,0,0,0,0,0,0,0,-0.0455158,-0.048543,0.435339,-1.58652,-0.108227,1.53412,1.31456,-0.0928383,0.0166182,-0.106674,-0.000385772,-0.519934,0.115779,-0.00116896,0.840641,-29.5036,0.211195,24.6619,0.21484,1.54809,-0.0905302,-0.663114,0.749941,-1.3426,-0.867744,0.652208,0.577048,0.568438,0.844087,0.615604,-1.04477,0.165977,-0.550352,-0.125211,
-0.0567164,-0.0409459,0.424099,-1.59916,-0.208787,-0.0738157,0.517027,-0.0565949,0.0363663,-0.061866,-0.0622377,-0.600985,-0.298977,-0.0472343,0,0,0,0,0,0,0,-0.0455158,-0.048543,0.435339,-1.58652,-0.108227,1.53412,1.31456,-0.0928383,0.0166182,-0.106674,-0.000385772,-0.519934,0.115779,-0.00116896,0.840641,-29.5036,0.211195,24.6619,0.21484,1.54809,-0.0905302,-1.38749,0.694925,-0.964377,-0.946599,0.0766768,0.671672,0.660044,0.504892,0.716435,-1.01731,0.035438,-0.731249,-0.125732,
-0.0569408,-0.0408072,0.423854,-1.59941,-0.211227,-0.0750003,0.51684,-0.0560932,0.0346608,-0.0613347,-0.0625828,-0.610114,-0.29615,-0.0468352,0,0,0,0,0,0,0,-0.0455158,-0.048543,0.435339,-1.58652,-0.108227,1.53412,1.31456,-0.0928383,0.0166182,-0.106674,-0.000385772,-0.519934,0.115779,-0.00116896,0.840641,-29.5036,0.211195,24.6619,0.21484,1.54809,-0.0905302,-1.38749,0.694925,-0.964377,-0.946599,0.0766768,0.671672,0.660044,0.504892,0.716435,-1.01731,0.035438,-0.731249,-0.125732,
-0.0571649,-0.0406764,0.423609,-1.59967,-0.213683,-0.0761527,0.516654,-0.0560291,0.0326996,-0.0612282,-0.0633413,-0.613834,-0.288107,-0.0464163,0,0,0,0,0,0,0,-0.0455158,-0.048543,0.435339,-1.58652,-0.108227,1.53412,1.31456,-0.0928383,0.0166182,-0.106674,-0.000385772,-0.519934,0.115779,-0.00116896,0.840641,-29.5036,0.211195,24.6619,0.21484,1.54809,-0.0905302,-0.929834,0.332794,-0.765354,-0.847802,0.304477,0.386696,0.37864,0.578455,0.429223,-1.0218,-0.171467,-0.784958,-0.128463,
-0.0573914,-0.0405547,0.423362,-1.59993,-0.216119,-0.0772436,0.51647,-0.0566345,0.0304253,-0.0617735,-0.0646374,-0.608951,-0.272733,-0.0459496,0,0,0,0,0,0,0,-0.0455158,-0.048543,0.435339,-1.58652,-0.108227,1.53412,1.31456,-0.0928383,0.0166182,-0.106674,-0.000385772,-0.519934,0.115779,-0.00116896,0.840641,-29.5036,0.211195,24.6619,0.21484,1.54809,-0.0905302,-0.929834,0.332794,-0.765354,-0.847802,0.304477,0.386696,0.37864,0.578455,0.429223,-1.0218,-0.171467,-0.784958,-0.128463,
-0.0576244,-0.0404436,0.423109,-1.60019,-0.218482,-0.0782338,0.516289,-0.0582336,0.0277754,-0.0632885,-0.0665811,-0.590939,-0.247535,-0.0453923,0,0,0,0,0,0,0,-0.0485174,-0.0479304,0.432127,-1.58656,-0.125436,1.53536,1.31447,-0.0839778,0.0256463,-0.0824884,0.00144586,-0.483461,0.0155683,-0.00169552,0.487552,-29.9519,-0.16173,24.9118,-1.25733,1.46844,-0.0905302,-0.831296,-1.09779,-0.554845,-0.290127,0.335648,-0.378557,-0.382609,0.579853,-0.343099,-1.15863,-0.667196,-1.04722,-0.132867,
-0.0578694,-0.0403449,0.422844,-1.60047,-0.220697,-0.0790732,0.51611,-0.0612556,0.0246901,-0.0661965,-0.0692251,-0.553633,-0.209852,-0.0446765,0,0,0,0,0,0,0,-0.0485174,-0.0479304,0.432127,-1.58656,-0.125436,1.53536,1.31447,-0.0839778,0.0256463,-0.0824884,0.00144586,-0.483461,0.0155683,-0.00169552,0.487552,-29.9519,-0.16173,24.9118,-1.25733,1.46844,-0.0905302,-0.364605,-2.83462,-0.0767529,0.663936,0.434729,-1.36687,-1.36958,0.541305,-1.34974,-1.08336,-1.08662,-1.18164,-0.129889,
-0.0581343,-0.0402604,0.42256,-1.60076,-0.222653,-0.0797019,0.515935,-0.0662253,0.021123,-0.0710187,-0.0725236,-0.489151,-0.157179,-0.0437102,0,0,0,0,0,0,0,-0.0485174,-0.0479304,0.432127,-1.58656,-0.125436,1.53536,1.31447,-0.0839778,0.0256463,-0.0824884,0.00144586,-0.483461,0.0155683,-0.00169552,0.487552,-29.9519,-0.16173,24.9118,-1.25733,1.46844,-0.0905302,-0.364605,-2.83462,-0.0767529,0.663936,0.434729,-1.36687,-1.36958,0.541305,-1.34974,-1.08336,-1.08662,-1.18164,-0.129889,
-0.0584292,-0.0401922,0.422246,-1.60106,-0.224207,-0.0800514,0.515766,-0.0737178,0.017044,-0.0783331,-0.0763395,-0.388298,-0.0873683,-0.0423682,0,0,0,0,0,0,0,-0.0485174,-0.0479304,0.432127,-1.58656,-0.125436,1.53536,1.31447,-0.0839778,0.0256463,-0.0824884,0.00144586,-0.483461,0.0155683,-0.00169552,0.487552,-29.9519,-0.16173,24.9118,-1.25733,1.46844,-0.0905302,0.124053,-3.29722,-0.572062,0.782756,1.00051,-1.70015,-1.70328,0.941928,-1.67989,-1.35085,-1.22048,-1.23567,-0.13413,
-0.0587663,-0.0401426,0.421892,-1.60139,-0.225172,-0.080045,0.515603,-0.0842922,0.0124106,-0.0887127,-0.0805699,-0.241401,0.00160794,-0.0405804,0,0,0,0,0,0,0,-0.0485174,-0.0479304,0.432127,-1.58656,-0.125436,1.53536,1.31447,-0.0839778,0.0256463,-0.0824884,0.00144586,-0.483461,0.0155683,-0.00169552,0.487552,-29.9519,-0.16173,24.9118,-1.25733,1.46844,-0.0905302,0.124053,-3.29722,-0.572062,0.782756,1.00051,-1.70015,-1.70328,0.941928,-1.67989,-1.35085,-1.22048,-1.23567,-0.13413,
-0.0591604,-0.0401144,0.421481,-1.60173,-0.225326,-0.0795945,0.515444,-0.0985163,0.00704228,-0.102763,-0.0854648,-0.0384687,0.112602,-0.039844,0,0,0,0,0,0,0,-0.0485174,-0.0479304,0.432127,-1.58656,-0.125436,1.53536,1.31447,-0.0839778,0.0256463,-0.0824884,0.00144586,-0.483461,0.0155683,-0.00169552,0.487552,-29.9519,-0.16173,24.9118,-1.25733,1.46844,-0.0905302,-0.380211,-2.82562,-0.840412,0.372622,0.767258,-1.36445,-1.3671,0.8639,-1.33345,-1.45217,-1.22048,-1.25881,-0.138509,
-0.0595782,-0.0400797,0.421043,-1.60205,-0.224878,-0.0788242,0.515287,-0.104449,0.00868016,-0.109428,-0.0798615,0.111965,0.192595,-0.0391147,0,0,0,0,0,0,0,-0.0504068,-0.0474636,0.42963,-1.58665,-0.140561,1.53537,1.31438,-0.0539088,0.0120637,-0.0743873,-0.00515814,-0.446758,-0.00871511,-0.0023415,0.336795,-29.9519,-0.360094,25.1578,-1.09803,1.99853,-0.117081,-0.380211,-2.82562,-0.840412,0.372622,0.767258,-1.36445,-1.3671,0.8639,-1.33345,-1.45217,-1.22048,-1.25881,-0.138509,
-0.0600022,-0.0400325,0.420597,-1.60234,-0.223973,-0.0778028,0.515132,-0.106004,0.0117965,-0.111494,-0.0728501,0.226191,0.255335,-0.0387325,0,0,0,0,0,0,0,-0.0504068,-0.0474636,0.42963,-1.58665,-0.140561,1.53537,1.31438,-0.0539088,0.0120637,-0.0743873,-0.00515814,-0.446758,-0.00871511,-0.0023415,0.336795,-29.9519,-0.360094,25.1578,-1.09803,1.99853,-0.117081,0.34485,-2.7931,-1.00418,0.277736,1.29209,-1.48773,-1.4876,1.14253,-1.45449,-1.51701,-1.29305,-1.19729,-0.140342,
-0.0604219,-0.0399734,0.420154,-1.60261,-0.222716,-0.0765774,0.514978,-0.104931,0.0147797,-0.110755,-0.0667308,0.314368,0.306358,-0.0385481,0,0,0,0,0,0,0,-0.0504068,-0.0474636,0.42963,-1.58665,-0.140561,1.53537,1.31438,-0.0539088,0.0120637,-0.0743873,-0.00515814,-0.446758,-0.00871511,-0.0023415,0.336795,-29.9519,-0.360094,25.1578,-1.09803,1.99853,-0.117081,0.355601,-2.96841,-1.1093,0.459772,1.24439,-1.55367,-1.55408,1.09743,-1.52503,-1.4337,-1.26695,-1.0775,-0.145802,
-0.060831,-0.0399045,0.419721,-1.60285,-0.221183,-0.0751836,0.514824,-0.102263,0.0172212,-0.108299,-0.0618481,0.383362,0.348456,-0.0384738,0,0,0,0,0,0,0,-0.0504068,-0.0474636,0.42963,-1.58665,-0.140561,1.53537,1.31438,-0.0539088,0.0120637,-0.0743873,-0.00515814,-0.446758,-0.00871511,-0.0023415,0.336795,-29.9519,-0.360094,25.1578,-1.09803,1.99853,-0.117081,0.355601,-2.96841,-1.1093,0.459772,1.24439,-1.55367,-1.55408,1.09743,-1.52503,-1.4337,-1.26695,-1.0775,-0.145802,
-0.0612256,-0.0398282,0.419301,-1.60309,-0.21943,-0.07365,0.51467,-0.0986643,0.0190763,-0.104827,-0.0580456,0.438016,0.38339,-0.0384639,0,0,0,0,0,0,0,-0.0504068,-0.0474636,0.42963,-1.58665,-0.140561,1.53537,1.31438,-0.0539088,0.0120637,-0.0743873,-0.00515814,-0.446758,-0.00871511,-0.0023415,0.336795,-29.9519,-0.360094,25.1578,-1.09803,1.99853,-0.117081,-0.636023,-3.04219,-1.43744,0.657353,0.635193,-1.36973,-1.37201,0.827678,-1.34813,-1.38676,-1.08551,-0.990263,-0.149028,
-0.068441,-0.031788,0.411821,-1.60273,-0.268689,-0.211029,0.510941,-0.177887,0.129891,-0.187998,-0.114942,-1.1906,-0.772317,-0.0854726,0,0,0,0,0,0,0,-0.0524769,-0.0474774,0.426937,-1.58727,-0.149002,1.53559,1.31432,-0.0667938,0.00222478,-0.0888415,-0.0179365,-0.067913,0.0232056,-0.00542644,0.0313145,-29.5036,-0.836168,25.9552,0.617672,2.98638,-0.0630644,-0.636023,-3.04219,-1.43744,0.657353,0.635193,-1.36973,-1.37201,0.827678,-1.34813,-1.38676,-1.08551,-0.990263,-0.149028,
-0.0753563,-0.0371083,0.402742,-1.59937,-0.192025,-0.0727641,0.518036,-0.144167,0.0662756,-0.152288,-0.0671563,0.534678,0.0232983,-0.0508153,0,0,0,0,0,0,0,-0.0524769,-0.0474774,0.426937,-1.58727,-0.149002,1.53559,1.31432,-0.0667938,0.00222478,-0.0888415,-0.0179365,-0.067913,0.0232056,-0.00542644,0.0313145,-29.5036,-0.836168,25.9552,0.617672,2.98638,-0.0630644,-1.08179,-3.3138,-0.673041,1.33547,-0.153503,-1.38915,-1.38445,0.219558,-1.40323,-0.792222,-0.81713,-0.735409,-0.146274,
-0.0759304,-0.0368484,0.402136,-1.59964,-0.189743,-0.072681,0.517835,-0.143525,0.0649795,-0.15163,-0.0666738,0.570639,0.0207808,-0.0503834,0,0,0,0,0,0,0,-0.0524769,-0.0474774,0.426937,-1.58727,-0.149002,1.53559,1.31432,-0.0667938,0.00222478,-0.0888415,-0.0179365,-0.067913,0.0232056,-0.00542644,0.0313145,-29.5036,-0.836168,25.9552,0.617672,2.98638,-0.0630644,-1.08179,-3.3138,-0.673041,1.33547,-0.153503,-1.38915,-1.38445,0.219558,-1.40323,-0.792222,-0.81713,-0.735409,-0.146274,
-0.0765026,-0.0365939,0.401531,-1.5999,-0.187303,-0.0726074,0.517635,-0.143042,0.0636294,-0.15113,-0.0662142,0.609859,0.0183992,-0.0499648,0,0,0,0,0,0,0,-0.0524769,-0.0474774,0.426937,-1.58727,-0.149002,1.53559,1.31432,-0.0667938,0.00222478,-0.0888415,-0.0179365,-0.067913,0.0232056,-0.00542644,0.0313145,-29.5036,-0.836168,25.9552,0.617672,2.98638,-0.0630644,-1.12831,-2.03196,0.334706,1.09087,-0.806367,-0.688091,-0.675883,-0.407373,-0.719933,-0.0537896,-0.385173,-0.33449,-0.153861,
-0.0770735,-0.036345,0.400928,-1.60016,-0.184692,-0.0725423,0.517437,-0.142717,0.0622191,-0.150789,-0.0657821,0.652773,0.0162638,-0.0495589,0,0,0,0,0,0,0,-0.0524769,-0.0474774,0.426937,-1.58727,-0.149002,1.53559,1.31432,-0.0667938,0.00222478,-0.0888415,-0.0179365,-0.067913,0.0232056,-0.00542644,0.0313145,-29.5036,-0.836168,25.9552,0.617672,2.98638,-0.0630644,-0.584155,0.186267,-0.533009,-0.157393,-0.12676,0.369306,0.377446,0.0626198,0.365829,-0.206784,0.102198,-0.0212129,-0.158555,
-0.0776437,-0.036102,0.400326,-1.60042,-0.181893,-0.0724843,0.51724,-0.142549,0.0607416,-0.150604,-0.0653858,0.699844,0.0145121,-0.0491717,0,0,0,0,0,0,0,-0.0524769,-0.0474774,0.426937,-1.58727,-0.149002,1.53559,1.31432,-0.0667938,0.00222478,-0.0888415,-0.0179365,-0.067913,0.0232056,-0.00542644,0.0313145,-29.5036,-0.836168,25.9552,0.617672,2.98638,-0.0630644,-0.584155,0.186267,-0.533009,-0.157393,-0.12676,0.369306,0.377446,0.0626198,0.365829,-0.206784,0.102198,-0.0212129,-0.158555,
-0.0782138,-0.0358653,0.399724,-1.60068,-0.178887,-0.072431,0.517045,-0.142538,0.0591893,-0.150576,-0.0650381,0.751545,0.0133236,-0.0488074,0,0,0,0,0,0,0,-0.0550259,-0.0474817,0.423641,-1.58855,-0.150375,1.53407,1.31421,-0.0850397,-0.00241568,-0.117745,-0.0416118,-0.00612525,-0.0963089,-0.00611245,-1.44055,-27.881,-2.08586,26.951,1.08184,3.26562,-0.210464,-0.543996,0.475843,-0.616295,-0.155998,-0.0571756,0.525597,0.527028,0.123866,0.524188,-0.170969,0.320069,0.061768,-0.167232,
-0.0787845,-0.035635,0.399121,-1.60094,-0.175653,-0.0723792,0.516851,-0.142677,0.0575544,-0.150698,-0.0647587,0.808336,0.0129411,-0.0484734,0,0,0,0,0,0,0,-0.0550259,-0.0474817,0.423641,-1.58855,-0.150375,1.53407,1.31421,-0.0850397,-0.00241568,-0.117745,-0.0416118,-0.00612525,-0.0963089,-0.00611245,-1.44055,-27.881,-2.08586,26.951,1.08184,3.26562,-0.210464,-0.543996,0.475843,-0.616295,-0.155998,-0.0571756,0.525597,0.527028,0.123866,0.524188,-0.170969,0.320069,0.061768,-0.167232,
-0.0793564,-0.0354117,0.398517,-1.6012,-0.172171,-0.0723244,0.516658,-0.142957,0.0558304,-0.150961,-0.0645761,0.870619,0.0136972,-0.0481803,0,0,0,0,0,0,0,-0.0550259,-0.0474817,0.423641,-1.58855,-0.150375,1.53407,1.31421,-0.0850397,-0.00241568,-0.117745,-0.0416118,-0.00612525,-0.0963089,-0.00611245,-1.44055,-27.881,-2.08586,26.951,1.08184,3.26562,-0.210464,1.27356,1.3259,-1.22951,-0.631166,1.61391,0.603603,0.615708,1.17706,0.604272,-0.553552,0.58462,0.0984195,-0.169721,
-0.0799242,-0.0351934,0.397917,-1.60146,-0.168475,-0.0722633,0.516467,-0.141956,0.0545744,-0.15007,-0.0640935,0.924016,0.0152856,-0.0478189,0,0,0,0,0,0,0,-0.0550259,-0.0474817,0.423641,-1.58855,-0.150375,1.53407,1.31421,-0.0850397,-0.00241568,-0.117745,-0.0416118,-0.00612525,-0.0963089,-0.00611245,-1.44055,-27.881,-2.08586,26.951,1.08184,3.26562,-0.210464,1.98543,1.66064,-2.20958,-0.747449,2.62039,0.648534,0.660016,1.94457,0.65264,-0.957983,0.884037,0.140731,-0.169,
-0.0804824,-0.034979,0.397325,-1.60171,-0.164617,-0.0721882,0.516277,-0.13955,0.0536082,-0.147794,-0.0636721,0.964586,0.0187576,-0.0475136,0,0,0,0,0,0,0,-0.0550259,-0.0474817,0.423641,-1.58855,-0.150375,1.53407,1.31421,-0.0850397,-0.00241568,-0.117745,-0.0416118,-0.00612525,-0.0963089,-0.00611245,-1.44055,-27.881,-2.08586,26.951,1.08184,3.26562,-0.210464,1.98543,1.66064,-2.20958,-0.747449,2.62039,0.648534,0.660016,1.94457,0.65264,-0.957983,0.884037,0.140731,-0.169,
-0.0810274,-0.0347687,0.396747,-1.60197,-0.160634,-0.0720859,0.516087,-0.136259,0.0525706,-0.144585,-0.063709,0.995659,0.0255758,-0.047366,0,0,0,0,0,0,0,-0.0587123,-0.0477247,0.419653,-1.58947,-0.146975,1.53121,1.31419,-0.127777,-0.0102616,-0.141774,-0.0130852,0.153416,-0.0934628,0.000581927,-0.147213,-27.5081,-0.911547,26.0068,1.8399,3.19878,-0.177505,1.07057,2.20516,-2.55023,-0.926063,2.20724,1.10308,1.1123,1.8357,1.10905,-1.03969,1.19146,0.130046,-0.172286,
-0.0815569,-0.0345634,0.396184,-1.60223,-0.156556,-0.0719377,0.515898,-0.132377,0.0513278,-0.14075,-0.0643106,1.01957,0.037056,-0.0474127,0,0,0,0,0,0,0,-0.0587123,-0.0477247,0.419653,-1.58947,-0.146975,1.53121,1.31419,-0.127777,-0.0102616,-0.141774,-0.0130852,0.153416,-0.0934628,0.000581927,-0.147213,-27.5081,-0.911547,26.0068,1.8399,3.19878,-0.177505,1.07057,2.20516,-2.55023,-0.926063,2.20724,1.10308,1.1123,1.8357,1.10905,-1.03969,1.19146,0.130046,-0.172286,
-0.0820693,-0.0343641,0.395638,-1.60249,-0.152404,-0.0717191,0.515707,-0.128085,0.0498208,-0.136474,-0.0655386,1.038,0.0546633,-0.0477316,0,0,0,0,0,0,0,-0.0587123,-0.0477247,0.419653,-1.58947,-0.146975,1.53121,1.31419,-0.127777,-0.0102616,-0.141774,-0.0130852,0.153416,-0.0934628,0.000581927,-0.147213,-27.5081,-0.911547,26.0068,1.8399,3.19878,-0.177505,-0.0531678,2.70267,-1.86364,-0.998729,1.12378,1.56186,1.56846,1.13283,1.56333,-0.666505,1.37727,0.160197,-0.171576,
-0.0825631,-0.034172,0.395111,-1.60276,-0.148195,-0.071399,0.515513,-0.123473,0.0480233,-0.131847,-0.0674591,1.0521,0.0800033,-0.0484717,0,0,0,0,0,0,0,-0.0587123,-0.0477247,0.419653,-1.58947,-0.146975,1.53121,1.31419,-0.127777,-0.0102616,-0.141774,-0.0130852,0.153416,-0.0934628,0.000581927,-0.147213,-27.5081,-0.911547,26.0068,1.8399,3.19878,-0.177505,-0.0531678,2.70267,-1.86364,-0.998729,1.12378,1.56186,1.56846,1.13283,1.56333,-0.666505,1.37727,0.160197,-0.171576,
-0.0830373,-0.0339882,0.394603,-1.60304,-0.143945,-0.0709408,0.515314,-0.118543,0.0459488,-0.126858,-0.0700985,1.06266,0.11457,-0.0498783,0,0,0,0,0,0,0,-0.0587123,-0.0477247,0.419653,-1.58947,-0.146975,1.53121,1.31419,-0.127777,-0.0102616,-0.141774,-0.0130852,0.153416,-0.0934628,0.000581927,-0.147213,-27.5081,-0.911547,26.0068,1.8399,3.19878,-0.177505,-0.422634,2.91213,-1.5901,-1.05327,0.750345,1.73504,1.7413,0.883356,1.73543,-0.533588,1.43406,0.161765,-0.173724,
-0.08349,-0.0338133,0.394118,-1.60333,-0.139665,-0.0703042,0.515104,-0.113174,0.0437202,-0.121363,-0.0732772,1.07001,0.15913,-0.0523159,0,0,0,0,0,0,0,-0.0587123,-0.0477247,0.419653,-1.58947,-0.146975,1.53121,1.31419,-0.127777,-0.0102616,-0.141774,-0.0130852,0.153416,-0.0934628,0.000581927,-0.147213,-27.5081,-0.911547,26.0068,1.8399,3.19878,-0.177505,-0.338116,2.59162,-1.49427,-0.841705,0.815222,1.54766,1.55147,0.926646,1.54565,-0.556347,1.40501,0.0946941,-0.174538,
-0.0839182,-0.0336462,0.393658,-1.60364,-0.135369,-0.0694552,0.514882,-0.107051,0.0417937,-0.115018,-0.0761167,1.074,0.212249,-0.0556222,0,0,0,0,0,0,0,-0.0650993,-0.0476882,0.412213,-1.59039,-0.132122,1.52902,1.31415,-0.157042,0.00259156,-0.194213,-0.023608,0.501765,-0.00653123,-0.00130199,1.09455,-28.8808,0.43733,25.6577,1.49109,2.98638,-0.137222,-0.338116,2.59162,-1.49427,-0.841705,0.815222,1.54766,1.55147,0.926646,1.54565,-0.556347,1.40501,0.0946941,-0.174538,
-0.0843007,-0.0334735,0.393244,-1.60393,-0.131238,-0.0683992,0.514689,-0.0956273,0.043166,-0.103513,-0.0740814,1.03255,0.264005,-0.048229,0,0,0,0,0,0,0,-0.0650993,-0.0476882,0.412213,-1.59039,-0.132122,1.52902,1.31415,-0.157042,0.00259156,-0.194213,-0.023608,0.501765,-0.00653123,-0.00130199,1.09455,-28.8808,0.43733,25.6577,1.49109,2.98638,-0.137222,-0.306431,2.11524,-1.68484,-0.599222,0.962983,1.2929,1.29391,1.06912,1.29059,-0.694121,1.33957,0.0132961,-0.173523,
-0.0846486,-0.0333005,0.392865,-1.60422,-0.127222,-0.0671689,0.514497,-0.0869705,0.0432567,-0.0945984,-0.0721884,1.00406,0.307588,-0.0480544,0,0,0,0,0,0,0,-0.0650993,-0.0476882,0.412213,-1.59039,-0.132122,1.52902,1.31415,-0.157042,0.00259156,-0.194213,-0.023608,0.501765,-0.00653123,-0.00130199,1.09455,-28.8808,0.43733,25.6577,1.49109,2.98638,-0.137222,-0.306431,2.11524,-1.68484,-0.599222,0.962983,1.2929,1.29391,1.06912,1.29059,-0.694121,1.33957,0.0132961,-0.173523,
-0.0849694,-0.03313,0.392515,-1.6045,-0.123284,-0.0657929,0.514303,-0.080203,0.0426278,-0.0876488,-0.0701843,0.984583,0.344001,-0.0483132,0,0,0,0,0,0,0,-0.0650993,-0.0476882,0.412213,-1.59039,-0.132122,1.52902,1.31415,-0.157042,0.00259156,-0.194213,-0.023608,0.501765,-0.00653123,-0.00130199,1.09455,-28.8808,0.43733,25.6577,1.49109,2.98638,-0.137222,-0.581155,2.09812,-1.71296,-0.644433,0.826141,1.32635,1.3223,1.02031,1.33129,-0.755455,1.30383,-0.0647261,-0.174454,
-0.0852687,-0.0329637,0.392186,-1.60477,-0.119398,-0.0642954,0.514109,-0.0748268,0.0415619,-0.0821482,-0.0680966,0.971386,0.374364,-0.0485356,0,0,0,0,0,0,0,-0.0650993,-0.0476882,0.412213,-1.59039,-0.132122,1.52902,1.31415,-0.157042,0.00259156,-0.194213,-0.023608,0.501765,-0.00653123,-0.00130199,1.09455,-28.8808,0.43733,25.6577,1.49109,2.98638,-0.137222,-0.581155,2.09812,-1.71296,-0.644433,0.826141,1.32635,1.3223,1.02031,1.33129,-0.755455,1.30383,-0.0647261,-0.174454,
-0.0855507,-0.0328028,0.391875,-1.60504,-0.115548,-0.0626967,0.513914,-0.0704918,0.0402294,-0.0777295,-0.0660001,0.962568,0.399685,-0.0487061,0,0,0,0,0,0,0,-0.0704513,-0.0475119,0.405824,-1.59122,-0.113136,1.52935,1.31407,-0.174724,0.00954138,-0.18836,-0.0273491,0.588932,0.03236,-0.00366571,1.85627,-29.4798,1.13954,25.9552,1.20453,2.74834,-0.170181,-1.20246,2.43593,-1.41022,-0.828308,0.315678,1.59734,1.5915,0.712369,1.60596,-0.665038,1.3459,-0.135921,-0.174187,
