PerkyPenguin/Analysis-on-Approximated-Derivatives/Code_and_Data/PaperData/Real_Robot/Scene_1/contact_change/19/trajectory.csv
Commanded Joint 0 Position,Commanded Joint 1 Position,Commanded Joint 2 Position,Commanded Joint 3 Position,Commanded Joint 4 Position,Commanded Joint 5 Position,Commanded Joint 6 Position,Commanded Joint 0 Velocity,Commanded Joint 1 Velocity,Commanded Joint 2 Velocity,Commanded Joint 3 Velocity,Commanded Joint 4 Velocity,Commanded Joint 5 Velocity,Commanded Joint 6 Velocity,Commanded Joint 0 Torque,Commanded Joint 1 Torque,Commanded Joint 2 Torque,Commanded Joint 3 Torque,Commanded Joint 4 Torque,Commanded Joint 5 Torque,Commanded Joint 6 Torque,Actual Joint 0 Position,Actual Joint 1 Position,Actual Joint 2 Position,Actual Joint 3 Position,Actual Joint 4 Position,Actual Joint 5 Position,Actual Joint 6 Position,Actual Joint 0 Velocity,Actual Joint 1 Velocity,Actual Joint 2 Velocity,Actual Joint 3 Velocity,Actual Joint 4 Velocity,Actual Joint 5 Velocity,Actual Joint 6 Velocity,Actual Joint 0 Torque,Actual Joint 1 Torque,Actual Joint 2 Torque,Actual Joint 3 Torque,Actual Joint 4 Torque,Actual Joint 5 Torque,Actual Joint 6 Torque,EE ext force 0,EE ext force 1,EE ext force 2,EE ext force 3,EE ext force 4,EE ext force 5,joint ext torque 0,joint ext torque 1,joint ext torque 2,joint ext torque 3,joint ext torque 4,joint ext torque 5,joint ext torque 6,
0.0132227,-0.196604,-0.332387,-1.66146,-0.0931589,-0.0940971,-0.383531,-0.00276045,0.0166971,-0.0127781,-0.150676,0.00370686,0.200647,-0.00213624,0,0,0,0,0,0,0,0.0132453,-0.196632,-0.332282,-1.65995,-0.09316,1.4747,0.401887,0.00158925,0.00161762,0.00064164,-0.000730056,-0.00392109,0.000606225,-0.000433167,-0.119442,-25.5879,1.86159,25.983,0.471188,2.92046,-0.0301054,-1.33413,-0.0522651,-0.163021,0.0398132,-0.629444,-0.203953,-0.106645,-0.191895,-0.286621,-0.222994,-0.148396,-0.322622,-0.0503439,
0.0132069,-0.196463,-0.33245,-1.6621,-0.093147,-0.0932661,-0.383539,-0.0039581,0.0351925,-0.0156069,-0.159833,0.00298323,0.207754,-0.00203562,0,0,0,0,0,0,0,0.0132453,-0.196632,-0.332282,-1.65995,-0.09316,1.4747,0.401887,0.00158925,0.00161762,0.00064164,-0.000730056,-0.00392109,0.000606225,-0.000433167,-0.119442,-25.5879,1.86159,25.983,0.471188,2.92046,-0.0301054,-1.33413,-0.0522651,-0.163021,0.0398132,-0.629444,-0.203953,-0.106645,-0.191895,-0.286621,-0.222994,-0.148396,-0.322622,-0.0503439,
0.0132544,-0.196612,-0.332272,-1.65996,-0.0931866,-0.0960946,-0.383512,0.000406176,0.000976729,0.000424186,-0.000440239,-0.000876659,3.63851e-05,-1.97075e-05,0,0,0,0,0,0,0,0.0132453,-0.196632,-0.332282,-1.65995,-0.09316,1.4747,0.401887,0.00158925,0.00161762,0.00064164,-0.000730056,-0.00392109,0.000606225,-0.000433167,-0.119442,-25.5879,1.86159,25.983,0.471188,2.92046,-0.0301054,-0.997143,-0.0447574,-0.371943,0.0787601,-0.287072,-0.140744,-0.0466905,0.0379335,-0.230559,-0.349717,-0.135032,-0.329827,-0.0506387,
0.0132558,-0.196609,-0.332271,-1.65996,-0.093189,-0.0960948,-0.383512,0.000340903,0.000835456,0.000342102,-0.000392229,-0.00059614,-4.74416e-05,-1.57143e-05,0,0,0,0,0,0,0,0.0132426,-0.19664,-0.33228,-1.65996,-0.0931444,1.4747,0.401885,0.0017849,3.5501e-05,0.00124843,-0.00467877,-0.000222412,-0.00104979,-0.00204886,-0.0956386,-25.461,1.81398,25.2332,0.343014,3.03948,-0.00996382,-0.997143,-0.0447574,-0.371943,0.0787601,-0.287072,-0.140744,-0.0466905,0.0379335,-0.230559,-0.349717,-0.135032,-0.329827,-0.0506387,
0.013257,-0.196606,-0.33227,-1.65996,-0.0931906,-0.0960952,-0.383512,0.00028998,0.000708938,0.000279257,-0.000347195,-0.000400105,-0.000116592,-1.26822e-05,0,0,0,0,0,0,0,0.0132426,-0.19664,-0.33228,-1.65996,-0.0931444,1.4747,0.401885,0.0017849,3.5501e-05,0.00124843,-0.00467877,-0.000222412,-0.00104979,-0.00204886,-0.0956386,-25.461,1.81398,25.2332,0.343014,3.03948,-0.00996382,-1.4,0.0637875,-0.239552,-0.0399898,-0.671912,-0.162726,-0.0671104,-0.211742,-0.236664,-0.22371,-0.142156,-0.303457,-0.0502691,
0.0132579,-0.196603,-0.332269,-1.65996,-0.0931917,-0.0960959,-0.383512,0.000249556,0.000596239,0.000230369,-0.000305158,-0.000264273,-0.000172828,-1.03318e-05,0,0,0,0,0,0,0,0.0132426,-0.19664,-0.33228,-1.65996,-0.0931444,1.4747,0.401885,0.0017849,3.5501e-05,0.00124843,-0.00467877,-0.000222412,-0.00104979,-0.00204886,-0.0956386,-25.461,1.81398,25.2332,0.343014,3.03948,-0.00996382,-1.4,0.0637875,-0.239552,-0.0399898,-0.671912,-0.162726,-0.0671104,-0.211742,-0.236664,-0.22371,-0.142156,-0.303457,-0.0502691,
0.0132588,-0.196601,-0.332268,-1.65996,-0.0931923,-0.0960968,-0.383512,0.000216914,0.000496165,0.000191695,-0.000266237,-0.000171359,-0.000217809,-8.47981e-06,0,0,0,0,0,0,0,0.0132426,-0.19664,-0.33228,-1.65996,-0.0931444,1.4747,0.401885,0.0017849,3.5501e-05,0.00124843,-0.00467877,-0.000222412,-0.00104979,-0.00204886,-0.0956386,-25.461,1.81398,25.2332,0.343014,3.03948,-0.00996382,-2.91208,0.40566,-0.761357,-0.23032,-1.65153,-0.27482,-0.175126,-0.686882,-0.333974,-0.232508,-0.147369,-0.305654,-0.0493956,
0.0132596,-0.1966,-0.332267,-1.65996,-0.0931928,-0.0960978,-0.383512,0.000190114,0.000407478,0.000160573,-0.000230476,-0.000109023,-0.000253145,-6.99792e-06,0,0,0,0,0,0,0,0.0132426,-0.19664,-0.33228,-1.65996,-0.0931444,1.4747,0.401885,0.0017849,3.5501e-05,0.00124843,-0.00467877,-0.000222412,-0.00104979,-0.00204886,-0.0956386,-25.461,1.81398,25.2332,0.343014,3.03948,-0.00996382,-1.55302,0.0595235,-1.3108,0.124588,-0.418283,-0.189804,-0.0911629,0.0906642,-0.298465,-0.584259,-0.134535,-0.282567,-0.0484328,
0.0132602,-0.196599,-0.332267,-1.65996,-0.0931931,-0.0960989,-0.383512,0.000167765,0.000328981,0.000135104,-0.000197826,-6.84426e-05,-0.000280357,-5.79447e-06,0,0,0,0,0,0,0,0.0132443,-0.196654,-0.332282,-1.66031,-0.0931367,1.47538,0.401891,0.000779307,-0.0110048,0.000298995,0.00576705,0.00623583,-0.0132576,0.000491889,-0.119442,-25.338,1.86159,26.2805,0.288082,3.29857,-0.0630644,-1.55302,0.0595235,-1.3108,0.124588,-0.418283,-0.189804,-0.0911629,0.0906642,-0.298465,-0.584259,-0.134535,-0.282567,-0.0484328,
0.0131284,-0.196559,-0.332369,-1.65983,-0.0916189,-0.0970773,-0.38351,-0.0112873,0.00511558,-0.0100007,0.00967494,0.176661,-0.111139,0.000367654,0,0,0,0,0,0,0,0.0132443,-0.196654,-0.332282,-1.66031,-0.0931367,1.47538,0.401891,0.000779307,-0.0110048,0.000298995,0.00576705,0.00623583,-0.0132576,0.000491889,-0.119442,-25.338,1.86159,26.2805,0.288082,3.29857,-0.0630644,-0.80858,-0.154276,-1.2036,0.257027,0.0822267,-0.154736,-0.0645359,0.342927,-0.269413,-0.595298,-0.137432,-0.240249,-0.0487331,
0.0131214,-0.196701,-0.332372,-1.66014,-0.0915318,-0.0964731,-0.383506,-0.0117177,-0.0034305,-0.0101896,0.0133114,0.180157,-0.114621,0.000396173,0,0,0,0,0,0,0,0.0132443,-0.196654,-0.332282,-1.66031,-0.0931367,1.47538,0.401891,0.000779307,-0.0110048,0.000298995,0.00576705,0.00623583,-0.0132576,0.000491889,-0.119442,-25.338,1.86159,26.2805,0.288082,3.29857,-0.0630644,-0.80858,-0.154276,-1.2036,0.257027,0.0822267,-0.154736,-0.0645359,0.342927,-0.269413,-0.595298,-0.137432,-0.240249,-0.0487331,
0.0130747,-0.196716,-0.332416,-1.6601,-0.0906843,-0.097011,-0.383504,-0.011682,-0.00382321,-0.0109719,0.0112783,0.211877,-0.134488,0.000527199,0,0,0,0,0,0,0,0.0132443,-0.196654,-0.332282,-1.66031,-0.0931367,1.47538,0.401891,0.000779307,-0.0110048,0.000298995,0.00576705,0.00623583,-0.0132576,0.000491889,-0.119442,-25.338,1.86159,26.2805,0.288082,3.29857,-0.0630644,-0.873868,0.15965,-1.10474,0.00776152,-0.0199427,-0.0242716,0.0636686,0.264571,-0.111149,-0.536347,-0.121129,-0.228309,-0.0490131,
0.0130302,-0.196733,-0.33246,-1.66006,-0.0897394,-0.0976145,-0.383501,-0.0111019,-0.0042142,-0.0109297,0.0093665,0.236208,-0.150875,0.000598837,0,0,0,0,0,0,0,0.0132443,-0.196654,-0.332282,-1.66031,-0.0931367,1.47538,0.401891,0.000779307,-0.0110048,0.000298995,0.00576705,0.00623583,-0.0132576,0.000491889,-0.119442,-25.338,1.86159,26.2805,0.288082,3.29857,-0.0630644,-1.55602,0.10386,-0.973463,0.0319037,-0.583522,-0.170009,-0.0715013,-0.0726008,-0.263225,-0.418515,-0.12959,-0.24344,-0.0484708,
0.0129894,-0.196751,-0.332501,-1.66003,-0.0887193,-0.0982722,-0.383499,-0.0102106,-0.00449787,-0.0103782,0.00770406,0.255018,-0.164425,0.000634099,0,0,0,0,0,0,0,0.0132443,-0.196654,-0.332282,-1.66031,-0.0931367,1.47538,0.401891,0.000779307,-0.0110048,0.000298995,0.00576705,0.00623583,-0.0132576,0.000491889,-0.119442,-25.338,1.86159,26.2805,0.288082,3.29857,-0.0630644,-1.55602,0.10386,-0.973463,0.0319037,-0.583522,-0.170009,-0.0715013,-0.0726008,-0.263225,-0.418515,-0.12959,-0.24344,-0.0484708,
0.0129528,-0.196769,-0.332539,-1.66,-0.0876407,-0.0989746,-0.383496,-0.00915676,-0.00465592,-0.00952728,0.00629174,0.26965,-0.175592,0.000646293,0,0,0,0,0,0,0,0.0132164,-0.196569,-0.332297,-1.66021,-0.093004,1.47541,0.401889,-0.00453444,0.00819071,-0.000942493,0.00548761,0.0301944,-0.00176754,0.00082423,0.158268,-26.0838,1.98854,25.7568,0.667111,2.97997,-0.050247,-2.31098,0.00863532,-0.542911,0.0593629,-1.33891,-0.347784,-0.239033,-0.577196,-0.444064,-0.162009,-0.114452,-0.24059,-0.0467907,
0.0129206,-0.196788,-0.332573,-1.65998,-0.0865164,-0.0997136,-0.383494,-0.00803625,-0.00469924,-0.008517,0.00509752,0.281084,-0.184742,0.000643721,0,0,0,0,0,0,0,0.0132164,-0.196569,-0.332297,-1.66021,-0.093004,1.47541,0.401889,-0.00453444,0.00819071,-0.000942493,0.00548761,0.0301944,-0.00176754,0.00082423,0.158268,-26.0838,1.98854,25.7568,0.667111,2.97997,-0.050247,-2.31098,0.00863532,-0.542911,0.0593629,-1.33891,-0.347784,-0.239033,-0.577196,-0.444064,-0.162009,-0.114452,-0.24059,-0.0467907,
0.012893,-0.196807,-0.332603,-1.65997,-0.0853562,-0.100482,-0.383491,-0.00691049,-0.00464722,-0.00743957,0.00408589,0.290042,-0.192184,0.000631821,0,0,0,0,0,0,0,0.0132164,-0.196569,-0.332297,-1.66021,-0.093004,1.47541,0.401889,-0.00453444,0.00819071,-0.000942493,0.00548761,0.0301944,-0.00176754,0.00082423,0.158268,-26.0838,1.98854,25.7568,0.667111,2.97997,-0.050247,-1.2336,0.00648037,-0.620899,0.194225,-0.479379,-0.156809,-0.04871,-0.0782134,-0.283555,-0.354424,0.00550136,-0.272126,-0.0485036,
0.0129501,-0.196605,-0.332484,-1.65983,-0.0885145,-0.0992522,-0.383476,-0.0269944,0.00152444,-0.0220603,0.0377352,0.52654,-0.424856,0.00333414,0,0,0,0,0,0,0,0.0132164,-0.196569,-0.332297,-1.66021,-0.093004,1.47541,0.401889,-0.00453444,0.00819071,-0.000942493,0.00548761,0.0301944,-0.00176754,0.00082423,0.158268,-26.0838,1.98854,25.7568,0.667111,2.97997,-0.050247,-1.2336,0.00648037,-0.620899,0.194225,-0.479379,-0.156809,-0.04871,-0.0782134,-0.283555,-0.354424,0.00550136,-0.272126,-0.0485036,
0.0129185,-0.196382,-0.332513,-1.6598,-0.088241,-0.0988946,-0.383479,-0.0267317,0.0111027,-0.0225845,0.0312998,0.534593,-0.395013,0.00318339,0,0,0,0,0,0,0,0.0132164,-0.196569,-0.332297,-1.66021,-0.093004,1.47541,0.401889,-0.00453444,0.00819071,-0.000942493,0.00548761,0.0301944,-0.00176754,0.00082423,0.158268,-26.0838,1.98854,25.7568,0.667111,2.97997,-0.050247,-1.19465,-0.235164,-0.695338,0.45232,-0.414113,-0.25919,-0.140804,-0.0289363,-0.427379,-0.414445,0.0554007,-0.298718,-0.0472317,
0.0128177,-0.196359,-0.332604,-1.6597,-0.0857104,-0.100765,-0.383465,-0.0251993,0.00573157,-0.0227802,0.0248455,0.632643,-0.46765,0.00349117,0,0,0,0,0,0,0,0.0131672,-0.196523,-0.332349,-1.6601,-0.0905179,1.47537,0.401888,-0.000872853,-0.000716607,-0.00125141,0.00924348,0.10389,-0.00124148,-0.000624856,0.539127,-25.6355,2.31386,25.5347,1.01501,2.8875,-0.0365141,-1.73819,-0.248855,-0.480788,0.476463,-0.926527,-0.360593,-0.229321,-0.361452,-0.540549,-0.271542,0.0980974,-0.303286,-0.0465682,
0.0127277,-0.196354,-0.332689,-1.65963,-0.0828691,-0.102866,-0.383451,-0.0225016,0.0013037,-0.0212047,0.0187486,0.710327,-0.525145,0.00365476,0,0,0,0,0,0,0,0.0131672,-0.196523,-0.332349,-1.6601,-0.0905179,1.47537,0.401888,-0.000872853,-0.000716607,-0.00125141,0.00924348,0.10389,-0.00124148,-0.000624856,0.539127,-25.6355,2.31386,25.5347,1.01501,2.8875,-0.0365141,-1.73819,-0.248855,-0.480788,0.476463,-0.926527,-0.360593,-0.229321,-0.361452,-0.540549,-0.271542,0.0980974,-0.303286,-0.0465682,
0.012651,-0.196362,-0.332763,-1.65957,-0.0797791,-0.105148,-0.383436,-0.0191863,-0.00206255,-0.0185777,0.0134522,0.772503,-0.570626,0.00373117,0,0,0,0,0,0,0,0.0131672,-0.196523,-0.332349,-1.6601,-0.0905179,1.47537,0.401888,-0.000872853,-0.000716607,-0.00125141,0.00924348,0.10389,-0.00124148,-0.000624856,0.539127,-25.6355,2.31386,25.5347,1.01501,2.8875,-0.0365141,-1.45297,-0.275224,0.184287,0.489028,-0.964771,-0.323105,-0.194495,-0.494628,-0.501997,-0.0725529,0.189861,-0.318166,-0.0470521,
0.0125886,-0.19638,-0.332825,-1.65954,-0.0764882,-0.107574,-0.383421,-0.0155941,-0.00447719,-0.0153727,0.00897527,0.822718,-0.606346,0.00375181,0,0,0,0,0,0,0,0.0131672,-0.196523,-0.332349,-1.6601,-0.0905179,1.47537,0.401888,-0.000872853,-0.000716607,-0.00125141,0.00924348,0.10389,-0.00124148,-0.000624856,0.539127,-25.6355,2.31386,25.5347,1.01501,2.8875,-0.0365141,-1.45297,-0.275224,0.184287,0.489028,-0.964771,-0.323105,-0.194495,-0.494628,-0.501997,-0.0725529,0.189861,-0.318166,-0.0470521,
0.0125408,-0.196405,-0.332872,-1.65952,-0.0730338,-0.11011,-0.383406,-0.0119407,-0.00610408,-0.011902,0.00522232,0.863602,-0.634071,0.00373588,0,0,0,0,0,0,0,0.0131672,-0.196523,-0.332349,-1.6601,-0.0905179,1.47537,0.401888,-0.000872853,-0.000716607,-0.00125141,0.00924348,0.10389,-0.00124148,-0.000624856,0.539127,-25.6355,2.31386,25.5347,1.01501,2.8875,-0.0365141,-0.426453,-0.630509,0.18342,0.890022,-0.149,-0.301387,-0.177589,-0.024031,-0.532725,-0.257142,0.303009,-0.374299,-0.0487778,
0.0125074,-0.196433,-0.332906,-1.65951,-0.0694453,-0.112731,-0.383391,-0.00836164,-0.00710389,-0.00836944,0.00208089,0.897129,-0.655237,0.00369594,0,0,0,0,0,0,0,0.0131672,-0.196523,-0.332349,-1.6601,-0.0905179,1.47537,0.401888,-0.000872853,-0.000716607,-0.00125141,0.00924348,0.10389,-0.00124148,-0.000624856,0.539127,-25.6355,2.31386,25.5347,1.01501,2.8875,-0.0365141,0.34541,0.0350029,0.257699,0.609492,0.465009,0.136911,0.262168,0.333594,-0.0934028,-0.433937,0.531237,-0.490652,-0.0501907,
0.0138069,-0.196632,-0.331598,-1.66008,-0.0898942,-0.100852,-0.383364,0.0719457,-0.0130703,0.0842457,0.00259999,0.361904,-0.631218,0.012012,0,0,0,0,0,0,0,0.0129227,-0.196428,-0.332657,-1.65979,-0.0809591,1.47338,0.401893,-0.0154206,-0.0016805,-0.014014,0.0121559,0.355502,-0.0812462,0.000689919,0.919986,-25.461,2.51222,25.6815,1.84539,2.05163,-0.0703886,0.34541,0.0350029,0.257699,0.609492,0.465009,0.136911,0.262168,0.333594,-0.0934028,-0.433937,0.531237,-0.490652,-0.0501907,
0.0135396,-0.196639,-0.331977,-1.65968,-0.0754397,-0.103464,-0.383351,0.0768987,-0.0243084,0.0868583,0.000998634,0.517253,-0.670245,0.0126091,0,0,0,0,0,0,0,0.0129227,-0.196428,-0.332657,-1.65979,-0.0809591,1.47338,0.401893,-0.0154206,-0.0016805,-0.014014,0.0121559,0.355502,-0.0812462,0.000689919,0.919986,-25.461,2.51222,25.6815,1.84539,2.05163,-0.0703886,0.14457,-0.206485,0.810821,0.839368,0.174342,-0.00587968,0.136095,0.106839,-0.276181,-0.309509,0.622173,-0.596605,-0.0502967,
0.013927,-0.196751,-0.331537,-1.65971,-0.0731402,-0.106643,-0.383302,0.0968521,-0.027781,0.109944,-0.00804497,0.574868,-0.794786,0.012081,0,0,0,0,0,0,0,0.0129227,-0.196428,-0.332657,-1.65979,-0.0809591,1.47338,0.401893,-0.0154206,-0.0016805,-0.014014,0.0121559,0.355502,-0.0812462,0.000689919,0.919986,-25.461,2.51222,25.6815,1.84539,2.05163,-0.0703886,0.14457,-0.206485,0.810821,0.839368,0.174342,-0.00587968,0.136095,0.106839,-0.276181,-0.309509,0.622173,-0.596605,-0.0502967,
0.0143818,-0.196867,-0.331021,-1.65978,-0.0706201,-0.110229,-0.383256,0.113697,-0.0291894,0.129126,-0.0165887,0.630033,-0.896456,0.0116254,0,0,0,0,0,0,0,0.0129227,-0.196428,-0.332657,-1.65979,-0.0809591,1.47338,0.401893,-0.0154206,-0.0016805,-0.014014,0.0121559,0.355502,-0.0812462,0.000689919,0.919986,-25.461,2.51222,25.6815,1.84539,2.05163,-0.0703886,-0.128779,-0.935748,1.00349,1.46534,-0.0248503,-0.38632,-0.225721,-0.0072455,-0.739523,-0.317621,0.668693,-0.705127,-0.0443397,
0.0148939,-0.196983,-0.33044,-1.65988,-0.0678936,-0.114147,-0.383211,0.128028,-0.0290109,0.145228,-0.0243847,0.681621,-0.979697,0.01123,0,0,0,0,0,0,0,0.0129227,-0.196428,-0.332657,-1.65979,-0.0809591,1.47338,0.401893,-0.0154206,-0.0016805,-0.014014,0.0121559,0.355502,-0.0812462,0.000689919,0.919986,-25.461,2.51222,25.6815,1.84539,2.05163,-0.0703886,-0.128779,-0.935748,1.00349,1.46534,-0.0248503,-0.38632,-0.225721,-0.0072455,-0.739523,-0.317621,0.668693,-0.705127,-0.0443397,
0.0154551,-0.197094,-0.329804,-1.66,-0.0649773,-0.118339,-0.383167,0.140302,-0.0276721,0.158865,-0.0313803,0.729069,-1.04795,0.0108807,0,0,0,0,0,0,0,0.0127635,-0.196478,-0.332765,-1.6595,-0.0694352,1.46972,0.401891,0.00742694,-0.00707949,0.00618246,0.0113213,0.298931,-0.14141,-0.000530095,1.4516,-25.1119,3.76192,25.2332,0.948178,2.03148,-0.0301054,-0.209485,-0.347855,0.953214,1.14113,0.0175467,-0.143644,0.0136673,0.0637933,-0.473928,-0.441376,0.764125,-0.826082,-0.0353644,
0.0160586,-0.197196,-0.329122,-1.66015,-0.0618886,-0.122755,-0.383125,0.150872,-0.0255201,0.1705,-0.0375955,0.772186,-1.10397,0.0105659,0,0,0,0,0,0,0,0.0127635,-0.196478,-0.332765,-1.6595,-0.0694352,1.46972,0.401891,0.00742694,-0.00707949,0.00618246,0.0113213,0.298931,-0.14141,-0.000530095,1.4516,-25.1119,3.76192,25.2332,0.948178,2.03148,-0.0301054,-0.622435,-0.0837854,1.37481,0.807839,-0.387591,-0.10327,0.020893,-0.19857,-0.357877,-0.278113,0.686872,-0.872403,-0.0327021,
0.0166986,-0.197287,-0.3284,-1.66033,-0.0586445,-0.127355,-0.383084,0.160011,-0.0228271,0.180486,-0.0430775,0.81102,-1.14995,0.0102773,0,0,0,0,0,0,0,0.0127635,-0.196478,-0.332765,-1.6595,-0.0694352,1.46972,0.401891,0.00742694,-0.00707949,0.00618246,0.0113213,0.298931,-0.14141,-0.000530095,1.4516,-25.1119,3.76192,25.2332,0.948178,2.03148,-0.0301054,-0.622435,-0.0837854,1.37481,0.807839,-0.387591,-0.10327,0.020893,-0.19857,-0.357877,-0.278113,0.686872,-0.872403,-0.0327021,
0.0142735,-0.197006,-0.331235,-1.66024,-0.0767835,-0.103206,-0.383327,0.157908,-0.0587606,0.172895,-0.0517956,0.37799,-0.651456,0.0144491,0,0,0,0,0,0,0,0.0127635,-0.196478,-0.332765,-1.6595,-0.0694352,1.46972,0.401891,0.00742694,-0.00707949,0.00618246,0.0113213,0.298931,-0.14141,-0.000530095,1.4516,-25.1119,3.76192,25.2332,0.948178,2.03148,-0.0301054,-0.282148,0.363589,1.61824,0.414502,-0.167713,0.154112,0.236713,-0.0861921,-0.0229668,-0.264569,0.675595,-0.91147,-0.0315369,
0.0142229,-0.197076,-0.331204,-1.65999,-0.0654926,-0.107277,-0.383315,0.163776,-0.0591579,0.180306,-0.0546323,0.369808,-0.676675,0.0152556,0,0,0,0,0,0,0,0.0127635,-0.196478,-0.332765,-1.6595,-0.0694352,1.46972,0.401891,0.00742694,-0.00707949,0.00618246,0.0113213,0.298931,-0.14141,-0.000530095,1.4516,-25.1119,3.76192,25.2332,0.948178,2.03148,-0.0301054,-0.282148,0.363589,1.61824,0.414502,-0.167713,0.154112,0.236713,-0.0861921,-0.0229668,-0.264569,0.675595,-0.91147,-0.0315369,
0.0150049,-0.197322,-0.330334,-1.66025,-0.0637866,-0.110475,-0.383257,0.195494,-0.0613261,0.217505,-0.0642855,0.426516,-0.799496,0.0143989,0,0,0,0,0,0,0,0.0130629,-0.196622,-0.332269,-1.65939,-0.0587945,1.46239,0.401892,0.0129661,-0.00269479,0.0188553,0.00294144,0.389394,-0.310736,0.000305853,2.89569,-25.1634,4.98781,24.6857,1.94336,1.47484,-0.0301054,-0.438076,0.867875,2.13726,0.0134486,-0.429566,0.351203,0.415457,-0.292035,0.231741,-0.115921,0.731118,-0.980743,-0.0286009,
0.015892,-0.197564,-0.329342,-1.66054,-0.0618394,-0.114074,-0.383202,0.221766,-0.0607315,0.247877,-0.0727222,0.486797,-0.8997,0.0136997,0,0,0,0,0,0,0,0.0130629,-0.196622,-0.332269,-1.65939,-0.0587945,1.46239,0.401892,0.0129661,-0.00269479,0.0188553,0.00294144,0.389394,-0.310736,0.000305853,2.89569,-25.1634,4.98781,24.6857,1.94336,1.47484,-0.0301054,-0.210577,1.37502,1.74346,-0.253472,-0.0313461,0.61872,0.683023,0.0316009,0.512613,-0.379237,0.776909,-1.07444,-0.0247237,
0.016867,-0.197798,-0.32825,-1.66086,-0.0596511,-0.117999,-0.38315,0.243763,-0.0583545,0.272969,-0.080291,0.54707,-0.981323,0.013114,0,0,0,0,0,0,0,0.0130629,-0.196622,-0.332269,-1.65939,-0.0587945,1.46239,0.401892,0.0129661,-0.00269479,0.0188553,0.00294144,0.389394,-0.310736,0.000305853,2.89569,-25.1634,4.98781,24.6857,1.94336,1.47484,-0.0301054,-0.210577,1.37502,1.74346,-0.253472,-0.0313461,0.61872,0.683023,0.0316009,0.512613,-0.379237,0.776909,-1.07444,-0.0247237,
0.0179164,-0.198017,-0.327075,-1.66121,-0.0572305,-0.12219,-0.383099,0.262336,-0.0548239,0.293909,-0.0870867,0.605155,-1.0478,0.0126128,0,0,0,0,0,0,0,0.0130629,-0.196622,-0.332269,-1.65939,-0.0587945,1.46239,0.401892,0.0129661,-0.00269479,0.0188553,0.00294144,0.389394,-0.310736,0.000305853,2.89569,-25.1634,4.98781,24.6857,1.94336,1.47484,-0.0301054,-0.257125,0.911803,1.09378,0.0920286,0.267,0.399157,0.464982,0.342779,0.257663,-0.675422,0.638393,-1.12877,-0.0190586,
0.0190288,-0.198219,-0.325828,-1.66158,-0.0545913,-0.126598,-0.383051,0.27812,-0.0505484,0.311523,-0.0930911,0.6598,-1.102,0.0121594,0,0,0,0,0,0,0,0.0130629,-0.196622,-0.332269,-1.65939,-0.0587945,1.46239,0.401892,0.0129661,-0.00269479,0.0188553,0.00294144,0.389394,-0.310736,0.000305853,2.89569,-25.1634,4.98781,24.6857,1.94336,1.47484,-0.0301054,-0.257125,0.911803,1.09378,0.0920286,0.267,0.399157,0.464982,0.342779,0.257663,-0.675422,0.638393,-1.12877,-0.0190586,
0.0201952,-0.198403,-0.324523,-1.66198,-0.0517497,-0.131175,-0.383004,0.291581,-0.0459372,0.326439,-0.0986984,0.710389,-1.1441,0.0117361,0,0,0,0,0,0,0,0.0130629,-0.196622,-0.332269,-1.65939,-0.0587945,1.46239,0.401892,0.0129661,-0.00269479,0.0188553,0.00294144,0.389394,-0.310736,0.000305853,2.89569,-25.1634,4.98781,24.6857,1.94336,1.47484,-0.0301054,-1.86979,-0.552516,1.43564,0.812045,-1.05446,-0.539801,-0.453447,-0.446474,-0.723972,-0.305236,0.254025,-1.06735,-0.0131542,
0.0149079,-0.197351,-0.330511,-1.66048,-0.0667375,-0.107029,-0.383319,0.239441,-0.0837803,0.260693,-0.10146,0.240777,-0.657644,0.0150312,0,0,0,0,0,0,0,0.014399,-0.197238,-0.330398,-1.65981,-0.0492868,1.4529,0.401899,0.0612961,-0.0194995,0.0825091,-0.0172285,0.313267,-0.31442,0.00172811,3.63361,-24.9611,6.03914,24.8364,1.52771,1.73394,-0.050247,-1.86979,-0.552516,1.43564,0.812045,-1.05446,-0.539801,-0.453447,-0.446474,-0.723972,-0.305236,0.254025,-1.06735,-0.0131542,
0.0169971,-0.198084,-0.327611,-1.66097,-0.045928,-0.125233,-0.383297,0.2696,-0.0778239,0.295099,-0.113357,0.305262,-0.747088,0.0157627,0,0,0,0,0,0,0,0.014399,-0.197238,-0.330398,-1.65981,-0.0492868,1.4529,0.401899,0.0612961,-0.0194995,0.0825091,-0.0172285,0.313267,-0.31442,0.00172811,3.63361,-24.9611,6.03914,24.8364,1.52771,1.73394,-0.050247,-2.03745,-0.863198,1.04773,0.969159,-1.00604,-0.704635,-0.623333,-0.343143,-0.892053,-0.422677,0.108177,-1.05623,-0.011572,
0.0182326,-0.19839,-0.326246,-1.66146,-0.0445,-0.128648,-0.383238,0.308877,-0.0765108,0.341329,-0.122789,0.357007,-0.853776,0.0147706,0,0,0,0,0,0,0,0.014399,-0.197238,-0.330398,-1.65981,-0.0492868,1.4529,0.401899,0.0612961,-0.0194995,0.0825091,-0.0172285,0.313267,-0.31442,0.00172811,3.63361,-24.9611,6.03914,24.8364,1.52771,1.73394,-0.050247,-2.03745,-0.863198,1.04773,0.969159,-1.00604,-0.704635,-0.623333,-0.343143,-0.892053,-0.422677,0.108177,-1.05623,-0.011572,
0.0195971,-0.19868,-0.32473,-1.66198,-0.0428322,-0.132411,-0.383182,0.341143,-0.0725056,0.378805,-0.130655,0.416954,-0.94084,0.0139958,0,0,0,0,0,0,0,0.014399,-0.197238,-0.330398,-1.65981,-0.0492868,1.4529,0.401899,0.0612961,-0.0194995,0.0825091,-0.0172285,0.313267,-0.31442,0.00172811,3.63361,-24.9611,6.03914,24.8364,1.52771,1.73394,-0.050247,-1.49358,0.989879,0.545373,-0.210438,-0.437954,0.224369,0.281876,0.0535983,0.147857,-0.679079,0.319701,-1.07787,-0.011347,
0.0210689,-0.198948,-0.323092,-1.66253,-0.0409128,-0.136457,-0.383128,0.367948,-0.0669653,0.409538,-0.137538,0.479828,-1.01159,0.0133662,0,0,0,0,0,0,0,0.014399,-0.197238,-0.330398,-1.65981,-0.0492868,1.4529,0.401899,0.0612961,-0.0194995,0.0825091,-0.0172285,0.313267,-0.31442,0.00172811,3.63361,-24.9611,6.03914,24.8364,1.52771,1.73394,-0.050247,-1.36218,2.44167,0.422415,-1.23601,-0.354293,0.900474,0.939462,0.103704,0.932763,-0.69333,0.436823,-1.04489,-0.0112371,
0.0226306,-0.199189,-0.321352,-1.66311,-0.0387436,-0.140734,-0.383077,0.39042,-0.0604635,0.434958,-0.14338,0.54231,-1.06915,0.0127382,0,0,0,0,0,0,0,0.0170416,-0.198194,-0.327433,-1.66056,-0.0405972,1.44142,0.401899,0.0924012,-0.0390101,0.108156,-0.0371998,0.176075,-0.341092,0.00193808,2.16175,-25.8101,4.61091,25.1578,1.01501,2.34368,-0.00996382,-1.36218,2.44167,0.422415,-1.23601,-0.354293,0.900474,0.939462,0.103704,0.932763,-0.69333,0.436823,-1.04489,-0.0112371,
0.0242676,-0.199408,-0.319527,-1.66371,-0.0363334,-0.145128,-0.383028,0.409248,-0.0545521,0.456274,-0.151785,0.602552,-1.09856,0.0122888,0,0,0,0,0,0,0,0.0170416,-0.198194,-0.327433,-1.66056,-0.0405972,1.44142,0.401899,0.0924012,-0.0390101,0.108156,-0.0371998,0.176075,-0.341092,0.00193808,2.16175,-25.8101,4.61091,25.1578,1.01501,2.34368,-0.00996382,-1.85107,0.588936,-0.168903,0.0106759,-0.511069,-0.0192087,0.0311425,0.0982022,-0.102371,-0.789562,0.154096,-0.960551,-0.00502905,
0.0175885,-0.198347,-0.327017,-1.66142,-0.0469825,-0.12498,-0.383316,0.334759,-0.101743,0.363957,-0.156221,0.196225,-0.727194,0.0144791,0,0,0,0,0,0,0,0.0170416,-0.198194,-0.327433,-1.66056,-0.0405972,1.44142,0.401899,0.0924012,-0.0390101,0.108156,-0.0371998,0.176075,-0.341092,0.00193808,2.16175,-25.8101,4.61091,25.1578,1.01501,2.34368,-0.00996382,-1.85107,0.588936,-0.168903,0.0106759,-0.511069,-0.0192087,0.0311425,0.0982022,-0.102371,-0.789562,0.154096,-0.960551,-0.00502905,
0.0203414,-0.199352,-0.323906,-1.66221,-0.0390301,-0.136729,-0.383286,0.339211,-0.102791,0.369954,-0.157586,0.158426,-0.74399,0.0163877,0,0,0,0,0,0,0,0.0170416,-0.198194,-0.327433,-1.66056,-0.0405972,1.44142,0.401899,0.0924012,-0.0390101,0.108156,-0.0371998,0.176075,-0.341092,0.00193808,2.16175,-25.8101,4.61091,25.1578,1.01501,2.34368,-0.00996382,-2.59979,-1.57884,-0.288702,1.36359,-1.06515,-1.10911,-1.00548,-0.222205,-1.33929,-0.641,-0.197543,-0.835921,-0.00381399,
0.0218878,-0.199752,-0.322203,-1.66289,-0.0381548,-0.140059,-0.383224,0.38661,-0.0999851,0.425932,-0.170664,0.218823,-0.832465,0.0153801,0,0,0,0,0,0,0,0.0170416,-0.198194,-0.327433,-1.66056,-0.0405972,1.44142,0.401899,0.0924012,-0.0390101,0.108156,-0.0371998,0.176075,-0.341092,0.00193808,2.16175,-25.8101,4.61091,25.1578,1.01501,2.34368,-0.00996382,-2.59979,-1.57884,-0.288702,1.36359,-1.06515,-1.10911,-1.00548,-0.222205,-1.33929,-0.641,-0.197543,-0.835921,-0.00381399,
0.02359,-0.200127,-0.320318,-1.66361,-0.0369966,-0.143648,-0.383167,0.425553,-0.0936099,0.471084,-0.18061,0.28957,-0.897207,0.0144101,0,0,0,0,0,0,0,0.0170416,-0.198194,-0.327433,-1.66056,-0.0405972,1.44142,0.401899,0.0924012,-0.0390101,0.108156,-0.0371998,0.176075,-0.341092,0.00193808,2.16175,-25.8101,4.61091,25.1578,1.01501,2.34368,-0.00996382,-3.47087,-0.588097,0.0104435,0.730594,-1.92001,-0.803543,-0.699222,-0.782505,-0.978367,-0.403301,0.00326267,-0.827116,-0.00385923,
0.025421,-0.200471,-0.318286,-1.66438,-0.0355395,-0.147368,-0.383112,0.457753,-0.0860646,0.508077,-0.191055,0.364268,-0.929937,0.0136666,0,0,0,0,0,0,0,0.0216845,-0.200053,-0.321209,-1.66244,-0.0329034,1.42582,0.401907,0.153586,-0.0530616,0.181111,-0.0599812,0.157985,-0.446011,0.00103805,2.82032,-25.1357,5.21394,25.1102,1.64398,2.45629,-0.0365141,-3.47087,-0.588097,0.0104435,0.730594,-1.92001,-0.803543,-0.699222,-0.782505,-0.978367,-0.403301,0.00326267,-0.827116,-0.00385923,
0.0273596,-0.200781,-0.316132,-1.66518,-0.0337846,-0.151116,-0.38306,0.484643,-0.0775667,0.538557,-0.200791,0.438712,-0.936951,0.0130717,0,0,0,0,0,0,0,0.0216845,-0.200053,-0.321209,-1.66244,-0.0329034,1.42582,0.401907,0.153586,-0.0530616,0.181111,-0.0599812,0.157985,-0.446011,0.00103805,2.82032,-25.1357,5.21394,25.1102,1.64398,2.45629,-0.0365141,-1.42,1.97844,-0.418776,-0.871371,-0.273716,0.685228,0.749477,0.199739,0.658524,-0.789425,0.38741,-0.827351,-0.00530397,
0.0293886,-0.201054,-0.313876,-1.66601,-0.0317439,-0.154836,-0.38301,0.507257,-0.0680728,0.56381,-0.208031,0.510178,-0.930064,0.0125462,0,0,0,0,0,0,0,0.0216845,-0.200053,-0.321209,-1.66244,-0.0329034,1.42582,0.401907,0.153586,-0.0530616,0.181111,-0.0599812,0.157985,-0.446011,0.00103805,2.82032,-25.1357,5.21394,25.1102,1.64398,2.45629,-0.0365141,-1.42,1.97844,-0.418776,-0.871371,-0.273716,0.685228,0.749477,0.199739,0.658524,-0.789425,0.38741,-0.827351,-0.00530397,
0.031494,-0.201286,-0.311537,-1.66686,-0.0294355,-0.158496,-0.382961,0.526335,-0.0581641,0.584912,-0.212988,0.577107,-0.915104,0.0120774,0,0,0,0,0,0,0,0.0216845,-0.200053,-0.321209,-1.66244,-0.0329034,1.42582,0.401907,0.153586,-0.0530616,0.181111,-0.0599812,0.157985,-0.446011,0.00103805,2.82032,-25.1357,5.21394,25.1102,1.64398,2.45629,-0.0365141,-1.72667,0.225366,-0.751658,0.291738,-0.340136,-0.15035,-0.0822022,0.221014,-0.279297,-0.863796,0.128241,-0.797778,-0.00247384,
0.0211223,-0.199361,-0.323852,-1.66243,-0.0397472,-0.136552,-0.383347,0.412531,-0.100645,0.390538,-0.18205,0.0848681,-0.723308,0.0120184,0,0,0,0,0,0,0,0.0216845,-0.200053,-0.321209,-1.66244,-0.0329034,1.42582,0.401907,0.153586,-0.0530616,0.181111,-0.0599812,0.157985,-0.446011,0.00103805,2.82032,-25.1357,5.21394,25.1102,1.64398,2.45629,-0.0365141,-3.05406,-0.628035,-0.499582,0.702753,-1.43835,-0.729279,-0.620513,-0.441915,-0.902589,-0.578309,-0.0980673,-0.760322,-0.00193464,
0.0261593,-0.20124,-0.317005,-1.66451,-0.0316229,-0.152523,-0.383306,0.43805,-0.100039,0.43229,-0.198926,0.13485,-0.70298,0.0141809,0,0,0,0,0,0,0,0.027967,-0.202472,-0.313864,-1.66532,-0.0297083,1.41162,0.401911,0.214784,-0.0702192,0.255536,-0.101934,0.121405,-0.428919,-0.000665219,4.59766,-24.5644,7.21345,25.134,2.69409,2.03148,-0.0163725,-3.05406,-0.628035,-0.499582,0.702753,-1.43835,-0.729279,-0.620513,-0.441915,-0.902589,-0.578309,-0.0980673,-0.760322,-0.00193464,
0.0281025,-0.201606,-0.315029,-1.66536,-0.0308419,-0.155489,-0.383253,0.485782,-0.0916645,0.494049,-0.213935,0.195255,-0.74141,0.0132618,0,0,0,0,0,0,0,0.027967,-0.202472,-0.313864,-1.66532,-0.0297083,1.41162,0.401911,0.214784,-0.0702192,0.255536,-0.101934,0.121405,-0.428919,-0.000665219,4.59766,-24.5644,7.21345,25.134,2.69409,2.03148,-0.0163725,-2.82896,0.381549,-0.00531974,0.0270001,-1.50675,-0.234936,-0.146423,-0.574924,-0.332257,-0.4062,0.102722,-0.753865,-0.00590175,
0.0302019,-0.20193,-0.312849,-1.66627,-0.0297788,-0.158509,-0.383203,0.52487,-0.0808825,0.544912,-0.225762,0.265771,-0.755034,0.0126024,0,0,0,0,0,0,0,0.027967,-0.202472,-0.313864,-1.66532,-0.0297083,1.41162,0.401911,0.214784,-0.0702192,0.255536,-0.101934,0.121405,-0.428919,-0.000665219,4.59766,-24.5644,7.21345,25.134,2.69409,2.03148,-0.0163725,-2.82896,0.381549,-0.00531974,0.0270001,-1.50675,-0.234936,-0.146423,-0.574924,-0.332257,-0.4062,0.102722,-0.753865,-0.00590175,
0.0324308,-0.202205,-0.3105,-1.6672,-0.0284194,-0.161529,-0.383155,0.557208,-0.0687061,0.587325,-0.23416,0.339861,-0.755048,0.0120734,0,0,0,0,0,0,0,0.027967,-0.202472,-0.313864,-1.66532,-0.0297083,1.41162,0.401911,0.214784,-0.0702192,0.255536,-0.101934,0.121405,-0.428919,-0.000665219,4.59766,-24.5644,7.21345,25.134,2.69409,2.03148,-0.0163725,-1.71998,2.82633,-0.00545917,-1.49644,-0.693873,1.03567,1.0881,-0.106369,1.08308,-0.582385,0.508695,-0.81368,-0.00973982,
0.0347673,-0.202429,-0.308007,-1.66816,-0.0267657,-0.164517,-0.383108,0.58412,-0.0561599,0.623168,-0.239931,0.413426,-0.747025,0.0116365,0,0,0,0,0,0,0,0.027967,-0.202472,-0.313864,-1.66532,-0.0297083,1.41162,0.401911,0.214784,-0.0702192,0.255536,-0.101934,0.121405,-0.428919,-0.000665219,4.59766,-24.5644,7.21345,25.134,2.69409,2.03148,-0.0163725,-1.71998,2.82633,-0.00545917,-1.49644,-0.693873,1.03567,1.0881,-0.106369,1.08308,-0.582385,0.508695,-0.81368,-0.00973982,
0.0371936,-0.202605,-0.305392,-1.66914,-0.0248297,-0.167454,-0.383063,0.606588,-0.0440434,0.653825,-0.243921,0.483994,-0.734133,0.0112723,0,0,0,0,0,0,0,0.0355716,-0.20499,-0.305313,-1.66896,-0.0277452,1.39934,0.401921,0.25704,-0.0771455,0.306535,-0.114336,0.0304215,-0.363006,0.00111515,5.0777,-24.0367,6.91194,24.2612,1.77215,2.15783,-0.0301054,-2.15075,0.839678,-0.23659,-0.0772998,-0.909266,0.0714262,0.119626,-0.203234,-0.0102609,-0.614141,0.339126,-0.795883,-0.00634318,
0.0396953,-0.202736,-0.302671,-1.67012,-0.0226289,-0.170326,-0.383019,0.625413,-0.0325977,0.680231,-0.246515,0.550214,-0.718074,0.0109535,0,0,0,0,0,0,0,0.0355716,-0.20499,-0.305313,-1.66896,-0.0277452,1.39934,0.401921,0.25704,-0.0771455,0.306535,-0.114336,0.0304215,-0.363006,0.00111515,5.0777,-24.0367,6.91194,24.2612,1.77215,2.15783,-0.0301054,-2.52828,-0.759589,-1.0394,1.04794,-0.908663,-0.692117,-0.560685,-0.105329,-0.949764,-0.811151,0.108738,-0.727932,-0.00183217,
0.0266168,-0.201366,-0.317204,-1.66481,-0.0318291,-0.152534,-0.383348,0.4827,-0.111536,0.41627,-0.229911,0.114056,-0.709787,0.0113764,0,0,0,0,0,0,0,0.0355716,-0.20499,-0.305313,-1.66896,-0.0277452,1.39934,0.401921,0.25704,-0.0771455,0.306535,-0.114336,0.0304215,-0.363006,0.00111515,5.0777,-24.0367,6.91194,24.2612,1.77215,2.15783,-0.0301054,-2.52828,-0.759589,-1.0394,1.04794,-0.908663,-0.692117,-0.560685,-0.105329,-0.949764,-0.811151,0.108738,-0.727932,-0.00183217,
0.0413122,-0.206234,-0.300356,-1.67152,-0.0267985,-0.177508,-0.383319,0.537085,-0.100002,0.479331,-0.239853,0.138315,-0.552593,0.0122889,0,0,0,0,0,0,0,0.0355716,-0.20499,-0.305313,-1.66896,-0.0277452,1.39934,0.401921,0.25704,-0.0771455,0.306535,-0.114336,0.0304215,-0.363006,0.00111515,5.0777,-24.0367,6.91194,24.2612,1.77215,2.15783,-0.0301054,-2.59206,-0.739693,-1.01345,1.0608,-1.011,-0.68983,-0.558184,-0.189777,-0.951301,-0.758236,0.157958,-0.692884,-0.00159238,
0.0436383,-0.206589,-0.298233,-1.67253,-0.0259449,-0.179806,-0.383272,0.581525,-0.0888635,0.530652,-0.253205,0.213394,-0.574547,0.0117092,0,0,0,0,0,0,0,0.0355716,-0.20499,-0.305313,-1.66896,-0.0277452,1.39934,0.401921,0.25704,-0.0771455,0.306535,-0.114336,0.0304215,-0.363006,0.00111515,5.0777,-24.0367,6.91194,24.2612,1.77215,2.15783,-0.0301054,-2.59206,-0.739693,-1.01345,1.0608,-1.011,-0.68983,-0.558184,-0.189777,-0.951301,-0.758236,0.157958,-0.692884,-0.00159238,
0.0461144,-0.206893,-0.295939,-1.67358,-0.0247803,-0.182143,-0.383227,0.619019,-0.0760349,0.573516,-0.261922,0.291157,-0.584246,0.0112525,0,0,0,0,0,0,0,0.0355716,-0.20499,-0.305313,-1.66896,-0.0277452,1.39934,0.401921,0.25704,-0.0771455,0.306535,-0.114336,0.0304215,-0.363006,0.00111515,5.0777,-24.0367,6.91194,24.2612,1.77215,2.15783,-0.0301054,-1.67587,1.86588,-0.970615,-0.633335,-0.380759,0.615065,0.695378,0.172715,0.535164,-0.863067,0.536147,-0.716229,-0.00709012,
0.0487184,-0.207145,-0.2935,-1.67465,-0.0233095,-0.184485,-0.383183,0.651013,-0.0630259,0.609766,-0.267869,0.367707,-0.585418,0.0108879,0,0,0,0,0,0,0,0.0455138,-0.207718,-0.294786,-1.67301,-0.0263296,1.38806,0.401929,0.313408,-0.0859228,0.295261,-0.136812,0.0128021,-0.312128,-0.000287133,0.233646,-25.1119,2.38923,26.106,1.26495,2.46911,-0.0163725,-1.67587,1.86588,-0.970615,-0.633335,-0.380759,0.615065,0.695378,0.172715,0.535164,-0.863067,0.536147,-0.716229,-0.00709012,
0.0514325,-0.207347,-0.290937,-1.67574,-0.0215463,-0.186807,-0.383141,0.678514,-0.0504059,0.640725,-0.271857,0.440807,-0.580454,0.0105757,0,0,0,0,0,0,0,0.0455138,-0.207718,-0.294786,-1.67301,-0.0263296,1.38806,0.401929,0.313408,-0.0859228,0.295261,-0.136812,0.0128021,-0.312128,-0.000287133,0.233646,-25.1119,2.38923,26.106,1.26495,2.46911,-0.0163725,-0.150382,3.11928,-0.583655,-1.57366,0.566602,1.39465,1.40889,0.641314,1.4567,-0.828536,0.666289,-0.644305,-0.0138782,
0.0542417,-0.207501,-0.288268,-1.67684,-0.0195095,-0.189091,-0.3831,0.702314,-0.0385604,0.667381,-0.274473,0.509177,-0.571047,0.010312,0,0,0,0,0,0,0,0.0455138,-0.207718,-0.294786,-1.67301,-0.0263296,1.38806,0.401929,0.313408,-0.0859228,0.295261,-0.136812,0.0128021,-0.312128,-0.000287133,0.233646,-25.1119,2.38923,26.106,1.26495,2.46911,-0.0163725,-1.9727,0.252113,-1.05265,0.342216,-0.629495,-0.138348,-0.0639531,0.000460309,-0.28639,-0.741749,0.273041,-0.590329,-0.00986592,
0.0571337,-0.207612,-0.285506,-1.67794,-0.0172206,-0.191324,-0.383059,0.722999,-0.0275575,0.690478,-0.275985,0.572226,-0.55828,0.0101121,0,0,0,0,0,0,0,0.0455138,-0.207718,-0.294786,-1.67301,-0.0263296,1.38806,0.401929,0.313408,-0.0859228,0.295261,-0.136812,0.0128021,-0.312128,-0.000287133,0.233646,-25.1119,2.38923,26.106,1.26495,2.46911,-0.0163725,-1.9727,0.252113,-1.05265,0.342216,-0.629495,-0.138348,-0.0639531,0.000460309,-0.28639,-0.741749,0.273041,-0.590329,-0.00986592,
0.0391638,-0.205834,-0.302273,-1.67056,-0.0273518,-0.175298,-0.383368,0.483533,-0.106784,0.417069,-0.218457,0.0722637,-0.51312,0.013108,0,0,0,0,0,0,0,0.0455138,-0.207718,-0.294786,-1.67301,-0.0263296,1.38806,0.401929,0.313408,-0.0859228,0.295261,-0.136812,0.0128021,-0.312128,-0.000287133,0.233646,-25.1119,2.38923,26.106,1.26495,2.46911,-0.0163725,-3.9496,-1.1414,-1.27133,1.3051,-2.0554,-1.01557,-0.866679,-0.800269,-1.30207,-0.577166,0.108634,-0.578796,-0.00542692,
0.0514087,-0.208947,-0.289677,-1.67568,-0.0253169,-0.187576,-0.38329,0.547359,-0.0959653,0.490151,-0.241427,0.147553,-0.444063,0.0140142,0,0,0,0,0,0,0,0.0569231,-0.210353,-0.28446,-1.67743,-0.025252,1.37941,0.401937,0.402562,-0.07593,0.368022,-0.147953,0.0620912,-0.251691,0.000105284,3.3797,-23.1401,5.91218,24.1898,2.23632,2.03881,-0.0429228,-3.9496,-1.1414,-1.27133,1.3051,-2.0554,-1.01557,-0.866679,-0.800269,-1.30207,-0.577166,0.108634,-0.578796,-0.00542692,
0.0537705,-0.209283,-0.287517,-1.67668,-0.024423,-0.189457,-0.383237,0.590456,-0.0840993,0.540024,-0.250218,0.223464,-0.470301,0.0131822,0,0,0,0,0,0,0,0.0569231,-0.210353,-0.28446,-1.67743,-0.025252,1.37941,0.401937,0.402562,-0.07593,0.368022,-0.147953,0.0620912,-0.251691,0.000105284,3.3797,-23.1401,5.91218,24.1898,2.23632,2.03881,-0.0429228,-3.58822,-0.813385,-0.939207,1.14145,-1.87973,-0.817891,-0.710833,-0.742871,-1.06263,-0.541315,0.247264,-0.623852,-0.00683692,
0.056278,-0.209569,-0.285189,-1.67771,-0.0232183,-0.191404,-0.383187,0.626868,-0.0714567,0.581812,-0.256059,0.301165,-0.486602,0.012517,0,0,0,0,0,0,0,0.0569231,-0.210353,-0.28446,-1.67743,-0.025252,1.37941,0.401937,0.402562,-0.07593,0.368022,-0.147953,0.0620912,-0.251691,0.000105284,3.3797,-23.1401,5.91218,24.1898,2.23632,2.03881,-0.0429228,-3.58822,-0.813385,-0.939207,1.14145,-1.87973,-0.817891,-0.710833,-0.742871,-1.06263,-0.541315,0.247264,-0.623852,-0.00683692,
0.0589098,-0.209805,-0.282721,-1.67875,-0.0217094,-0.193383,-0.383139,0.657941,-0.0590029,0.617197,-0.26019,0.377243,-0.494817,0.0119758,0,0,0,0,0,0,0,0.0569231,-0.210353,-0.28446,-1.67743,-0.025252,1.37941,0.401937,0.402562,-0.07593,0.368022,-0.147953,0.0620912,-0.251691,0.000105284,3.3797,-23.1401,5.91218,24.1898,2.23632,2.03881,-0.0429228,-1.10519,3.0147,-1.11138,-1.43135,0.0589415,1.23923,1.30685,0.450031,1.23856,-0.933816,0.677083,-0.657702,-0.0148787,
0.0616484,-0.209993,-0.280131,-1.6798,-0.0199106,-0.195369,-0.383093,0.684644,-0.0470773,0.64742,-0.263072,0.449688,-0.496515,0.0115513,0,0,0,0,0,0,0,0.0569231,-0.210353,-0.28446,-1.67743,-0.025252,1.37941,0.401937,0.402562,-0.07593,0.368022,-0.147953,0.0620912,-0.251691,0.000105284,3.3797,-23.1401,5.91218,24.1898,2.23632,2.03881,-0.0429228,0.166941,2.33482,-1.14937,-1.00964,1.06403,1.08202,1.09915,1.02114,1.07737,-1.07863,0.582607,-0.631829,-0.0157676,
0.0644723,-0.210137,-0.277433,-1.68086,-0.0178385,-0.197341,-0.383048,0.705977,-0.0359266,0.674455,-0.265127,0.51803,-0.493141,0.011149,0,0,0,0,0,0,0,0.0569231,-0.210353,-0.28446,-1.67743,-0.025252,1.37941,0.401937,0.402562,-0.07593,0.368022,-0.147953,0.0620912,-0.251691,0.000105284,3.3797,-23.1401,5.91218,24.1898,2.23632,2.03881,-0.0429228,0.166941,2.33482,-1.14937,-1.00964,1.06403,1.08202,1.09915,1.02114,1.07737,-1.07863,0.582607,-0.631829,-0.0157676,
0.0492193,-0.208563,-0.291637,-1.67471,-0.0259071,-0.1858,-0.383346,0.495635,-0.105084,0.429931,-0.226836,0.078901,-0.406591,0.015098,0,0,0,0,0,0,0,0.0692749,-0.212878,-0.273217,-1.6826,-0.0238192,1.37332,0.401938,0.415898,-0.091894,0.376334,-0.17019,0.0449629,-0.15822,-8.03667e-05,2.34027,-24.1121,3.96425,23.5907,0.819088,2.26403,-0.0163725,-1.97802,-1.23024,-1.79214,1.38007,-0.234312,-0.774904,-0.697203,0.348183,-1.03355,-1.08585,0.0996431,-0.653824,-0.0102579,
0.0758633,-0.213948,-0.267316,-1.68527,-0.0219059,-0.200803,-0.383286,0.59532,-0.0802893,0.54507,-0.235499,0.231063,-0.327461,0.0137367,0,0,0,0,0,0,0,0.0692749,-0.212878,-0.273217,-1.6826,-0.0238192,1.37332,0.401938,0.415898,-0.091894,0.376334,-0.17019,0.0449629,-0.15822,-8.03667e-05,2.34027,-24.1121,3.96425,23.5907,0.819088,2.26403,-0.0163725,-3.79053,-1.03173,-1.44614,1.21817,-1.75034,-0.866915,-0.727986,-0.561914,-1.14057,-0.764114,0.121854,-0.678064,-0.0110781,
0.0783894,-0.214224,-0.264968,-1.68624,-0.0206757,-0.20225,-0.383235,0.631522,-0.0688309,0.586889,-0.242519,0.307538,-0.361744,0.0129886,0,0,0,0,0,0,0,0.0692749,-0.212878,-0.273217,-1.6826,-0.0238192,1.37332,0.401938,0.415898,-0.091894,0.376334,-0.17019,0.0449629,-0.15822,-8.03667e-05,2.34027,-24.1121,3.96425,23.5907,0.819088,2.26403,-0.0163725,-3.79053,-1.03173,-1.44614,1.21817,-1.75034,-0.866915,-0.727986,-0.561914,-1.14057,-0.764114,0.121854,-0.678064,-0.0110781,
0.0810387,-0.214453,-0.26248,-1.68723,-0.0191448,-0.203792,-0.383185,0.662306,-0.0572206,0.622188,-0.247576,0.382727,-0.385443,0.0124051,0,0,0,0,0,0,0,0.0692749,-0.212878,-0.273217,-1.6826,-0.0238192,1.37332,0.401938,0.415898,-0.091894,0.376334,-0.17019,0.0449629,-0.15822,-8.03667e-05,2.34027,-24.1121,3.96425,23.5907,0.819088,2.26403,-0.0163725,-1.88641,1.56243,-1.18055,-0.470658,-0.412007,0.525308,0.627244,0.205738,0.413383,-0.924225,0.507264,-0.706067,-0.0156945,
0.0837864,-0.214637,-0.259866,-1.68823,-0.0173241,-0.205393,-0.383137,0.686934,-0.0460175,0.653275,-0.251449,0.455188,-0.400431,0.0118769,0,0,0,0,0,0,0,0.0692749,-0.212878,-0.273217,-1.6826,-0.0238192,1.37332,0.401938,0.415898,-0.091894,0.376334,-0.17019,0.0449629,-0.15822,-8.03667e-05,2.34027,-24.1121,3.96425,23.5907,0.819088,2.26403,-0.0163725,-1.88641,1.56243,-1.18055,-0.470658,-0.412007,0.525308,0.627244,0.205738,0.413383,-0.924225,0.507264,-0.706067,-0.0156945,
0.0866097,-0.214778,-0.257142,-1.68925,-0.0152281,-0.207027,-0.383092,0.705835,-0.0354117,0.681043,-0.254382,0.523987,-0.408367,0.0113727,0,0,0,0,0,0,0,0.086801,-0.215468,-0.256376,-1.68944,-0.0208414,1.36934,0.401944,0.434273,-0.0472804,0.423762,-0.164549,0.0575577,-0.0587911,0.000856425,2.16175,-25.0603,3.68654,25.4077,1.13128,2.20452,-0.0227812,-0.994046,1.25681,-0.900898,-0.232067,0.199912,0.47252,0.534017,0.509562,0.360706,-0.951171,0.543287,-0.730616,-0.0149932,
0.0894951,-0.214881,-0.254322,-1.69028,-0.0128766,-0.208669,-0.383048,0.721332,-0.0255864,0.70501,-0.256501,0.587882,-0.410644,0.0109352,0,0,0,0,0,0,0,0.086801,-0.215468,-0.256376,-1.68944,-0.0208414,1.36934,0.401944,0.434273,-0.0472804,0.423762,-0.164549,0.0575577,-0.0587911,0.000856425,2.16175,-25.0603,3.68654,25.4077,1.13128,2.20452,-0.0227812,-0.994046,1.25681,-0.900898,-0.232067,0.199912,0.47252,0.534017,0.509562,0.360706,-0.951171,0.543287,-0.730616,-0.0149932,
0.0734821,-0.213627,-0.269496,-1.68433,-0.0228302,-0.199493,-0.383341,0.552282,-0.090548,0.49504,-0.22501,0.156776,-0.281143,0.0146402,0,0,0,0,0,0,0,0.086801,-0.215468,-0.256376,-1.68944,-0.0208414,1.36934,0.401944,0.434273,-0.0472804,0.423762,-0.164549,0.0575577,-0.0587911,0.000856425,2.16175,-25.0603,3.68654,25.4077,1.13128,2.20452,-0.0227812,-1.59664,-1.37579,-0.547415,1.41824,-0.426675,-0.777634,-0.671792,0.0114344,-1.05498,-0.648279,0.178109,-0.637799,-0.00933739,
0.093665,-0.216161,-0.250155,-1.69211,-0.0186613,-0.203655,-0.383275,0.615013,-0.0532051,0.567408,-0.235235,0.256329,-0.239788,0.014143,0,0,0,0,0,0,0,0.086801,-0.215468,-0.256376,-1.68944,-0.0208414,1.36934,0.401944,0.434273,-0.0472804,0.423762,-0.164549,0.0575577,-0.0587911,0.000856425,2.16175,-25.0603,3.68654,25.4077,1.13128,2.20452,-0.0227812,-2.19396,-1.21209,-0.296972,1.19757,-1.02402,-0.735603,-0.613481,-0.374984,-0.984193,-0.433793,0.119481,-0.586418,-0.013691,
0.0962519,-0.216342,-0.247727,-1.69307,-0.017325,-0.204779,-0.383221,0.646718,-0.0450969,0.607196,-0.24137,0.334082,-0.280893,0.0133346,0,0,0,0,0,0,0,0.086801,-0.215468,-0.256376,-1.68944,-0.0208414,1.36934,0.401944,0.434273,-0.0472804,0.423762,-0.164549,0.0575577,-0.0587911,0.000856425,2.16175,-25.0603,3.68654,25.4077,1.13128,2.20452,-0.0227812,-2.19396,-1.21209,-0.296972,1.19757,-1.02402,-0.735603,-0.613481,-0.374984,-0.984193,-0.433793,0.119481,-0.586418,-0.013691,
0.0989373,-0.216488,-0.245159,-1.69406,-0.0156832,-0.206022,-0.383171,0.67135,-0.0364442,0.641956,-0.245687,0.410436,-0.310874,0.0126164,0,0,0,0,0,0,0,0.086801,-0.215468,-0.256376,-1.68944,-0.0208414,1.36934,0.401944,0.434273,-0.0472804,0.423762,-0.164549,0.0575577,-0.0587911,0.000856425,2.16175,-25.0603,3.68654,25.4077,1.13128,2.20452,-0.0227812,-2.04875,1.36517,-0.0248734,-0.476955,-0.977593,0.459662,0.521627,-0.294809,0.408294,-0.449728,0.4842,-0.675225,-0.0187596,
0.101704,-0.216599,-0.242472,-1.69505,-0.013751,-0.207348,-0.383123,0.691566,-0.0278916,0.671616,-0.248857,0.483043,-0.331421,0.0120091,0,0,0,0,0,0,0,0.101482,-0.21674,-0.242517,-1.69459,-0.0160059,1.36764,0.401945,0.45822,-0.029658,0.399068,-0.159413,0.111497,-0.0133107,-0.00123718,-0.325741,-25.4848,1.61165,26.3281,1.11297,2.21734,0.0101778,-2.04875,1.36517,-0.0248734,-0.476955,-0.977593,0.459662,0.521627,-0.294809,0.408294,-0.449728,0.4842,-0.675225,-0.0187596,
0.104536,-0.216678,-0.239684,-1.69606,-0.011548,-0.208725,-0.383077,0.708204,-0.0197235,0.697067,-0.251172,0.550765,-0.344166,0.0114823,0,0,0,0,0,0,0,0.101482,-0.21674,-0.242517,-1.69459,-0.0160059,1.36764,0.401945,0.45822,-0.029658,0.399068,-0.159413,0.111497,-0.0133107,-0.00123718,-0.325741,-25.4848,1.61165,26.3281,1.11297,2.21734,0.0101778,-1.27929,3.44757,0.527183,-1.89324,-0.597924,1.48232,1.48695,-0.0922105,1.6072,-0.371872,0.745507,-0.701096,-0.0194263,
0.107424,-0.216726,-0.236808,-1.69707,-0.00909576,-0.210127,-0.383033,0.721855,-0.0120748,0.719045,-0.252775,0.613057,-0.350551,0.0110188,0,0,0,0,0,0,0,0.101482,-0.21674,-0.242517,-1.69459,-0.0160059,1.36764,0.401945,0.45822,-0.029658,0.399068,-0.159413,0.111497,-0.0133107,-0.00123718,-0.325741,-25.4848,1.61165,26.3281,1.11297,2.21734,0.0101778,-1.27929,3.44757,0.527183,-1.89324,-0.597924,1.48232,1.48695,-0.0922105,1.6072,-0.371872,0.745507,-0.701096,-0.0194263,
0.110356,-0.216746,-0.233855,-1.69808,-0.00641674,-0.211534,-0.38299,0.732986,-0.00500782,0.738124,-0.253753,0.669755,-0.351792,0.0106064,0,0,0,0,0,0,0,0.101482,-0.21674,-0.242517,-1.69459,-0.0160059,1.36764,0.401945,0.45822,-0.029658,0.399068,-0.159413,0.111497,-0.0133107,-0.00123718,-0.325741,-25.4848,1.61165,26.3281,1.11297,2.21734,0.0101778,-1.68352,-1.10087,-0.881973,1.23427,-0.326702,-0.630394,-0.532287,0.131332,-0.888943,-0.793312,0.220377,-0.665613,-0.0116168,
0.0912049,-0.215949,-0.252425,-1.69117,-0.0196866,-0.202696,-0.383331,0.575222,-0.0594902,0.52117,-0.225419,0.179811,-0.186545,0.0150888,0,0,0,0,0,0,0,0.101482,-0.21674,-0.242517,-1.69459,-0.0160059,1.36764,0.401945,0.45822,-0.029658,0.399068,-0.159413,0.111497,-0.0133107,-0.00123718,-0.325741,-25.4848,1.61165,26.3281,1.11297,2.21734,0.0101778,-2.3205,-2.4744,-1.40449,2.20529,-0.603177,-1.29977,-1.14069,0.000987174,-1.70238,-0.900797,0.0881511,-0.659663,-0.00876277,
0.108333,-0.217287,-0.236286,-1.69723,-0.0133888,-0.204758,-0.383264,0.611054,-0.0429695,0.571686,-0.231841,0.285296,-0.191008,0.0148859,0,0,0,0,0,0,0,0.116437,-0.217408,-0.227467,-1.69918,-0.0110855,1.36757,0.401951,0.482228,-0.00982871,0.496429,-0.130412,0.218731,0.00237391,-0.00175041,2.41565,-24.9373,4.41255,24.8087,2.1997,1.83922,0.00376909,-2.3205,-2.4744,-1.40449,2.20529,-0.603177,-1.29977,-1.14069,0.000987174,-1.70238,-0.900797,0.0881511,-0.659663,-0.00876277,
0.110895,-0.217432,-0.233834,-1.69817,-0.0119555,-0.205692,-0.383209,0.640614,-0.0363337,0.612863,-0.237309,0.358309,-0.233353,0.0139114,0,0,0,0,0,0,0,0.116437,-0.217408,-0.227467,-1.69918,-0.0110855,1.36757,0.401951,0.482228,-0.00982871,0.496429,-0.130412,0.218731,0.00237391,-0.00175041,2.41565,-24.9373,4.41255,24.8087,2.1997,1.83922,0.00376909,-2.36363,-0.83525,-0.81125,1.15014,-0.860699,-0.54783,-0.444572,-0.183539,-0.806001,-0.714771,0.365051,-0.689211,-0.0119994,
0.113554,-0.217548,-0.231244,-1.69914,-0.0102334,-0.20675,-0.383156,0.664781,-0.0290169,0.647506,-0.241041,0.430539,-0.264596,0.0130981,0,0,0,0,0,0,0,0.116437,-0.217408,-0.227467,-1.69918,-0.0110855,1.36757,0.401951,0.482228,-0.00982871,0.496429,-0.130412,0.218731,0.00237391,-0.00175041,2.41565,-24.9373,4.41255,24.8087,2.1997,1.83922,0.00376909,-2.36363,-0.83525,-0.81125,1.15014,-0.860699,-0.54783,-0.444572,-0.183539,-0.806001,-0.714771,0.365051,-0.689211,-0.0119994,
0.116293,-0.217635,-0.228537,-1.70011,-0.00823428,-0.207895,-0.383107,0.684591,-0.0216415,0.676914,-0.243746,0.49977,-0.286315,0.0124063,0,0,0,0,0,0,0,0.116437,-0.217408,-0.227467,-1.69918,-0.0110855,1.36757,0.401951,0.482228,-0.00982871,0.496429,-0.130412,0.218731,0.00237391,-0.00175041,2.41565,-24.9373,4.41255,24.8087,2.1997,1.83922,0.00376909,-1.27114,3.53702,-1.0449,-1.78217,0.0891314,1.55525,1.60729,0.582308,1.59029,-1.02615,0.838736,-0.751063,-0.0206539,
0.119096,-0.217693,-0.225729,-1.7011,-0.00597543,-0.209096,-0.38306,0.700822,-0.0145031,0.70207,-0.24569,0.564713,-0.300138,0.0118078,0,0,0,0,0,0,0,0.116437,-0.217408,-0.227467,-1.69918,-0.0110855,1.36757,0.401951,0.482228,-0.00982871,0.496429,-0.130412,0.218731,0.00237391,-0.00175041,2.41565,-24.9373,4.41255,24.8087,2.1997,1.83922,0.00376909,-1.27114,3.53702,-1.0449,-1.78217,0.0891314,1.55525,1.60729,0.582308,1.59029,-1.02615,0.838736,-0.751063,-0.0206539,
0.121952,-0.217724,-0.222834,-1.70208,-0.00347666,-0.210326,-0.383014,0.714075,-0.00775195,0.723734,-0.246993,0.624693,-0.307517,0.0112831,0,0,0,0,0,0,0,0.133506,-0.217548,-0.211083,-1.70359,-0.0047999,1.36761,0.40196,0.492324,-0.00506649,0.491548,-0.124331,0.197655,-0.000288649,0.000280035,3.27655,-25.5364,4.2856,23.8406,1.25305,1.82,-0.0429228,-1.66937,1.29787,-1.5795,-0.376233,0.0552488,0.511283,0.529611,0.597592,0.454761,-1.18743,0.494435,-0.772652,-0.0173424,
0.124852,-0.217729,-0.219864,-1.70308,-0.000758867,-0.211565,-0.382971,0.724825,-0.00146563,0.742495,-0.247729,0.679448,-0.309683,0.0108184,0,0,0,0,0,0,0,0.133506,-0.217548,-0.211083,-1.70359,-0.0047999,1.36761,0.40196,0.492324,-0.00506649,0.491548,-0.124331,0.197655,-0.000288649,0.000280035,3.27655,-25.5364,4.2856,23.8406,1.25305,1.82,-0.0429228,-1.66937,1.29787,-1.5795,-0.376233,0.0552488,0.511283,0.529611,0.597592,0.454761,-1.18743,0.494435,-0.772652,-0.0173424,
0.105889,-0.217115,-0.238573,-1.6963,-0.0145299,-0.203994,-0.383324,0.574577,-0.0474849,0.5223,-0.222625,0.21511,-0.136835,0.0160272,0,0,0,0,0,0,0,0.133506,-0.217548,-0.211083,-1.70359,-0.0047999,1.36761,0.40196,0.492324,-0.00506649,0.491548,-0.124331,0.197655,-0.000288649,0.000280035,3.27655,-25.5364,4.2856,23.8406,1.25305,1.82,-0.0429228,-2.5464,-1.5686,-1.58339,1.50238,-0.630188,-0.839057,-0.727022,0.0760397,-1.1288,-1.01803,0.146286,-0.726607,-0.0135172,
0.140771,-0.217922,-0.204189,-1.70608,-0.00106795,-0.204271,-0.383259,0.638112,-0.0303902,0.618171,-0.22314,0.377983,-0.14196,0.0140421,0,0,0,0,0,0,0,0.133506,-0.217548,-0.211083,-1.70359,-0.0047999,1.36761,0.40196,0.492324,-0.00506649,0.491548,-0.124331,0.197655,-0.000288649,0.000280035,3.27655,-25.5364,4.2856,23.8406,1.25305,1.82,-0.0429228,-2.17921,-1.14685,-1.39763,1.30445,-0.367788,-0.621469,-0.506517,0.217602,-0.911086,-1.05057,0.295757,-0.782298,-0.0144746,
0.14342,-0.218021,-0.201578,-1.70699,0.000718222,-0.205,-0.383206,0.662174,-0.0246711,0.652734,-0.229764,0.446543,-0.182373,0.0131786,0,0,0,0,0,0,0,0.133506,-0.217548,-0.211083,-1.70359,-0.0047999,1.36761,0.40196,0.492324,-0.00506649,0.491548,-0.124331,0.197655,-0.000288649,0.000280035,3.27655,-25.5364,4.2856,23.8406,1.25305,1.82,-0.0429228,-2.17921,-1.14685,-1.39763,1.30445,-0.367788,-0.621469,-0.506517,0.217602,-0.911086,-1.05057,0.295757,-0.782298,-0.0144746,
0.146147,-0.218094,-0.19885,-1.70793,0.00276943,-0.205852,-0.383156,0.681785,-0.0181794,0.681995,-0.234041,0.512803,-0.212883,0.0124556,0,0,0,0,0,0,0,0.133506,-0.217548,-0.211083,-1.70359,-0.0047999,1.36761,0.40196,0.492324,-0.00506649,0.491548,-0.124331,0.197655,-0.000288649,0.000280035,3.27655,-25.5364,4.2856,23.8406,1.25305,1.82,-0.0429228,-2.84993,1.45943,-1.45511,-0.405854,-0.760098,0.572156,0.662377,0.171347,0.459687,-1.14439,0.619081,-0.900381,-0.0159869,
0.148938,-0.21814,-0.196022,-1.70888,0.00507073,-0.20679,-0.383109,0.697782,-0.0116188,0.706968,-0.237021,0.575323,-0.234559,0.0118355,0,0,0,0,0,0,0,0.148674,-0.217474,-0.195187,-1.70782,0.00207003,1.36798,0.401966,0.492836,0.0178339,0.480562,-0.124779,0.181375,0.0256232,-0.000165031,-1.05969,-26.433,0.163588,25.011,0.593868,1.95275,-0.0429228,-2.84993,1.45943,-1.45511,-0.405854,-0.760098,0.572156,0.662377,0.171347,0.459687,-1.14439,0.619081,-0.900381,-0.0159869,
0.151781,-0.218161,-0.193109,-1.70984,0.00760398,-0.207785,-0.383064,0.710792,-0.0052922,0.728428,-0.239108,0.633313,-0.248781,0.0112946,0,0,0,0,0,0,0,0.148674,-0.217474,-0.195187,-1.70782,0.00207003,1.36798,0.401966,0.492836,0.0178339,0.480562,-0.124779,0.181375,0.0256232,-0.000165031,-1.05969,-26.433,0.163588,25.011,0.593868,1.95275,-0.0429228,-3.19535,1.88356,-1.46404,-0.780601,-1.01829,0.779036,0.829093,0.0667256,0.750088,-1.11287,0.5963,-0.89607,-0.0168011,
0.154666,-0.218159,-0.190121,-1.7108,0.0103497,-0.208813,-0.38302,0.721302,0.000661265,0.746977,-0.240486,0.686425,-0.256857,0.010817,0,0,0,0,0,0,0,0.148674,-0.217474,-0.195187,-1.70782,0.00207003,1.36798,0.401966,0.492836,0.0178339,0.480562,-0.124779,0.181375,0.0256232,-0.000165031,-1.05969,-26.433,0.163588,25.011,0.593868,1.95275,-0.0429228,-2.10129,-1.84314,-2.10849,1.6191,0.020082,-0.90256,-0.822925,0.54819,-1.18642,-1.34976,0.106397,-0.810401,-0.0103023,
0.157585,-0.218134,-0.187068,-1.71176,0.013288,-0.209852,-0.382979,0.729699,0.00617639,0.76309,-0.241257,0.734593,-0.259926,0.0103911,0,0,0,0,0,0,0,0.148674,-0.217474,-0.195187,-1.70782,0.00207003,1.36798,0.401966,0.492836,0.0178339,0.480562,-0.124779,0.181375,0.0256232,-0.000165031,-1.05969,-26.433,0.163588,25.011,0.593868,1.95275,-0.0429228,-2.10129,-1.84314,-2.10849,1.6191,0.020082,-0.90256,-0.822925,0.54819,-1.18642,-1.34976,0.106397,-0.810401,-0.0103023,
0.138218,-0.217801,-0.206662,-1.70518,-0.00257988,-0.203703,-0.383315,0.608361,-0.0335737,0.577003,-0.211255,0.309556,-0.0920808,0.0150809,0,0,0,0,0,0,0,0.148674,-0.217474,-0.195187,-1.70782,0.00207003,1.36798,0.401966,0.492836,0.0178339,0.480562,-0.124779,0.181375,0.0256232,-0.000165031,-1.05969,-26.433,0.163588,25.011,0.593868,1.95275,-0.0429228,-2.78177,-0.960795,-1.681,0.978602,-0.712845,-0.485817,-0.389108,0.0987833,-0.702903,-1.08337,0.177044,-0.767962,-0.0116963,
0.155797,-0.217643,-0.188297,-1.71031,0.00567255,-0.203534,-0.383247,0.626094,-0.0157397,0.618164,-0.223269,0.368168,-0.110364,0.0145162,0,0,0,0,0,0,0,0.165509,-0.217414,-0.178023,-1.71252,0.0108225,1.36873,0.401973,0.493468,0.00312264,0.534123,-0.141675,0.302777,0.0124187,-0.000371688,1.50318,-26.2346,2.96449,24.8364,2.25464,1.44189,-0.0227812,-2.78177,-0.960795,-1.681,0.978602,-0.712845,-0.485817,-0.389108,0.0987833,-0.702903,-1.08337,0.177044,-0.767962,-0.0116963,
0.158398,-0.217691,-0.185686,-1.71122,0.00742226,-0.204135,-0.383193,0.65025,-0.0119644,0.652947,-0.22909,0.437426,-0.150311,0.0135828,0,0,0,0,0,0,0,0.165509,-0.217414,-0.178023,-1.71252,0.0108225,1.36873,0.401973,0.493468,0.00312264,0.534123,-0.141675,0.302777,0.0124187,-0.000371688,1.50318,-26.2346,2.96449,24.8364,2.25464,1.44189,-0.0227812,-1.81522,0.886171,-1.71617,-0.192458,0.0474587,0.39185,0.440837,0.623361,0.296236,-1.23369,0.45893,-0.772913,-0.015246,
0.161077,-0.21772,-0.182956,-1.71216,0.00943948,-0.204857,-0.383142,0.669938,-0.0071681,0.682391,-0.232621,0.504306,-0.180527,0.0127945,0,0,0,0,0,0,0,0.165509,-0.217414,-0.178023,-1.71252,0.0108225,1.36873,0.401973,0.493468,0.00312264,0.534123,-0.141675,0.302777,0.0124187,-0.000371688,1.50318,-26.2346,2.96449,24.8364,2.25464,1.44189,-0.0227812,-1.81522,0.886171,-1.71617,-0.192458,0.0474587,0.39185,0.440837,0.623361,0.296236,-1.23369,0.45893,-0.772913,-0.015246,
0.163821,-0.217728,-0.180126,-1.71309,0.011709,-0.205665,-0.383093,0.685993,-0.00209283,0.707512,-0.234932,0.567385,-0.202023,0.0121162,0,0,0,0,0,0,0,0.165509,-0.217414,-0.178023,-1.71252,0.0108225,1.36873,0.401973,0.493468,0.00312264,0.534123,-0.141675,0.302777,0.0124187,-0.000371688,1.50318,-26.2346,2.96449,24.8364,2.25464,1.44189,-0.0227812,-2.44397,3.28214,-1.22547,-1.81886,-0.638762,1.51823,1.56067,0.298518,1.59417,-1.00392,0.707237,-0.761332,-0.0178611,
0.166617,-0.217717,-0.17721,-1.71404,0.0142126,-0.20653,-0.383047,0.699048,0.0029307,0.72909,-0.23643,0.625884,-0.216151,0.0115239,0,0,0,0,0,0,0,0.165509,-0.217414,-0.178023,-1.71252,0.0108225,1.36873,0.401973,0.493468,0.00312264,0.534123,-0.141675,0.302777,0.0124187,-0.000371688,1.50318,-26.2346,2.96449,24.8364,2.25464,1.44189,-0.0227812,-2.44397,3.28214,-1.22547,-1.81886,-0.638762,1.51823,1.56067,0.298518,1.59417,-1.00392,0.707237,-0.761332,-0.0178611,
0.169456,-0.217686,-0.174219,-1.71499,0.0169304,-0.207427,-0.383003,0.709591,0.00774034,0.747732,-0.237293,0.679455,-0.224207,0.0110008,0,0,0,0,0,0,0,0.165509,-0.217414,-0.178023,-1.71252,0.0108225,1.36873,0.401973,0.493468,0.00312264,0.534123,-0.141675,0.302777,0.0124187,-0.000371688,1.50318,-26.2346,2.96449,24.8364,2.25464,1.44189,-0.0227812,-1.82174,-0.131319,-1.15542,0.400954,-0.311203,-0.062963,-0.0256092,0.22478,-0.17965,-0.863986,0.301822,-0.625778,-0.0120732,
0.172328,-0.217637,-0.171163,-1.71594,0.0198425,-0.208336,-0.382961,0.718014,0.0122514,0.763916,-0.237619,0.728039,-0.227321,0.0105348,0,0,0,0,0,0,0,0.182319,-0.217173,-0.160708,-1.71717,0.0202286,1.36899,0.401978,0.516188,0.00915578,0.551622,-0.140892,0.288591,0.00497629,0.00239548,2.56641,-26.5083,3.16286,25.011,1.68701,1.82641,-0.0630644,-1.83056,-1.54201,-1.29687,1.30438,-0.327713,-0.703318,-0.616943,0.127217,-0.937775,-0.828436,0.119219,-0.557052,-0.0113101,
0.153292,-0.21758,-0.19077,-1.70942,0.00419988,-0.203092,-0.383305,0.596264,-0.0166671,0.576722,-0.212166,0.298904,-0.0612549,0.0156051,0,0,0,0,0,0,0,0.182319,-0.217173,-0.160708,-1.71717,0.0202286,1.36899,0.401978,0.516188,0.00915578,0.551622,-0.140892,0.288591,0.00497629,0.00239548,2.56641,-26.5083,3.16286,25.011,1.68701,1.82641,-0.0630644,-1.83056,-1.54201,-1.29687,1.30438,-0.327713,-0.703318,-0.616943,0.127217,-0.937775,-0.828436,0.119219,-0.557052,-0.0113101,
0.189722,-0.217306,-0.153302,-1.71965,0.025011,-0.202615,-0.383245,0.644385,-0.0104926,0.654686,-0.21991,0.46036,-0.107575,0.0137116,0,0,0,0,0,0,0,0.182319,-0.217173,-0.160708,-1.71717,0.0202286,1.36899,0.401978,0.516188,0.00915578,0.551622,-0.140892,0.288591,0.00497629,0.00239548,2.56641,-26.5083,3.16286,25.011,1.68701,1.82641,-0.0630644,-2.21685,-1.41382,-0.646192,1.33,-0.903314,-0.640238,-0.550176,-0.329312,-0.875509,-0.510602,0.252371,-0.5227,-0.0135755,
0.192381,-0.21733,-0.150563,-1.72055,0.0270985,-0.203172,-0.383194,0.664526,-0.00606104,0.684742,-0.225095,0.521876,-0.139217,0.0128803,0,0,0,0,0,0,0,0.182319,-0.217173,-0.160708,-1.71717,0.0202286,1.36899,0.401978,0.516188,0.00915578,0.551622,-0.140892,0.288591,0.00497629,0.00239548,2.56641,-26.5083,3.16286,25.011,1.68701,1.82641,-0.0630644,-2.21685,-1.41382,-0.646192,1.33,-0.903314,-0.640238,-0.550176,-0.329312,-0.875509,-0.510602,0.252371,-0.5227,-0.0135755,
0.195104,-0.217334,-0.147722,-1.72147,0.0294214,-0.203823,-0.383145,0.680863,-0.00104871,0.710282,-0.228298,0.580716,-0.162733,0.0121689,0,0,0,0,0,0,0,0.182319,-0.217173,-0.160708,-1.71717,0.0202286,1.36899,0.401978,0.516188,0.00915578,0.551622,-0.140892,0.288591,0.00497629,0.00239548,2.56641,-26.5083,3.16286,25.011,1.68701,1.82641,-0.0630644,-1.85134,1.48631,-1.06667,-0.595393,-0.406714,0.716095,0.772954,0.223784,0.663882,-0.796745,0.583249,-0.564584,-0.0184441,
0.19788,-0.217318,-0.144794,-1.72239,0.0319648,-0.204539,-0.383099,0.694086,0.00399573,0.732135,-0.230379,0.635855,-0.178991,0.0115507,0,0,0,0,0,0,0,0.198552,-0.216611,-0.142899,-1.72161,0.0304964,1.36901,0.401983,0.512425,0.0238748,0.528785,-0.126607,0.278742,0.00123982,0.000293373,-0.932736,-27.3811,-0.0387439,25.983,1.1679,1.99212,-0.0301054,-1.85134,1.48631,-1.06667,-0.595393,-0.406714,0.716095,0.772954,0.223784,0.663882,-0.796745,0.583249,-0.564584,-0.0184441,
0.200699,-0.217283,-0.14179,-1.72332,0.0347118,-0.205296,-0.383055,0.70472,0.00883723,0.750946,-0.231681,0.686752,-0.189115,0.0110071,0,0,0,0,0,0,0,0.198552,-0.216611,-0.142899,-1.72161,0.0304964,1.36901,0.401983,0.512425,0.0238748,0.528785,-0.126607,0.278742,0.00123982,0.000293373,-0.932736,-27.3811,-0.0387439,25.983,1.1679,1.99212,-0.0301054,-1.63156,1.62921,-1.38787,-0.758525,-0.11367,0.790602,0.820758,0.463711,0.773713,-0.941172,0.550516,-0.560177,-0.0189122,
0.203552,-0.217229,-0.138721,-1.72425,0.0376446,-0.206072,-0.383013,0.713179,0.0133686,0.767222,-0.232368,0.733191,-0.194179,0.0105251,0,0,0,0,0,0,0,0.198552,-0.216611,-0.142899,-1.72161,0.0304964,1.36901,0.401983,0.512425,0.0238748,0.528785,-0.126607,0.278742,0.00123982,0.000293373,-0.932736,-27.3811,-0.0387439,25.983,1.1679,1.99212,-0.0301054,-1.31454,-0.644171,-1.30618,0.659521,0.00158095,-0.263186,-0.212192,0.33613,-0.412624,-0.821746,0.220383,-0.474316,-0.011493,
0.206431,-0.217159,-0.135596,-1.72518,0.0407453,-0.206853,-0.382972,0.719795,0.01754,0.781366,-0.232534,0.775182,-0.195119,0.0100929,0,0,0,0,0,0,0,0.198552,-0.216611,-0.142899,-1.72161,0.0304964,1.36901,0.401983,0.512425,0.0238748,0.528785,-0.126607,0.278742,0.00123982,0.000293373,-0.932736,-27.3811,-0.0387439,25.983,1.1679,1.99212,-0.0301054,-1.31454,-0.644171,-1.30618,0.659521,0.00158095,-0.263186,-0.212192,0.33613,-0.412624,-0.821746,0.220383,-0.474316,-0.011493,
0.187145,-0.217264,-0.155921,-1.71877,0.0231696,-0.202185,-0.3833,0.619442,-0.0129669,0.619089,-0.210393,0.397885,-0.068154,0.0146838,0,0,0,0,0,0,0,0.198552,-0.216611,-0.142899,-1.72161,0.0304964,1.36901,0.401983,0.512425,0.0238748,0.528785,-0.126607,0.278742,0.00123982,0.000293373,-0.932736,-27.3811,-0.0387439,25.983,1.1679,1.99212,-0.0301054,-1.39494,-0.886211,-1.52135,0.794712,0.0225398,-0.358853,-0.27167,0.367391,-0.550687,-0.889323,0.181369,-0.471983,-0.0118163,
0.205748,-0.21665,-0.135568,-1.72403,0.0351654,-0.202391,-0.383236,0.627961,-0.00428,0.650072,-0.216593,0.449835,-0.0860585,0.0141321,0,0,0,0,0,0,0,0.198552,-0.216611,-0.142899,-1.72161,0.0304964,1.36901,0.401983,0.512425,0.0238748,0.528785,-0.126607,0.278742,0.00123982,0.000293373,-0.932736,-27.3811,-0.0387439,25.983,1.1679,1.99212,-0.0301054,-1.39494,-0.886211,-1.52135,0.794712,0.0225398,-0.358853,-0.27167,0.367391,-0.550687,-0.889323,0.181369,-0.471983,-0.0118163,
0.208344,-0.216653,-0.132843,-1.72492,0.0372088,-0.20285,-0.383183,0.64893,-0.000739121,0.68116,-0.221654,0.510853,-0.114994,0.0132291,0,0,0,0,0,0,0,0.214869,-0.216106,-0.125642,-1.72567,0.0408299,1.36907,0.401981,0.530323,0.0243722,0.579238,-0.130753,0.364909,0.0120752,-0.00119716,0.590702,-26.9606,1.71083,25.4831,2.1878,1.62774,0.017502,-1.52062,-0.503362,-1.50065,0.634415,0.0017901,-0.18222,-0.124179,0.392682,-0.347889,-0.942915,0.340429,-0.537945,-0.0124429,
0.211008,-0.216639,-0.130013,-1.72582,0.039487,-0.203397,-0.383134,0.665939,0.00356136,0.707531,-0.224562,0.569545,-0.136593,0.0124517,0,0,0,0,0,0,0,0.214869,-0.216106,-0.125642,-1.72567,0.0408299,1.36907,0.401981,0.530323,0.0243722,0.579238,-0.130753,0.364909,0.0120752,-0.00119716,0.590702,-26.9606,1.71083,25.4831,2.1878,1.62774,0.017502,-2.00159,2.23511,-1.94723,-1.24443,-0.119813,1.12813,1.16721,0.643878,1.14738,-1.16597,0.601859,-0.592455,-0.0191221,
0.213726,-0.216607,-0.127093,-1.72672,0.0419861,-0.204003,-0.383087,0.679708,0.00799312,0.730054,-0.226323,0.624781,-0.151459,0.0117765,0,0,0,0,0,0,0,0.214869,-0.216106,-0.125642,-1.72567,0.0408299,1.36907,0.401981,0.530323,0.0243722,0.579238,-0.130753,0.364909,0.0120752,-0.00119716,0.590702,-26.9606,1.71083,25.4831,2.1878,1.62774,0.017502,-2.00159,2.23511,-1.94723,-1.24443,-0.119813,1.12813,1.16721,0.643878,1.14738,-1.16597,0.601859,-0.592455,-0.0191221,
0.21649,-0.216558,-0.124095,-1.72763,0.0446898,-0.204645,-0.383042,0.690789,0.0122899,0.749407,-0.22733,0.675937,-0.160576,0.0111822,0,0,0,0,0,0,0,0.214869,-0.216106,-0.125642,-1.72567,0.0408299,1.36907,0.401981,0.530323,0.0243722,0.579238,-0.130753,0.364909,0.0120752,-0.00119716,0.590702,-26.9606,1.71083,25.4831,2.1878,1.62774,0.017502,-1.90193,1.31031,-1.79176,-0.673931,-0.132526,0.700085,0.691343,0.542206,0.716783,-1.07973,0.477868,-0.569439,-0.0162689,
0.219288,-0.216492,-0.121031,-1.72854,0.0475808,-0.205305,-0.382999,0.699618,0.0163324,0.766123,-0.227755,0.722736,-0.164929,0.0106593,0,0,0,0,0,0,0,0.214869,-0.216106,-0.125642,-1.72567,0.0408299,1.36907,0.401981,0.530323,0.0243722,0.579238,-0.130753,0.364909,0.0120752,-0.00119716,0.590702,-26.9606,1.71083,25.4831,2.1878,1.62774,0.017502,-1.90193,1.31031,-1.79176,-0.673931,-0.132526,0.700085,0.691343,0.542206,0.716783,-1.07973,0.477868,-0.569439,-0.0162689,
0.222114,-0.216412,-0.117908,-1.72946,0.0506413,-0.205966,-0.382958,0.706542,0.0200622,0.780627,-0.227699,0.765141,-0.165394,0.010186,0,0,0,0,0,0,0,0.23667,-0.215203,-0.101719,-1.73093,0.055866,1.36956,0.401989,0.513221,0.0229645,0.580933,-0.132402,0.348489,0.00850769,0.000910949,2.56641,-26.8337,2.6114,24.884,2.04681,1.74035,-0.0429228,-1.83852,-0.0888841,-1.61328,0.200304,-0.224344,0.0682516,0.0993539,0.33661,-0.0138687,-0.938815,0.272576,-0.513748,-0.0136756,
0.224962,-0.216318,-0.114735,-1.73036,0.0538544,-0.206617,-0.382919,0.711843,0.0234475,0.793259,-0.227237,0.803268,-0.162717,0.00976594,0,0,0,0,0,0,0,0.23667,-0.215203,-0.101719,-1.73093,0.055866,1.36956,0.401989,0.513221,0.0229645,0.580933,-0.132402,0.348489,0.00850769,0.000910949,2.56641,-26.8337,2.6114,24.884,2.04681,1.74035,-0.0429228,-1.51508,-1.40828,-1.40373,1.15168,-0.0700309,-0.553629,-0.45746,0.256362,-0.785655,-0.855824,0.206911,-0.499181,-0.0108033,
0.227828,-0.216212,-0.111522,-1.73127,0.0572047,-0.207247,-0.382882,0.716543,0.0265459,0.803242,-0.226367,0.83758,-0.157522,0.00938289,0,0,0,0,0,0,0,0.23667,-0.215203,-0.101719,-1.73093,0.055866,1.36956,0.401989,0.513221,0.0229645,0.580933,-0.132402,0.348489,0.00850769,0.000910949,2.56641,-26.8337,2.6114,24.884,2.04681,1.74035,-0.0429228,-1.51508,-1.40828,-1.40373,1.15168,-0.0700309,-0.553629,-0.45746,0.256362,-0.785655,-0.855824,0.206911,-0.499181,-0.0108033,
0.230713,-0.216095,-0.108284,-1.73217,0.06068,-0.207849,-0.382846,0.721412,0.02925,0.809652,-0.225262,0.86882,-0.150346,0.00898962,0,0,0,0,0,0,0,0.23667,-0.215203,-0.101719,-1.73093,0.055866,1.36956,0.401989,0.513221,0.0229645,0.580933,-0.132402,0.348489,0.00850769,0.000910949,2.56641,-26.8337,2.6114,24.884,2.04681,1.74035,-0.0429228,-0.89799,-0.695934,-1.77129,0.724435,0.630334,-0.269471,-0.204426,0.77965,-0.468127,-1.13552,0.373895,-0.562233,-0.0144598,
0.203236,-0.216633,-0.138168,-1.72317,0.033366,-0.202046,-0.383293,0.602023,-0.00546637,0.613168,-0.206609,0.388309,-0.0507227,0.0151475,0,0,0,0,0,0,0,0.23667,-0.215203,-0.101719,-1.73093,0.055866,1.36956,0.401989,0.513221,0.0229645,0.580933,-0.132402,0.348489,0.00850769,0.000910949,2.56641,-26.8337,2.6114,24.884,2.04681,1.74035,-0.0429228,-0.89799,-0.695934,-1.77129,0.724435,0.630334,-0.269471,-0.204426,0.77965,-0.468127,-1.13552,0.373895,-0.562233,-0.0144598,
0.243981,-0.215181,-0.0940527,-1.73332,0.061267,-0.20165,-0.383237,0.63467,0.00182374,0.673949,-0.212287,0.506176,-0.0639942,0.013549,0,0,0,0,0,0,0,0.252759,-0.21459,-0.0830554,-1.73508,0.0684048,1.3702,0.401993,0.534681,0.0292859,0.596153,-0.133512,0.451529,0.0182653,0.000940626,1.2215,-26.8337,1.58784,24.6619,2.1878,1.69366,-0.0365141,-1.5816,-0.738361,-1.87973,0.745685,0.172096,-0.235367,-0.171136,0.550898,-0.423804,-1.1235,0.388676,-0.576803,-0.0127417,
0.246594,-0.215159,-0.0912439,-1.73419,0.0635137,-0.202004,-0.383186,0.653231,0.0054936,0.702194,-0.217052,0.561682,-0.0884632,0.0127114,0,0,0,0,0,0,0,0.252759,-0.21459,-0.0830554,-1.73508,0.0684048,1.3702,0.401993,0.534681,0.0292859,0.596153,-0.133512,0.451529,0.0182653,0.000940626,1.2215,-26.8337,1.58784,24.6619,2.1878,1.69366,-0.0365141,-1.50122,0.255495,-2.411,0.00607652,0.44471,0.227071,0.272441,0.889692,0.114028,-1.34986,0.461187,-0.573466,-0.016744,
0.249267,-0.21512,-0.0883391,-1.73507,0.0659729,-0.20243,-0.383138,0.668226,0.00967385,0.72621,-0.219809,0.614787,-0.106653,0.0119817,0,0,0,0,0,0,0,0.252759,-0.21459,-0.0830554,-1.73508,0.0684048,1.3702,0.401993,0.534681,0.0292859,0.596153,-0.133512,0.451529,0.0182653,0.000940626,1.2215,-26.8337,1.58784,24.6619,2.1878,1.69366,-0.0365141,-1.50122,0.255495,-2.411,0.00607652,0.44471,0.227071,0.272441,0.889692,0.114028,-1.34986,0.461187,-0.573466,-0.016744,
0.251988,-0.215065,-0.0853521,-1.73596,0.0686313,-0.202906,-0.383093,0.680289,0.0138485,0.746753,-0.221461,0.664601,-0.119029,0.0113464,0,0,0,0,0,0,0,0.252759,-0.21459,-0.0830554,-1.73508,0.0684048,1.3702,0.401993,0.534681,0.0292859,0.596153,-0.133512,0.451529,0.0182653,0.000940626,1.2215,-26.8337,1.58784,24.6619,2.1878,1.69366,-0.0365141,-1.58422,3.46253,-2.32665,-2.17238,0.378632,1.71836,1.71193,1.1404,1.84411,-1.36812,0.751648,-0.568511,-0.0217013,
0.254748,-0.214993,-0.0822944,-1.73685,0.0714738,-0.203412,-0.38305,0.689907,0.017807,0.764421,-0.222369,0.710629,-0.126409,0.0107794,0,0,0,0,0,0,0,0.252759,-0.21459,-0.0830554,-1.73508,0.0684048,1.3702,0.401993,0.534681,0.0292859,0.596153,-0.133512,0.451529,0.0182653,0.000940626,1.2215,-26.8337,1.58784,24.6619,2.1878,1.69366,-0.0365141,-1.58422,3.46253,-2.32665,-2.17238,0.378632,1.71836,1.71193,1.1404,1.84411,-1.36812,0.751648,-0.568511,-0.0217013,
0.241443,-0.215188,-0.0967485,-1.73247,0.0592423,-0.201394,-0.383291,0.611645,9.95862e-06,0.64057,-0.203076,0.449678,-0.0341413,0.0144926,0,0,0,0,0,0,0,0.252759,-0.21459,-0.0830554,-1.73508,0.0684048,1.3702,0.401993,0.534681,0.0292859,0.596153,-0.133512,0.451529,0.0182653,0.000940626,1.2215,-26.8337,1.58784,24.6619,2.1878,1.69366,-0.0365141,-0.636934,0.530918,-2.10918,-0.223966,0.926677,0.284036,0.278921,1.11077,0.228377,-1.26747,0.451854,-0.513158,-0.013967,
0.260138,-0.21449,-0.075152,-1.73744,0.0747645,-0.200789,-0.38324,0.638162,0.00782973,0.691815,-0.20894,0.574874,-0.0419617,0.0130324,0,0,0,0,0,0,0,0.268797,-0.214022,-0.0649989,-1.73911,0.0807795,1.37104,0.401992,0.518375,0.0154512,0.600887,-0.140387,0.349347,0.0237847,-0.0016937,2.23713,-27.0598,1.91316,25.0586,1.81518,1.97198,0.017502,-0.606723,-0.587608,-1.69083,0.556365,0.685767,-0.223515,-0.158466,0.756644,-0.397797,-0.998548,0.332495,-0.421053,-0.0113749,
0.262759,-0.214447,-0.0722789,-1.7383,0.0772485,-0.201043,-0.383191,0.655077,0.0108938,0.718278,-0.213232,0.621007,-0.0635205,0.0122364,0,0,0,0,0,0,0,0.268797,-0.214022,-0.0649989,-1.73911,0.0807795,1.37104,0.401992,0.518375,0.0154512,0.600887,-0.140387,0.349347,0.0237847,-0.0016937,2.23713,-27.0598,1.91316,25.0586,1.81518,1.97198,0.017502,-0.606723,-0.587608,-1.69083,0.556365,0.685767,-0.223515,-0.158466,0.756644,-0.397797,-0.998548,0.332495,-0.421053,-0.0113749,
0.265433,-0.214389,-0.0693162,-1.73916,0.0799123,-0.201361,-0.383145,0.668602,0.0144701,0.740687,-0.21563,0.665938,-0.0794943,0.0115354,0,0,0,0,0,0,0,0.268797,-0.214022,-0.0649989,-1.73911,0.0807795,1.37104,0.401992,0.518375,0.0154512,0.600887,-0.140387,0.349347,0.0237847,-0.0016937,2.23713,-27.0598,1.91316,25.0586,1.81518,1.97198,0.017502,-1.43128,-0.807079,-1.69501,0.790617,0.105736,-0.249979,-0.183313,0.415113,-0.440725,-0.937686,0.422673,-0.440231,-0.00899915,
0.268151,-0.214317,-0.066277,-1.74003,0.0827468,-0.201722,-0.383101,0.679347,0.0180572,0.759785,-0.216998,0.708617,-0.0902499,0.0109266,0,0,0,0,0,0,0,0.268797,-0.214022,-0.0649989,-1.73911,0.0807795,1.37104,0.401992,0.518375,0.0154512,0.600887,-0.140387,0.349347,0.0237847,-0.0016937,2.23713,-27.0598,1.91316,25.0586,1.81518,1.97198,0.017502,-1.43128,-0.807079,-1.69501,0.790617,0.105736,-0.249979,-0.183313,0.415113,-0.440725,-0.937686,0.422673,-0.440231,-0.00899915,
0.270905,-0.214231,-0.0631766,-1.7409,0.0857414,-0.202108,-0.38306,0.68858,0.0215138,0.7751,-0.217634,0.748649,-0.0964984,0.0103863,0,0,0,0,0,0,0,0.268797,-0.214022,-0.0649989,-1.73911,0.0807795,1.37104,0.401992,0.518375,0.0154512,0.600887,-0.140387,0.349347,0.0237847,-0.0016937,2.23713,-27.0598,1.91316,25.0586,1.81518,1.97198,0.017502,-2.07079,0.790057,-1.58173,-0.225125,-0.327538,0.551771,0.574465,0.336706,0.491448,-0.92115,0.64893,-0.494295,-0.0152713,
0.273694,-0.214132,-0.0600329,-1.74177,0.0888861,-0.202505,-0.38302,0.697257,0.024635,0.785942,-0.217834,0.786183,-0.0990111,0.00986026,0,0,0,0,0,0,0,0.285107,-0.213149,-0.0464316,-1.74289,0.091398,1.37198,0.401995,0.520671,0.0321203,0.592969,-0.125438,0.328342,0.0412332,-0.000528705,1.32465,-27.6073,1.21095,25.3601,1.31988,2.07818,-0.0026396,-2.07079,0.790057,-1.58173,-0.225125,-0.327538,0.551771,0.574465,0.336706,0.491448,-0.92115,0.64893,-0.494295,-0.0152713,
0.257586,-0.214522,-0.0779193,-1.73661,0.072465,-0.200622,-0.383292,0.617012,0.00655973,0.660395,-0.200435,0.529107,-0.0157677,0.0139133,0,0,0,0,0,0,0,0.285107,-0.213149,-0.0464316,-1.74289,0.091398,1.37198,0.401995,0.520671,0.0321203,0.592969,-0.125438,0.328342,0.0412332,-0.000528705,1.32465,-27.6073,1.21095,25.3601,1.31988,2.07818,-0.0026396,-1.47401,0.0624945,-0.849514,0.237726,-0.320228,0.178477,0.227772,0.0890653,0.0702266,-0.551276,0.463608,-0.36092,-0.0144905,
0.292267,-0.21301,-0.0385714,-1.74519,0.0967736,-0.198646,-0.383236,0.619754,0.01129,0.687753,-0.204006,0.507713,-0.0102987,0.0132792,0,0,0,0,0,0,0,0.285107,-0.213149,-0.0464316,-1.74289,0.091398,1.37198,0.401995,0.520671,0.0321203,0.592969,-0.125438,0.328342,0.0412332,-0.000528705,1.32465,-27.6073,1.21095,25.3601,1.31988,2.07818,-0.0026396,-0.0172566,-0.954789,-1.20481,0.793314,0.800551,-0.448358,-0.393834,0.632595,-0.629701,-0.721792,0.264933,-0.278711,-0.0129772,
0.294814,-0.212952,-0.0357143,-1.74602,0.0990304,-0.19877,-0.383186,0.636976,0.0143374,0.714277,-0.208479,0.564205,-0.0310038,0.0124621,0,0,0,0,0,0,0,0.285107,-0.213149,-0.0464316,-1.74289,0.091398,1.37198,0.401995,0.520671,0.0321203,0.592969,-0.125438,0.328342,0.0412332,-0.000528705,1.32465,-27.6073,1.21095,25.3601,1.31988,2.07818,-0.0026396,-0.0172566,-0.954789,-1.20481,0.793314,0.800551,-0.448358,-0.393834,0.632595,-0.629701,-0.721792,0.264933,-0.278711,-0.0129772,
0.297421,-0.212881,-0.0327707,-1.74687,0.1015,-0.198956,-0.383139,0.651731,0.0178419,0.735907,-0.210929,0.617515,-0.046563,0.0117323,0,0,0,0,0,0,0,0.285107,-0.213149,-0.0464316,-1.74289,0.091398,1.37198,0.401995,0.520671,0.0321203,0.592969,-0.125438,0.328342,0.0412332,-0.000528705,1.32465,-27.6073,1.21095,25.3601,1.31988,2.07818,-0.0026396,-0.0534255,0.407932,-1.74884,-0.165623,1.06915,0.16503,0.174479,1.04692,0.0919872,-1.01102,0.432895,-0.335057,-0.0176219,
0.300082,-0.212796,-0.0297621,-1.74771,0.104171,-0.199185,-0.383095,0.665137,0.0212118,0.752133,-0.212398,0.667628,-0.0572443,0.0110397,0,0,0,0,0,0,0,0.285107,-0.213149,-0.0464316,-1.74289,0.091398,1.37198,0.401995,0.520671,0.0321203,0.592969,-0.125438,0.328342,0.0412332,-0.000528705,1.32465,-27.6073,1.21095,25.3601,1.31988,2.07818,-0.0026396,-0.0534255,0.407932,-1.74884,-0.165623,1.06915,0.16503,0.174479,1.04692,0.0919872,-1.01102,0.432895,-0.335057,-0.0176219,
0.302786,-0.212699,-0.0267016,-1.74857,0.107028,-0.199441,-0.383054,0.675926,0.0242306,0.765123,-0.213245,0.714237,-0.0637858,0.0103044,0,0,0,0,0,0,0,0.301656,-0.212301,-0.0270865,-1.74689,0.104832,1.3726,0.401997,0.518247,0.0279719,0.583644,-0.110003,0.415273,0.015483,-0.00091643,-0.57568,-27.7818,-0.586229,25.733,1.21643,2.19811,0.017502,-1.20476,1.43095,-1.6489,-0.810206,0.204253,0.769241,0.752004,0.678011,0.795985,-0.899989,0.576079,-0.347505,-0.0162658,
0.305524,-0.212587,-0.0236001,-1.74942,0.110056,-0.199707,-0.383014,0.684705,0.0279951,0.775378,-0.212604,0.75695,-0.0666533,0.0100176,0,0,0,0,0,0,0,0.301656,-0.212301,-0.0270865,-1.74689,0.104832,1.3726,0.401997,0.518247,0.0279719,0.583644,-0.110003,0.415273,0.015483,-0.00091643,-0.57568,-27.7818,-0.586229,25.733,1.21643,2.19811,0.017502,-1.30621,0.386442,-2.0079,-0.196257,0.216744,0.330339,0.372048,0.640977,0.259422,-0.985503,0.436181,-0.326501,-0.0164674,
0.289788,-0.213055,-0.0413224,-1.74437,0.0947427,-0.198605,-0.383289,0.598542,0.00990039,0.656632,-0.195133,0.448546,0.0143847,0.0141456,0,0,0,0,0,0,0,0.301656,-0.212301,-0.0270865,-1.74689,0.104832,1.3726,0.401997,0.518247,0.0279719,0.583644,-0.110003,0.415273,0.015483,-0.00091643,-0.57568,-27.7818,-0.586229,25.733,1.21643,2.19811,0.017502,-1.30621,0.386442,-2.0079,-0.196257,0.216744,0.330339,0.372048,0.640977,0.259422,-0.985503,0.436181,-0.326501,-0.0164674,
0.308703,-0.212223,-0.0192087,-1.74908,0.11091,-0.198028,-0.383236,0.611453,0.00659207,0.689799,-0.196425,0.554133,-0.00154393,0.0132049,0,0,0,0,0,0,0,0.301656,-0.212301,-0.0270865,-1.74689,0.104832,1.3726,0.401997,0.518247,0.0279719,0.583644,-0.110003,0.415273,0.015483,-0.00091643,-0.57568,-27.7818,-0.586229,25.733,1.21643,2.19811,0.017502,-1.67429,-0.39374,-1.90252,0.339206,-0.149841,0.0445637,0.13014,0.322375,-0.0971852,-0.857448,0.364203,-0.287687,-0.0151501,
0.311228,-0.212182,-0.0163541,-1.74989,0.11332,-0.198095,-0.383187,0.631201,0.0101976,0.713671,-0.201303,0.602498,-0.0168087,0.0123047,0,0,0,0,0,0,0,0.301656,-0.212301,-0.0270865,-1.74689,0.104832,1.3726,0.401997,0.518247,0.0279719,0.583644,-0.110003,0.415273,0.015483,-0.00091643,-0.57568,-27.7818,-0.586229,25.733,1.21643,2.19811,0.017502,-1.67429,-0.39374,-1.90252,0.339206,-0.149841,0.0445637,0.13014,0.322375,-0.0971852,-0.857448,0.364203,-0.287687,-0.0151501,
0.313816,-0.212126,-0.0134226,-1.7507,0.115919,-0.198209,-0.383141,0.64716,0.0140286,0.732863,-0.204146,0.649883,-0.02848,0.0113853,0,0,0,0,0,0,0,0.3235,-0.210833,-0.00134239,-1.75154,0.121295,1.37377,0.401997,0.513314,0.0317596,0.606192,-0.108896,0.340844,0.0431878,-0.00109963,-1.3374,-27.5597,-1.51061,25.7092,1.64398,1.91247,0.017502,-0.90889,-1.35281,-1.99728,1.02868,0.498697,-0.507327,-0.456138,0.576436,-0.7071,-0.969314,0.3722,-0.310029,-0.0141092,
0.316457,-0.212051,-0.0104299,-1.75152,0.118699,-0.198354,-0.383097,0.6602,0.0187588,0.748182,-0.20491,0.69504,-0.0362207,0.0109441,0,0,0,0,0,0,0,0.3235,-0.210833,-0.00134239,-1.75154,0.121295,1.37377,0.401997,0.513314,0.0317596,0.606192,-0.108896,0.340844,0.0431878,-0.00109963,-1.3374,-27.5597,-1.51061,25.7092,1.64398,1.91247,0.017502,-0.90889,-1.35281,-1.99728,1.02868,0.498697,-0.507327,-0.456138,0.576436,-0.7071,-0.969314,0.3722,-0.310029,-0.0141092,
0.319138,-0.211965,-0.00738746,-1.75235,0.121649,-0.198517,-0.383057,0.670128,0.021367,0.760606,-0.20667,0.737523,-0.0408737,0.0100792,0,0,0,0,0,0,0,0.3235,-0.210833,-0.00134239,-1.75154,0.121295,1.37377,0.401997,0.513314,0.0317596,0.606192,-0.108896,0.340844,0.0431878,-0.00109963,-1.3374,-27.5597,-1.51061,25.7092,1.64398,1.91247,0.017502,-1.47145,1.78428,-2.21671,-1.09421,0.266622,0.968899,0.956393,0.877543,1.0069,-1.10823,0.690361,-0.348075,-0.0178329,
0.32185,-0.211868,-0.00430618,-1.75318,0.124755,-0.198687,-0.383019,0.678174,0.024343,0.770319,-0.206962,0.776526,-0.0425777,0.0095911,0,0,0,0,0,0,0,0.3235,-0.210833,-0.00134239,-1.75154,0.121295,1.37377,0.401997,0.513314,0.0317596,0.606192,-0.108896,0.340844,0.0431878,-0.00109963,-1.3374,-27.5597,-1.51061,25.7092,1.64398,1.91247,0.017502,-1.54885,0.965002,-2.38844,-0.659052,0.178891,0.635064,0.646384,0.767014,0.631389,-1.09995,0.520083,-0.299054,-0.0152996,
0.308703,-0.212223,-0.0192087,-1.74908,0.110909,-0.198027,-0.383236,0.61146,0.00659007,0.689805,-0.196426,0.554033,-0.00151019,0.0132044,0,0,0,0,0,0,0,0.3235,-0.210833,-0.00134239,-1.75154,0.121295,1.37377,0.401997,0.513314,0.0317596,0.606192,-0.108896,0.340844,0.0431878,-0.00109963,-1.3374,-27.5597,-1.51061,25.7092,1.64398,1.91247,0.017502,-1.54885,0.965002,-2.38844,-0.659052,0.178891,0.635064,0.646384,0.767014,0.631389,-1.09995,0.520083,-0.299054,-0.0152996,
0.330514,-0.210699,0.0066118,-1.7537,0.126876,-0.196515,-0.383241,0.608322,0.0111091,0.690521,-0.193524,0.525271,0.0270833,0.0127329,0,0,0,0,0,0,0,0.3235,-0.210833,-0.00134239,-1.75154,0.121295,1.37377,0.401997,0.513314,0.0317596,0.606192,-0.108896,0.340844,0.0431878,-0.00109963,-1.3374,-27.5597,-1.51061,25.7092,1.64398,1.91247,0.017502,-1.01107,0.59728,-2.34252,-0.390915,0.530981,0.389108,0.451562,0.882346,0.305326,-1.0847,0.5008,-0.257611,-0.0159045,
0.33302,-0.210638,0.0094585,-1.75449,0.129202,-0.196467,-0.383192,0.626489,0.0153412,0.711676,-0.197366,0.581615,0.0120791,0.0121481,0,0,0,0,0,0,0,0.339814,-0.209784,0.0181594,-1.75488,0.133484,1.37485,0.402002,0.515264,0.0302564,0.617782,-0.112454,0.396187,0.0397482,-0.000631134,0.562931,-27.0082,0.0644055,25.2094,2.5357,1.68725,-0.0026396,-1.01107,0.59728,-2.34252,-0.390915,0.530981,0.389108,0.451562,0.882346,0.305326,-1.0847,0.5008,-0.257611,-0.0159045,
0.335583,-0.210566,0.0123748,-1.7553,0.131741,-0.196466,-0.383147,0.640777,0.0180309,0.729083,-0.200834,0.63472,0.000247079,0.011137,0,0,0,0,0,0,0,0.339814,-0.209784,0.0181594,-1.75488,0.133484,1.37485,0.402002,0.515264,0.0302564,0.617782,-0.112454,0.396187,0.0397482,-0.000631134,0.562931,-27.0082,0.0644055,25.2094,2.5357,1.68725,-0.0026396,-0.0240269,-0.185883,-2.5245,0.195213,1.42794,-0.146125,-0.0881484,1.30648,-0.319176,-1.28304,0.569398,-0.309123,-0.0126104,
0.338194,-0.21048,0.0153471,-1.75611,0.134476,-0.196497,-0.383105,0.652582,0.02128,0.743058,-0.202261,0.683694,-0.00789801,0.0105213,0,0,0,0,0,0,0,0.339814,-0.209784,0.0181594,-1.75488,0.133484,1.37485,0.402002,0.515264,0.0302564,0.617782,-0.112454,0.396187,0.0397482,-0.000631134,0.562931,-27.0082,0.0644055,25.2094,2.5357,1.68725,-0.0026396,-0.0240269,-0.185883,-2.5245,0.195213,1.42794,-0.146125,-0.0881484,1.30648,-0.319176,-1.28304,0.569398,-0.309123,-0.0126104,
0.340842,-0.210384,0.0183645,-1.75692,0.13739,-0.196548,-0.383066,0.661941,0.0240011,0.754353,-0.20311,0.728546,-0.0126813,0.00985293,0,0,0,0,0,0,0,0.339814,-0.209784,0.0181594,-1.75488,0.133484,1.37485,0.402002,0.515264,0.0302564,0.617782,-0.112454,0.396187,0.0397482,-0.000631134,0.562931,-27.0082,0.0644055,25.2094,2.5357,1.68725,-0.0026396,-1.37139,0.438408,-2.23821,-0.152527,0.352934,0.364897,0.390809,0.762815,0.2791,-1.07929,0.68134,-0.321314,-0.0138041,
0.343519,-0.210278,0.0214178,-1.75773,0.140467,-0.196606,-0.383029,0.669385,0.0266073,0.763332,-0.203139,0.769173,-0.0145239,0.00931416,0,0,0,0,0,0,0,0.339814,-0.209784,0.0181594,-1.75488,0.133484,1.37485,0.402002,0.515264,0.0302564,0.617782,-0.112454,0.396187,0.0397482,-0.000631134,0.562931,-27.0082,0.0644055,25.2094,2.5357,1.68725,-0.0026396,-1.68317,-0.969779,-2.29909,0.694101,0.0588868,-0.162904,-0.114549,0.451795,-0.316822,-1.02478,0.474695,-0.303593,-0.0142211,
0.330515,-0.210699,0.00661237,-1.7537,0.126866,-0.196512,-0.383241,0.6084,0.0110884,0.690588,-0.193531,0.524161,0.0274115,0.0127267,0,0,0,0,0,0,0,0.356363,-0.208862,0.0379767,-1.75846,0.145351,1.37665,0.402008,0.518818,0.0342381,0.615626,-0.120524,0.400223,0.059589,0.000925961,1.40003,-27.3097,0.663466,24.8602,1.94976,1.87951,-0.0429228,-1.68317,-0.969779,-2.29909,0.694101,0.0588868,-0.162904,-0.114549,0.451795,-0.316822,-1.02478,0.474695,-0.303593,-0.0142211,
0.363395,-0.208647,0.0459903,-1.76063,0.151479,-0.193433,-0.383235,0.607961,0.0177254,0.693676,-0.192284,0.564424,0.0461918,0.0122348,0,0,0,0,0,0,0,0.356363,-0.208862,0.0379767,-1.75846,0.145351,1.37665,0.402008,0.518818,0.0342381,0.615626,-0.120524,0.400223,0.059589,0.000925961,1.40003,-27.3097,0.663466,24.8602,1.94976,1.87951,-0.0429228,-1.41131,-0.545404,-2.36641,0.347951,0.256434,-0.0166002,0.0368942,0.621373,-0.146596,-1.05976,0.46155,-0.278715,-0.0147911,
0.365893,-0.208566,0.0488439,-1.76141,0.153939,-0.1933,-0.383189,0.624622,0.0203559,0.713397,-0.196286,0.615038,0.0333434,0.0114864,0,0,0,0,0,0,0,0.356363,-0.208862,0.0379767,-1.75846,0.145351,1.37665,0.402008,0.518818,0.0342381,0.615626,-0.120524,0.400223,0.059589,0.000925961,1.40003,-27.3097,0.663466,24.8602,1.94976,1.87951,-0.0429228,-1.41131,-0.545404,-2.36641,0.347951,0.256434,-0.0166002,0.0368942,0.621373,-0.146596,-1.05976,0.46155,-0.278715,-0.0147911,
0.368445,-0.208474,0.0517616,-1.76221,0.15659,-0.193206,-0.383146,0.638009,0.0229457,0.729438,-0.198582,0.662723,0.0235146,0.0106878,0,0,0,0,0,0,0,0.356363,-0.208862,0.0379767,-1.75846,0.145351,1.37665,0.402008,0.518818,0.0342381,0.615626,-0.120524,0.400223,0.059589,0.000925961,1.40003,-27.3097,0.663466,24.8602,1.94976,1.87951,-0.0429228,-0.83409,1.24379,-2.72649,-0.865061,0.942246,0.626825,0.651965,1.30091,0.588986,-1.33427,0.703407,-0.320644,-0.0178819,
0.37104,-0.208372,0.054731,-1.76301,0.159417,-0.193138,-0.383106,0.648822,0.0255866,0.742353,-0.199577,0.706944,0.0169182,0.0100359,0,0,0,0,0,0,0,0.356363,-0.208862,0.0379767,-1.75846,0.145351,1.37665,0.402008,0.518818,0.0342381,0.615626,-0.120524,0.400223,0.059589,0.000925961,1.40003,-27.3097,0.663466,24.8602,1.94976,1.87951,-0.0429228,-1.00236,1.44387,-2.69836,-0.988325,0.855365,0.741543,0.750773,1.29256,0.72669,-1.34431,0.762195,-0.34983,-0.0162729,
0.37367,-0.20826,0.0577418,-1.76381,0.162408,-0.193085,-0.383069,0.6574,0.0279612,0.752689,-0.199866,0.74752,0.0132743,0.00943863,0,0,0,0,0,0,0,0.372351,-0.20835,0.0568182,-1.76233,0.157174,1.37898,0.402013,0.509332,0.0158713,0.619667,-0.121877,0.355624,0.0875546,0.000553029,0.435978,-27.3573,-0.562425,24.7095,1.14959,2.05163,-0.0566557,-1.00236,1.44387,-2.69836,-0.988325,0.855365,0.741543,0.750773,1.29256,0.72669,-1.34431,0.762195,-0.34983,-0.0162729,
0.376326,-0.20814,0.0607852,-1.76461,0.165545,-0.193036,-0.383033,0.664107,0.0300474,0.760848,-0.199617,0.784386,0.0121589,0.00890955,0,0,0,0,0,0,0,0.372351,-0.20835,0.0568182,-1.76233,0.157174,1.37898,0.402013,0.509332,0.0158713,0.619667,-0.121877,0.355624,0.0875546,0.000553029,0.435978,-27.3573,-0.562425,24.7095,1.14959,2.05163,-0.0566557,-0.699923,-0.508919,-2.44213,0.244374,0.815759,-0.120775,-0.0796253,0.94817,-0.246754,-1.158,0.453958,-0.28183,-0.0181481,
0.363403,-0.208649,0.0459966,-1.76063,0.151369,-0.193408,-0.383236,0.608821,0.0175157,0.694419,-0.192258,0.551804,0.0491285,0.0121687,0,0,0,0,0,0,0,0.372351,-0.20835,0.0568182,-1.76233,0.157174,1.37898,0.402013,0.509332,0.0158713,0.619667,-0.121877,0.355624,0.0875546,0.000553029,0.435978,-27.3573,-0.562425,24.7095,1.14959,2.05163,-0.0566557,-0.699923,-0.508919,-2.44213,0.244374,0.815759,-0.120775,-0.0796253,0.94817,-0.246754,-1.158,0.453958,-0.28183,-0.0181481,
0.379305,-0.208267,0.0647788,-1.76442,0.162876,-0.190813,-0.383234,0.600705,0.00899636,0.687822,-0.184698,0.532368,0.0719534,0.0120007,0,0,0,0,0,0,0,0.372351,-0.20835,0.0568182,-1.76233,0.157174,1.37898,0.402013,0.509332,0.0158713,0.619667,-0.121877,0.355624,0.0875546,0.000553029,0.435978,-27.3573,-0.562425,24.7095,1.14959,2.05163,-0.0566557,-0.716265,-0.728127,-2.37402,0.363386,0.73697,-0.196754,-0.139148,0.860552,-0.339523,-1.10433,0.399085,-0.260471,-0.0187611,
0.381771,-0.208216,0.0676055,-1.76517,0.165216,-0.19057,-0.383189,0.616642,0.0129245,0.706691,-0.188636,0.584994,0.0607015,0.0111924,0,0,0,0,0,0,0,0.372351,-0.20835,0.0568182,-1.76233,0.157174,1.37898,0.402013,0.509332,0.0158713,0.619667,-0.121877,0.355624,0.0875546,0.000553029,0.435978,-27.3573,-0.562425,24.7095,1.14959,2.05163,-0.0566557,-0.716265,-0.728127,-2.37402,0.363386,0.73697,-0.196754,-0.139148,0.860552,-0.339523,-1.10433,0.399085,-0.260471,-0.0187611,
0.38429,-0.208149,0.0704937,-1.76594,0.167751,-0.190361,-0.383147,0.62956,0.0167423,0.722053,-0.190852,0.633879,0.052217,0.0104461,0,0,0,0,0,0,0,0.372351,-0.20835,0.0568182,-1.76233,0.157174,1.37898,0.402013,0.509332,0.0158713,0.619667,-0.121877,0.355624,0.0875546,0.000553029,0.435978,-27.3573,-0.562425,24.7095,1.14959,2.05163,-0.0566557,-0.712398,0.270427,-2.237,-0.200336,0.819873,0.205692,0.237189,1.02064,0.113365,-1.12411,0.617221,-0.305823,-0.0181508,
0.386849,-0.208068,0.0734316,-1.7667,0.170467,-0.190175,-0.383108,0.639954,0.0202008,0.734462,-0.19205,0.678808,0.0465765,0.00978512,0,0,0,0,0,0,0,0.389259,-0.207755,0.0775351,-1.76647,0.170912,1.38177,0.40201,0.509338,0.0132626,0.60067,-0.123821,0.395597,0.090822,-0.000284876,-0.0202602,-27.4843,-0.963121,25.4831,1.57714,1.9793,-0.0163725,-1.73568,2.39422,-2.25509,-1.61157,0.171404,1.32051,1.3343,1.00479,1.37673,-1.12656,0.841029,-0.340962,-0.0211111,
0.389443,-0.207975,0.0764095,-1.76747,0.173338,-0.190001,-0.383071,0.648404,0.0232202,0.744484,-0.19247,0.717965,0.0434915,0.00920046,0,0,0,0,0,0,0,0.389259,-0.207755,0.0775351,-1.76647,0.170912,1.38177,0.40201,0.509338,0.0132626,0.60067,-0.123821,0.395597,0.090822,-0.000284876,-0.0202602,-27.4843,-0.963121,25.4831,1.57714,1.9793,-0.0163725,-1.73568,2.39422,-2.25509,-1.61157,0.171404,1.32051,1.3343,1.00479,1.37673,-1.12656,0.841029,-0.340962,-0.0211111,
0.392066,-0.207872,0.0794209,-1.76824,0.17632,-0.18983,-0.383036,0.655823,0.0257963,0.752854,-0.191989,0.74527,0.042552,0.00867762,0,0,0,0,0,0,0,0.389259,-0.207755,0.0775351,-1.76647,0.170912,1.38177,0.40201,0.509338,0.0132626,0.60067,-0.123821,0.395597,0.090822,-0.000284876,-0.0202602,-27.4843,-0.963121,25.4831,1.57714,1.9793,-0.0163725,-0.655394,0.160675,-1.71686,-0.108879,0.580552,0.162337,0.191816,0.758077,0.0807703,-0.865364,0.519658,-0.244897,-0.0139204,
0.379371,-0.20828,0.0648256,-1.76441,0.162043,-0.190667,-0.38324,0.607134,0.00756529,0.693332,-0.18389,0.436215,0.0887218,0.0114767,0,0,0,0,0,0,0,0.389259,-0.207755,0.0775351,-1.76647,0.170912,1.38177,0.40201,0.509338,0.0132626,0.60067,-0.123821,0.395597,0.090822,-0.000284876,-0.0202602,-27.4843,-0.963121,25.4831,1.57714,1.9793,-0.0163725,-0.655394,0.160675,-1.71686,-0.108879,0.580552,0.162337,0.191816,0.758077,0.0807703,-0.865364,0.519658,-0.244897,-0.0139204,
0.396169,-0.207685,0.0854321,-1.76851,0.176091,-0.187756,-0.383245,0.598018,0.00800182,0.684721,-0.1797,0.455843,0.102879,0.0113319,0,0,0,0,0,0,0,0.389259,-0.207755,0.0775351,-1.76647,0.170912,1.38177,0.40201,0.509338,0.0132626,0.60067,-0.123821,0.395597,0.090822,-0.000284876,-0.0202602,-27.4843,-0.963121,25.4831,1.57714,1.9793,-0.0163725,-0.503127,-0.504255,-1.41022,0.364563,0.485957,-0.134717,-0.0829443,0.524212,-0.265791,-0.682069,0.407231,-0.181747,-0.0143253,
0.398626,-0.207638,0.0882498,-1.76924,0.178029,-0.187365,-0.383203,0.614169,0.0116959,0.704423,-0.183349,0.48456,0.0977118,0.0105034,0,0,0,0,0,0,0,0.405555,-0.207122,0.0974632,-1.77027,0.183593,1.38444,0.402012,0.51867,0.0180667,0.643917,-0.115969,0.419442,0.0836306,0.000578644,0.741459,-27.4327,-0.586229,25.8798,2.94494,1.77331,-0.0365141,-0.503127,-0.504255,-1.41022,0.364563,0.485957,-0.134717,-0.0829443,0.524212,-0.265791,-0.682069,0.407231,-0.181747,-0.0143253,
0.401135,-0.207577,0.0911302,-1.76999,0.18008,-0.18699,-0.383164,0.627116,0.0152756,0.720113,-0.185329,0.51263,0.0937514,0.00977562,0,0,0,0,0,0,0,0.405555,-0.207122,0.0974632,-1.77027,0.183593,1.38444,0.402012,0.51867,0.0180667,0.643917,-0.115969,0.419442,0.0836306,0.000578644,0.741459,-27.4327,-0.586229,25.8798,2.94494,1.77331,-0.0365141,-0.223406,-0.65727,-1.44325,0.540318,0.814013,-0.278084,-0.224422,0.68752,-0.451062,-0.768161,0.529452,-0.230143,-0.0142198,
0.403687,-0.207503,0.0940618,-1.77073,0.18221,-0.186625,-0.383127,0.638063,0.0184987,0.7329,-0.185989,0.532632,0.0913289,0.00914034,0,0,0,0,0,0,0,0.405555,-0.207122,0.0974632,-1.77027,0.183593,1.38444,0.402012,0.51867,0.0180667,0.643917,-0.115969,0.419442,0.0836306,0.000578644,0.741459,-27.4327,-0.586229,25.8798,2.94494,1.77331,-0.0365141,-2.07932,1.24599,-1.74206,-0.725016,-0.260194,0.943826,0.979651,0.521536,0.915939,-0.864938,0.827125,-0.323803,-0.0170304,
0.406276,-0.207418,0.097036,-1.77147,0.184379,-0.186263,-0.383093,0.647356,0.0212232,0.743543,-0.185716,0.542178,0.0904989,0.00856729,0,0,0,0,0,0,0,0.405555,-0.207122,0.0974632,-1.77027,0.183593,1.38444,0.402012,0.51867,0.0180667,0.643917,-0.115969,0.419442,0.0836306,0.000578644,0.741459,-27.4327,-0.586229,25.8798,2.94494,1.77331,-0.0365141,-2.07932,1.24599,-1.74206,-0.725016,-0.260194,0.943826,0.979651,0.521536,0.915939,-0.864938,0.827125,-0.323803,-0.0170304,
0.396398,-0.207718,0.0855888,-1.76846,0.173123,-0.187366,-0.383266,0.619543,0.00374273,0.703004,-0.175224,0.116261,0.147455,0.00964413,0,0,0,0,0,0,0,0.405555,-0.207122,0.0974632,-1.77027,0.183593,1.38444,0.402012,0.51867,0.0180667,0.643917,-0.115969,0.419442,0.0836306,0.000578644,0.741459,-27.4327,-0.586229,25.8798,2.94494,1.77331,-0.0365141,-2.22376,0.774884,-1.83802,-0.534019,-0.442785,0.815688,0.854905,0.385496,0.79191,-0.842727,0.664477,-0.290041,-0.0162579,
0.412845,-0.207055,0.105733,-1.77222,0.18626,-0.18463,-0.383269,0.628472,0.00568742,0.715722,-0.171893,0.156422,0.1559,0.00910974,0,0,0,0,0,0,0,0.405555,-0.207122,0.0974632,-1.77027,0.183593,1.38444,0.402012,0.51867,0.0180667,0.643917,-0.115969,0.419442,0.0836306,0.000578644,0.741459,-27.4327,-0.586229,25.8798,2.94494,1.77331,-0.0365141,-2.22376,0.774884,-1.83802,-0.534019,-0.442785,0.815688,0.854905,0.385496,0.79191,-0.842727,0.664477,-0.290041,-0.0162579,
0.415415,-0.207022,0.108668,-1.77292,0.186704,-0.183989,-0.383235,0.642519,0.00804272,0.733937,-0.175164,0.111057,0.160301,0.00850056,0,0,0,0,0,0,0,0.421579,-0.206399,0.116567,-1.77349,0.193964,1.38769,0.402009,0.51584,0.0191551,0.62429,-0.10054,0.305894,0.108688,-0.00464959,0.66608,-27.3335,-0.586229,25.5069,1.90033,2.01867,-0.0026396,-0.390629,-0.741631,-1.90513,0.344725,0.719964,-0.24556,-0.205822,0.734403,-0.364341,-0.883997,0.364544,-0.18745,-0.0135841,
0.418029,-0.20698,0.111659,-1.77363,0.186986,-0.183338,-0.383203,0.653344,0.0105775,0.747754,-0.176618,0.0706307,0.162813,0.00797615,0,0,0,0,0,0,0,0.421579,-0.206399,0.116567,-1.77349,0.193964,1.38769,0.402009,0.51584,0.0191551,0.62429,-0.10054,0.305894,0.108688,-0.00464959,0.66608,-27.3335,-0.586229,25.5069,1.90033,2.01867,-0.0026396,-0.445866,0.328061,-2.41385,-0.486695,0.933956,0.185007,0.202112,1.14169,0.144094,-1.13904,0.488466,-0.225625,-0.015571,
0.420673,-0.206929,0.114691,-1.77434,0.187132,-0.182679,-0.383173,0.66107,0.0128884,0.758003,-0.177336,0.0363685,0.164661,0.00750572,0,0,0,0,0,0,0,0.421579,-0.206399,0.116567,-1.77349,0.193964,1.38769,0.402009,0.51584,0.0191551,0.62429,-0.10054,0.305894,0.108688,-0.00464959,0.66608,-27.3335,-0.586229,25.5069,1.90033,2.01867,-0.0026396,-0.445866,0.328061,-2.41385,-0.486695,0.933956,0.185007,0.202112,1.14169,0.144094,-1.13904,0.488466,-0.225625,-0.015571,
0.423337,-0.206869,0.117752,-1.77505,0.187171,-0.182013,-0.383145,0.665957,0.0148852,0.765193,-0.177777,0.00987353,0.166411,0.00716904,0,0,0,0,0,0,0,0.421579,-0.206399,0.116567,-1.77349,0.193964,1.38769,0.402009,0.51584,0.0191551,0.62429,-0.10054,0.305894,0.108688,-0.00464959,0.66608,-27.3335,-0.586229,25.5069,1.90033,2.01867,-0.0026396,-1.54344,0.966212,-2.38745,-0.900723,0.201152,0.734324,0.751753,0.893881,0.749286,-1.10802,0.595571,-0.280864,-0.0152154,
0.426015,-0.206802,0.120833,-1.77576,0.187103,-0.181341,-0.383117,0.66948,0.0166563,0.770155,-0.177544,-0.0171127,0.168177,0.00687416,0,0,0,0,0,0,0,0.421579,-0.206399,0.116567,-1.77349,0.193964,1.38769,0.402009,0.51584,0.0191551,0.62429,-0.10054,0.305894,0.108688,-0.00464959,0.66608,-27.3335,-0.586229,25.5069,1.90033,2.01867,-0.0026396,-1.54344,0.966212,-2.38745,-0.900723,0.201152,0.734324,0.751753,0.893881,0.749286,-1.10802,0.595571,-0.280864,-0.0152154,
0.413094,-0.207209,0.105858,-1.77227,0.180846,-0.183065,-0.383283,0.644956,-0.0103924,0.728659,-0.175536,-0.443053,0.320878,0.00838845,0,0,0,0,0,0,0,0.443556,-0.205637,0.143043,-1.77713,0.200661,1.39287,0.402011,0.523082,0.0157142,0.624868,-0.0742643,0.0441481,0.129156,0.000496955,0.487552,-27.2066,-0.736986,25.2094,0.715634,2.19079,-0.0227812,-1.42777,0.221879,-2.33234,-0.504496,0.131542,0.445773,0.511756,0.735231,0.405492,-1.04093,0.38858,-0.245435,-0.0135341,
0.450723,-0.205801,0.151158,-1.77894,0.196177,-0.174425,-0.38327,0.612187,-0.0164333,0.699871,-0.165653,-0.51424,0.330774,0.00955919,0,0,0,0,0,0,0,0.443556,-0.205637,0.143043,-1.77713,0.200661,1.39287,0.402011,0.523082,0.0157142,0.624868,-0.0742643,0.0441481,0.129156,0.000496955,0.487552,-27.2066,-0.736986,25.2094,0.715634,2.19079,-0.0227812,-1.42777,0.221879,-2.33234,-0.504496,0.131542,0.445773,0.511756,0.735231,0.405492,-1.04093,0.38858,-0.245435,-0.0135341,
0.4532,-0.20586,0.154008,-1.77962,0.193776,-0.173036,-0.383233,0.619264,-0.0147077,0.71254,-0.170873,-0.600269,0.347262,0.00908058,0,0,0,0,0,0,0,0.443556,-0.205637,0.143043,-1.77713,0.200661,1.39287,0.402011,0.523082,0.0157142,0.624868,-0.0742643,0.0441481,0.129156,0.000496955,0.487552,-27.2066,-0.736986,25.2094,0.715634,2.19079,-0.0227812,0.0181373,-0.826757,-2.58978,-0.0444683,1.07019,-0.334821,-0.268052,1.0997,-0.421157,-1.1725,0.0730819,-0.187714,-0.00989604,
0.455689,-0.205909,0.156887,-1.78032,0.191147,-0.171611,-0.383198,0.622248,-0.0122661,0.719702,-0.174088,-0.657065,0.356316,0.00872747,0,0,0,0,0,0,0,0.443556,-0.205637,0.143043,-1.77713,0.200661,1.39287,0.402011,0.523082,0.0157142,0.624868,-0.0742643,0.0441481,0.129156,0.000496955,0.487552,-27.2066,-0.736986,25.2094,0.715634,2.19079,-0.0227812,0.132699,-0.738438,-3.03479,-0.313436,1.27602,-0.323633,-0.305385,1.35332,-0.341157,-1.39009,0.00632786,-0.22615,-0.0107813,
0.458182,-0.205947,0.15978,-1.78102,0.188348,-0.170167,-0.383165,0.623261,-0.00957843,0.723237,-0.175789,-0.699792,0.360904,0.00842593,0,0,0,0,0,0,0,0.443556,-0.205637,0.143043,-1.77713,0.200661,1.39287,0.402011,0.523082,0.0157142,0.624868,-0.0742643,0.0441481,0.129156,0.000496955,0.487552,-27.2066,-0.736986,25.2094,0.715634,2.19079,-0.0227812,0.132699,-0.738438,-3.03479,-0.313436,1.27602,-0.323633,-0.305385,1.35332,-0.341157,-1.39009,0.00632786,-0.22615,-0.0107813,
0.460672,-0.205975,0.162677,-1.78173,0.185421,-0.168715,-0.383132,0.622537,-0.00700358,0.724339,-0.176723,-0.731953,0.362916,0.00817902,0,0,0,0,0,0,0,0.443556,-0.205637,0.143043,-1.77713,0.200661,1.39287,0.402011,0.523082,0.0157142,0.624868,-0.0742643,0.0441481,0.129156,0.000496955,0.487552,-27.2066,-0.736986,25.2094,0.715634,2.19079,-0.0227812,-1.05778,-0.293777,-2.85411,-0.623453,0.307514,0.211668,0.226947,0.912916,0.264896,-1.23647,-0.0119869,-0.2323,-0.012069,
0.463154,-0.205994,0.165572,-1.78244,0.182397,-0.167262,-0.3831,0.620521,-0.00464901,0.72364,-0.177186,-0.755953,0.363374,0.00800707,0,0,0,0,0,0,0,0.461589,-0.205301,0.164242,-1.7796,0.198022,1.39839,0.402013,0.550066,0.00572946,0.641099,-0.0844825,-0.204029,0.208713,0.000630586,0.793033,-27.3811,-0.911547,25.0864,0.111386,2.19811,-0.0429228,-1.05778,-0.293777,-2.85411,-0.623453,0.307514,0.211668,0.226947,0.912916,0.264896,-1.23647,-0.0119869,-0.2323,-0.012069,
0.450473,-0.205881,0.150888,-1.77901,0.195377,-0.173996,-0.383284,0.58395,-0.0238884,0.668562,-0.168571,-0.628433,0.370146,0.00866604,0,0,0,0,0,0,0,0.461589,-0.205301,0.164242,-1.7796,0.198022,1.39839,0.402013,0.550066,0.00572946,0.641099,-0.0844825,-0.204029,0.208713,0.000630586,0.793033,-27.3811,-0.911547,25.0864,0.111386,2.19811,-0.0429228,-1.23885,-0.118852,-2.61539,-0.803232,-0.0243118,0.37371,0.442837,0.728882,0.422628,-1.1031,-0.164691,-0.205494,-0.0126423,
0.468507,-0.205569,0.172173,-1.78143,0.190979,-0.168346,-0.383285,0.579257,-0.025221,0.66903,-0.164649,-0.737553,0.367588,0.00841188,0,0,0,0,0,0,0,0.461589,-0.205301,0.164242,-1.7796,0.198022,1.39839,0.402013,0.550066,0.00572946,0.641099,-0.0844825,-0.204029,0.208713,0.000630586,0.793033,-27.3811,-0.911547,25.0864,0.111386,2.19811,-0.0429228,-0.453414,-0.436797,-2.63372,-0.753197,0.368248,0.0555281,0.139714,0.874727,0.0949075,-1.11204,-0.41074,-0.156601,-0.0122307,
0.470812,-0.205666,0.174854,-1.78211,0.187634,-0.166833,-0.383252,0.576221,-0.0242299,0.670284,-0.169351,-0.836202,0.378464,0.0082385,0,0,0,0,0,0,0,0.461589,-0.205301,0.164242,-1.7796,0.198022,1.39839,0.402013,0.550066,0.00572946,0.641099,-0.0844825,-0.204029,0.208713,0.000630586,0.793033,-27.3811,-0.911547,25.0864,0.111386,2.19811,-0.0429228,-0.453414,-0.436797,-2.63372,-0.753197,0.368248,0.0555281,0.139714,0.874727,0.0949075,-1.11204,-0.41074,-0.156601,-0.0122307,
0.473093,-0.205756,0.177525,-1.7828,0.184032,-0.165298,-0.38322,0.570304,-0.022455,0.66761,-0.172775,-0.900494,0.383538,0.00805743,0,0,0,0,0,0,0,0.461589,-0.205301,0.164242,-1.7796,0.198022,1.39839,0.402013,0.550066,0.00572946,0.641099,-0.0844825,-0.204029,0.208713,0.000630586,0.793033,-27.3811,-0.911547,25.0864,0.111386,2.19811,-0.0429228,0.121234,-1.45399,-2.97583,-0.31168,0.676304,-0.468271,-0.422056,0.933224,-0.415637,-1.21418,-0.696513,-0.112757,-0.0137617,
