PerkyPenguin/Analysis-on-Approximated-Derivatives/Code_and_Data/PaperData/Real_Robot/Scene_1/contact_change/5/trajectory.csv
Commanded Joint 0 Position,Commanded Joint 1 Position,Commanded Joint 2 Position,Commanded Joint 3 Position,Commanded Joint 4 Position,Commanded Joint 5 Position,Commanded Joint 6 Position,Commanded Joint 0 Velocity,Commanded Joint 1 Velocity,Commanded Joint 2 Velocity,Commanded Joint 3 Velocity,Commanded Joint 4 Velocity,Commanded Joint 5 Velocity,Commanded Joint 6 Velocity,Commanded Joint 0 Torque,Commanded Joint 1 Torque,Commanded Joint 2 Torque,Commanded Joint 3 Torque,Commanded Joint 4 Torque,Commanded Joint 5 Torque,Commanded Joint 6 Torque,Actual Joint 0 Position,Actual Joint 1 Position,Actual Joint 2 Position,Actual Joint 3 Position,Actual Joint 4 Position,Actual Joint 5 Position,Actual Joint 6 Position,Actual Joint 0 Velocity,Actual Joint 1 Velocity,Actual Joint 2 Velocity,Actual Joint 3 Velocity,Actual Joint 4 Velocity,Actual Joint 5 Velocity,Actual Joint 6 Velocity,Actual Joint 0 Torque,Actual Joint 1 Torque,Actual Joint 2 Torque,Actual Joint 3 Torque,Actual Joint 4 Torque,Actual Joint 5 Torque,Actual Joint 6 Torque,EE ext force 0,EE ext force 1,EE ext force 2,EE ext force 3,EE ext force 4,EE ext force 5,joint ext torque 0,joint ext torque 1,joint ext torque 2,joint ext torque 3,joint ext torque 4,joint ext torque 5,joint ext torque 6,
0.0119268,-0.195502,-0.333748,-1.66013,-0.0943609,-0.0911666,-0.383092,-0.00235346,0.0183444,-0.012316,-0.151416,0.00206274,0.199514,-0.0021549,0,0,0,0,0,0,0,0.0119349,-0.195563,-0.333653,-1.65859,-0.0943204,1.47763,0.402324,0.000229366,-0.0047923,-0.00312875,0.00142401,0.00431576,0.000273564,-0.000414654,-0.0718349,-25.5126,1.86159,25.8084,0.299984,2.96715,-0.00996382,-1.96447,0.209251,-0.472706,-0.0925481,-1.01177,-0.212809,-0.099297,-0.364736,-0.299999,-0.259017,-0.128148,-0.324357,-0.0350265,
0.0119122,-0.195355,-0.333809,-1.66077,-0.0943531,-0.0903406,-0.3831,-0.00364986,0.0366901,-0.0152632,-0.160477,0.00193601,0.206496,-0.00204726,0,0,0,0,0,0,0,0.0119349,-0.195563,-0.333653,-1.65859,-0.0943204,1.47763,0.402324,0.000229366,-0.0047923,-0.00312875,0.00142401,0.00431576,0.000273564,-0.000414654,-0.0718349,-25.5126,1.86159,25.8084,0.299984,2.96715,-0.00996382,-1.37292,0.0325683,-0.797153,0.0936762,-0.42408,-0.187869,-0.0776809,0.0246656,-0.298349,-0.462192,-0.129906,-0.332165,-0.03421,
0.0119199,-0.195616,-0.33367,-1.65857,-0.0942885,-0.0931584,-0.383073,-0.000723317,-0.00272326,-0.000776469,0.00132326,0.000956562,0.000507364,3.43352e-05,0,0,0,0,0,0,0,0.0119349,-0.195563,-0.333653,-1.65859,-0.0943204,1.47763,0.402324,0.000229366,-0.0047923,-0.00312875,0.00142401,0.00431576,0.000273564,-0.000414654,-0.0718349,-25.5126,1.86159,25.8084,0.299984,2.96715,-0.00996382,-1.68584,0.105195,-0.64871,0.0174606,-0.726547,-0.211831,-0.100043,-0.173075,-0.312674,-0.364181,-0.126746,-0.328842,-0.0332692,
0.0119174,-0.195626,-0.333673,-1.65856,-0.0942862,-0.0931561,-0.383073,-0.000614295,-0.00242072,-0.000658871,0.00119916,0.000558021,0.000571138,2.88275e-05,0,0,0,0,0,0,0,0.0119349,-0.195563,-0.333653,-1.65859,-0.0943204,1.47763,0.402324,0.000229366,-0.0047923,-0.00312875,0.00142401,0.00431576,0.000273564,-0.000414654,-0.0718349,-25.5126,1.86159,25.8084,0.299984,2.96715,-0.00996382,-1.68584,0.105195,-0.64871,0.0174606,-0.726547,-0.211831,-0.100043,-0.173075,-0.312674,-0.364181,-0.126746,-0.328842,-0.0332692,
0.0119153,-0.195634,-0.333675,-1.65856,-0.0942851,-0.0931537,-0.383073,-0.000525761,-0.00215884,-0.000566162,0.00108311,0.000269761,0.000603986,2.4427e-05,0,0,0,0,0,0,0,0.0119294,-0.19556,-0.333653,-1.65861,-0.0943224,1.47764,0.402326,-0.00210293,-0.00597849,-0.000211935,-0.000286194,0.0086365,-0.00405499,0.000506516,0.00751081,-25.461,1.81398,24.7095,0.312802,3.18596,-0.050247,-1.92239,0.380226,-1.01083,-0.151089,-0.808111,-0.126295,-0.0149636,-0.174845,-0.213406,-0.435667,-0.123593,-0.295568,-0.0347902,
0.0119135,-0.195642,-0.333677,-1.65856,-0.0942849,-0.0931513,-0.383073,-0.00045308,-0.00193149,-0.000492092,0.000977065,6.19516e-05,0.000610354,2.09243e-05,0,0,0,0,0,0,0,0.0119294,-0.19556,-0.333653,-1.65861,-0.0943224,1.47764,0.402326,-0.00210293,-0.00597849,-0.000211935,-0.000286194,0.0086365,-0.00405499,0.000506516,0.00751081,-25.461,1.81398,24.7095,0.312802,3.18596,-0.050247,-1.92239,0.380226,-1.01083,-0.151089,-0.808111,-0.126295,-0.0149636,-0.174845,-0.213406,-0.435667,-0.123593,-0.295568,-0.0347902,
0.0119119,-0.195649,-0.333679,-1.65855,-0.0942852,-0.0931489,-0.383073,-0.00039275,-0.00173389,-0.000432116,0.000881195,-8.71209e-05,0.000595566,1.81185e-05,0,0,0,0,0,0,0,0.0119294,-0.19556,-0.333653,-1.65861,-0.0943224,1.47764,0.402326,-0.00210293,-0.00597849,-0.000211935,-0.000286194,0.0086365,-0.00405499,0.000506516,0.00751081,-25.461,1.81398,24.7095,0.312802,3.18596,-0.050247,-3.36559,0.554079,-1.48524,-0.21315,-1.74034,-0.303322,-0.18762,-0.626537,-0.389002,-0.448739,-0.129584,-0.310417,-0.0350955,
0.0119106,-0.195655,-0.33368,-1.65855,-0.094286,-0.0931466,-0.383073,-0.000342148,-0.00156208,-0.000382918,0.000794999,-0.000193245,0.000564633,1.58502e-05,0,0,0,0,0,0,0,0.0119294,-0.19556,-0.333653,-1.65861,-0.0943224,1.47764,0.402326,-0.00210293,-0.00597849,-0.000211935,-0.000286194,0.0086365,-0.00405499,0.000506516,0.00751081,-25.461,1.81398,24.7095,0.312802,3.18596,-0.050247,-3.36559,0.554079,-1.48524,-0.21315,-1.74034,-0.303322,-0.18762,-0.626537,-0.389002,-0.448739,-0.129584,-0.310417,-0.0350955,
0.0117988,-0.195549,-0.333762,-1.65845,-0.0927317,-0.0941404,-0.383072,-0.0125886,0.000855332,-0.011412,0.0116217,0.17901,-0.110549,0.000413861,0,0,0,0,0,0,0,0.0119294,-0.19556,-0.333653,-1.65861,-0.0943224,1.47764,0.402326,-0.00210293,-0.00597849,-0.000211935,-0.000286194,0.0086365,-0.00405499,0.000506516,0.00751081,-25.461,1.81398,24.7095,0.312802,3.18596,-0.050247,-1.85062,-0.015865,-1.66951,0.232708,-0.54091,-0.287446,-0.170365,0.0651785,-0.425811,-0.657379,-0.138895,-0.259219,-0.0362443,
0.0117993,-0.195553,-0.333755,-1.65848,-0.0927217,-0.0941674,-0.383071,-0.0120812,0.000486734,-0.0109052,0.0112255,0.178993,-0.112283,0.000393933,0,0,0,0,0,0,0,0.0119383,-0.195573,-0.333642,-1.65895,-0.0943594,1.47826,0.402325,-0.00104988,-0.00689125,0.00213738,0.00267595,0.000555818,-0.0026145,0.000116748,-0.119442,-25.461,1.7386,26.2805,0.617672,3.16582,-0.0301054,-1.24509,-0.0612182,-1.57632,0.262414,-0.127354,-0.198667,-0.0859016,0.27712,-0.338372,-0.678355,-0.121585,-0.239908,-0.0377889,
0.0117516,-0.195555,-0.333801,-1.65844,-0.0918805,-0.094699,-0.383069,-0.0119071,-0.000443969,-0.0114583,0.00952262,0.210301,-0.132891,0.000521299,0,0,0,0,0,0,0,0.0119383,-0.195573,-0.333642,-1.65895,-0.0943594,1.47826,0.402325,-0.00104988,-0.00689125,0.00213738,0.00267595,0.000555818,-0.0026145,0.000116748,-0.119442,-25.461,1.7386,26.2805,0.617672,3.16582,-0.0301054,-1.24509,-0.0612182,-1.57632,0.262414,-0.127354,-0.198667,-0.0859016,0.27712,-0.338372,-0.678355,-0.121585,-0.239908,-0.0377889,
0.0117067,-0.19556,-0.333846,-1.65841,-0.0909429,-0.0952981,-0.383066,-0.0112296,-0.00130659,-0.0112535,0.00785596,0.234409,-0.149782,0.000590102,0,0,0,0,0,0,0,0.0119383,-0.195573,-0.333642,-1.65895,-0.0943594,1.47826,0.402325,-0.00104988,-0.00689125,0.00213738,0.00267595,0.000555818,-0.0026145,0.000116748,-0.119442,-25.461,1.7386,26.2805,0.617672,3.16582,-0.0301054,-1.39383,0.173281,-1.36812,0.0571626,-0.330388,-0.120259,-0.00692636,0.125112,-0.236893,-0.572632,-0.109178,-0.232042,-0.0369001,
0.0116656,-0.195568,-0.333888,-1.65838,-0.0899304,-0.0959528,-0.383064,-0.0102714,-0.00199537,-0.0105873,0.00639185,0.253122,-0.163678,0.000623514,0,0,0,0,0,0,0,0.0119383,-0.195573,-0.333642,-1.65895,-0.0943594,1.47826,0.402325,-0.00104988,-0.00689125,0.00213738,0.00267595,0.000555818,-0.0026145,0.000116748,-0.119442,-25.461,1.7386,26.2805,0.617672,3.16582,-0.0301054,-1.39383,0.173281,-1.36812,0.0571626,-0.330388,-0.120259,-0.00692636,0.125112,-0.236893,-0.572632,-0.109178,-0.232042,-0.0369001,
0.0116289,-0.195578,-0.333927,-1.65836,-0.0888594,-0.0966532,-0.383061,-0.00917242,-0.00249948,-0.00965579,0.00514677,0.267738,-0.17508,0.000634682,0,0,0,0,0,0,0,0.0119383,-0.195573,-0.333642,-1.65895,-0.0943594,1.47826,0.402325,-0.00104988,-0.00689125,0.00213738,0.00267595,0.000555818,-0.0026145,0.000116748,-0.119442,-25.461,1.7386,26.2805,0.617672,3.16582,-0.0301054,-1.97169,0.00932151,-1.40772,0.173108,-0.731621,-0.298331,-0.181513,-0.0846142,-0.425796,-0.544163,-0.139681,-0.258892,-0.0362811,
0.0115969,-0.195589,-0.333961,-1.65835,-0.0877426,-0.0973907,-0.383059,-0.00802199,-0.00283838,-0.00858906,0.00409638,0.279204,-0.184382,0.000631683,0,0,0,0,0,0,0,0.0118786,-0.195444,-0.333709,-1.65884,-0.0928772,1.47825,0.402328,-0.000553972,-0.000543488,0.000698224,-0.00241765,0.0740113,-0.00233665,0.00122085,0.412174,-25.8339,2.21467,26.1813,0.911556,2.95983,-0.0566557,-2.21681,0.175981,-1.14911,0.10997,-1.04344,-0.266599,-0.145981,-0.314971,-0.395878,-0.424028,-0.03215,-0.267707,-0.0362191,
0.0116287,-0.195456,-0.333867,-1.65815,-0.0896976,-0.097009,-0.383041,-0.0272748,0.00547111,-0.0226744,0.036373,0.526127,-0.429443,0.00329981,0,0,0,0,0,0,0,0.0118786,-0.195444,-0.333709,-1.65884,-0.0928772,1.47825,0.402328,-0.000553972,-0.000543488,0.000698224,-0.00241765,0.0740113,-0.00233665,0.00122085,0.412174,-25.8339,2.21467,26.1813,0.911556,2.95983,-0.0566557,-2.21681,0.175981,-1.14911,0.10997,-1.04344,-0.266599,-0.145981,-0.314971,-0.395878,-0.424028,-0.03215,-0.267707,-0.0362191,
0.0116151,-0.195303,-0.333892,-1.65844,-0.0877477,-0.096166,-0.383042,-0.023969,0.00829422,-0.019729,0.0323481,0.559577,-0.406083,0.00309116,0,0,0,0,0,0,0,0.0118786,-0.195444,-0.333709,-1.65884,-0.0928772,1.47825,0.402328,-0.000553972,-0.000543488,0.000698224,-0.00241765,0.0740113,-0.00233665,0.00122085,0.412174,-25.8339,2.21467,26.1813,0.911556,2.95983,-0.0566557,-1.94076,-0.00266837,-0.829526,0.270545,-0.957337,-0.298987,-0.175087,-0.322265,-0.449935,-0.35167,0.0357132,-0.280216,-0.0355983,
0.0115249,-0.19529,-0.333972,-1.65833,-0.0851338,-0.0980817,-0.383029,-0.02255,0.00336948,-0.019949,0.0259899,0.653486,-0.478946,0.00340468,0,0,0,0,0,0,0,0.0118786,-0.195444,-0.333709,-1.65884,-0.0928772,1.47825,0.402328,-0.000553972,-0.000543488,0.000698224,-0.00241765,0.0740113,-0.00233665,0.00122085,0.412174,-25.8339,2.21467,26.1813,0.911556,2.95983,-0.0566557,-1.94076,-0.00266837,-0.829526,0.270545,-0.957337,-0.298987,-0.175087,-0.322265,-0.449935,-0.35167,0.0357132,-0.280216,-0.0355983,
0.0114449,-0.195293,-0.334046,-1.65825,-0.0822224,-0.100228,-0.383014,-0.0199973,-0.000720566,-0.018473,0.0198326,0.727835,-0.536457,0.00357169,0,0,0,0,0,0,0,0.0118786,-0.195444,-0.333709,-1.65884,-0.0928772,1.47825,0.402328,-0.000553972,-0.000543488,0.000698224,-0.00241765,0.0740113,-0.00233665,0.00122085,0.412174,-25.8339,2.21467,26.1813,0.911556,2.95983,-0.0566557,-1.29002,-0.0259394,-1.1044,0.395703,-0.34437,-0.192146,-0.0699313,0.0727087,-0.36717,-0.560313,0.0979197,-0.306287,-0.036702,
0.0113775,-0.195308,-0.33411,-1.6582,-0.0790732,-0.102555,-0.383,-0.0168469,-0.00380459,-0.015991,0.0144301,0.787304,-0.581881,0.0036516,0,0,0,0,0,0,0,0.0118786,-0.195444,-0.333709,-1.65884,-0.0928772,1.47825,0.402328,-0.000553972,-0.000543488,0.000698224,-0.00241765,0.0740113,-0.00233665,0.00122085,0.412174,-25.8339,2.21467,26.1813,0.911556,2.95983,-0.0566557,-1.84907,-0.277933,-0.571671,0.563825,-0.948697,-0.405618,-0.282715,-0.34649,-0.592442,-0.336712,0.135282,-0.349042,-0.0384749,
0.0113238,-0.195332,-0.334162,-1.65816,-0.075732,-0.105025,-0.382985,-0.0134281,-0.00597456,-0.0129551,0.00983913,0.8353,-0.617523,0.00367626,0,0,0,0,0,0,0,0.0118016,-0.195337,-0.333851,-1.65864,-0.08831,1.47771,0.402327,-0.00849088,0.00826734,-0.010432,0.0145035,0.255259,-0.0331681,-0.000951529,0.689884,-26.2108,2.38923,26.1298,1.66229,2.44988,-0.0227812,-1.84907,-0.277933,-0.571671,0.563825,-0.948697,-0.405618,-0.282715,-0.34649,-0.592442,-0.336712,0.135282,-0.349042,-0.0384749,
0.011284,-0.195361,-0.3342,-1.65813,-0.0722346,-0.107606,-0.38297,-0.00994787,-0.00738726,-0.00966293,0.00597667,0.874348,-0.64517,0.00366474,0,0,0,0,0,0,0,0.0118016,-0.195337,-0.333851,-1.65864,-0.08831,1.47771,0.402327,-0.00849088,0.00826734,-0.010432,0.0145035,0.255259,-0.0331681,-0.000951529,0.689884,-26.2108,2.38923,26.1298,1.66229,2.44988,-0.0227812,-1.278,-0.200747,0.138438,0.538496,-0.770055,-0.266416,-0.140012,-0.358321,-0.458908,-0.181767,0.271606,-0.390394,-0.0414109,
0.0125045,-0.195557,-0.332972,-1.65873,-0.0894101,-0.0980711,-0.382925,0.0748884,-0.0161449,0.087566,0.00267767,0.385975,-0.636546,0.0120196,0,0,0,0,0,0,0,0.0118016,-0.195337,-0.333851,-1.65864,-0.08831,1.47771,0.402327,-0.00849088,0.00826734,-0.010432,0.0145035,0.255259,-0.0331681,-0.000951529,0.689884,-26.2108,2.38923,26.1298,1.66229,2.44988,-0.0227812,-1.278,-0.200747,0.138438,0.538496,-0.770055,-0.266416,-0.140012,-0.358321,-0.458908,-0.181767,0.271606,-0.390394,-0.0414109,
0.012427,-0.195463,-0.333146,-1.65852,-0.083528,-0.0987461,-0.382918,0.0766847,-0.0183993,0.0876277,0.00140526,0.470043,-0.644291,0.0125274,0,0,0,0,0,0,0,0.0118016,-0.195337,-0.333851,-1.65864,-0.08831,1.47771,0.402327,-0.00849088,0.00826734,-0.010432,0.0145035,0.255259,-0.0331681,-0.000951529,0.689884,-26.2108,2.38923,26.1298,1.66229,2.44988,-0.0227812,-0.381563,-0.0373326,0.382098,0.620705,-0.121588,-0.0300774,0.100062,-0.0101889,-0.257391,-0.31523,0.493801,-0.507518,-0.0437365,
0.0128119,-0.195554,-0.332706,-1.65856,-0.0813778,-0.101842,-0.38287,0.0962083,-0.0228974,0.109993,-0.00791632,0.537537,-0.774062,0.0120527,0,0,0,0,0,0,0,0.0118016,-0.195337,-0.333851,-1.65864,-0.08831,1.47771,0.402327,-0.00849088,0.00826734,-0.010432,0.0145035,0.255259,-0.0331681,-0.000951529,0.689884,-26.2108,2.38923,26.1298,1.66229,2.44988,-0.0227812,-0.381563,-0.0373326,0.382098,0.620705,-0.121588,-0.0300774,0.100062,-0.0101889,-0.257391,-0.31523,0.493801,-0.507518,-0.0437365,
0.0132632,-0.195655,-0.332191,-1.65862,-0.0789764,-0.105363,-0.382824,0.112824,-0.0251734,0.128748,-0.0166586,0.600357,-0.880072,0.011633,0,0,0,0,0,0,0,0.0113832,-0.195313,-0.334185,-1.65835,-0.076853,1.47507,0.40233,-0.00982176,-0.00841862,-0.0109776,0.0111125,0.347133,-0.107513,0.000515888,1.80469,-25.5879,3.76192,25.4315,1.10656,2.14501,-0.050247,-0.590626,-0.0388206,0.535021,0.793009,-0.243363,-0.06795,0.0780294,-0.0652157,-0.34115,-0.385048,0.642946,-0.661739,-0.041751,
0.0137714,-0.195758,-0.331613,-1.65872,-0.0763446,-0.10923,-0.382779,0.127059,-0.025721,0.144618,-0.024597,0.657937,-0.96689,0.0112617,0,0,0,0,0,0,0,0.0113832,-0.195313,-0.334185,-1.65835,-0.076853,1.47507,0.40233,-0.00982176,-0.00841862,-0.0109776,0.0111125,0.347133,-0.107513,0.000515888,1.80469,-25.5879,3.76192,25.4315,1.10656,2.14501,-0.050247,-0.849263,-0.0328897,0.884404,0.822043,-0.484925,-0.117232,0.0409983,-0.221905,-0.40563,-0.332818,0.693169,-0.772919,-0.0342115,
0.0143287,-0.195858,-0.33098,-1.65885,-0.0735042,-0.113383,-0.382735,0.139325,-0.0249841,0.158154,-0.0316956,0.710121,-1.03808,0.0109281,0,0,0,0,0,0,0,0.0113832,-0.195313,-0.334185,-1.65835,-0.076853,1.47507,0.40233,-0.00982176,-0.00841862,-0.0109776,0.0111125,0.347133,-0.107513,0.000515888,1.80469,-25.5879,3.76192,25.4315,1.10656,2.14501,-0.050247,-0.849263,-0.0328897,0.884404,0.822043,-0.484925,-0.117232,0.0409983,-0.221905,-0.40563,-0.332818,0.693169,-0.772919,-0.0342115,
0.0149285,-0.195951,-0.330301,-1.659,-0.0704761,-0.117769,-0.382692,0.149941,-0.0233271,0.169772,-0.0379857,0.75702,-1.0965,0.0106231,0,0,0,0,0,0,0,0.0113832,-0.195313,-0.334185,-1.65835,-0.076853,1.47507,0.40233,-0.00982176,-0.00841862,-0.0109776,0.0111125,0.347133,-0.107513,0.000515888,1.80469,-25.5879,3.76192,25.4315,1.10656,2.14501,-0.050247,-0.769977,-0.0930935,1.26533,0.765526,-0.473504,-0.14239,-0.00936689,-0.234367,-0.394239,-0.271275,0.624438,-0.843236,-0.0248566,
0.0131594,-0.195833,-0.332408,-1.65909,-0.0848733,-0.0984956,-0.382892,0.157514,-0.0532059,0.173225,-0.0520022,0.330626,-0.626353,0.0145588,0,0,0,0,0,0,0,0.0113832,-0.195313,-0.334185,-1.65835,-0.076853,1.47507,0.40233,-0.00982176,-0.00841862,-0.0109776,0.0111125,0.347133,-0.107513,0.000515888,1.80469,-25.5879,3.76192,25.4315,1.10656,2.14501,-0.050247,-0.769977,-0.0930935,1.26533,0.765526,-0.473504,-0.14239,-0.00936689,-0.234367,-0.394239,-0.271275,0.624438,-0.843236,-0.0248566,
0.0127387,-0.195947,-0.332754,-1.65883,-0.0726728,-0.101703,-0.382868,0.157357,-0.0625276,0.172274,-0.0537191,0.380518,-0.663529,0.0157561,0,0,0,0,0,0,0,0.0113832,-0.195313,-0.334185,-1.65835,-0.076853,1.47507,0.40233,-0.00982176,-0.00841862,-0.0109776,0.0111125,0.347133,-0.107513,0.000515888,1.80469,-25.5879,3.76192,25.4315,1.10656,2.14501,-0.050247,-0.433706,0.563395,1.68244,0.21122,-0.315046,0.205042,0.293226,-0.18116,0.0494371,-0.204037,0.639543,-0.896197,-0.0205853,
0.0135008,-0.196206,-0.331908,-1.65909,-0.0709441,-0.104863,-0.382808,0.190519,-0.0648416,0.211338,-0.0633715,0.432162,-0.789972,0.0147932,0,0,0,0,0,0,0,0.0115751,-0.195507,-0.333726,-1.65821,-0.0673713,1.46967,0.402329,0.00554557,-0.00504767,0.0158161,0.00554581,0.320949,-0.235015,-0.000570201,2.79651,-25.211,5.01161,24.6381,2.21801,1.20934,0.00376909,-0.433706,0.563395,1.68244,0.21122,-0.315046,0.205042,0.293226,-0.18116,0.0494371,-0.204037,0.639543,-0.896197,-0.0205853,
0.0143723,-0.196463,-0.330936,-1.65937,-0.0689872,-0.108434,-0.382752,0.217867,-0.064257,0.243076,-0.071876,0.489219,-0.892889,0.0140179,0,0,0,0,0,0,0,0.0115751,-0.195507,-0.333726,-1.65821,-0.0673713,1.46967,0.402329,0.00554557,-0.00504767,0.0158161,0.00554581,0.320949,-0.235015,-0.000570201,2.79651,-25.211,5.01161,24.6381,2.21801,1.20934,0.00376909,-0.615171,1.33467,1.35657,-0.204088,-0.209771,0.517322,0.593887,-0.0129488,0.396211,-0.457477,0.735134,-1.0583,-0.0169784,
0.015335,-0.19671,-0.329859,-1.65969,-0.0667972,-0.112341,-0.382699,0.240679,-0.0617987,0.26918,-0.0795528,0.547516,-0.976561,0.0133764,0,0,0,0,0,0,0,0.0115751,-0.195507,-0.333726,-1.65821,-0.0673713,1.46967,0.402329,0.00554557,-0.00504767,0.0158161,0.00554581,0.320949,-0.235015,-0.000570201,2.79651,-25.211,5.01161,24.6381,2.21801,1.20934,0.00376909,-0.615171,1.33467,1.35657,-0.204088,-0.209771,0.517322,0.593887,-0.0129488,0.396211,-0.457477,0.735134,-1.0583,-0.0169784,
0.0163745,-0.196943,-0.328696,-1.66004,-0.0643793,-0.116519,-0.382647,0.259881,-0.0581313,0.290879,-0.0864861,0.604464,-1.04459,0.0128325,0,0,0,0,0,0,0,0.0115751,-0.195507,-0.333726,-1.65821,-0.0673713,1.46967,0.402329,0.00554557,-0.00504767,0.0158161,0.00554581,0.320949,-0.235015,-0.000570201,2.79651,-25.211,5.01161,24.6381,2.21801,1.20934,0.00376909,-1.08028,1.75388,1.00594,-0.419696,-0.360077,0.618998,0.701121,-0.00784389,0.505971,-0.622276,0.764919,-1.15394,-0.00988226,
0.0174791,-0.197158,-0.327459,-1.66041,-0.0617452,-0.120919,-0.382598,0.276154,-0.0537078,0.309077,-0.0926879,0.658527,-1.09994,0.012364,0,0,0,0,0,0,0,0.0115751,-0.195507,-0.333726,-1.65821,-0.0673713,1.46967,0.402329,0.00554557,-0.00504767,0.0158161,0.00554581,0.320949,-0.235015,-0.000570201,2.79651,-25.211,5.01161,24.6381,2.21801,1.20934,0.00376909,-1.88256,0.337663,0.879236,0.397109,-0.8924,-0.162467,-0.0687081,-0.278071,-0.336972,-0.53208,0.449633,-1.09982,-0.00451751,
0.0134301,-0.196226,-0.332056,-1.65933,-0.0739352,-0.101463,-0.382874,0.233683,-0.0876335,0.253224,-0.100933,0.249747,-0.645422,0.0154241,0,0,0,0,0,0,0,0.0124851,-0.195998,-0.332352,-1.65847,-0.0596793,1.46232,0.402335,0.0494853,-0.023054,0.0691111,-0.0118998,0.246963,-0.249171,0.000455849,3.55426,-25.461,5.88838,25.257,1.39404,1.6607,-0.0026396,-1.88256,0.337663,0.879236,0.397109,-0.8924,-0.162467,-0.0687081,-0.278071,-0.336972,-0.53208,0.449633,-1.09982,-0.00451751,
0.0149697,-0.196897,-0.329689,-1.65957,-0.0569382,-0.115329,-0.382857,0.261318,-0.0826624,0.286046,-0.109467,0.260537,-0.716257,0.0161221,0,0,0,0,0,0,0,0.0124851,-0.195998,-0.332352,-1.65847,-0.0596793,1.46232,0.402335,0.0494853,-0.023054,0.0691111,-0.0118998,0.246963,-0.249171,0.000455849,3.55426,-25.461,5.88838,25.257,1.39404,1.6607,-0.0026396,-1.98389,-1.27546,0.736005,1.36197,-0.846521,-0.904191,-0.797968,-0.204956,-1.15853,-0.560068,0.119506,-1.06911,-0.000709121,
0.0161761,-0.197223,-0.328355,-1.66005,-0.0556658,-0.118649,-0.382797,0.301603,-0.081517,0.333317,-0.119465,0.318084,-0.830007,0.01511,0,0,0,0,0,0,0,0.0124851,-0.195998,-0.332352,-1.65847,-0.0596793,1.46232,0.402335,0.0494853,-0.023054,0.0691111,-0.0118998,0.246963,-0.249171,0.000455849,3.55426,-25.461,5.88838,25.257,1.39404,1.6607,-0.0026396,-1.98389,-1.27546,0.736005,1.36197,-0.846521,-0.904191,-0.797968,-0.204956,-1.15853,-0.560068,0.119506,-1.06911,-0.000709121,
0.0175152,-0.197534,-0.326869,-1.66056,-0.0541331,-0.12234,-0.382739,0.334776,-0.0775589,0.371716,-0.127857,0.383172,-0.92271,0.0143002,0,0,0,0,0,0,0,0.0124851,-0.195998,-0.332352,-1.65847,-0.0596793,1.46232,0.402335,0.0494853,-0.023054,0.0691111,-0.0118998,0.246963,-0.249171,0.000455849,3.55426,-25.461,5.88838,25.257,1.39404,1.6607,-0.0026396,-1.82518,-0.240829,0.762804,0.622552,-0.743511,-0.40654,-0.313882,-0.149354,-0.582447,-0.571051,0.200495,-1.08071,-0.00117645,
0.0189648,-0.197822,-0.325255,-1.6611,-0.0523308,-0.126332,-0.382685,0.362395,-0.0720095,0.403285,-0.1353,0.450582,-0.997901,0.013665,0,0,0,0,0,0,0,0.0124851,-0.195998,-0.332352,-1.65847,-0.0596793,1.46232,0.402335,0.0494853,-0.023054,0.0691111,-0.0118998,0.246963,-0.249171,0.000455849,3.55426,-25.461,5.88838,25.257,1.39404,1.6607,-0.0026396,-1.31695,1.72152,0.170001,-0.629611,-0.167256,0.565293,0.62372,0.268123,0.515264,-0.857759,0.412822,-1.10357,-0.00209417,
0.0205072,-0.198083,-0.323538,-1.66167,-0.0502626,-0.130567,-0.382633,0.385595,-0.0654796,0.429468,-0.141768,0.517058,-1.05894,0.0130681,0,0,0,0,0,0,0,0.0124851,-0.195998,-0.332352,-1.65847,-0.0596793,1.46232,0.402335,0.0494853,-0.023054,0.0691111,-0.0118998,0.246963,-0.249171,0.000455849,3.55426,-25.461,5.88838,25.257,1.39404,1.6607,-0.0026396,-1.31695,1.72152,0.170001,-0.629611,-0.167256,0.565293,0.62372,0.268123,0.515264,-0.857759,0.412822,-1.10357,-0.00209417,
0.022128,-0.198317,-0.321732,-1.66226,-0.0479401,-0.135002,-0.382582,0.405203,-0.0583971,0.451355,-0.14725,0.580626,-1.10853,0.0125112,0,0,0,0,0,0,0,0.0147361,-0.197053,-0.329697,-1.65912,-0.0518568,1.45275,0.402347,0.0914259,-0.0452429,0.0953835,-0.0319034,0.157127,-0.289499,0.000983314,2.94727,-25.8101,5.46388,24.9356,1.06353,2.20452,-0.0227812,-2.48644,1.10944,-0.300368,-0.267432,-0.903555,0.0852024,0.146019,-0.0812961,0.0125111,-0.838283,0.233852,-1.04526,0.00364573,
0.0155666,-0.197164,-0.32909,-1.66003,-0.0580117,-0.115084,-0.382875,0.327086,-0.106852,0.355459,-0.153126,0.14956,-0.697205,0.0149044,0,0,0,0,0,0,0,0.0147361,-0.197053,-0.329697,-1.65912,-0.0518568,1.45275,0.402347,0.0914259,-0.0452429,0.0953835,-0.0319034,0.157127,-0.289499,0.000983314,2.94727,-25.8101,5.46388,24.9356,1.06353,2.20452,-0.0227812,-2.48644,1.10944,-0.300368,-0.267432,-0.903555,0.0852024,0.146019,-0.0812961,0.0125111,-0.838283,0.233852,-1.04526,0.00364573,
0.0179853,-0.198289,-0.326232,-1.66073,-0.0505112,-0.125031,-0.382835,0.33588,-0.109237,0.365984,-0.154357,0.140831,-0.721318,0.0167053,0,0,0,0,0,0,0,0.0147361,-0.197053,-0.329697,-1.65912,-0.0518568,1.45275,0.402347,0.0914259,-0.0452429,0.0953835,-0.0319034,0.157127,-0.289499,0.000983314,2.94727,-25.8101,5.46388,24.9356,1.06353,2.20452,-0.0227812,-3.55848,-0.253792,-0.16729,0.435454,-1.82324,-0.70315,-0.614113,-0.650168,-0.831191,-0.532024,-0.0899809,-0.905299,0.00575178,
0.0195218,-0.19871,-0.324541,-1.66139,-0.049701,-0.12836,-0.382772,0.384139,-0.10531,0.422658,-0.16481,0.20255,-0.832149,0.0155524,0,0,0,0,0,0,0,0.0147361,-0.197053,-0.329697,-1.65912,-0.0518568,1.45275,0.402347,0.0914259,-0.0452429,0.0953835,-0.0319034,0.157127,-0.289499,0.000983314,2.94727,-25.8101,5.46388,24.9356,1.06353,2.20452,-0.0227812,-3.55848,-0.253792,-0.16729,0.435454,-1.82324,-0.70315,-0.614113,-0.650168,-0.831191,-0.532024,-0.0899809,-0.905299,0.00575178,
0.0212164,-0.199107,-0.322666,-1.66209,-0.0486013,-0.13199,-0.382714,0.42365,-0.0993119,0.468654,-0.176094,0.274935,-0.907563,0.014701,0,0,0,0,0,0,0,0.0147361,-0.197053,-0.329697,-1.65912,-0.0518568,1.45275,0.402347,0.0914259,-0.0452429,0.0953835,-0.0319034,0.157127,-0.289499,0.000983314,2.94727,-25.8101,5.46388,24.9356,1.06353,2.20452,-0.0227812,-2.13075,0.233248,-0.382281,0.172068,-0.710348,-0.238195,-0.161426,-0.0105595,-0.347534,-0.735669,0.0260127,-0.858469,0.00632807,
0.0230424,-0.199472,-0.320642,-1.66283,-0.0471962,-0.135841,-0.382658,0.4565,-0.0910775,0.506159,-0.184994,0.351282,-0.962727,0.0138553,0,0,0,0,0,0,0,0.0186234,-0.198747,-0.32484,-1.66069,-0.0451651,1.44053,0.402354,0.128656,-0.0688168,0.164088,-0.0655388,0.145242,-0.392179,-0.000132142,2.59418,-25.1872,5.01161,25.134,1.43615,2.27044,-0.00996382,-2.13075,0.233248,-0.382281,0.172068,-0.710348,-0.238195,-0.161426,-0.0105595,-0.347534,-0.735669,0.0260127,-0.858469,0.00632807,
0.0249777,-0.199803,-0.318493,-1.66362,-0.0454859,-0.139767,-0.382605,0.483815,-0.0829132,0.537238,-0.196152,0.427572,-0.981674,0.0132559,0,0,0,0,0,0,0,0.0186234,-0.198747,-0.32484,-1.66069,-0.0451651,1.44053,0.402354,0.128656,-0.0688168,0.164088,-0.0655388,0.145242,-0.392179,-0.000132142,2.59418,-25.1872,5.01161,25.134,1.43615,2.27044,-0.00996382,-1.41189,1.89274,-0.566144,-0.81759,-0.133039,0.625875,0.681576,0.337099,0.601976,-0.912514,0.323774,-0.894853,0.00816456,
0.027005,-0.200098,-0.316241,-1.66444,-0.043482,-0.143691,-0.382554,0.50682,-0.0737304,0.562937,-0.205334,0.500971,-0.98084,0.0127295,0,0,0,0,0,0,0,0.0186234,-0.198747,-0.32484,-1.66069,-0.0451651,1.44053,0.402354,0.128656,-0.0688168,0.164088,-0.0655388,0.145242,-0.392179,-0.000132142,2.59418,-25.1872,5.01161,25.134,1.43615,2.27044,-0.00996382,-3.26801,-0.0149784,-0.520537,0.411645,-1.57127,-0.537623,-0.453519,-0.49744,-0.676414,-0.629998,0.0611682,-0.839221,0.0115286,
0.0187747,-0.198489,-0.326175,-1.66113,-0.0512524,-0.124789,-0.382871,0.409772,-0.126823,0.386388,-0.193404,0.0654033,-0.70091,0.0142592,0,0,0,0,0,0,0,0.0186234,-0.198747,-0.32484,-1.66069,-0.0451651,1.44053,0.402354,0.128656,-0.0688168,0.164088,-0.0655388,0.145242,-0.392179,-0.000132142,2.59418,-25.1872,5.01161,25.134,1.43615,2.27044,-0.00996382,-3.26801,-0.0149784,-0.520537,0.411645,-1.57127,-0.537623,-0.453519,-0.49744,-0.676414,-0.629998,0.0611682,-0.839221,0.0115286,
0.0229544,-0.200231,-0.320819,-1.66281,-0.0441894,-0.137922,-0.382832,0.428468,-0.126838,0.419588,-0.200259,0.107477,-0.756468,0.016207,0,0,0,0,0,0,0,0.0186234,-0.198747,-0.32484,-1.66069,-0.0451651,1.44053,0.402354,0.128656,-0.0688168,0.164088,-0.0655388,0.145242,-0.392179,-0.000132142,2.59418,-25.1872,5.01161,25.134,1.43615,2.27044,-0.00996382,-3.50402,-1.31352,-0.952974,1.28486,-1.56726,-1.14589,-1.02499,-0.428527,-1.39166,-0.741609,-0.145684,-0.806809,0.0110408,
0.0248657,-0.200712,-0.318886,-1.66367,-0.0435143,-0.141249,-0.382772,0.477823,-0.120282,0.483212,-0.214177,0.168762,-0.83195,0.015,0,0,0,0,0,0,0,0.0186234,-0.198747,-0.32484,-1.66069,-0.0451651,1.44053,0.402354,0.128656,-0.0688168,0.164088,-0.0655388,0.145242,-0.392179,-0.000132142,2.59418,-25.1872,5.01161,25.134,1.43615,2.27044,-0.00996382,-3.50402,-1.31352,-0.952974,1.28486,-1.56726,-1.14589,-1.02499,-0.428527,-1.39166,-0.741609,-0.145684,-0.806809,0.0110408,
0.0269383,-0.201159,-0.316744,-1.66458,-0.0425482,-0.144705,-0.382715,0.518145,-0.11159,0.53556,-0.228348,0.241535,-0.863811,0.0141619,0,0,0,0,0,0,0,0.0243294,-0.201258,-0.317668,-1.66331,-0.0431513,1.42746,0.402358,0.201743,-0.0834289,0.245754,-0.0901764,0.0918852,-0.422137,-0.000265362,4.79999,-24.5882,7.46339,24.9832,2.29126,1.93902,0.00376909,-2.48669,0.908345,-0.515602,-0.23866,-1.01333,0.0239922,0.105632,-0.192303,-0.0571641,-0.691481,0.160903,-0.813786,0.00750033,
0.0291445,-0.201561,-0.314428,-1.66554,-0.0412737,-0.148192,-0.382662,0.551536,-0.100627,0.579005,-0.239245,0.318608,-0.87172,0.0134772,0,0,0,0,0,0,0,0.0243294,-0.201258,-0.317668,-1.66331,-0.0431513,1.42746,0.402358,0.201743,-0.0834289,0.245754,-0.0901764,0.0918852,-0.422137,-0.000265362,4.79999,-24.5882,7.46339,24.9832,2.29126,1.93902,0.00376909,-2.48669,0.908345,-0.515602,-0.23866,-1.01333,0.0239922,0.105632,-0.192303,-0.0571641,-0.691481,0.160903,-0.813786,0.00750033,
0.0314619,-0.201914,-0.311965,-1.66652,-0.0396922,-0.151656,-0.38261,0.579355,-0.0883499,0.615592,-0.246802,0.395381,-0.866049,0.0128995,0,0,0,0,0,0,0,0.0243294,-0.201258,-0.317668,-1.66331,-0.0431513,1.42746,0.402358,0.201743,-0.0834289,0.245754,-0.0901764,0.0918852,-0.422137,-0.000265362,4.79999,-24.5882,7.46339,24.9832,2.29126,1.93902,0.00376909,-1.68012,2.75281,0.381443,-1.54415,-0.787071,0.979923,0.998183,-0.210569,1.07212,-0.447999,0.450578,-0.81962,0.00482924,
0.0234012,-0.200362,-0.321014,-1.66315,-0.044392,-0.137713,-0.382888,0.472074,-0.137772,0.403708,-0.233172,0.0870374,-0.743799,0.012265,0,0,0,0,0,0,0,0.0243294,-0.201258,-0.317668,-1.66331,-0.0431513,1.42746,0.402358,0.201743,-0.0834289,0.245754,-0.0901764,0.0918852,-0.422137,-0.000265362,4.79999,-24.5882,7.46339,24.9832,2.29126,1.93902,0.00376909,-1.68012,2.75281,0.381443,-1.54415,-0.787071,0.979923,0.998183,-0.210569,1.07212,-0.447999,0.450578,-0.81962,0.00482924,
0.0296618,-0.202855,-0.313189,-1.66588,-0.0421946,-0.150647,-0.382859,0.509378,-0.13466,0.44746,-0.245925,0.122493,-0.674948,0.0137264,0,0,0,0,0,0,0,0.0243294,-0.201258,-0.317668,-1.66331,-0.0431513,1.42746,0.402358,0.201743,-0.0834289,0.245754,-0.0901764,0.0918852,-0.422137,-0.000265362,4.79999,-24.5882,7.46339,24.9832,2.29126,1.93902,0.00376909,-2.04184,-0.0954314,-0.369573,0.532228,-0.716523,-0.359361,-0.299924,-0.0563484,-0.502975,-0.702702,0.175671,-0.81745,0.0104542,
0.0318935,-0.203356,-0.311174,-1.66693,-0.0414315,-0.153451,-0.382808,0.557944,-0.125298,0.503923,-0.262138,0.190781,-0.701122,0.0128861,0,0,0,0,0,0,0,0.0321501,-0.204313,-0.309564,-1.66712,-0.0424722,1.41476,0.402371,0.251515,-0.0959127,0.300914,-0.119175,0.0131015,-0.375009,-0.00136784,4.89917,-24.2153,7.1103,24.2612,1.59546,2.17156,-0.0026396,-3.33828,-1.05578,-1.09857,1.24475,-1.40403,-0.975439,-0.852358,-0.330888,-1.23803,-0.832945,0.0238998,-0.828322,0.0106892,
0.0342881,-0.203807,-0.308971,-1.66802,-0.0403686,-0.156293,-0.382759,0.598636,-0.11268,0.550622,-0.27237,0.265713,-0.71055,0.0122452,0,0,0,0,0,0,0,0.0321501,-0.204313,-0.309564,-1.66712,-0.0424722,1.41476,0.402371,0.251515,-0.0959127,0.300914,-0.119175,0.0131015,-0.375009,-0.00136784,4.89917,-24.2153,7.1103,24.2612,1.59546,2.17156,-0.0026396,-3.33828,-1.05578,-1.09857,1.24475,-1.40403,-0.975439,-0.852358,-0.330888,-1.23803,-0.832945,0.0238998,-0.828322,0.0106892,
0.0368208,-0.204202,-0.306612,-1.66914,-0.0390012,-0.159129,-0.382712,0.633169,-0.0988156,0.58983,-0.278883,0.341854,-0.708989,0.0117318,0,0,0,0,0,0,0,0.0321501,-0.204313,-0.309564,-1.66712,-0.0424722,1.41476,0.402371,0.251515,-0.0959127,0.300914,-0.119175,0.0131015,-0.375009,-0.00136784,4.89917,-24.2153,7.1103,24.2612,1.59546,2.17156,-0.0026396,-2.52532,2.18925,-0.612274,-1.02369,-1.05169,0.620789,0.691382,-0.204063,0.610194,-0.724478,0.398763,-0.820332,0.00203343,
0.0394718,-0.204541,-0.304119,-1.67027,-0.0373375,-0.16193,-0.382667,0.662771,-0.0848353,0.623154,-0.282993,0.415931,-0.700101,0.011308,0,0,0,0,0,0,0,0.0321501,-0.204313,-0.309564,-1.66712,-0.0424722,1.41476,0.402371,0.251515,-0.0959127,0.300914,-0.119175,0.0131015,-0.375009,-0.00136784,4.89917,-24.2153,7.1103,24.2612,1.59546,2.17156,-0.0026396,-2.52532,2.18925,-0.612274,-1.02369,-1.05169,0.620789,0.691382,-0.204063,0.610194,-0.724478,0.398763,-0.820332,0.00203343,
0.0296579,-0.202933,-0.313179,-1.66617,-0.0421826,-0.150602,-0.382907,0.50906,-0.140989,0.448046,-0.274226,0.124167,-0.678235,0.010331,0,0,0,0,0,0,0,0.0321501,-0.204313,-0.309564,-1.66712,-0.0424722,1.41476,0.402371,0.251515,-0.0959127,0.300914,-0.119175,0.0131015,-0.375009,-0.00136784,4.89917,-24.2153,7.1103,24.2612,1.59546,2.17156,-0.0026396,-1.80742,1.97088,0.0472913,-0.877054,-0.804903,0.621479,0.653155,-0.195906,0.628708,-0.51716,0.483976,-0.768971,0.00271144,
0.0378379,-0.205959,-0.304653,-1.67014,-0.0417066,-0.161705,-0.382869,0.532962,-0.134139,0.475349,-0.280827,0.125613,-0.513003,0.0119601,0,0,0,0,0,0,0,0.0448978,-0.208612,-0.297697,-1.67306,-0.042136,1.40136,0.402384,0.352589,-0.107042,0.327076,-0.154771,0.0140546,-0.304581,-0.000128667,4.16523,-23.9137,6.31288,25.011,2.26104,2.24389,-0.0163725,-2.0135,-0.613418,-0.758876,1.00829,-0.645417,-0.565543,-0.454229,-0.0176779,-0.813041,-0.76097,0.236026,-0.724817,0.00465698,
0.0401476,-0.206445,-0.302547,-1.67131,-0.0408948,-0.163847,-0.382824,0.577439,-0.12152,0.526498,-0.293173,0.202961,-0.535402,0.0111711,0,0,0,0,0,0,0,0.0448978,-0.208612,-0.297697,-1.67306,-0.042136,1.40136,0.402384,0.352589,-0.107042,0.327076,-0.154771,0.0140546,-0.304581,-0.000128667,4.16523,-23.9137,6.31288,25.011,2.26104,2.24389,-0.0163725,-2.0135,-0.613418,-0.758876,1.00829,-0.645417,-0.565543,-0.454229,-0.0176779,-0.813041,-0.76097,0.236026,-0.724817,0.00465698,
0.0426076,-0.206873,-0.300269,-1.67251,-0.0397641,-0.166032,-0.382782,0.614982,-0.107081,0.569288,-0.300623,0.282667,-0.546362,0.0105555,0,0,0,0,0,0,0,0.0448978,-0.208612,-0.297697,-1.67306,-0.042136,1.40136,0.402384,0.352589,-0.107042,0.327076,-0.154771,0.0140546,-0.304581,-0.000128667,4.16523,-23.9137,6.31288,25.011,2.26104,2.24389,-0.0163725,-2.39734,0.419896,-1.13937,0.327963,-0.851683,-0.141163,-0.0174968,-0.0838392,-0.338629,-0.822051,0.336357,-0.694489,0.00103679,
0.0451957,-0.207243,-0.297847,-1.67374,-0.0383206,-0.168227,-0.382742,0.647047,-0.0923855,0.605533,-0.305307,0.360892,-0.548631,0.0100372,0,0,0,0,0,0,0,0.0448978,-0.208612,-0.297697,-1.67306,-0.042136,1.40136,0.402384,0.352589,-0.107042,0.327076,-0.154771,0.0140546,-0.304581,-0.000128667,4.16523,-23.9137,6.31288,25.011,2.26104,2.24389,-0.0163725,-2.39734,0.419896,-1.13937,0.327963,-0.851683,-0.141163,-0.0174968,-0.0838392,-0.338629,-0.822051,0.336357,-0.694489,0.00103679,
0.0478944,-0.207555,-0.295301,-1.67497,-0.036579,-0.170404,-0.382704,0.674668,-0.0781791,0.636545,-0.308226,0.435396,-0.54446,0.0095881,0,0,0,0,0,0,0,0.0448978,-0.208612,-0.297697,-1.67306,-0.042136,1.40136,0.402384,0.352589,-0.107042,0.327076,-0.154771,0.0140546,-0.304581,-0.000128667,4.16523,-23.9137,6.31288,25.011,2.26104,2.24389,-0.0163725,-1.51477,2.61587,-0.888339,-1.22144,-0.290372,0.974211,1.00452,0.230102,0.998111,-0.84545,0.566157,-0.708571,-0.00479534,
0.035706,-0.205422,-0.306554,-1.66902,-0.0422091,-0.159653,-0.382917,0.479255,-0.141526,0.413351,-0.258622,0.0570646,-0.476682,0.0130678,0,0,0,0,0,0,0,0.0448978,-0.208612,-0.297697,-1.67306,-0.042136,1.40136,0.402384,0.352589,-0.107042,0.327076,-0.154771,0.0140546,-0.304581,-0.000128667,4.16523,-23.9137,6.31288,25.011,2.26104,2.24389,-0.0163725,-2.52601,1.09215,-0.616431,-0.215561,-1.16277,0.152686,0.201133,-0.332372,0.0815183,-0.600906,0.410103,-0.6834,-0.00157741,
0.0510471,-0.210159,-0.292282,-1.67616,-0.0408555,-0.173897,-0.382851,0.564387,-0.122036,0.510354,-0.279324,0.175858,-0.408771,0.0125655,0,0,0,0,0,0,0,0.0560576,-0.211866,-0.288008,-1.67822,-0.0418695,1.39321,0.40239,0.377087,-0.105662,0.349922,-0.191949,0.0158413,-0.222298,0.00044161,4.59766,-23.5646,6.2137,23.912,1.8637,2.33727,-0.0227812,-2.52601,1.09215,-0.616431,-0.215561,-1.16277,0.152686,0.201133,-0.332372,0.0815183,-0.600906,0.410103,-0.6834,-0.00157741,
0.0534648,-0.210594,-0.290057,-1.67731,-0.0398388,-0.175634,-0.382804,0.604418,-0.108835,0.556371,-0.287666,0.254165,-0.434321,0.011682,0,0,0,0,0,0,0,0.0560576,-0.211866,-0.288008,-1.67822,-0.0418695,1.39321,0.40239,0.377087,-0.105662,0.349922,-0.191949,0.0158413,-0.222298,0.00044161,4.59766,-23.5646,6.2137,23.912,1.8637,2.33727,-0.0227812,-2.55136,-1.15984,-1.18495,1.40316,-0.982642,-0.856798,-0.72091,-0.20189,-1.16414,-0.751514,0.201394,-0.620857,0.00112322,
0.0560183,-0.210974,-0.287677,-1.67848,-0.0385087,-0.177435,-0.38276,0.638374,-0.0948789,0.595109,-0.292799,0.332532,-0.450263,0.0109685,0,0,0,0,0,0,0,0.0560576,-0.211866,-0.288008,-1.67822,-0.0418695,1.39321,0.40239,0.377087,-0.105662,0.349922,-0.191949,0.0158413,-0.222298,0.00044161,4.59766,-23.5646,6.2137,23.912,1.8637,2.33727,-0.0227812,-2.55136,-1.15984,-1.18495,1.40316,-0.982642,-0.856798,-0.72091,-0.20189,-1.16414,-0.751514,0.201394,-0.620857,0.00112322,
0.0586881,-0.211298,-0.285164,-1.67967,-0.0368761,-0.179268,-0.382718,0.667468,-0.0811821,0.628062,-0.296152,0.408142,-0.458168,0.0104344,0,0,0,0,0,0,0,0.0560576,-0.211866,-0.288008,-1.67822,-0.0418695,1.39321,0.40239,0.377087,-0.105662,0.349922,-0.191949,0.0158413,-0.222298,0.00044161,4.59766,-23.5646,6.2137,23.912,1.8637,2.33727,-0.0227812,-1.41381,1.2317,-1.51106,-0.196459,-0.000122606,0.380908,0.472366,0.450618,0.243934,-1.03577,0.460328,-0.645872,-0.005798,
0.0614585,-0.211571,-0.282539,-1.68086,-0.0349586,-0.181107,-0.382678,0.692582,-0.0681823,0.656335,-0.29832,0.47938,-0.45966,0.0100298,0,0,0,0,0,0,0,0.0560576,-0.211866,-0.288008,-1.67822,-0.0418695,1.39321,0.40239,0.377087,-0.105662,0.349922,-0.191949,0.0158413,-0.222298,0.00044161,4.59766,-23.5646,6.2137,23.912,1.8637,2.33727,-0.0227812,-1.41381,1.2317,-1.51106,-0.196459,-0.000122606,0.380908,0.472366,0.450618,0.243934,-1.03577,0.460328,-0.645872,-0.005798,
0.064316,-0.211795,-0.279816,-1.68206,-0.032777,-0.182931,-0.382639,0.714383,-0.0560676,0.680766,-0.299587,0.545399,-0.456109,0.00968442,0,0,0,0,0,0,0,0.0686034,-0.215491,-0.27599,-1.68482,-0.0411465,1.38796,0.402396,0.399551,-0.104245,0.366558,-0.209201,0.0290776,-0.115414,8.7699e-06,4.82379,-23.2155,6.41206,24.2136,1.63208,2.41692,-0.0365141,-1.63768,0.748443,-1.10612,0.0808262,-0.26291,0.132749,0.173709,0.256961,0.0211421,-0.904458,0.407387,-0.691245,-0.00482735,
0.0487895,-0.209671,-0.294324,-1.67504,-0.0415589,-0.172262,-0.382901,0.516451,-0.13205,0.45501,-0.264034,0.102359,-0.373207,0.013699,0,0,0,0,0,0,0,0.0686034,-0.215491,-0.27599,-1.68482,-0.0411465,1.38796,0.402396,0.399551,-0.104245,0.366558,-0.209201,0.0290776,-0.115414,8.7699e-06,4.82379,-23.2155,6.41206,24.2136,1.63208,2.41692,-0.0365141,-2.26395,-0.403324,-1.31372,0.818458,-0.650888,-0.443942,-0.336112,0.0470881,-0.671663,-0.886725,0.22009,-0.671204,-0.00439303,
0.0750977,-0.216773,-0.270209,-1.68799,-0.0394568,-0.185682,-0.382836,0.588656,-0.0987644,0.536492,-0.276334,0.213164,-0.290219,0.0129089,0,0,0,0,0,0,0,0.0686034,-0.215491,-0.27599,-1.68482,-0.0411465,1.38796,0.402396,0.399551,-0.104245,0.366558,-0.209201,0.0290776,-0.115414,8.7699e-06,4.82379,-23.2155,6.41206,24.2136,1.63208,2.41692,-0.0365141,-2.26395,-0.403324,-1.31372,0.818458,-0.650888,-0.443942,-0.336112,0.0470881,-0.671663,-0.886725,0.22009,-0.671204,-0.00439303,
0.0776001,-0.217123,-0.267891,-1.68911,-0.0382919,-0.186988,-0.382787,0.625612,-0.087388,0.579324,-0.28201,0.291243,-0.326489,0.0120472,0,0,0,0,0,0,0,0.0686034,-0.215491,-0.27599,-1.68482,-0.0411465,1.38796,0.402396,0.399551,-0.104245,0.366558,-0.209201,0.0290776,-0.115414,8.7699e-06,4.82379,-23.2155,6.41206,24.2136,1.63208,2.41692,-0.0365141,-1.35359,-0.340167,-1.65377,0.806871,0.154318,-0.298722,-0.173826,0.543189,-0.555032,-1.09365,0.239766,-0.640808,-0.0082796,
0.0802282,-0.217426,-0.26543,-1.69026,-0.0368189,-0.188395,-0.382742,0.657025,-0.075697,0.615437,-0.285819,0.368231,-0.351652,0.0113911,0,0,0,0,0,0,0,0.0686034,-0.215491,-0.27599,-1.68482,-0.0411465,1.38796,0.402396,0.399551,-0.104245,0.366558,-0.209201,0.0290776,-0.115414,8.7699e-06,4.82379,-23.2155,6.41206,24.2136,1.63208,2.41692,-0.0365141,-1.35359,-0.340167,-1.65377,0.806871,0.154318,-0.298722,-0.173826,0.543189,-0.555032,-1.09365,0.239766,-0.640808,-0.0082796,
0.082964,-0.217683,-0.262845,-1.69141,-0.0350516,-0.189865,-0.382699,0.683952,-0.0642863,0.646168,-0.288448,0.441845,-0.36761,0.0108468,0,0,0,0,0,0,0,0.0686034,-0.215491,-0.27599,-1.68482,-0.0411465,1.38796,0.402396,0.399551,-0.104245,0.366558,-0.209201,0.0290776,-0.115414,8.7699e-06,4.82379,-23.2155,6.41206,24.2136,1.63208,2.41692,-0.0365141,-1.33906,1.4172,-0.651796,-0.403211,-0.213916,0.500495,0.593931,0.220369,0.391547,-0.769109,0.509985,-0.684287,-0.00876738,
0.0857928,-0.217897,-0.260155,-1.69257,-0.0330084,-0.19137,-0.382657,0.707188,-0.053435,0.672529,-0.290187,0.510783,-0.376111,0.0103885,0,0,0,0,0,0,0,0.0815429,-0.218427,-0.263962,-1.69088,-0.0385926,1.38509,0.402401,0.428707,-0.0810813,0.377281,-0.197616,0.0504055,-0.0560872,0.000331449,0.134464,-24.8619,2.48842,26.0822,0.819088,2.45629,-0.0301054,-1.33906,1.4172,-0.651796,-0.403211,-0.213916,0.500495,0.593931,0.220369,0.391547,-0.769109,0.509985,-0.684287,-0.00876738,
0.0727431,-0.216378,-0.272355,-1.68688,-0.0403095,-0.184521,-0.382887,0.544638,-0.108483,0.485165,-0.266981,0.137785,-0.241326,0.0140314,0,0,0,0,0,0,0,0.0815429,-0.218427,-0.263962,-1.69088,-0.0385926,1.38509,0.402401,0.428707,-0.0810813,0.377281,-0.197616,0.0504055,-0.0560872,0.000331449,0.134464,-24.8619,2.48842,26.0822,0.819088,2.45629,-0.0301054,-1.03584,0.457674,0.825007,0.0872976,-0.583222,0.0900172,0.127779,-0.260163,0.00894168,-0.179674,0.409148,-0.613076,-0.00603367,
0.0882035,-0.219513,-0.258001,-1.69398,-0.0366101,-0.187765,-0.382824,0.600545,-0.0846221,0.549584,-0.27004,0.236859,-0.225688,0.0135369,0,0,0,0,0,0,0,0.0815429,-0.218427,-0.263962,-1.69088,-0.0385926,1.38509,0.402401,0.428707,-0.0810813,0.377281,-0.197616,0.0504055,-0.0560872,0.000331449,0.134464,-24.8619,2.48842,26.0822,0.819088,2.45629,-0.0301054,-1.09418,-0.673271,-0.139153,0.837161,-0.218866,-0.414679,-0.338813,0.0852095,-0.603978,-0.533565,0.186441,-0.616483,-0.00524722,
0.0907477,-0.219813,-0.255638,-1.69508,-0.0353563,-0.188824,-0.382773,0.636052,-0.0749753,0.590883,-0.275212,0.313447,-0.264705,0.0126392,0,0,0,0,0,0,0,0.0815429,-0.218427,-0.263962,-1.69088,-0.0385926,1.38509,0.402401,0.428707,-0.0810813,0.377281,-0.197616,0.0504055,-0.0560872,0.000331449,0.134464,-24.8619,2.48842,26.0822,0.819088,2.45629,-0.0301054,-1.09418,-0.673271,-0.139153,0.837161,-0.218866,-0.414679,-0.338813,0.0852095,-0.603978,-0.533565,0.186441,-0.616483,-0.00524722,
0.0934126,-0.220072,-0.253135,-1.69619,-0.0338015,-0.189995,-0.382725,0.666217,-0.0648356,0.625696,-0.278567,0.388711,-0.292706,0.0119103,0,0,0,0,0,0,0,0.0815429,-0.218427,-0.263962,-1.69088,-0.0385926,1.38509,0.402401,0.428707,-0.0810813,0.377281,-0.197616,0.0504055,-0.0560872,0.000331449,0.134464,-24.8619,2.48842,26.0822,0.819088,2.45629,-0.0301054,-1.77336,0.834496,-0.283021,-0.170675,-0.67246,0.222997,0.325805,-0.0974351,0.109973,-0.555439,0.341125,-0.656524,-0.00703685,
0.0961808,-0.220291,-0.250514,-1.69732,-0.0319594,-0.191241,-0.38268,0.692061,-0.0548225,0.655313,-0.280836,0.460515,-0.311354,0.0113051,0,0,0,0,0,0,0,0.0956652,-0.220803,-0.250655,-1.69719,-0.0355597,1.38394,0.402407,0.459158,-0.0640882,0.395536,-0.185406,0.0727365,-0.0100127,0.00298118,-0.603451,-25.338,1.36171,26.0822,1.32629,2.23748,-0.0163725,-1.77336,0.834496,-0.283021,-0.170675,-0.67246,0.222997,0.325805,-0.0974351,0.109973,-0.555439,0.341125,-0.656524,-0.00703685,
0.0990382,-0.220472,-0.247791,-1.69844,-0.0298488,-0.19253,-0.382637,0.714349,-0.0452229,0.680705,-0.282302,0.527648,-0.322319,0.0107936,0,0,0,0,0,0,0,0.0956652,-0.220803,-0.250655,-1.69719,-0.0355597,1.38394,0.402407,0.459158,-0.0640882,0.395536,-0.185406,0.0727365,-0.0100127,0.00298118,-0.603451,-25.338,1.36171,26.0822,1.32629,2.23748,-0.0163725,-1.4871,2.11267,0.374501,-0.979773,-0.708601,0.82865,0.881991,-0.187608,0.828953,-0.374849,0.593628,-0.679647,-0.00932204,
0.0858013,-0.219174,-0.2602,-1.6929,-0.0375576,-0.186863,-0.382878,0.55824,-0.0923307,0.500081,-0.261008,0.162497,-0.174761,0.0146304,0,0,0,0,0,0,0,0.0956652,-0.220803,-0.250655,-1.69719,-0.0355597,1.38394,0.402407,0.459158,-0.0640882,0.395536,-0.185406,0.0727365,-0.0100127,0.00298118,-0.603451,-25.338,1.36171,26.0822,1.32629,2.23748,-0.0163725,-1.42826,-0.0513792,-0.567126,0.578101,-0.239463,-0.157187,-0.0774706,0.172016,-0.34795,-0.751186,0.386408,-0.70913,-0.004596,
0.102518,-0.221736,-0.244475,-1.70018,-0.0332408,-0.188291,-0.382813,0.614096,-0.0734557,0.565236,-0.262471,0.264957,-0.1739,0.013884,0,0,0,0,0,0,0,0.0956652,-0.220803,-0.250655,-1.69719,-0.0355597,1.38394,0.402407,0.459158,-0.0640882,0.395536,-0.185406,0.0727365,-0.0100127,0.00298118,-0.603451,-25.338,1.36171,26.0822,1.32629,2.23748,-0.0163725,-1.42826,-0.0513792,-0.567126,0.578101,-0.239463,-0.157187,-0.0774706,0.172016,-0.34795,-0.751186,0.386408,-0.70913,-0.004596,
0.105109,-0.221996,-0.242057,-1.70125,-0.0318798,-0.189147,-0.382761,0.647802,-0.0650283,0.604487,-0.267563,0.34025,-0.213864,0.0129554,0,0,0,0,0,0,0,0.0956652,-0.220803,-0.250655,-1.69719,-0.0355597,1.38394,0.402407,0.459158,-0.0640882,0.395536,-0.185406,0.0727365,-0.0100127,0.00298118,-0.603451,-25.338,1.36171,26.0822,1.32629,2.23748,-0.0163725,-2.40676,-2.27729,-1.53497,2.09402,-0.602165,-1.24297,-1.10412,0.0446675,-1.62562,-0.966477,0.0978139,-0.69146,-0.00292379,
0.107815,-0.22222,-0.239507,-1.70234,-0.0302249,-0.190119,-0.382713,0.676453,-0.0559955,0.63761,-0.270787,0.413738,-0.243027,0.0121961,0,0,0,0,0,0,0,0.0956652,-0.220803,-0.250655,-1.69719,-0.0355597,1.38394,0.402407,0.459158,-0.0640882,0.395536,-0.185406,0.0727365,-0.0100127,0.00298118,-0.603451,-25.338,1.36171,26.0822,1.32629,2.23748,-0.0163725,-2.40676,-2.27729,-1.53497,2.09402,-0.602165,-1.24297,-1.10412,0.0446675,-1.62562,-0.966477,0.0978139,-0.69146,-0.00292379,
0.110619,-0.222408,-0.236843,-1.70343,-0.0282908,-0.19117,-0.382666,0.70101,-0.0469921,0.665812,-0.272929,0.483528,-0.262904,0.0115616,0,0,0,0,0,0,0,0.110066,-0.222442,-0.236852,-1.70249,-0.0326398,1.38397,0.402414,0.477749,-0.0393864,0.46224,-0.152585,0.146509,0.00509349,0.000772285,0.868412,-25.1634,2.53602,24.8087,1.82068,1.93261,-0.0301054,-1.71116,1.19829,-1.33386,-0.268695,-0.192923,0.418324,0.497396,0.355445,0.303811,-0.990812,0.485514,-0.681294,-0.00999947,
0.113508,-0.222562,-0.234083,-1.70453,-0.0260965,-0.192271,-0.382622,0.722194,-0.0383096,0.690005,-0.274288,0.548561,-0.275099,0.0110225,0,0,0,0,0,0,0,0.110066,-0.222442,-0.236852,-1.70249,-0.0326398,1.38397,0.402414,0.477749,-0.0393864,0.46224,-0.152585,0.146509,0.00509349,0.000772285,0.868412,-25.1634,2.53602,24.8087,1.82068,1.93261,-0.0301054,-1.71116,1.19829,-1.33386,-0.268695,-0.192923,0.418324,0.497396,0.355445,0.303811,-0.990812,0.485514,-0.681294,-0.00999947,
0.100062,-0.221442,-0.246736,-1.69913,-0.0343007,-0.187595,-0.382869,0.573979,-0.0797733,0.51824,-0.253296,0.191033,-0.122593,0.0150098,0,0,0,0,0,0,0,0.110066,-0.222442,-0.236852,-1.70249,-0.0326398,1.38397,0.402414,0.477749,-0.0393864,0.46224,-0.152585,0.146509,0.00509349,0.000772285,0.868412,-25.1634,2.53602,24.8087,1.82068,1.93261,-0.0301054,-2.13976,0.681744,-0.688327,0.0571938,-0.713191,0.146167,0.187216,-0.0366235,0.0460284,-0.743774,0.460365,-0.728752,-0.00377981,
0.117274,-0.223219,-0.230242,-1.70533,-0.0294884,-0.187782,-0.382809,0.639697,-0.0627337,0.595282,-0.253011,0.331859,-0.129127,0.0135851,0,0,0,0,0,0,0,0.110066,-0.222442,-0.236852,-1.70249,-0.0326398,1.38397,0.402414,0.477749,-0.0393864,0.46224,-0.152585,0.146509,0.00509349,0.000772285,0.868412,-25.1634,2.53602,24.8087,1.82068,1.93261,-0.0301054,-2.80793,-0.247001,-1.256,0.627499,-1.02102,-0.297262,-0.18633,-0.158747,-0.499821,-0.839764,0.277214,-0.695118,-0.00299102,
0.119954,-0.223441,-0.227721,-1.70637,-0.0278767,-0.188454,-0.382758,0.669916,-0.0554046,0.630374,-0.258894,0.40291,-0.167896,0.0127039,0,0,0,0,0,0,0,0.110066,-0.222442,-0.236852,-1.70249,-0.0326398,1.38397,0.402414,0.477749,-0.0393864,0.46224,-0.152585,0.146509,0.00509349,0.000772285,0.868412,-25.1634,2.53602,24.8087,1.82068,1.93261,-0.0301054,-2.80793,-0.247001,-1.256,0.627499,-1.02102,-0.297262,-0.18633,-0.158747,-0.499821,-0.839764,0.277214,-0.695118,-0.00299102,
0.122736,-0.22363,-0.22508,-1.70742,-0.0259906,-0.189241,-0.38271,0.695629,-0.0472605,0.660064,-0.262419,0.471543,-0.196755,0.0119857,0,0,0,0,0,0,0,0.130403,-0.224023,-0.217284,-1.70954,-0.0269963,1.38423,0.402423,0.482958,-0.0317066,0.452017,-0.162488,0.131306,0.0200916,0.00059172,-1.21045,-25.1634,0.43733,24.8364,1.08184,1.51513,-0.0163725,-2.35669,1.48531,-1.84147,-0.508172,-0.443727,0.547971,0.661633,0.334477,0.432298,-1.14792,0.469047,-0.711785,-0.00755817,
0.125607,-0.223786,-0.222339,-1.70848,-0.0238456,-0.190108,-0.382665,0.717697,-0.0390552,0.685399,-0.26468,0.536249,-0.216802,0.0113839,0,0,0,0,0,0,0,0.130403,-0.224023,-0.217284,-1.70954,-0.0269963,1.38423,0.402423,0.482958,-0.0317066,0.452017,-0.162488,0.131306,0.0200916,0.00059172,-1.21045,-25.1634,0.43733,24.8364,1.08184,1.51513,-0.0163725,-2.35669,1.48531,-1.84147,-0.508172,-0.443727,0.547971,0.661633,0.334477,0.432298,-1.14792,0.469047,-0.711785,-0.00755817,
0.128554,-0.223911,-0.21951,-1.70954,-0.0214607,-0.191026,-0.382621,0.736758,-0.0311141,0.707176,-0.266089,0.596221,-0.229454,0.0108702,0,0,0,0,0,0,0,0.130403,-0.224023,-0.217284,-1.70954,-0.0269963,1.38423,0.402423,0.482958,-0.0317066,0.452017,-0.162488,0.131306,0.0200916,0.00059172,-1.21045,-25.1634,0.43733,24.8364,1.08184,1.51513,-0.0163725,-1.98344,0.148771,-1.6444,0.474221,-0.125398,-0.0577385,0.0103884,0.456398,-0.244416,-1.19746,0.436182,-0.805549,-0.00311539,
0.131567,-0.224005,-0.216606,-1.71061,-0.0188562,-0.19197,-0.38258,0.753302,-0.0235876,0.72601,-0.266826,0.651115,-0.236049,0.0104262,0,0,0,0,0,0,0,0.130403,-0.224023,-0.217284,-1.70954,-0.0269963,1.38423,0.402423,0.482958,-0.0317066,0.452017,-0.162488,0.131306,0.0200916,0.00059172,-1.21045,-25.1634,0.43733,24.8364,1.08184,1.51513,-0.0163725,-1.98344,0.148771,-1.6444,0.474221,-0.125398,-0.0577385,0.0103884,0.456398,-0.244416,-1.19746,0.436182,-0.805549,-0.00311539,
0.114715,-0.222968,-0.232623,-1.70432,-0.0308158,-0.187266,-0.382863,0.603681,-0.0673621,0.553418,-0.241703,0.261007,-0.0809368,0.0146833,0,0,0,0,0,0,0,0.130403,-0.224023,-0.217284,-1.70954,-0.0269963,1.38423,0.402423,0.482958,-0.0317066,0.452017,-0.162488,0.131306,0.0200916,0.00059172,-1.21045,-25.1634,0.43733,24.8364,1.08184,1.51513,-0.0163725,-2.35556,-0.946267,-1.58515,1.15286,-0.474846,-0.562269,-0.456919,0.184284,-0.830161,-1.06452,0.280712,-0.748045,-0.00418648,
0.137584,-0.224673,-0.210706,-1.71238,-0.0239734,-0.187324,-0.382794,0.63769,-0.0524491,0.593482,-0.250176,0.321996,-0.110163,0.014202,0,0,0,0,0,0,0,0.130403,-0.224023,-0.217284,-1.70954,-0.0269963,1.38423,0.402423,0.482958,-0.0317066,0.452017,-0.162488,0.131306,0.0200916,0.00059172,-1.21045,-25.1634,0.43733,24.8364,1.08184,1.51513,-0.0163725,-2.22204,-0.93856,-1.88228,1.11211,-0.307152,-0.535789,-0.407284,0.306332,-0.819767,-1.13603,0.24876,-0.691336,-0.00376731,
0.140257,-0.224857,-0.208189,-1.7134,-0.0223986,-0.187909,-0.382741,0.668298,-0.0459686,0.629164,-0.255179,0.393707,-0.146212,0.0132522,0,0,0,0,0,0,0,0.146368,-0.224794,-0.201608,-1.71467,-0.0212639,1.38482,0.402427,0.509016,-0.0177966,0.49055,-0.154793,0.24731,0.00619836,0.000150903,2.46723,-24.9889,4.23799,24.5111,1.8637,1.67351,-0.0163725,-2.22204,-0.93856,-1.88228,1.11211,-0.307152,-0.535789,-0.407284,0.306332,-0.819767,-1.13603,0.24876,-0.691336,-0.00376731,
0.143035,-0.225012,-0.205552,-1.71443,-0.0205466,-0.1886,-0.382691,0.69434,-0.0387013,0.659346,-0.258091,0.462977,-0.17278,0.0124666,0,0,0,0,0,0,0,0.146368,-0.224794,-0.201608,-1.71467,-0.0212639,1.38482,0.402427,0.509016,-0.0177966,0.49055,-0.154793,0.24731,0.00619836,0.000150903,2.46723,-24.9889,4.23799,24.5111,1.8637,1.67351,-0.0163725,-2.45989,1.76164,-1.15246,-0.739582,-0.77998,0.719161,0.801452,0.0583473,0.664751,-0.875438,0.541197,-0.694592,-0.00799712,
0.145901,-0.225137,-0.202812,-1.71547,-0.0184334,-0.189364,-0.382644,0.716676,-0.0313323,0.685085,-0.259872,0.528303,-0.190976,0.0118034,0,0,0,0,0,0,0,0.146368,-0.224794,-0.201608,-1.71467,-0.0212639,1.38482,0.402427,0.509016,-0.0177966,0.49055,-0.154793,0.24731,0.00619836,0.000150903,2.46723,-24.9889,4.23799,24.5111,1.8637,1.67351,-0.0163725,-2.45989,1.76164,-1.15246,-0.739582,-0.77998,0.719161,0.801452,0.0583473,0.664751,-0.875438,0.541197,-0.694592,-0.00799712,
0.148845,-0.225234,-0.199983,-1.71651,-0.016078,-0.190173,-0.382599,0.73595,-0.0241659,0.707191,-0.260885,0.58887,-0.20217,0.0112346,0,0,0,0,0,0,0,0.146368,-0.224794,-0.201608,-1.71467,-0.0212639,1.38482,0.402427,0.509016,-0.0177966,0.49055,-0.154793,0.24731,0.00619836,0.000150903,2.46723,-24.9889,4.23799,24.5111,1.8637,1.67351,-0.0163725,-1.87223,3.88986,-0.453033,-2.17926,-0.641666,1.73018,1.75318,0.118876,1.86275,-0.670805,0.79371,-0.655603,-0.00945234,
0.135033,-0.224464,-0.21308,-1.71137,-0.0252614,-0.186883,-0.382851,0.60127,-0.0564648,0.550917,-0.240403,0.250409,-0.0648908,0.0153437,0,0,0,0,0,0,0,0.146368,-0.224794,-0.201608,-1.71467,-0.0212639,1.38482,0.402427,0.509016,-0.0177966,0.49055,-0.154793,0.24731,0.00619836,0.000150903,2.46723,-24.9889,4.23799,24.5111,1.8637,1.67351,-0.0163725,-1.87223,3.88986,-0.453033,-2.17926,-0.641666,1.73018,1.75318,0.118876,1.86275,-0.670805,0.79371,-0.655603,-0.00945234,
0.15383,-0.225313,-0.194702,-1.71745,-0.0171262,-0.18665,-0.382794,0.658309,-0.0423734,0.61738,-0.245634,0.404356,-0.0949981,0.0138517,0,0,0,0,0,0,0,0.162632,-0.224968,-0.186228,-1.71967,-0.0147858,1.38508,0.402437,0.522815,-0.00126792,0.516229,-0.149372,0.238204,-0.00435958,0.00080866,2.13398,-25.5364,3.23823,24.7372,1.38122,2.24389,-0.0301054,-1.89163,-0.891964,-0.842972,1.0404,-0.559805,-0.490986,-0.424414,-0.0534972,-0.700126,-0.666766,0.301087,-0.572083,0.00245001,
0.156576,-0.225459,-0.192101,-1.71845,-0.0152596,-0.187154,-0.382742,0.68651,-0.0365887,0.650381,-0.250368,0.466655,-0.125949,0.0129405,0,0,0,0,0,0,0,0.162632,-0.224968,-0.186228,-1.71967,-0.0147858,1.38508,0.402437,0.522815,-0.00126792,0.516229,-0.149372,0.238204,-0.00435958,0.00080866,2.13398,-25.5364,3.23823,24.7372,1.38122,2.24389,-0.0301054,-2.62764,-1.72875,-1.13039,1.57604,-1.05154,-0.875994,-0.752077,-0.345942,-1.17073,-0.637993,0.185969,-0.526871,0.00339092,
0.159418,-0.225579,-0.189388,-1.71946,-0.01315,-0.187748,-0.382693,0.710443,-0.0299875,0.67823,-0.25296,0.527394,-0.148618,0.0121861,0,0,0,0,0,0,0,0.162632,-0.224968,-0.186228,-1.71967,-0.0147858,1.38508,0.402437,0.522815,-0.00126792,0.516229,-0.149372,0.238204,-0.00435958,0.00080866,2.13398,-25.5364,3.23823,24.7372,1.38122,2.24389,-0.0301054,-2.62764,-1.72875,-1.13039,1.57604,-1.05154,-0.875994,-0.752077,-0.345942,-1.17073,-0.637993,0.185969,-0.526871,0.00339092,
0.162342,-0.225672,-0.18658,-1.72048,-0.0108098,-0.188404,-0.382647,0.730922,-0.0232678,0.701928,-0.25443,0.585035,-0.163851,0.0115509,0,0,0,0,0,0,0,0.162632,-0.224968,-0.186228,-1.71967,-0.0147858,1.38508,0.402437,0.522815,-0.00126792,0.516229,-0.149372,0.238204,-0.00435958,0.00080866,2.13398,-25.5364,3.23823,24.7372,1.38122,2.24389,-0.0301054,-1.85338,1.4196,-0.879579,-0.499331,-0.577628,0.606885,0.686754,0.0404789,0.529016,-0.656788,0.567155,-0.505833,-0.00110835,
0.165336,-0.225739,-0.183691,-1.7215,-0.00825499,-0.189095,-0.382603,0.748557,-0.0167326,0.722242,-0.255163,0.638713,-0.17283,0.0110017,0,0,0,0,0,0,0,0.162632,-0.224968,-0.186228,-1.71967,-0.0147858,1.38508,0.402437,0.522815,-0.00126792,0.516229,-0.149372,0.238204,-0.00435958,0.00080866,2.13398,-25.5364,3.23823,24.7372,1.38122,2.24389,-0.0301054,-1.85338,1.4196,-0.879579,-0.499331,-0.577628,0.606885,0.686754,0.0404789,0.529016,-0.656788,0.567155,-0.505833,-0.00110835,
0.168391,-0.225781,-0.180732,-1.72252,-0.00550295,-0.189802,-0.382561,0.763819,-0.0105238,0.739761,-0.255325,0.688011,-0.176693,0.0105367,0,0,0,0,0,0,0,0.162632,-0.224968,-0.186228,-1.71967,-0.0147858,1.38508,0.402437,0.522815,-0.00126792,0.516229,-0.149372,0.238204,-0.00435958,0.00080866,2.13398,-25.5364,3.23823,24.7372,1.38122,2.24389,-0.0301054,-1.76437,1.04259,-1.11342,-0.251985,-0.401338,0.435332,0.482463,0.164666,0.356993,-0.759822,0.535216,-0.514584,0.000665383,
0.151197,-0.225143,-0.197172,-1.71647,-0.0187436,-0.18627,-0.382849,0.624641,-0.0456036,0.577933,-0.235903,0.343051,-0.0564447,0.0149497,0,0,0,0,0,0,0,0.179038,-0.224841,-0.170028,-1.72446,-0.00770974,1.38529,0.402438,0.504881,0.0048762,0.50292,-0.145196,0.228326,0.00279485,0.000758115,3.76056,-26.8337,4.38875,24.9356,1.60095,2.21734,-0.0163725,-1.76437,1.04259,-1.11342,-0.251985,-0.401338,0.435332,0.482463,0.164666,0.356993,-0.759822,0.535216,-0.514584,0.000665383,
0.18652,-0.225157,-0.16307,-1.7272,-0.00369813,-0.185988,-0.382779,0.659666,-0.027205,0.621097,-0.243046,0.396672,-0.073475,0.0140985,0,0,0,0,0,0,0,0.179038,-0.224841,-0.170028,-1.72446,-0.00770974,1.38529,0.402438,0.504881,0.0048762,0.50292,-0.145196,0.228326,0.00279485,0.000758115,3.76056,-26.8337,4.38875,24.9356,1.60095,2.21734,-0.0163725,-2.07579,-0.117053,-1.98243,0.446132,-0.344158,-0.0793882,0.0360846,0.262546,-0.277268,-0.990531,0.332363,-0.467807,0.00107437,
0.189271,-0.225247,-0.160455,-1.72819,-0.00185628,-0.186392,-0.382727,0.687664,-0.0227066,0.653831,-0.247594,0.460462,-0.101182,0.0131647,0,0,0,0,0,0,0,0.179038,-0.224841,-0.170028,-1.72446,-0.00770974,1.38529,0.402438,0.504881,0.0048762,0.50292,-0.145196,0.228326,0.00279485,0.000758115,3.76056,-26.8337,4.38875,24.9356,1.60095,2.21734,-0.0163725,-2.3649,-1.51024,-1.85748,1.40211,-0.632121,-0.725979,-0.637929,-0.020656,-0.984606,-0.866838,0.233225,-0.444102,0.00249347,
0.192117,-0.225316,-0.157729,-1.72919,0.000232365,-0.186879,-0.382677,0.711456,-0.0172627,0.68152,-0.249845,0.52216,-0.121532,0.0123798,0,0,0,0,0,0,0,0.179038,-0.224841,-0.170028,-1.72446,-0.00770974,1.38529,0.402438,0.504881,0.0048762,0.50292,-0.145196,0.228326,0.00279485,0.000758115,3.76056,-26.8337,4.38875,24.9356,1.60095,2.21734,-0.0163725,-2.3649,-1.51024,-1.85748,1.40211,-0.632121,-0.725979,-0.637929,-0.020656,-0.984606,-0.866838,0.233225,-0.444102,0.00249347,
0.195044,-0.225363,-0.154908,-1.73019,0.00255405,-0.187419,-0.38263,0.731831,-0.0116116,0.705118,-0.250938,0.580421,-0.135092,0.0117235,0,0,0,0,0,0,0,0.179038,-0.224841,-0.170028,-1.72446,-0.00770974,1.38529,0.402438,0.504881,0.0048762,0.50292,-0.145196,0.228326,0.00279485,0.000758115,3.76056,-26.8337,4.38875,24.9356,1.60095,2.21734,-0.0163725,-2.33981,2.45776,-1.4537,-1.30545,-0.726159,1.13601,1.1486,0.146606,1.20128,-0.822707,0.611758,-0.47807,-0.00349515,
0.198041,-0.225387,-0.152006,-1.7312,0.00509238,-0.18799,-0.382586,0.749157,-0.0060632,0.725493,-0.251307,0.634584,-0.142874,0.0111334,0,0,0,0,0,0,0,0.196503,-0.224734,-0.153105,-1.7293,0.00134213,1.38561,0.402444,0.518063,0.00656571,0.506973,-0.149712,0.230372,0.0200781,-0.000234774,0.765262,-26.9606,1.68703,24.8602,1.13678,2.09832,0.00376909,-2.33981,2.45776,-1.4537,-1.30545,-0.726159,1.13601,1.1486,0.146606,1.20128,-0.822707,0.611758,-0.47807,-0.00349515,
0.201081,-0.22539,-0.149025,-1.7322,0.00783559,-0.188574,-0.382544,0.760184,-0.000669131,0.745322,-0.251177,0.685803,-0.145883,0.0105131,0,0,0,0,0,0,0,0.196503,-0.224734,-0.153105,-1.7293,0.00134213,1.38561,0.402444,0.518063,0.00656571,0.506973,-0.149712,0.230372,0.0200781,-0.000234774,0.765262,-26.9606,1.68703,24.8602,1.13678,2.09832,0.00376909,-2.0239,0.295643,-1.73634,0.0928779,-0.407587,0.137164,0.164649,0.221993,0.0574749,-0.894384,0.353998,-0.445824,0.00206295,
0.183881,-0.225048,-0.165554,-1.72622,-0.00528482,-0.185694,-0.382836,0.6263,-0.0288958,0.582114,-0.233027,0.333013,-0.0396365,0.0152179,0,0,0,0,0,0,0,0.196503,-0.224734,-0.153105,-1.7293,0.00134213,1.38561,0.402444,0.518063,0.00656571,0.506973,-0.149712,0.230372,0.0200781,-0.000234774,0.765262,-26.9606,1.68703,24.8602,1.13678,2.09832,0.00376909,-2.0239,0.295643,-1.73634,0.0928779,-0.407587,0.137164,0.164649,0.221993,0.0574749,-0.894384,0.353998,-0.445824,0.00206295,
0.20404,-0.224983,-0.146071,-1.73199,0.0054295,-0.185433,-0.382773,0.663364,-0.0212332,0.626574,-0.23805,0.403289,-0.0514056,0.0141931,0,0,0,0,0,0,0,0.196503,-0.224734,-0.153105,-1.7293,0.00134213,1.38561,0.402444,0.518063,0.00656571,0.506973,-0.149712,0.230372,0.0200781,-0.000234774,0.765262,-26.9606,1.68703,24.8602,1.13678,2.09832,0.00376909,-2.26925,-0.286123,-2.16245,0.39538,-0.504547,-0.100538,-0.00294983,0.181048,-0.256697,-0.948778,0.213062,-0.373449,0.00272744,
0.206804,-0.22505,-0.143437,-1.73296,0.00729615,-0.18574,-0.38272,0.690834,-0.0169622,0.658687,-0.242145,0.466663,-0.0767111,0.0132615,0,0,0,0,0,0,0,0.196503,-0.224734,-0.153105,-1.7293,0.00134213,1.38561,0.402444,0.518063,0.00656571,0.506973,-0.149712,0.230372,0.0200781,-0.000234774,0.765262,-26.9606,1.68703,24.8602,1.13678,2.09832,0.00376909,-2.28754,-0.457069,-2.29582,0.555025,-0.39613,-0.171992,-0.0733145,0.269425,-0.355285,-1.05879,0.263176,-0.436001,0.00196909,
0.20966,-0.225098,-0.140693,-1.73394,0.00940739,-0.18612,-0.38267,0.71398,-0.0118544,0.686013,-0.244129,0.527811,-0.0951595,0.0124504,0,0,0,0,0,0,0,0.213368,-0.224766,-0.136511,-1.73421,0.0106089,1.38608,0.40245,0.563064,-0.0027384,0.535277,-0.164518,0.290765,0.0294245,0.000662274,0.0828892,-26.31,1.11177,25.2094,1.71722,1.87951,-0.0026396,-2.28754,-0.457069,-2.29582,0.555025,-0.39613,-0.171992,-0.0733145,0.269425,-0.355285,-1.05879,0.263176,-0.436001,0.00196909,
0.212579,-0.225124,-0.137846,-1.73492,0.0117554,-0.18655,-0.382624,0.729843,-0.00648868,0.711573,-0.245077,0.586991,-0.107278,0.0116497,0,0,0,0,0,0,0,0.213368,-0.224766,-0.136511,-1.73421,0.0106089,1.38608,0.40245,0.563064,-0.0027384,0.535277,-0.164518,0.290765,0.0294245,0.000662274,0.0828892,-26.31,1.11177,25.2094,1.71722,1.87951,-0.0026396,-2.12017,1.04066,-2.1006,-0.35296,-0.25,0.511376,0.536392,0.44602,0.457115,-1.10471,0.536658,-0.506968,0.000651042,
0.215548,-0.225129,-0.134912,-1.7359,0.0143252,-0.187006,-0.38258,0.742397,-0.001223,0.733542,-0.245328,0.642449,-0.114052,0.010962,0,0,0,0,0,0,0,0.213368,-0.224766,-0.136511,-1.73421,0.0106089,1.38608,0.40245,0.563064,-0.0027384,0.535277,-0.164518,0.290765,0.0294245,0.000662274,0.0828892,-26.31,1.11177,25.2094,1.71722,1.87951,-0.0026396,-2.12017,1.04066,-2.1006,-0.35296,-0.25,0.511376,0.536392,0.44602,0.457115,-1.10471,0.536658,-0.506968,0.000651042,
0.218558,-0.225113,-0.131902,-1.73688,0.0170996,-0.187471,-0.382538,0.752303,0.00378547,0.752457,-0.245071,0.69362,-0.116418,0.0103783,0,0,0,0,0,0,0,0.213368,-0.224766,-0.136511,-1.73421,0.0106089,1.38608,0.40245,0.563064,-0.0027384,0.535277,-0.164518,0.290765,0.0294245,0.000662274,0.0828892,-26.31,1.11177,25.2094,1.71722,1.87951,-0.0026396,-1.96363,-0.0931571,-2.35241,0.287905,-0.0692666,0.000659986,0.0185999,0.512444,-0.0985875,-1.17056,0.330404,-0.481722,0.000897995,
0.201387,-0.224898,-0.148578,-1.73104,0.00381634,-0.185227,-0.38283,0.630709,-0.0230034,0.588391,-0.228985,0.339614,-0.0203057,0.0152896,0,0,0,0,0,0,0,0.213368,-0.224766,-0.136511,-1.73421,0.0106089,1.38608,0.40245,0.563064,-0.0027384,0.535277,-0.164518,0.290765,0.0294245,0.000662274,0.0828892,-26.31,1.11177,25.2094,1.71722,1.87951,-0.0026396,-1.96363,-0.0931571,-2.35241,0.287905,-0.0692666,0.000659986,0.0185999,0.512444,-0.0985875,-1.17056,0.330404,-0.481722,0.000897995,
0.221183,-0.224997,-0.129145,-1.73688,0.0154174,-0.184847,-0.382776,0.682581,-0.0178862,0.650305,-0.232875,0.460122,-0.0380356,0.0136278,0,0,0,0,0,0,0,0.213368,-0.224766,-0.136511,-1.73421,0.0106089,1.38608,0.40245,0.563064,-0.0027384,0.535277,-0.164518,0.290765,0.0294245,0.000662274,0.0828892,-26.31,1.11177,25.2094,1.71722,1.87951,-0.0026396,-1.27168,-1.2117,-2.51477,0.921524,0.420263,-0.513974,-0.423278,0.700723,-0.732253,-1.1966,0.10882,-0.396827,-0.00057487,
0.223996,-0.225049,-0.126419,-1.73782,0.0175,-0.185083,-0.382725,0.703213,-0.0130516,0.681616,-0.236349,0.520668,-0.0589378,0.0126466,0,0,0,0,0,0,0,0.231359,-0.224746,-0.118487,-1.73935,0.0199291,1.38723,0.402454,0.54652,0.000139763,0.555294,-0.152798,0.347247,0.0216749,-0.000556507,1.67774,-26.433,2.41304,25.3085,2.06512,1.89965,0.00376909,-1.10479,1.11846,-2.31842,-0.603244,0.490355,0.565202,0.645092,0.886634,0.489023,-1.18154,0.380499,-0.390127,-0.00708491,
0.226875,-0.22508,-0.123586,-1.73878,0.0198165,-0.185378,-0.382678,0.719654,-0.00771221,0.708252,-0.238077,0.57912,-0.0737671,0.011812,0,0,0,0,0,0,0,0.231359,-0.224746,-0.118487,-1.73935,0.0199291,1.38723,0.402454,0.54652,0.000139763,0.555294,-0.152798,0.347247,0.0216749,-0.000556507,1.67774,-26.433,2.41304,25.3085,2.06512,1.89965,0.00376909,-1.10479,1.11846,-2.31842,-0.603244,0.490355,0.565202,0.645092,0.886634,0.489023,-1.18154,0.380499,-0.390127,-0.00708491,
0.229806,-0.22509,-0.120662,-1.73973,0.0223535,-0.18571,-0.382634,0.73277,-0.00238572,0.730988,-0.238867,0.634249,-0.0830876,0.0111085,0,0,0,0,0,0,0,0.231359,-0.224746,-0.118487,-1.73935,0.0199291,1.38723,0.402454,0.54652,0.000139763,0.555294,-0.152798,0.347247,0.0216749,-0.000556507,1.67774,-26.433,2.41304,25.3085,2.06512,1.89965,0.00376909,-1.89416,1.19866,-1.72777,-0.49983,-0.283052,0.627629,0.657318,0.361196,0.590468,-0.913003,0.549465,-0.420565,-0.00652985,
0.232779,-0.225079,-0.11766,-1.74069,0.025095,-0.186061,-0.382592,0.743181,0.00270957,0.750484,-0.239029,0.68536,-0.087768,0.0104977,0,0,0,0,0,0,0,0.231359,-0.224746,-0.118487,-1.73935,0.0199291,1.38723,0.402454,0.54652,0.000139763,0.555294,-0.152798,0.347247,0.0216749,-0.000556507,1.67774,-26.433,2.41304,25.3085,2.06512,1.89965,0.00376909,-1.89416,1.19866,-1.72777,-0.49983,-0.283052,0.627629,0.657318,0.361196,0.590468,-0.913003,0.549465,-0.420565,-0.00652985,
0.235784,-0.225049,-0.114591,-1.74164,0.0280235,-0.186416,-0.382552,0.751336,0.00747564,0.767288,-0.238705,0.732144,-0.0886533,0.0099572,0,0,0,0,0,0,0,0.231359,-0.224746,-0.118487,-1.73935,0.0199291,1.38723,0.402454,0.54652,0.000139763,0.555294,-0.152798,0.347247,0.0216749,-0.000556507,1.67774,-26.433,2.41304,25.3085,2.06512,1.89965,0.00376909,-2.08147,-0.280812,-1.58973,0.486599,-0.527971,-0.0408175,-0.0248525,0.0635472,-0.146315,-0.772754,0.406664,-0.380875,-0.00349524,
0.218453,-0.224925,-0.131746,-1.73595,0.0135769,-0.184695,-0.38283,0.65346,-0.0209061,0.615847,-0.225559,0.400158,-0.0116063,0.0146145,0,0,0,0,0,0,0,0.24841,-0.224433,-0.101366,-1.7439,0.0291965,1.3881,0.402462,0.543899,0.0158251,0.580179,-0.143708,0.331223,0.0181225,0.000914429,3.73279,-27.2066,3.66273,25.2332,1.41235,2.32995,-0.0227812,-1.94101,-1.52285,-1.41499,1.2411,-0.632375,-0.592934,-0.497354,-0.172388,-0.817156,-0.574523,0.182419,-0.260321,-0.00151408,
0.256282,-0.22453,-0.0937989,-1.74648,0.0343989,-0.182644,-0.382767,0.682245,-0.00807018,0.667041,-0.227675,0.492009,-0.01564,0.0131903,0,0,0,0,0,0,0,0.24841,-0.224433,-0.101366,-1.7439,0.0291965,1.3881,0.402462,0.543899,0.0158251,0.580179,-0.143708,0.331223,0.0181225,0.000914429,3.73279,-27.2066,3.66273,25.2332,1.41235,2.32995,-0.0227812,-1.94101,-1.52285,-1.41499,1.2411,-0.632375,-0.592934,-0.497354,-0.172388,-0.817156,-0.574523,0.182419,-0.260321,-0.00151408,
0.259086,-0.224545,-0.0910129,-1.7474,0.0365992,-0.182776,-0.382718,0.700979,-0.00396592,0.696496,-0.231526,0.550082,-0.0330853,0.0122789,0,0,0,0,0,0,0,0.24841,-0.224433,-0.101366,-1.7439,0.0291965,1.3881,0.402462,0.543899,0.0158251,0.580179,-0.143708,0.331223,0.0181225,0.000914429,3.73279,-27.2066,3.66273,25.2332,1.41235,2.32995,-0.0227812,-1.77404,0.886195,-1.47062,-0.374766,-0.466478,0.517309,0.595691,0.139039,0.448431,-0.651876,0.421718,-0.246119,-0.00688727,
0.26195,-0.224542,-0.088127,-1.74834,0.0390219,-0.182958,-0.382672,0.715997,0.00072063,0.721492,-0.233308,0.605673,-0.0456361,0.011498,0,0,0,0,0,0,0,0.24841,-0.224433,-0.101366,-1.7439,0.0291965,1.3881,0.402462,0.543899,0.0158251,0.580179,-0.143708,0.331223,0.0181225,0.000914429,3.73279,-27.2066,3.66273,25.2332,1.41235,2.32995,-0.0227812,-1.77404,0.886195,-1.47062,-0.374766,-0.466478,0.517309,0.595691,0.139039,0.448431,-0.651876,0.421718,-0.246119,-0.00688727,
0.264862,-0.224521,-0.0851557,-1.74927,0.0416532,-0.183172,-0.382628,0.727973,0.00541128,0.742829,-0.234028,0.657821,-0.0534748,0.0108167,0,0,0,0,0,0,0,0.24841,-0.224433,-0.101366,-1.7439,0.0291965,1.3881,0.402462,0.543899,0.0158251,0.580179,-0.143708,0.331223,0.0181225,0.000914429,3.73279,-27.2066,3.66273,25.2332,1.41235,2.32995,-0.0227812,-1.57509,2.35475,-1.81806,-1.29976,-0.0790827,1.16434,1.19014,0.564705,1.19828,-0.899176,0.671178,-0.306504,-0.00578241,
0.267812,-0.224481,-0.0821111,-1.75021,0.0444772,-0.183401,-0.382587,0.737425,0.00987584,0.761145,-0.234081,0.705996,-0.0572359,0.0102174,0,0,0,0,0,0,0,0.24841,-0.224433,-0.101366,-1.7439,0.0291965,1.3881,0.402462,0.543899,0.0158251,0.580179,-0.143708,0.331223,0.0181225,0.000914429,3.73279,-27.2066,3.66273,25.2332,1.41235,2.32995,-0.0227812,-1.59842,-0.974717,-2.03529,0.889062,-0.0778183,-0.36392,-0.350873,0.287109,-0.51257,-0.882434,0.344505,-0.282336,0.000796811,
0.253553,-0.224497,-0.0964671,-1.74557,0.0324309,-0.182581,-0.382819,0.658759,-0.0100797,0.632227,-0.219004,0.432998,0.00527063,0.0142688,0,0,0,0,0,0,0,0.271083,-0.223634,-0.0781541,-1.74969,0.0428554,1.38872,0.402462,0.539328,0.0264409,0.579855,-0.137004,0.332436,0.0180673,0.000638461,2.94727,-27.1074,2.96449,25.134,1.59546,2.12487,-0.0163725,-1.59842,-0.974717,-2.03529,0.889062,-0.0778183,-0.36392,-0.350873,0.287109,-0.51257,-0.882434,0.344505,-0.282336,0.000796811,
0.278821,-0.223631,-0.0705458,-1.75222,0.0480962,-0.181865,-0.382767,0.670627,-0.000567276,0.670322,-0.223907,0.494746,0.00218781,0.013188,0,0,0,0,0,0,0,0.271083,-0.223634,-0.0781541,-1.74969,0.0428554,1.38872,0.402462,0.539328,0.0264409,0.579855,-0.137004,0.332436,0.0180673,0.000638461,2.94727,-27.1074,2.96449,25.134,1.59546,2.12487,-0.0163725,-2.05786,-1.2436,-2.0052,0.980666,-0.527808,-0.412459,-0.331047,-0.00427678,-0.600771,-0.750983,0.218505,-0.211555,-0.000362425,
0.281578,-0.22362,-0.0677474,-1.75313,0.0503043,-0.181915,-0.382718,0.689272,0.00289947,0.699598,-0.227585,0.552026,-0.0125792,0.0122643,0,0,0,0,0,0,0,0.271083,-0.223634,-0.0781541,-1.74969,0.0428554,1.38872,0.402462,0.539328,0.0264409,0.579855,-0.137004,0.332436,0.0180673,0.000638461,2.94727,-27.1074,2.96449,25.134,1.59546,2.12487,-0.0163725,-2.05786,-1.2436,-2.0052,0.980666,-0.527808,-0.412459,-0.331047,-0.00427678,-0.600771,-0.750983,0.218505,-0.211555,-0.000362425,
0.284395,-0.223592,-0.0648496,-1.75405,0.0527315,-0.182008,-0.382672,0.70423,0.00698106,0.724447,-0.229143,0.606806,-0.0231935,0.0114614,0,0,0,0,0,0,0,0.271083,-0.223634,-0.0781541,-1.74969,0.0428554,1.38872,0.402462,0.539328,0.0264409,0.579855,-0.137004,0.332436,0.0180673,0.000638461,2.94727,-27.1074,2.96449,25.134,1.59546,2.12487,-0.0163725,-1.65683,0.570537,-2.40935,-0.259982,-0.0184991,0.387277,0.456278,0.530763,0.301532,-1.00276,0.412114,-0.227768,-0.00371341,
0.287259,-0.223547,-0.061867,-1.75496,0.0553642,-0.182127,-0.382629,0.71616,0.0110893,0.74566,-0.229639,0.658181,-0.0296441,0.0107599,0,0,0,0,0,0,0,0.271083,-0.223634,-0.0781541,-1.74969,0.0428554,1.38872,0.402462,0.539328,0.0264409,0.579855,-0.137004,0.332436,0.0180673,0.000638461,2.94727,-27.1074,2.96449,25.134,1.59546,2.12487,-0.0163725,-1.65683,0.570537,-2.40935,-0.259982,-0.0184991,0.387277,0.456278,0.530763,0.301532,-1.00276,0.412114,-0.227768,-0.00371341,
0.290162,-0.223487,-0.0588115,-1.75588,0.0581868,-0.182257,-0.382588,0.725575,0.0149946,0.763864,-0.229485,0.705644,-0.0324378,0.010143,0,0,0,0,0,0,0,0.288882,-0.222944,-0.0597827,-1.7539,0.0538,1.38939,0.402467,0.562286,0.0205639,0.57227,-0.128746,0.305335,0.0428059,0.000569245,1.07074,-27.3573,1.18715,24.9832,1.33819,2.00493,-0.00996382,-1.66778,2.52602,-2.57745,-1.53875,0.145826,1.2725,1.28145,0.870711,1.33763,-1.17212,0.675334,-0.286536,-0.0060737,
0.293093,-0.223413,-0.0556933,-1.7568,0.0611827,-0.182385,-0.38255,0.732882,0.0186055,0.77956,-0.22886,0.748983,-0.0321819,0.00959685,0,0,0,0,0,0,0,0.288882,-0.222944,-0.0597827,-1.7539,0.0538,1.38939,0.402467,0.562286,0.0205639,0.57227,-0.128746,0.305335,0.0428059,0.000569245,1.07074,-27.3573,1.18715,24.9832,1.33819,2.00493,-0.00996382,-1.84771,-1.09949,-2.2902,0.897901,-0.16249,-0.348718,-0.306695,0.278675,-0.516428,-0.954704,0.339783,-0.277766,0.0020001,
0.276138,-0.223629,-0.0732271,-1.75132,0.0461172,-0.181874,-0.38282,0.647348,-0.00186216,0.635703,-0.215222,0.436369,0.0193515,0.0142379,0,0,0,0,0,0,0,0.288882,-0.222944,-0.0597827,-1.7539,0.0538,1.38939,0.402467,0.562286,0.0205639,0.57227,-0.128746,0.305335,0.0428059,0.000569245,1.07074,-27.3573,1.18715,24.9832,1.33819,2.00493,-0.00996382,-1.84771,-1.09949,-2.2902,0.897901,-0.16249,-0.348718,-0.306695,0.278675,-0.516428,-0.954704,0.339783,-0.277766,0.0020001,
0.296541,-0.222972,-0.0520727,-1.75632,0.0589453,-0.180863,-0.382767,0.662358,-0.00225615,0.677432,-0.215209,0.491036,0.0309168,0.0130079,0,0,0,0,0,0,0,0.288882,-0.222944,-0.0597827,-1.7539,0.0538,1.38939,0.402467,0.562286,0.0205639,0.57227,-0.128746,0.305335,0.0428059,0.000569245,1.07074,-27.3573,1.18715,24.9832,1.33819,2.00493,-0.00996382,-1.47296,-1.05817,-2.62269,0.733647,0.146939,-0.342249,-0.257617,0.495344,-0.526841,-1.04128,0.226871,-0.200773,-0.000979195,
0.299262,-0.222965,-0.0492505,-1.7572,0.061147,-0.180796,-0.382718,0.680179,0.00172246,0.705546,-0.21916,0.550429,0.0169224,0.0121035,0,0,0,0,0,0,0,0.288882,-0.222944,-0.0597827,-1.7539,0.0538,1.38939,0.402467,0.562286,0.0205639,0.57227,-0.128746,0.305335,0.0428059,0.000569245,1.07074,-27.3573,1.18715,24.9832,1.33819,2.00493,-0.00996382,-1.47296,-1.05817,-2.62269,0.733647,0.146939,-0.342249,-0.257617,0.495344,-0.526841,-1.04128,0.226871,-0.200773,-0.000979195,
0.30204,-0.222941,-0.0463325,-1.75808,0.0635727,-0.180769,-0.382673,0.694524,0.00614935,0.729509,-0.220988,0.606417,0.00673035,0.0113079,0,0,0,0,0,0,0,0.288882,-0.222944,-0.0597827,-1.7539,0.0538,1.38939,0.402467,0.562286,0.0205639,0.57227,-0.128746,0.305335,0.0428059,0.000569245,1.07074,-27.3573,1.18715,24.9832,1.33819,2.00493,-0.00996382,-1.45955,0.165329,-2.60676,-0.0352431,0.206051,0.208019,0.272523,0.653528,0.0984685,-1.0812,0.411304,-0.214379,-0.00355387,
0.304864,-0.222899,-0.0433324,-1.75897,0.0662063,-0.180767,-0.382631,0.70599,0.0104874,0.750036,-0.221728,0.658396,0.000408967,0.0106088,0,0,0,0,0,0,0,0.30674,-0.222355,-0.0403692,-1.7584,0.0659839,1.39068,0.402468,0.558199,0.0159058,0.569648,-0.141067,0.353404,0.0501508,-0.000428494,-0.781979,-27.1352,-0.463243,25.3839,1.45446,2.01226,0.017502,-2.16826,2.88436,-2.5845,-1.81727,-0.20065,1.51772,1.51523,0.759379,1.62748,-1.14146,0.738042,-0.281443,-0.00704161,
0.307724,-0.222841,-0.0402615,-1.75986,0.0690306,-0.180777,-0.382591,0.715052,0.0145386,0.767703,-0.221791,0.706065,-0.00249028,0.00999195,0,0,0,0,0,0,0,0.30674,-0.222355,-0.0403692,-1.7584,0.0659839,1.39068,0.402468,0.558199,0.0159058,0.569648,-0.141067,0.353404,0.0501508,-0.000428494,-0.781979,-27.1352,-0.463243,25.3839,1.45446,2.01226,0.017502,-2.16826,2.88436,-2.5845,-1.81727,-0.20065,1.51772,1.51523,0.759379,1.62748,-1.14146,0.738042,-0.281443,-0.00704161,
0.310613,-0.222768,-0.0371296,-1.76074,0.072028,-0.180787,-0.382553,0.722089,0.0182332,0.782972,-0.22136,0.749354,-0.00252408,0.00944516,0,0,0,0,0,0,0,0.30674,-0.222355,-0.0403692,-1.7584,0.0659839,1.39068,0.402468,0.558199,0.0159058,0.569648,-0.141067,0.353404,0.0501508,-0.000428494,-0.781979,-27.1352,-0.463243,25.3839,1.45446,2.01226,0.017502,-1.40061,0.115949,-2.58604,-0.0125193,0.280581,0.182651,0.19434,0.701641,0.112253,-1.10847,0.444679,-0.2421,-0.0032358,
0.293892,-0.222963,-0.0547824,-1.75546,0.0569812,-0.180987,-0.382819,0.640257,-0.00432416,0.644319,-0.206327,0.429179,0.0469371,0.0139845,0,0,0,0,0,0,0,0.30674,-0.222355,-0.0403692,-1.7584,0.0659839,1.39068,0.402468,0.558199,0.0159058,0.569648,-0.141067,0.353404,0.0501508,-0.000428494,-0.781979,-27.1352,-0.463243,25.3839,1.45446,2.01226,0.017502,-1.40061,0.115949,-2.58604,-0.0125193,0.280581,0.182651,0.19434,0.701641,0.112253,-1.10847,0.444679,-0.2421,-0.0032358,
0.314279,-0.222358,-0.0326161,-1.76081,0.0715156,-0.17949,-0.382767,0.652322,0.000735507,0.681412,-0.211576,0.516568,0.041232,0.0128958,0,0,0,0,0,0,0,0.30674,-0.222355,-0.0403692,-1.7584,0.0659839,1.39068,0.402468,0.558199,0.0159058,0.569648,-0.141067,0.353404,0.0501508,-0.000428494,-0.781979,-27.1352,-0.463243,25.3839,1.45446,2.01226,0.017502,-1.06562,-1.78967,-2.76644,1.19876,0.514459,-0.697392,-0.614582,0.632598,-0.936459,-1.12316,0.226865,-0.201583,-0.000328873,
0.31696,-0.222339,-0.0297777,-1.76167,0.0737996,-0.179368,-0.382719,0.670155,0.00476424,0.709591,-0.214859,0.571005,0.0305202,0.0119704,0,0,0,0,0,0,0,0.323954,-0.221864,-0.0215353,-1.76295,0.0772718,1.39281,0.402468,0.548878,0.0179989,0.639268,-0.144447,0.399709,0.0636551,-0.00150341,1.17389,-26.8852,0.889601,25.3323,1.88202,2.04522,0.0239107,-1.24834,-0.887035,-2.63459,0.636369,0.387499,-0.264538,-0.183501,0.649866,-0.454345,-1.10587,0.36144,-0.227447,-0.000979588,
0.319698,-0.222303,-0.0268437,-1.76253,0.0762914,-0.179275,-0.382674,0.684456,0.00905316,0.733517,-0.216338,0.622957,0.0230279,0.0111576,0,0,0,0,0,0,0,0.323954,-0.221864,-0.0215353,-1.76295,0.0772718,1.39281,0.402468,0.548878,0.0179989,0.639268,-0.144447,0.399709,0.0636551,-0.00150341,1.17389,-26.8852,0.889601,25.3323,1.88202,2.04522,0.0239107,-1.24834,-0.887035,-2.63459,0.636369,0.387499,-0.264538,-0.183501,0.649866,-0.454345,-1.10587,0.36144,-0.227447,-0.000979588,
0.322481,-0.22225,-0.0238279,-1.7634,0.0789779,-0.1792,-0.382633,0.695841,0.0131742,0.753939,-0.216858,0.67162,0.018797,0.0104461,0,0,0,0,0,0,0,0.323954,-0.221864,-0.0215353,-1.76295,0.0772718,1.39281,0.402468,0.548878,0.0179989,0.639268,-0.144447,0.399709,0.0636551,-0.00150341,1.17389,-26.8852,0.889601,25.3323,1.88202,2.04522,0.0239107,-1.22034,2.19405,-2.8078,-1.40869,0.612916,1.08719,1.09064,1.18587,1.12528,-1.30118,0.720211,-0.276843,-0.00457189,
0.3253,-0.222182,-0.0207421,-1.76427,0.0818441,-0.17913,-0.382593,0.704793,0.0169734,0.771462,-0.216761,0.716545,0.0174493,0.00982152,0,0,0,0,0,0,0,0.323954,-0.221864,-0.0215353,-1.76295,0.0772718,1.39281,0.402468,0.548878,0.0179989,0.639268,-0.144447,0.399709,0.0636551,-0.00150341,1.17389,-26.8852,0.889601,25.3323,1.88202,2.04522,0.0239107,-1.22034,2.19405,-2.8078,-1.40869,0.612916,1.08719,1.09064,1.18587,1.12528,-1.30118,0.720211,-0.276843,-0.00457189,
0.328147,-0.222101,-0.0175958,-1.76513,0.0848743,-0.179056,-0.382556,0.711687,0.0204024,0.786574,-0.216208,0.757555,0.0185243,0.0092704,0,0,0,0,0,0,0,0.323954,-0.221864,-0.0215353,-1.76295,0.0772718,1.39281,0.402468,0.548878,0.0179989,0.639268,-0.144447,0.399709,0.0636551,-0.00150341,1.17389,-26.8852,0.889601,25.3323,1.88202,2.04522,0.0239107,-1.13207,1.01911,-2.49408,-0.628636,0.498323,0.561881,0.561585,0.921856,0.545002,-1.13288,0.576163,-0.248713,-0.00367292,
0.31167,-0.222361,-0.0353417,-1.75996,0.0694493,-0.179655,-0.382819,0.630151,-0.00186034,0.648067,-0.20422,0.460865,0.0537416,0.0138843,0,0,0,0,0,0,0,0.340648,-0.221377,-0.0033566,-1.76707,0.0875665,1.39479,0.402476,0.550156,0.0224396,0.625391,-0.130262,0.359056,0.0599665,0.000173571,1.90784,-27.4843,1.16334,25.3085,1.60736,2.05804,-0.0227812,-1.13207,1.01911,-2.49408,-0.628636,0.498323,0.561881,0.561585,0.921856,0.545002,-1.13288,0.576163,-0.248713,-0.00367292,
0.331634,-0.22181,-0.0134081,-1.76533,0.0833481,-0.177169,-0.382778,0.660588,0.00567927,0.707106,-0.207785,0.56184,0.0592114,0.012003,0,0,0,0,0,0,0,0.340648,-0.221377,-0.0033566,-1.76707,0.0875665,1.39479,0.402476,0.550156,0.0224396,0.625391,-0.130262,0.359056,0.0599665,0.000173571,1.90784,-27.4843,1.16334,25.3085,1.60736,2.05804,-0.0227812,-0.917009,-1.28505,-1.87894,0.953433,0.285577,-0.461582,-0.382447,0.377468,-0.669423,-0.779237,0.309879,-0.166554,-0.00343698,
0.334335,-0.221772,-0.0104819,-1.76617,0.0858046,-0.176967,-0.382733,0.675382,0.00942608,0.731532,-0.210664,0.614118,0.0504131,0.0111839,0,0,0,0,0,0,0,0.340648,-0.221377,-0.0033566,-1.76707,0.0875665,1.39479,0.402476,0.550156,0.0224396,0.625391,-0.130262,0.359056,0.0599665,0.000173571,1.90784,-27.4843,1.16334,25.3085,1.60736,2.05804,-0.0227812,0.00528185,-0.683551,-1.75175,0.608377,0.971228,-0.356127,-0.279413,0.778902,-0.563927,-0.830223,0.419682,-0.168268,-0.0053959,
0.337084,-0.221719,-0.00747236,-1.76702,0.0884569,-0.17679,-0.382691,0.68718,0.0133299,0.752393,-0.211871,0.66309,0.0444066,0.0104614,0,0,0,0,0,0,0,0.340648,-0.221377,-0.0033566,-1.76707,0.0875665,1.39479,0.402476,0.550156,0.0224396,0.625391,-0.130262,0.359056,0.0599665,0.000173571,1.90784,-27.4843,1.16334,25.3085,1.60736,2.05804,-0.0227812,0.00528185,-0.683551,-1.75175,0.608377,0.971228,-0.356127,-0.279413,0.778902,-0.563927,-0.830223,0.419682,-0.168268,-0.0053959,
0.33987,-0.221651,-0.00439117,-1.76787,0.0912904,-0.176625,-0.382652,0.696468,0.0170245,0.770298,-0.212184,0.708353,0.0412555,0.00982535,0,0,0,0,0,0,0,0.340648,-0.221377,-0.0033566,-1.76707,0.0875665,1.39479,0.402476,0.550156,0.0224396,0.625391,-0.130262,0.359056,0.0599665,0.000173571,1.90784,-27.4843,1.16334,25.3085,1.60736,2.05804,-0.0227812,-0.873564,2.20592,-1.86539,-1.33582,0.495797,1.04899,1.05469,0.947539,1.08225,-0.929189,0.720505,-0.229079,-0.00994244,
0.342684,-0.221569,-0.00124805,-1.76871,0.0942894,-0.176462,-0.382615,0.703565,0.0203868,0.78578,-0.211933,0.749758,0.0406714,0.00929372,0,0,0,0,0,0,0,0.340648,-0.221377,-0.0033566,-1.76707,0.0875665,1.39479,0.402476,0.550156,0.0224396,0.625391,-0.130262,0.359056,0.0599665,0.000173571,1.90784,-27.4843,1.16334,25.3085,1.60736,2.05804,-0.0227812,-0.873564,2.20592,-1.86539,-1.33582,0.495797,1.04899,1.05469,0.947539,1.08225,-0.929189,0.720505,-0.229079,-0.00994244,
0.345524,-0.221476,0.00195102,-1.76956,0.0973967,-0.176294,-0.382579,0.710047,0.0233532,0.799768,-0.210865,0.776828,0.0421169,0.00883121,0,0,0,0,0,0,0,0.364143,-0.220288,0.0232653,-1.77248,0.103737,1.39702,0.402477,0.532787,0.0378699,0.621116,-0.114624,0.401151,0.0553571,-0.000491077,1.70551,-27.758,0.786451,25.2847,1.61926,2.10473,0.0101778,-1.43786,0.268784,-1.75989,-0.0761059,-0.0298332,0.319616,0.319582,0.414978,0.275127,-0.790424,0.514841,-0.227743,-0.00842188,
0.328991,-0.221833,-0.0162365,-1.7645,0.0811007,-0.177406,-0.382826,0.642088,0.0031225,0.67846,-0.20117,0.506904,0.0694937,0.0129016,0,0,0,0,0,0,0,0.364143,-0.220288,0.0232653,-1.77248,0.103737,1.39702,0.402477,0.532787,0.0378699,0.621116,-0.114624,0.401151,0.0553571,-0.000491077,1.70551,-27.758,0.786451,25.2847,1.61926,2.10473,0.0101778,-1.59849,-1.06689,-1.75688,0.773756,-0.244353,-0.204702,-0.13975,0.118228,-0.362285,-0.700387,0.339521,-0.184787,-0.00676463,
0.371571,-0.220126,0.0313076,-1.77475,0.109782,-0.172711,-0.382768,0.641135,0.0126514,0.702115,-0.202155,0.55598,0.085047,0.0121096,0,0,0,0,0,0,0,0.364143,-0.220288,0.0232653,-1.77248,0.103737,1.39702,0.402477,0.532787,0.0378699,0.621116,-0.114624,0.401151,0.0553571,-0.000491077,1.70551,-27.758,0.786451,25.2847,1.61926,2.10473,0.0101778,-1.59849,-1.06689,-1.75688,0.773756,-0.244353,-0.204702,-0.13975,0.118228,-0.362285,-0.700387,0.339521,-0.184787,-0.00676463,
0.3742,-0.220064,0.0342199,-1.77557,0.112206,-0.172398,-0.382723,0.657187,0.0155245,0.728061,-0.205806,0.605877,0.078079,0.0112575,0,0,0,0,0,0,0,0.364143,-0.220288,0.0232653,-1.77248,0.103737,1.39702,0.402477,0.532787,0.0378699,0.621116,-0.114624,0.401151,0.0553571,-0.000491077,1.70551,-27.758,0.786451,25.2847,1.61926,2.10473,0.0101778,-0.804886,-0.81534,-2.03187,0.596002,0.495481,-0.249269,-0.181971,0.592299,-0.426764,-0.89599,0.4204,-0.197793,-0.00799301,
0.37688,-0.219988,0.0372207,-1.7764,0.114819,-0.172107,-0.38268,0.669907,0.0187672,0.750196,-0.207309,0.653229,0.0728802,0.0105279,0,0,0,0,0,0,0,0.364143,-0.220288,0.0232653,-1.77248,0.103737,1.39702,0.402477,0.532787,0.0378699,0.621116,-0.114624,0.401151,0.0553571,-0.000491077,1.70551,-27.758,0.786451,25.2847,1.61926,2.10473,0.0101778,-0.804886,-0.81534,-2.03187,0.596002,0.495481,-0.249269,-0.181971,0.592299,-0.426764,-0.89599,0.4204,-0.197793,-0.00799301,
0.379604,-0.219901,0.0402994,-1.77723,0.117567,-0.171827,-0.382641,0.681078,0.0218822,0.769696,-0.207288,0.687027,0.0698412,0.00989653,0,0,0,0,0,0,0,0.380652,-0.219368,0.0424987,-1.77601,0.116289,1.39891,0.402482,0.536237,0.0319297,0.594259,-0.109565,0.350118,0.061676,0.00156738,-0.0202602,-27.3573,-0.788561,25.257,1.02691,2.3034,-0.0301054,-1.82155,1.70308,-2.13714,-1.02773,-0.0648034,1.01191,1.01941,0.674271,1.03122,-0.96302,0.762804,-0.246784,-0.0112398,
0.382371,-0.219803,0.0434433,-1.77805,0.120389,-0.171552,-0.382604,0.691865,0.0246078,0.785953,-0.206345,0.705631,0.0689176,0.00931151,0,0,0,0,0,0,0,0.380652,-0.219368,0.0424987,-1.77601,0.116289,1.39891,0.402482,0.536237,0.0319297,0.594259,-0.109565,0.350118,0.061676,0.00156738,-0.0202602,-27.3573,-0.788561,25.257,1.02691,2.3034,-0.0301054,-1.82155,1.70308,-2.13714,-1.02773,-0.0648034,1.01191,1.01941,0.674271,1.03122,-0.96302,0.762804,-0.246784,-0.0112398,
0.385179,-0.219695,0.0466356,-1.77887,0.123254,-0.171272,-0.382569,0.701932,0.0268435,0.79809,-0.205123,0.716094,0.069874,0.00871102,0,0,0,0,0,0,0,0.380652,-0.219368,0.0424987,-1.77601,0.116289,1.39891,0.402482,0.536237,0.0319297,0.594259,-0.109565,0.350118,0.061676,0.00156738,-0.0202602,-27.3573,-0.788561,25.257,1.02691,2.3034,-0.0301054,-1.40249,-0.377687,-2.43773,0.222434,0.241114,0.0568028,0.0721059,0.620154,-0.0340111,-1.0394,0.495246,-0.223718,-0.00707882,
0.371571,-0.220126,0.0313077,-1.77475,0.109781,-0.17271,-0.382768,0.641142,0.0126497,0.702121,-0.202156,0.555875,0.0850739,0.012109,0,0,0,0,0,0,0,0.380652,-0.219368,0.0424987,-1.77601,0.116289,1.39891,0.402482,0.536237,0.0319297,0.594259,-0.109565,0.350118,0.061676,0.00156738,-0.0202602,-27.3573,-0.788561,25.257,1.02691,2.3034,-0.0301054,-1.26778,-0.537036,-2.59918,0.220505,0.28976,-0.0114959,0.0624901,0.643269,-0.140978,-1.04215,0.371677,-0.156873,-0.00868828,
0.387858,-0.219243,0.0504683,-1.77821,0.121921,-0.170675,-0.382762,0.622897,0.0104486,0.697226,-0.195819,0.526258,0.100144,0.0122577,0,0,0,0,0,0,0,0.380652,-0.219368,0.0424987,-1.77601,0.116289,1.39891,0.402482,0.536237,0.0319297,0.594259,-0.109565,0.350118,0.061676,0.00156738,-0.0202602,-27.3573,-0.788561,25.257,1.02691,2.3034,-0.0301054,-1.26778,-0.537036,-2.59918,0.220505,0.28976,-0.0114959,0.0624901,0.643269,-0.140978,-1.04215,0.371677,-0.156873,-0.00868828,
0.390421,-0.219188,0.0533663,-1.779,0.124198,-0.170295,-0.382716,0.640698,0.0138777,0.724517,-0.199138,0.569244,0.0950618,0.0114159,0,0,0,0,0,0,0,0.380652,-0.219368,0.0424987,-1.77601,0.116289,1.39891,0.402482,0.536237,0.0319297,0.594259,-0.109565,0.350118,0.061676,0.00156738,-0.0202602,-27.3573,-0.788561,25.257,1.02691,2.3034,-0.0301054,-0.571331,0.52581,-2.45264,-0.44284,0.79984,0.282236,0.35283,1.01765,0.186235,-1.06441,0.498712,-0.148031,-0.00898764,
0.393049,-0.219118,0.0563555,-1.7798,0.126588,-0.16993,-0.382674,0.657063,0.0174239,0.747296,-0.200036,0.597353,0.0911194,0.0106314,0,0,0,0,0,0,0,0.397403,-0.21843,0.0622056,-1.77934,0.128802,1.40101,0.402485,0.537329,0.0252283,0.626565,-0.107916,0.392681,0.081492,0.0015112,0.539127,-26.7583,0.0644055,24.9356,2.06512,1.99853,-0.050247,-0.571331,0.52581,-2.45264,-0.44284,0.79984,0.282236,0.35283,1.01765,0.186235,-1.06441,0.498712,-0.148031,-0.00898764,
0.395737,-0.219036,0.0594151,-1.7806,0.129057,-0.169574,-0.382634,0.671843,0.0205626,0.764906,-0.20004,0.617324,0.0889893,0.00985478,0,0,0,0,0,0,0,0.397403,-0.21843,0.0622056,-1.77934,0.128802,1.40101,0.402485,0.537329,0.0252283,0.626565,-0.107916,0.392681,0.081492,0.0015112,0.539127,-26.7583,0.0644055,24.9356,2.06512,1.99853,-0.050247,-1.26166,2.07489,-2.70161,-1.46978,0.527349,1.06207,1.07346,1.17728,1.1025,-1.20867,0.748324,-0.214058,-0.0118402,
0.39847,-0.218943,0.0625313,-1.7814,0.131595,-0.16922,-0.382598,0.683311,0.0231994,0.779039,-0.199706,0.634444,0.0886391,0.00920951,0,0,0,0,0,0,0,0.397403,-0.21843,0.0622056,-1.77934,0.128802,1.40101,0.402485,0.537329,0.0252283,0.626565,-0.107916,0.392681,0.081492,0.0015112,0.539127,-26.7583,0.0644055,24.9356,2.06512,1.99853,-0.050247,-1.68397,0.673343,-2.48068,-0.498796,0.0933113,0.578068,0.569885,0.709394,0.570554,-1.05163,0.644725,-0.211104,-0.0100394,
0.387859,-0.219243,0.0504688,-1.77821,0.121912,-0.170673,-0.382762,0.622973,0.0104322,0.697291,-0.19582,0.525146,0.100403,0.0122522,0,0,0,0,0,0,0,0.397403,-0.21843,0.0622056,-1.77934,0.128802,1.40101,0.402485,0.537329,0.0252283,0.626565,-0.107916,0.392681,0.081492,0.0015112,0.539127,-26.7583,0.0644055,24.9356,2.06512,1.99853,-0.050247,-1.68397,0.673343,-2.48068,-0.498796,0.0933113,0.578068,0.569885,0.709394,0.570554,-1.05163,0.644725,-0.211104,-0.0100394,
0.404665,-0.218339,0.0704118,-1.78145,0.134709,-0.168336,-0.382766,0.627691,0.00843359,0.714301,-0.187848,0.528136,0.120975,0.0116747,0,0,0,0,0,0,0,0.397403,-0.21843,0.0622056,-1.77934,0.128802,1.40101,0.402485,0.537329,0.0252283,0.626565,-0.107916,0.392681,0.081492,0.0015112,0.539127,-26.7583,0.0644055,24.9356,2.06512,1.99853,-0.050247,-1.48496,-1.07693,-2.54284,0.558944,0.128265,-0.158549,-0.114674,0.490848,-0.284989,-1.01778,0.382234,-0.180683,-0.00804967,
0.407252,-0.218291,0.0733598,-1.78221,0.136915,-0.167868,-0.382723,0.646759,0.0119789,0.737,-0.191062,0.551557,0.116867,0.0107783,0,0,0,0,0,0,0,0.41395,-0.217537,0.0817557,-1.7826,0.1401,1.40379,0.402482,0.523045,0.0312032,0.649305,-0.113191,0.391742,0.0989676,0.00105239,1.83246,-26.8575,0.43733,25.5069,2.37732,1.9793,-0.0163725,-1.48496,-1.07693,-2.54284,0.558944,0.128265,-0.158549,-0.114674,0.490848,-0.284989,-1.01778,0.382234,-0.180683,-0.00804967,
0.409899,-0.218229,0.0763813,-1.78298,0.139206,-0.167414,-0.382683,0.661813,0.0154518,0.755369,-0.192564,0.572713,0.113605,0.0100106,0,0,0,0,0,0,0,0.41395,-0.217537,0.0817557,-1.7826,0.1401,1.40379,0.402482,0.523045,0.0312032,0.649305,-0.113191,0.391742,0.0989676,0.00105239,1.83246,-26.8575,0.43733,25.5069,2.37732,1.9793,-0.0163725,-1.38085,-0.0276452,-2.29898,-0.0817463,0.160859,0.258622,0.344073,0.605727,0.143314,-0.952339,0.4892,-0.172104,-0.00896095,
0.412596,-0.218155,0.0794622,-1.78376,0.141553,-0.166967,-0.382645,0.674172,0.0185687,0.77023,-0.192941,0.586754,0.11167,0.00932974,0,0,0,0,0,0,0,0.41395,-0.217537,0.0817557,-1.7826,0.1401,1.40379,0.402482,0.523045,0.0312032,0.649305,-0.113191,0.391742,0.0989676,0.00105239,1.83246,-26.8575,0.43733,25.5069,2.37732,1.9793,-0.0163725,-1.38085,-0.0276452,-2.29898,-0.0817463,0.160859,0.258622,0.344073,0.605727,0.143314,-0.952339,0.4892,-0.172104,-0.00896095,
0.415332,-0.21807,0.082591,-1.78453,0.143933,-0.166522,-0.38261,0.683995,0.0212038,0.782195,-0.192697,0.594848,0.111175,0.00879202,0,0,0,0,0,0,0,0.41395,-0.217537,0.0817557,-1.7826,0.1401,1.40379,0.402482,0.523045,0.0312032,0.649305,-0.113191,0.391742,0.0989676,0.00105239,1.83246,-26.8575,0.43733,25.5069,2.37732,1.9793,-0.0163725,-0.63356,0.896301,-2.79492,-0.79288,1.01108,0.438294,0.477592,1.3182,0.383501,-1.29687,0.639963,-0.23898,-0.00803541,
0.418098,-0.217977,0.0857572,-1.78529,0.14633,-0.166074,-0.382577,0.691475,0.023359,0.791545,-0.192122,0.599424,0.111994,0.00815792,0,0,0,0,0,0,0,0.41395,-0.217537,0.0817557,-1.7826,0.1401,1.40379,0.402482,0.523045,0.0312032,0.649305,-0.113191,0.391742,0.0989676,0.00105239,1.83246,-26.8575,0.43733,25.5069,2.37732,1.9793,-0.0163725,-0.559304,-1.00695,-2.87733,0.424803,1.04074,-0.343037,-0.304391,1.07913,-0.494727,-1.30744,0.476941,-0.258287,-0.00417248,
0.404673,-0.21834,0.0704174,-1.78145,0.13461,-0.168316,-0.382766,0.628463,0.00827633,0.714959,-0.187805,0.516699,0.123247,0.0116201,0,0,0,0,0,0,0,0.41395,-0.217537,0.0817557,-1.7826,0.1401,1.40379,0.402482,0.523045,0.0312032,0.649305,-0.113191,0.391742,0.0989676,0.00105239,1.83246,-26.8575,0.43733,25.5069,2.37732,1.9793,-0.0163725,-0.559304,-1.00695,-2.87733,0.424803,1.04074,-0.343037,-0.304391,1.07913,-0.494727,-1.30744,0.476941,-0.258287,-0.00417248,
0.421217,-0.217367,0.0900532,-1.78469,0.145472,-0.16535,-0.382774,0.628553,0.0141554,0.718027,-0.185385,0.472442,0.13918,0.0111578,0,0,0,0,0,0,0,0.430485,-0.216865,0.101583,-1.7861,0.1508,1.40775,0.402481,0.531488,0.0294615,0.660936,-0.10887,0.340952,0.133981,-0.000885638,1.17389,-27.4327,-0.213304,25.2847,1.70532,2.01226,0.017502,-1.45854,-1.23471,-2.44117,0.639717,0.167149,-0.184948,-0.122202,0.497251,-0.337412,-1.02998,0.420327,-0.227857,-0.00418076,
0.4238,-0.2173,0.0930074,-1.78544,0.147433,-0.164806,-0.382733,0.645698,0.0167929,0.738559,-0.18831,0.490378,0.135925,0.0103414,0,0,0,0,0,0,0,0.430485,-0.216865,0.101583,-1.7861,0.1508,1.40775,0.402481,0.531488,0.0294615,0.660936,-0.10887,0.340952,0.133981,-0.000885638,1.17389,-27.4327,-0.213304,25.2847,1.70532,2.01226,0.017502,-0.236465,-0.192572,-2.74061,-0.2102,1.13769,-0.0725583,-0.00108779,1.21917,-0.189775,-1.24384,0.405379,-0.201682,-0.0053052,
0.426438,-0.217222,0.0960284,-1.7862,0.149446,-0.164273,-0.382694,0.659524,0.0194584,0.755242,-0.189383,0.503086,0.133191,0.00966997,0,0,0,0,0,0,0,0.430485,-0.216865,0.101583,-1.7861,0.1508,1.40775,0.402481,0.531488,0.0294615,0.660936,-0.10887,0.340952,0.133981,-0.000885638,1.17389,-27.4327,-0.213304,25.2847,1.70532,2.01226,0.017502,-0.236465,-0.192572,-2.74061,-0.2102,1.13769,-0.0725583,-0.00108779,1.21917,-0.189775,-1.24384,0.405379,-0.201682,-0.0053052,
0.429119,-0.217135,0.0991025,-1.78696,0.151496,-0.163747,-0.382659,0.670365,0.021796,0.768524,-0.189623,0.512704,0.131634,0.00891629,0,0,0,0,0,0,0,0.430485,-0.216865,0.101583,-1.7861,0.1508,1.40775,0.402481,0.531488,0.0294615,0.660936,-0.10887,0.340952,0.133981,-0.000885638,1.17389,-27.4327,-0.213304,25.2847,1.70532,2.01226,0.017502,-1.77503,2.90279,-3.07321,-2.34731,0.312703,1.5459,1.55277,1.41187,1.68796,-1.40414,0.733829,-0.282155,-0.0129348,
0.431832,-0.21704,0.102218,-1.78772,0.15359,-0.163221,-0.382625,0.678144,0.023719,0.778763,-0.189577,0.523357,0.131419,0.00835846,0,0,0,0,0,0,0,0.430485,-0.216865,0.101583,-1.7861,0.1508,1.40775,0.402481,0.531488,0.0294615,0.660936,-0.10887,0.340952,0.133981,-0.000885638,1.17389,-27.4327,-0.213304,25.2847,1.70532,2.01226,0.017502,-1.77503,2.90279,-3.07321,-2.34731,0.312703,1.5459,1.55277,1.41187,1.68796,-1.40414,0.733829,-0.282155,-0.0129348,
0.421278,-0.217376,0.0900952,-1.78468,0.144703,-0.165251,-0.382779,0.634396,0.0131074,0.72298,-0.184391,0.383942,0.15061,0.0107354,0,0,0,0,0,0,0,0.45293,-0.21609,0.128271,-1.79077,0.164278,1.41401,0.402486,0.528985,0.0306883,0.642025,-0.0946751,0.305245,0.144847,-0.000108055,0.285221,-27.2344,-1.4868,25.2847,1.42425,2.03148,-0.00996382,-0.439886,-0.482205,-2.8238,-0.0774836,1.04132,-0.132491,-0.126624,1.17281,-0.19911,-1.29646,0.414439,-0.245878,-0.00673271,
0.460171,-0.215953,0.136565,-1.79272,0.16795,-0.154496,-0.382779,0.62592,0.0110583,0.717972,-0.174705,0.305635,0.193094,0.0106351,0,0,0,0,0,0,0,0.45293,-0.21609,0.128271,-1.79077,0.164278,1.41401,0.402486,0.528985,0.0306883,0.642025,-0.0946751,0.305245,0.144847,-0.000108055,0.285221,-27.2344,-1.4868,25.2847,1.42425,2.03148,-0.00996382,-0.439886,-0.482205,-2.8238,-0.0774836,1.04132,-0.132491,-0.126624,1.17281,-0.19911,-1.29646,0.414439,-0.245878,-0.00673271,
0.46274,-0.215899,0.139517,-1.79343,0.169175,-0.153739,-0.38274,0.642206,0.0134398,0.738051,-0.178733,0.306317,0.189305,0.00974868,0,0,0,0,0,0,0,0.45293,-0.21609,0.128271,-1.79077,0.164278,1.41401,0.402486,0.528985,0.0306883,0.642025,-0.0946751,0.305245,0.144847,-0.000108055,0.285221,-27.2344,-1.4868,25.2847,1.42425,2.03148,-0.00996382,-0.993197,-1.25137,-2.31464,0.54872,0.401309,-0.256574,-0.200516,0.59998,-0.392692,-1.00713,0.339156,-0.215687,-0.00739483,
0.465357,-0.215835,0.142532,-1.79416,0.170421,-0.152997,-0.382704,0.654368,0.0158609,0.753722,-0.181023,0.311492,0.185533,0.00905626,0,0,0,0,0,0,0,0.45293,-0.21609,0.128271,-1.79077,0.164278,1.41401,0.402486,0.528985,0.0306883,0.642025,-0.0946751,0.305245,0.144847,-0.000108055,0.285221,-27.2344,-1.4868,25.2847,1.42425,2.03148,-0.00996382,-0.993197,-1.25137,-2.31464,0.54872,0.401309,-0.256574,-0.200516,0.59998,-0.392692,-1.00713,0.339156,-0.215687,-0.00739483,
0.468014,-0.215763,0.145596,-1.79489,0.171673,-0.152267,-0.38267,0.664167,0.0181026,0.765945,-0.181962,0.312947,0.182475,0.00845066,0,0,0,0,0,0,0,0.45293,-0.21609,0.128271,-1.79077,0.164278,1.41401,0.402486,0.528985,0.0306883,0.642025,-0.0946751,0.305245,0.144847,-0.000108055,0.285221,-27.2344,-1.4868,25.2847,1.42425,2.03148,-0.00996382,-0.811834,-0.43437,-2.20915,0.0473215,0.576603,0.00865772,0.0811509,0.803458,-0.11587,-1.02135,0.456981,-0.233647,-0.0067557,
0.4707,-0.215683,0.148698,-1.79562,0.172923,-0.151545,-0.382638,0.671495,0.0199587,0.775401,-0.182256,0.31256,0.180544,0.00789967,0,0,0,0,0,0,0,0.45293,-0.21609,0.128271,-1.79077,0.164278,1.41401,0.402486,0.528985,0.0306883,0.642025,-0.0946751,0.305245,0.144847,-0.000108055,0.285221,-27.2344,-1.4868,25.2847,1.42425,2.03148,-0.00996382,-0.738905,0.550018,-2.47336,-0.719397,0.758124,0.362786,0.407304,1.1398,0.32164,-1.17726,0.520515,-0.257543,-0.00624077,
0.476767,-0.215663,0.155545,-1.79685,0.159607,-0.150148,-0.382621,0.691522,0.0159981,0.799994,-0.179219,-0.283663,0.172249,0.00642461,0,0,0,0,0,0,0,0.469847,-0.21534,0.148889,-1.79393,0.172094,1.41898,0.402489,0.525322,0.0253262,0.643825,-0.0998149,0.185178,0.178994,-0.000740882,1.80469,-26.8337,0.238966,25.5585,1.54602,2.06536,-0.00996382,-0.738905,0.550018,-2.47336,-0.719397,0.758124,0.362786,0.407304,1.1398,0.32164,-1.17726,0.520515,-0.257543,-0.00624077,
0.460408,-0.215966,0.136724,-1.79261,0.164751,-0.154485,-0.382797,0.647865,0.00816042,0.736418,-0.165848,-0.0584082,0.195305,0.00914198,0,0,0,0,0,0,0,0.469847,-0.21534,0.148889,-1.79393,0.172094,1.41898,0.402489,0.525322,0.0253262,0.643825,-0.0998149,0.185178,0.178994,-0.000740882,1.80469,-26.8337,0.238966,25.5585,1.54602,2.06536,-0.00996382,-0.621719,-1.13577,-1.99002,0.465242,0.541836,-0.284257,-0.22586,0.628102,-0.417191,-0.918122,0.305301,-0.218948,-0.00442777,
0.477228,-0.215224,0.157283,-1.79574,0.171467,-0.149238,-0.38279,0.637656,0.00817843,0.728993,-0.162365,-0.136003,0.21628,0.00926573,0,0,0,0,0,0,0,0.469847,-0.21534,0.148889,-1.79393,0.172094,1.41898,0.402489,0.525322,0.0253262,0.643825,-0.0998149,0.185178,0.178994,-0.000740882,1.80469,-26.8337,0.238966,25.5585,1.54602,2.06536,-0.00996382,-0.621719,-1.13577,-1.99002,0.465242,0.541836,-0.284257,-0.22586,0.628102,-0.417191,-0.918122,0.305301,-0.218948,-0.00442777,
0.479837,-0.215187,0.160279,-1.79641,0.170694,-0.148393,-0.382756,0.652425,0.00920766,0.748883,-0.167319,-0.193161,0.21124,0.00858092,0,0,0,0,0,0,0,0.469847,-0.21534,0.148889,-1.79393,0.172094,1.41898,0.402489,0.525322,0.0253262,0.643825,-0.0998149,0.185178,0.178994,-0.000740882,1.80469,-26.8337,0.238966,25.5585,1.54602,2.06536,-0.00996382,-0.593299,-0.454932,-2.02525,-0.0564744,0.545714,-0.0276393,0.0111483,0.7567,-0.0945061,-0.936001,0.296904,-0.205434,-0.00529451,
0.482489,-0.215145,0.163333,-1.7971,0.169746,-0.147571,-0.382724,0.662961,0.0105998,0.763474,-0.170502,-0.237031,0.20542,0.00797173,0,0,0,0,0,0,0,0.469847,-0.21534,0.148889,-1.79393,0.172094,1.41898,0.402489,0.525322,0.0253262,0.643825,-0.0998149,0.185178,0.178994,-0.000740882,1.80469,-26.8337,0.238966,25.5585,1.54602,2.06536,-0.00996382,-0.593299,-0.454932,-2.02525,-0.0564744,0.545714,-0.0276393,0.0111483,0.7567,-0.0945061,-0.936001,0.296904,-0.205434,-0.00529451,
0.48517,-0.215097,0.166428,-1.79779,0.168663,-0.146772,-0.382694,0.670175,0.0120181,0.773882,-0.172657,-0.270866,0.199873,0.00752706,0,0,0,0,0,0,0,0.487414,-0.214486,0.169936,-1.79684,0.175034,1.42477,0.402486,0.552568,0.0195674,0.637027,-0.0858016,-0.013013,0.189592,-0.00161077,-0.829586,-26.4845,-2.23662,25.983,1.18621,2.27044,0.017502,-0.958096,1.06227,-2.24979,-1.18419,0.389825,0.64846,0.672446,1.01636,0.698519,-1.04986,0.373624,-0.223971,-0.005826,
0.487869,-0.215044,0.169552,-1.79848,0.167473,-0.145992,-0.382666,0.674803,0.0133413,0.781013,-0.174092,-0.297416,0.195052,0.00706033,0,0,0,0,0,0,0,0.487414,-0.214486,0.169936,-1.79684,0.175034,1.42477,0.402486,0.552568,0.0195674,0.637027,-0.0858016,-0.013013,0.189592,-0.00161077,-0.829586,-26.4845,-2.23662,25.983,1.18621,2.27044,0.017502,-1.03014,1.12179,-2.53788,-1.40686,0.333597,0.707392,0.70104,1.08542,0.821803,-1.14526,0.254883,-0.215274,-0.00868935,
0.477263,-0.215357,0.157219,-1.79577,0.167386,-0.148544,-0.382804,0.635137,-0.00671799,0.720797,-0.163953,-0.607459,0.290186,0.00859949,0,0,0,0,0,0,0,0.487414,-0.214486,0.169936,-1.79684,0.175034,1.42477,0.402486,0.552568,0.0195674,0.637027,-0.0858016,-0.013013,0.189592,-0.00161077,-0.829586,-26.4845,-2.23662,25.983,1.18621,2.27044,0.017502,-1.03014,1.12179,-2.53788,-1.40686,0.333597,0.707392,0.70104,1.08542,0.821803,-1.14526,0.254883,-0.215274,-0.00868935,
0.494735,-0.214577,0.178238,-1.7986,0.169112,-0.142714,-0.382801,0.621666,-0.0124441,0.713034,-0.160722,-0.661408,0.293118,0.00900204,0,0,0,0,0,0,0,0.487414,-0.214486,0.169936,-1.79684,0.175034,1.42477,0.402486,0.552568,0.0195674,0.637027,-0.0858016,-0.013013,0.189592,-0.00161077,-0.829586,-26.4845,-2.23662,25.983,1.18621,2.27044,0.017502,-0.684,-0.435892,-2.28067,-0.347288,0.34321,0.0546557,0.0847757,0.738571,0.0608522,-0.980687,0.043275,-0.163294,-0.00567508,
