PerkyPenguin/Analysis-on-Approximated-Derivatives/Code_and_Data/PaperData/Real_Robot/Scene_2/contact_change/0/trajectory.csv
Commanded Joint 0 Position,Commanded Joint 1 Position,Commanded Joint 2 Position,Commanded Joint 3 Position,Commanded Joint 4 Position,Commanded Joint 5 Position,Commanded Joint 6 Position,Commanded Joint 0 Velocity,Commanded Joint 1 Velocity,Commanded Joint 2 Velocity,Commanded Joint 3 Velocity,Commanded Joint 4 Velocity,Commanded Joint 5 Velocity,Commanded Joint 6 Velocity,Commanded Joint 0 Torque,Commanded Joint 1 Torque,Commanded Joint 2 Torque,Commanded Joint 3 Torque,Commanded Joint 4 Torque,Commanded Joint 5 Torque,Commanded Joint 6 Torque,Actual Joint 0 Position,Actual Joint 1 Position,Actual Joint 2 Position,Actual Joint 3 Position,Actual Joint 4 Position,Actual Joint 5 Position,Actual Joint 6 Position,Actual Joint 0 Velocity,Actual Joint 1 Velocity,Actual Joint 2 Velocity,Actual Joint 3 Velocity,Actual Joint 4 Velocity,Actual Joint 5 Velocity,Actual Joint 6 Velocity,Actual Joint 0 Torque,Actual Joint 1 Torque,Actual Joint 2 Torque,Actual Joint 3 Torque,Actual Joint 4 Torque,Actual Joint 5 Torque,Actual Joint 6 Torque,EE ext force 0,EE ext force 1,EE ext force 2,EE ext force 3,EE ext force 4,EE ext force 5,joint ext torque 0,joint ext torque 1,joint ext torque 2,joint ext torque 3,joint ext torque 4,joint ext torque 5,joint ext torque 6,
0.118712,-0.233762,0.344642,-1.85947,0.0928942,0.100929,0.411042,0.00824531,0.018463,0.0219428,-0.156127,-0.0658179,0.225817,-0.00130518,0,0,0,0,0,0,0,0.118641,-0.233794,0.34446,-1.85791,0.0933984,1.66948,1.19646,0.00308932,-0.00872586,0.00311393,-0.00115669,-0.0078234,0.000391088,-0.000322609,-0.0440639,-24.3144,-3.21257,27.4747,0.880428,3.28484,0.0101778,0.512136,0.334095,0.506394,-0.184846,0.266218,0.0184658,0.05439,0.106543,0.00144937,0.0756412,-0.0193321,-0.0883324,0.00858449,
0.118753,-0.233614,0.344748,-1.86014,0.0925556,0.101865,0.411037,0.0102286,0.0368349,0.0265392,-0.166899,-0.0846449,0.233892,-0.0013513,0,0,0,0,0,0,0,0.11864,-0.23378,0.34445,-1.85791,0.093425,1.66948,1.19645,0.00222343,-0.00251339,0.00256788,0.000448299,-0.0024567,-0.000461225,0.000568827,-0.0440639,-24.489,-3.11339,27.4271,0.654293,3.29857,0.00376909,0.512136,0.334095,0.506394,-0.184846,0.266218,0.0184658,0.05439,0.106543,0.00144937,0.0756412,-0.0193321,-0.0883324,0.00858449,
0.118664,-0.233808,0.344477,-1.8579,0.093423,0.0986769,0.411055,0.0011205,-0.00143857,0.00125149,0.000528972,0.000656808,-8.92837e-05,-2.87365e-05,0,0,0,0,0,0,0,0.11864,-0.23378,0.34445,-1.85791,0.093425,1.66948,1.19645,0.00222343,-0.00251339,0.00256788,0.000448299,-0.0024567,-0.000461225,0.000568827,-0.0440639,-24.489,-3.11339,27.4271,0.654293,3.29857,0.00376909,0.790789,0.309329,0.418424,-0.19186,0.499732,-0.0605634,-0.0234592,0.248195,-0.0767942,0.016033,-0.02321,-0.0945371,0.0100605,
0.118668,-0.233813,0.344481,-1.8579,0.0934265,0.0986768,0.411055,0.000961946,-0.00127396,0.00107132,0.000496569,0.0008687,-9.88956e-06,-2.24087e-05,0,0,0,0,0,0,0,0.11864,-0.23378,0.34445,-1.85791,0.093425,1.66948,1.19645,0.00222343,-0.00251339,0.00256788,0.000448299,-0.0024567,-0.000461225,0.000568827,-0.0440639,-24.489,-3.11339,27.4271,0.654293,3.29857,0.00376909,0.790789,0.309329,0.418424,-0.19186,0.499732,-0.0605634,-0.0234592,0.248195,-0.0767942,0.016033,-0.02321,-0.0945371,0.0100605,
0.118671,-0.233817,0.344485,-1.85789,0.0934304,0.098677,0.411055,0.00083059,-0.00113423,0.000925015,0.000462057,0.000975635,4.92552e-05,-1.76132e-05,0,0,0,0,0,0,0,0.11864,-0.23378,0.34445,-1.85791,0.093425,1.66948,1.19645,0.00222343,-0.00251339,0.00256788,0.000448299,-0.0024567,-0.000461225,0.000568827,-0.0440639,-24.489,-3.11339,27.4271,0.654293,3.29857,0.00376909,0.965905,0.286584,0.537304,-0.14161,0.533445,-0.111209,-0.0693941,0.219122,-0.139243,0.0996056,-0.0366623,-0.0447074,0.00870215,
0.118674,-0.233822,0.344488,-1.85789,0.0934345,0.0986774,0.411055,0.000720732,-0.00101521,0.000804904,0.000427485,0.00101101,8.99625e-05,-1.3966e-05,0,0,0,0,0,0,0,0.11864,-0.23378,0.34445,-1.85791,0.093425,1.66948,1.19645,0.00222343,-0.00251339,0.00256788,0.000448299,-0.0024567,-0.000461225,0.000568827,-0.0440639,-24.489,-3.11339,27.4271,0.654293,3.29857,0.00376909,-0.0546554,0.121231,0.301502,-0.0484439,-0.0965404,0.0620732,0.0994995,-0.0738249,0.0323094,0.0691274,-0.00908004,-0.0515475,0.0105854,
0.118676,-0.233825,0.344491,-1.85789,0.0934385,0.0986779,0.411055,0.000628047,-0.000913599,0.00070526,0.00039398,0.000998661,0.000114803,-1.11675e-05,0,0,0,0,0,0,0,0.11864,-0.23378,0.34445,-1.85791,0.093425,1.66948,1.19645,0.00222343,-0.00251339,0.00256788,0.000448299,-0.0024567,-0.000461225,0.000568827,-0.0440639,-24.489,-3.11339,27.4271,0.654293,3.29857,0.00376909,-0.0546554,0.121231,0.301502,-0.0484439,-0.0965404,0.0620732,0.0994995,-0.0738249,0.0323094,0.0691274,-0.00908004,-0.0515475,0.0105854,
0.118679,-0.233829,0.344493,-1.85789,0.0934423,0.0986784,0.411055,0.000549231,-0.000826631,0.000621792,0.000362162,0.000955491,0.000126492,-8.99648e-06,0,0,0,0,0,0,0,0.118643,-0.233867,0.344449,-1.85825,0.0934344,1.66961,1.19646,-0.00232296,0.00759031,0.000184724,-0.0116287,0.0012177,-0.00766448,-0.000709044,-0.0440639,-24.489,-3.01024,27.8,0.550839,3.39745,0.0101778,-0.0885123,0.114674,-0.369138,-0.217588,0.154418,0.0668763,0.0986173,0.206515,0.0740085,-0.243625,-0.023431,-0.106832,0.00956883,
0.119138,-0.233918,0.344901,-1.8575,0.0797453,0.0931361,0.411048,0.00441007,-0.00483495,0.00492284,0.00234986,-0.366359,-0.15264,-0.00052513,0,0,0,0,0,0,0,0.118643,-0.233867,0.344449,-1.85825,0.0934344,1.66961,1.19646,-0.00232296,0.00759031,0.000184724,-0.0116287,0.0012177,-0.00766448,-0.000709044,-0.0440639,-24.489,-3.01024,27.8,0.550839,3.39745,0.0101778,-0.0885123,0.114674,-0.369138,-0.217588,0.154418,0.0668763,0.0986173,0.206515,0.0740085,-0.243625,-0.023431,-0.106832,0.00956883,
0.119037,-0.233731,0.344811,-1.85806,0.0803822,0.0931692,0.411052,0.00333413,-0.0020787,0.00393046,0.000415108,-0.348942,-0.149562,-0.00047703,0,0,0,0,0,0,0,0.118643,-0.233867,0.344449,-1.85825,0.0934344,1.66961,1.19646,-0.00232296,0.00759031,0.000184724,-0.0116287,0.0012177,-0.00766448,-0.000709044,-0.0440639,-24.489,-3.01024,27.8,0.550839,3.39745,0.0101778,0.614589,0.267342,-0.494989,-0.36769,0.676334,-0.036614,0.00104241,0.504517,-0.0168382,-0.323287,-0.0482369,-0.0913341,0.00872231,
0.119047,-0.23374,0.344824,-1.85806,0.0789739,0.0925645,0.41105,0.00245045,-0.00210164,0.00302198,3.61926e-05,-0.352064,-0.151176,-0.000470908,0,0,0,0,0,0,0,0.118643,-0.233867,0.344449,-1.85825,0.0934344,1.66961,1.19646,-0.00232296,0.00759031,0.000184724,-0.0116287,0.0012177,-0.00766448,-0.000709044,-0.0440639,-24.489,-3.01024,27.8,0.550839,3.39745,0.0101778,0.614589,0.267342,-0.494989,-0.36769,0.676334,-0.036614,0.00104241,0.504517,-0.0168382,-0.323287,-0.0482369,-0.0913341,0.00872231,
0.119054,-0.233748,0.344832,-1.85806,0.0775568,0.0919551,0.411048,0.00164383,-0.00205442,0.00218317,-0.000293356,-0.354278,-0.152345,-0.000463041,0,0,0,0,0,0,0,0.118643,-0.233867,0.344449,-1.85825,0.0934344,1.66961,1.19646,-0.00232296,0.00759031,0.000184724,-0.0116287,0.0012177,-0.00766448,-0.000709044,-0.0440639,-24.489,-3.01024,27.8,0.550839,3.39745,0.0101778,0.566402,0.183625,0.0819879,-0.159502,0.407048,-0.0602445,-0.02021,0.2318,-0.0763382,-0.0520199,-0.0353285,-0.0459942,0.0092366,
0.119057,-0.233756,0.344838,-1.85806,0.0761338,0.0913425,0.411047,0.00091225,-0.00195747,0.00141545,-0.000580901,-0.355753,-0.153147,-0.000454219,0,0,0,0,0,0,0,0.118639,-0.233826,0.344455,-1.85828,0.09334,1.66959,1.19646,-0.000430909,0.00244252,-0.00213782,0.00392183,-0.00702025,-0.00462317,0.000691177,-0.0202602,-24.9611,-3.08562,27.5739,-0.0534094,3.15209,-0.0301054,1.25951,0.641082,-0.350641,-0.610204,1.06312,-0.0304862,0.0241781,0.690677,-0.00309282,-0.287632,-0.0671085,-0.0711807,0.00884551,
0.119058,-0.233763,0.344841,-1.85807,0.0747073,0.090728,0.411045,0.000252076,-0.00182663,0.000717446,-0.000832291,-0.356626,-0.153646,-0.00044497,0,0,0,0,0,0,0,0.118639,-0.233826,0.344455,-1.85828,0.09334,1.66959,1.19646,-0.000430909,0.00244252,-0.00213782,0.00392183,-0.00702025,-0.00462317,0.000691177,-0.0202602,-24.9611,-3.08562,27.5739,-0.0534094,3.15209,-0.0301054,1.25951,0.641082,-0.350641,-0.610204,1.06312,-0.0304862,0.0241781,0.690677,-0.00309282,-0.287632,-0.0671085,-0.0711807,0.00884551,
0.119057,-0.23377,0.344841,-1.85807,0.0732793,0.0901124,0.411043,-0.000341239,-0.00167413,8.60473e-05,-0.00105224,-0.357003,-0.153895,-0.000435641,0,0,0,0,0,0,0,0.118639,-0.233826,0.344455,-1.85828,0.09334,1.66959,1.19646,-0.000430909,0.00244252,-0.00213782,0.00392183,-0.00702025,-0.00462317,0.000691177,-0.0202602,-24.9611,-3.08562,27.5739,-0.0534094,3.15209,-0.0301054,0.143317,0.399177,0.209478,-0.394116,0.0519666,0.133531,0.188286,0.039624,0.14273,-0.0113434,-0.140104,-0.0846101,0.00902084,
0.119416,-0.233829,0.344988,-1.85688,0.0512948,0.0686643,0.410843,-0.00222367,-0.00687675,-0.00330498,0.00139214,-1.15459,-0.815928,-0.0052839,0,0,0,0,0,0,0,0.118639,-0.233826,0.344455,-1.85828,0.09334,1.66959,1.19646,-0.000430909,0.00244252,-0.00213782,0.00392183,-0.00702025,-0.00462317,0.000691177,-0.0202602,-24.9611,-3.08562,27.5739,-0.0534094,3.15209,-0.0301054,0.143317,0.399177,0.209478,-0.394116,0.0519666,0.133531,0.188286,0.039624,0.14273,-0.0113434,-0.140104,-0.0846101,0.00902084,
0.11948,-0.233976,0.345048,-1.85683,0.0510572,0.0715667,0.410874,-0.000385441,-0.00847643,-0.00139795,0.00268741,-1.15634,-0.741855,-0.00473422,0,0,0,0,0,0,0,0.118639,-0.233826,0.344455,-1.85828,0.09334,1.66959,1.19646,-0.000430909,0.00244252,-0.00213782,0.00392183,-0.00702025,-0.00462317,0.000691177,-0.0202602,-24.9611,-3.08562,27.5739,-0.0534094,3.15209,-0.0301054,0.506999,0.142815,0.180842,-0.348964,0.319789,-0.0660109,-0.00629038,0.190494,-0.0505552,-0.10539,-0.258561,-0.139601,0.00941131,
0.119467,-0.234004,0.345031,-1.85683,0.0463656,0.068566,0.410855,-0.00328407,-0.00697854,-0.00426009,-0.000257637,-1.17288,-0.750165,-0.00468078,0,0,0,0,0,0,0,0.118639,-0.233826,0.344455,-1.85828,0.09334,1.66959,1.19646,-0.000430909,0.00244252,-0.00213782,0.00392183,-0.00702025,-0.00462317,0.000691177,-0.0202602,-24.9611,-3.08562,27.5739,-0.0534094,3.15209,-0.0301054,0.653656,0.0651485,0.285946,-0.338998,0.379463,-0.133702,-0.0605962,0.204239,-0.124481,-0.0966292,-0.324677,-0.160441,0.00911135,
0.119443,-0.234025,0.345003,-1.85685,0.0416196,0.0655422,0.410837,-0.00592865,-0.00538769,-0.00690037,-0.00283729,-1.18651,-0.755957,-0.00462245,0,0,0,0,0,0,0,0.118807,-0.233898,0.344624,-1.85816,0.0877917,1.66897,1.19646,0.0127869,-0.00319868,0.00419058,0.00833626,-0.285272,-0.0790896,0.00101444,-0.424923,-24.1875,-3.48631,26.6772,-0.633854,2.71447,-0.0227812,0.653656,0.0651485,0.285946,-0.338998,0.379463,-0.133702,-0.0605962,0.204239,-0.124481,-0.0966292,-0.324677,-0.160441,0.00911135,
0.11941,-0.23404,0.344966,-1.85687,0.0368286,0.0625036,0.410819,-0.00832925,-0.00376679,-0.0093194,-0.00509553,-1.19776,-0.759653,-0.00456138,0,0,0,0,0,0,0,0.118807,-0.233898,0.344624,-1.85816,0.0877917,1.66897,1.19646,0.0127869,-0.00319868,0.00419058,0.00833626,-0.285272,-0.0790896,0.00101444,-0.424923,-24.1875,-3.48631,26.6772,-0.633854,2.71447,-0.0227812,1.24394,1.31514,0.591279,-1.08311,0.6518,0.251778,0.345932,0.320405,0.306093,0.0697514,-0.274416,-0.0829133,0.0177647,
0.119368,-0.234049,0.34492,-1.85689,0.0320003,0.0594571,0.410801,-0.0104995,-0.00216188,-0.0115242,-0.00707001,-1.20706,-0.761605,-0.00449899,0,0,0,0,0,0,0,0.118807,-0.233898,0.344624,-1.85816,0.0877917,1.66897,1.19646,0.0127869,-0.00319868,0.00419058,0.00833626,-0.285272,-0.0790896,0.00101444,-0.424923,-24.1875,-3.48631,26.6772,-0.633854,2.71447,-0.0227812,1.24394,1.31514,0.591279,-1.08311,0.6518,0.251778,0.345932,0.320405,0.306093,0.0697514,-0.274416,-0.0829133,0.0177647,
0.119318,-0.234052,0.344866,-1.85693,0.0271414,0.0564087,0.410783,-0.0124549,-0.000605764,-0.0135257,-0.0087932,-1.21473,-0.762108,-0.00443626,0,0,0,0,0,0,0,0.118807,-0.233898,0.344624,-1.85816,0.0877917,1.66897,1.19646,0.0127869,-0.00319868,0.00419058,0.00833626,-0.285272,-0.0790896,0.00101444,-0.424923,-24.1875,-3.48631,26.6772,-0.633854,2.71447,-0.0227812,1.37613,1.23398,0.739916,-1.23409,0.747974,0.173962,0.256541,0.392613,0.279596,-0.03566,-0.462215,-0.234993,0.0201906,
0.113915,-0.233348,0.338733,-1.85929,0.0570564,0.0555199,0.408841,-0.157694,0.0296744,-0.180458,-0.0672714,-1.07241,-1.22822,-0.0436393,0,0,0,0,0,0,0,0.118807,-0.233898,0.344624,-1.85816,0.0877917,1.66897,1.19646,0.0127869,-0.00319868,0.00419058,0.00833626,-0.285272,-0.0790896,0.00101444,-0.424923,-24.1875,-3.48631,26.6772,-0.633854,2.71447,-0.0227812,0.990816,-0.0384338,1.19261,-0.697865,0.376596,-0.29325,-0.238098,0.135539,-0.170889,-0.105232,-0.841214,-0.494697,0.0195301,
0.11414,-0.233635,0.339037,-1.85904,0.0475134,0.0536735,0.40906,-0.153725,0.02652,-0.176018,-0.0612685,-1.09469,-1.23657,-0.0386955,0,0,0,0,0,0,0,0.119637,-0.233883,0.345259,-1.85723,0.0679168,1.66231,1.19645,0.0375589,-0.00428304,0.0281909,0.0257935,-0.729798,-0.249373,-0.000946334,-1.51593,-24.6358,-4.36308,26.2567,-1.06781,2.19811,0.017502,0.990816,-0.0384338,1.19261,-0.697865,0.376596,-0.29325,-0.238098,0.135539,-0.170889,-0.105232,-0.841214,-0.494697,0.0195301,
0.113503,-0.233509,0.33831,-1.85931,0.0430412,0.0486413,0.408907,-0.159225,0.0313599,-0.181674,-0.0659727,-1.11805,-1.25805,-0.0381746,0,0,0,0,0,0,0,0.119637,-0.233883,0.345259,-1.85723,0.0679168,1.66231,1.19645,0.0375589,-0.00428304,0.0281909,0.0257935,-0.729798,-0.249373,-0.000946334,-1.51593,-24.6358,-4.36308,26.2567,-1.06781,2.19811,0.017502,0.939994,0.0411224,1.55604,-0.8649,0.241734,-0.255876,-0.215796,0.0344838,-0.0857443,-0.0666586,-0.991369,-0.60136,0.0163574,
0.112847,-0.233366,0.337563,-1.85959,0.0384878,0.0435377,0.408756,-0.164049,0.035946,-0.186633,-0.0700887,-1.13835,-1.2759,-0.0376631,0,0,0,0,0,0,0,0.119637,-0.233883,0.345259,-1.85723,0.0679168,1.66231,1.19645,0.0375589,-0.00428304,0.0281909,0.0257935,-0.729798,-0.249373,-0.000946334,-1.51593,-24.6358,-4.36308,26.2567,-1.06781,2.19811,0.017502,0.939994,0.0411224,1.55604,-0.8649,0.241734,-0.255876,-0.215796,0.0344838,-0.0857443,-0.0666586,-0.991369,-0.60136,0.0163574,
0.112174,-0.233205,0.336799,-1.85988,0.0338639,0.0383748,0.408608,-0.168274,0.0402398,-0.190979,-0.0736714,-1.15599,-1.29072,-0.0371595,0,0,0,0,0,0,0,0.119637,-0.233883,0.345259,-1.85723,0.0679168,1.66231,1.19645,0.0375589,-0.00428304,0.0281909,0.0257935,-0.729798,-0.249373,-0.000946334,-1.51593,-24.6358,-4.36308,26.2567,-1.06781,2.19811,0.017502,0.743058,0.892747,2.12417,-1.33567,0.00160735,0.156723,0.187279,-0.116674,0.372243,0.0970681,-0.931526,-0.677603,0.00693699,
0.111486,-0.233028,0.33602,-1.86019,0.0291787,0.0331629,0.408461,-0.171964,0.0442196,-0.194782,-0.0767718,-1.1713,-1.30299,-0.0366622,0,0,0,0,0,0,0,0.119637,-0.233883,0.345259,-1.85723,0.0679168,1.66231,1.19645,0.0375589,-0.00428304,0.0281909,0.0257935,-0.729798,-0.249373,-0.000946334,-1.51593,-24.6358,-4.36308,26.2567,-1.06781,2.19811,0.017502,0.743058,0.892747,2.12417,-1.33567,0.00160735,0.156723,0.187279,-0.116674,0.372243,0.0970681,-0.931526,-0.677603,0.00693699,
0.110785,-0.232836,0.335228,-1.86051,0.0244403,0.0279104,0.408316,-0.175178,0.0478764,-0.198104,-0.0794363,-1.18458,-1.31312,-0.0361702,0,0,0,0,0,0,0,0.120068,-0.23413,0.345471,-1.85686,0.0457476,1.65193,1.19645,-0.003663,-0.0108,0.000746666,0.0117268,-0.725943,-0.429265,-0.000799201,-3.51941,-22.7672,-7.2354,25.134,-1.32416,0.818411,-0.0163725,0.918824,0.517515,2.34988,-1.0853,0.206589,-0.0456893,-0.0125921,0.0137513,0.140373,0.000773014,-0.918659,-0.848183,-0.000327437,
0.109179,-0.233044,0.333524,-1.86197,0.0527517,0.0550555,0.407138,-0.29457,0.0628288,-0.333687,-0.1292,-1.02512,-1.21126,-0.0754459,0,0,0,0,0,0,0,0.120068,-0.23413,0.345471,-1.85686,0.0457476,1.65193,1.19645,-0.003663,-0.0108,0.000746666,0.0117268,-0.725943,-0.429265,-0.000799201,-3.51941,-22.7672,-7.2354,25.134,-1.32416,0.818411,-0.0163725,0.918824,0.517515,2.34988,-1.0853,0.206589,-0.0456893,-0.0125921,0.0137513,0.140373,0.000773014,-0.918659,-0.848183,-0.000327437,
0.110193,-0.233296,0.334196,-1.86087,0.00398682,0.0330502,0.407572,-0.290282,0.0643192,-0.32896,-0.122931,-1.05988,-1.23452,-0.0658583,0,0,0,0,0,0,0,0.120068,-0.23413,0.345471,-1.85686,0.0457476,1.65193,1.19645,-0.003663,-0.0108,0.000746666,0.0117268,-0.725943,-0.429265,-0.000799201,-3.51941,-22.7672,-7.2354,25.134,-1.32416,0.818411,-0.0163725,2.02244,-1.60019,2.50513,0.111912,1.10677,-1.20972,-1.11155,0.488478,-1.1758,-0.331517,-1.16198,-1.15773,-0.0113741,
0.109003,-0.233011,0.33285,-1.86138,-0.000354281,0.0280468,0.407313,-0.297495,0.0711272,-0.336624,-0.127021,-1.08528,-1.25085,-0.0648723,0,0,0,0,0,0,0,0.120068,-0.23413,0.345471,-1.85686,0.0457476,1.65193,1.19645,-0.003663,-0.0108,0.000746666,0.0117268,-0.725943,-0.429265,-0.000799201,-3.51941,-22.7672,-7.2354,25.134,-1.32416,0.818411,-0.0163725,2.17468,-2.34812,2.78931,0.594984,1.17674,-1.56782,-1.45313,0.480993,-1.59248,-0.339321,-1.23413,-1.26443,-0.0155188,
0.107789,-0.232702,0.331477,-1.8619,-0.00478637,0.022989,0.407057,-0.303713,0.0773365,-0.343222,-0.130557,-1.10802,-1.26445,-0.0639072,0,0,0,0,0,0,0,0.120068,-0.23413,0.345471,-1.85686,0.0457476,1.65193,1.19645,-0.003663,-0.0108,0.000746666,0.0117268,-0.725943,-0.429265,-0.000799201,-3.51941,-22.7672,-7.2354,25.134,-1.32416,0.818411,-0.0163725,2.17468,-2.34812,2.78931,0.594984,1.17674,-1.56782,-1.45313,0.480993,-1.59248,-0.339321,-1.23413,-1.26443,-0.0155188,
0.106552,-0.23237,0.330081,-1.86243,-0.00929959,0.017886,0.406806,-0.309061,0.0829657,-0.348899,-0.133584,-1.1283,-1.27574,-0.0629586,0,0,0,0,0,0,0,0.120068,-0.23413,0.345471,-1.85686,0.0457476,1.65193,1.19645,-0.003663,-0.0108,0.000746666,0.0117268,-0.725943,-0.429265,-0.000799201,-3.51941,-22.7672,-7.2354,25.134,-1.32416,0.818411,-0.0163725,0.675978,-1.23509,2.52193,-0.126674,0.410837,-0.742343,-0.674768,0.254274,-0.661229,-0.466523,-1.0236,-1.3937,-0.0246046,
0.105298,-0.232018,0.328666,-1.86298,-0.0138848,0.0127456,0.406557,-0.313647,0.0880402,-0.353776,-0.136145,-1.14631,-1.2851,-0.0620233,0,0,0,0,0,0,0,0.119885,-0.234523,0.344684,-1.85687,0.0208738,1.63404,1.19637,-0.0217025,-0.000621881,-0.0697485,-0.00371221,-0.693957,-0.541348,-0.00419449,-5.34436,-22.7156,-8.68743,25.5069,-1.15937,1.20934,-0.050247,0.675978,-1.23509,2.52193,-0.126674,0.410837,-0.742343,-0.674768,0.254274,-0.661229,-0.466523,-1.0236,-1.3937,-0.0246046,
0.104027,-0.231647,0.327234,-1.86353,-0.0185338,0.00757436,0.406313,-0.317561,0.0925896,-0.357954,-0.138279,-1.16224,-1.29282,-0.0610987,0,0,0,0,0,0,0,0.119885,-0.234523,0.344684,-1.85687,0.0208738,1.63404,1.19637,-0.0217025,-0.000621881,-0.0697485,-0.00371221,-0.693957,-0.541348,-0.00419449,-5.34436,-22.7156,-8.68743,25.5069,-1.15937,1.20934,-0.050247,-0.574343,-0.983996,2.30188,-0.289354,-0.229103,-0.347004,-0.316901,0.0384928,-0.220336,-0.597758,-0.886388,-1.52381,-0.0324009,
0.1056,-0.232535,0.329145,-1.86332,0.00871676,0.0345268,0.405713,-0.420275,0.103398,-0.473349,-0.17963,-0.997558,-1.20654,-0.101388,0,0,0,0,0,0,0,0.119885,-0.234523,0.344684,-1.85687,0.0208738,1.63404,1.19637,-0.0217025,-0.000621881,-0.0697485,-0.00371221,-0.693957,-0.541348,-0.00419449,-5.34436,-22.7156,-8.68743,25.5069,-1.15937,1.20934,-0.050247,0.468704,-0.849796,2.42138,-0.279579,0.478949,-0.541461,-0.49602,0.391144,-0.444909,-0.587009,-0.813671,-1.49233,-0.0372142,
0.105337,-0.232593,0.328186,-1.86287,-0.0174337,0.0147821,0.406332,-0.407487,0.101011,-0.460211,-0.163619,-1.01627,-1.21483,-0.087202,0,0,0,0,0,0,0,0.119885,-0.234523,0.344684,-1.85687,0.0208738,1.63404,1.19637,-0.0217025,-0.000621881,-0.0697485,-0.00371221,-0.693957,-0.541348,-0.00419449,-5.34436,-22.7156,-8.68743,25.5069,-1.15937,1.20934,-0.050247,0.468704,-0.849796,2.42138,-0.279579,0.478949,-0.541461,-0.49602,0.391144,-0.444909,-0.587009,-0.813671,-1.49233,-0.0372142,
0.103673,-0.232157,0.326308,-1.86354,-0.0216228,0.00986473,0.405989,-0.416165,0.109035,-0.469517,-0.167464,-1.04729,-1.22933,-0.0857757,0,0,0,0,0,0,0,0.119885,-0.234523,0.344684,-1.85687,0.0208738,1.63404,1.19637,-0.0217025,-0.000621881,-0.0697485,-0.00371221,-0.693957,-0.541348,-0.00419449,-5.34436,-22.7156,-8.68743,25.5069,-1.15937,1.20934,-0.050247,1.35521,-0.336695,2.1941,-0.565864,1.1571,-0.531866,-0.484701,0.785118,-0.420641,-0.642891,-0.71639,-1.40436,-0.0420168,
0.101978,-0.231692,0.324398,-1.86422,-0.0259237,0.00489915,0.405652,-0.423595,0.116271,-0.477481,-0.170746,-1.07523,-1.24139,-0.0843769,0,0,0,0,0,0,0,0.118403,-0.23487,0.342096,-1.85737,-0.00274479,1.61518,1.19591,-0.0676169,-0.00975702,-0.104317,-0.0186325,-0.805432,-0.654408,-0.0245976,-4.9635,-21.6683,-8.43749,24.8364,-0.542301,1.5078,-0.0227812,1.35521,-0.336695,2.1941,-0.565864,1.1571,-0.531866,-0.484701,0.785118,-0.420641,-0.642891,-0.71639,-1.40436,-0.0420168,
0.100258,-0.231203,0.32246,-1.86492,-0.0303229,-5.87808e-05,0.40532,-0.430003,0.122133,-0.484442,-0.175905,-1.0998,-1.23948,-0.0829713,0,0,0,0,0,0,0,0.118403,-0.23487,0.342096,-1.85737,-0.00274479,1.61518,1.19591,-0.0676169,-0.00975702,-0.104317,-0.0186325,-0.805432,-0.654408,-0.0245976,-4.9635,-21.6683,-8.43749,24.8364,-0.542301,1.5078,-0.0227812,0.521025,0.579085,1.53803,-1.14899,0.842143,0.0591271,0.0818206,0.778606,0.240399,-0.791784,-0.511925,-1.35452,-0.0515286,
0.0985162,-0.230695,0.320498,-1.86565,-0.0348085,-0.0049393,0.404994,-0.435531,0.127007,-0.490473,-0.182676,-1.12139,-1.22013,-0.0815449,0,0,0,0,0,0,0,0.118403,-0.23487,0.342096,-1.85737,-0.00274479,1.61518,1.19591,-0.0676169,-0.00975702,-0.104317,-0.0186325,-0.805432,-0.654408,-0.0245976,-4.9635,-21.6683,-8.43749,24.8364,-0.542301,1.5078,-0.0227812,-0.470257,-0.363191,2.03256,-0.197931,-0.128508,-0.10509,-0.0945706,0.0658076,-0.0385344,-0.382274,-0.386158,-1.19925,-0.0555589,
0.0967553,-0.230168,0.318516,-1.86641,-0.0393709,-0.00969502,0.404673,-0.44024,0.131623,-0.495563,-0.189137,-1.1406,-1.18893,-0.080123,0,0,0,0,0,0,0,0.118403,-0.23487,0.342096,-1.85737,-0.00274479,1.61518,1.19591,-0.0676169,-0.00975702,-0.104317,-0.0186325,-0.805432,-0.654408,-0.0245976,-4.9635,-21.6683,-8.43749,24.8364,-0.542301,1.5078,-0.0227812,-0.470257,-0.363191,2.03256,-0.197931,-0.128508,-0.10509,-0.0945706,0.0658076,-0.0385344,-0.382274,-0.386158,-1.19925,-0.0555589,
0.101088,-0.231941,0.323566,-1.86508,-0.0131504,0.0162303,0.404502,-0.527113,0.135756,-0.59205,-0.214444,-0.960425,-1.18738,-0.122126,0,0,0,0,0,0,0,0.118403,-0.23487,0.342096,-1.85737,-0.00274479,1.61518,1.19591,-0.0676169,-0.00975702,-0.104317,-0.0186325,-0.805432,-0.654408,-0.0245976,-4.9635,-21.6683,-8.43749,24.8364,-0.542301,1.5078,-0.0227812,-0.185117,-0.388809,2.15397,0.00546173,-0.0712264,-0.168149,-0.135765,0.00734399,-0.162352,-0.189345,-0.2905,-1.03498,-0.0642139,
0.0996144,-0.232355,0.320928,-1.86497,-0.040339,-0.00341552,0.404967,-0.511626,0.12596,-0.57644,-0.210222,-0.990382,-1.05829,-0.103132,0,0,0,0,0,0,0,0.118403,-0.23487,0.342096,-1.85737,-0.00274479,1.61518,1.19591,-0.0676169,-0.00975702,-0.104317,-0.0186325,-0.805432,-0.654408,-0.0245976,-4.9635,-21.6683,-8.43749,24.8364,-0.542301,1.5078,-0.0227812,-0.185117,-0.388809,2.15397,0.00546173,-0.0712264,-0.168149,-0.135765,0.00734399,-0.162352,-0.189345,-0.2905,-1.03498,-0.0642139,
0.0975291,-0.231813,0.318581,-1.86585,-0.0444332,-0.00747381,0.404562,-0.521312,0.135487,-0.586801,-0.217811,-1.02355,-1.01457,-0.101226,0,0,0,0,0,0,0,0.115101,-0.235052,0.337321,-1.85875,-0.0277088,1.59275,1.19482,-0.12938,-0.0106992,-0.179255,-0.0618042,-0.803016,-0.757334,-0.0309448,-5.67364,-21.2676,-9.03655,25.2094,-0.414127,1.73394,-0.0703886,-0.18759,0.309029,1.59685,-0.495256,0.108808,0.137143,0.155761,0.216334,0.203473,-0.340563,-0.199408,-0.969639,-0.0732984,
0.0954109,-0.231235,0.316199,-1.86674,-0.0486473,-0.0113349,0.404165,-0.529545,0.144324,-0.595576,-0.224008,-1.05354,-0.965269,-0.0993721,0,0,0,0,0,0,0,0.115101,-0.235052,0.337321,-1.85875,-0.0277088,1.59275,1.19482,-0.12938,-0.0106992,-0.179255,-0.0618042,-0.803016,-0.757334,-0.0309448,-5.67364,-21.2676,-9.03655,25.2094,-0.414127,1.73394,-0.0703886,-0.18759,0.309029,1.59685,-0.495256,0.108808,0.137143,0.155761,0.216334,0.203473,-0.340563,-0.199408,-0.969639,-0.0732984,
0.0932649,-0.230626,0.313787,-1.86766,-0.0529691,-0.0149839,0.403774,-0.536518,0.152408,-0.603,-0.22892,-1.08043,-0.912245,-0.0975592,0,0,0,0,0,0,0,0.115101,-0.235052,0.337321,-1.85875,-0.0277088,1.59275,1.19482,-0.12938,-0.0106992,-0.179255,-0.0618042,-0.803016,-0.757334,-0.0309448,-5.67364,-21.2676,-9.03655,25.2094,-0.414127,1.73394,-0.0703886,-0.906686,1.30102,0.971443,-1.18653,-0.226152,0.737674,0.711947,0.157523,0.911369,-0.430487,-0.0888155,-0.859665,-0.0837306,
0.0910953,-0.229987,0.31135,-1.86859,-0.0573865,-0.0184118,0.403391,-0.542389,0.159705,-0.609261,-0.232675,-1.10436,-0.85698,-0.0957799,0,0,0,0,0,0,0,0.115101,-0.235052,0.337321,-1.85875,-0.0277088,1.59275,1.19482,-0.12938,-0.0106992,-0.179255,-0.0618042,-0.803016,-0.757334,-0.0309448,-5.67364,-21.2676,-9.03655,25.2094,-0.414127,1.73394,-0.0703886,-1.19388,1.04687,0.853798,-0.955093,-0.487823,0.708385,0.663461,-0.0267937,0.869744,-0.339276,-0.062215,-0.738931,-0.0923467,
0.0981162,-0.232218,0.319421,-1.86585,-0.0326437,0.0016096,0.403723,-0.60952,0.15244,-0.683945,-0.233944,-0.896686,-1.15075,-0.139967,0,0,0,0,0,0,0,0.115101,-0.235052,0.337321,-1.85875,-0.0277088,1.59275,1.19482,-0.12938,-0.0106992,-0.179255,-0.0618042,-0.803016,-0.757334,-0.0309448,-5.67364,-21.2676,-9.03655,25.2094,-0.414127,1.73394,-0.0703886,-1.19388,1.04687,0.853798,-0.955093,-0.487823,0.708385,0.663461,-0.0267937,0.869744,-0.339276,-0.062215,-0.738931,-0.0923467,
0.0944652,-0.232054,0.314158,-1.86725,-0.060246,-0.0181928,0.40361,-0.597001,0.149478,-0.671191,-0.243162,-0.934132,-0.814831,-0.118565,0,0,0,0,0,0,0,0.109208,-0.235082,0.329966,-1.86126,-0.0515562,1.56876,1.1935,-0.208992,-0.00879041,-0.254827,-0.103767,-0.712489,-0.714642,-0.0505492,-5.72522,-21.0692,-9.33409,25.0864,-0.426029,2.39037,-0.0566557,-0.143896,0.0155841,0.825204,-0.220612,0.167461,0.0440142,0.0268631,0.235815,0.101782,-0.330495,-0.103443,-0.654867,-0.0977335,
0.0920304,-0.23141,0.311422,-1.86825,-0.0641357,-0.0212436,0.403144,-0.608701,0.161142,-0.683823,-0.248397,-0.972406,-0.762703,-0.116279,0,0,0,0,0,0,0,0.109208,-0.235082,0.329966,-1.86126,-0.0515562,1.56876,1.1935,-0.208992,-0.00879041,-0.254827,-0.103767,-0.712489,-0.714642,-0.0505492,-5.72522,-21.0692,-9.33409,25.0864,-0.426029,2.39037,-0.0566557,-0.143896,0.0155841,0.825204,-0.220612,0.167461,0.0440142,0.0268631,0.235815,0.101782,-0.330495,-0.103443,-0.654867,-0.0977335,
0.0895561,-0.230723,0.308645,-1.86926,-0.0681646,-0.0240803,0.402688,-0.618554,0.171543,-0.694446,-0.252474,-1.00723,-0.709187,-0.114049,0,0,0,0,0,0,0,0.109208,-0.235082,0.329966,-1.86126,-0.0515562,1.56876,1.1935,-0.208992,-0.00879041,-0.254827,-0.103767,-0.712489,-0.714642,-0.0505492,-5.72522,-21.0692,-9.33409,25.0864,-0.426029,2.39037,-0.0566557,0.274685,-0.0721863,0.651554,-0.247991,0.464153,-0.0690876,-0.074794,0.398616,-0.00850315,-0.389423,-0.185116,-0.62036,-0.104908,
0.0870489,-0.230001,0.305831,-1.87028,-0.0723192,-0.0267014,0.402241,-0.626807,0.180729,-0.703349,-0.255516,-1.03864,-0.655255,-0.111865,0,0,0,0,0,0,0,0.109208,-0.235082,0.329966,-1.86126,-0.0515562,1.56876,1.1935,-0.208992,-0.00879041,-0.254827,-0.103767,-0.712489,-0.714642,-0.0505492,-5.72522,-21.0692,-9.33409,25.0864,-0.426029,2.39037,-0.0566557,0.274685,-0.0721863,0.651554,-0.247991,0.464153,-0.0690876,-0.074794,0.398616,-0.00850315,-0.389423,-0.185116,-0.62036,-0.104908,
0.0845143,-0.229246,0.302988,-1.87131,-0.0765862,-0.0291079,0.401802,-0.63366,0.18876,-0.710767,-0.257649,-1.06676,-0.601631,-0.10972,0,0,0,0,0,0,0,0.109208,-0.235082,0.329966,-1.86126,-0.0515562,1.56876,1.1935,-0.208992,-0.00879041,-0.254827,-0.103767,-0.712489,-0.714642,-0.0505492,-5.72522,-21.0692,-9.33409,25.0864,-0.426029,2.39037,-0.0566557,-0.0237003,-0.510123,-0.0625405,-0.155398,0.535556,-0.186485,-0.219219,0.571156,-0.0912255,-0.713325,-0.247705,-0.684435,-0.11172,
0.0876042,-0.230592,0.310699,-1.8696,-0.0617099,-0.0255979,0.401389,-0.71256,0.191658,-0.733954,-0.27877,-0.937605,-1.04668,-0.150231,0,0,0,0,0,0,0,0.109208,-0.235082,0.329966,-1.86126,-0.0515562,1.56876,1.1935,-0.208992,-0.00879041,-0.254827,-0.103767,-0.712489,-0.714642,-0.0505492,-5.72522,-21.0692,-9.33409,25.0864,-0.426029,2.39037,-0.0566557,-0.35849,-0.491202,-0.312912,-0.15323,0.417456,-0.10661,-0.137536,0.563111,-0.0168401,-0.791996,-0.184567,-0.684562,-0.116073,
0.0820718,-0.230364,0.301434,-1.87237,-0.0866719,-0.0289568,0.401414,-0.683262,0.186424,-0.75127,-0.267799,-0.952017,-0.330697,-0.123207,0,0,0,0,0,0,0,0.0984252,-0.234961,0.316695,-1.86701,-0.0793352,1.54303,1.19162,-0.307654,0.00830793,-0.356289,-0.160414,-0.61798,-0.51592,-0.0368111,-5.54669,-21.7674,-8.90959,25.011,-1.62995,2.45629,-0.083206,-0.35849,-0.491202,-0.312912,-0.15323,0.417456,-0.10661,-0.137536,0.563111,-0.0168401,-0.791996,-0.184567,-0.684562,-0.116073,
0.0793057,-0.229582,0.298374,-1.87346,-0.0906146,-0.0300645,0.400931,-0.691519,0.195525,-0.765115,-0.270465,-0.985674,-0.27691,-0.120771,0,0,0,0,0,0,0,0.0984252,-0.234961,0.316695,-1.86701,-0.0793352,1.54303,1.19162,-0.307654,0.00830793,-0.356289,-0.160414,-0.61798,-0.51592,-0.0368111,-5.54669,-21.7674,-8.90959,25.011,-1.62995,2.45629,-0.083206,-0.848672,-0.390345,0.0296747,-0.137793,-0.138838,0.0579022,0.0420924,0.16748,0.128177,-0.537064,-0.205223,-0.589371,-0.121148,
0.076513,-0.228768,0.295265,-1.87454,-0.0946787,-0.0309651,0.400457,-0.698163,0.203501,-0.777237,-0.27187,-1.01604,-0.225162,-0.118394,0,0,0,0,0,0,0,0.0984252,-0.234961,0.316695,-1.86701,-0.0793352,1.54303,1.19162,-0.307654,0.00830793,-0.356289,-0.160414,-0.61798,-0.51592,-0.0368111,-5.54669,-21.7674,-8.90959,25.011,-1.62995,2.45629,-0.083206,-0.848672,-0.390345,0.0296747,-0.137793,-0.138838,0.0579022,0.0420924,0.16748,0.128177,-0.537064,-0.205223,-0.589371,-0.121148,
0.0736997,-0.227927,0.292113,-1.87563,-0.0988514,-0.0316626,0.399993,-0.70334,0.210256,-0.787976,-0.272593,-1.04318,-0.174374,-0.116084,0,0,0,0,0,0,0,0.0984252,-0.234961,0.316695,-1.86701,-0.0793352,1.54303,1.19162,-0.307654,0.00830793,-0.356289,-0.160414,-0.61798,-0.51592,-0.0368111,-5.54669,-21.7674,-8.90959,25.011,-1.62995,2.45629,-0.083206,-1.15889,0.528754,-0.495251,-0.904783,-0.149736,0.531555,0.510517,0.300613,0.697897,-0.737431,-0.226356,-0.598613,-0.12578,
0.0708636,-0.227063,0.288932,-1.87672,-0.103123,-0.0321581,0.399538,-0.709031,0.215897,-0.795079,-0.272751,-1.06781,-0.123882,-0.113805,0,0,0,0,0,0,0,0.0984252,-0.234961,0.316695,-1.86701,-0.0793352,1.54303,1.19162,-0.307654,0.00830793,-0.356289,-0.160414,-0.61798,-0.51592,-0.0368111,-5.54669,-21.7674,-8.90959,25.011,-1.62995,2.45629,-0.083206,-1.13535,0.424457,-0.904692,-0.972683,0.0705312,0.477745,0.440695,0.517424,0.678521,-0.975646,-0.276198,-0.673558,-0.131718,
0.0792938,-0.229277,0.302228,-1.87329,-0.0858381,-0.0425024,0.399696,-0.768392,0.221334,-0.73761,-0.308658,-0.93686,-0.689421,-0.15653,0,0,0,0,0,0,0,0.0873136,-0.234302,0.303691,-1.87251,-0.0985672,1.53027,1.19053,-0.366185,0.0293374,-0.445312,-0.190556,-0.586954,-0.262673,-0.0367095,-5.80059,-22.1681,-8.81041,26.2289,-1.36719,3.09899,-0.0630644,-1.13535,0.424457,-0.904692,-0.972683,0.0705312,0.477745,0.440695,0.517424,0.678521,-0.975646,-0.276198,-0.673558,-0.131718,
0.0548482,-0.227134,0.272286,-1.88473,-0.135245,-0.0458415,0.398232,-0.759495,0.218786,-0.780527,-0.287663,-0.980557,0.182442,-0.129666,0,0,0,0,0,0,0,0.0873136,-0.234302,0.303691,-1.87251,-0.0985672,1.53027,1.19053,-0.366185,0.0293374,-0.445312,-0.190556,-0.586954,-0.262673,-0.0367095,-5.80059,-22.1681,-8.81041,26.2289,-1.36719,3.09899,-0.0630644,-1.83555,0.0753067,0.0313595,-0.508998,-0.898081,0.470306,0.425757,-0.248506,0.612301,-0.428025,-0.280995,-0.526605,-0.132745,
0.0518002,-0.226231,0.269115,-1.88589,-0.139284,-0.044815,0.397728,-0.762009,0.225832,-0.792923,-0.28866,-1.00975,0.256621,-0.125943,0,0,0,0,0,0,0,0.0873136,-0.234302,0.303691,-1.87251,-0.0985672,1.53027,1.19053,-0.366185,0.0293374,-0.445312,-0.190556,-0.586954,-0.262673,-0.0367095,-5.80059,-22.1681,-8.81041,26.2289,-1.36719,3.09899,-0.0630644,-1.83555,0.0753067,0.0313595,-0.508998,-0.898081,0.470306,0.425757,-0.248506,0.612301,-0.428025,-0.280995,-0.526605,-0.132745,
0.0487449,-0.225301,0.265903,-1.88703,-0.143428,-0.0435627,0.397234,-0.763832,0.232446,-0.802825,-0.285706,-1.03595,0.313078,-0.123675,0,0,0,0,0,0,0,0.0873136,-0.234302,0.303691,-1.87251,-0.0985672,1.53027,1.19053,-0.366185,0.0293374,-0.445312,-0.190556,-0.586954,-0.262673,-0.0367095,-5.80059,-22.1681,-8.81041,26.2289,-1.36719,3.09899,-0.0630644,-0.920105,-0.669544,0.708903,0.0832506,-0.667583,-0.0185582,-0.0382503,-0.350508,0.0373927,-0.0802198,-0.392229,-0.393093,-0.13336,
0.0456884,-0.22435,0.262657,-1.88815,-0.147665,-0.0421345,0.396747,-0.764109,0.237698,-0.811589,-0.281426,-1.05925,0.357045,-0.121639,0,0,0,0,0,0,0,0.0873136,-0.234302,0.303691,-1.87251,-0.0985672,1.53027,1.19053,-0.366185,0.0293374,-0.445312,-0.190556,-0.586954,-0.262673,-0.0367095,-5.80059,-22.1681,-8.81041,26.2289,-1.36719,3.09899,-0.0630644,-0.920105,-0.669544,0.708903,0.0832506,-0.667583,-0.0185582,-0.0382503,-0.350508,0.0373927,-0.0802198,-0.392229,-0.393093,-0.13336,
0.0426368,-0.223385,0.259379,-1.88926,-0.151984,-0.0405685,0.396268,-0.762903,0.241409,-0.819503,-0.276803,-1.07989,0.391501,-0.119765,0,0,0,0,0,0,0,0.0736705,-0.23273,0.289058,-1.87914,-0.117825,1.52627,1.18936,-0.450136,0.0546217,-0.463855,-0.220844,-0.611024,-0.00394675,-0.0409801,-6.76465,-22.1681,-9.56023,26.6534,-1.36719,3.03948,-0.117081,-0.0385458,-0.939042,0.229406,0.0839062,0.162785,-0.296483,-0.283024,0.192984,-0.251221,-0.383205,-0.491425,-0.461883,-0.139926,
0.0395958,-0.22241,0.256072,-1.89035,-0.156377,-0.0388948,0.395796,-0.76026,0.243647,-0.826744,-0.272237,-1.09819,0.418437,-0.118078,0,0,0,0,0,0,0,0.0736705,-0.23273,0.289058,-1.87914,-0.117825,1.52627,1.18936,-0.450136,0.0546217,-0.463855,-0.220844,-0.611024,-0.00394675,-0.0409801,-6.76465,-22.1681,-9.56023,26.6534,-1.36719,3.03948,-0.117081,-0.0385458,-0.939042,0.229406,0.0839062,0.162785,-0.296483,-0.283024,0.192984,-0.251221,-0.383205,-0.491425,-0.461883,-0.139926,
0.0544419,-0.226143,0.27255,-1.8861,-0.135183,-0.050319,0.396548,-0.794834,0.249908,-0.76785,-0.330326,-0.968576,0.103893,-0.162653,0,0,0,0,0,0,0,0.0736705,-0.23273,0.289058,-1.87914,-0.117825,1.52627,1.18936,-0.450136,0.0546217,-0.463855,-0.220844,-0.611024,-0.00394675,-0.0409801,-6.76465,-22.1681,-9.56023,26.6534,-1.36719,3.03948,-0.117081,-0.482708,-0.444772,0.182949,-0.202101,-0.236694,0.0238129,0.0011961,-0.0531888,0.123596,-0.24449,-0.461091,-0.323613,-0.142183,
0.0402365,-0.224833,0.256529,-1.89211,-0.155709,-0.0252498,0.396677,-0.74716,0.219312,-0.799064,-0.269336,-0.996053,0.541854,-0.148392,0,0,0,0,0,0,0,0.0736705,-0.23273,0.289058,-1.87914,-0.117825,1.52627,1.18936,-0.450136,0.0546217,-0.463855,-0.220844,-0.611024,-0.00394675,-0.0409801,-6.76465,-22.1681,-9.56023,26.6534,-1.36719,3.03948,-0.117081,0.239457,0.723593,-0.829765,-1.11099,0.526741,0.466052,0.454441,0.500898,0.655315,-0.517228,-0.448799,-0.157636,-0.145696,
0.0373106,-0.22391,0.253272,-1.89309,-0.159843,-0.0233355,0.396133,-0.731465,0.230799,-0.814152,-0.24654,-1.03343,0.478577,-0.136,0,0,0,0,0,0,0,0.0736705,-0.23273,0.289058,-1.87914,-0.117825,1.52627,1.18936,-0.450136,0.0546217,-0.463855,-0.220844,-0.611024,-0.00394675,-0.0409801,-6.76465,-22.1681,-9.56023,26.6534,-1.36719,3.03948,-0.117081,0.239457,0.723593,-0.829765,-1.11099,0.526741,0.466052,0.454441,0.500898,0.655315,-0.517228,-0.448799,-0.157636,-0.145696,
0.0343896,-0.222978,0.249998,-1.89406,-0.164082,-0.0215333,0.395599,-0.73025,0.233078,-0.818539,-0.240416,-1.0599,0.450542,-0.133437,0,0,0,0,0,0,0,0.0736705,-0.23273,0.289058,-1.87914,-0.117825,1.52627,1.18936,-0.450136,0.0546217,-0.463855,-0.220844,-0.611024,-0.00394675,-0.0409801,-6.76465,-22.1681,-9.56023,26.6534,-1.36719,3.03948,-0.117081,0.960932,-0.694274,-0.968997,-0.28009,1.04214,-0.271469,-0.249594,0.752253,-0.177105,-0.625389,-0.606649,-0.180016,-0.150373,
0.0314654,-0.222048,0.246719,-1.89502,-0.168412,-0.0197628,0.395074,-0.731059,0.232478,-0.819942,-0.24015,-1.08232,0.442627,-0.131356,0,0,0,0,0,0,0,0.0579319,-0.23026,0.272336,-1.88572,-0.138927,1.52784,1.18793,-0.520913,0.0856538,-0.512684,-0.200923,-0.664089,0.0908253,-0.0431084,-4.07879,-23.0409,-6.93785,24.5349,-0.921329,2.65496,-0.130813,0.960932,-0.694274,-0.968997,-0.28009,1.04214,-0.271469,-0.249594,0.752253,-0.177105,-0.625389,-0.606649,-0.180016,-0.150373,
0.0285411,-0.221123,0.243438,-1.89598,-0.172821,-0.0179686,0.394556,-0.731083,0.231027,-0.820221,-0.241841,-1.10237,0.448535,-0.129394,0,0,0,0,0,0,0,0.0579319,-0.23026,0.272336,-1.88572,-0.138927,1.52784,1.18793,-0.520913,0.0856538,-0.512684,-0.200923,-0.664089,0.0908253,-0.0431084,-4.07879,-23.0409,-6.93785,24.5349,-0.921329,2.65496,-0.130813,1.97923,-1.2102,-1.55564,0.00189288,1.90619,-0.641593,-0.589193,1.27006,-0.595251,-0.833944,-0.63381,-0.112602,-0.15397,
0.0256206,-0.220206,0.24016,-1.89696,-0.177304,-0.0161089,0.394046,-0.730114,0.229353,-0.819383,-0.244001,-1.12058,0.464941,-0.127633,0,0,0,0,0,0,0,0.0579319,-0.23026,0.272336,-1.88572,-0.138927,1.52784,1.18793,-0.520913,0.0856538,-0.512684,-0.200923,-0.664089,0.0908253,-0.0431084,-4.07879,-23.0409,-6.93785,24.5349,-0.921329,2.65496,-0.130813,1.97923,-1.2102,-1.55564,0.00189288,1.90619,-0.641593,-0.589193,1.27006,-0.595251,-0.833944,-0.63381,-0.112602,-0.15397,
0.0398478,-0.223601,0.256864,-1.89313,-0.155725,-0.0319135,0.395024,-0.800412,0.254562,-0.775226,-0.305405,-0.97698,0.393832,-0.181136,0,0,0,0,0,0,0,0.0579319,-0.23026,0.272336,-1.88572,-0.138927,1.52784,1.18793,-0.520913,0.0856538,-0.512684,-0.200923,-0.664089,0.0908253,-0.0431084,-4.07879,-23.0409,-6.93785,24.5349,-0.921329,2.65496,-0.130813,1.72065,-1.13971,-1.82872,-0.0272829,1.74706,-0.531989,-0.495096,1.19493,-0.472041,-0.824026,-0.608743,-0.00610399,-0.159658,
0.0245996,-0.221978,0.238209,-1.89776,-0.179655,-0.0263767,0.394795,-0.722195,0.219186,-0.808422,-0.253319,-1.0381,0.498101,-0.157443,0,0,0,0,0,0,0,0.0579319,-0.23026,0.272336,-1.88572,-0.138927,1.52784,1.18793,-0.520913,0.0856538,-0.512684,-0.200923,-0.664089,0.0908253,-0.0431084,-4.07879,-23.0409,-6.93785,24.5349,-0.921329,2.65496,-0.130813,1.72065,-1.13971,-1.82872,-0.0272829,1.74706,-0.531989,-0.495096,1.19493,-0.472041,-0.824026,-0.608743,-0.00610399,-0.159658,
0.0217333,-0.22106,0.234994,-1.89869,-0.183954,-0.0246483,0.394216,-0.716588,0.229353,-0.803759,-0.230693,-1.07481,0.432123,-0.144759,0,0,0,0,0,0,0,0.0401435,-0.226696,0.252616,-1.89233,-0.162741,1.5352,1.18635,-0.533761,0.131752,-0.613931,-0.180801,-0.739074,0.291819,-0.0448979,-2.63073,-24.2391,-5.18828,25.9552,-1.17768,2.62841,-0.123489,-0.973028,0.0297979,-2.18697,-0.801167,0.075638,0.438803,0.433539,0.43183,0.604584,-0.858388,-0.515968,-0.0107909,-0.167986,
0.0188799,-0.220136,0.231794,-1.89958,-0.188362,-0.0230574,0.393648,-0.713336,0.231022,-0.799897,-0.224234,-1.1019,0.39771,-0.142069,0,0,0,0,0,0,0,0.0401435,-0.226696,0.252616,-1.89233,-0.162741,1.5352,1.18635,-0.533761,0.131752,-0.613931,-0.180801,-0.739074,0.291819,-0.0448979,-2.63073,-24.2391,-5.18828,25.9552,-1.17768,2.62841,-0.123489,-0.781244,-0.492254,-1.76161,-0.451427,0.0437286,0.173455,0.198682,0.326872,0.280693,-0.716625,-0.600668,-0.0266668,-0.174458,
0.0160384,-0.219217,0.228608,-1.90048,-0.192856,-0.0215331,0.393087,-0.710378,0.229772,-0.796522,-0.223514,-1.12338,0.381076,-0.140079,0,0,0,0,0,0,0,0.0401435,-0.226696,0.252616,-1.89233,-0.162741,1.5352,1.18635,-0.533761,0.131752,-0.613931,-0.180801,-0.739074,0.291819,-0.0448979,-2.63073,-24.2391,-5.18828,25.9552,-1.17768,2.62841,-0.123489,-0.781244,-0.492254,-1.76161,-0.451427,0.0437286,0.173455,0.198682,0.326872,0.280693,-0.716625,-0.600668,-0.0266668,-0.174458,
0.0132093,-0.218307,0.225436,-1.90138,-0.19742,-0.0200267,0.392534,-0.707267,0.22757,-0.793117,-0.224711,-1.14109,0.376611,-0.138247,0,0,0,0,0,0,0,0.0401435,-0.226696,0.252616,-1.89233,-0.162741,1.5352,1.18635,-0.533761,0.131752,-0.613931,-0.180801,-0.739074,0.291819,-0.0448979,-2.63073,-24.2391,-5.18828,25.9552,-1.17768,2.62841,-0.123489,0.823642,-0.808862,-2.91603,-0.40336,1.67444,-0.194106,-0.148814,1.42219,-0.0902091,-1.30696,-0.623694,-0.0969765,-0.182294,
0.0103941,-0.217406,0.222278,-1.90228,-0.202044,-0.0184995,0.391988,-0.703798,0.225079,-0.789393,-0.226448,-1.15608,0.381803,-0.136622,0,0,0,0,0,0,0,0.0401435,-0.226696,0.252616,-1.89233,-0.162741,1.5352,1.18635,-0.533761,0.131752,-0.613931,-0.180801,-0.739074,0.291819,-0.0448979,-2.63073,-24.2391,-5.18828,25.9552,-1.17768,2.62841,-0.123489,0.823642,-0.808862,-2.91603,-0.40336,1.67444,-0.194106,-0.148814,1.42219,-0.0902091,-1.30696,-0.623694,-0.0969765,-0.182294,
0.0230374,-0.221061,0.238768,-1.89913,-0.179074,-0.0270525,0.393197,-0.793091,0.248015,-0.798448,-0.291547,-1.00721,0.507106,-0.188698,0,0,0,0,0,0,0,0.0401435,-0.226696,0.252616,-1.89233,-0.162741,1.5352,1.18635,-0.533761,0.131752,-0.613931,-0.180801,-0.739074,0.291819,-0.0448979,-2.63073,-24.2391,-5.18828,25.9552,-1.17768,2.62841,-0.123489,-0.467589,-0.828127,-2.34323,-0.258669,0.62321,-0.0432378,-0.010981,0.793556,0.0416039,-1.0729,-0.559424,-0.138127,-0.189458,
0.00734995,-0.217999,0.21705,-1.90382,-0.206531,-0.013563,0.392838,-0.706244,0.211437,-0.791471,-0.245732,-1.08035,0.590723,-0.167087,0,0,0,0,0,0,0,0.0230361,-0.222497,0.23348,-1.89772,-0.18548,1.54642,1.18461,-0.529906,0.164933,-0.628935,-0.15396,-0.769344,0.387866,-0.0468969,-2.6585,-25.9371,-4.6884,25.9076,-1.51368,2.15783,-0.224197,-1.44343,-0.954235,-1.371,-0.0787622,-0.417799,0.0100172,0.040169,0.0716761,0.0681362,-0.666499,-0.587558,-0.149288,-0.19604,
0.00455693,-0.217126,0.213916,-1.90474,-0.210981,-0.0113289,0.392222,-0.698255,0.218026,-0.783514,-0.230429,-1.11245,0.558526,-0.154046,0,0,0,0,0,0,0,0.0230361,-0.222497,0.23348,-1.89772,-0.18548,1.54642,1.18461,-0.529906,0.164933,-0.628935,-0.15396,-0.769344,0.387866,-0.0468969,-2.6585,-25.9371,-4.6884,25.9076,-1.51368,2.15783,-0.224197,-1.44343,-0.954235,-1.371,-0.0787622,-0.417799,0.0100172,0.040169,0.0716761,0.0681362,-0.666499,-0.587558,-0.149288,-0.19604,
0.00178721,-0.216251,0.210809,-1.90564,-0.215524,-0.00915683,0.391616,-0.692429,0.218898,-0.776675,-0.225069,-1.13561,0.543026,-0.151401,0,0,0,0,0,0,0,0.0230361,-0.222497,0.23348,-1.89772,-0.18548,1.54642,1.18461,-0.529906,0.164933,-0.628935,-0.15396,-0.769344,0.387866,-0.0468969,-2.6585,-25.9371,-4.6884,25.9076,-1.51368,2.15783,-0.224197,-0.637558,-0.277257,-1.13899,-0.522633,0.100442,0.217755,0.282577,0.323019,0.287082,-0.63819,-0.595723,-0.174497,-0.206708,
-0.000961491,-0.21538,0.207726,-1.90653,-0.220136,-0.00701161,0.391018,-0.687176,0.217602,-0.770686,-0.22328,-1.15314,0.536306,-0.149521,0,0,0,0,0,0,0,0.0230361,-0.222497,0.23348,-1.89772,-0.18548,1.54642,1.18461,-0.529906,0.164933,-0.628935,-0.15396,-0.769344,0.387866,-0.0468969,-2.6585,-25.9371,-4.6884,25.9076,-1.51368,2.15783,-0.224197,-0.637558,-0.277257,-1.13899,-0.522633,0.100442,0.217755,0.282577,0.323019,0.287082,-0.63819,-0.595723,-0.174497,-0.206708,
-0.00368987,-0.214519,0.204666,-1.90742,-0.224804,-0.00486982,0.390427,-0.682095,0.215439,-0.765056,-0.222743,-1.16682,0.535448,-0.147803,0,0,0,0,0,0,0,0.0230361,-0.222497,0.23348,-1.89772,-0.18548,1.54642,1.18461,-0.529906,0.164933,-0.628935,-0.15396,-0.769344,0.387866,-0.0468969,-2.6585,-25.9371,-4.6884,25.9076,-1.51368,2.15783,-0.224197,-0.178633,-0.567303,-1.7312,-0.375916,0.744483,0.0138209,0.0768771,0.809991,0.0771121,-0.973756,-0.577082,-0.260567,-0.214102,
-0.00639771,-0.213667,0.201628,-1.90831,-0.229515,-0.0027118,0.389842,-0.67696,0.212879,-0.759479,-0.222658,-1.1778,0.539504,-0.146276,0,0,0,0,0,0,0,0.00418601,-0.216929,0.212453,-1.90273,-0.211385,1.5607,1.18338,-0.57518,0.179498,-0.646928,-0.147402,-0.789132,0.480518,-0.0478576,-1.00811,-26.8337,-2.81188,26.2051,-1.0614,2.11846,-0.210464,-0.178633,-0.567303,-1.7312,-0.375916,0.744483,0.0138209,0.0768771,0.809991,0.0771121,-0.973756,-0.577082,-0.260567,-0.214102,
0.00466388,-0.216963,0.217484,-1.90484,-0.205446,-0.0144268,0.391283,-0.764973,0.244481,-0.822987,-0.276159,-1.04648,0.584121,-0.197493,0,0,0,0,0,0,0,0.00418601,-0.216929,0.212453,-1.90273,-0.211385,1.5607,1.18338,-0.57518,0.179498,-0.646928,-0.147402,-0.789132,0.480518,-0.0478576,-1.00811,-26.8337,-2.81188,26.2051,-1.0614,2.11846,-0.210464,-0.838405,-1.18366,-1.32053,0.0760544,0.137103,-0.215126,-0.161593,0.418546,-0.191151,-0.803586,-0.595933,-0.277679,-0.219867,
-0.0278584,-0.207597,0.176559,-1.91361,-0.257373,0.0192158,0.389461,-0.680382,0.211682,-0.764512,-0.230422,-1.10167,0.658457,-0.175827,0,0,0,0,0,0,0,0.00418601,-0.216929,0.212453,-1.90273,-0.211385,1.5607,1.18338,-0.57518,0.179498,-0.646928,-0.147402,-0.789132,0.480518,-0.0478576,-1.00811,-26.8337,-2.81188,26.2051,-1.0614,2.11846,-0.210464,-0.733415,-1.17152,-1.64808,0.00853006,0.38467,-0.224718,-0.173304,0.628723,-0.185204,-0.977393,-0.62662,-0.31645,-0.225618,
-0.0305546,-0.206735,0.173532,-1.91447,-0.261775,0.0216833,0.388806,-0.674056,0.215491,-0.756861,-0.216612,-1.1005,0.61687,-0.163711,0,0,0,0,0,0,0,0.00418601,-0.216929,0.212453,-1.90273,-0.211385,1.5607,1.18338,-0.57518,0.179498,-0.646928,-0.147402,-0.789132,0.480518,-0.0478576,-1.00811,-26.8337,-2.81188,26.2051,-1.0614,2.11846,-0.210464,-0.733415,-1.17152,-1.64808,0.00853006,0.38467,-0.224718,-0.173304,0.628723,-0.185204,-0.977393,-0.62662,-0.31645,-0.225618,
-0.0332354,-0.205877,0.170527,-1.91532,-0.266095,0.0240447,0.388161,-0.670189,0.214416,-0.751292,-0.211256,-1.07984,0.590364,-0.161307,0,0,0,0,0,0,0,0.00418601,-0.216929,0.212453,-1.90273,-0.211385,1.5607,1.18338,-0.57518,0.179498,-0.646928,-0.147402,-0.789132,0.480518,-0.0478576,-1.00811,-26.8337,-2.81188,26.2051,-1.0614,2.11846,-0.210464,-0.532311,-0.746669,-2.06548,-0.271369,0.707114,-0.038484,0.0218508,0.88044,0.0185517,-1.14189,-0.594708,-0.302799,-0.228598,
-0.035904,-0.205031,0.167538,-1.91615,-0.270276,0.0263324,0.387523,-0.667146,0.21154,-0.747114,-0.208915,-1.0455,0.571907,-0.159588,0,0,0,0,0,0,0,0.00418601,-0.216929,0.212453,-1.90273,-0.211385,1.5607,1.18338,-0.57518,0.179498,-0.646928,-0.147402,-0.789132,0.480518,-0.0478576,-1.00811,-26.8337,-2.81188,26.2051,-1.0614,2.11846,-0.210464,-0.532311,-0.746669,-2.06548,-0.271369,0.707114,-0.038484,0.0218508,0.88044,0.0185517,-1.14189,-0.594708,-0.302799,-0.228598,
-0.0385616,-0.204199,0.164564,-1.91698,-0.274281,0.0285686,0.386891,-0.6644,0.207995,-0.743603,-0.207666,-1.00118,0.55906,-0.157995,0,0,0,0,0,0,0,-0.0136179,-0.211171,0.192226,-1.90697,-0.236913,1.57695,1.18227,-0.582903,0.186077,-0.65263,-0.13471,-0.800661,0.555621,-0.0420041,-1.21045,-26.9844,-2.81188,25.1578,-1.20789,1.8731,-0.250748,-0.634048,-1.21398,-2.60797,0.0178645,0.891061,-0.253238,-0.198139,1.09733,-0.214198,-1.38259,-0.591599,-0.333943,-0.233772,
-0.0412082,-0.203382,0.161603,-1.91781,-0.278078,0.0307733,0.386265,-0.66165,0.204185,-0.740304,-0.206877,-0.94931,0.551184,-0.156576,0,0,0,0,0,0,0,-0.0136179,-0.211171,0.192226,-1.90697,-0.236913,1.57695,1.18227,-0.582903,0.186077,-0.65263,-0.13471,-0.800661,0.555621,-0.0420041,-1.21045,-26.9844,-2.81188,25.1578,-1.20789,1.8731,-0.250748,-2.19164,-0.249882,-1.70044,-0.437705,-0.56605,0.330781,0.381206,0.153123,0.384597,-0.917137,-0.484237,-0.255789,-0.238923,
-0.0303,-0.206848,0.176025,-1.91449,-0.255995,0.0196405,0.387997,-0.731176,0.236785,-0.82012,-0.254662,-1.07019,0.684391,-0.204148,0,0,0,0,0,0,0,-0.0136179,-0.211171,0.192226,-1.90697,-0.236913,1.57695,1.18227,-0.582903,0.186077,-0.65263,-0.13471,-0.800661,0.555621,-0.0420041,-1.21045,-26.9844,-2.81188,25.1578,-1.20789,1.8731,-0.250748,-2.19164,-0.249882,-1.70044,-0.437705,-0.56605,0.330781,0.381206,0.153123,0.384597,-0.917137,-0.484237,-0.255789,-0.238923,
-0.0448932,-0.202332,0.157179,-1.91711,-0.273912,0.0368777,0.387966,-0.669617,0.18933,-0.748083,-0.214266,-0.526663,0.666087,-0.185691,0,0,0,0,0,0,0,-0.0136179,-0.211171,0.192226,-1.90697,-0.236913,1.57695,1.18227,-0.582903,0.186077,-0.65263,-0.13471,-0.800661,0.555621,-0.0420041,-1.21045,-26.9844,-2.81188,25.1578,-1.20789,1.8731,-0.250748,-0.623571,-1.1475,-1.64977,0.107203,0.373673,-0.204252,-0.13873,0.574958,-0.200142,-0.84148,-0.584213,-0.162328,-0.243239,
-0.0475379,-0.201565,0.154219,-1.91793,-0.275836,0.0394294,0.387273,-0.661184,0.191777,-0.740094,-0.203791,-0.480983,0.637918,-0.173354,0,0,0,0,0,0,0,-0.0136179,-0.211171,0.192226,-1.90697,-0.236913,1.57695,1.18227,-0.582903,0.186077,-0.65263,-0.13471,-0.800661,0.555621,-0.0420041,-1.21045,-26.9844,-2.81188,25.1578,-1.20789,1.8731,-0.250748,-0.623571,-1.1475,-1.64977,0.107203,0.373673,-0.204252,-0.13873,0.574958,-0.200142,-0.84148,-0.584213,-0.162328,-0.243239,
-0.0501546,-0.200801,0.151289,-1.91873,-0.277571,0.0419063,0.386589,-0.654188,0.190826,-0.732466,-0.199429,-0.43372,0.619222,-0.170874,0,0,0,0,0,0,0,-0.0389254,-0.202646,0.163802,-1.91268,-0.271986,1.60266,1.18007,-0.591912,0.197135,-0.672068,-0.134718,-0.781979,0.626279,-0.057659,-0.829586,-28.131,-2.23662,25.3323,-0.0845373,1.95275,-0.163772,-0.381995,-1.9032,-1.96707,0.564396,0.727086,-0.59979,-0.523653,0.854024,-0.636181,-1.03684,-0.622643,-0.235566,-0.248418,
-0.0527449,-0.200047,0.148388,-1.91952,-0.279114,0.0443297,0.385913,-0.64757,0.188534,-0.725319,-0.197462,-0.385874,0.605861,-0.169212,0,0,0,0,0,0,0,-0.0389254,-0.202646,0.163802,-1.91268,-0.271986,1.60266,1.18007,-0.591912,0.197135,-0.672068,-0.134718,-0.781979,0.626279,-0.057659,-0.829586,-28.131,-2.23662,25.3323,-0.0845373,1.95275,-0.163772,-0.381995,-1.9032,-1.96707,0.564396,0.727086,-0.59979,-0.523653,0.854024,-0.636181,-1.03684,-0.622643,-0.235566,-0.248418,
-0.0553095,-0.199305,0.145514,-1.9203,-0.280465,0.0467163,0.385241,-0.641139,0.185668,-0.718421,-0.19652,-0.337693,0.596631,-0.167789,0,0,0,0,0,0,0,-0.0389254,-0.202646,0.163802,-1.91268,-0.271986,1.60266,1.18007,-0.591912,0.197135,-0.672068,-0.134718,-0.781979,0.626279,-0.057659,-0.829586,-28.131,-2.23662,25.3323,-0.0845373,1.95275,-0.163772,-1.0891,-1.67517,-1.95897,0.527881,0.301803,-0.468514,-0.404026,0.665258,-0.506281,-1.0524,-0.509749,-0.266736,-0.252741,
-0.0578487,-0.198575,0.142667,-1.92109,-0.281622,0.0490816,0.384575,-0.634794,0.18252,-0.711616,-0.196095,-0.289095,0.59133,-0.166662,0,0,0,0,0,0,0,-0.0389254,-0.202646,0.163802,-1.91268,-0.271986,1.60266,1.18007,-0.591912,0.197135,-0.672068,-0.134718,-0.781979,0.626279,-0.057659,-0.829586,-28.131,-2.23662,25.3323,-0.0845373,1.95275,-0.163772,-1.0891,-1.67517,-1.95897,0.527881,0.301803,-0.468514,-0.404026,0.665258,-0.506281,-1.0524,-0.509749,-0.266736,-0.252741,
-0.0466159,-0.201566,0.155612,-1.91791,-0.278382,0.0372294,0.386558,-0.718845,0.214851,-0.801623,-0.236355,-0.729655,0.688233,-0.21296,0,0,0,0,0,0,0,-0.0389254,-0.202646,0.163802,-1.91268,-0.271986,1.60266,1.18007,-0.591912,0.197135,-0.672068,-0.134718,-0.781979,0.626279,-0.057659,-0.829586,-28.131,-2.23662,25.3323,-0.0845373,1.95275,-0.163772,-0.450868,-0.685193,-1.89903,0.0411402,0.657372,-0.00851803,0.070792,0.799788,-0.0349396,-0.951304,-0.361945,-0.151174,-0.262839,
-0.0697558,-0.194105,0.129309,-1.92214,-0.289168,0.0633833,0.385324,-0.629075,0.178363,-0.70594,-0.188035,-0.0784051,0.561926,-0.184562,0,0,0,0,0,0,0,-0.0389254,-0.202646,0.163802,-1.91268,-0.271986,1.60266,1.18007,-0.591912,0.197135,-0.672068,-0.134718,-0.781979,0.626279,-0.057659,-0.829586,-28.131,-2.23662,25.3323,-0.0845373,1.95275,-0.163772,-0.111437,-0.753614,-1.94007,0.227252,0.958897,-0.0849914,-0.00402832,0.995908,-0.140491,-1.01336,-0.227742,-0.188141,-0.267226,
-0.072238,-0.193398,0.126522,-1.92288,-0.289348,0.0655225,0.384596,-0.620571,0.176882,-0.696815,-0.185261,-0.0451861,0.534801,-0.182023,0,0,0,0,0,0,0,-0.0576764,-0.196868,0.142617,-1.91698,-0.288098,1.62315,1.17799,-0.592891,0.187574,-0.685898,-0.134156,-0.382189,0.673458,-0.0581463,-0.171017,-28.9324,-1.26067,26.106,0.123287,2.09832,-0.304764,-0.111437,-0.753614,-1.94007,0.227252,0.958897,-0.0849914,-0.00402832,0.995908,-0.140491,-1.01336,-0.227742,-0.188141,-0.267226,
-0.0746885,-0.192699,0.123769,-1.92362,-0.289403,0.0675698,0.383875,-0.612605,0.174538,-0.688284,-0.184007,-0.0137522,0.511847,-0.180269,0,0,0,0,0,0,0,-0.0576764,-0.196868,0.142617,-1.91698,-0.288098,1.62315,1.17799,-0.592891,0.187574,-0.685898,-0.134156,-0.382189,0.673458,-0.0581463,-0.171017,-28.9324,-1.26067,26.106,0.123287,2.09832,-0.304764,-1.1195,-0.874667,-1.72642,0.43419,0.266291,-0.138567,-0.0653525,0.649502,-0.221952,-0.978465,-0.115769,-0.260725,-0.269393,
-0.0771087,-0.192012,0.121048,-1.92435,-0.289338,0.0695402,0.38316,-0.605047,0.171806,-0.680198,-0.183434,0.0163208,0.492598,-0.178713,0,0,0,0,0,0,0,-0.0576764,-0.196868,0.142617,-1.91698,-0.288098,1.62315,1.17799,-0.592891,0.187574,-0.685898,-0.134156,-0.382189,0.673458,-0.0581463,-0.171017,-28.9324,-1.26067,26.106,0.123287,2.09832,-0.304764,-1.1195,-0.874667,-1.72642,0.43419,0.266291,-0.138567,-0.0653525,0.649502,-0.221952,-0.978465,-0.115769,-0.260725,-0.269393,
-0.0794999,-0.191337,0.118358,-1.92508,-0.289156,0.07145,0.382451,-0.597822,0.168861,-0.67245,-0.183273,0.0455714,0.477435,-0.17738,0,0,0,0,0,0,0,-0.0576764,-0.196868,0.142617,-1.91698,-0.288098,1.62315,1.17799,-0.592891,0.187574,-0.685898,-0.134156,-0.382189,0.673458,-0.0581463,-0.171017,-28.9324,-1.26067,26.106,0.123287,2.09832,-0.304764,-1.41122,-1.48191,-2.14842,0.830351,0.335514,-0.45284,-0.371387,0.830125,-0.571208,-1.23568,-0.120752,-0.366717,-0.272431,
-0.0818634,-0.190674,0.115699,-1.92582,-0.288857,0.0733185,0.381745,-0.590868,0.165767,-0.664955,-0.183467,0.0746064,0.467119,-0.176367,0,0,0,0,0,0,0,-0.0576764,-0.196868,0.142617,-1.91698,-0.288098,1.62315,1.17799,-0.592891,0.187574,-0.685898,-0.134156,-0.382189,0.673458,-0.0581463,-0.171017,-28.9324,-1.26067,26.106,0.123287,2.09832,-0.304764,-1.68091,0.998337,-2.24993,-0.515583,0.346693,0.72272,0.79545,0.892027,0.692019,-1.38201,0.18025,-0.430101,-0.278205,
-0.0712803,-0.19347,0.127638,-1.92277,-0.292843,0.0633626,0.383976,-0.678159,0.198634,-0.759148,-0.204994,-0.147988,0.570401,-0.210547,0,0,0,0,0,0,0,-0.0774197,-0.190676,0.120347,-1.92081,-0.296794,1.64499,1.17549,-0.63873,0.194629,-0.702908,-0.102582,-0.147928,0.675251,-0.087014,2.23713,-29.6306,1.13954,26.2051,0.538937,1.77331,-0.230606,-1.68091,0.998337,-2.24993,-0.515583,0.346693,0.72272,0.79545,0.892027,0.692019,-1.38201,0.18025,-0.430101,-0.278205,
-0.10705,-0.182708,0.0870122,-1.92945,-0.292504,0.102181,0.380394,-0.585916,0.161861,-0.66071,-0.188107,0.230737,0.546024,-0.19381,0,0,0,0,0,0,0,-0.0774197,-0.190676,0.120347,-1.92081,-0.296794,1.64499,1.17549,-0.63873,0.194629,-0.702908,-0.102582,-0.147928,0.675251,-0.087014,2.23713,-29.6306,1.13954,26.2051,0.538937,1.77331,-0.230606,-1.08329,-0.455509,-1.88355,0.528674,0.60777,-0.0446665,0.0369345,0.999139,-0.17231,-1.27303,0.230542,-0.479589,-0.280046,
-0.109357,-0.182064,0.0844094,-1.93019,-0.291541,0.104338,0.379628,-0.576711,0.160975,-0.650701,-0.185642,0.240758,0.539404,-0.191353,0,0,0,0,0,0,0,-0.0774197,-0.190676,0.120347,-1.92081,-0.296794,1.64499,1.17549,-0.63873,0.194629,-0.702908,-0.102582,-0.147928,0.675251,-0.087014,2.23713,-29.6306,1.13954,26.2051,0.538937,1.77331,-0.230606,-1.08329,-0.455509,-1.88355,0.528674,0.60777,-0.0446665,0.0369345,0.999139,-0.17231,-1.27303,0.230542,-0.479589,-0.280046,
-0.11163,-0.181426,0.0818432,-1.93093,-0.290537,0.106472,0.37887,-0.568251,0.159379,-0.641531,-0.183941,0.250985,0.533384,-0.189685,0,0,0,0,0,0,0,-0.0774197,-0.190676,0.120347,-1.92081,-0.296794,1.64499,1.17549,-0.63873,0.194629,-0.702908,-0.102582,-0.147928,0.675251,-0.087014,2.23713,-29.6306,1.13954,26.2051,0.538937,1.77331,-0.230606,0.242198,-0.0876589,-2.59122,0.417815,1.73636,0.146496,0.233315,1.6864,0.022272,-1.50922,0.343721,-0.395351,-0.284297,
-0.113872,-0.180797,0.0793111,-1.93166,-0.289491,0.108585,0.378117,-0.560386,0.157351,-0.633025,-0.182679,0.261468,0.52839,-0.188188,0,0,0,0,0,0,0,-0.0774197,-0.190676,0.120347,-1.92081,-0.296794,1.64499,1.17549,-0.63873,0.194629,-0.702908,-0.102582,-0.147928,0.675251,-0.087014,2.23713,-29.6306,1.13954,26.2051,0.538937,1.77331,-0.230606,0.242198,-0.0876589,-2.59122,0.417815,1.73636,0.146496,0.233315,1.6864,0.022272,-1.50922,0.343721,-0.395351,-0.284297,
-0.116083,-0.180175,0.0768116,-1.93238,-0.288402,0.110661,0.377369,-0.552757,0.155332,-0.624874,-0.180505,0.272177,0.518776,-0.186889,0,0,0,0,0,0,0,-0.0970048,-0.184987,0.0981314,-1.92394,-0.298614,1.6655,1.17329,-0.625881,0.177415,-0.710539,-0.0949299,0.024695,0.669386,-0.0666754,1.50318,-29.9519,0.838026,26.1575,-0.157779,2.17797,-0.304764,-0.722138,1.04153,-2.5036,-0.215965,1.13493,0.692384,0.770432,1.38379,0.611118,-1.5398,0.437696,-0.454024,-0.288034,
-0.118264,-0.179563,0.0743439,-1.93309,-0.287268,0.112678,0.376626,-0.545322,0.153166,-0.616926,-0.17773,0.283465,0.504306,-0.185873,0,0,0,0,0,0,0,-0.0970048,-0.184987,0.0981314,-1.92394,-0.298614,1.6655,1.17329,-0.625881,0.177415,-0.710539,-0.0949299,0.024695,0.669386,-0.0666754,1.50318,-29.9519,0.838026,26.1575,-0.157779,2.17797,-0.304764,-0.974192,2.30828,-2.3257,-0.938395,0.874132,1.32755,1.39543,1.17643,1.29789,-1.44646,0.526347,-0.40382,-0.294865,
-0.108379,-0.182268,0.0855979,-1.92976,-0.288458,0.100459,0.379122,-0.623127,0.176376,-0.701085,-0.199559,0.34456,0.505523,-0.218141,0,0,0,0,0,0,0,-0.0970048,-0.184987,0.0981314,-1.92394,-0.298614,1.6655,1.17329,-0.625881,0.177415,-0.710539,-0.0949299,0.024695,0.669386,-0.0666754,1.50318,-29.9519,0.838026,26.1575,-0.157779,2.17797,-0.304764,-0.974192,2.30828,-2.3257,-0.938395,0.874132,1.32755,1.39543,1.17643,1.29789,-1.44646,0.526347,-0.40382,-0.294865,
-0.125132,-0.177923,0.0664768,-1.93169,-0.283131,0.121108,0.377847,-0.539021,0.141119,-0.608999,-0.160162,0.458266,0.390603,-0.201681,0,0,0,0,0,0,0,-0.0970048,-0.184987,0.0981314,-1.92394,-0.298614,1.6655,1.17329,-0.625881,0.177415,-0.710539,-0.0949299,0.024695,0.669386,-0.0666754,1.50318,-29.9519,0.838026,26.1575,-0.157779,2.17797,-0.304764,-0.668628,-0.159063,-1.84956,0.564891,0.756057,0.114543,0.184836,1.03046,-0.0227922,-1.16103,0.38303,-0.350556,-0.291977,
-0.127248,-0.177365,0.0640841,-1.93232,-0.281275,0.122558,0.377049,-0.529006,0.139499,-0.598183,-0.158565,0.463941,0.362621,-0.199344,0,0,0,0,0,0,0,-0.0970048,-0.184987,0.0981314,-1.92394,-0.298614,1.6655,1.17329,-0.625881,0.177415,-0.710539,-0.0949299,0.024695,0.669386,-0.0666754,1.50318,-29.9519,0.838026,26.1575,-0.157779,2.17797,-0.304764,-0.668628,-0.159063,-1.84956,0.564891,0.756057,0.114543,0.184836,1.03046,-0.0227922,-1.16103,0.38303,-0.350556,-0.291977,
-0.129327,-0.176815,0.0617308,-1.93295,-0.279403,0.123911,0.376258,-0.519866,0.137368,-0.588325,-0.1579,0.467964,0.338263,-0.197732,0,0,0,0,0,0,0,-0.0970048,-0.184987,0.0981314,-1.92394,-0.298614,1.6655,1.17329,-0.625881,0.177415,-0.710539,-0.0949299,0.024695,0.669386,-0.0666754,1.50318,-29.9519,0.838026,26.1575,-0.157779,2.17797,-0.304764,-0.588286,-0.675554,-1.88925,0.861713,0.802723,-0.131738,-0.0655186,1.06718,-0.281206,-1.16009,0.321662,-0.341498,-0.297018,
-0.131373,-0.176275,0.0594138,-1.93358,-0.277519,0.125181,0.375473,-0.511454,0.135013,-0.579248,-0.157661,0.470875,0.317336,-0.196304,0,0,0,0,0,0,0,-0.116192,-0.179335,0.0761465,-1.92705,-0.297065,1.68513,1.17137,-0.594319,0.172705,-0.682954,-0.0907015,0.111918,0.575978,-0.0487156,1.60236,-30.8763,1.18715,26.3281,-0.127567,2.32995,-0.304764,-0.588286,-0.675554,-1.88925,0.861713,0.802723,-0.131738,-0.0655186,1.06718,-0.281206,-1.16009,0.321662,-0.341498,-0.297018,
-0.133388,-0.175745,0.0571305,-1.93421,-0.275626,0.126382,0.374693,-0.503662,0.132536,-0.570818,-0.15772,0.473257,0.300332,-0.195078,0,0,0,0,0,0,0,-0.116192,-0.179335,0.0761465,-1.92705,-0.297065,1.68513,1.17137,-0.594319,0.172705,-0.682954,-0.0907015,0.111918,0.575978,-0.0487156,1.60236,-30.8763,1.18715,26.3281,-0.127567,2.32995,-0.304764,-1.68838,0.229062,-1.01597,0.20934,-0.412195,0.316953,0.363566,0.184876,0.223449,-0.688444,0.268149,-0.209512,-0.30121,
-0.135373,-0.175225,0.0548788,-1.93485,-0.273723,0.127534,0.373916,-0.4964,0.129971,-0.56292,-0.158097,0.475722,0.288134,-0.194146,0,0,0,0,0,0,0,-0.116192,-0.179335,0.0761465,-1.92705,-0.297065,1.68513,1.17137,-0.594319,0.172705,-0.682954,-0.0907015,0.111918,0.575978,-0.0487156,1.60236,-30.8763,1.18715,26.3281,-0.127567,2.32995,-0.304764,-1.14383,0.276296,-1.15815,0.183439,-0.0765455,0.377077,0.419417,0.338079,0.292457,-0.665599,0.258954,-0.117431,-0.303749,
-0.126356,-0.177595,0.0651675,-1.93201,-0.278397,0.119305,0.376616,-0.572122,0.152593,-0.645207,-0.172203,0.574766,0.350082,-0.225122,0,0,0,0,0,0,0,-0.116192,-0.179335,0.0761465,-1.92705,-0.297065,1.68513,1.17137,-0.594319,0.172705,-0.682954,-0.0907015,0.111918,0.575978,-0.0487156,1.60236,-30.8763,1.18715,26.3281,-0.127567,2.32995,-0.304764,-1.14383,0.276296,-1.15815,0.183439,-0.0765455,0.377077,0.419417,0.338079,0.292457,-0.665599,0.258954,-0.117431,-0.303749,
-0.142457,-0.173008,0.0465841,-1.93429,-0.27578,0.133224,0.375562,-0.499044,0.12101,-0.563669,-0.164674,0.568985,0.36318,-0.209886,0,0,0,0,0,0,0,-0.116192,-0.179335,0.0761465,-1.92705,-0.297065,1.68513,1.17137,-0.594319,0.172705,-0.682954,-0.0907015,0.111918,0.575978,-0.0487156,1.60236,-30.8763,1.18715,26.3281,-0.127567,2.32995,-0.304764,-0.244812,-0.966548,-1.54689,0.932373,0.681214,-0.205978,-0.165717,0.838669,-0.325714,-0.823604,0.173347,-0.13751,-0.308027,
-0.144415,-0.172527,0.04437,-1.93494,-0.273478,0.134694,0.374732,-0.489346,0.120448,-0.553519,-0.16276,0.575286,0.367612,-0.207554,0,0,0,0,0,0,0,-0.134855,-0.173732,0.0547174,-1.92971,-0.289578,1.70084,1.16949,-0.554896,0.158623,-0.644702,-0.0782105,0.28679,0.4266,-0.0626623,2.23713,-30.8287,2.01234,26.5781,0.25787,2.35009,-0.26448,-0.244812,-0.966548,-1.54689,0.932373,0.681214,-0.205978,-0.165717,0.838669,-0.325714,-0.823604,0.173347,-0.13751,-0.308027,
-0.146336,-0.172049,0.0421944,-1.93559,-0.271166,0.136171,0.373908,-0.480218,0.119495,-0.543897,-0.160858,0.578066,0.369187,-0.205961,0,0,0,0,0,0,0,-0.134855,-0.173732,0.0547174,-1.92971,-0.289578,1.70084,1.16949,-0.554896,0.158623,-0.644702,-0.0782105,0.28679,0.4266,-0.0626623,2.23713,-30.8287,2.01234,26.5781,0.25787,2.35009,-0.26448,-0.0399665,-2.1039,-1.57136,1.58511,0.807089,-0.757768,-0.716949,0.937424,-0.913173,-0.811059,0.0740458,-0.140059,-0.310253,
-0.148222,-0.171576,0.0400552,-1.93622,-0.268852,0.137648,0.37309,-0.471651,0.118172,-0.5348,-0.159152,0.578477,0.369315,-0.204547,0,0,0,0,0,0,0,-0.134855,-0.173732,0.0547174,-1.92971,-0.289578,1.70084,1.16949,-0.554896,0.158623,-0.644702,-0.0782105,0.28679,0.4266,-0.0626623,2.23713,-30.8287,2.01234,26.5781,0.25787,2.35009,-0.26448,-0.0399665,-2.1039,-1.57136,1.58511,0.807089,-0.757768,-0.716949,0.937424,-0.913173,-0.811059,0.0740458,-0.140059,-0.310253,
-0.150076,-0.171109,0.0379506,-1.93685,-0.266543,0.139115,0.372277,-0.463516,0.116648,-0.526141,-0.157226,0.577415,0.366661,-0.203317,0,0,0,0,0,0,0,-0.134855,-0.173732,0.0547174,-1.92971,-0.289578,1.70084,1.16949,-0.554896,0.158623,-0.644702,-0.0782105,0.28679,0.4266,-0.0626623,2.23713,-30.8287,2.01234,26.5781,0.25787,2.35009,-0.26448,-0.457144,0.369891,-1.16667,0.0961581,0.339733,0.458459,0.473495,0.519089,0.41411,-0.637705,0.205671,-0.0749399,-0.315027,
-0.151899,-0.170649,0.0358796,-1.93747,-0.26424,0.140547,0.371467,-0.455643,0.11506,-0.51776,-0.154498,0.575616,0.358085,-0.202342,0,0,0,0,0,0,0,-0.134855,-0.173732,0.0547174,-1.92971,-0.289578,1.70084,1.16949,-0.554896,0.158623,-0.644702,-0.0782105,0.28679,0.4266,-0.0626623,2.23713,-30.8287,2.01234,26.5781,0.25787,2.35009,-0.26448,-0.457144,0.369891,-1.16667,0.0961581,0.339733,0.458459,0.473495,0.519089,0.41411,-0.637705,0.205671,-0.0749399,-0.315027,
-0.143586,-0.172717,0.0453867,-1.93453,-0.268929,0.13131,0.374371,-0.527433,0.13141,-0.594854,-0.175007,0.732392,0.317745,-0.232476,0,0,0,0,0,0,0,-0.134855,-0.173732,0.0547174,-1.92971,-0.289578,1.70084,1.16949,-0.554896,0.158623,-0.644702,-0.0782105,0.28679,0.4266,-0.0626623,2.23713,-30.8287,2.01234,26.5781,0.25787,2.35009,-0.26448,-1.03569,-0.966432,-1.46536,0.917208,0.179485,-0.264017,-0.25067,0.60957,-0.357046,-0.848543,0.12866,-0.206584,-0.317624,
-0.159031,-0.16813,0.0274562,-1.93659,-0.261994,0.148139,0.373355,-0.447967,0.107715,-0.508686,-0.138735,0.645989,0.252764,-0.216296,0,0,0,0,0,0,0,-0.1532,-0.168506,0.0336646,-1.9323,-0.277779,1.71372,1.16781,-0.54259,0.149969,-0.61418,-0.0724291,0.367215,0.370379,-0.045799,2.59418,-31.4,2.6114,26.4551,0.484005,2.31713,-0.311172,-0.989873,-1.2823,-2.13836,1.19137,0.573963,-0.430964,-0.4107,1.01359,-0.544458,-1.20065,0.140587,-0.299072,-0.320382,
-0.160783,-0.167706,0.0254646,-1.93714,-0.259438,0.149053,0.372499,-0.437937,0.106095,-0.497893,-0.136723,0.639063,0.228402,-0.214179,0,0,0,0,0,0,0,-0.1532,-0.168506,0.0336646,-1.9323,-0.277779,1.71372,1.16781,-0.54259,0.149969,-0.61418,-0.0724291,0.367215,0.370379,-0.045799,2.59418,-31.4,2.6114,26.4551,0.484005,2.31713,-0.311172,-0.989873,-1.2823,-2.13836,1.19137,0.573963,-0.430964,-0.4107,1.01359,-0.544458,-1.20065,0.140587,-0.299072,-0.320382,
-0.162498,-0.167289,0.0235121,-1.93768,-0.256916,0.149879,0.371648,-0.42886,0.104061,-0.48813,-0.135623,0.630586,0.206715,-0.212686,0,0,0,0,0,0,0,-0.1532,-0.168506,0.0336646,-1.9323,-0.277779,1.71372,1.16781,-0.54259,0.149969,-0.61418,-0.0724291,0.367215,0.370379,-0.045799,2.59418,-31.4,2.6114,26.4551,0.484005,2.31713,-0.311172,-1.57325,-2.5319,-1.74305,1.89616,0.0550157,-1.11539,-1.09781,0.743937,-1.27099,-1.06486,0.0473985,-0.357099,-0.322274,
-0.164181,-0.166882,0.0215952,-1.93822,-0.254432,0.15063,0.370803,-0.420589,0.10187,-0.479226,-0.134967,0.621077,0.187563,-0.211357,0,0,0,0,0,0,0,-0.1532,-0.168506,0.0336646,-1.9323,-0.277779,1.71372,1.16781,-0.54259,0.149969,-0.61418,-0.0724291,0.367215,0.370379,-0.045799,2.59418,-31.4,2.6114,26.4551,0.484005,2.31713,-0.311172,-1.57325,-2.5319,-1.74305,1.89616,0.0550157,-1.11539,-1.09781,0.743937,-1.27099,-1.06486,0.0473985,-0.357099,-0.322274,
-0.165833,-0.166484,0.019711,-1.93876,-0.251987,0.151315,0.369962,-0.413009,0.0996124,-0.471044,-0.134639,0.611062,0.171451,-0.210206,0,0,0,0,0,0,0,-0.1532,-0.168506,0.0336646,-1.9323,-0.277779,1.71372,1.16781,-0.54259,0.149969,-0.61418,-0.0724291,0.367215,0.370379,-0.045799,2.59418,-31.4,2.6114,26.4551,0.484005,2.31713,-0.311172,-1.83044,0.341142,-1.71956,0.248893,-0.10675,0.286856,0.292384,0.557306,0.234514,-1.10619,0.240155,-0.341033,-0.32719,
-0.167457,-0.166094,0.0178571,-1.9393,-0.249583,0.151953,0.369124,-0.406022,0.0973191,-0.463467,-0.134662,0.601066,0.159276,-0.209314,0,0,0,0,0,0,0,-0.16992,-0.163858,0.0146615,-1.9345,-0.265041,1.72469,1.1662,-0.505609,0.145448,-0.584648,-0.0534142,0.407963,0.309033,-0.0615912,3.3797,-31.4,3.28584,27.3279,0.93536,2.64855,-0.284622,-1.09198,-0.945564,-2.18684,1.13256,0.545994,-0.292754,-0.273342,1.03849,-0.410479,-1.26576,0.246611,-0.336616,-0.327086,
-0.160074,-0.167943,0.0263511,-1.93682,-0.253956,0.146191,0.3722,-0.472882,0.115135,-0.536233,-0.148725,0.835291,0.20727,-0.238102,0,0,0,0,0,0,0,-0.16992,-0.163858,0.0146615,-1.9345,-0.265041,1.72469,1.1662,-0.505609,0.145448,-0.584648,-0.0534142,0.407963,0.309033,-0.0615912,3.3797,-31.4,3.28584,27.3279,0.93536,2.64855,-0.284622,-1.09198,-0.945564,-2.18684,1.13256,0.545994,-0.292754,-0.273342,1.03849,-0.410479,-1.26576,0.246611,-0.336616,-0.327086,
-0.191635,-0.159107,-0.00994141,-1.94071,-0.235359,0.16431,0.369757,-0.404453,0.0897845,-0.460659,-0.142125,0.653117,0.208856,-0.223603,0,0,0,0,0,0,0,-0.16992,-0.163858,0.0146615,-1.9345,-0.265041,1.72469,1.1662,-0.505609,0.145448,-0.584648,-0.0534142,0.407963,0.309033,-0.0615912,3.3797,-31.4,3.28584,27.3279,0.93536,2.64855,-0.284622,-0.520829,-0.889213,-2.40765,1.15766,0.971557,-0.203123,-0.177558,1.28133,-0.325964,-1.32066,0.276764,-0.296413,-0.331622,
-0.193219,-0.158749,-0.0117479,-1.94127,-0.232771,0.165169,0.368871,-0.395795,0.0895915,-0.451614,-0.140073,0.646848,0.214588,-0.221457,0,0,0,0,0,0,0,-0.16992,-0.163858,0.0146615,-1.9345,-0.265041,1.72469,1.1662,-0.505609,0.145448,-0.584648,-0.0534142,0.407963,0.309033,-0.0615912,3.3797,-31.4,3.28584,27.3279,0.93536,2.64855,-0.284622,-0.520829,-0.889213,-2.40765,1.15766,0.971557,-0.203123,-0.177558,1.28133,-0.325964,-1.32066,0.276764,-0.296413,-0.331622,
-0.194769,-0.158393,-0.0135202,-1.94182,-0.23022,0.166031,0.367991,-0.387682,0.0890748,-0.443081,-0.137738,0.637728,0.215584,-0.219955,0,0,0,0,0,0,0,-0.16992,-0.163858,0.0146615,-1.9345,-0.265041,1.72469,1.1662,-0.505609,0.145448,-0.584648,-0.0534142,0.407963,0.309033,-0.0615912,3.3797,-31.4,3.28584,27.3279,0.93536,2.64855,-0.284622,-1.26417,-0.814608,-2.24428,1.09231,0.407761,-0.237607,-0.221129,0.966309,-0.352555,-1.25187,0.261377,-0.296736,-0.332774,
-0.19629,-0.15804,-0.0152604,-1.94236,-0.227714,0.166886,0.367116,-0.380106,0.0881865,-0.435058,-0.135524,0.626632,0.213676,-0.218604,0,0,0,0,0,0,0,-0.16992,-0.163858,0.0146615,-1.9345,-0.265041,1.72469,1.1662,-0.505609,0.145448,-0.584648,-0.0534142,0.407963,0.309033,-0.0615912,3.3797,-31.4,3.28584,27.3279,0.93536,2.64855,-0.284622,-1.26417,-0.814608,-2.24428,1.09231,0.407761,-0.237607,-0.221129,0.966309,-0.352555,-1.25187,0.261377,-0.296736,-0.332774,
-0.197782,-0.157692,-0.0169705,-1.9429,-0.225257,0.167727,0.366247,-0.373032,0.086971,-0.42752,-0.133599,0.614296,0.210314,-0.217403,0,0,0,0,0,0,0,-0.190457,-0.15851,-0.00900786,-1.93674,-0.247396,1.7344,1.16415,-0.472404,0.115012,-0.531639,-0.0526376,0.448266,0.186502,-0.0469982,2.49103,-31.0787,2.38923,26.4789,0.526119,2.68151,-0.35878,-1.51413,-0.836945,-1.96221,1.11929,0.0532743,-0.271344,-0.278193,0.706976,-0.374148,-1.07936,0.298185,-0.235139,-0.335728,
-0.192478,-0.159103,-0.0108177,-1.94085,-0.223937,0.162611,0.368653,-0.421051,0.0915764,-0.479363,-0.149261,0.940417,0.165686,-0.244253,0,0,0,0,0,0,0,-0.190457,-0.15851,-0.00900786,-1.93674,-0.247396,1.7344,1.16415,-0.472404,0.115012,-0.531639,-0.0526376,0.448266,0.186502,-0.0469982,2.49103,-31.0787,2.38923,26.4789,0.526119,2.68151,-0.35878,-1.51413,-0.836945,-1.96221,1.11929,0.0532743,-0.271344,-0.278193,0.706976,-0.374148,-1.07936,0.298185,-0.235139,-0.335728,
-0.2101,-0.154748,-0.0313238,-1.94264,-0.214575,0.174252,0.367452,-0.357894,0.073297,-0.410424,-0.124431,0.704262,0.193292,-0.228665,0,0,0,0,0,0,0,-0.190457,-0.15851,-0.00900786,-1.93674,-0.247396,1.7344,1.16415,-0.472404,0.115012,-0.531639,-0.0526376,0.448266,0.186502,-0.0469982,2.49103,-31.0787,2.38923,26.4789,0.526119,2.68151,-0.35878,-1.01035,-0.211638,-2.03379,0.829131,0.318529,0.107423,0.111098,0.790243,0.0073009,-1.0409,0.397752,-0.145987,-0.341594,
-0.211501,-0.154458,-0.0329317,-1.94313,-0.211763,0.174979,0.366545,-0.350275,0.072627,-0.40196,-0.121783,0.703112,0.181813,-0.226891,0,0,0,0,0,0,0,-0.190457,-0.15851,-0.00900786,-1.93674,-0.247396,1.7344,1.16415,-0.472404,0.115012,-0.531639,-0.0526376,0.448266,0.186502,-0.0469982,2.49103,-31.0787,2.38923,26.4789,0.526119,2.68151,-0.35878,-0.70554,-1.19538,-2.30481,1.46587,0.576524,-0.334392,-0.312745,1.00773,-0.486807,-1.08834,0.373551,-0.106592,-0.342452,
-0.212876,-0.154171,-0.03451,-1.94361,-0.208939,0.175656,0.365642,-0.343682,0.0715328,-0.394593,-0.119618,0.705978,0.169071,-0.225605,0,0,0,0,0,0,0,-0.190457,-0.15851,-0.00900786,-1.93674,-0.247396,1.7344,1.16415,-0.472404,0.115012,-0.531639,-0.0526376,0.448266,0.186502,-0.0469982,2.49103,-31.0787,2.38923,26.4789,0.526119,2.68151,-0.35878,-0.70554,-1.19538,-2.30481,1.46587,0.576524,-0.334392,-0.312745,1.00773,-0.486807,-1.08834,0.373551,-0.106592,-0.342452,
-0.214225,-0.153891,-0.036061,-1.94408,-0.20612,0.176277,0.364746,-0.337143,0.0701933,-0.387729,-0.117849,0.704774,0.155393,-0.224234,0,0,0,0,0,0,0,-0.204256,-0.155392,-0.0250647,-1.9387,-0.23329,1.73921,1.16166,-0.42663,0.0875391,-0.503201,-0.0733472,0.502617,0.142399,-0.094452,1.93164,-31.5508,2.11152,26.7288,0.679012,2.94701,-0.38533,-0.572985,-1.35846,-2.3649,1.53059,0.652399,-0.386054,-0.360734,1.0448,-0.54033,-1.06859,0.322997,-0.0677819,-0.347132,
-0.215547,-0.153616,-0.0375851,-1.94455,-0.203327,0.176844,0.363854,-0.330677,0.0686929,-0.38103,-0.116477,0.698125,0.141746,-0.222937,0,0,0,0,0,0,0,-0.204256,-0.155392,-0.0250647,-1.9387,-0.23329,1.73921,1.16166,-0.42663,0.0875391,-0.503201,-0.0733472,0.502617,0.142399,-0.094452,1.93164,-31.5508,2.11152,26.7288,0.679012,2.94701,-0.38533,-0.572985,-1.35846,-2.3649,1.53059,0.652399,-0.386054,-0.360734,1.0448,-0.54033,-1.06859,0.322997,-0.0677819,-0.347132,
-0.216845,-0.153348,-0.0390831,-1.94501,-0.200577,0.177362,0.362966,-0.324458,0.0670833,-0.374495,-0.115533,0.687732,0.12938,-0.221847,0,0,0,0,0,0,0,-0.204256,-0.155392,-0.0250647,-1.9387,-0.23329,1.73921,1.16166,-0.42663,0.0875391,-0.503201,-0.0733472,0.502617,0.142399,-0.094452,1.93164,-31.5508,2.11152,26.7288,0.679012,2.94701,-0.38533,-1.11724,-0.815301,-2.19715,1.22274,0.16499,-0.177091,-0.15253,0.723243,-0.3222,-0.963926,0.379466,-0.0180827,-0.349433,
-0.210615,-0.154726,-0.0318452,-1.94271,-0.205067,0.172345,0.366397,-0.367734,0.0748564,-0.421552,-0.12924,0.981386,0.146106,-0.248443,0,0,0,0,0,0,0,-0.204256,-0.155392,-0.0250647,-1.9387,-0.23329,1.73921,1.16166,-0.42663,0.0875391,-0.503201,-0.0733472,0.502617,0.142399,-0.094452,1.93164,-31.5508,2.11152,26.7288,0.679012,2.94701,-0.38533,-1.73202,-0.913356,-1.56165,1.20871,-0.590285,-0.303622,-0.280889,0.17857,-0.455709,-0.62837,0.385085,0.0614046,-0.34741,
-0.221824,-0.152356,-0.0451057,-1.94414,-0.197596,0.174102,0.364757,-0.312184,0.0579553,-0.360626,-0.11876,0.751824,0.114016,-0.232372,0,0,0,0,0,0,0,-0.204256,-0.155392,-0.0250647,-1.9387,-0.23329,1.73921,1.16166,-0.42663,0.0875391,-0.503201,-0.0733472,0.502617,0.142399,-0.094452,1.93164,-31.5508,2.11152,26.7288,0.679012,2.94701,-0.38533,-1.73202,-0.913356,-1.56165,1.20871,-0.590285,-0.303622,-0.280889,0.17857,-0.455709,-0.62837,0.385085,0.0614046,-0.34741,
-0.223042,-0.152124,-0.0465147,-1.94461,-0.194625,0.174569,0.363835,-0.304481,0.0579831,-0.352242,-0.116815,0.742971,0.116739,-0.230679,0,0,0,0,0,0,0,-0.204256,-0.155392,-0.0250647,-1.9387,-0.23329,1.73921,1.16166,-0.42663,0.0875391,-0.503201,-0.0733472,0.502617,0.142399,-0.094452,1.93164,-31.5508,2.11152,26.7288,0.679012,2.94701,-0.38533,-1.6406,-1.18902,-1.87971,1.36647,-0.397805,-0.425743,-0.404316,0.354672,-0.578711,-0.742366,0.326995,0.064616,-0.349105,
-0.224233,-0.151893,-0.0478939,-1.94507,-0.191677,0.175026,0.362917,-0.29771,0.0577524,-0.344809,-0.114445,0.736808,0.114414,-0.229418,0,0,0,0,0,0,0,-0.217324,-0.152712,-0.0400314,-1.94099,-0.217902,1.74263,1.15837,-0.402207,0.084623,-0.469537,-0.0746622,0.507233,0.0895473,-0.105987,2.13398,-31.3008,2.46461,26.8796,0.97839,2.84081,-0.298355,-1.6406,-1.18902,-1.87971,1.36647,-0.397805,-0.425743,-0.404316,0.354672,-0.578711,-0.742366,0.326995,0.064616,-0.349105,
-0.2254,-0.151664,-0.0492468,-1.94551,-0.188743,0.175462,0.362004,-0.291757,0.0571872,-0.338219,-0.112132,0.73356,0.108831,-0.228251,0,0,0,0,0,0,0,-0.217324,-0.152712,-0.0400314,-1.94099,-0.217902,1.74263,1.15837,-0.402207,0.084623,-0.469537,-0.0746622,0.507233,0.0895473,-0.105987,2.13398,-31.3008,2.46461,26.8796,0.97839,2.84081,-0.298355,-1.14359,-0.797761,-2.23797,1.17768,0.0951492,-0.176978,-0.167621,0.665131,-0.30119,-0.912688,0.333752,0.0429579,-0.347127,
-0.226543,-0.151439,-0.0505748,-1.94596,-0.185838,0.175866,0.361096,-0.285816,0.0563256,-0.331999,-0.110112,0.726391,0.101208,-0.227012,0,0,0,0,0,0,0,-0.217324,-0.152712,-0.0400314,-1.94099,-0.217902,1.74263,1.15837,-0.402207,0.084623,-0.469537,-0.0746622,0.507233,0.0895473,-0.105987,2.13398,-31.3008,2.46461,26.8796,0.97839,2.84081,-0.298355,-0.498868,-0.679968,-2.24877,1.1263,0.475667,-0.0306199,-0.0192596,0.826983,-0.150122,-0.881197,0.354252,0.0812532,-0.346408,
-0.229235,-0.151118,-0.0536655,-1.94721,-0.16695,0.176204,0.357836,-0.276473,0.052984,-0.323197,-0.114458,0.935037,0.0880144,-0.24229,0,0,0,0,0,0,0,-0.217324,-0.152712,-0.0400314,-1.94099,-0.217902,1.74263,1.15837,-0.402207,0.084623,-0.469537,-0.0746622,0.507233,0.0895473,-0.105987,2.13398,-31.3008,2.46461,26.8796,0.97839,2.84081,-0.298355,-0.498868,-0.679968,-2.24877,1.1263,0.475667,-0.0306199,-0.0192596,0.826983,-0.150122,-0.881197,0.354252,0.0812532,-0.346408,
-0.222183,-0.152444,-0.0454703,-1.94437,-0.19036,0.173754,0.363736,-0.320939,0.0564363,-0.37031,-0.125211,1.0081,0.10868,-0.251682,0,0,0,0,0,0,0,-0.217324,-0.152712,-0.0400314,-1.94099,-0.217902,1.74263,1.15837,-0.402207,0.084623,-0.469537,-0.0746622,0.507233,0.0895473,-0.105987,2.13398,-31.3008,2.46461,26.8796,0.97839,2.84081,-0.298355,0.212419,-0.997422,-2.50225,1.37807,1.00617,-0.0794852,-0.0520288,1.14911,-0.223657,-0.9476,0.366885,0.107328,-0.346106,
-0.233064,-0.15011,-0.0580796,-1.94632,-0.182462,0.177006,0.361315,-0.269725,0.0461573,-0.314905,-0.112673,0.727016,0.109541,-0.235221,0,0,0,0,0,0,0,-0.229522,-0.15081,-0.054257,-1.94338,-0.200618,1.74447,1.15507,-0.375619,0.0514684,-0.436015,-0.0750878,0.538345,0.0365077,-0.100677,2.64179,-31.0271,3.11128,27.1017,0.672604,3.06603,-0.391739,0.212419,-0.997422,-2.50225,1.37807,1.00617,-0.0794852,-0.0520288,1.14911,-0.223657,-0.9476,0.366885,0.107328,-0.346106,
-0.234111,-0.149926,-0.0593048,-1.94676,-0.179626,0.177454,0.360381,-0.261722,0.0459312,-0.306299,-0.11064,0.708969,0.111867,-0.23358,0,0,0,0,0,0,0,-0.229522,-0.15081,-0.054257,-1.94338,-0.200618,1.74447,1.15507,-0.375619,0.0514684,-0.436015,-0.0750878,0.538345,0.0365077,-0.100677,2.64179,-31.0271,3.11128,27.1017,0.672604,3.06603,-0.391739,0.40663,-0.473166,-2.86121,1.10422,1.29802,0.20949,0.237921,1.35046,0.0847163,-1.11865,0.363132,0.0861314,-0.347933,
-0.23513,-0.149744,-0.0604993,-1.94719,-0.176858,0.177889,0.359451,-0.254645,0.0455543,-0.298627,-0.108095,0.69198,0.108741,-0.232295,0,0,0,0,0,0,0,-0.229522,-0.15081,-0.054257,-1.94338,-0.200618,1.74447,1.15507,-0.375619,0.0514684,-0.436015,-0.0750878,0.538345,0.0365077,-0.100677,2.64179,-31.0271,3.11128,27.1017,0.672604,3.06603,-0.391739,-0.662019,-0.919558,-2.13453,1.19546,0.340441,-0.177419,-0.152033,0.754492,-0.307042,-0.84069,0.259355,0.0602038,-0.350282,
-0.236123,-0.149565,-0.0616665,-1.94761,-0.174152,0.178297,0.358527,-0.248394,0.044907,-0.2918,-0.105599,0.676383,0.102123,-0.231076,0,0,0,0,0,0,0,-0.229522,-0.15081,-0.054257,-1.94338,-0.200618,1.74447,1.15507,-0.375619,0.0514684,-0.436015,-0.0750878,0.538345,0.0365077,-0.100677,2.64179,-31.0271,3.11128,27.1017,0.672604,3.06603,-0.391739,-0.662019,-0.919558,-2.13453,1.19546,0.340441,-0.177419,-0.152033,0.754492,-0.307042,-0.84069,0.259355,0.0602038,-0.350282,
-0.237095,-0.149389,-0.0628094,-1.94803,-0.171502,0.178672,0.357607,-0.242877,0.0440059,-0.285725,-0.103397,0.662518,0.0935861,-0.229918,0,0,0,0,0,0,0,-0.229522,-0.15081,-0.054257,-1.94338,-0.200618,1.74447,1.15507,-0.375619,0.0514684,-0.436015,-0.0750878,0.538345,0.0365077,-0.100677,2.64179,-31.0271,3.11128,27.1017,0.672604,3.06603,-0.391739,-0.970384,-1.68112,-2.46126,1.74021,0.299415,-0.606733,-0.597956,0.886987,-0.755374,-0.995274,0.267864,0.015719,-0.34867,
-0.232215,-0.150361,-0.0570421,-1.94603,-0.179693,0.176374,0.361345,-0.286733,0.0453877,-0.332689,-0.117468,0.995806,0.0943807,-0.260481,0,0,0,0,0,0,0,-0.229522,-0.15081,-0.054257,-1.94338,-0.200618,1.74447,1.15507,-0.375619,0.0514684,-0.436015,-0.0750878,0.538345,0.0365077,-0.100677,2.64179,-31.0271,3.11128,27.1017,0.672604,3.06603,-0.391739,-0.970384,-1.68112,-2.46126,1.74021,0.299415,-0.606733,-0.597956,0.886987,-0.755374,-0.995274,0.267864,0.015719,-0.34867,
-0.242653,-0.149182,-0.0693829,-1.94794,-0.168462,0.17719,0.358818,-0.246564,0.0336767,-0.289047,-0.103692,0.764491,0.070735,-0.241459,0,0,0,0,0,0,0,-0.241132,-0.149415,-0.0677208,-1.94583,-0.181817,1.74525,1.15177,-0.330661,0.0343586,-0.39582,-0.0687554,0.539405,0.00673591,-0.081218,2.76874,-30.9279,3.28584,27.2763,0.331112,3.22533,-0.331314,-0.734872,-1.81681,-2.62864,1.82492,0.510918,-0.632544,-0.618828,1.02905,-0.785702,-1.04322,0.238419,0.0281902,-0.348405,
-0.243608,-0.149051,-0.0705067,-1.94836,-0.165445,0.17753,0.357854,-0.238867,0.0329234,-0.280948,-0.105522,0.754334,0.0848835,-0.240777,0,0,0,0,0,0,0,-0.241132,-0.149415,-0.0677208,-1.94583,-0.181817,1.74525,1.15177,-0.330661,0.0343586,-0.39582,-0.0687554,0.539405,0.00673591,-0.081218,2.76874,-30.9279,3.28584,27.2763,0.331112,3.22533,-0.331314,-0.734872,-1.81681,-2.62864,1.82492,0.510918,-0.632544,-0.618828,1.02905,-0.785702,-1.04322,0.238419,0.0281902,-0.348405,
-0.244533,-0.148921,-0.0715993,-1.94879,-0.162486,0.177962,0.356909,-0.231259,0.0323084,-0.273131,-0.108056,0.739652,0.108098,-0.236332,0,0,0,0,0,0,0,-0.241132,-0.149415,-0.0677208,-1.94583,-0.181817,1.74525,1.15177,-0.330661,0.0343586,-0.39582,-0.0687554,0.539405,0.00673591,-0.081218,2.76874,-30.9279,3.28584,27.2763,0.331112,3.22533,-0.331314,-0.171785,-0.146977,-2.2912,0.744591,0.716718,0.273186,0.294993,0.92116,0.179498,-0.915415,0.251508,0.0559388,-0.353933,
-0.245431,-0.148791,-0.0726625,-1.94922,-0.159595,0.178437,0.35597,-0.22427,0.0326868,-0.265813,-0.106854,0.722867,0.118706,-0.234777,0,0,0,0,0,0,0,-0.241132,-0.149415,-0.0677208,-1.94583,-0.181817,1.74525,1.15177,-0.330661,0.0343586,-0.39582,-0.0687554,0.539405,0.00673591,-0.081218,2.76874,-30.9279,3.28584,27.2763,0.331112,3.22533,-0.331314,-0.466673,-1.14168,-2.06047,1.31957,0.453403,-0.262387,-0.244751,0.823751,-0.38687,-0.828968,0.221829,0.0278675,-0.35783,
-0.246302,-0.148658,-0.0736988,-1.94964,-0.156775,0.178923,0.355036,-0.217927,0.0330364,-0.259068,-0.10448,0.705007,0.121584,-0.233479,0,0,0,0,0,0,0,-0.241132,-0.149415,-0.0677208,-1.94583,-0.181817,1.74525,1.15177,-0.330661,0.0343586,-0.39582,-0.0687554,0.539405,0.00673591,-0.081218,2.76874,-30.9279,3.28584,27.2763,0.331112,3.22533,-0.331314,-0.466673,-1.14168,-2.06047,1.31957,0.453403,-0.262387,-0.244751,0.823751,-0.38687,-0.828968,0.221829,0.0278675,-0.35783,
-0.247151,-0.148526,-0.0747104,-1.95005,-0.154027,0.179401,0.354107,-0.212209,0.0330738,-0.252914,-0.101912,0.686914,0.119417,-0.232246,0,0,0,0,0,0,0,-0.251521,-0.148397,-0.0800317,-1.94809,-0.164548,1.74532,1.14935,-0.305133,0.0249788,-0.378954,-0.0717847,0.545485,-0.0027152,-0.0804542,2.74494,-30.8287,3.26204,27.7246,0.679012,3.24547,-0.452164,-0.067269,-1.42312,-2.03453,1.54416,0.647156,-0.322311,-0.300149,0.917792,-0.466166,-0.778766,0.275766,0.062688,-0.365778,
-0.243847,-0.14915,-0.0707409,-1.94859,-0.158334,0.178102,0.356903,-0.243799,0.0308922,-0.286405,-0.110703,1.00511,0.0986183,-0.258809,0,0,0,0,0,0,0,-0.251521,-0.148397,-0.0800317,-1.94809,-0.164548,1.74532,1.14935,-0.305133,0.0249788,-0.378954,-0.0717847,0.545485,-0.0027152,-0.0804542,2.74494,-30.8287,3.26204,27.7246,0.679012,3.24547,-0.452164,-0.067269,-1.42312,-2.03453,1.54416,0.647156,-0.322311,-0.300149,0.917792,-0.466166,-0.778766,0.275766,0.062688,-0.365778,
-0.263425,-0.147373,-0.0939556,-1.95287,-0.129777,0.179391,0.352127,-0.200985,0.0219183,-0.240407,-0.0979754,0.725125,0.107453,-0.240867,0,0,0,0,0,0,0,-0.251521,-0.148397,-0.0800317,-1.94809,-0.164548,1.74532,1.14935,-0.305133,0.0249788,-0.378954,-0.0717847,0.545485,-0.0027152,-0.0804542,2.74494,-30.8287,3.26204,27.7246,0.679012,3.24547,-0.452164,0.123031,-0.464847,-2.11811,0.998372,0.744225,0.186231,0.216852,0.89501,0.0630197,-0.785685,0.326385,0.108655,-0.373668,
-0.264203,-0.147286,-0.094891,-1.95327,-0.12692,0.179867,0.351179,-0.194571,0.0217435,-0.233871,-0.0988543,0.714326,0.118969,-0.236974,0,0,0,0,0,0,0,-0.251521,-0.148397,-0.0800317,-1.94809,-0.164548,1.74532,1.14935,-0.305133,0.0249788,-0.378954,-0.0717847,0.545485,-0.0027152,-0.0804542,2.74494,-30.8287,3.26204,27.7246,0.679012,3.24547,-0.452164,0.123031,-0.464847,-2.11811,0.998372,0.744225,0.186231,0.216852,0.89501,0.0630197,-0.785685,0.326385,0.108655,-0.373668,
-0.264957,-0.147198,-0.0958016,-1.95366,-0.124123,0.180352,0.350238,-0.188547,0.0220613,-0.227653,-0.0973986,0.699291,0.121283,-0.235416,0,0,0,0,0,0,0,-0.251521,-0.148397,-0.0800317,-1.94809,-0.164548,1.74532,1.14935,-0.305133,0.0249788,-0.378954,-0.0717847,0.545485,-0.0027152,-0.0804542,2.74494,-30.8287,3.26204,27.7246,0.679012,3.24547,-0.452164,-0.300419,-0.899251,-2.05809,1.15892,0.481738,-0.0918615,-0.0717677,0.783894,-0.208579,-0.759371,0.215846,0.0980951,-0.377367,
-0.265689,-0.147109,-0.096689,-1.95404,-0.121397,0.180824,0.349301,-0.183008,0.0222516,-0.221832,-0.0952825,0.681548,0.117935,-0.234084,0,0,0,0,0,0,0,-0.263619,-0.147669,-0.0942325,-1.95091,-0.142619,1.74529,1.14613,-0.245404,0.00976465,-0.314566,-0.0690503,0.528311,-0.0036092,-0.0911106,1.93164,-30.5034,2.46461,27.8754,1.32629,3.4771,-0.399063,-0.537346,-2.22672,-1.98361,1.90898,0.328436,-0.769063,-0.764099,0.794633,-0.910528,-0.714705,0.136164,0.0834515,-0.382154,
-0.266401,-0.147021,-0.0975548,-1.95441,-0.118748,0.181268,0.34837,-0.17797,0.0221643,-0.21646,-0.0931517,0.662299,0.111036,-0.232821,0,0,0,0,0,0,0,-0.263619,-0.147669,-0.0942325,-1.95091,-0.142619,1.74529,1.14613,-0.245404,0.00976465,-0.314566,-0.0690503,0.528311,-0.0036092,-0.0911106,1.93164,-30.5034,2.46461,27.8754,1.32629,3.4771,-0.399063,-0.537346,-2.22672,-1.98361,1.90898,0.328436,-0.769063,-0.764099,0.794633,-0.910528,-0.714705,0.136164,0.0834515,-0.382154,
-0.267095,-0.146933,-0.098401,-1.95477,-0.116177,0.181677,0.347443,-0.173428,0.0218103,-0.211553,-0.0912748,0.642535,0.102176,-0.231617,0,0,0,0,0,0,0,-0.263619,-0.147669,-0.0942325,-1.95091,-0.142619,1.74529,1.14613,-0.245404,0.00976465,-0.314566,-0.0690503,0.528311,-0.0036092,-0.0911106,1.93164,-30.5034,2.46461,27.8754,1.32629,3.4771,-0.399063,0.134175,-2.35358,-2.0082,2.07989,0.679125,-0.704681,-0.702742,0.953562,-0.857024,-0.661192,0.239853,0.143875,-0.383894,
-0.263478,-0.147427,-0.0939783,-1.95305,-0.122305,0.18085,0.351237,-0.198952,0.0207755,-0.238474,-0.100874,0.976949,0.141664,-0.257635,0,0,0,0,0,0,0,-0.263619,-0.147669,-0.0942325,-1.95091,-0.142619,1.74529,1.14613,-0.245404,0.00976465,-0.314566,-0.0690503,0.528311,-0.0036092,-0.0911106,1.93164,-30.5034,2.46461,27.8754,1.32629,3.4771,-0.399063,0.134175,-2.35358,-2.0082,2.07989,0.679125,-0.704681,-0.702742,0.953562,-0.857024,-0.661192,0.239853,0.143875,-0.383894,
-0.273288,-0.147135,-0.10575,-1.95534,-0.108929,0.179051,0.348929,-0.161435,0.0129412,-0.197759,-0.0923144,0.689459,0.10946,-0.239787,0,0,0,0,0,0,0,-0.263619,-0.147669,-0.0942325,-1.95091,-0.142619,1.74529,1.14613,-0.245404,0.00976465,-0.314566,-0.0690503,0.528311,-0.0036092,-0.0911106,1.93164,-30.5034,2.46461,27.8754,1.32629,3.4771,-0.399063,0.14753,-2.32955,-1.93504,2.06203,0.597734,-0.682196,-0.66419,0.87075,-0.851251,-0.580398,0.261509,0.195274,-0.385996,
-0.273914,-0.147084,-0.106521,-1.95572,-0.106194,0.179573,0.347983,-0.156631,0.0128276,-0.192712,-0.0947345,0.683676,0.130435,-0.236534,0,0,0,0,0,0,0,-0.263619,-0.147669,-0.0942325,-1.95091,-0.142619,1.74529,1.14613,-0.245404,0.00976465,-0.314566,-0.0690503,0.528311,-0.0036092,-0.0911106,1.93164,-30.5034,2.46461,27.8754,1.32629,3.4771,-0.399063,-0.090315,-1.70118,-1.86307,1.69638,0.413158,-0.42824,-0.399158,0.730003,-0.591917,-0.579119,0.295952,0.179452,-0.387571,
-0.274521,-0.147029,-0.107272,-1.9561,-0.103508,0.180131,0.347043,-0.151687,0.0135601,-0.187785,-0.0936806,0.67148,0.139414,-0.234993,0,0,0,0,0,0,0,-0.271449,-0.147531,-0.103348,-1.95288,-0.126806,1.74534,1.14361,-0.238593,0.0091686,-0.278622,-0.0541602,0.516822,0.000133128,-0.0801744,1.95942,-30.678,2.48842,27.6254,1.40594,3.06603,-0.351456,-0.090315,-1.70118,-1.86307,1.69638,0.413158,-0.42824,-0.399158,0.730003,-0.591917,-0.579119,0.295952,0.179452,-0.387571,
-0.275109,-0.146972,-0.108004,-1.95646,-0.100888,0.180695,0.346109,-0.146986,0.0142169,-0.182971,-0.0915488,0.654924,0.141056,-0.233646,0,0,0,0,0,0,0,-0.271449,-0.147531,-0.103348,-1.95288,-0.126806,1.74534,1.14361,-0.238593,0.0091686,-0.278622,-0.0541602,0.516822,0.000133128,-0.0801744,1.95942,-30.678,2.48842,27.6254,1.40594,3.06603,-0.351456,-0.53345,-2.0237,-1.82136,1.90275,0.142413,-0.674793,-0.650465,0.640553,-0.850061,-0.595846,0.296518,0.138517,-0.385539,
-0.275679,-0.146914,-0.108717,-1.95682,-0.0983461,0.181247,0.345179,-0.142606,0.0145554,-0.17839,-0.0892469,0.635519,0.137921,-0.232368,0,0,0,0,0,0,0,-0.271449,-0.147531,-0.103348,-1.95288,-0.126806,1.74534,1.14361,-0.238593,0.0091686,-0.278622,-0.0541602,0.516822,0.000133128,-0.0801744,1.95942,-30.678,2.48842,27.6254,1.40594,3.06603,-0.351456,-0.53345,-2.0237,-1.82136,1.90275,0.142413,-0.674793,-0.650465,0.640553,-0.850061,-0.595846,0.296518,0.138517,-0.385539,
-0.276234,-0.146856,-0.109414,-1.95717,-0.0958883,0.181774,0.344254,-0.138581,0.0145682,-0.17411,-0.0871316,0.614463,0.131757,-0.231146,0,0,0,0,0,0,0,-0.271449,-0.147531,-0.103348,-1.95288,-0.126806,1.74534,1.14361,-0.238593,0.0091686,-0.278622,-0.0541602,0.516822,0.000133128,-0.0801744,1.95942,-30.678,2.48842,27.6254,1.40594,3.06603,-0.351456,-0.210926,-1.51835,-1.75381,1.66142,0.261961,-0.375721,-0.355751,0.634859,-0.539066,-0.552484,0.393377,0.164044,-0.387113,
-0.273297,-0.147228,-0.105725,-1.9556,-0.101054,0.18123,0.348065,-0.15658,0.0105995,-0.192908,-0.0958082,0.930551,0.160375,-0.256029,0,0,0,0,0,0,0,-0.271449,-0.147531,-0.103348,-1.95288,-0.126806,1.74534,1.14361,-0.238593,0.0091686,-0.278622,-0.0541602,0.516822,0.000133128,-0.0801744,1.95942,-30.678,2.48842,27.6254,1.40594,3.06603,-0.351456,-0.210926,-1.51835,-1.75381,1.66142,0.261961,-0.375721,-0.355751,0.634859,-0.539066,-0.552484,0.393377,0.164044,-0.387113,
-0.279701,-0.147328,-0.113338,-1.95711,-0.0955384,0.180801,0.346481,-0.129838,0.00607337,-0.163763,-0.086283,0.625574,0.139997,-0.238404,0,0,0,0,0,0,0,-0.278361,-0.147518,-0.112169,-1.9546,-0.111155,1.74535,1.14102,-0.198316,5.7816e-05,-0.260305,-0.0502378,0.448009,0.00264912,-0.0894427,2.34027,-30.2773,2.96449,27.4271,0.727535,3.03948,-0.38533,-0.159135,-0.609505,-1.70294,1.15507,0.231363,0.0573289,0.0682656,0.535214,-0.0753278,-0.53797,0.473772,0.174663,-0.384758,
-0.280202,-0.147303,-0.113974,-1.95746,-0.093054,0.181411,0.345539,-0.125404,0.00614093,-0.159016,-0.0876747,0.62112,0.152574,-0.235667,0,0,0,0,0,0,0,-0.278361,-0.147518,-0.112169,-1.9546,-0.111155,1.74535,1.14102,-0.198316,5.7816e-05,-0.260305,-0.0502378,0.448009,0.00264912,-0.0894427,2.34027,-30.2773,2.96449,27.4271,0.727535,3.03948,-0.38533,-0.309119,-0.578177,-1.9002,1.15176,0.268732,0.0391265,0.043404,0.622941,-0.0842832,-0.665524,0.437241,0.122614,-0.384478,
-0.280685,-0.147276,-0.114592,-1.95781,-0.0906204,0.182031,0.344602,-0.120657,0.00677534,-0.154374,-0.0863936,0.608391,0.154998,-0.234123,0,0,0,0,0,0,0,-0.278361,-0.147518,-0.112169,-1.9546,-0.111155,1.74535,1.14102,-0.198316,5.7816e-05,-0.260305,-0.0502378,0.448009,0.00264912,-0.0894427,2.34027,-30.2773,2.96449,27.4271,0.727535,3.03948,-0.38533,-0.309119,-0.578177,-1.9002,1.15176,0.268732,0.0391265,0.043404,0.622941,-0.0842832,-0.665524,0.437241,0.122614,-0.384478,
-0.281149,-0.147247,-0.115191,-1.95814,-0.088262,0.182635,0.343671,-0.116078,0.00729184,-0.149774,-0.084289,0.589594,0.150955,-0.232729,0,0,0,0,0,0,0,-0.278361,-0.147518,-0.112169,-1.9546,-0.111155,1.74535,1.14102,-0.198316,5.7816e-05,-0.260305,-0.0502378,0.448009,0.00264912,-0.0894427,2.34027,-30.2773,2.96449,27.4271,0.727535,3.03948,-0.38533,-0.375751,-0.543502,-2.27716,1.2308,0.418713,0.0388974,0.0398732,0.815411,-0.0868975,-0.872637,0.451144,0.0624707,-0.386539,
-0.281596,-0.147217,-0.115772,-1.95847,-0.0859966,0.183205,0.342746,-0.111766,0.00752257,-0.145349,-0.0820613,0.566363,0.142495,-0.231388,0,0,0,0,0,0,0,-0.278361,-0.147518,-0.112169,-1.9546,-0.111155,1.74535,1.14102,-0.198316,5.7816e-05,-0.260305,-0.0502378,0.448009,0.00264912,-0.0894427,2.34027,-30.2773,2.96449,27.4271,0.727535,3.03948,-0.38533,-0.375751,-0.543502,-2.27716,1.2308,0.418713,0.0388974,0.0398732,0.815411,-0.0868975,-0.872637,0.451144,0.0624707,-0.386539,
-0.279691,-0.147402,-0.11329,-1.95735,-0.0869691,0.182902,0.345636,-0.123192,0.00405628,-0.157031,-0.0893644,0.866922,0.187551,-0.25427,0,0,0,0,0,0,0,-0.278361,-0.147518,-0.112169,-1.9546,-0.111155,1.74535,1.14102,-0.198316,5.7816e-05,-0.260305,-0.0502378,0.448009,0.00264912,-0.0894427,2.34027,-30.2773,2.96449,27.4271,0.727535,3.03948,-0.38533,-0.306445,-0.536249,-2.4403,1.29838,0.493159,0.054288,0.0627436,0.885563,-0.0862328,-0.923757,0.499087,0.0745237,-0.385894,
-0.285196,-0.147645,-0.120644,-1.95855,-0.0840413,0.180003,0.34397,-0.10181,3.27905e-07,-0.133485,-0.080635,0.522313,0.105253,-0.235226,0,0,0,0,0,0,0,-0.284083,-0.147563,-0.118888,-1.95571,-0.0983714,1.74537,1.13824,-0.194985,-0.00228628,-0.22787,-0.0320259,0.419598,0.000345648,-0.102829,2.16175,-29.829,2.51222,27.0026,1.06994,3.30498,-0.432022,-1.01489,-1.59411,-2.50637,1.90127,0.0687097,-0.586587,-0.5603,0.777423,-0.779628,-0.91525,0.429661,0.0886306,-0.3839,
-0.285594,-0.147644,-0.121166,-1.95889,-0.0819183,0.180484,0.343035,-0.0994881,0.000229097,-0.130505,-0.0833172,0.530731,0.12033,-0.233908,0,0,0,0,0,0,0,-0.284083,-0.147563,-0.118888,-1.95571,-0.0983714,1.74537,1.13824,-0.194985,-0.00228628,-0.22787,-0.0320259,0.419598,0.000345648,-0.102829,2.16175,-29.829,2.51222,27.0026,1.06994,3.30498,-0.432022,-1.01489,-1.59411,-2.50637,1.90127,0.0687097,-0.586587,-0.5603,0.777423,-0.779628,-0.91525,0.429661,0.0886306,-0.3839,
-0.285977,-0.147639,-0.121675,-1.95922,-0.0798165,0.180982,0.342105,-0.0958708,0.00114789,-0.127349,-0.0826948,0.525458,0.124448,-0.232319,0,0,0,0,0,0,0,-0.284083,-0.147563,-0.118888,-1.95571,-0.0983714,1.74537,1.13824,-0.194985,-0.00228628,-0.22787,-0.0320259,0.419598,0.000345648,-0.102829,2.16175,-29.829,2.51222,27.0026,1.06994,3.30498,-0.432022,-1.27201,-1.89644,-2.15051,1.97109,-0.210949,-0.783557,-0.751811,0.584583,-0.983225,-0.773497,0.366678,0.0830599,-0.382785,
-0.286345,-0.147632,-0.12217,-1.95954,-0.0777764,0.18147,0.341182,-0.0920297,0.00192802,-0.123766,-0.0810432,0.510017,0.122121,-0.2308,0,0,0,0,0,0,0,-0.284083,-0.147563,-0.118888,-1.95571,-0.0983714,1.74537,1.13824,-0.194985,-0.00228628,-0.22787,-0.0320259,0.419598,0.000345648,-0.102829,2.16175,-29.829,2.51222,27.0026,1.06994,3.30498,-0.432022,-1.27201,-1.89644,-2.15051,1.97109,-0.210949,-0.783557,-0.751811,0.584583,-0.983225,-0.773497,0.366678,0.0830599,-0.382785,
-0.286698,-0.147622,-0.122651,-1.95986,-0.0758285,0.181934,0.340265,-0.0881992,0.00236729,-0.120028,-0.0792324,0.486986,0.115893,-0.229335,0,0,0,0,0,0,0,-0.284083,-0.147563,-0.118888,-1.95571,-0.0983714,1.74537,1.13824,-0.194985,-0.00228628,-0.22787,-0.0320259,0.419598,0.000345648,-0.102829,2.16175,-29.829,2.51222,27.0026,1.06994,3.30498,-0.432022,-1.21891,-1.60287,-2.36617,1.85098,-0.0887772,-0.641699,-0.626623,0.68046,-0.819756,-0.878677,0.388128,0.0662208,-0.380579,
-0.287066,-0.147763,-0.123223,-1.96082,-0.0575361,0.186724,0.337266,-0.0670261,-0.00147307,-0.0981888,-0.0779541,0.630548,0.149786,-0.240593,0,0,0,0,0,0,0,-0.289566,-0.147577,-0.125969,-1.95661,-0.0842523,1.74555,1.13477,-0.146704,-0.00116093,-0.197773,-0.0191264,0.385603,0.0025327,-0.0896901,1.93164,-29.8805,2.6114,27.0779,1.05163,3.33794,-0.445755,-1.21891,-1.60287,-2.36617,1.85098,-0.0887772,-0.641699,-0.626623,0.68046,-0.819756,-0.878677,0.388128,0.0662208,-0.380579,
-0.285188,-0.147727,-0.120596,-1.95884,-0.0746063,0.182639,0.343142,-0.0938163,-0.00239158,-0.125347,-0.0841222,0.765421,0.165929,-0.250771,0,0,0,0,0,0,0,-0.289566,-0.147577,-0.125969,-1.95661,-0.0842523,1.74555,1.13477,-0.146704,-0.00116093,-0.197773,-0.0191264,0.385603,0.0025327,-0.0896901,1.93164,-29.8805,2.6114,27.0779,1.05163,3.33794,-0.445755,-0.963884,-1.2961,-2.601,1.70764,0.109319,-0.447772,-0.450522,0.779086,-0.600644,-0.926544,0.414192,0.113765,-0.378055,
-0.29468,-0.148075,-0.132605,-1.96027,-0.0602356,0.180954,0.33785,-0.0772921,-0.00619992,-0.106821,-0.0800837,0.454986,0.142814,-0.230788,0,0,0,0,0,0,0,-0.289566,-0.147577,-0.125969,-1.95661,-0.0842523,1.74555,1.13477,-0.146704,-0.00116093,-0.197773,-0.0191264,0.385603,0.0025327,-0.0896901,1.93164,-29.8805,2.6114,27.0779,1.05163,3.33794,-0.445755,-1.20924,-1.05008,-2.35253,1.45303,-0.158569,-0.388312,-0.39525,0.552519,-0.521575,-0.802651,0.369432,0.143185,-0.3737,
-0.294994,-0.148097,-0.133033,-1.9606,-0.0582795,0.181624,0.336926,-0.0785268,-0.00549597,-0.106953,-0.0842495,0.489034,0.167605,-0.23113,0,0,0,0,0,0,0,-0.289566,-0.147577,-0.125969,-1.95661,-0.0842523,1.74555,1.13477,-0.146704,-0.00116093,-0.197773,-0.0191264,0.385603,0.0025327,-0.0896901,1.93164,-29.8805,2.6114,27.0779,1.05163,3.33794,-0.445755,-1.20924,-1.05008,-2.35253,1.45303,-0.158569,-0.388312,-0.39525,0.552519,-0.521575,-0.802651,0.369432,0.143185,-0.3737,
-0.295302,-0.148113,-0.133459,-1.96094,-0.0562677,0.182341,0.336008,-0.077074,-0.00397738,-0.106454,-0.0841265,0.502943,0.179208,-0.229488,0,0,0,0,0,0,0,-0.289566,-0.147577,-0.125969,-1.95661,-0.0842523,1.74555,1.13477,-0.146704,-0.00116093,-0.197773,-0.0191264,0.385603,0.0025327,-0.0896901,1.93164,-29.8805,2.6114,27.0779,1.05163,3.33794,-0.445755,-1.68776,-1.4738,-2.26742,1.6208,-0.416873,-0.690548,-0.691868,0.466975,-0.833437,-0.807399,0.264103,0.0965114,-0.370646,
-0.295602,-0.148123,-0.133878,-1.96127,-0.0542579,0.183073,0.335096,-0.0748421,-0.00265673,-0.10485,-0.0825976,0.502452,0.183053,-0.227862,0,0,0,0,0,0,0,-0.289566,-0.147577,-0.125969,-1.95661,-0.0842523,1.74555,1.13477,-0.146704,-0.00116093,-0.197773,-0.0191264,0.385603,0.0025327,-0.0896901,1.93164,-29.8805,2.6114,27.0779,1.05163,3.33794,-0.445755,-1.68776,-1.4738,-2.26742,1.6208,-0.416873,-0.690548,-0.691868,0.466975,-0.833437,-0.807399,0.264103,0.0965114,-0.370646,
-0.295891,-0.14813,-0.134289,-1.96159,-0.0522911,0.183801,0.334191,-0.0722606,-0.00176916,-0.102618,-0.080743,0.491693,0.181972,-0.226333,0,0,0,0,0,0,0,-0.295153,-0.14762,-0.13308,-1.95728,-0.0693655,1.7457,1.13163,-0.125823,-0.000450829,-0.150678,-0.0159604,0.330805,0.00175463,-0.0651053,1.30085,-29.8528,1.86159,26.7764,1.03332,3.37823,-0.324905,-1.03959,-0.746316,-2.54076,1.32459,0.0272929,-0.219803,-0.220069,0.670922,-0.351399,-0.898489,0.386371,0.122493,-0.369226,
-0.296169,-0.148135,-0.134689,-1.96191,-0.0503954,0.184512,0.333292,-0.0696095,-0.00128911,-0.100119,-0.0789778,0.473937,0.177733,-0.224869,0,0,0,0,0,0,0,-0.295153,-0.14762,-0.13308,-1.95728,-0.0693655,1.7457,1.13163,-0.125823,-0.000450829,-0.150678,-0.0159604,0.330805,0.00175463,-0.0651053,1.30085,-29.8528,1.86159,26.7764,1.03332,3.37823,-0.324905,-1.02158,-0.473605,-2.25894,1.13287,-0.170823,-0.0965262,-0.0887209,0.447249,-0.231575,-0.716036,0.451258,0.198011,-0.364911,
-0.294511,-0.14811,-0.132385,-1.96052,-0.0515976,0.183558,0.337073,-0.0643009,-0.00763265,-0.0932253,-0.0823066,0.653168,0.201937,-0.245452,0,0,0,0,0,0,0,-0.295153,-0.14762,-0.13308,-1.95728,-0.0693655,1.7457,1.13163,-0.125823,-0.000450829,-0.150678,-0.0159604,0.330805,0.00175463,-0.0651053,1.30085,-29.8528,1.86159,26.7764,1.03332,3.37823,-0.324905,-1.02158,-0.473605,-2.25894,1.13287,-0.170823,-0.0965262,-0.0887209,0.447249,-0.231575,-0.716036,0.451258,0.198011,-0.364911,
-0.299183,-0.148136,-0.13854,-1.96099,-0.0459681,0.183375,0.334898,-0.0584485,-0.0060382,-0.0870718,-0.0757486,0.461425,0.178371,-0.227871,0,0,0,0,0,0,0,-0.295153,-0.14762,-0.13308,-1.95728,-0.0693655,1.7457,1.13163,-0.125823,-0.000450829,-0.150678,-0.0159604,0.330805,0.00175463,-0.0651053,1.30085,-29.8528,1.86159,26.7764,1.03332,3.37823,-0.324905,-1.57835,-1.29774,-2.47987,1.61431,-0.372396,-0.597476,-0.574386,0.493294,-0.770998,-0.824337,0.355303,0.162707,-0.365037,
-0.299417,-0.148156,-0.138885,-1.96129,-0.0440537,0.184089,0.333987,-0.0584425,-0.00509214,-0.0863664,-0.0760136,0.478608,0.178591,-0.227729,0,0,0,0,0,0,0,-0.295153,-0.14762,-0.13308,-1.95728,-0.0693655,1.7457,1.13163,-0.125823,-0.000450829,-0.150678,-0.0159604,0.330805,0.00175463,-0.0651053,1.30085,-29.8528,1.86159,26.7764,1.03332,3.37823,-0.324905,-1.57835,-1.29774,-2.47987,1.61431,-0.372396,-0.597476,-0.574386,0.493294,-0.770998,-0.824337,0.355303,0.162707,-0.365037,
-0.299644,-0.148174,-0.139226,-1.96159,-0.0421327,0.184783,0.333082,-0.0566702,-0.0042824,-0.0852367,-0.0751025,0.480234,0.173465,-0.226188,0,0,0,0,0,0,0,-0.298718,-0.147706,-0.137616,-1.95776,-0.0589902,1.74609,1.12903,-0.0888963,-0.00731679,-0.129099,-0.0139047,0.31924,0.0166537,-0.0817232,1.72931,-29.6782,2.33766,26.7288,1.05804,3.24547,-0.419205,-1.5255,-1.20505,-3.01358,1.67674,-0.077595,-0.544773,-0.522676,0.78704,-0.718917,-1.09511,0.349036,0.101343,-0.366024,
