PerkyPenguin/Analysis-on-Approximated-Derivatives/Code_and_Data/PaperData/Real_Robot/Scene_2/contact_change/5/trajectory.csv
Commanded Joint 0 Position,Commanded Joint 1 Position,Commanded Joint 2 Position,Commanded Joint 3 Position,Commanded Joint 4 Position,Commanded Joint 5 Position,Commanded Joint 6 Position,Commanded Joint 0 Velocity,Commanded Joint 1 Velocity,Commanded Joint 2 Velocity,Commanded Joint 3 Velocity,Commanded Joint 4 Velocity,Commanded Joint 5 Velocity,Commanded Joint 6 Velocity,Commanded Joint 0 Torque,Commanded Joint 1 Torque,Commanded Joint 2 Torque,Commanded Joint 3 Torque,Commanded Joint 4 Torque,Commanded Joint 5 Torque,Commanded Joint 6 Torque,Actual Joint 0 Position,Actual Joint 1 Position,Actual Joint 2 Position,Actual Joint 3 Position,Actual Joint 4 Position,Actual Joint 5 Position,Actual Joint 6 Position,Actual Joint 0 Velocity,Actual Joint 1 Velocity,Actual Joint 2 Velocity,Actual Joint 3 Velocity,Actual Joint 4 Velocity,Actual Joint 5 Velocity,Actual Joint 6 Velocity,Actual Joint 0 Torque,Actual Joint 1 Torque,Actual Joint 2 Torque,Actual Joint 3 Torque,Actual Joint 4 Torque,Actual Joint 5 Torque,Actual Joint 6 Torque,EE ext force 0,EE ext force 1,EE ext force 2,EE ext force 3,EE ext force 4,EE ext force 5,joint ext torque 0,joint ext torque 1,joint ext torque 2,joint ext torque 3,joint ext torque 4,joint ext torque 5,joint ext torque 6,
0.0209443,-0.0566062,0.513406,-1.56671,0.0370616,-0.0120879,0.531806,0.0108853,0.0299544,0.0154021,-0.14401,-0.0722797,0.20038,-0.0012388,0,0,0,0,0,0,0,0.0208613,-0.0567327,0.513297,-1.56528,0.0376604,1.55673,1.31722,-0.00175569,-0.000172515,-0.00018936,-0.000932626,0.00688462,0.000531537,0.000375745,0.285221,-27.3097,-0.836168,27.0264,0.722042,3.05962,0.0577852,2.29968,1.99212,2.2009,-0.981286,1.27451,0.188017,0.205222,0.515214,0.188739,0.214864,0.187903,-0.31384,0.0809783,
0.0210017,-0.0564054,0.513485,-1.56733,0.0366994,-0.0112531,0.531801,0.0143421,0.0502025,0.0196885,-0.154878,-0.0905543,0.208691,-0.00132939,0,0,0,0,0,0,0,0.0208613,-0.0567327,0.513297,-1.56528,0.0376604,1.55673,1.31722,-0.00175569,-0.000172515,-0.00018936,-0.000932626,0.00688462,0.000531537,0.000375745,0.285221,-27.3097,-0.836168,27.0264,0.722042,3.05962,0.0577852,2.2383,1.97292,2.19255,-0.962004,1.23469,0.19656,0.214337,0.495578,0.196079,0.218842,0.195476,-0.313357,0.0813706,
0.0208558,-0.0567284,0.513291,-1.56528,0.0377086,-0.0140724,0.531822,-0.000176133,0.000235274,-0.000137612,-8.82149e-06,0.00171397,-0.000184153,1.08676e-05,0,0,0,0,0,0,0,0.0208613,-0.0567327,0.513297,-1.56528,0.0376604,1.55673,1.31722,-0.00175569,-0.000172515,-0.00018936,-0.000932626,0.00688462,0.000531537,0.000375745,0.285221,-27.3097,-0.836168,27.0264,0.722042,3.05962,0.0577852,2.2383,1.97292,2.19255,-0.962004,1.23469,0.19656,0.214337,0.495578,0.196079,0.218842,0.195476,-0.313357,0.0813706,
0.0208553,-0.0567277,0.513291,-1.56528,0.0377136,-0.014073,0.531822,-0.000124856,0.000180417,-7.49746e-05,-1.86812e-05,0.00123348,-0.000166816,6.98816e-06,0,0,0,0,0,0,0,0.0208613,-0.0567327,0.513297,-1.56528,0.0376604,1.55673,1.31722,-0.00175569,-0.000172515,-0.00018936,-0.000932626,0.00688462,0.000531537,0.000375745,0.285221,-27.3097,-0.836168,27.0264,0.722042,3.05962,0.0577852,2.03852,1.86163,2.26366,-0.857154,1.0405,0.201769,0.220793,0.366709,0.196416,0.285535,0.19038,-0.297477,0.0816615,
0.0208549,-0.0567272,0.513291,-1.56528,0.0377171,-0.0140737,0.531822,-9.00549e-05,0.000128704,-3.13013e-05,-2.42791e-05,0.000879717,-0.00016093,4.58226e-06,0,0,0,0,0,0,0,0.0208681,-0.0567896,0.513297,-1.56545,0.0375982,1.55685,1.31722,-0.000475744,-0.00910847,-0.000591377,-0.0222878,-0.000745299,0.0309999,0.000412718,0.233646,-26.4845,-0.788561,24.7095,0.764157,3.02666,0.0577852,2.03852,1.86163,2.26366,-0.857154,1.0405,0.201769,0.220793,0.366709,0.196416,0.285535,0.19038,-0.297477,0.0816615,
0.0208546,-0.0567268,0.513291,-1.56528,0.0377195,-0.0140743,0.531822,-6.63899e-05,8.17153e-05,-6.37556e-07,-2.53761e-05,0.000617413,-0.000163538,3.03365e-06,0,0,0,0,0,0,0,0.0208681,-0.0567896,0.513297,-1.56545,0.0375982,1.55685,1.31722,-0.000475744,-0.00910847,-0.000591377,-0.0222878,-0.000745299,0.0309999,0.000412718,0.233646,-26.4845,-0.788561,24.7095,0.764157,3.02666,0.0577852,1.27413,1.21022,1.76981,-0.50434,0.617115,0.12082,0.140809,0.195083,0.107215,0.214644,0.153584,-0.281562,0.0805485,
0.0208544,-0.0567267,0.513291,-1.56528,0.0377212,-0.014075,0.531822,-5.03368e-05,3.96184e-05,2.10037e-05,-2.31148e-05,0.000421849,-0.000171448,2.0318e-06,0,0,0,0,0,0,0,0.0208681,-0.0567896,0.513297,-1.56545,0.0375982,1.55685,1.31722,-0.000475744,-0.00910847,-0.000591377,-0.0222878,-0.000745299,0.0309999,0.000412718,0.233646,-26.4845,-0.788561,24.7095,0.764157,3.02666,0.0577852,0.925574,1.40868,1.20714,-0.761104,0.556461,0.30852,0.321331,0.254283,0.312146,0.0484304,0.173449,-0.260044,0.0808339,
0.0208543,-0.0567267,0.513291,-1.56528,0.0377223,-0.0140758,0.531822,-3.94904e-05,2.14158e-06,3.63702e-05,-1.86666e-05,0.000275309,-0.000182226,1.39344e-06,0,0,0,0,0,0,0,0.0208681,-0.0567896,0.513297,-1.56545,0.0375982,1.55685,1.31722,-0.000475744,-0.00910847,-0.000591377,-0.0222878,-0.000745299,0.0309999,0.000412718,0.233646,-26.4845,-0.788561,24.7095,0.764157,3.02666,0.0577852,0.925574,1.40868,1.20714,-0.761104,0.556461,0.30852,0.321331,0.254283,0.312146,0.0484304,0.173449,-0.260044,0.0808339,
0.0213825,-0.0568188,0.513808,-1.56484,0.0237846,-0.022483,0.531779,0.00588105,-0.00573177,0.00603332,0.00207172,-0.373247,-0.233508,-0.00104668,0,0,0,0,0,0,0,0.0208681,-0.0567896,0.513297,-1.56545,0.0375982,1.55685,1.31722,-0.000475744,-0.00910847,-0.000591377,-0.0222878,-0.000745299,0.0309999,0.000412718,0.233646,-26.4845,-0.788561,24.7095,0.764157,3.02666,0.0577852,2.21583,2.01037,0.911929,-1.28956,1.61795,0.216573,0.227168,0.892705,0.240198,-0.191686,0.156744,-0.240158,0.0809058,
0.0213883,-0.0568715,0.513814,-1.56509,0.0242903,-0.0217956,0.531782,0.00560344,-0.00546869,0.00579322,0.00192855,-0.353862,-0.221874,-0.000953276,0,0,0,0,0,0,0,0.0208556,-0.0568269,0.513282,-1.5659,0.0375149,1.5574,1.31722,0.00281214,-0.000206613,0.00148713,-0.00169039,-0.00314977,-0.00257121,0.00103429,0.233646,-27.4565,-0.713182,27.2763,1.13128,3.424,0.050461,2.21583,2.01037,0.911929,-1.28956,1.61795,0.216573,0.227168,0.892705,0.240198,-0.191686,0.156744,-0.240158,0.0809058,
0.0214067,-0.0568926,0.513833,-1.56508,0.0228613,-0.0226962,0.531779,0.00457826,-0.00526554,0.00476544,0.00134258,-0.357271,-0.225137,-0.000931872,0,0,0,0,0,0,0,0.0208556,-0.0568269,0.513282,-1.5659,0.0375149,1.5574,1.31722,0.00281214,-0.000206613,0.00148713,-0.00169039,-0.00314977,-0.00257121,0.00103429,0.233646,-27.4565,-0.713182,27.2763,1.13128,3.424,0.050461,2.34095,1.91898,1.27926,-1.11224,1.54426,0.139686,0.143597,0.774112,0.161653,-0.0245853,0.159751,-0.203872,0.0808447,
0.0214212,-0.0569126,0.513848,-1.56508,0.0214222,-0.0236066,0.531775,0.00362887,-0.00499346,0.00381212,0.000831304,-0.359777,-0.227613,-0.000910918,0,0,0,0,0,0,0,0.0208556,-0.0568269,0.513282,-1.5659,0.0375149,1.5574,1.31722,0.00281214,-0.000206613,0.00148713,-0.00169039,-0.00314977,-0.00257121,0.00103429,0.233646,-27.4565,-0.713182,27.2763,1.13128,3.424,0.050461,2.34095,1.91898,1.27926,-1.11224,1.54426,0.139686,0.143597,0.774112,0.161653,-0.0245853,0.159751,-0.203872,0.0808447,
0.0214322,-0.0569313,0.51386,-1.56508,0.019976,-0.0245244,0.531772,0.00275474,-0.00467536,0.00293329,0.000383651,-0.361543,-0.229435,-0.00089067,0,0,0,0,0,0,0,0.0208556,-0.0568269,0.513282,-1.5659,0.0375149,1.5574,1.31722,0.00281214,-0.000206613,0.00148713,-0.00169039,-0.00314977,-0.00257121,0.00103429,0.233646,-27.4565,-0.713182,27.2763,1.13128,3.424,0.050461,2.39872,2.37149,1.25929,-1.43082,1.60654,0.32799,0.322593,0.820415,0.367983,-0.0516244,0.191853,-0.199241,0.0817594,
0.02144,-0.0569486,0.513868,-1.56508,0.0185252,-0.0254472,0.531768,0.00195347,-0.00432904,0.00212692,-9.1989e-06,-0.362698,-0.230715,-0.000871261,0,0,0,0,0,0,0,0.0208556,-0.0568269,0.513282,-1.5659,0.0375149,1.5574,1.31722,0.00281214,-0.000206613,0.00148713,-0.00169039,-0.00314977,-0.00257121,0.00103429,0.233646,-27.4565,-0.713182,27.2763,1.13128,3.424,0.050461,1.82412,2.25045,1.38481,-1.39349,1.12072,0.430347,0.414109,0.525808,0.480905,0.0165476,0.119025,-0.238612,0.0826107,
0.0214449,-0.0569645,0.513874,-1.56508,0.0170718,-0.0263734,0.531765,0.00122152,-0.00396818,0.00138971,-0.000354394,-0.363347,-0.231543,-0.000852738,0,0,0,0,0,0,0,0.0208556,-0.0568269,0.513282,-1.5659,0.0375149,1.5574,1.31722,0.00281214,-0.000206613,0.00148713,-0.00169039,-0.00314977,-0.00257121,0.00103429,0.233646,-27.4565,-0.713182,27.2763,1.13128,3.424,0.050461,1.82412,2.25045,1.38481,-1.39349,1.12072,0.430347,0.414109,0.525808,0.480905,0.0165476,0.119025,-0.238612,0.0826107,
0.0218669,-0.0568907,0.51421,-1.56374,-0.00382905,-0.0558332,0.531299,0.00258103,-0.00978031,0.00164388,0.00116963,-1.13427,-1.15109,-0.0108228,0,0,0,0,0,0,0,0.0209747,-0.0568158,0.513386,-1.56583,0.0350402,1.55729,1.31722,0.00456785,-0.000430446,0.00403365,-0.0026392,-0.150975,-0.00889617,0.00115281,-0.781979,-27.5835,-1.68517,26.4789,0.21484,2.8344,0.0641939,1.45197,1.93046,1.75199,-1.17712,0.664459,0.383514,0.357849,0.190894,0.43727,0.178256,0.00375273,-0.264767,0.0837236,
0.0218662,-0.0569189,0.514203,-1.56429,-0.0084873,-0.0518625,0.53135,0.00137537,-0.00853563,0.000559918,0.000489615,-1.14775,-1.04675,-0.00960062,0,0,0,0,0,0,0,0.0209747,-0.0568158,0.513386,-1.56583,0.0350402,1.55729,1.31722,0.00456785,-0.000430446,0.00403365,-0.0026392,-0.150975,-0.00889617,0.00115281,-0.781979,-27.5835,-1.68517,26.4789,0.21484,2.8344,0.0641939,1.45197,1.93046,1.75199,-1.17712,0.664459,0.383514,0.357849,0.190894,0.43727,0.178256,0.00375273,-0.264767,0.0837236,
0.02186,-0.0569457,0.514194,-1.5643,-0.0131399,-0.0560934,0.531312,-0.00154752,-0.00671407,-0.00233192,-0.00276356,-1.16315,-1.05773,-0.00946516,0,0,0,0,0,0,0,0.0209747,-0.0568158,0.513386,-1.56583,0.0350402,1.55729,1.31722,0.00456785,-0.000430446,0.00403365,-0.0026392,-0.150975,-0.00889617,0.00115281,-0.781979,-27.5835,-1.68517,26.4789,0.21484,2.8344,0.0641939,1.87595,1.94586,1.76123,-1.29542,0.987988,0.265447,0.240097,0.375694,0.325244,0.0794328,-0.087717,-0.325808,0.0847854,
0.0218429,-0.0569648,0.514174,-1.56433,-0.0178438,-0.0603537,0.531275,-0.00426164,-0.00476768,-0.00502241,-0.00560206,-1.17599,-1.06508,-0.009331,0,0,0,0,0,0,0,0.0209747,-0.0568158,0.513386,-1.56583,0.0350402,1.55729,1.31722,0.00456785,-0.000430446,0.00403365,-0.0026392,-0.150975,-0.00889617,0.00115281,-0.781979,-27.5835,-1.68517,26.4789,0.21484,2.8344,0.0641939,2.65173,2.65401,2.26319,-1.67703,1.31745,0.36209,0.33942,0.450619,0.427878,0.241053,-0.0917729,-0.24997,0.0881628,
0.0218158,-0.0569759,0.514144,-1.56436,-0.0225907,-0.0646314,0.531238,-0.00677151,-0.00277134,-0.00751489,-0.00807565,-1.18671,-1.06943,-0.00919855,0,0,0,0,0,0,0,0.0209747,-0.0568158,0.513386,-1.56583,0.0350402,1.55729,1.31722,0.00456785,-0.000430446,0.00403365,-0.0026392,-0.150975,-0.00889617,0.00115281,-0.781979,-27.5835,-1.68517,26.4789,0.21484,2.8344,0.0641939,2.65173,2.65401,2.26319,-1.67703,1.31745,0.36209,0.33942,0.450619,0.427878,0.241053,-0.0917729,-0.24997,0.0881628,
0.0217795,-0.056979,0.514104,-1.5644,-0.0273734,-0.0689166,0.531202,-0.00908477,-0.000780692,-0.00981614,-0.010227,-1.19567,-1.07128,-0.00906799,0,0,0,0,0,0,0,0.021466,-0.0568694,0.513792,-1.56537,0.020721,1.55227,1.31721,0.0250879,3.45491e-05,0.0259207,0.0283301,-0.645784,-0.279957,-0.000583997,-1.49212,-27.4089,-2.36357,25.2332,-1.93482,0.96398,0.0779268,3.5346,3.01616,2.58475,-2.04417,1.89503,0.263255,0.236824,0.739655,0.34653,0.149183,-0.222766,-0.36341,0.0925298,
0.0160896,-0.0556493,0.508026,-1.56784,-0.00137139,-0.0562204,0.527198,-0.165069,0.0563339,-0.17525,-0.084997,-1.04231,-1.22405,-0.0909022,0,0,0,0,0,0,0,0.021466,-0.0568694,0.513792,-1.56537,0.020721,1.55227,1.31721,0.0250879,3.45491e-05,0.0259207,0.0283301,-0.645784,-0.279957,-0.000583997,-1.49212,-27.4089,-2.36357,25.2332,-1.93482,0.96398,0.0779268,3.5346,3.01616,2.58475,-2.04417,1.89503,0.263255,0.236824,0.739655,0.34653,0.149183,-0.222766,-0.36341,0.0925298,
0.0164864,-0.056089,0.508395,-1.56743,-0.0225186,-0.0651473,0.527677,-0.164766,0.0532555,-0.174213,-0.0799855,-1.08053,-1.24631,-0.0803015,0,0,0,0,0,0,0,0.021466,-0.0568694,0.513792,-1.56537,0.020721,1.55227,1.31721,0.0250879,3.45491e-05,0.0259207,0.0283301,-0.645784,-0.279957,-0.000583997,-1.49212,-27.4089,-2.36357,25.2332,-1.93482,0.96398,0.0779268,3.00127,2.52998,2.65511,-2.13878,1.6134,0.17354,0.140537,0.641152,0.277255,-0.124938,-0.559807,-0.7354,0.0908198,
0.0158029,-0.055851,0.507673,-1.56777,-0.0269238,-0.0702096,0.52736,-0.170866,0.0595005,-0.180313,-0.0840199,-1.1013,-1.26558,-0.0792576,0,0,0,0,0,0,0,0.021466,-0.0568694,0.513792,-1.56537,0.020721,1.55227,1.31721,0.0250879,3.45491e-05,0.0259207,0.0283301,-0.645784,-0.279957,-0.000583997,-1.49212,-27.4089,-2.36357,25.2332,-1.93482,0.96398,0.0779268,2.71631,2.39075,3.09038,-2.22907,1.25124,0.175577,0.13635,0.377439,0.293635,-0.0953014,-0.807852,-0.903245,0.0873685,
0.0150977,-0.0555897,0.50693,-1.56812,-0.0314032,-0.0753357,0.527047,-0.176305,0.0653258,-0.185748,-0.0875552,-1.11985,-1.28155,-0.0782239,0,0,0,0,0,0,0,0.021466,-0.0568694,0.513792,-1.56537,0.020721,1.55227,1.31721,0.0250879,3.45491e-05,0.0259207,0.0283301,-0.645784,-0.279957,-0.000583997,-1.49212,-27.4089,-2.36357,25.2332,-1.93482,0.96398,0.0779268,2.71631,2.39075,3.09038,-2.22907,1.25124,0.175577,0.13635,0.377439,0.293635,-0.0953014,-0.807852,-0.903245,0.0873685,
0.0143731,-0.0553068,0.506168,-1.56848,-0.0359487,-0.0805148,0.526739,-0.18115,0.0707228,-0.190593,-0.0906316,-1.13638,-1.29475,-0.0771982,0,0,0,0,0,0,0,0.0220369,-0.0570335,0.51426,-1.56484,-0.00269267,1.54006,1.31693,-0.00135451,-0.00442498,-0.0048513,-0.000805196,-0.764824,-0.453321,-0.0265932,-4.05102,-25.2348,-5.16051,24.9594,-0.633854,1.10406,-0.0227812,1.63069,2.98954,3.66593,-2.51301,0.335473,0.76975,0.741681,-0.174136,0.882205,0.113357,-0.712394,-0.988408,0.0635726,
0.0136313,-0.055004,0.505388,-1.56885,-0.040553,-0.0857373,0.526434,-0.185465,0.0756928,-0.194908,-0.0932882,-1.15109,-1.30564,-0.0761787,0,0,0,0,0,0,0,0.0220369,-0.0570335,0.51426,-1.56484,-0.00269267,1.54006,1.31693,-0.00135451,-0.00442498,-0.0048513,-0.000805196,-0.764824,-0.453321,-0.0265932,-4.05102,-25.2348,-5.16051,24.9594,-0.633854,1.10406,-0.0227812,1.63069,2.98954,3.66593,-2.51301,0.335473,0.76975,0.741681,-0.174136,0.882205,0.113357,-0.712394,-0.988408,0.0635726,
0.0128741,-0.054683,0.504593,-1.56924,-0.0452096,-0.0909956,0.526133,-0.1893,0.0802449,-0.198747,-0.0955618,-1.16415,-1.31457,-0.0751643,0,0,0,0,0,0,0,0.0220369,-0.0570335,0.51426,-1.56484,-0.00269267,1.54006,1.31693,-0.00135451,-0.00442498,-0.0048513,-0.000805196,-0.764824,-0.453321,-0.0265932,-4.05102,-25.2348,-5.16051,24.9594,-0.633854,1.10406,-0.0227812,1.53819,1.84565,3.99136,-1.69861,0.284459,0.288717,0.280678,-0.203606,0.358546,0.106777,-0.755168,-1.17706,0.0372951,
0.0110914,-0.055055,0.502815,-1.57077,-0.0160811,-0.0631991,0.523783,-0.319134,0.109571,-0.333428,-0.156806,-0.987057,-1.21085,-0.156293,0,0,0,0,0,0,0,0.0220369,-0.0570335,0.51426,-1.56484,-0.00269267,1.54006,1.31693,-0.00135451,-0.00442498,-0.0048513,-0.000805196,-0.764824,-0.453321,-0.0265932,-4.05102,-25.2348,-5.16051,24.9594,-0.633854,1.10406,-0.0227812,1.53819,1.84565,3.99136,-1.69861,0.284459,0.288717,0.280678,-0.203606,0.358546,0.106777,-0.755168,-1.17706,0.0372951,
0.0114523,-0.0550396,0.503121,-1.57009,-0.0426883,-0.0785673,0.524456,-0.312777,0.107331,-0.326019,-0.145288,-1.01583,-1.22899,-0.136257,0,0,0,0,0,0,0,0.0220369,-0.0570335,0.51426,-1.56484,-0.00269267,1.54006,1.31693,-0.00135451,-0.00442498,-0.0048513,-0.000805196,-0.764824,-0.453321,-0.0265932,-4.05102,-25.2348,-5.16051,24.9594,-0.633854,1.10406,-0.0227812,4.16015,0.223114,3.49945,-0.925738,2.45629,-1.18518,-1.17786,1.08984,-1.1425,-0.437745,-1.05753,-1.36203,0.0189791,
0.0101669,-0.0545741,0.501782,-1.57069,-0.046861,-0.0835487,0.523919,-0.321367,0.116387,-0.334656,-0.149219,-1.04318,-1.24534,-0.134317,0,0,0,0,0,0,0,0.0220369,-0.0570335,0.51426,-1.56484,-0.00269267,1.54006,1.31693,-0.00135451,-0.00442498,-0.0048513,-0.000805196,-0.764824,-0.453321,-0.0265932,-4.05102,-25.2348,-5.16051,24.9594,-0.633854,1.10406,-0.0227812,3.63008,-0.590988,3.43674,-0.427832,2.18914,-1.39911,-1.39945,0.993898,-1.36167,-0.523438,-1.09105,-1.51181,-0.00156879,
0.00885111,-0.0540754,0.500413,-1.5713,-0.0511334,-0.0885842,0.523389,-0.328936,0.124666,-0.342267,-0.152625,-1.06811,-1.25889,-0.132394,0,0,0,0,0,0,0,0.0220123,-0.0574122,0.514208,-1.56491,-0.0268371,1.52323,1.31597,-0.0154265,-0.00846525,-0.0232488,-0.00789854,-0.747804,-0.543748,-0.035059,-5.32055,-24.9135,-6.43797,24.3127,-0.187992,1.36864,-0.0905302,3.63008,-0.590988,3.43674,-0.427832,2.18914,-1.39911,-1.39945,0.993898,-1.36167,-0.523438,-1.09105,-1.51181,-0.00156879,
0.0075087,-0.0535466,0.499017,-1.57192,-0.0554964,-0.0936647,0.522867,-0.335603,0.132201,-0.348971,-0.155539,-1.09074,-1.27011,-0.130483,0,0,0,0,0,0,0,0.0220123,-0.0574122,0.514208,-1.56491,-0.0268371,1.52323,1.31597,-0.0154265,-0.00846525,-0.0232488,-0.00789854,-0.747804,-0.543748,-0.035059,-5.32055,-24.9135,-6.43797,24.3127,-0.187992,1.36864,-0.0905302,0.884092,-0.190255,3.36985,-0.583663,0.314649,-0.429687,-0.437364,0.0341193,-0.384506,-0.370081,-0.850741,-1.5716,-0.0241968,
0.00614285,-0.0529905,0.497598,-1.57256,-0.0599412,-0.0987821,0.522353,-0.341464,0.139031,-0.35487,-0.157997,-1.1112,-1.27935,-0.128583,0,0,0,0,0,0,0,0.0220123,-0.0574122,0.514208,-1.56491,-0.0268371,1.52323,1.31597,-0.0154265,-0.00846525,-0.0232488,-0.00789854,-0.747804,-0.543748,-0.035059,-5.32055,-24.9135,-6.43797,24.3127,-0.187992,1.36864,-0.0905302,0.884092,-0.190255,3.36985,-0.583663,0.314649,-0.429687,-0.437364,0.0341193,-0.384506,-0.370081,-0.850741,-1.5716,-0.0241968,
0.00828312,-0.0547695,0.499927,-1.57226,-0.0331373,-0.0718969,0.52157,-0.441219,0.144028,-0.457093,-0.208828,-0.892144,-1.17433,-0.211512,0,0,0,0,0,0,0,0.0220123,-0.0574122,0.514208,-1.56491,-0.0268371,1.52323,1.31597,-0.0154265,-0.00846525,-0.0232488,-0.00789854,-0.747804,-0.543748,-0.035059,-5.32055,-24.9135,-6.43797,24.3127,-0.187992,1.36864,-0.0905302,0.186222,-0.331627,3.08581,-0.443201,-0.0123346,-0.279129,-0.289773,-0.0629533,-0.236719,-0.432543,-0.714234,-1.59749,-0.0519547,
0.00855929,-0.055263,0.500227,-1.57165,-0.0581456,-0.0902152,0.521784,-0.425851,0.134556,-0.440382,-0.188486,-0.905993,-1.18293,-0.184775,0,0,0,0,0,0,0,0.0220123,-0.0574122,0.514208,-1.56491,-0.0268371,1.52323,1.31597,-0.0154265,-0.00846525,-0.0232488,-0.00789854,-0.747804,-0.543748,-0.035059,-5.32055,-24.9135,-6.43797,24.3127,-0.187992,1.36864,-0.0905302,0.186222,-0.331627,3.08581,-0.443201,-0.0123346,-0.279129,-0.289773,-0.0629533,-0.236719,-0.432543,-0.714234,-1.59749,-0.0519547,
0.00680555,-0.0546737,0.498415,-1.57242,-0.0619214,-0.0950196,0.521057,-0.438433,0.147333,-0.45307,-0.193038,-0.943948,-1.2011,-0.18192,0,0,0,0,0,0,0,0.0205738,-0.0577347,0.512327,-1.56593,-0.0491494,1.50558,1.31446,-0.0566898,-0.0173153,-0.0775311,-0.0419953,-0.747433,-0.604906,-0.0533287,-5.82837,-23.3663,-6.91008,24.6103,-0.658573,1.63415,-0.183914,1.2279,-0.142269,2.89412,-0.573723,0.880672,-0.467505,-0.470678,0.48447,-0.428627,-0.610396,-0.649209,-1.59643,-0.0783665,
0.0050077,-0.0540378,0.496558,-1.57321,-0.0658375,-0.0998843,0.52034,-0.449463,0.158959,-0.464187,-0.197003,-0.979022,-1.21618,-0.179093,0,0,0,0,0,0,0,0.0205738,-0.0577347,0.512327,-1.56593,-0.0491494,1.50558,1.31446,-0.0566898,-0.0173153,-0.0775311,-0.0419953,-0.747433,-0.604906,-0.0533287,-5.82837,-23.3663,-6.91008,24.6103,-0.658573,1.63415,-0.183914,2.52326,0.360744,2.36342,-0.937546,1.98583,-0.568336,-0.572138,1.16184,-0.517888,-0.818091,-0.565169,-1.45841,-0.105712,
0.00317118,-0.0533599,0.494663,-1.57401,-0.0698824,-0.104799,0.519635,-0.459131,0.169498,-0.47393,-0.200405,-1.01122,-1.22869,-0.17629,0,0,0,0,0,0,0,0.0205738,-0.0577347,0.512327,-1.56593,-0.0491494,1.50558,1.31446,-0.0566898,-0.0173153,-0.0775311,-0.0419953,-0.747433,-0.604906,-0.0533287,-5.82837,-23.3663,-6.91008,24.6103,-0.658573,1.63415,-0.183914,2.52326,0.360744,2.36342,-0.937546,1.98583,-0.568336,-0.572138,1.16184,-0.517888,-0.818091,-0.565169,-1.45841,-0.105712,
0.00130079,-0.0526438,0.492733,-1.57482,-0.0740449,-0.109755,0.518941,-0.467596,0.179017,-0.482462,-0.203275,-1.04063,-1.23903,-0.173505,0,0,0,0,0,0,0,0.0205738,-0.0577347,0.512327,-1.56593,-0.0491494,1.50558,1.31446,-0.0566898,-0.0173153,-0.0775311,-0.0419953,-0.747433,-0.604906,-0.0533287,-5.82837,-23.3663,-6.91008,24.6103,-0.658573,1.63415,-0.183914,1.41763,0.458618,1.67227,-0.948314,1.42469,-0.181088,-0.193582,0.967353,-0.124093,-0.873336,-0.35985,-1.34771,-0.134777,
-0.00059918,-0.0518934,0.490773,-1.57564,-0.0783144,-0.114745,0.518258,-0.474992,0.187584,-0.489921,-0.205649,-1.06737,-1.24754,-0.170735,0,0,0,0,0,0,0,0.0205738,-0.0577347,0.512327,-1.56593,-0.0491494,1.50558,1.31446,-0.0566898,-0.0173153,-0.0775311,-0.0419953,-0.747433,-0.604906,-0.0533287,-5.82837,-23.3663,-6.91008,24.6103,-0.658573,1.63415,-0.183914,1.41763,0.458618,1.67227,-0.948314,1.42469,-0.181088,-0.193582,0.967353,-0.124093,-0.873336,-0.35985,-1.34771,-0.134777,
0.00216512,-0.053914,0.49375,-1.57523,-0.0566175,-0.0931787,0.517476,-0.569699,0.192458,-0.585709,-0.25612,-0.868857,-1.16768,-0.251443,0,0,0,0,0,0,0,0.0205738,-0.0577347,0.512327,-1.56593,-0.0491494,1.50558,1.31446,-0.0566898,-0.0173153,-0.0775311,-0.0419953,-0.747433,-0.604906,-0.0533287,-5.82837,-23.3663,-6.91008,24.6103,-0.658573,1.63415,-0.183914,0.206211,0.125971,2.09184,-0.279047,0.289722,0.0360652,0.02392,0.224786,0.0609421,-0.370541,-0.112484,-1.12979,-0.163893,
0.000771611,-0.0541745,0.491972,-1.57517,-0.0816057,-0.112487,0.517841,-0.55146,0.180768,-0.565883,-0.227178,-0.904779,-1.17664,-0.212723,0,0,0,0,0,0,0,0.0172611,-0.058235,0.508348,-1.56796,-0.0714096,1.48468,1.31206,-0.127576,-0.00212227,-0.150909,-0.0794758,-0.7141,-0.688951,-0.0804596,-6.15765,-23.9891,-7.2354,24.884,-0.61005,1.99853,-0.26448,0.075675,-0.0158009,2.60679,0.0934393,-0.125299,0.0369909,0.0299755,-0.152195,0.0388398,0.0210643,-0.0462814,-0.950053,-0.189668,
-0.00148339,-0.053399,0.489659,-1.57609,-0.0853836,-0.117248,0.517005,-0.563751,0.193888,-0.578286,-0.230974,-0.944468,-1.1903,-0.209054,0,0,0,0,0,0,0,0.0172611,-0.058235,0.508348,-1.56796,-0.0714096,1.48468,1.31206,-0.127576,-0.00212227,-0.150909,-0.0794758,-0.7141,-0.688951,-0.0804596,-6.15765,-23.9891,-7.2354,24.884,-0.61005,1.99853,-0.26448,0.075675,-0.0158009,2.60679,0.0934393,-0.125299,0.0369909,0.0299755,-0.152195,0.0388398,0.0210643,-0.0462814,-0.950053,-0.189668,
-0.00378123,-0.0525762,0.487303,-1.57703,-0.0893077,-0.122054,0.516183,-0.57446,0.205697,-0.589091,-0.234195,-0.981025,-1.20159,-0.205415,0,0,0,0,0,0,0,0.0172611,-0.058235,0.508348,-1.56796,-0.0714096,1.48468,1.31206,-0.127576,-0.00212227,-0.150909,-0.0794758,-0.7141,-0.688951,-0.0804596,-6.15765,-23.9891,-7.2354,24.884,-0.61005,1.99853,-0.26448,0.405055,0.625311,1.95354,-0.450573,0.29505,0.276592,0.266817,0.163574,0.299452,-0.169968,-0.00115452,-0.829498,-0.216724,
-0.00611633,-0.051711,0.484909,-1.57798,-0.0933657,-0.126898,0.515376,-0.583774,0.216286,-0.598491,-0.236869,-1.0145,-1.2109,-0.201802,0,0,0,0,0,0,0,0.0172611,-0.058235,0.508348,-1.56796,-0.0714096,1.48468,1.31206,-0.127576,-0.00212227,-0.150909,-0.0794758,-0.7141,-0.688951,-0.0804596,-6.15765,-23.9891,-7.2354,24.884,-0.61005,1.99853,-0.26448,0.405055,0.625311,1.95354,-0.450573,0.29505,0.276592,0.266817,0.163574,0.299452,-0.169968,-0.00115452,-0.829498,-0.216724,
-0.00848372,-0.0508081,0.482482,-1.57893,-0.0975458,-0.131772,0.514583,-0.591849,0.225741,-0.606645,-0.239029,-1.04502,-1.21853,-0.198212,0,0,0,0,0,0,0,0.0172611,-0.058235,0.508348,-1.56796,-0.0714096,1.48468,1.31206,-0.127576,-0.00212227,-0.150909,-0.0794758,-0.7141,-0.688951,-0.0804596,-6.15765,-23.9891,-7.2354,24.884,-0.61005,1.99853,-0.26448,-0.509508,1.14047,0.505311,-1.0317,0.184516,0.790853,0.766911,0.36183,0.849416,-0.605221,0.138903,-0.77059,-0.238056,
-0.00096726,-0.0542375,0.490928,-1.57666,-0.0735597,-0.106088,0.515482,-0.654699,0.207058,-0.670191,-0.282167,-0.778815,-1.1265,-0.284923,0,0,0,0,0,0,0,0.012007,-0.058401,0.501827,-1.57102,-0.0932373,1.4609,1.30942,-0.199745,6.99272e-05,-0.24376,-0.104157,-0.636065,-0.760817,-0.0853483,-6.23303,-23.3147,-7.46153,24.8602,-0.816959,2.27044,-0.311172,-0.509508,1.14047,0.505311,-1.0317,0.184516,0.790853,0.766911,0.36183,0.849416,-0.605221,0.138903,-0.77059,-0.238056,
-0.011349,-0.0534455,0.477952,-1.58114,-0.12165,-0.153818,0.512399,-0.661046,0.218715,-0.675469,-0.259554,-0.871126,-1.13843,-0.241289,0,0,0,0,0,0,0,0.012007,-0.058401,0.501827,-1.57102,-0.0932373,1.4609,1.30942,-0.199745,6.99272e-05,-0.24376,-0.104157,-0.636065,-0.760817,-0.0853483,-6.23303,-23.3147,-7.46153,24.8602,-0.816959,2.27044,-0.311172,0.0816405,0.905582,0.726786,-0.721682,0.418815,0.553381,0.536568,0.395642,0.592332,-0.417029,0.144359,-0.621273,-0.257752,
-0.0140458,-0.0525141,0.475197,-1.5822,-0.125307,-0.158421,0.511452,-0.674202,0.232866,-0.688764,-0.263058,-0.914146,-1.15077,-0.236828,0,0,0,0,0,0,0,0.012007,-0.058401,0.501827,-1.57102,-0.0932373,1.4609,1.30942,-0.199745,6.99272e-05,-0.24376,-0.104157,-0.636065,-0.760817,-0.0853483,-6.23303,-23.3147,-7.46153,24.8602,-0.816959,2.27044,-0.311172,0.0816405,0.905582,0.726786,-0.721682,0.418815,0.553381,0.536568,0.395642,0.592332,-0.417029,0.144359,-0.621273,-0.257752,
-0.016788,-0.0515321,0.472396,-1.58326,-0.129122,-0.163065,0.510522,-0.685563,0.245486,-0.700243,-0.265972,-0.953904,-1.161,-0.23241,0,0,0,0,0,0,0,0.012007,-0.058401,0.501827,-1.57102,-0.0932373,1.4609,1.30942,-0.199745,6.99272e-05,-0.24376,-0.104157,-0.636065,-0.760817,-0.0853483,-6.23303,-23.3147,-7.46153,24.8602,-0.816959,2.27044,-0.311172,0.602401,0.765853,0.726819,-0.658226,0.775819,0.368172,0.360861,0.578222,0.397549,-0.450074,0.0867257,-0.611371,-0.273831,
-0.0195694,-0.0505054,0.469555,-1.58433,-0.133084,-0.167743,0.50961,-0.695341,0.256688,-0.710124,-0.268318,-0.990411,-1.16943,-0.22803,0,0,0,0,0,0,0,0.012007,-0.058401,0.501827,-1.57102,-0.0932373,1.4609,1.30942,-0.199745,6.99272e-05,-0.24376,-0.104157,-0.636065,-0.760817,-0.0853483,-6.23303,-23.3147,-7.46153,24.8602,-0.816959,2.27044,-0.311172,-0.508444,1.78831,0.296558,-1.50082,0.171679,1.14201,1.13304,0.345244,1.20076,-0.593205,0.142391,-0.639708,-0.286185,
-0.0223843,-0.049439,0.466681,-1.58541,-0.137179,-0.172448,0.508715,-0.703715,0.266582,-0.718591,-0.270125,-1.02376,-1.17635,-0.223685,0,0,0,0,0,0,0,0.012007,-0.058401,0.501827,-1.57102,-0.0932373,1.4609,1.30942,-0.199745,6.99272e-05,-0.24376,-0.104157,-0.636065,-0.760817,-0.0853483,-6.23303,-23.3147,-7.46153,24.8602,-0.816959,2.27044,-0.311172,-0.508444,1.78831,0.296558,-1.50082,0.171679,1.14201,1.13304,0.345244,1.20076,-0.593205,0.142391,-0.639708,-0.286185,
-0.0155276,-0.051322,0.474891,-1.5847,-0.12409,-0.156959,0.508148,-0.723859,0.275408,-0.714356,-0.324148,-0.876364,-1.12682,-0.301593,0,0,0,0,0,0,0,0.00384817,-0.0584211,0.493013,-1.57526,-0.113061,1.43677,1.30673,-0.309344,0.00267717,-0.321916,-0.140587,-0.550371,-0.738038,-0.102622,-7.09393,-22.9418,-8.13597,23.6661,-1.08612,1.5545,-0.345047,-0.579177,1.84,-0.781536,-1.81004,0.633834,1.1906,1.17636,0.828104,1.27065,-1.09859,0.153599,-0.736646,-0.297464,
-0.0255031,-0.0513286,0.464237,-1.58747,-0.145561,-0.181191,0.508158,-0.744698,0.249838,-0.735503,-0.297008,-0.908077,-1.04054,-0.24643,0,0,0,0,0,0,0,0.00384817,-0.0584211,0.493013,-1.57526,-0.113061,1.43677,1.30673,-0.309344,0.00267717,-0.321916,-0.140587,-0.550371,-0.738038,-0.102622,-7.09393,-22.9418,-8.13597,23.6661,-1.08612,1.5545,-0.345047,-0.579177,1.84,-0.781536,-1.81004,0.633834,1.1906,1.17636,0.828104,1.27065,-1.09859,0.153599,-0.736646,-0.297464,
-0.0285391,-0.0502885,0.461237,-1.58869,-0.149329,-0.185134,0.507193,-0.759002,0.26002,-0.750093,-0.305247,-0.941836,-0.985555,-0.241283,0,0,0,0,0,0,0,0.00384817,-0.0584211,0.493013,-1.57526,-0.113061,1.43677,1.30673,-0.309344,0.00267717,-0.321916,-0.140587,-0.550371,-0.738038,-0.102622,-7.09393,-22.9418,-8.13597,23.6661,-1.08612,1.5545,-0.345047,-0.149481,-0.108421,-0.268457,-0.44369,0.736656,0.16841,0.150911,0.784889,0.211756,-0.955051,-0.0591288,-0.837999,-0.299866,
-0.0316256,-0.0492112,0.458183,-1.58994,-0.153219,-0.188803,0.506249,-0.771631,0.269317,-0.763415,-0.312162,-0.972652,-0.917228,-0.236152,0,0,0,0,0,0,0,0.00384817,-0.0584211,0.493013,-1.57526,-0.113061,1.43677,1.30673,-0.309344,0.00267717,-0.321916,-0.140587,-0.550371,-0.738038,-0.102622,-7.09393,-22.9418,-8.13597,23.6661,-1.08612,1.5545,-0.345047,-0.149481,-0.108421,-0.268457,-0.44369,0.736656,0.16841,0.150911,0.784889,0.211756,-0.955051,-0.0591288,-0.837999,-0.299866,
-0.0347446,-0.0480979,0.455074,-1.5912,-0.157227,-0.192179,0.505324,-0.779758,0.278328,-0.777295,-0.316502,-1.00187,-0.844202,-0.231182,0,0,0,0,0,0,0,0.00384817,-0.0584211,0.493013,-1.57526,-0.113061,1.43677,1.30673,-0.309344,0.00267717,-0.321916,-0.140587,-0.550371,-0.738038,-0.102622,-7.09393,-22.9418,-8.13597,23.6661,-1.08612,1.5545,-0.345047,0.720789,-2.42585,-0.171125,0.938172,1.26077,-1.11922,-1.13123,1.02079,-1.11368,-1.01124,-0.454591,-0.954565,-0.299247,
-0.0378894,-0.0469522,0.451915,-1.59248,-0.161342,-0.195246,0.504419,-0.786188,0.286428,-0.789776,-0.319368,-1.02873,-0.766731,-0.226323,0,0,0,0,0,0,0,-0.00680011,-0.0579371,0.481524,-1.58046,-0.132003,1.41369,1.30266,-0.361037,0.0201492,-0.35024,-0.174057,-0.512599,-0.652838,-0.144398,-6.71307,-23.2631,-7.73528,23.7891,-1.27564,1.4016,-0.278213,0.2879,-1.78659,-0.570075,0.352324,1.17699,-0.718751,-0.728263,1.07801,-0.69484,-1.22674,-0.441612,-1.02348,-0.301324,
-0.0223259,-0.0508361,0.467336,-1.58832,-0.142047,-0.176045,0.506176,-0.723425,0.295249,-0.714229,-0.338725,-0.873293,-1.0964,-0.315454,0,0,0,0,0,0,0,-0.00680011,-0.0579371,0.481524,-1.58046,-0.132003,1.41369,1.30266,-0.361037,0.0201492,-0.35024,-0.174057,-0.512599,-0.652838,-0.144398,-6.71307,-23.2631,-7.73528,23.7891,-1.27564,1.4016,-0.278213,0.2879,-1.78659,-0.570075,0.352324,1.17699,-0.718751,-0.728263,1.07801,-0.69484,-1.22674,-0.441612,-1.02348,-0.301324,
-0.0339377,-0.0506556,0.454891,-1.59285,-0.16127,-0.19114,0.504599,-0.741213,0.260387,-0.732137,-0.334543,-0.873309,-0.55683,-0.260147,0,0,0,0,0,0,0,-0.00680011,-0.0579371,0.481524,-1.58046,-0.132003,1.41369,1.30266,-0.361037,0.0201492,-0.35024,-0.174057,-0.512599,-0.652838,-0.144398,-6.71307,-23.2631,-7.73528,23.7891,-1.27564,1.4016,-0.278213,-1.1462,-0.0105379,-0.435389,-0.797772,0.125204,0.450476,0.431852,0.494564,0.512433,-1.09879,-0.274387,-0.990273,-0.301219,
-0.0369626,-0.0495689,0.451901,-1.59421,-0.164899,-0.192972,0.503579,-0.756236,0.271678,-0.747435,-0.340505,-0.907045,-0.458013,-0.254965,0,0,0,0,0,0,0,-0.00680011,-0.0579371,0.481524,-1.58046,-0.132003,1.41369,1.30266,-0.361037,0.0201492,-0.35024,-0.174057,-0.512599,-0.652838,-0.144398,-6.71307,-23.2631,-7.73528,23.7891,-1.27564,1.4016,-0.278213,-1.1462,-0.0105379,-0.435389,-0.797772,0.125204,0.450476,0.431852,0.494564,0.512433,-1.09879,-0.274387,-0.990273,-0.301219,
-0.0400419,-0.0484439,0.448856,-1.59559,-0.168648,-0.194364,0.502579,-0.769816,0.281247,-0.761288,-0.345682,-0.937311,-0.347989,-0.249963,0,0,0,0,0,0,0,-0.00680011,-0.0579371,0.481524,-1.58046,-0.132003,1.41369,1.30266,-0.361037,0.0201492,-0.35024,-0.174057,-0.512599,-0.652838,-0.144398,-6.71307,-23.2631,-7.73528,23.7891,-1.27564,1.4016,-0.278213,-0.376177,-1.11035,0.344242,-0.0434873,0.268053,-0.24718,-0.269127,0.384329,-0.20256,-0.822705,-0.54808,-0.987825,-0.294317,
-0.0431704,-0.0472869,0.44576,-1.59699,-0.172505,-0.19527,0.501599,-0.782122,0.289248,-0.773865,-0.350155,-0.964179,-0.226431,-0.245088,0,0,0,0,0,0,0,-0.00680011,-0.0579371,0.481524,-1.58046,-0.132003,1.41369,1.30266,-0.361037,0.0201492,-0.35024,-0.174057,-0.512599,-0.652838,-0.144398,-6.71307,-23.2631,-7.73528,23.7891,-1.27564,1.4016,-0.278213,-0.376177,-1.11035,0.344242,-0.0434873,0.268053,-0.24718,-0.269127,0.384329,-0.20256,-0.822705,-0.54808,-0.987825,-0.294317,
-0.04634,-0.0460938,0.442623,-1.59838,-0.176463,-0.195771,0.500645,-0.792407,0.298274,-0.784362,-0.347461,-0.989539,-0.125299,-0.238464,0,0,0,0,0,0,0,-0.020133,-0.0567898,0.467809,-1.58682,-0.150049,1.39508,1.29832,-0.429373,0.0463199,-0.420374,-0.207154,-0.533798,-0.513857,-0.148988,-3.74554,-24.1121,-4.78758,24.6103,-0.921329,1.58105,-0.284622,0.338808,-0.139381,0.523142,-0.725235,0.772728,0.0339985,0.0299333,0.640932,0.081397,-0.878852,-0.529952,-1.00825,-0.292189,
-0.033701,-0.0492601,0.455091,-1.59442,-0.161547,-0.196373,0.501735,-0.73539,0.307462,-0.726737,-0.377614,-0.880547,-0.8966,-0.321769,0,0,0,0,0,0,0,-0.020133,-0.0567898,0.467809,-1.58682,-0.150049,1.39508,1.29832,-0.429373,0.0463199,-0.420374,-0.207154,-0.533798,-0.513857,-0.148988,-3.74554,-24.1121,-4.78758,24.6103,-0.921329,1.58105,-0.284622,0.338808,-0.139381,0.523142,-0.725235,0.772728,0.0339985,0.0299333,0.640932,0.081397,-0.878852,-0.529952,-1.00825,-0.292189,
-0.0487491,-0.0485134,0.439652,-1.60061,-0.18114,-0.185933,0.500065,-0.75665,0.275591,-0.748051,-0.333715,-0.895782,0.00931337,-0.263877,0,0,0,0,0,0,0,-0.020133,-0.0567898,0.467809,-1.58682,-0.150049,1.39508,1.29832,-0.429373,0.0463199,-0.420374,-0.207154,-0.533798,-0.513857,-0.148988,-3.74554,-24.1121,-4.78758,24.6103,-0.921329,1.58105,-0.284622,0.291083,-0.45383,1.09933,-0.284214,0.391097,-0.100793,-0.114441,0.280814,-0.0634004,-0.498433,-0.50025,-0.865236,-0.286877,
-0.051826,-0.0473831,0.436609,-1.60194,-0.184841,-0.185759,0.499031,-0.769229,0.282574,-0.760916,-0.334002,-0.925063,0.043494,-0.25856,0,0,0,0,0,0,0,-0.020133,-0.0567898,0.467809,-1.58682,-0.150049,1.39508,1.29832,-0.429373,0.0463199,-0.420374,-0.207154,-0.533798,-0.513857,-0.148988,-3.74554,-24.1121,-4.78758,24.6103,-0.921329,1.58105,-0.284622,-0.286766,-1.74521,0.854221,0.515697,-0.0972838,-0.553587,-0.584944,-0.00514623,-0.519634,-0.403062,-0.673202,-0.771126,-0.282702,
-0.0549482,-0.046234,0.433519,-1.60328,-0.188647,-0.185458,0.498017,-0.780534,0.287278,-0.772505,-0.3344,-0.95157,0.0754066,-0.253596,0,0,0,0,0,0,0,-0.020133,-0.0567898,0.467809,-1.58682,-0.150049,1.39508,1.29832,-0.429373,0.0463199,-0.420374,-0.207154,-0.533798,-0.513857,-0.148988,-3.74554,-24.1121,-4.78758,24.6103,-0.921329,1.58105,-0.284622,-0.286766,-1.74521,0.854221,0.515697,-0.0972838,-0.553587,-0.584944,-0.00514623,-0.519634,-0.403062,-0.673202,-0.771126,-0.282702,
-0.0581108,-0.0450734,0.430387,-1.60462,-0.192549,-0.185038,0.497019,-0.790659,0.290147,-0.782914,-0.334612,-0.975553,0.105011,-0.24945,0,0,0,0,0,0,0,-0.0399258,-0.0541754,0.447816,-1.59696,-0.172751,1.38189,1.29129,-0.484775,0.0702868,-0.505306,-0.243442,-0.541934,-0.182674,-0.178189,-3.79712,-24.9373,-4.66063,25.1578,-1.14106,2.58904,-0.183914,0.823541,-0.453228,0.0553054,-0.565984,1.02499,-0.15813,-0.176876,0.721321,-0.10041,-0.794935,-0.660773,-0.708646,-0.275861,
-0.0613089,-0.0439031,0.427219,-1.60595,-0.196539,-0.184513,0.496033,-0.799538,0.292579,-0.792064,-0.332677,-0.997544,0.131059,-0.246586,0,0,0,0,0,0,0,-0.0399258,-0.0541754,0.447816,-1.59696,-0.172751,1.38189,1.29129,-0.484775,0.0702868,-0.505306,-0.243442,-0.541934,-0.182674,-0.178189,-3.79712,-24.9373,-4.66063,25.1578,-1.14106,2.58904,-0.183914,0.823541,-0.453228,0.0553054,-0.565984,1.02499,-0.15813,-0.176876,0.721321,-0.10041,-0.794935,-0.660773,-0.708646,-0.275861,
-0.0645331,-0.042701,0.424024,-1.60722,-0.200619,-0.184002,0.495093,-0.806039,0.300511,-0.798765,-0.317233,-1.01998,0.127761,-0.234994,0,0,0,0,0,0,0,-0.0399258,-0.0541754,0.447816,-1.59696,-0.172751,1.38189,1.29129,-0.484775,0.0702868,-0.505306,-0.243442,-0.541934,-0.182674,-0.178189,-3.79712,-24.9373,-4.66063,25.1578,-1.14106,2.58904,-0.183914,2.02001,-0.451936,-0.10755,-0.506403,1.94245,-0.411999,-0.420972,1.23899,-0.365581,-0.88534,-0.600602,-0.640969,-0.27092,
-0.0515581,-0.0458368,0.436839,-1.60342,-0.185376,-0.201735,0.496015,-0.766541,0.32966,-0.758589,-0.390527,-0.936975,-0.332996,-0.317248,0,0,0,0,0,0,0,-0.0399258,-0.0541754,0.447816,-1.59696,-0.172751,1.38189,1.29129,-0.484775,0.0702868,-0.505306,-0.243442,-0.541934,-0.182674,-0.178189,-3.79712,-24.9373,-4.66063,25.1578,-1.14106,2.58904,-0.183914,-0.305355,1.86255,0.0385802,-1.79846,0.0723837,1.22172,1.20222,0.114458,1.30008,-0.449635,-0.268476,-0.358786,-0.268996,
-0.0730445,-0.0445227,0.415131,-1.6119,-0.209444,-0.189341,0.492238,-0.783299,0.268541,-0.775981,-0.324093,-0.948933,0.154212,-0.254239,0,0,0,0,0,0,0,-0.0399258,-0.0541754,0.447816,-1.59696,-0.172751,1.38189,1.29129,-0.484775,0.0702868,-0.505306,-0.243442,-0.541934,-0.182674,-0.178189,-3.79712,-24.9373,-4.66063,25.1578,-1.14106,2.58904,-0.183914,-0.305355,1.86255,0.0385802,-1.79846,0.0723837,1.22172,1.20222,0.114458,1.30008,-0.449635,-0.268476,-0.358786,-0.268996,
-0.0762173,-0.0434355,0.411986,-1.6132,-0.213332,-0.188578,0.491239,-0.793201,0.271811,-0.786143,-0.325038,-0.97187,0.190581,-0.249863,0,0,0,0,0,0,0,-0.0399258,-0.0541754,0.447816,-1.59696,-0.172751,1.38189,1.29129,-0.484775,0.0702868,-0.505306,-0.243442,-0.541934,-0.182674,-0.178189,-3.79712,-24.9373,-4.66063,25.1578,-1.14106,2.58904,-0.183914,0.693265,0.633216,-0.767012,-1.08656,1.01843,0.453797,0.425164,0.736853,0.526895,-0.711761,-0.379174,-0.275891,-0.260693,
-0.0794257,-0.0423407,0.408805,-1.6145,-0.217302,-0.187666,0.490254,-0.802092,0.273696,-0.795289,-0.325676,-0.99243,0.228031,-0.246274,0,0,0,0,0,0,0,-0.0566103,-0.0511772,0.430839,-1.6054,-0.192733,1.38076,1.28692,-0.5168,0.108487,-0.530449,-0.253839,-0.63016,0.00862249,-0.127674,-4.70959,-26.0838,-5.43822,24.162,-1.56861,1.28899,-0.250748,0.693265,0.633216,-0.767012,-1.08656,1.01843,0.453797,0.425164,0.736853,0.526895,-0.711761,-0.379174,-0.275891,-0.260693,
-0.0826545,-0.0412368,0.405586,-1.61579,-0.221351,-0.186635,0.489279,-0.807201,0.275982,-0.804839,-0.32293,-1.01229,0.257815,-0.24356,0,0,0,0,0,0,0,-0.0566103,-0.0511772,0.430839,-1.6054,-0.192733,1.38076,1.28692,-0.5168,0.108487,-0.530449,-0.253839,-0.63016,0.00862249,-0.127674,-4.70959,-26.0838,-5.43822,24.162,-1.56861,1.28899,-0.250748,2.56,-1.02336,-1.55844,-0.169292,2.68229,-0.704226,-0.73149,1.7943,-0.647028,-1.14865,-0.567249,-0.322246,-0.255072,
-0.0858596,-0.0400885,0.402344,-1.61699,-0.225523,-0.18575,0.488354,-0.801264,0.287069,-0.810356,-0.300489,-1.0431,0.221324,-0.231347,0,0,0,0,0,0,0,-0.0566103,-0.0511772,0.430839,-1.6054,-0.192733,1.38076,1.28692,-0.5168,0.108487,-0.530449,-0.253839,-0.63016,0.00862249,-0.127674,-4.70959,-26.0838,-5.43822,24.162,-1.56861,1.28899,-0.250748,2.56,-1.02336,-1.55844,-0.169292,2.68229,-0.704226,-0.73149,1.7943,-0.647028,-1.14865,-0.567249,-0.322246,-0.255072,
-0.0890673,-0.0389318,0.399099,-1.61817,-0.22979,-0.184895,0.487448,-0.801947,0.289165,-0.811433,-0.294176,-1.06673,0.213623,-0.226363,0,0,0,0,0,0,0,-0.0566103,-0.0511772,0.430839,-1.6054,-0.192733,1.38076,1.28692,-0.5168,0.108487,-0.530449,-0.253839,-0.63016,0.00862249,-0.127674,-4.70959,-26.0838,-5.43822,24.162,-1.56861,1.28899,-0.250748,2.18632,1.07778,-1.45032,-1.4122,2.37168,0.41433,0.398256,1.56878,0.484924,-1.02431,-0.305424,-0.19354,-0.25513,
-0.0728252,-0.0431642,0.41532,-1.61358,-0.209881,-0.199421,0.489373,-0.780955,0.311379,-0.773916,-0.37924,-0.957359,-0.0639997,-0.309971,0,0,0,0,0,0,0,-0.0566103,-0.0511772,0.430839,-1.6054,-0.192733,1.38076,1.28692,-0.5168,0.108487,-0.530449,-0.253839,-0.63016,0.00862249,-0.127674,-4.70959,-26.0838,-5.43822,24.162,-1.56861,1.28899,-0.250748,0.749411,1.35308,-0.228925,-1.29082,0.697752,0.827834,0.805252,0.385207,0.889559,-0.302945,-0.227502,-0.0436857,-0.251238,
-0.0905622,-0.041459,0.397286,-1.62034,-0.2312,-0.181385,0.488135,-0.792568,0.253079,-0.786079,-0.318398,-0.960827,0.318828,-0.2508,0,0,0,0,0,0,0,-0.0738348,-0.0474775,0.413332,-1.61343,-0.213933,1.38172,1.28277,-0.592373,0.14259,-0.592912,-0.258922,-0.712645,0.0711094,-0.126924,-3.13855,-27.5597,-3.83544,25.4077,-1.28113,1.83922,-0.224197,0.749411,1.35308,-0.228925,-1.29082,0.697752,0.827834,0.805252,0.385207,0.889559,-0.302945,-0.227502,-0.0436857,-0.251238,
-0.093742,-0.0404345,0.394089,-1.62161,-0.235134,-0.179988,0.487146,-0.794951,0.256121,-0.799309,-0.317457,-0.983489,0.349269,-0.247038,0,0,0,0,0,0,0,-0.0738348,-0.0474775,0.413332,-1.61343,-0.213933,1.38172,1.28277,-0.592373,0.14259,-0.592912,-0.258922,-0.712645,0.0711094,-0.126924,-3.13855,-27.5597,-3.83544,25.4077,-1.28113,1.83922,-0.224197,-1.17455,1.37606,0.263614,-1.22021,-0.834298,1.15913,1.13606,-0.502145,1.21282,-0.0390379,-0.193152,-0.113891,-0.249799,
-0.0969275,-0.0393993,0.390862,-1.62287,-0.239169,-0.178477,0.48617,-0.796393,0.258803,-0.806672,-0.3157,-1.00877,0.377816,-0.244037,0,0,0,0,0,0,0,-0.0738348,-0.0474775,0.413332,-1.61343,-0.213933,1.38172,1.28277,-0.592373,0.14259,-0.592912,-0.258922,-0.712645,0.0711094,-0.126924,-3.13855,-27.5597,-3.83544,25.4077,-1.28113,1.83922,-0.224197,-1.17455,1.37606,0.263614,-1.22021,-0.834298,1.15913,1.13606,-0.502145,1.21282,-0.0390379,-0.193152,-0.113891,-0.249799,
-0.100113,-0.0383503,0.387633,-1.62412,-0.243319,-0.176883,0.485203,-0.796407,0.262253,-0.807221,-0.311157,-1.03762,0.398555,-0.241844,0,0,0,0,0,0,0,-0.0738348,-0.0474775,0.413332,-1.61343,-0.213933,1.38172,1.28277,-0.592373,0.14259,-0.592912,-0.258922,-0.712645,0.0711094,-0.126924,-3.13855,-27.5597,-3.83544,25.4077,-1.28113,1.83922,-0.224197,1.14404,-2.06712,0.352553,0.986355,0.81016,-0.989771,-1.00889,0.452249,-0.981971,-0.21127,-0.510906,-0.272758,-0.243029,
-0.103279,-0.0372692,0.384425,-1.6253,-0.247605,-0.17533,0.484286,-0.791426,0.270273,-0.802123,-0.295993,-1.07153,0.388176,-0.229119,0,0,0,0,0,0,0,-0.0738348,-0.0474775,0.413332,-1.61343,-0.213933,1.38172,1.28277,-0.592373,0.14259,-0.592912,-0.258922,-0.712645,0.0711094,-0.126924,-3.13855,-27.5597,-3.83544,25.4077,-1.28113,1.83922,-0.224197,2.0734,-0.825939,-0.729559,0.000918401,2.06659,-0.515923,-0.517927,1.3452,-0.497396,-0.79778,-0.406728,-0.330413,-0.246536,
-0.10643,-0.0361822,0.381231,-1.62647,-0.251993,-0.173747,0.483389,-0.787795,0.271762,-0.798416,-0.291516,-1.09682,0.395621,-0.224369,0,0,0,0,0,0,0,-0.0918103,-0.0424667,0.395068,-1.62099,-0.236209,1.38662,1.27847,-0.584543,0.15388,-0.599248,-0.243855,-0.729718,0.240158,-0.159917,-2.83307,-29.8052,-3.61327,26.2567,-1.00006,2.38305,-0.210464,2.0734,-0.825939,-0.729559,0.000918401,2.06659,-0.515923,-0.517927,1.3452,-0.497396,-0.79778,-0.406728,-0.330413,-0.246536,
-0.0903513,-0.0401372,0.397471,-1.62192,-0.231634,-0.190075,0.48535,-0.790167,0.294527,-0.783927,-0.36914,-0.968911,0.1235,-0.304926,0,0,0,0,0,0,0,-0.0918103,-0.0424667,0.395068,-1.62099,-0.236209,1.38662,1.27847,-0.584543,0.15388,-0.599248,-0.243855,-0.729718,0.240158,-0.159917,-2.83307,-29.8052,-3.61327,26.2567,-1.00006,2.38305,-0.210464,0.111175,0.0846557,-1.28724,-0.626176,0.963129,0.261859,0.255667,0.863412,0.293983,-0.921789,-0.284919,-0.345137,-0.245809,
-0.127095,-0.0321368,0.359834,-1.63565,-0.277788,-0.166446,0.479821,-0.786992,0.2536,-0.79949,-0.304133,-1.00722,0.424274,-0.249838,0,0,0,0,0,0,0,-0.0918103,-0.0424667,0.395068,-1.62099,-0.236209,1.38662,1.27847,-0.584543,0.15388,-0.599248,-0.243855,-0.729718,0.240158,-0.159917,-2.83307,-29.8052,-3.61327,26.2567,-1.00006,2.38305,-0.210464,0.111175,0.0846557,-1.28724,-0.626176,0.963129,0.261859,0.255667,0.863412,0.293983,-0.921789,-0.284919,-0.345137,-0.245809,
-0.130243,-0.031114,0.356635,-1.63686,-0.281924,-0.164718,0.478832,-0.786991,0.255703,-0.799735,-0.302947,-1.03382,0.431924,-0.247232,0,0,0,0,0,0,0,-0.0918103,-0.0424667,0.395068,-1.62099,-0.236209,1.38662,1.27847,-0.584543,0.15388,-0.599248,-0.243855,-0.729718,0.240158,-0.159917,-2.83307,-29.8052,-3.61327,26.2567,-1.00006,2.38305,-0.210464,-2.54739,1.17147,-1.51238,-1.39357,-0.789153,1.21891,1.21165,-0.044845,1.26168,-0.88759,-0.229409,-0.365386,-0.244163,
-0.133384,-0.0300846,0.353443,-1.63806,-0.286125,-0.16296,0.47785,-0.785185,0.257359,-0.798169,-0.300684,-1.0504,0.439529,-0.245538,0,0,0,0,0,0,0,-0.0918103,-0.0424667,0.395068,-1.62099,-0.236209,1.38662,1.27847,-0.584543,0.15388,-0.599248,-0.243855,-0.729718,0.240158,-0.159917,-2.83307,-29.8052,-3.61327,26.2567,-1.00006,2.38305,-0.210464,-2.05794,-1.41103,-0.962114,0.267588,-0.718206,-0.190079,-0.192063,-0.0547352,-0.182475,-0.704498,-0.525618,-0.442585,-0.2421,
-0.13651,-0.0290403,0.350265,-1.63923,-0.290327,-0.161183,0.476917,-0.781618,0.261067,-0.794327,-0.292853,-1.05053,0.44424,-0.23316,0,0,0,0,0,0,0,-0.0918103,-0.0424667,0.395068,-1.62099,-0.236209,1.38662,1.27847,-0.584543,0.15388,-0.599248,-0.243855,-0.729718,0.240158,-0.159917,-2.83307,-29.8052,-3.61327,26.2567,-1.00006,2.38305,-0.210464,-2.05794,-1.41103,-0.962114,0.267588,-0.718206,-0.190079,-0.192063,-0.0547352,-0.182475,-0.704498,-0.525618,-0.442585,-0.2421,
-0.139629,-0.0279966,0.347096,-1.64039,-0.294448,-0.159354,0.476003,-0.7798,0.260915,-0.792303,-0.289854,-1.03008,0.457255,-0.228491,0,0,0,0,0,0,0,-0.110596,-0.0364943,0.37577,-1.62783,-0.258592,1.39691,1.27363,-0.596487,0.187946,-0.616641,-0.227463,-0.707251,0.37099,-0.169527,-2.86084,-29.3053,-3.31175,24.0628,-1.29395,1.52154,-0.170181,0.649567,-0.947792,-2.76278,-0.252677,2.08983,-0.317043,-0.30464,1.79498,-0.304355,-1.63357,-0.498317,-0.469286,-0.243294,
-0.142744,-0.0269599,0.343932,-1.64155,-0.298427,-0.157454,0.475105,-0.778647,0.259181,-0.791015,-0.288161,-0.994856,0.474999,-0.224412,0,0,0,0,0,0,0,-0.110596,-0.0364943,0.37577,-1.62783,-0.258592,1.39691,1.27363,-0.596487,0.187946,-0.616641,-0.227463,-0.707251,0.37099,-0.169527,-2.86084,-29.3053,-3.31175,24.0628,-1.29395,1.52154,-0.170181,0.649567,-0.947792,-2.76278,-0.252677,2.08983,-0.317043,-0.30464,1.79498,-0.304355,-1.63357,-0.498317,-0.469286,-0.243294,
-0.127152,-0.0311002,0.359991,-1.63716,-0.277952,-0.169245,0.477234,-0.804745,0.284639,-0.800458,-0.348533,-0.991881,0.380525,-0.300582,0,0,0,0,0,0,0,-0.110596,-0.0364943,0.37577,-1.62783,-0.258592,1.39691,1.27363,-0.596487,0.187946,-0.616641,-0.227463,-0.707251,0.37099,-0.169527,-2.86084,-29.3053,-3.31175,24.0628,-1.29395,1.52154,-0.170181,0.10003,-1.5916,-2.89295,0.14897,1.70873,-0.558135,-0.549494,1.6161,-0.549892,-1.60011,-0.579325,-0.435995,-0.239872,
-0.145927,-0.0263688,0.340064,-1.64222,-0.294566,-0.148179,0.475155,-0.787161,0.234718,-0.800342,-0.292231,-0.598437,0.611225,-0.247956,0,0,0,0,0,0,0,-0.110596,-0.0364943,0.37577,-1.62783,-0.258592,1.39691,1.27363,-0.596487,0.187946,-0.616641,-0.227463,-0.707251,0.37099,-0.169527,-2.86084,-29.3053,-3.31175,24.0628,-1.29395,1.52154,-0.170181,0.10003,-1.5916,-2.89295,0.14897,1.70873,-0.558135,-0.549494,1.6161,-0.549892,-1.60011,-0.579325,-0.435995,-0.239872,
-0.149074,-0.0254265,0.336864,-1.64337,-0.296767,-0.145748,0.474171,-0.786611,0.23557,-0.800026,-0.28858,-0.550049,0.60773,-0.246048,0,0,0,0,0,0,0,-0.110596,-0.0364943,0.37577,-1.62783,-0.258592,1.39691,1.27363,-0.596487,0.187946,-0.616641,-0.227463,-0.707251,0.37099,-0.169527,-2.86084,-29.3053,-3.31175,24.0628,-1.29395,1.52154,-0.170181,-1.70007,-0.0840599,-2.82286,-0.814483,0.405058,0.452802,0.460386,0.854769,0.471433,-1.45598,-0.490333,-0.378804,-0.237962,
-0.152207,-0.0244811,0.333676,-1.64451,-0.298786,-0.143351,0.473191,-0.7832,0.236342,-0.796933,-0.28401,-0.504808,0.599097,-0.245136,0,0,0,0,0,0,0,-0.130517,-0.0303398,0.355058,-1.63485,-0.282258,1.41106,1.26851,-0.633103,0.211786,-0.647641,-0.203458,-0.733291,0.471496,-0.131,-2.63073,-30.8525,-2.96263,25.4077,-1.57502,1.91247,-0.210464,-0.748152,-2.73489,-2.22634,0.930498,0.675296,-1.03747,-1.03454,0.918796,-1.03887,-1.15712,-0.753408,-0.331881,-0.229861,
-0.155313,-0.0235239,0.330515,-1.6456,-0.300639,-0.141019,0.472259,-0.776644,0.239299,-0.790205,-0.274673,-0.463381,0.582975,-0.232787,0,0,0,0,0,0,0,-0.130517,-0.0303398,0.355058,-1.63485,-0.282258,1.41106,1.26851,-0.633103,0.211786,-0.647641,-0.203458,-0.733291,0.471496,-0.131,-2.63073,-30.8525,-2.96263,25.4077,-1.57502,1.91247,-0.210464,-0.748152,-2.73489,-2.22634,0.930498,0.675296,-1.03747,-1.03454,0.918796,-1.03887,-1.15712,-0.753408,-0.331881,-0.229861,
-0.158396,-0.0225681,0.327378,-1.64668,-0.302308,-0.138738,0.471346,-0.770821,0.238954,-0.784233,-0.269987,-0.417127,0.570265,-0.228385,0,0,0,0,0,0,0,-0.130517,-0.0303398,0.355058,-1.63485,-0.282258,1.41106,1.26851,-0.633103,0.211786,-0.647641,-0.203458,-0.733291,0.471496,-0.131,-2.63073,-30.8525,-2.96263,25.4077,-1.57502,1.91247,-0.210464,0.684305,-1.6288,-2.00654,0.301719,1.5357,-0.60602,-0.591677,1.26014,-0.610249,-1.07094,-0.646497,-0.204528,-0.23286,
-0.161457,-0.0216193,0.324264,-1.64775,-0.303779,-0.136507,0.470447,-0.765194,0.237211,-0.778482,-0.266728,-0.367693,0.55777,-0.224613,0,0,0,0,0,0,0,-0.130517,-0.0303398,0.355058,-1.63485,-0.282258,1.41106,1.26851,-0.633103,0.211786,-0.647641,-0.203458,-0.733291,0.471496,-0.131,-2.63073,-30.8525,-2.96263,25.4077,-1.57502,1.91247,-0.210464,0.684305,-1.6288,-2.00654,0.301719,1.5357,-0.60602,-0.591677,1.26014,-0.610249,-1.07094,-0.646497,-0.204528,-0.23286,
-0.146396,-0.0256089,0.340145,-1.64375,-0.298711,-0.151053,0.472672,-0.8144,0.257873,-0.820836,-0.336964,-0.831842,0.566118,-0.296869,0,0,0,0,0,0,0,-0.130517,-0.0303398,0.355058,-1.63485,-0.282258,1.41106,1.26851,-0.633103,0.211786,-0.647641,-0.203458,-0.733291,0.471496,-0.131,-2.63073,-30.8525,-2.96263,25.4077,-1.57502,1.91247,-0.210464,0.222918,0.211079,-0.840522,-0.577883,0.63501,0.383144,0.394958,0.478006,0.384408,-0.495025,-0.347059,-0.0603136,-0.234306,
-0.166149,-0.0207139,0.318792,-1.64856,-0.301657,-0.132419,0.470147,-0.760766,0.212792,-0.775002,-0.278255,-0.148689,0.521893,-0.248671,0,0,0,0,0,0,0,-0.130517,-0.0303398,0.355058,-1.63485,-0.282258,1.41106,1.26851,-0.633103,0.211786,-0.647641,-0.203458,-0.733291,0.471496,-0.131,-2.63073,-30.8525,-2.96263,25.4077,-1.57502,1.91247,-0.210464,0.222918,0.211079,-0.840522,-0.577883,0.63501,0.383144,0.394958,0.478006,0.384408,-0.495025,-0.347059,-0.0603136,-0.234306,
-0.169168,-0.019863,0.315715,-1.64967,-0.302118,-0.130378,0.469157,-0.754804,0.212728,-0.769325,-0.27627,-0.115446,0.510378,-0.247454,0,0,0,0,0,0,0,-0.158497,-0.0214002,0.326152,-1.64459,-0.304925,1.43387,1.26237,-0.648034,0.217073,-0.675306,-0.213561,-0.379069,0.567666,-0.132565,-1.41278,-33.3241,-1.63756,26.2051,-0.640262,1.63415,-0.210464,-0.386255,0.952433,-0.289721,-0.906268,-0.0878693,0.824943,0.840415,-0.0522647,0.821478,-0.181923,-0.211891,0.0227338,-0.233602,
-0.172153,-0.0190024,0.312672,-1.65075,-0.30247,-0.128394,0.468211,-0.746244,0.215126,-0.76058,-0.269344,-0.0879361,0.496009,-0.236403,0,0,0,0,0,0,0,-0.158497,-0.0214002,0.326152,-1.64459,-0.304925,1.43387,1.26237,-0.648034,0.217073,-0.675306,-0.213561,-0.379069,0.567666,-0.132565,-1.41278,-33.3241,-1.63756,26.2051,-0.640262,1.63415,-0.210464,-0.154607,-2.01937,-0.607307,1.01765,0.253533,-0.803569,-0.78963,0.357662,-0.823075,-0.352557,-0.361422,-0.105704,-0.229487,
-0.175108,-0.0181448,0.309661,-1.65181,-0.3027,-0.126434,0.467282,-0.738703,0.214415,-0.752864,-0.267004,-0.0574723,0.489759,-0.232242,0,0,0,0,0,0,0,-0.158497,-0.0214002,0.326152,-1.64459,-0.304925,1.43387,1.26237,-0.648034,0.217073,-0.675306,-0.213561,-0.379069,0.567666,-0.132565,-1.41278,-33.3241,-1.63756,26.2051,-0.640262,1.63415,-0.210464,-0.154607,-2.01937,-0.607307,1.01765,0.253533,-0.803569,-0.78963,0.357662,-0.823075,-0.352557,-0.361422,-0.105704,-0.229487,
-0.178035,-0.0172951,0.306678,-1.65288,-0.3028,-0.124479,0.466368,-0.73168,0.21241,-0.745688,-0.266131,-0.0250576,0.488753,-0.228635,0,0,0,0,0,0,0,-0.158497,-0.0214002,0.326152,-1.64459,-0.304925,1.43387,1.26237,-0.648034,0.217073,-0.675306,-0.213561,-0.379069,0.567666,-0.132565,-1.41278,-33.3241,-1.63756,26.2051,-0.640262,1.63415,-0.210464,-0.319578,-1.13722,-1.64539,0.483528,0.792011,-0.365701,-0.344931,0.903636,-0.385763,-0.900004,-0.181996,-0.233959,-0.229187,
-0.180934,-0.0164563,0.303723,-1.65394,-0.302764,-0.122509,0.465467,-0.724966,0.209723,-0.738837,-0.265796,0.00908256,0.4927,-0.225158,0,0,0,0,0,0,0,-0.158497,-0.0214002,0.326152,-1.64459,-0.304925,1.43387,1.26237,-0.648034,0.217073,-0.675306,-0.213561,-0.379069,0.567666,-0.132565,-1.41278,-33.3241,-1.63756,26.2051,-0.640262,1.63415,-0.210464,-0.319578,-1.13722,-1.64539,0.483528,0.792011,-0.365701,-0.344931,0.903636,-0.385763,-0.900004,-0.181996,-0.233959,-0.229187,
-0.167276,-0.020035,0.318038,-1.65,-0.312215,-0.133623,0.467744,-0.814405,0.234625,-0.830086,-0.313444,-0.369813,0.513747,-0.295156,0,0,0,0,0,0,0,-0.179215,-0.0146064,0.304627,-1.65076,-0.313926,1.45197,1.25812,-0.68468,0.216151,-0.726642,-0.19339,-0.20363,0.592915,-0.129691,0.868412,-33.9232,0.738844,25.3601,0.569149,1.68725,-0.183914,-0.517102,0.763394,-1.75146,-0.540521,0.821075,0.611773,0.639875,0.926866,0.590376,-1.0146,0.134616,-0.268046,-0.233415,
-0.2144,-0.00509958,0.268676,-1.66407,-0.313751,-0.0902764,0.459834,-0.725196,0.200904,-0.740581,-0.278807,0.176901,0.595162,-0.251287,0,0,0,0,0,0,0,-0.179215,-0.0146064,0.304627,-1.65076,-0.313926,1.45197,1.25812,-0.68468,0.216151,-0.726642,-0.19339,-0.20363,0.592915,-0.129691,0.868412,-33.9232,0.738844,25.3601,0.569149,1.68725,-0.183914,-0.517102,0.763394,-1.75146,-0.540521,0.821075,0.611773,0.639875,0.926866,0.590376,-1.0146,0.134616,-0.268046,-0.233415,
-0.217268,-0.00429863,0.265747,-1.66518,-0.312968,-0.0879243,0.458829,-0.716944,0.200237,-0.732448,-0.275512,0.195713,0.588028,-0.251313,0,0,0,0,0,0,0,-0.179215,-0.0146064,0.304627,-1.65076,-0.313926,1.45197,1.25812,-0.68468,0.216151,-0.726642,-0.19339,-0.20363,0.592915,-0.129691,0.868412,-33.9232,0.738844,25.3601,0.569149,1.68725,-0.183914,-0.776239,0.834862,-1.75702,-0.378629,0.64773,0.632263,0.655656,0.872296,0.612155,-0.986904,0.326998,-0.254808,-0.231472,
-0.220094,-0.00349255,0.26286,-1.66625,-0.31213,-0.0856338,0.457872,-0.706485,0.20152,-0.721622,-0.267602,0.209648,0.572617,-0.239228,0,0,0,0,0,0,0,-0.179215,-0.0146064,0.304627,-1.65076,-0.313926,1.45197,1.25812,-0.68468,0.216151,-0.726642,-0.19339,-0.20363,0.592915,-0.129691,0.868412,-33.9232,0.738844,25.3601,0.569149,1.68725,-0.183914,-1.74106,0.490988,-2.0157,-0.0994297,0.182363,0.460058,0.482759,0.760784,0.438058,-1.12577,0.367294,-0.354492,-0.230129,
-0.222882,-0.00269183,0.260012,-1.6673,-0.311222,-0.0833965,0.456931,-0.697008,0.20018,-0.712007,-0.263384,0.226936,0.559341,-0.235232,0,0,0,0,0,0,0,-0.179215,-0.0146064,0.304627,-1.65076,-0.313926,1.45197,1.25812,-0.68468,0.216151,-0.726642,-0.19339,-0.20363,0.592915,-0.129691,0.868412,-33.9232,0.738844,25.3601,0.569149,1.68725,-0.183914,-1.74106,0.490988,-2.0157,-0.0994297,0.182363,0.460058,0.482759,0.760784,0.438058,-1.12577,0.367294,-0.354492,-0.230129,
-0.225635,-0.00190107,0.2572,-1.66834,-0.310234,-0.0812129,0.456003,-0.688206,0.197691,-0.703082,-0.260336,0.246892,0.545894,-0.231892,0,0,0,0,0,0,0,-0.179215,-0.0146064,0.304627,-1.65076,-0.313926,1.45197,1.25812,-0.68468,0.216151,-0.726642,-0.19339,-0.20363,0.592915,-0.129691,0.868412,-33.9232,0.738844,25.3601,0.569149,1.68725,-0.183914,-2.52178,0.82997,-2.29571,-0.332421,-0.113617,0.645046,0.671327,0.700989,0.620326,-1.31838,0.367323,-0.46487,-0.234352,
-0.234116,0.000325511,0.248563,-1.67198,-0.303074,-0.0779989,0.450998,-0.728625,0.208548,-0.744367,-0.2806,0.405566,0.513476,-0.264777,0,0,0,0,0,0,0,-0.201866,-0.00746935,0.281029,-1.65702,-0.317343,1.47282,1.25304,-0.694185,0.215187,-0.720329,-0.204241,-0.00859008,0.698774,-0.166519,0.384403,-33.7724,0.26277,25.0348,0.440975,1.85296,-0.183914,-2.52178,0.82997,-2.29571,-0.332421,-0.113617,0.645046,0.671327,0.700989,0.620326,-1.31838,0.367323,-0.46487,-0.234352,
-0.216146,-0.00480776,0.26692,-1.66505,-0.311275,-0.0910382,0.457621,-0.777297,0.214893,-0.793923,-0.303404,0.261819,0.578648,-0.29402,0,0,0,0,0,0,0,-0.201866,-0.00746935,0.281029,-1.65702,-0.317343,1.47282,1.25304,-0.694185,0.215187,-0.720329,-0.204241,-0.00859008,0.698774,-0.166519,0.384403,-33.7724,0.26277,25.0348,0.440975,1.85296,-0.183914,-2.2552,1.90918,-2.36754,-0.888623,0.0620937,1.21115,1.24117,0.743683,1.18341,-1.30809,0.531354,-0.378578,-0.235691,
-0.235622,0.00122304,0.246506,-1.66963,-0.300377,-0.068868,0.454717,-0.668875,0.173118,-0.684371,-0.259954,0.478857,0.488635,-0.254787,0,0,0,0,0,0,0,-0.201866,-0.00746935,0.281029,-1.65702,-0.317343,1.47282,1.25304,-0.694185,0.215187,-0.720329,-0.204241,-0.00859008,0.698774,-0.166519,0.384403,-33.7724,0.26277,25.0348,0.440975,1.85296,-0.183914,-0.153356,-1.17467,-2.83539,1.12813,1.70878,-0.543996,-0.517484,1.8774,-0.570994,-1.557,0.398927,-0.426402,-0.234241,
-0.238252,0.00191651,0.243816,-1.67065,-0.298464,-0.0669835,0.453742,-0.657456,0.173367,-0.67259,-0.254203,0.478198,0.471146,-0.243705,0,0,0,0,0,0,0,-0.201866,-0.00746935,0.281029,-1.65702,-0.317343,1.47282,1.25304,-0.694185,0.215187,-0.720329,-0.204241,-0.00859008,0.698774,-0.166519,0.384403,-33.7724,0.26277,25.0348,0.440975,1.85296,-0.183914,-0.153356,-1.17467,-2.83539,1.12813,1.70878,-0.543996,-0.517484,1.8774,-0.570994,-1.557,0.398927,-0.426402,-0.234241,
-0.240842,0.00260127,0.241166,-1.67166,-0.296541,-0.0651328,0.452782,-0.647345,0.17119,-0.662378,-0.252447,0.480847,0.462674,-0.2399,0,0,0,0,0,0,0,-0.201866,-0.00746935,0.281029,-1.65702,-0.317343,1.47282,1.25304,-0.694185,0.215187,-0.720329,-0.204241,-0.00859008,0.698774,-0.166519,0.384403,-33.7724,0.26277,25.0348,0.440975,1.85296,-0.183914,0.465246,-0.600927,-2.88683,0.769027,2.14598,-0.234559,-0.202131,2.06803,-0.266457,-1.59204,0.410741,-0.393873,-0.233631,
-0.243394,0.00327368,0.238554,-1.67267,-0.294597,-0.0632904,0.451835,-0.638197,0.168102,-0.653138,-0.252003,0.485962,0.460582,-0.236693,0,0,0,0,0,0,0,-0.222692,-0.00147171,0.259553,-1.6629,-0.316079,1.49324,1.24855,-0.688567,0.196226,-0.717494,-0.196001,0.120329,0.66006,-0.135328,0.233646,-34.5976,0.0882092,25.3085,-0.438846,1.7138,-0.177505,0.465246,-0.600927,-2.88683,0.769027,2.14598,-0.234559,-0.202131,2.06803,-0.266457,-1.59204,0.410741,-0.393873,-0.233631,
-0.245913,0.00393334,0.235976,-1.67367,-0.292625,-0.0614518,0.450901,-0.629609,0.164916,-0.644455,-0.2511,0.493064,0.459649,-0.233654,0,0,0,0,0,0,0,-0.222692,-0.00147171,0.259553,-1.6629,-0.316079,1.49324,1.24855,-0.688567,0.196226,-0.717494,-0.196001,0.120329,0.66006,-0.135328,0.233646,-34.5976,0.0882092,25.3085,-0.438846,1.7138,-0.177505,0.0460796,0.282151,-1.79175,0.135196,1.21973,0.281525,0.312487,1.22518,0.251187,-1.03465,0.340429,-0.260852,-0.22716,
-0.236902,0.00126364,0.245152,-1.67067,-0.299111,-0.0701703,0.452624,-0.707135,0.179308,-0.724015,-0.285907,0.513061,0.45911,-0.295231,0,0,0,0,0,0,0,-0.222692,-0.00147171,0.259553,-1.6629,-0.316079,1.49324,1.24855,-0.688567,0.196226,-0.717494,-0.196001,0.120329,0.66006,-0.135328,0.233646,-34.5976,0.0882092,25.3085,-0.438846,1.7138,-0.177505,0.0460796,0.282151,-1.79175,0.135196,1.21973,0.281525,0.312487,1.22518,0.251187,-1.03465,0.340429,-0.260852,-0.22716,
-0.254376,0.00585426,0.2271,-1.67498,-0.29501,-0.0520282,0.450276,-0.610567,0.140612,-0.625781,-0.245964,0.551618,0.429824,-0.24888,0,0,0,0,0,0,0,-0.222692,-0.00147171,0.259553,-1.6629,-0.316079,1.49324,1.24855,-0.688567,0.196226,-0.717494,-0.196001,0.120329,0.66006,-0.135328,0.233646,-34.5976,0.0882092,25.3085,-0.438846,1.7138,-0.177505,-0.228846,1.07373,-0.845459,-0.347427,0.478039,0.725032,0.760743,0.541041,0.689366,-0.554382,0.3765,-0.144699,-0.223807,
-0.256775,0.00640714,0.224641,-1.67596,-0.292801,-0.05035,0.449296,-0.599594,0.13822,-0.614725,-0.243992,0.552284,0.419564,-0.245141,0,0,0,0,0,0,0,-0.222692,-0.00147171,0.259553,-1.6629,-0.316079,1.49324,1.24855,-0.688567,0.196226,-0.717494,-0.196001,0.120329,0.66006,-0.135328,0.233646,-34.5976,0.0882092,25.3085,-0.438846,1.7138,-0.177505,0.0957504,-0.633086,-0.567748,0.7209,0.485778,-0.206393,-0.177583,0.564247,-0.232615,-0.378677,0.268206,-0.108701,-0.215997,
-0.259133,0.00694753,0.222222,-1.67693,-0.290586,-0.0486926,0.448328,-0.589624,0.135096,-0.604675,-0.243186,0.553614,0.414336,-0.241997,0,0,0,0,0,0,0,-0.222692,-0.00147171,0.259553,-1.6629,-0.316079,1.49324,1.24855,-0.688567,0.196226,-0.717494,-0.196001,0.120329,0.66006,-0.135328,0.233646,-34.5976,0.0882092,25.3085,-0.438846,1.7138,-0.177505,0.0957504,-0.633086,-0.567748,0.7209,0.485778,-0.206393,-0.177583,0.564247,-0.232615,-0.378677,0.268206,-0.108701,-0.215997,
-0.261455,0.007475,0.219841,-1.6779,-0.288364,-0.0470499,0.447372,-0.580346,0.131869,-0.595314,-0.242209,0.555525,0.410673,-0.238978,0,0,0,0,0,0,0,-0.245367,0.00538589,0.235959,-1.66921,-0.308521,1.51331,1.24406,-0.680997,0.215174,-0.695049,-0.186079,0.295668,0.561042,-0.135201,2.13398,-36.8153,1.91316,26.0068,-0.304264,1.64055,-0.170181,-1.02038,0.785813,-0.265138,-0.221701,-0.39725,0.559302,0.593588,-0.0457027,0.525488,-0.249411,0.289601,-0.109819,-0.216611,
-0.263741,0.00799048,0.217496,-1.67886,-0.286132,-0.0454363,0.446427,-0.571472,0.12887,-0.586353,-0.24007,0.55807,0.403405,-0.236092,0,0,0,0,0,0,0,-0.245367,0.00538589,0.235959,-1.66921,-0.308521,1.51331,1.24406,-0.680997,0.215174,-0.695049,-0.186079,0.295668,0.561042,-0.135201,2.13398,-36.8153,1.91316,26.0068,-0.304264,1.64055,-0.170181,-1.02038,0.785813,-0.265138,-0.221701,-0.39725,0.559302,0.593588,-0.0457027,0.525488,-0.249411,0.289601,-0.109819,-0.216611,
-0.253329,0.00546381,0.228142,-1.67469,-0.292574,-0.0550309,0.449384,-0.666168,0.15146,-0.683062,-0.272065,0.680265,0.40828,-0.300175,0,0,0,0,0,0,0,-0.245367,0.00538589,0.235959,-1.66921,-0.308521,1.51331,1.24406,-0.680997,0.215174,-0.695049,-0.186079,0.295668,0.561042,-0.135201,2.13398,-36.8153,1.91316,26.0068,-0.304264,1.64055,-0.170181,-0.982818,0.43851,-1.17398,-0.00290995,0.167792,0.352916,0.390107,0.515378,0.316042,-0.715168,0.246902,-0.225241,-0.213877,
-0.273241,0.0119112,0.207377,-1.68019,-0.283831,-0.0376772,0.446594,-0.587287,0.126188,-0.60283,-0.245956,0.659878,0.351099,-0.261353,0,0,0,0,0,0,0,-0.245367,0.00538589,0.235959,-1.66921,-0.308521,1.51331,1.24406,-0.680997,0.215174,-0.695049,-0.186079,0.295668,0.561042,-0.135201,2.13398,-36.8153,1.91316,26.0068,-0.304264,1.64055,-0.170181,-1.34179,-1.74002,-1.44351,1.36727,0.11366,-0.89262,-0.861481,0.748349,-0.916038,-0.868187,0.122268,-0.341808,-0.204661,
-0.275546,0.012403,0.20501,-1.68116,-0.281194,-0.0363399,0.445549,-0.576374,0.122931,-0.591907,-0.243583,0.659329,0.334316,-0.261196,0,0,0,0,0,0,0,-0.245367,0.00538589,0.235959,-1.66921,-0.308521,1.51331,1.24406,-0.680997,0.215174,-0.695049,-0.186079,0.295668,0.561042,-0.135201,2.13398,-36.8153,1.91316,26.0068,-0.304264,1.64055,-0.170181,-1.34179,-1.74002,-1.44351,1.36727,0.11366,-0.89262,-0.861481,0.748349,-0.916038,-0.868187,0.122268,-0.341808,-0.204661,
-0.277804,0.0128903,0.202692,-1.68211,-0.278584,-0.0350761,0.444545,-0.564321,0.121846,-0.579459,-0.237371,0.652583,0.315948,-0.250859,0,0,0,0,0,0,0,-0.266063,0.0119108,0.214609,-1.67448,-0.298217,1.52985,1.23972,-0.655805,0.206891,-0.657257,-0.160311,0.340074,0.514181,-0.164561,2.61798,-37.7159,2.48842,26.0306,-0.231022,1.62774,-0.130813,-1.88092,-1.47218,-1.12829,1.17901,-0.397024,-0.781114,-0.748338,0.406645,-0.805114,-0.734879,0.114878,-0.346164,-0.202631,
-0.280017,0.0133658,0.200418,-1.68305,-0.275998,-0.0338576,0.443556,-0.553451,0.118871,-0.568545,-0.23482,0.646538,0.304617,-0.247313,0,0,0,0,0,0,0,-0.266063,0.0119108,0.214609,-1.67448,-0.298217,1.52985,1.23972,-0.655805,0.206891,-0.657257,-0.160311,0.340074,0.514181,-0.164561,2.61798,-37.7159,2.48842,26.0306,-0.231022,1.62774,-0.130813,-1.88092,-1.47218,-1.12829,1.17901,-0.397024,-0.781114,-0.748338,0.406645,-0.805114,-0.734879,0.114878,-0.346164,-0.202631,
-0.282192,0.013827,0.198183,-1.68398,-0.273434,-0.0326661,0.442579,-0.543571,0.115295,-0.55862,-0.233515,0.640898,0.297877,-0.244313,0,0,0,0,0,0,0,-0.266063,0.0119108,0.214609,-1.67448,-0.298217,1.52985,1.23972,-0.655805,0.206891,-0.657257,-0.160311,0.340074,0.514181,-0.164561,2.61798,-37.7159,2.48842,26.0306,-0.231022,1.62774,-0.130813,-1.92581,-0.141046,-1.68722,0.435474,-0.0715402,-0.0787686,-0.0437364,0.655009,-0.110073,-1.05149,0.230989,-0.413241,-0.201259,
-0.28433,0.0142731,0.195985,-1.68491,-0.270891,-0.0314848,0.441613,-0.534481,0.111535,-0.549481,-0.232717,0.635743,0.295318,-0.24143,0,0,0,0,0,0,0,-0.266063,0.0119108,0.214609,-1.67448,-0.298217,1.52985,1.23972,-0.655805,0.206891,-0.657257,-0.160311,0.340074,0.514181,-0.164561,2.61798,-37.7159,2.48842,26.0306,-0.231022,1.62774,-0.130813,-1.92581,-0.141046,-1.68722,0.435474,-0.0715402,-0.0787686,-0.0437364,0.655009,-0.110073,-1.05149,0.230989,-0.413241,-0.201259,
-0.276727,0.0122811,0.203761,-1.68202,-0.274984,-0.0370715,0.44361,-0.607339,0.124485,-0.624006,-0.265431,0.80923,0.31715,-0.298585,0,0,0,0,0,0,0,-0.266063,0.0119108,0.214609,-1.67448,-0.298217,1.52985,1.23972,-0.655805,0.206891,-0.657257,-0.160311,0.340074,0.514181,-0.164561,2.61798,-37.7159,2.48842,26.0306,-0.231022,1.62774,-0.130813,-1.49611,0.856585,-2.24115,-0.0746024,0.547882,0.467444,0.511143,1.06324,0.422365,-1.3585,0.34187,-0.463345,-0.201287,
-0.294032,0.0176456,0.185883,-1.68596,-0.269105,-0.021999,0.4412,-0.523826,0.0926966,-0.539177,-0.23535,0.672605,0.315165,-0.262375,0,0,0,0,0,0,0,-0.266063,0.0119108,0.214609,-1.67448,-0.298217,1.52985,1.23972,-0.655805,0.206891,-0.657257,-0.160311,0.340074,0.514181,-0.164561,2.61798,-37.7159,2.48842,26.0306,-0.231022,1.62774,-0.130813,-2.1728,-1.00162,-1.84213,1.06867,-0.11203,-0.623544,-0.58998,0.798118,-0.645969,-1.16666,0.243043,-0.492981,-0.197616,
-0.296079,0.0180113,0.183777,-1.68688,-0.26646,-0.0207976,0.440191,-0.511599,0.0914313,-0.526561,-0.229098,0.661385,0.300362,-0.252247,0,0,0,0,0,0,0,-0.292668,0.0199373,0.187028,-1.68171,-0.280939,1.55095,1.23215,-0.604937,0.1787,-0.625034,-0.178204,0.417431,0.463087,-0.177186,3.20118,-37.4422,3.11128,26.0822,0.379635,1.56823,-0.130813,-2.1728,-1.00162,-1.84213,1.06867,-0.11203,-0.623544,-0.58998,0.798118,-0.645969,-1.16666,0.243043,-0.492981,-0.197616,
-0.298081,0.0183652,0.181715,-1.68779,-0.263858,-0.0196312,0.439196,-0.50055,0.0884691,-0.515509,-0.226311,0.650502,0.291585,-0.248844,0,0,0,0,0,0,0,-0.292668,0.0199373,0.187028,-1.68171,-0.280939,1.55095,1.23215,-0.604937,0.1787,-0.625034,-0.178204,0.417431,0.463087,-0.177186,3.20118,-37.4422,3.11128,26.0822,0.379635,1.56823,-0.130813,-0.721447,-1.39117,-2.31467,1.39059,1.09137,-0.75603,-0.724287,1.54618,-0.776225,-1.39684,0.258934,-0.494506,-0.194658,
-0.300043,0.0187052,0.179693,-1.68868,-0.261299,-0.0184847,0.438212,-0.490529,0.0850003,-0.505477,-0.224741,0.639628,0.286624,-0.245977,0,0,0,0,0,0,0,-0.292668,0.0199373,0.187028,-1.68171,-0.280939,1.55095,1.23215,-0.604937,0.1787,-0.625034,-0.178204,0.417431,0.463087,-0.177186,3.20118,-37.4422,3.11128,26.0822,0.379635,1.56823,-0.130813,-0.721447,-1.39117,-2.31467,1.39059,1.09137,-0.75603,-0.724287,1.54618,-0.776225,-1.39684,0.258934,-0.494506,-0.194658,
-0.301968,0.0190308,0.177708,-1.68958,-0.258784,-0.0173442,0.437239,-0.481338,0.0814129,-0.496269,-0.223694,0.628785,0.285144,-0.243218,0,0,0,0,0,0,0,-0.292668,0.0199373,0.187028,-1.68171,-0.280939,1.55095,1.23215,-0.604937,0.1787,-0.625034,-0.178204,0.417431,0.463087,-0.177186,3.20118,-37.4422,3.11128,26.0822,0.379635,1.56823,-0.130813,-0.548372,0.466397,-3.10397,0.394158,1.65734,0.27138,0.305419,1.92033,0.237532,-1.80896,0.41588,-0.549874,-0.197223,
-0.293185,0.0172119,0.186734,-1.6856,-0.263539,-0.0242184,0.440509,-0.570285,0.0987509,-0.586606,-0.255172,0.901193,0.294735,-0.29916,0,0,0,0,0,0,0,-0.292668,0.0199373,0.187028,-1.68171,-0.280939,1.55095,1.23215,-0.604937,0.1787,-0.625034,-0.178204,0.417431,0.463087,-0.177186,3.20118,-37.4422,3.11128,26.0822,0.379635,1.56823,-0.130813,-0.548372,0.466397,-3.10397,0.394158,1.65734,0.27138,0.305419,1.92033,0.237532,-1.80896,0.41588,-0.549874,-0.197223,
-0.31673,0.0244036,0.162275,-1.69203,-0.251823,-0.00431737,0.434495,-0.494719,0.076038,-0.510057,-0.230998,0.702893,0.294077,-0.264152,0,0,0,0,0,0,0,-0.312374,0.0251361,0.16666,-1.68729,-0.266997,1.56446,1.22699,-0.584074,0.157336,-0.590081,-0.165182,0.396474,0.362795,-0.140597,3.1258,-38.315,3.08748,26.5543,0.392452,1.88592,-0.137222,-1.30896,0.357815,-2.33881,0.43836,0.700385,0.141914,0.177885,1.25289,0.11102,-1.41745,0.426735,-0.486008,-0.193374,
-0.318671,0.0246937,0.160272,-1.69294,-0.249018,-0.00317499,0.433442,-0.485355,0.0725442,-0.500728,-0.228729,0.701175,0.285595,-0.263198,0,0,0,0,0,0,0,-0.312374,0.0251361,0.16666,-1.68729,-0.266997,1.56446,1.22699,-0.584074,0.157336,-0.590081,-0.165182,0.396474,0.362795,-0.140597,3.1258,-38.315,3.08748,26.5543,0.392452,1.88592,-0.137222,-1.43489,-1.21354,-1.9464,1.34335,0.380673,-0.742965,-0.712029,1.10957,-0.756257,-1.20095,0.311994,-0.459231,-0.186816,
-0.320575,0.0249717,0.158306,-1.69384,-0.246219,-0.00206909,0.432391,-0.475881,0.0694998,-0.49133,-0.225752,0.699934,0.276475,-0.262881,0,0,0,0,0,0,0,-0.312374,0.0251361,0.16666,-1.68729,-0.266997,1.56446,1.22699,-0.584074,0.157336,-0.590081,-0.165182,0.396474,0.362795,-0.140597,3.1258,-38.315,3.08748,26.5543,0.392452,1.88592,-0.137222,-1.43489,-1.21354,-1.9464,1.34335,0.380673,-0.742965,-0.712029,1.10957,-0.756257,-1.20095,0.311994,-0.459231,-0.186816,
-0.322439,0.0252443,0.156381,-1.69472,-0.243421,-0.00100823,0.431376,-0.466101,0.0681319,-0.481288,-0.219807,0.699414,0.265216,-0.253849,0,0,0,0,0,0,0,-0.312374,0.0251361,0.16666,-1.68729,-0.266997,1.56446,1.22699,-0.584074,0.157336,-0.590081,-0.165182,0.396474,0.362795,-0.140597,3.1258,-38.315,3.08748,26.5543,0.392452,1.88592,-0.137222,-1.43756,-0.949588,-1.46758,1.14405,0.091583,-0.600143,-0.56333,0.804685,-0.619066,-0.96018,0.32011,-0.399693,-0.187639,
-0.32427,0.0255055,0.15449,-1.69559,-0.240602,2.57693e-05,0.430373,-0.457609,0.0653013,-0.472866,-0.216845,0.704629,0.2585,-0.250682,0,0,0,0,0,0,0,-0.312374,0.0251361,0.16666,-1.68729,-0.266997,1.56446,1.22699,-0.584074,0.157336,-0.590081,-0.165182,0.396474,0.362795,-0.140597,3.1258,-38.315,3.08748,26.5543,0.392452,1.88592,-0.137222,-1.43756,-0.949588,-1.46758,1.14405,0.091583,-0.600143,-0.56333,0.804685,-0.619066,-0.96018,0.32011,-0.399693,-0.187639,
-0.326069,0.025754,0.152629,-1.69645,-0.237762,0.00104204,0.429381,-0.44987,0.0621301,-0.465116,-0.214909,0.710086,0.254069,-0.247922,0,0,0,0,0,0,0,-0.32982,0.0295621,0.1486,-1.69262,-0.253566,1.57453,1.2223,-0.551158,0.124778,-0.575215,-0.183462,0.44067,0.282764,-0.148785,3.96289,-39.037,3.91267,27.2287,0.410763,2.18438,-0.224197,-0.24327,0.691676,-1.17699,0.196561,0.591748,0.437102,0.477898,0.774667,0.401894,-0.746558,0.48736,-0.231906,-0.189139,
-0.31951,0.0243355,0.159368,-1.69357,-0.239934,-0.00476988,0.431697,-0.504693,0.0662021,-0.521006,-0.245157,0.942233,0.242399,-0.296734,0,0,0,0,0,0,0,-0.32982,0.0295621,0.1486,-1.69262,-0.253566,1.57453,1.2223,-0.551158,0.124778,-0.575215,-0.183462,0.44067,0.282764,-0.148785,3.96289,-39.037,3.91267,27.2287,0.410763,2.18438,-0.224197,-0.387466,-0.291811,-0.69577,0.714053,0.197538,-0.110163,-0.0754645,0.511299,-0.129806,-0.475855,0.407072,-0.172626,-0.189019,
-0.353351,0.0325984,0.124317,-1.70343,-0.218589,0.0157527,0.423675,-0.433699,0.0427481,-0.448989,-0.216779,0.785384,0.203105,-0.261505,0,0,0,0,0,0,0,-0.32982,0.0295621,0.1486,-1.69262,-0.253566,1.57453,1.2223,-0.551158,0.124778,-0.575215,-0.183462,0.44067,0.282764,-0.148785,3.96289,-39.037,3.91267,27.2287,0.410763,2.18438,-0.224197,-0.387466,-0.291811,-0.69577,0.714053,0.197538,-0.110163,-0.0754645,0.511299,-0.129806,-0.475855,0.407072,-0.172626,-0.189019,
-0.355048,0.03276,0.122559,-1.70429,-0.215459,0.0165236,0.422633,-0.424261,0.0404015,-0.439608,-0.213797,0.782491,0.19272,-0.260666,0,0,0,0,0,0,0,-0.32982,0.0295621,0.1486,-1.69262,-0.253566,1.57453,1.2223,-0.551158,0.124778,-0.575215,-0.183462,0.44067,0.282764,-0.148785,3.96289,-39.037,3.91267,27.2287,0.410763,2.18438,-0.224197,-1.83157,-0.572198,-0.430481,0.815391,-0.886771,-0.434797,-0.400986,-0.05174,-0.446111,-0.339868,0.349426,-0.18376,-0.184801,
-0.356706,0.0329192,0.12084,-1.70512,-0.212346,0.0172436,0.421622,-0.414627,0.0397983,-0.429733,-0.207752,0.778367,0.179997,-0.252763,0,0,0,0,0,0,0,-0.32982,0.0295621,0.1486,-1.69262,-0.253566,1.57453,1.2223,-0.551158,0.124778,-0.575215,-0.183462,0.44067,0.282764,-0.148785,3.96289,-39.037,3.91267,27.2287,0.410763,2.18438,-0.224197,-1.83157,-0.572198,-0.430481,0.815391,-0.886771,-0.434797,-0.400986,-0.05174,-0.446111,-0.339868,0.349426,-0.18376,-0.184801,
-0.358328,0.0330703,0.119158,-1.70594,-0.209266,0.0179286,0.420623,-0.405546,0.0377914,-0.42062,-0.204811,0.769974,0.171267,-0.249689,0,0,0,0,0,0,0,-0.32982,0.0295621,0.1486,-1.69262,-0.253566,1.57453,1.2223,-0.551158,0.124778,-0.575215,-0.183462,0.44067,0.282764,-0.148785,3.96289,-39.037,3.91267,27.2287,0.410763,2.18438,-0.224197,-2.01547,-1.24195,-0.880937,1.25202,-0.784859,-0.828335,-0.795868,0.178268,-0.832143,-0.517024,0.29598,-0.197478,-0.182129,
-0.359916,0.0332117,0.117509,-1.70675,-0.206233,0.0185878,0.419635,-0.397013,0.0353563,-0.412065,-0.203032,0.758269,0.164793,-0.247032,0,0,0,0,0,0,0,-0.346668,0.0337093,0.130852,-1.69811,-0.237908,1.58252,1.21718,-0.521108,0.114581,-0.536685,-0.167629,0.54934,0.22698,-0.184964,2.03479,-38.3388,2.11152,26.7288,0.349423,2.12487,-0.143631,-2.01547,-1.24195,-0.880937,1.25202,-0.784859,-0.828335,-0.795868,0.178268,-0.832143,-0.517024,0.29598,-0.197478,-0.182129,
-0.364182,0.0327681,0.113017,-1.70914,-0.186135,0.0188882,0.415334,-0.4014,0.0198315,-0.417417,-0.212024,1.04643,0.1415,-0.270769,0,0,0,0,0,0,0,-0.346668,0.0337093,0.130852,-1.69811,-0.237908,1.58252,1.21718,-0.521108,0.114581,-0.536685,-0.167629,0.54934,0.22698,-0.184964,2.03479,-38.3388,2.11152,26.7288,0.349423,2.12487,-0.143631,-0.511097,-0.154681,-2.31841,0.829735,0.875293,-0.0271956,0.015656,1.25009,-0.0565242,-1.12266,0.409686,-0.17677,-0.188174,
-0.354049,0.0321531,0.12354,-1.70394,-0.211341,0.0151794,0.422039,-0.453771,0.0322898,-0.470345,-0.228116,1.03233,0.186204,-0.293048,0,0,0,0,0,0,0,-0.346668,0.0337093,0.130852,-1.69811,-0.237908,1.58252,1.21718,-0.521108,0.114581,-0.536685,-0.167629,0.54934,0.22698,-0.184964,2.03479,-38.3388,2.11152,26.7288,0.349423,2.12487,-0.143631,0.0179644,0.189282,-2.43776,0.651205,1.21821,0.240535,0.284829,1.38551,0.205229,-1.12757,0.437512,-0.116391,-0.187676,
-0.368169,0.0356767,0.1086,-1.7084,-0.197074,0.0205822,0.418673,-0.387667,0.017231,-0.403056,-0.208911,0.891558,0.164085,-0.26001,0,0,0,0,0,0,0,-0.346668,0.0337093,0.130852,-1.69811,-0.237908,1.58252,1.21718,-0.521108,0.114581,-0.536685,-0.167629,0.54934,0.22698,-0.184964,2.03479,-38.3388,2.11152,26.7288,0.349423,2.12487,-0.143631,0.0179644,0.189282,-2.43776,0.651205,1.21821,0.240535,0.284829,1.38551,0.205229,-1.12757,0.437512,-0.116391,-0.187676,
-0.36968,0.035738,0.107027,-1.70922,-0.193556,0.0212209,0.417636,-0.377733,0.0153342,-0.393182,-0.205294,0.8795,0.159672,-0.259456,0,0,0,0,0,0,0,-0.346668,0.0337093,0.130852,-1.69811,-0.237908,1.58252,1.21718,-0.521108,0.114581,-0.536685,-0.167629,0.54934,0.22698,-0.184964,2.03479,-38.3388,2.11152,26.7288,0.349423,2.12487,-0.143631,-0.606305,-0.657698,-2.19807,1.08118,0.713608,-0.310013,-0.265495,1.16191,-0.336026,-1.02524,0.332927,-0.138162,-0.184705,
-0.371151,0.0357976,0.105495,-1.71001,-0.19009,0.0218257,0.416629,-0.367763,0.0148984,-0.383009,-0.19895,0.866577,0.151208,-0.251638,0,0,0,0,0,0,0,-0.362452,0.0366845,0.114327,-1.7032,-0.220253,1.58854,1.2112,-0.506242,0.0846502,-0.521089,-0.164586,0.636141,0.181874,-0.17453,2.26093,-38.8625,2.36146,26.4789,1.06353,2.07177,-0.204056,-0.606305,-0.657698,-2.19807,1.08118,0.713608,-0.310013,-0.265495,1.16191,-0.336026,-1.02524,0.332927,-0.138162,-0.184705,
-0.372587,0.0358498,0.103998,-1.7108,-0.186662,0.0224056,0.415634,-0.358938,0.0130502,-0.374306,-0.195492,0.856862,0.14498,-0.248796,0,0,0,0,0,0,0,-0.362452,0.0366845,0.114327,-1.7032,-0.220253,1.58854,1.2112,-0.506242,0.0846502,-0.521089,-0.164586,0.636141,0.181874,-0.17453,2.26093,-38.8625,2.36146,26.4789,1.06353,2.07177,-0.204056,-1.05765,-0.141945,-2.2593,0.838608,0.450432,-0.107861,-0.0600642,1.03373,-0.138081,-1.07398,0.401671,-0.164175,-0.186156,
-0.37399,0.035893,0.102533,-1.71157,-0.183282,0.0229627,0.414649,-0.350822,0.0108022,-0.366212,-0.193097,0.845149,0.139272,-0.246285,0,0,0,0,0,0,0,-0.362452,0.0366845,0.114327,-1.7032,-0.220253,1.58854,1.2112,-0.506242,0.0846502,-0.521089,-0.164586,0.636141,0.181874,-0.17453,2.26093,-38.8625,2.36146,26.4789,1.06353,2.07177,-0.204056,-1.05765,-0.141945,-2.2593,0.838608,0.450432,-0.107861,-0.0600642,1.03373,-0.138081,-1.07398,0.401671,-0.164175,-0.186156,
-0.375362,0.0359269,0.101099,-1.71233,-0.179965,0.023499,0.413673,-0.3431,0.00847853,-0.358464,-0.191227,0.82923,0.134067,-0.243822,0,0,0,0,0,0,0,-0.362452,0.0366845,0.114327,-1.7032,-0.220253,1.58854,1.2112,-0.506242,0.0846502,-0.521089,-0.164586,0.636141,0.181874,-0.17453,2.26093,-38.8625,2.36146,26.4789,1.06353,2.07177,-0.204056,-1.2978,-1.94966,-2.40976,1.98696,0.360322,-1.14152,-1.10611,1.22616,-1.1385,-1.11811,0.352576,-0.181274,-0.182273,
-0.368085,0.0352264,0.108629,-1.70884,-0.195363,0.0201935,0.417262,-0.389168,0.00532685,-0.405588,-0.218051,1.02136,0.159679,-0.289472,0,0,0,0,0,0,0,-0.362452,0.0366845,0.114327,-1.7032,-0.220253,1.58854,1.2112,-0.506242,0.0846502,-0.521089,-0.164586,0.636141,0.181874,-0.17453,2.26093,-38.8625,2.36146,26.4789,1.06353,2.07177,-0.204056,-1.40152,-1.06779,-2.28913,1.45186,0.242284,-0.687904,-0.649581,1.06392,-0.695372,-1.09442,0.389165,-0.193823,-0.183337,
-0.381749,0.0375036,0.0943061,-1.71296,-0.18031,0.0252084,0.412928,-0.330862,-0.00643376,-0.3464,-0.199068,0.829082,0.150792,-0.255012,0,0,0,0,0,0,0,-0.362452,0.0366845,0.114327,-1.7032,-0.220253,1.58854,1.2112,-0.506242,0.0846502,-0.521089,-0.164586,0.636141,0.181874,-0.17453,2.26093,-38.8625,2.36146,26.4789,1.06353,2.07177,-0.204056,-1.40152,-1.06779,-2.28913,1.45186,0.242284,-0.687904,-0.649581,1.06392,-0.695372,-1.09442,0.389165,-0.193823,-0.183337,
-0.383031,0.0374706,0.0929612,-1.71375,-0.177082,0.0258552,0.411912,-0.320561,-0.00823067,-0.336227,-0.197415,0.807009,0.161686,-0.254054,0,0,0,0,0,0,0,-0.377847,0.0389079,0.0983663,-1.70872,-0.19924,1.59346,1.20609,-0.480114,0.0629799,-0.487679,-0.168196,0.631064,0.126763,-0.155152,4.2168,-38.438,4.11104,26.6058,0.91705,2.21734,-0.177505,-1.32915,0.85507,-2.55956,0.372157,0.429495,0.354512,0.401398,1.05441,0.319085,-1.25626,0.488175,-0.220719,-0.18439,
-0.384273,0.0374372,0.0916574,-1.71452,-0.17395,0.0265156,0.410922,-0.310412,-0.00836505,-0.325952,-0.192293,0.78288,0.165119,-0.247564,0,0,0,0,0,0,0,-0.377847,0.0389079,0.0983663,-1.70872,-0.19924,1.59346,1.20609,-0.480114,0.0629799,-0.487679,-0.168196,0.631064,0.126763,-0.155152,4.2168,-38.438,4.11104,26.6058,0.91705,2.21734,-0.177505,-1.32915,0.85507,-2.55956,0.372157,0.429495,0.354512,0.401398,1.05441,0.319085,-1.25626,0.488175,-0.220719,-0.18439,
-0.385478,0.0373992,0.0903894,-1.71527,-0.17091,0.027185,0.409942,-0.301307,-0.00948834,-0.316977,-0.188878,0.76018,0.167332,-0.24495,0,0,0,0,0,0,0,-0.377847,0.0389079,0.0983663,-1.70872,-0.19924,1.59346,1.20609,-0.480114,0.0629799,-0.487679,-0.168196,0.631064,0.126763,-0.155152,4.2168,-38.438,4.11104,26.6058,0.91705,2.21734,-0.177505,-1.23538,0.0168197,-2.42617,0.839922,0.424675,-0.090792,-0.043076,1.09394,-0.119289,-1.18827,0.424722,-0.216335,-0.181598,
-0.386651,0.0373551,0.0891537,-1.71602,-0.167954,0.0278557,0.40897,-0.293213,-0.0110185,-0.308945,-0.186159,0.738909,0.167692,-0.243106,0,0,0,0,0,0,0,-0.377847,0.0389079,0.0983663,-1.70872,-0.19924,1.59346,1.20609,-0.480114,0.0629799,-0.487679,-0.168196,0.631064,0.126763,-0.155152,4.2168,-38.438,4.11104,26.6058,0.91705,2.21734,-0.177505,-1.23538,0.0168197,-2.42617,0.839922,0.424675,-0.090792,-0.043076,1.09394,-0.119289,-1.18827,0.424722,-0.216335,-0.181598,
-0.387795,0.0373042,0.0879462,-1.71675,-0.165075,0.0285238,0.408009,-0.285959,-0.0127395,-0.30188,-0.18388,0.719787,0.167025,-0.240056,0,0,0,0,0,0,0,-0.377847,0.0389079,0.0983663,-1.70872,-0.19924,1.59346,1.20609,-0.480114,0.0629799,-0.487679,-0.168196,0.631064,0.126763,-0.155152,4.2168,-38.438,4.11104,26.6058,0.91705,2.21734,-0.177505,-0.565027,0.00195625,-2.78956,0.945896,1.04018,0.0116617,0.0634583,1.49714,-0.0232,-1.36111,0.447049,-0.235469,-0.184806,
-0.382172,0.0370401,0.0938027,-1.71348,-0.177537,0.0262514,0.411423,-0.348788,-0.0183948,-0.365948,-0.208834,1.01221,0.176121,-0.284309,0,0,0,0,0,0,0,-0.396372,0.0407246,0.0790324,-1.71566,-0.173931,1.59759,1.19998,-0.410476,0.0360382,-0.441067,-0.162001,0.552613,0.0671398,-0.165968,3.40351,-38.7157,3.31361,27.2763,0.404354,2.36382,-0.217789,-0.785044,-0.558084,-2.42615,1.18921,0.690794,-0.326372,-0.278299,1.26609,-0.351101,-1.16465,0.388692,-0.193516,-0.182116,
-0.413001,0.0401024,0.0616226,-1.72508,-0.134269,0.0345304,0.401812,-0.293471,-0.0277339,-0.309765,-0.183853,0.89419,0.147675,-0.253972,0,0,0,0,0,0,0,-0.396372,0.0407246,0.0790324,-1.71566,-0.173931,1.59759,1.19998,-0.410476,0.0360382,-0.441067,-0.162001,0.552613,0.0671398,-0.165968,3.40351,-38.7157,3.31361,27.2763,0.404354,2.36382,-0.217789,-0.785044,-0.558084,-2.42615,1.18921,0.690794,-0.326372,-0.278299,1.26609,-0.351101,-1.16465,0.388692,-0.193516,-0.182116,
-0.414147,0.0399864,0.060411,-1.7258,-0.130652,0.0350785,0.400804,-0.286489,-0.028988,-0.302887,-0.18055,0.90419,0.137024,-0.25198,0,0,0,0,0,0,0,-0.396372,0.0407246,0.0790324,-1.71566,-0.173931,1.59759,1.19998,-0.410476,0.0360382,-0.441067,-0.162001,0.552613,0.0671398,-0.165968,3.40351,-38.7157,3.31361,27.2763,0.404354,2.36382,-0.217789,-1.39422,-0.588713,-1.45579,0.961931,-0.211554,-0.45137,-0.403759,0.531935,-0.473491,-0.698811,0.308422,-0.120114,-0.176767,
-0.415266,0.0398706,0.0592271,-1.7265,-0.126999,0.0355722,0.399815,-0.279696,-0.0289449,-0.295982,-0.175198,0.913289,0.123441,-0.247189,0,0,0,0,0,0,0,-0.396372,0.0407246,0.0790324,-1.71566,-0.173931,1.59759,1.19998,-0.410476,0.0360382,-0.441067,-0.162001,0.552613,0.0671398,-0.165968,3.40351,-38.7157,3.31361,27.2763,0.404354,2.36382,-0.217789,-1.39422,-0.588713,-1.45579,0.961931,-0.211554,-0.45137,-0.403759,0.531935,-0.473491,-0.698811,0.308422,-0.120114,-0.176767,
-0.416357,0.0397507,0.0580709,-1.72719,-0.123346,0.0360178,0.398837,-0.272885,-0.0299845,-0.289051,-0.172246,0.913106,0.111386,-0.244591,0,0,0,0,0,0,0,-0.396372,0.0407246,0.0790324,-1.71566,-0.173931,1.59759,1.19998,-0.410476,0.0360382,-0.441067,-0.162001,0.552613,0.0671398,-0.165968,3.40351,-38.7157,3.31361,27.2763,0.404354,2.36382,-0.217789,-0.259016,0.800916,-0.997788,0.0794073,0.199598,0.497615,0.557733,0.398861,0.445046,-0.448274,0.409671,-0.0184782,-0.17485,
-0.417421,0.0396252,0.0569427,-1.72787,-0.119733,0.0364175,0.397868,-0.265996,-0.0313833,-0.282044,-0.17027,0.903458,0.0999287,-0.242214,0,0,0,0,0,0,0,-0.396372,0.0407246,0.0790324,-1.71566,-0.173931,1.59759,1.19998,-0.410476,0.0360382,-0.441067,-0.162001,0.552613,0.0671398,-0.165968,3.40351,-38.7157,3.31361,27.2763,0.404354,2.36382,-0.217789,0.182082,-0.193584,-1.30454,0.733415,0.601092,0.0515733,0.112842,0.761949,0.00648565,-0.536004,0.381682,0.00736782,-0.172156,
-0.418458,0.0394935,0.0558421,-1.72855,-0.116186,0.0367752,0.396908,-0.259176,-0.03291,-0.275154,-0.16885,0.886731,0.089419,-0.239939,0,0,0,0,0,0,0,-0.409174,0.0414979,0.0655337,-1.72094,-0.155107,1.59899,1.1944,-0.373667,0.0120352,-0.423058,-0.161655,0.649865,0.0273564,-0.193838,2.51484,-38.2396,2.38923,27.5024,0.770565,2.50298,-0.197647,0.182082,-0.193584,-1.30454,0.733415,0.601092,0.0515733,0.112842,0.761949,0.00648565,-0.536004,0.381682,0.00736782,-0.172156,
-0.412604,0.0395872,0.0619932,-1.72542,-0.132407,0.0360366,0.400482,-0.282444,-0.0417,-0.299286,-0.188673,1.00067,0.185808,-0.279729,0,0,0,0,0,0,0,-0.409174,0.0414979,0.0655337,-1.72094,-0.155107,1.59899,1.1944,-0.373667,0.0120352,-0.423058,-0.161655,0.649865,0.0273564,-0.193838,2.51484,-38.2396,2.38923,27.5024,0.770565,2.50298,-0.197647,-0.163021,-1.93029,-1.66554,1.78549,0.569542,-0.925701,-0.86936,1.03048,-0.947941,-0.658682,0.259717,0.00324022,-0.173608,
-0.423575,0.0399752,0.0503823,-1.72977,-0.114384,0.0320146,0.396401,-0.23778,-0.0474908,-0.253685,-0.1784,0.850261,0.103177,-0.251287,0,0,0,0,0,0,0,-0.409174,0.0414979,0.0655337,-1.72094,-0.155107,1.59899,1.1944,-0.373667,0.0120352,-0.423058,-0.161655,0.649865,0.0273564,-0.193838,2.51484,-38.2396,2.38923,27.5024,0.770565,2.50298,-0.197647,-0.163021,-1.93029,-1.66554,1.78549,0.569542,-0.925701,-0.86936,1.03048,-0.947941,-0.658682,0.259717,0.00324022,-0.173608,
-0.424489,0.0397798,0.0494046,-1.73048,-0.111092,0.032513,0.3954,-0.228379,-0.0488278,-0.244422,-0.17835,0.823058,0.124609,-0.250377,0,0,0,0,0,0,0,-0.409174,0.0414979,0.0655337,-1.72094,-0.155107,1.59899,1.1944,-0.373667,0.0120352,-0.423058,-0.161655,0.649865,0.0273564,-0.193838,2.51484,-38.2396,2.38923,27.5024,0.770565,2.50298,-0.197647,-0.432433,-1.52792,-1.81695,1.60809,0.44052,-0.768258,-0.709774,0.979938,-0.793957,-0.71749,0.313077,0.00531541,-0.174951,
-0.425366,0.0395848,0.0484637,-1.73119,-0.107918,0.0330923,0.394423,-0.219241,-0.0487603,-0.23522,-0.175839,0.793359,0.144818,-0.244293,0,0,0,0,0,0,0,-0.409174,0.0414979,0.0655337,-1.72094,-0.155107,1.59899,1.1944,-0.373667,0.0120352,-0.423058,-0.161655,0.649865,0.0273564,-0.193838,2.51484,-38.2396,2.38923,27.5024,0.770565,2.50298,-0.197647,-1.07605,-1.32547,-2.04005,1.55446,0.146867,-0.79445,-0.737612,0.91628,-0.816437,-0.840062,0.335336,-0.0338164,-0.179351,
-0.42621,0.0393894,0.0475554,-1.73188,-0.104862,0.0337263,0.393455,-0.210962,-0.0488509,-0.227085,-0.172876,0.764098,0.1585,-0.241918,0,0,0,0,0,0,0,-0.4207,0.0417104,0.0536102,-1.72557,-0.134225,1.59931,1.18886,-0.343931,0.00274138,-0.369126,-0.141301,0.666692,0.0067382,-0.156813,2.89569,-38.5649,2.91292,27.3993,1.32629,2.64214,-0.183914,-1.07605,-1.32547,-2.04005,1.55446,0.146867,-0.79445,-0.737612,0.91628,-0.816437,-0.840062,0.335336,-0.0338164,-0.179351,
-0.427024,0.0391925,0.046676,-1.73256,-0.101918,0.0343965,0.392496,-0.203576,-0.0492209,-0.219835,-0.170017,0.735864,0.167552,-0.239833,0,0,0,0,0,0,0,-0.4207,0.0417104,0.0536102,-1.72557,-0.134225,1.59931,1.18886,-0.343931,0.00274138,-0.369126,-0.141301,0.666692,0.0067382,-0.156813,2.89569,-38.5649,2.91292,27.3993,1.32629,2.64214,-0.183914,-1.49742,-2.2268,-2.09823,2.13125,-0.101265,-1.36146,-1.3118,0.93522,-1.36341,-0.856829,0.325729,-0.0393421,-0.183768,
-0.427812,0.0389932,0.0458224,-1.73323,-0.0990811,0.0350896,0.391544,-0.197018,-0.0498364,-0.213402,-0.16744,0.709315,0.173276,-0.237791,0,0,0,0,0,0,0,-0.4207,0.0417104,0.0536102,-1.72557,-0.134225,1.59931,1.18886,-0.343931,0.00274138,-0.369126,-0.141301,0.666692,0.0067382,-0.156813,2.89569,-38.5649,2.91292,27.3993,1.32629,2.64214,-0.183914,-1.49742,-2.2268,-2.09823,2.13125,-0.101265,-1.36146,-1.3118,0.93522,-1.36341,-0.856829,0.325729,-0.0393421,-0.183768,
-0.423459,0.0393667,0.0504402,-1.73031,-0.112918,0.0353148,0.395102,-0.239498,-0.0636606,-0.256921,-0.186164,0.995546,0.184766,-0.276799,0,0,0,0,0,0,0,-0.4207,0.0417104,0.0536102,-1.72557,-0.134225,1.59931,1.18886,-0.343931,0.00274138,-0.369126,-0.141301,0.666692,0.0067382,-0.156813,2.89569,-38.5649,2.91292,27.3993,1.32629,2.64214,-0.183914,-1.62475,-0.831711,-2.40613,1.43253,-0.0583554,-0.663327,-0.610724,0.919203,-0.679499,-1.02184,0.445422,-0.0706445,-0.190696,
-0.432952,0.0393833,0.0405791,-1.73427,-0.0955067,0.0371684,0.391012,-0.196198,-0.0617389,-0.21329,-0.165312,0.819219,0.194034,-0.247498,0,0,0,0,0,0,0,-0.4207,0.0417104,0.0536102,-1.72557,-0.134225,1.59931,1.18886,-0.343931,0.00274138,-0.369126,-0.141301,0.666692,0.0067382,-0.156813,2.89569,-38.5649,2.91292,27.3993,1.32629,2.64214,-0.183914,-1.62475,-0.831711,-2.40613,1.43253,-0.0583554,-0.663327,-0.610724,0.919203,-0.679499,-1.02184,0.445422,-0.0706445,-0.190696,
-0.43371,0.0391362,0.0397531,-1.73491,-0.0922122,0.0378976,0.390038,-0.189381,-0.0617885,-0.206497,-0.160026,0.823621,0.182297,-0.243603,0,0,0,0,0,0,0,-0.4207,0.0417104,0.0536102,-1.72557,-0.134225,1.59931,1.18886,-0.343931,0.00274138,-0.369126,-0.141301,0.666692,0.0067382,-0.156813,2.89569,-38.5649,2.91292,27.3993,1.32629,2.64214,-0.183914,-1.84201,0.82027,-2.29742,0.453563,-0.284774,0.155219,0.215106,0.60267,0.117104,-0.989944,0.531164,-0.0681679,-0.201101,
-0.434441,0.0388851,0.0389539,-1.73554,-0.0889319,0.0385815,0.389072,-0.182756,-0.0627675,-0.19982,-0.156865,0.820074,0.170988,-0.241322,0,0,0,0,0,0,0,-0.431369,0.041623,0.042351,-1.72986,-0.115106,1.59957,1.18405,-0.312465,-0.00416199,-0.348943,-0.130667,0.527926,0.0157211,-0.151348,3.85974,-37.5176,3.71431,26.5305,1.30157,2.66137,-0.197647,-1.86028,0.776361,-2.39882,0.493751,-0.273692,0.128505,0.192871,0.630561,0.0863946,-1.00958,0.524685,-0.048252,-0.206454,
-0.435146,0.0386289,0.0381801,-1.73616,-0.0856888,0.0392194,0.388116,-0.176386,-0.0640545,-0.193437,-0.154638,0.810778,0.159461,-0.239217,0,0,0,0,0,0,0,-0.431369,0.041623,0.042351,-1.72986,-0.115106,1.59957,1.18405,-0.312465,-0.00416199,-0.348943,-0.130667,0.527926,0.0157211,-0.151348,3.85974,-37.5176,3.71431,26.5305,1.30157,2.66137,-0.197647,-1.86028,0.776361,-2.39882,0.493751,-0.273692,0.128505,0.192871,0.630561,0.0863946,-1.00958,0.524685,-0.048252,-0.206454,
-0.435828,0.0383672,0.0374304,-1.73677,-0.082499,0.0398112,0.387167,-0.170356,-0.0654188,-0.187422,-0.152947,0.797444,0.147963,-0.237186,0,0,0,0,0,0,0,-0.431369,0.041623,0.042351,-1.72986,-0.115106,1.59957,1.18405,-0.312465,-0.00416199,-0.348943,-0.130667,0.527926,0.0157211,-0.151348,3.85974,-37.5176,3.71431,26.5305,1.30157,2.66137,-0.197647,-1.67317,-0.367492,-2.50817,1.17464,-0.116423,-0.422338,-0.359125,0.845698,-0.453242,-1.01373,0.460671,-0.0167995,-0.212404,
-0.436487,0.0381002,0.0367032,-1.73738,-0.0793736,0.0403597,0.386226,-0.164707,-0.066766,-0.181805,-0.151674,0.781341,0.137124,-0.235223,0,0,0,0,0,0,0,-0.431369,0.041623,0.042351,-1.72986,-0.115106,1.59957,1.18405,-0.312465,-0.00416199,-0.348943,-0.130667,0.527926,0.0157211,-0.151348,3.85974,-37.5176,3.71431,26.5305,1.30157,2.66137,-0.197647,-1.67317,-0.367492,-2.50817,1.17464,-0.116423,-0.422338,-0.359125,0.845698,-0.453242,-1.01373,0.460671,-0.0167995,-0.212404,
-0.43262,0.0388454,0.0408821,-1.7347,-0.0923559,0.0398486,0.389786,-0.187705,-0.0759369,-0.205373,-0.170737,0.986064,0.256056,-0.271278,0,0,0,0,0,0,0,-0.431369,0.041623,0.042351,-1.72986,-0.115106,1.59957,1.18405,-0.312465,-0.00416199,-0.348943,-0.130667,0.527926,0.0157211,-0.151348,3.85974,-37.5176,3.71431,26.5305,1.30157,2.66137,-0.197647,-0.60696,-0.231788,-3.14019,1.28875,0.788658,-0.113601,-0.0473508,1.41351,-0.151582,-1.23638,0.541809,0.0173428,-0.220678,
-0.44201,0.0387547,0.0309334,-1.73806,-0.0797523,0.0344259,0.386405,-0.154199,-0.0756946,-0.171044,-0.163507,0.705764,0.144256,-0.245352,0,0,0,0,0,0,0,-0.440895,0.0411438,0.0319775,-1.73402,-0.0975727,1.60009,1.1798,-0.29614,-0.018767,-0.297897,-0.121907,0.53319,0.00523881,-0.134264,3.45508,-36.6924,3.41279,26.5543,1.43615,2.75475,-0.183914,-0.60696,-0.231788,-3.14019,1.28875,0.788658,-0.113601,-0.0473508,1.41351,-0.151582,-1.23638,0.541809,0.0173428,-0.220678,
-0.442589,0.0384516,0.0302867,-1.7387,-0.0770609,0.0350627,0.385442,-0.144817,-0.0757765,-0.161667,-0.161145,0.672832,0.159201,-0.240609,0,0,0,0,0,0,0,-0.440895,0.0411438,0.0319775,-1.73402,-0.0975727,1.60009,1.1798,-0.29614,-0.018767,-0.297897,-0.121907,0.53319,0.00523881,-0.134264,3.45508,-36.6924,3.41279,26.5543,1.43615,2.75475,-0.183914,-0.729546,-0.42666,-2.94205,1.34637,0.571122,-0.241513,-0.176354,1.25287,-0.276015,-1.10487,0.528599,0.0679317,-0.221876,
-0.443134,0.038148,0.0296733,-1.73934,-0.0745068,0.0357343,0.384489,-0.136353,-0.0759028,-0.153355,-0.158319,0.638527,0.167908,-0.238475,0,0,0,0,0,0,0,-0.440895,0.0411438,0.0319775,-1.73402,-0.0975727,1.60009,1.1798,-0.29614,-0.018767,-0.297897,-0.121907,0.53319,0.00523881,-0.134264,3.45508,-36.6924,3.41279,26.5543,1.43615,2.75475,-0.183914,-0.729546,-0.42666,-2.94205,1.34637,0.571122,-0.241513,-0.176354,1.25287,-0.276015,-1.10487,0.528599,0.0679317,-0.221876,
-0.44365,0.0378431,0.0290894,-1.73996,-0.0720919,0.0364233,0.383542,-0.128831,-0.0762199,-0.145979,-0.155606,0.603726,0.172254,-0.236532,0,0,0,0,0,0,0,-0.440895,0.0411438,0.0319775,-1.73402,-0.0975727,1.60009,1.1798,-0.29614,-0.018767,-0.297897,-0.121907,0.53319,0.00523881,-0.134264,3.45508,-36.6924,3.41279,26.5543,1.43615,2.75475,-0.183914,-1.9478,-1.06375,-2.67775,1.59262,-0.271646,-0.845223,-0.780141,0.875825,-0.870446,-1.01422,0.409503,0.043326,-0.223314,
-0.444138,0.0375363,0.0285314,-1.74057,-0.0698142,0.0371175,0.382604,-0.122211,-0.0767092,-0.139498,-0.153199,0.569443,0.173555,-0.234598,0,0,0,0,0,0,0,-0.440895,0.0411438,0.0319775,-1.73402,-0.0975727,1.60009,1.1798,-0.29614,-0.018767,-0.297897,-0.121907,0.53319,0.00523881,-0.134264,3.45508,-36.6924,3.41279,26.5543,1.43615,2.75475,-0.183914,-2.21725,-0.940884,-2.82198,1.5727,-0.404558,-0.852202,-0.789641,0.848386,-0.873753,-1.0647,0.44077,0.0492628,-0.225409,
-0.444604,0.0372271,0.0279958,-1.74118,-0.0676664,0.0378092,0.381673,-0.116467,-0.0773069,-0.133892,-0.151172,0.536946,0.172913,-0.232658,0,0,0,0,0,0,0,-0.449219,0.0405552,0.0229757,-1.73783,-0.0802698,1.60063,1.17536,-0.245095,-0.0152891,-0.258894,-0.111158,0.495891,0.0106065,-0.144822,3.30432,-37.1407,3.13905,26.6296,0.831906,2.6751,-0.291031,-2.21725,-0.940884,-2.82198,1.5727,-0.404558,-0.852202,-0.789641,0.848386,-0.873753,-1.0647,0.44077,0.0492628,-0.225409,
-0.441982,0.0381532,0.0309038,-1.73865,-0.0758705,0.0387705,0.3852,-0.158714,-0.0910971,-0.176771,-0.171444,0.951221,0.2483,-0.268865,0,0,0,0,0,0,0,-0.449219,0.0405552,0.0229757,-1.73783,-0.0802698,1.60063,1.17536,-0.245095,-0.0152891,-0.258894,-0.111158,0.495891,0.0106065,-0.144822,3.30432,-37.1407,3.13905,26.6296,0.831906,2.6751,-0.291031,-2.48183,-0.912288,-2.81487,1.51709,-0.558326,-0.894101,-0.832917,0.771566,-0.915148,-1.06767,0.394201,0.0428831,-0.230219,
-0.457206,0.0369962,0.0141525,-1.74589,-0.0494203,0.0392675,0.377866,-0.121069,-0.0850735,-0.139488,-0.153466,0.67556,0.210771,-0.239926,0,0,0,0,0,0,0,-0.449219,0.0405552,0.0229757,-1.73783,-0.0802698,1.60063,1.17536,-0.245095,-0.0152891,-0.258894,-0.111158,0.495891,0.0106065,-0.144822,3.30432,-37.1407,3.13905,26.6296,0.831906,2.6751,-0.291031,-2.48183,-0.912288,-2.81487,1.51709,-0.558326,-0.894101,-0.832917,0.771566,-0.915148,-1.06767,0.394201,0.0428831,-0.230219,
-0.457673,0.0366551,0.0136129,-1.74649,-0.0466806,0.040079,0.376915,-0.116727,-0.0852789,-0.134909,-0.15018,0.684903,0.20288,-0.237764,0,0,0,0,0,0,0,-0.449219,0.0405552,0.0229757,-1.73783,-0.0802698,1.60063,1.17536,-0.245095,-0.0152891,-0.258894,-0.111158,0.495891,0.0106065,-0.144822,3.30432,-37.1407,3.13905,26.6296,0.831906,2.6751,-0.291031,-2.32346,0.263689,-2.78539,0.784828,-0.446016,-0.244325,-0.175809,0.677961,-0.286963,-1.09352,0.387721,0.0132055,-0.238355,
-0.458121,0.0363119,0.0130929,-1.74708,-0.0439524,0.0408498,0.375972,-0.111975,-0.0858141,-0.130002,-0.147518,0.682054,0.1927,-0.235683,0,0,0,0,0,0,0,-0.449219,0.0405552,0.0229757,-1.73783,-0.0802698,1.60063,1.17536,-0.245095,-0.0152891,-0.258894,-0.111158,0.495891,0.0106065,-0.144822,3.30432,-37.1407,3.13905,26.6296,0.831906,2.6751,-0.291031,-2.12248,1.26049,-2.24075,0.0863954,-0.59994,0.310834,0.388352,0.319429,0.248939,-0.867801,0.435337,0.0310217,-0.245637,
-0.458549,0.0359658,0.0125927,-1.74766,-0.0412718,0.0415733,0.375037,-0.107103,-0.0865178,-0.125043,-0.145314,0.670167,0.180865,-0.233667,0,0,0,0,0,0,0,-0.449219,0.0405552,0.0229757,-1.73783,-0.0802698,1.60063,1.17536,-0.245095,-0.0152891,-0.258894,-0.111158,0.495891,0.0106065,-0.144822,3.30432,-37.1407,3.13905,26.6296,0.831906,2.6751,-0.291031,-2.12248,1.26049,-2.24075,0.0863954,-0.59994,0.310834,0.388352,0.319429,0.248939,-0.867801,0.435337,0.0310217,-0.245637,
-0.458959,0.0356166,0.0121118,-1.74823,-0.0386648,0.0422458,0.37411,-0.10232,-0.0872939,-0.120219,-0.143515,0.651737,0.168134,-0.231702,0,0,0,0,0,0,0,-0.456544,0.0400631,0.0152478,-1.74119,-0.0667215,1.60136,1.17155,-0.209521,-0.019913,-0.24313,-0.109135,0.442114,0.0313244,-0.0908729,2.89569,-37.1684,2.66298,26.7288,1.28326,2.65496,-0.291031,-2.07861,0.183403,-1.97151,0.66731,-0.708954,-0.226514,-0.150223,0.30789,-0.276653,-0.722349,0.401578,0.0654763,-0.256093,
-0.45935,0.0352643,0.0116492,-1.7488,-0.0361496,0.0428675,0.373191,-0.0977666,-0.0880769,-0.115659,-0.142131,0.628808,0.15541,-0.229778,0,0,0,0,0,0,0,-0.456544,0.0400631,0.0152478,-1.74119,-0.0667215,1.60136,1.17155,-0.209521,-0.019913,-0.24313,-0.109135,0.442114,0.0313244,-0.0908729,2.89569,-37.1684,2.66298,26.7288,1.28326,2.65496,-0.291031,-2.07861,0.183403,-1.97151,0.66731,-0.708954,-0.226514,-0.150223,0.30789,-0.276653,-0.722349,0.401578,0.0654763,-0.256093,
-0.456848,0.0364972,0.0144968,-1.74633,-0.0421269,0.0434618,0.376765,-0.105946,-0.0982102,-0.124491,-0.157482,0.908093,0.308138,-0.261143,0,0,0,0,0,0,0,-0.456544,0.0400631,0.0152478,-1.74119,-0.0667215,1.60136,1.17155,-0.209521,-0.019913,-0.24313,-0.109135,0.442114,0.0313244,-0.0908729,2.89569,-37.1684,2.66298,26.7288,1.28326,2.65496,-0.291031,-2.14316,-1.10573,-2.21096,1.50226,-0.646702,-0.896136,-0.828202,0.564715,-0.924314,-0.796464,0.374058,0.0794515,-0.268158,
-0.46307,0.0362687,0.00789898,-1.7489,-0.0378142,0.0381675,0.374311,-0.0835251,-0.0918692,-0.101357,-0.150664,0.548792,0.168226,-0.235688,0,0,0,0,0,0,0,-0.456544,0.0400631,0.0152478,-1.74119,-0.0667215,1.60136,1.17155,-0.209521,-0.019913,-0.24313,-0.109135,0.442114,0.0313244,-0.0908729,2.89569,-37.1684,2.66298,26.7288,1.28326,2.65496,-0.291031,-2.14316,-1.10573,-2.21096,1.50226,-0.646702,-0.896136,-0.828202,0.564715,-0.924314,-0.796464,0.374058,0.0794515,-0.268158,
-0.46338,0.035901,0.00751759,-1.74949,-0.0357163,0.0388412,0.373376,-0.0775435,-0.0919041,-0.0953482,-0.147894,0.524458,0.16844,-0.233667,0,0,0,0,0,0,0,-0.456544,0.0400631,0.0152478,-1.74119,-0.0667215,1.60136,1.17155,-0.209521,-0.019913,-0.24313,-0.109135,0.442114,0.0313244,-0.0908729,2.89569,-37.1684,2.66298,26.7288,1.28326,2.65496,-0.291031,-2.54122,-1.66688,-2.67782,1.94267,-0.644893,-1.2731,-1.21183,0.800118,-1.28783,-1.02083,0.337458,0.0357232,-0.278889,
-0.463667,0.0355324,0.00715887,-1.75007,-0.0337414,0.0395004,0.372449,-0.0718717,-0.0921579,-0.0896793,-0.145283,0.493744,0.164806,-0.231717,0,0,0,0,0,0,0,-0.462429,0.0393093,0.00832094,-1.7445,-0.0527378,1.60246,1.16858,-0.17581,-0.0259769,-0.193576,-0.0906676,0.447035,0.040721,-0.0828447,2.54261,-36.9939,2.31386,26.4551,1.10016,2.4096,-0.351456,-3.07933,-0.694261,-2.15414,1.27001,-1.22251,-0.913649,-0.848612,0.289944,-0.937978,-0.84589,0.381896,0.00918798,-0.290527,
-0.463934,0.035162,0.00682099,-1.75064,-0.0319065,0.0401358,0.37153,-0.0666324,-0.0926121,-0.0844692,-0.143051,0.458719,0.158834,-0.229767,0,0,0,0,0,0,0,-0.462429,0.0393093,0.00832094,-1.7445,-0.0527378,1.60246,1.16858,-0.17581,-0.0259769,-0.193576,-0.0906676,0.447035,0.040721,-0.0828447,2.54261,-36.9939,2.31386,26.4551,1.10016,2.4096,-0.351456,-3.07933,-0.694261,-2.15414,1.27001,-1.22251,-0.913649,-0.848612,0.289944,-0.937978,-0.84589,0.381896,0.00918798,-0.290527,
-0.464181,0.0347892,0.0065017,-1.75121,-0.0302205,0.0407432,0.370619,-0.0619337,-0.0931977,-0.0798217,-0.141293,0.421504,0.151868,-0.227793,0,0,0,0,0,0,0,-0.462429,0.0393093,0.00832094,-1.7445,-0.0527378,1.60246,1.16858,-0.17581,-0.0259769,-0.193576,-0.0906676,0.447035,0.040721,-0.0828447,2.54261,-36.9939,2.31386,26.4551,1.10016,2.4096,-0.351456,-2.28909,0.788938,-2.29367,0.532255,-0.769522,0.01845,0.0905199,0.351425,-0.0261246,-0.881142,0.568696,0.0355825,-0.298373,
-0.464413,0.0344138,0.00619829,-1.75177,-0.0286822,0.0413242,0.369716,-0.0578915,-0.0938342,-0.0758531,-0.140075,0.384556,0.145234,-0.225771,0,0,0,0,0,0,0,-0.462429,0.0393093,0.00832094,-1.7445,-0.0527378,1.60246,1.16858,-0.17581,-0.0259769,-0.193576,-0.0906676,0.447035,0.040721,-0.0828447,2.54261,-36.9939,2.31386,26.4551,1.10016,2.4096,-0.351456,-2.28909,0.788938,-2.29367,0.532255,-0.769522,0.01845,0.0905199,0.351425,-0.0261246,-0.881142,0.568696,0.0355825,-0.298373,
-0.463054,0.0356618,0.00787284,-1.74953,-0.0296743,0.0435008,0.373224,-0.0804417,-0.107422,-0.0987927,-0.15761,0.836624,0.293694,-0.256558,0,0,0,0,0,0,0,-0.462429,0.0393093,0.00832094,-1.7445,-0.0527378,1.60246,1.16858,-0.17581,-0.0259769,-0.193576,-0.0906676,0.447035,0.040721,-0.0828447,2.54261,-36.9939,2.31386,26.4551,1.10016,2.4096,-0.351456,-2.15251,0.237783,-2.69803,0.944856,-0.487511,-0.224512,-0.156597,0.667176,-0.261152,-1.04399,0.536024,0.0291224,-0.301673,
