PerkyPenguin/Analysis-on-Approximated-Derivatives/Code_and_Data/PaperData/Real_Robot/Scene_2/set_interval/17/trajectory.csv
Commanded Joint 0 Position,Commanded Joint 1 Position,Commanded Joint 2 Position,Commanded Joint 3 Position,Commanded Joint 4 Position,Commanded Joint 5 Position,Commanded Joint 6 Position,Commanded Joint 0 Velocity,Commanded Joint 1 Velocity,Commanded Joint 2 Velocity,Commanded Joint 3 Velocity,Commanded Joint 4 Velocity,Commanded Joint 5 Velocity,Commanded Joint 6 Velocity,Commanded Joint 0 Torque,Commanded Joint 1 Torque,Commanded Joint 2 Torque,Commanded Joint 3 Torque,Commanded Joint 4 Torque,Commanded Joint 5 Torque,Commanded Joint 6 Torque,Actual Joint 0 Position,Actual Joint 1 Position,Actual Joint 2 Position,Actual Joint 3 Position,Actual Joint 4 Position,Actual Joint 5 Position,Actual Joint 6 Position,Actual Joint 0 Velocity,Actual Joint 1 Velocity,Actual Joint 2 Velocity,Actual Joint 3 Velocity,Actual Joint 4 Velocity,Actual Joint 5 Velocity,Actual Joint 6 Velocity,Actual Joint 0 Torque,Actual Joint 1 Torque,Actual Joint 2 Torque,Actual Joint 3 Torque,Actual Joint 4 Torque,Actual Joint 5 Torque,Actual Joint 6 Torque,EE ext force 0,EE ext force 1,EE ext force 2,EE ext force 3,EE ext force 4,EE ext force 5,joint ext torque 0,joint ext torque 1,joint ext torque 2,joint ext torque 3,joint ext torque 4,joint ext torque 5,joint ext torque 6,
0.0219423,-0.0518796,0.511923,-1.56266,0.0395353,-0.0144651,0.531819,0.0110231,0.0307288,0.0151798,-0.144224,-0.0741162,0.200254,-0.00129076,0,0,0,0,0,0,0,0.0218623,-0.0520164,0.511816,-1.56122,0.0400929,1.55436,1.31724,-0.00152511,0.00182491,-2.35903e-05,-0.000615088,0.0179433,0.00120157,0.000956545,0.233646,-27.5835,-0.812364,27.0264,0.855709,3.07244,0.0779268,2.21621,1.92876,2.13602,-0.980143,1.20383,0.17243,0.215542,0.473814,0.147958,0.208254,0.144528,-0.305422,0.0967624,
0.022,-0.0516753,0.512001,-1.56328,0.0391687,-0.0136291,0.531814,0.0144218,0.0510822,0.0193201,-0.154971,-0.0916573,0.209013,-0.00137338,0,0,0,0,0,0,0,0.0218623,-0.0520164,0.511816,-1.56122,0.0400929,1.55436,1.31724,-0.00152511,0.00182491,-2.35903e-05,-0.000615088,0.0179433,0.00120157,0.000956545,0.233646,-27.5835,-0.812364,27.0264,0.855709,3.07244,0.0779268,2.12058,1.91692,2.1359,-0.95275,1.13962,0.192934,0.233698,0.440863,0.169623,0.220241,0.164764,-0.302935,0.0984804,
0.0218624,-0.0519939,0.511817,-1.56122,0.0402462,-0.0164319,0.531843,0.000212735,0.00105474,0.000261201,-0.000271262,0.00632192,0.000186927,9.50864e-06,0,0,0,0,0,0,0,0.0218623,-0.0520164,0.511816,-1.56122,0.0400929,1.55436,1.31724,-0.00152511,0.00182491,-2.35903e-05,-0.000615088,0.0179433,0.00120157,0.000956545,0.233646,-27.5835,-0.812364,27.0264,0.855709,3.07244,0.0779268,2.12058,1.91692,2.1359,-0.95275,1.13962,0.192934,0.233698,0.440863,0.169623,0.220241,0.164764,-0.302935,0.0984804,
0.0218634,-0.0519905,0.511818,-1.56123,0.0402662,-0.0164316,0.531843,0.000259749,0.000856578,0.000320775,-0.000269517,0.00498588,7.30291e-05,3.95271e-06,0,0,0,0,0,0,0,0.0218623,-0.0520164,0.511816,-1.56122,0.0400929,1.55436,1.31724,-0.00152511,0.00182491,-2.35903e-05,-0.000615088,0.0179433,0.00120157,0.000956545,0.233646,-27.5835,-0.812364,27.0264,0.855709,3.07244,0.0779268,2.29701,1.78225,2.33438,-0.812105,1.16078,0.0805777,0.123791,0.401392,0.0500981,0.312015,0.13783,-0.275187,0.0987228,
0.0218645,-0.0519878,0.51182,-1.56123,0.040282,-0.0164317,0.531843,0.000279939,0.000686149,0.000350085,-0.000257244,0.00395699,-2.80191e-05,5.47594e-07,0,0,0,0,0,0,0,0.0218623,-0.0520164,0.511816,-1.56122,0.0400929,1.55436,1.31724,-0.00152511,0.00182491,-2.35903e-05,-0.000615088,0.0179433,0.00120157,0.000956545,0.233646,-27.5835,-0.812364,27.0264,0.855709,3.07244,0.0779268,2.29701,1.78225,2.33438,-0.812105,1.16078,0.0805777,0.123791,0.401392,0.0500981,0.312015,0.13783,-0.275187,0.0987228,
0.0218657,-0.0519856,0.511821,-1.56123,0.0402946,-0.0164322,0.531843,0.000282795,0.000540555,0.000359604,-0.000237923,0.00315775,-0.000114936,-1.49669e-06,0,0,0,0,0,0,0,0.021872,-0.0520746,0.511815,-1.56139,0.0400122,1.55452,1.31724,0.000502621,-0.00841733,0.00144796,-0.0298671,0.00406846,0.027988,0.000806552,0.182071,-26.6829,-0.685411,24.7095,0.960079,3.00011,0.0779268,1.1277,1.25544,1.70472,-0.569691,0.542403,0.171061,0.206792,0.170732,0.144468,0.18092,0.146525,-0.301753,0.0970056,
0.0218668,-0.0519839,0.511822,-1.56123,0.0403047,-0.016433,0.531843,0.000274744,0.00041655,0.000356465,-0.000214644,0.00253158,-0.000187427,-2.64959e-06,0,0,0,0,0,0,0,0.021872,-0.0520746,0.511815,-1.56139,0.0400122,1.55452,1.31724,0.000502621,-0.00841733,0.00144796,-0.0298671,0.00406846,0.027988,0.000806552,0.182071,-26.6829,-0.685411,24.7095,0.960079,3.00011,0.0779268,1.1277,1.25544,1.70472,-0.569691,0.542403,0.171061,0.206792,0.170732,0.144468,0.18092,0.146525,-0.301753,0.0970056,
0.0218678,-0.0519827,0.511824,-1.56123,0.0403129,-0.0164339,0.531843,0.000260159,0.000311083,0.000345545,-0.000189676,0.00203684,-0.00024618,-3.21659e-06,0,0,0,0,0,0,0,0.021872,-0.0520746,0.511815,-1.56139,0.0400122,1.55452,1.31724,0.000502621,-0.00841733,0.00144796,-0.0298671,0.00406846,0.027988,0.000806552,0.182071,-26.6829,-0.685411,24.7095,0.960079,3.00011,0.0779268,0.736781,1.54502,1.10665,-0.884327,0.454543,0.411431,0.438153,0.217615,0.404347,0.0190779,0.178365,-0.262439,0.0979491,
0.0218688,-0.0519818,0.511825,-1.56123,0.0403195,-0.0164351,0.531843,0.000241993,0.000221443,0.000330155,-0.000164553,0.00164262,-0.000292507,-3.40327e-06,0,0,0,0,0,0,0,0.021872,-0.0520746,0.511815,-1.56139,0.0400122,1.55452,1.31724,0.000502621,-0.00841733,0.00144796,-0.0298671,0.00406846,0.027988,0.000806552,0.182071,-26.6829,-0.685411,24.7095,0.960079,3.00011,0.0779268,2.20375,2.1751,0.95997,-1.40701,1.56716,0.283184,0.312371,0.848423,0.289307,-0.164193,0.140689,-0.224001,0.0981825,
0.0218696,-0.0519812,0.511826,-1.56123,0.0403248,-0.0164364,0.531843,0.000222219,0.000145267,0.000312521,-0.000140251,0.00132587,-0.000328012,-3.34936e-06,0,0,0,0,0,0,0,0.021872,-0.0520746,0.511815,-1.56139,0.0400122,1.55452,1.31724,0.000502621,-0.00841733,0.00144796,-0.0298671,0.00406846,0.027988,0.000806552,0.182071,-26.6829,-0.685411,24.7095,0.960079,3.00011,0.0779268,2.20375,2.1751,0.95997,-1.40701,1.56716,0.283184,0.312371,0.848423,0.289307,-0.164193,0.140689,-0.224001,0.0981825,
0.0218705,-0.0519809,0.511828,-1.56123,0.040329,-0.0164378,0.531842,0.000202124,8.05213e-05,0.000294113,-0.000117355,0.0010693,-0.000354374,-3.14965e-06,0,0,0,0,0,0,0,0.0218637,-0.0520859,0.511805,-1.56181,0.0399194,1.55517,1.31724,0.0022027,0.00047202,-1.61909e-05,-0.000808322,-0.0124329,0.000845372,0.00099687,0.209842,-27.6311,-0.661608,27.3279,1.44256,3.35168,0.0779268,2.50728,1.9815,1.42408,-1.12996,1.58457,0.108919,0.130066,0.759852,0.112134,0.0324306,0.139467,-0.182102,0.0985575,
0.0218712,-0.0519808,0.511829,-1.56123,0.0403325,-0.0164393,0.531842,0.000182528,2.54656e-05,0.000275876,-9.61769e-05,0.000859838,-0.000373195,-2.86792e-06,0,0,0,0,0,0,0,0.0218637,-0.0520859,0.511805,-1.56181,0.0399194,1.55517,1.31724,0.0022027,0.00047202,-1.61909e-05,-0.000808322,-0.0124329,0.000845372,0.00099687,0.209842,-27.6311,-0.661608,27.3279,1.44256,3.35168,0.0779268,2.50728,1.9815,1.42408,-1.12996,1.58457,0.108919,0.130066,0.759852,0.112134,0.0324306,0.139467,-0.182102,0.0985575,
0.0218718,-0.0519809,0.51183,-1.56123,0.0403352,-0.0164409,0.531842,0.000163923,-2.13824e-05,0.000258393,-7.68504e-05,0.000687569,-0.000385935,-2.54649e-06,0,0,0,0,0,0,0,0.0218637,-0.0520859,0.511805,-1.56181,0.0399194,1.55517,1.31724,0.0022027,0.00047202,-1.61909e-05,-0.000808322,-0.0124329,0.000845372,0.00099687,0.209842,-27.6311,-0.661608,27.3279,1.44256,3.35168,0.0779268,2.72003,2.11427,1.39079,-1.24077,1.75269,0.108906,0.106896,0.857969,0.137534,-0.00285689,0.135929,-0.178889,0.0979024,
0.0218724,-0.0519811,0.511831,-1.56123,0.0403374,-0.0164425,0.531842,0.000146584,-6.12818e-05,0.000242005,-5.93892e-05,0.000544898,-0.00039387,-2.21288e-06,0,0,0,0,0,0,0,0.0218637,-0.0520859,0.511805,-1.56181,0.0399194,1.55517,1.31724,0.0022027,0.00047202,-1.61909e-05,-0.000808322,-0.0124329,0.000845372,0.00099687,0.209842,-27.6311,-0.661608,27.3279,1.44256,3.35168,0.0779268,2.72003,2.11427,1.39079,-1.24077,1.75269,0.108906,0.106896,0.857969,0.137534,-0.00285689,0.135929,-0.178889,0.0979024,
0.021873,-0.0519815,0.511832,-1.56123,0.0403391,-0.016444,0.531842,0.000130638,-9.52994e-05,0.000226882,-4.37337e-05,0.000425976,-0.000398089,-1.88441e-06,0,0,0,0,0,0,0,0.0218637,-0.0520859,0.511805,-1.56181,0.0399194,1.55517,1.31724,0.0022027,0.00047202,-1.61909e-05,-0.000808322,-0.0124329,0.000845372,0.00099687,0.209842,-27.6311,-0.661608,27.3279,1.44256,3.35168,0.0779268,2.02388,1.94748,1.41789,-1.13975,1.23983,0.228653,0.222707,0.575861,0.258761,0.0445031,0.122075,-0.215321,0.0978413,
0.0218734,-0.051982,0.511832,-1.56123,0.0403404,-0.0164456,0.531842,0.000116116,-0.000124338,0.000213087,-2.97798e-05,0.00032626,-0.000399501,-1.57153e-06,0,0,0,0,0,0,0,0.0218637,-0.0520859,0.511805,-1.56181,0.0399194,1.55517,1.31724,0.0022027,0.00047202,-1.61909e-05,-0.000808322,-0.0124329,0.000845372,0.00099687,0.209842,-27.6311,-0.661608,27.3279,1.44256,3.35168,0.0779268,2.02388,1.94748,1.41789,-1.13975,1.23983,0.228653,0.222707,0.575861,0.258761,0.0445031,0.122075,-0.215321,0.0978413,
0.0218738,-0.0519826,0.511833,-1.56123,0.0403414,-0.0164472,0.531842,0.000102987,-0.00014916,0.000200614,-1.74002e-05,0.000242197,-0.000398847,-1.28003e-06,0,0,0,0,0,0,0,0.0218741,-0.0520766,0.511812,-1.56175,0.0399219,1.5552,1.31723,0.00248353,-0.00192136,-8.10964e-05,-0.00465316,-0.00846145,-0.0035215,-0.000629615,0.106693,-27.6827,-0.76079,26.8042,1.31988,3.15941,0.104477,1.7214,1.60961,1.81585,-0.771581,0.85285,0.16152,0.155627,0.283999,0.178879,0.254216,0.133881,-0.199277,0.0970439,
0.0218742,-0.0519833,0.511834,-1.56123,0.0403421,-0.0164488,0.531842,9.11845e-05,-0.00017041,0.00018941,-6.45717e-06,0.000170983,-0.000396726,-1.01262e-06,0,0,0,0,0,0,0,0.0218741,-0.0520766,0.511812,-1.56175,0.0399219,1.5552,1.31723,0.00248353,-0.00192136,-8.10964e-05,-0.00465316,-0.00846145,-0.0035215,-0.000629615,0.106693,-27.6827,-0.76079,26.8042,1.31988,3.15941,0.104477,2.40137,1.79477,1.55415,-0.980353,1.46651,0.0534678,0.0398886,0.674184,0.0854642,0.0786105,0.127675,-0.203062,0.0972202,
0.0218745,-0.051984,0.511835,-1.56123,0.0403425,-0.0164504,0.531842,8.06184e-05,-0.000188632,0.000179398,3.18799e-06,0.000110391,-0.000393612,-7.70023e-07,0,0,0,0,0,0,0,0.0218741,-0.0520766,0.511812,-1.56175,0.0399219,1.5552,1.31723,0.00248353,-0.00192136,-8.10964e-05,-0.00465316,-0.00846145,-0.0035215,-0.000629615,0.106693,-27.6827,-0.76079,26.8042,1.31988,3.15941,0.104477,2.40137,1.79477,1.55415,-0.980353,1.46651,0.0534678,0.0398886,0.674184,0.0854642,0.0786105,0.127675,-0.203062,0.0972202,
0.0218748,-0.0519849,0.511835,-1.56123,0.0403427,-0.016452,0.531842,7.11907e-05,-0.000204284,0.000170489,1.16697e-05,5.86378e-05,-0.000389872,-5.51733e-07,0,0,0,0,0,0,0,0.0218741,-0.0520766,0.511812,-1.56175,0.0399219,1.5552,1.31723,0.00248353,-0.00192136,-8.10964e-05,-0.00465316,-0.00846145,-0.0035215,-0.000629615,0.106693,-27.6827,-0.76079,26.8042,1.31988,3.15941,0.104477,1.96547,1.83561,1.55035,-1.00813,1.15176,0.194713,0.174568,0.504781,0.233643,0.107531,0.139419,-0.212665,0.0974707,
0.0218751,-0.0519857,0.511836,-1.56123,0.0403428,-0.0164535,0.531842,6.28e-05,-0.000217755,0.000162586,1.91149e-05,1.42822e-05,-0.000385788,-3.56492e-07,0,0,0,0,0,0,0,0.0218741,-0.0520766,0.511812,-1.56175,0.0399219,1.5552,1.31723,0.00248353,-0.00192136,-8.10964e-05,-0.00465316,-0.00846145,-0.0035215,-0.000629615,0.106693,-27.6827,-0.76079,26.8042,1.31988,3.15941,0.104477,1.96547,1.83561,1.55035,-1.00813,1.15176,0.194713,0.174568,0.504781,0.233643,0.107531,0.139419,-0.212665,0.0974707,
0.0218753,-0.0519866,0.511837,-1.56123,0.0403427,-0.016455,0.531842,5.53469e-05,-0.000229371,0.000155595,2.56407e-05,-2.38468e-05,-0.000381573,-1.82642e-07,0,0,0,0,0,0,0,0.0218375,-0.0520827,0.511792,-1.56177,0.0400269,1.5552,1.31724,-0.00392719,-1.10483e-05,-0.00370403,0.000148663,0.0123233,0.00202171,0.000225322,0.539127,-27.6311,-0.510851,26.951,0.471188,3.07976,0.0907442,1.58397,1.87507,1.73196,-0.97969,0.802222,0.320356,0.303875,0.281473,0.353814,0.212085,0.157378,-0.211723,0.0982583,
0.0218755,-0.0519876,0.511837,-1.56123,0.0403425,-0.0164565,0.531842,4.87366e-05,-0.00023941,0.000149424,3.13544e-05,-5.67084e-05,-0.000377382,-2.83437e-08,0,0,0,0,0,0,0,0.0218375,-0.0520827,0.511792,-1.56177,0.0400269,1.5552,1.31724,-0.00392719,-1.10483e-05,-0.00370403,0.000148663,0.0123233,0.00202171,0.000225322,0.539127,-27.6311,-0.510851,26.951,0.471188,3.07976,0.0907442,1.58397,1.87507,1.73196,-0.97969,0.802222,0.320356,0.303875,0.281473,0.353814,0.212085,0.157378,-0.211723,0.0982583,
0.0218756,-0.0519886,0.511838,-1.56123,0.0403421,-0.016458,0.531842,4.28804e-05,-0.000248106,0.000143988,3.63528e-05,-8.50935e-05,-0.000373323,1.08278e-07,0,0,0,0,0,0,0,0.0218375,-0.0520827,0.511792,-1.56177,0.0400269,1.5552,1.31724,-0.00392719,-1.10483e-05,-0.00370403,0.000148663,0.0123233,0.00202171,0.000225322,0.539127,-27.6311,-0.510851,26.951,0.471188,3.07976,0.0907442,1.81637,1.9146,1.47657,-1.10568,1.07917,0.272894,0.272118,0.483952,0.296934,0.0696656,0.127587,-0.233535,0.0978544,
0.0218758,-0.0519896,0.511838,-1.56123,0.0403417,-0.0164595,0.531842,3.76969e-05,-0.000255655,0.000139207,4.07228e-05,-0.000109658,-0.000369472,2.29047e-07,0,0,0,0,0,0,0,0.0218375,-0.0520827,0.511792,-1.56177,0.0400269,1.5552,1.31724,-0.00392719,-1.10483e-05,-0.00370403,0.000148663,0.0123233,0.00202171,0.000225322,0.539127,-27.6311,-0.510851,26.951,0.471188,3.07976,0.0907442,1.54046,1.74114,1.29904,-0.995255,0.954516,0.274718,0.293469,0.450639,0.277492,0.0326849,0.153251,-0.236796,0.0964301,
0.0218759,-0.0519907,0.511839,-1.56123,0.0403412,-0.016461,0.531842,3.31118e-05,-0.000262227,0.000135008,4.45417e-05,-0.00013095,-0.000365875,3.35687e-07,0,0,0,0,0,0,0,0.0218375,-0.0520827,0.511792,-1.56177,0.0400269,1.5552,1.31724,-0.00392719,-1.10483e-05,-0.00370403,0.000148663,0.0123233,0.00202171,0.000225322,0.539127,-27.6311,-0.510851,26.951,0.471188,3.07976,0.0907442,1.54046,1.74114,1.29904,-0.995255,0.954516,0.274718,0.293469,0.450639,0.277492,0.0326849,0.153251,-0.236796,0.0964301,
0.021876,-0.0519917,0.511839,-1.56123,0.0403406,-0.0164624,0.531842,2.90579e-05,-0.000267963,0.000131325,4.78783e-05,-0.000149429,-0.000362561,4.29788e-07,0,0,0,0,0,0,0,0.0218226,-0.052107,0.511788,-1.56178,0.0399695,1.55519,1.31724,3.66495e-05,0.000376387,0.00132078,-0.00777219,0.0232786,0.00116434,0.00117119,0.158268,-27.4565,-0.736986,27.3279,0.715634,3.17223,0.0641939,1.52538,1.73978,1.6636,-0.877251,0.786916,0.278122,0.298827,0.285508,0.273182,0.203272,0.170512,-0.205796,0.0974079,
0.022076,-0.0522304,0.512033,-1.561,-0.0156035,-0.0518253,0.531686,-0.00518114,0.00092679,-0.00515062,-0.00229487,-0.334061,-0.213309,-0.000696112,0,0,0,0,0,0,0,0.0218226,-0.052107,0.511788,-1.56178,0.0399695,1.55519,1.31724,3.66495e-05,0.000376387,0.00132078,-0.00777219,0.0232786,0.00116434,0.00117119,0.158268,-27.4565,-0.736986,27.3279,0.715634,3.17223,0.0641939,1.52538,1.73978,1.6636,-0.877251,0.786916,0.278122,0.298827,0.285508,0.273182,0.203272,0.170512,-0.205796,0.0974079,
0.0220686,-0.0523065,0.512053,-1.56165,-0.00546337,-0.0452954,0.531758,-0.00441548,0.000224599,-0.00430941,-0.00210191,-0.256252,-0.170702,-0.000340602,0,0,0,0,0,0,0,0.0218226,-0.052107,0.511788,-1.56178,0.0399695,1.55519,1.31724,3.66495e-05,0.000376387,0.00132078,-0.00777219,0.0232786,0.00116434,0.00117119,0.158268,-27.4565,-0.736986,27.3279,0.715634,3.17223,0.0641939,2.09546,1.94936,1.54553,-1.10096,1.26125,0.21139,0.216952,0.572864,0.22855,0.077584,0.138002,-0.223654,0.097269,
0.0220507,-0.0523055,0.512035,-1.56166,-0.00647313,-0.0459696,0.531756,-0.00447789,0.000236834,-0.00437397,-0.00211537,-0.25244,-0.168545,-0.000338853,0,0,0,0,0,0,0,0.0218226,-0.052107,0.511788,-1.56178,0.0399695,1.55519,1.31724,3.66495e-05,0.000376387,0.00132078,-0.00777219,0.0232786,0.00116434,0.00117119,0.158268,-27.4565,-0.736986,27.3279,0.715634,3.17223,0.0641939,2.09546,1.94936,1.54553,-1.10096,1.26125,0.21139,0.216952,0.572864,0.22855,0.077584,0.138002,-0.223654,0.097269,
0.0220325,-0.0523046,0.512017,-1.56167,-0.00746667,-0.0466345,0.531755,-0.00454116,0.000242935,-0.00443913,-0.00213505,-0.248386,-0.166228,-0.00033816,0,0,0,0,0,0,0,0.0218226,-0.052107,0.511788,-1.56178,0.0399695,1.55519,1.31724,3.66495e-05,0.000376387,0.00132078,-0.00777219,0.0232786,0.00116434,0.00117119,0.158268,-27.4565,-0.736986,27.3279,0.715634,3.17223,0.0641939,2.17543,2.09874,1.42099,-1.22442,1.38324,0.257423,0.244181,0.669345,0.296312,0.0137009,0.163054,-0.226445,0.0966636,
0.0220141,-0.0523036,0.511999,-1.56167,-0.0084429,-0.0472894,0.531754,-0.00460709,0.000243375,-0.00450668,-0.00216296,-0.244056,-0.163723,-0.00033855,0,0,0,0,0,0,0,0.0218226,-0.052107,0.511788,-1.56178,0.0399695,1.55519,1.31724,3.66495e-05,0.000376387,0.00132078,-0.00777219,0.0232786,0.00116434,0.00117119,0.158268,-27.4565,-0.736986,27.3279,0.715634,3.17223,0.0641939,2.17239,2.27622,1.63654,-1.33535,1.30839,0.334546,0.305941,0.596269,0.390795,0.0659239,0.145243,-0.248727,0.099535,
0.0219954,-0.0523026,0.511981,-1.56168,-0.00940053,-0.0479334,0.531752,-0.00467782,0.00023865,-0.00457868,-0.00220152,-0.239409,-0.160993,-0.000340233,0,0,0,0,0,0,0,0.02191,-0.0521377,0.511849,-1.56169,0.0381388,1.55511,1.31724,0.00147139,-0.000548517,0.00710527,0.000402636,-0.154672,-0.00491006,0.000701927,-0.655026,-27.3811,-1.43523,26.3043,0.0747645,2.70165,0.0641939,2.17239,2.27622,1.63654,-1.33535,1.30839,0.334546,0.305941,0.596269,0.390795,0.0659239,0.145243,-0.248727,0.099535,
0.0219764,-0.0523017,0.511963,-1.56169,-0.0103381,-0.0485653,0.531751,-0.00475592,0.000229308,-0.00465764,-0.00225354,-0.234396,-0.157996,-0.000343138,0,0,0,0,0,0,0,0.02191,-0.0521377,0.511849,-1.56169,0.0381388,1.55511,1.31724,0.00147139,-0.000548517,0.00710527,0.000402636,-0.154672,-0.00491006,0.000701927,-0.655026,-27.3811,-1.43523,26.3043,0.0747645,2.70165,0.0641939,1.6805,2.32563,1.54732,-1.53192,1.01317,0.492577,0.445572,0.468303,0.575457,-0.030107,0.0505626,-0.356096,0.0981028,
0.021957,-0.0523009,0.511944,-1.5617,-0.0112539,-0.0491841,0.53175,-0.00484453,0.000215944,-0.0047466,-0.00232242,-0.228954,-0.154681,-0.000347318,0,0,0,0,0,0,0,0.02191,-0.0521377,0.511849,-1.56169,0.0381388,1.55511,1.31724,0.00147139,-0.000548517,0.00710527,0.000402636,-0.154672,-0.00491006,0.000701927,-0.655026,-27.3811,-1.43523,26.3043,0.0747645,2.70165,0.0641939,1.6805,2.32563,1.54732,-1.53192,1.01317,0.492577,0.445572,0.468303,0.575457,-0.030107,0.0505626,-0.356096,0.0981028,
0.0219372,-0.0523001,0.511924,-1.56171,-0.012146,-0.049788,0.531748,-0.00494758,0.000199234,-0.00484941,-0.0024122,-0.223009,-0.150985,-0.000352686,0,0,0,0,0,0,0,0.02191,-0.0521377,0.511849,-1.56169,0.0381388,1.55511,1.31724,0.00147139,-0.000548517,0.00710527,0.000402636,-0.154672,-0.00491006,0.000701927,-0.655026,-27.3811,-1.43523,26.3043,0.0747645,2.70165,0.0641939,1.4245,2.1636,1.69083,-1.43268,0.745892,0.486611,0.427294,0.284978,0.579102,0.0429049,-0.00794641,-0.368587,0.0988928,
0.0219169,-0.0522993,0.511904,-1.56172,-0.0130118,-0.0503753,0.531747,-0.00507009,0.000179945,-0.00497093,-0.00252768,-0.216468,-0.146835,-0.00035921,0,0,0,0,0,0,0,0.02191,-0.0521377,0.511849,-1.56169,0.0381388,1.55511,1.31724,0.00147139,-0.000548517,0.00710527,0.000402636,-0.154672,-0.00491006,0.000701927,-0.655026,-27.3811,-1.43523,26.3043,0.0747645,2.70165,0.0641939,1.4245,2.1636,1.69083,-1.43268,0.745892,0.486611,0.427294,0.284978,0.579102,0.0429049,-0.00794641,-0.368587,0.0988928,
0.021896,-0.0522987,0.511884,-1.56173,-0.0138487,-0.0509439,0.531745,-0.00521845,0.000158951,-0.00511741,-0.00267457,-0.209212,-0.142141,-0.000366598,0,0,0,0,0,0,0,0.0220075,-0.0521345,0.51188,-1.56174,0.0322679,1.55446,1.31723,0.003492,0.000935451,0.001846,-0.00464655,-0.209291,-0.0359545,0.000467508,-0.627255,-27.4843,-1.41142,27.3001,0.562741,2.92687,0.0907442,1.89487,1.87889,2.22922,-1.14759,0.847959,0.219639,0.170447,0.226432,0.293037,0.22719,-0.0854376,-0.355337,0.10054,
0.0218744,-0.0522982,0.511863,-1.56174,-0.0146531,-0.0514911,0.531744,-0.005401,0.000137248,-0.00529695,-0.00285969,-0.201095,-0.136796,-0.000374377,0,0,0,0,0,0,0,0.0220075,-0.0521345,0.51188,-1.56174,0.0322679,1.55446,1.31723,0.003492,0.000935451,0.001846,-0.00464655,-0.209291,-0.0359545,0.000467508,-0.627255,-27.4843,-1.41142,27.3001,0.562741,2.92687,0.0907442,2.2065,2.01252,2.30294,-1.29358,1.0782,0.191901,0.142347,0.355119,0.270767,0.168498,-0.127774,-0.406776,0.0990371,
0.0218519,-0.0522977,0.511841,-1.56176,-0.0154208,-0.0520138,0.531742,-0.00562863,0.000115931,-0.00552023,-0.00309112,-0.19193,-0.130675,-0.000381569,0,0,0,0,0,0,0,0.0220075,-0.0521345,0.51188,-1.56174,0.0322679,1.55446,1.31723,0.003492,0.000935451,0.001846,-0.00464655,-0.209291,-0.0359545,0.000467508,-0.627255,-27.4843,-1.41142,27.3001,0.562741,2.92687,0.0907442,2.2065,2.01252,2.30294,-1.29358,1.0782,0.191901,0.142347,0.355119,0.270767,0.168498,-0.127774,-0.406776,0.0990371,
0.0218283,-0.0522973,0.511817,-1.56177,-0.0161467,-0.0525083,0.531741,-0.00591578,9.61211e-05,-0.00580131,-0.00337851,-0.181475,-0.123626,-0.000386917,0,0,0,0,0,0,0,0.0220075,-0.0521345,0.51188,-1.56174,0.0322679,1.55446,1.31723,0.003492,0.000935451,0.001846,-0.00464655,-0.209291,-0.0359545,0.000467508,-0.627255,-27.4843,-1.41142,27.3001,0.562741,2.92687,0.0907442,2.46507,1.82638,2.29451,-1.2631,1.31522,0.0316927,-0.0219012,0.506611,0.116044,0.0604655,-0.202448,-0.494969,0.0979626,
0.0218031,-0.052297,0.511793,-1.56178,-0.0168244,-0.0529702,0.531739,-0.00628173,7.87287e-05,-0.00615907,-0.00373375,-0.16942,-0.115471,-0.000387829,0,0,0,0,0,0,0,0.0220075,-0.0521345,0.51188,-1.56174,0.0322679,1.55446,1.31723,0.003492,0.000935451,0.001846,-0.00464655,-0.209291,-0.0359545,0.000467508,-0.627255,-27.4843,-1.41142,27.3001,0.562741,2.92687,0.0907442,2.46507,1.82638,2.29451,-1.2631,1.31522,0.0316927,-0.0219012,0.506611,0.116044,0.0604655,-0.202448,-0.494969,0.0979626,
0.0217761,-0.0522967,0.511766,-1.5618,-0.0174458,-0.0533942,0.531738,-0.00675266,6.36661e-05,-0.00661909,-0.00417256,-0.155359,-0.105995,-0.000379496,0,0,0,0,0,0,0,0.0220075,-0.0521345,0.51188,-1.56174,0.0322679,1.55446,1.31723,0.003492,0.000935451,0.001846,-0.00464655,-0.209291,-0.0359545,0.000467508,-0.627255,-27.4843,-1.41142,27.3001,0.562741,2.92687,0.0907442,2.44582,1.61752,2.4452,-1.11812,1.26068,-0.0579255,-0.101026,0.457088,0.0125549,0.0888281,-0.23678,-0.534528,0.0962235,
0.0217467,-0.0522965,0.511737,-1.56182,-0.0180008,-0.0537739,0.531736,-0.00736523,4.72983e-05,-0.00721724,-0.0047198,-0.138749,-0.094933,-0.00035105,0,0,0,0,0,0,0,0.0220098,-0.0521413,0.511867,-1.56172,0.0268848,1.5537,1.31723,0.00383728,0.000355103,-0.000838949,-0.000944187,-0.163747,-0.0190201,-0.00107075,-0.147213,-27.4327,-1.13768,26.8796,0.776974,2.89391,0.11821,2.46119,1.6061,2.46394,-1.10807,1.29389,-0.0666301,-0.0867833,0.485669,-0.0183237,0.0687185,-0.226138,-0.560842,0.0957838,
0.021714,-0.0522965,0.511705,-1.56184,-0.0184762,-0.0541016,0.531735,-0.00817405,1.40474e-05,-0.00800676,-0.005427,-0.118839,-0.0819169,-0.000278705,0,0,0,0,0,0,0,0.0220098,-0.0521413,0.511867,-1.56172,0.0268848,1.5537,1.31723,0.00383728,0.000355103,-0.000838949,-0.000944187,-0.163747,-0.0190201,-0.00107075,-0.147213,-27.4327,-1.13768,26.8796,0.776974,2.89391,0.11821,2.46119,1.6061,2.46394,-1.10807,1.29389,-0.0666301,-0.0867833,0.485669,-0.0183237,0.0687185,-0.226138,-0.560842,0.0957838,
0.0216769,-0.0522969,0.511669,-1.56187,-0.0188542,-0.0543668,0.531735,-0.00927013,-9.17915e-05,-0.00907704,-0.0064316,-0.0945091,-0.0663196,-0.000150214,0,0,0,0,0,0,0,0.0220098,-0.0521413,0.511867,-1.56172,0.0268848,1.5537,1.31723,0.00383728,0.000355103,-0.000838949,-0.000944187,-0.163747,-0.0190201,-0.00107075,-0.147213,-27.4327,-1.13768,26.8796,0.776974,2.89391,0.11821,2.63594,1.71793,2.451,-1.21933,1.45407,-0.0659172,-0.0631761,0.589903,-0.0358162,0.0104473,-0.236071,-0.592981,0.096306,
0.0216389,-0.0522944,0.511631,-1.56189,-0.0191598,-0.0545858,0.531734,-0.00948971,0.000603091,-0.0093834,-0.00580352,-0.0764012,-0.0547524,-5.57458e-05,0,0,0,0,0,0,0,0.0220098,-0.0521413,0.511867,-1.56172,0.0268848,1.5537,1.31723,0.00383728,0.000355103,-0.000838949,-0.000944187,-0.163747,-0.0190201,-0.00107075,-0.147213,-27.4327,-1.13768,26.8796,0.776974,2.89391,0.11821,2.63594,1.71793,2.451,-1.21933,1.45407,-0.0659172,-0.0631761,0.589903,-0.0358162,0.0104473,-0.236071,-0.592981,0.096306,
0.0216017,-0.0522891,0.511594,-1.56191,-0.0194095,-0.0547677,0.531734,-0.00931595,0.00134261,-0.0092725,-0.00488361,-0.0624216,-0.0454546,-1.68565e-05,0,0,0,0,0,0,0,0.0220098,-0.0521413,0.511867,-1.56172,0.0268848,1.5537,1.31723,0.00383728,0.000355103,-0.000838949,-0.000944187,-0.163747,-0.0190201,-0.00107075,-0.147213,-27.4327,-1.13768,26.8796,0.776974,2.89391,0.11821,2.49656,1.85813,2.47296,-1.2666,1.3732,0.0391506,0.0594663,0.55592,0.0524207,0.0251139,-0.173443,-0.593994,0.096125,
0.0215659,-0.0522813,0.511559,-1.56193,-0.0196151,-0.0549187,0.531734,-0.00893361,0.00194037,-0.00893241,-0.00402086,-0.0514042,-0.037752,-3.13146e-06,0,0,0,0,0,0,0,0.0219216,-0.0521421,0.511808,-1.56171,0.0220356,1.55347,1.31723,-0.000110213,0.000665815,0.000208743,0.000425914,-0.150539,-0.00534506,-0.00134034,0.182071,-27.4565,-0.736986,26.8042,0.764157,3.00011,0.124619,2.66375,1.77406,2.46259,-1.16484,1.48878,-0.0457214,-0.020476,0.614355,-0.0408261,0.0421481,-0.14696,-0.560786,0.0960361,
0.0215322,-0.0522718,0.511525,-1.56194,-0.0197855,-0.0550439,0.531734,-0.00843884,0.00237244,-0.00846525,-0.00328342,-0.0425976,-0.0313083,-8.747e-07,0,0,0,0,0,0,0,0.0219216,-0.0521421,0.511808,-1.56171,0.0220356,1.55347,1.31723,-0.000110213,0.000665815,0.000208743,0.000425914,-0.150539,-0.00534506,-0.00134034,0.182071,-27.4565,-0.736986,26.8042,0.764157,3.00011,0.124619,2.66375,1.77406,2.46259,-1.16484,1.48878,-0.0457214,-0.020476,0.614355,-0.0408261,0.0421481,-0.14696,-0.560786,0.0960361,
0.0215006,-0.0522612,0.511493,-1.56195,-0.0199274,-0.0551475,0.531734,-0.00788854,0.00265778,-0.00793248,-0.00266576,-0.0354768,-0.0259039,-4.30991e-06,0,0,0,0,0,0,0,0.0219216,-0.0521421,0.511808,-1.56171,0.0220356,1.55347,1.31723,-0.000110213,0.000665815,0.000208743,0.000425914,-0.150539,-0.00534506,-0.00134034,0.182071,-27.4565,-0.736986,26.8042,0.764157,3.00011,0.124619,2.49939,1.97413,2.43711,-1.27142,1.38767,0.0929648,0.125535,0.568995,0.092737,0.0539134,-0.0957373,-0.546509,0.0960133,
0.0214713,-0.0522499,0.511464,-1.56196,-0.020046,-0.055233,0.531734,-0.00731851,0.00282344,-0.00737317,-0.00214744,-0.0296593,-0.0213695,-1.06809e-05,0,0,0,0,0,0,0,0.0219216,-0.0521421,0.511808,-1.56171,0.0220356,1.55347,1.31723,-0.000110213,0.000665815,0.000208743,0.000425914,-0.150539,-0.00534506,-0.00134034,0.182071,-27.4565,-0.736986,26.8042,0.764157,3.00011,0.124619,2.49939,1.97413,2.43711,-1.27142,1.38767,0.0929648,0.125535,0.568995,0.092737,0.0539134,-0.0957373,-0.546509,0.0960133,
0.0165367,-0.0487313,0.50617,-1.56363,-0.244298,-0.286866,0.529701,-0.0370955,0.0178143,-0.0389233,-0.00782991,-0.727218,-0.749568,-0.00404705,0,0,0,0,0,0,0,0.0219216,-0.0521421,0.511808,-1.56171,0.0220356,1.55347,1.31723,-0.000110213,0.000665815,0.000208743,0.000425914,-0.150539,-0.00534506,-0.00134034,0.182071,-27.4565,-0.736986,26.8042,0.764157,3.00011,0.124619,2.14283,2.24558,2.50252,-1.36112,1.13177,0.319815,0.359752,0.431943,0.312466,0.118922,0.0114307,-0.528477,0.0966446,
0.0204447,-0.050711,0.510228,-1.56205,-0.14251,-0.193386,0.530279,-0.0316542,0.0210849,-0.0326949,-0.0206067,-1.20962,-1.05011,-0.00731143,0,0,0,0,0,0,0,0.0219216,-0.0521421,0.511808,-1.56171,0.0220356,1.55347,1.31723,-0.000110213,0.000665815,0.000208743,0.000425914,-0.150539,-0.00534506,-0.00134034,0.182071,-27.4565,-0.736986,26.8042,0.764157,3.00011,0.124619,2.14283,2.24558,2.50252,-1.36112,1.13177,0.319815,0.359752,0.431943,0.312466,0.118922,0.0114307,-0.528477,0.0966446,
0.0200989,-0.0511796,0.509885,-1.56179,-0.111122,-0.147836,0.531014,-0.0265636,0.0139873,-0.0272278,-0.0117265,-0.649774,-0.775474,-0.00291953,0,0,0,0,0,0,0,0.0216555,-0.0521392,0.511709,-1.56176,0.0166204,1.55328,1.31723,-0.00666847,0.000199552,-0.00451459,0.000741345,-0.123693,-0.000488301,-0.000396245,0.209842,-27.5081,-0.93535,27.2009,0.93536,2.7813,0.11821,2.6087,2.13634,2.55229,-1.23871,1.45367,0.139202,0.188496,0.597131,0.118583,0.122018,0.0277864,-0.504822,0.0970398,
0.0199929,-0.0511247,0.509776,-1.56184,-0.113678,-0.150919,0.531002,-0.0264877,0.0137165,-0.0271618,-0.0115417,-0.638855,-0.770806,-0.00284631,0,0,0,0,0,0,0,0.0216555,-0.0521392,0.511709,-1.56176,0.0166204,1.55328,1.31723,-0.00666847,0.000199552,-0.00451459,0.000741345,-0.123693,-0.000488301,-0.000396245,0.209842,-27.5081,-0.93535,27.2009,0.93536,2.7813,0.11821,2.97802,3.56994,3.22267,-1.98216,1.45273,0.685766,0.745839,0.480464,0.668884,0.393354,0.175015,-0.389188,0.10255,
0.0198873,-0.0510711,0.509668,-1.56188,-0.116187,-0.153982,0.530991,-0.0264209,0.0134115,-0.0271044,-0.0113736,-0.627437,-0.765699,-0.00277605,0,0,0,0,0,0,0,0.0216555,-0.0521392,0.511709,-1.56176,0.0166204,1.55328,1.31723,-0.00666847,0.000199552,-0.00451459,0.000741345,-0.123693,-0.000488301,-0.000396245,0.209842,-27.5081,-0.93535,27.2009,0.93536,2.7813,0.11821,2.97802,3.56994,3.22267,-1.98216,1.45273,0.685766,0.745839,0.480464,0.668884,0.393354,0.175015,-0.389188,0.10255,
0.0197818,-0.0510188,0.509559,-1.56193,-0.118649,-0.157022,0.530981,-0.0263669,0.0130718,-0.0270595,-0.0112275,-0.615427,-0.760037,-0.00270923,0,0,0,0,0,0,0,0.0216555,-0.0521392,0.511709,-1.56176,0.0166204,1.55328,1.31723,-0.00666847,0.000199552,-0.00451459,0.000741345,-0.123693,-0.000488301,-0.000396245,0.209842,-27.5081,-0.93535,27.2009,0.93536,2.7813,0.11821,4.75918,5.62386,3.41102,-3.38033,2.61193,1.11152,1.15232,1.06237,1.14919,0.362558,0.215318,-0.23108,0.107223,
0.0196765,-0.050968,0.509451,-1.56197,-0.12106,-0.160037,0.53097,-0.0263303,0.0126965,-0.0270315,-0.0111097,-0.602715,-0.753683,-0.00264701,0,0,0,0,0,0,0,0.0216555,-0.0521392,0.511709,-1.56176,0.0166204,1.55328,1.31723,-0.00666847,0.000199552,-0.00451459,0.000741345,-0.123693,-0.000488301,-0.000396245,0.209842,-27.5081,-0.93535,27.2009,0.93536,2.7813,0.11821,4.75918,5.62386,3.41102,-3.38033,2.61193,1.11152,1.15232,1.06237,1.14919,0.362558,0.215318,-0.23108,0.107223,
0.0195712,-0.0509188,0.509343,-1.56202,-0.123417,-0.163023,0.53096,-0.0263164,0.0122844,-0.0270255,-0.0110279,-0.589173,-0.746471,-0.0025901,0,0,0,0,0,0,0,0.0220594,-0.0521385,0.511913,-1.5607,-0.00158444,1.54066,1.31722,0.0134776,0.00426058,0.000181395,0.0382609,-0.658406,-0.550708,-0.00158886,-1.28582,-27.4089,-2.01048,25.6339,-0.11475,1.76049,0.11821,3.33771,4.17875,3.39149,-2.65666,1.47434,0.837055,0.827134,0.391037,0.911043,0.427604,-0.133716,-0.355659,0.104185,
0.0194659,-0.0508715,0.509235,-1.56206,-0.125715,-0.165975,0.530949,-0.0263309,0.0118339,-0.0270474,-0.0109909,-0.574658,-0.738203,-0.00253887,0,0,0,0,0,0,0,0.0220594,-0.0521385,0.511913,-1.5607,-0.00158444,1.54066,1.31722,0.0134776,0.00426058,0.000181395,0.0382609,-0.658406,-0.550708,-0.00158886,-1.28582,-27.4089,-2.01048,25.6339,-0.11475,1.76049,0.11821,3.46791,3.31232,3.40786,-2.33264,1.59286,0.39321,0.3542,0.46466,0.493815,0.265126,-0.411031,-0.550114,0.100053,
0.0193604,-0.0508261,0.509127,-1.5621,-0.127951,-0.16889,0.530939,-0.0263807,0.0113433,-0.0271041,-0.0110097,-0.559002,-0.728639,-0.0024932,0,0,0,0,0,0,0,0.0220594,-0.0521385,0.511913,-1.5607,-0.00158444,1.54066,1.31722,0.0134776,0.00426058,0.000181395,0.0382609,-0.658406,-0.550708,-0.00158886,-1.28582,-27.4089,-2.01048,25.6339,-0.11475,1.76049,0.11821,3.46791,3.31232,3.40786,-2.33264,1.59286,0.39321,0.3542,0.46466,0.493815,0.265126,-0.411031,-0.550114,0.100053,
0.0192545,-0.0507829,0.509018,-1.56215,-0.130119,-0.17176,0.53093,-0.0264738,0.0108105,-0.0272031,-0.0110972,-0.542015,-0.717494,-0.00245653,0,0,0,0,0,0,0,0.0220594,-0.0521385,0.511913,-1.5607,-0.00158444,1.54066,1.31722,0.0134776,0.00426058,0.000181395,0.0382609,-0.658406,-0.550708,-0.00158886,-1.28582,-27.4089,-2.01048,25.6339,-0.11475,1.76049,0.11821,3.7684,2.51199,4.08068,-1.784,1.64372,-0.0649754,-0.12099,0.408532,0.0379594,0.347791,-0.560063,-0.730333,0.0939219,
0.019148,-0.050742,0.508908,-1.56219,-0.132213,-0.174578,0.53092,-0.0266191,0.0102336,-0.0273534,-0.0112691,-0.523478,-0.704425,-0.00242794,0,0,0,0,0,0,0,0.0220594,-0.0521385,0.511913,-1.5607,-0.00158444,1.54066,1.31722,0.0134776,0.00426058,0.000181395,0.0382609,-0.658406,-0.550708,-0.00158886,-1.28582,-27.4089,-2.01048,25.6339,-0.11475,1.76049,0.11821,3.7684,2.51199,4.08068,-1.784,1.64372,-0.0649754,-0.12099,0.408532,0.0379594,0.347791,-0.560063,-0.730333,0.0939219,
0.0190407,-0.0507035,0.508798,-1.56224,-0.134226,-0.177334,0.53091,-0.0268265,0.009611,-0.0275648,-0.0115439,-0.503147,-0.689022,-0.00241065,0,0,0,0,0,0,0,0.0220594,-0.0521385,0.511913,-1.5607,-0.00158444,1.54066,1.31722,0.0134776,0.00426058,0.000181395,0.0382609,-0.658406,-0.550708,-0.00158886,-1.28582,-27.4089,-2.01048,25.6339,-0.11475,1.76049,0.11821,2.98453,1.60173,5.01604,-1.06086,0.87502,-0.279173,-0.349487,-0.108928,-0.183254,0.566505,-0.631684,-0.981544,0.0939576,
0.0189322,-0.0506678,0.508687,-1.56229,-0.136149,-0.180017,0.530901,-0.0271072,0.00894131,-0.0278481,-0.0119438,-0.480746,-0.670797,-0.00240596,0,0,0,0,0,0,0,0.0223685,-0.0523326,0.512048,-1.5604,-0.0209115,1.52272,1.3172,0.00947384,-0.00518649,0.00521084,0.00444875,-0.596398,-0.551074,-0.00254465,-1.3374,-26.7821,-2.08586,26.2289,-0.438846,1.19012,0.14476,2.98453,1.60173,5.01604,-1.06086,0.87502,-0.279173,-0.349487,-0.108928,-0.183254,0.566505,-0.631684,-0.981544,0.0939576,
0.0188224,-0.0506349,0.508574,-1.56234,-0.137973,-0.182614,0.530891,-0.0274724,0.00822417,-0.0282149,-0.0124949,-0.455977,-0.649169,-0.00241677,0,0,0,0,0,0,0,0.0223685,-0.0523326,0.512048,-1.5604,-0.0209115,1.52272,1.3172,0.00947384,-0.00518649,0.00521084,0.00444875,-0.596398,-0.551074,-0.00254465,-1.3374,-26.7821,-2.08586,26.2289,-0.438846,1.19012,0.14476,3.58336,1.09249,4.385,-1.12512,1.81279,-0.699446,-0.77778,0.634359,-0.584329,-0.0724329,-0.768717,-1.34984,0.0916503,
0.0187106,-0.050605,0.508459,-1.56239,-0.139687,-0.185107,0.530881,-0.0279339,0.00746056,-0.0286764,-0.0132279,-0.428515,-0.623452,-0.00244677,0,0,0,0,0,0,0,0.0223685,-0.0523326,0.512048,-1.5604,-0.0209115,1.52272,1.3172,0.00947384,-0.00518649,0.00521084,0.00444875,-0.596398,-0.551074,-0.00254465,-1.3374,-26.7821,-2.08586,26.2289,-0.438846,1.19012,0.14476,3.12338,0.584774,4.07069,-1.00276,1.70674,-0.811197,-0.901346,0.682109,-0.682708,-0.326784,-0.867942,-1.55247,0.0864401,
0.0185966,-0.0505784,0.508342,-1.56245,-0.141279,-0.187479,0.530871,-0.0285022,0.00665358,-0.0292432,-0.0141787,-0.398025,-0.592838,-0.00250116,0,0,0,0,0,0,0,0.0223685,-0.0523326,0.512048,-1.5604,-0.0209115,1.52272,1.3172,0.00947384,-0.00518649,0.00521084,0.00444875,-0.596398,-0.551074,-0.00254465,-1.3374,-26.7821,-2.08586,26.2289,-0.438846,1.19012,0.14476,3.12338,0.584774,4.07069,-1.00276,1.70674,-0.811197,-0.901346,0.682109,-0.682708,-0.326784,-0.867942,-1.55247,0.0864401,
0.0184799,-0.0505552,0.508222,-1.56251,-0.142736,-0.189704,0.530861,-0.0291849,0.00580957,-0.0299228,-0.015389,-0.36418,-0.556379,-0.00258617,0,0,0,0,0,0,0,0.0223685,-0.0523326,0.512048,-1.5604,-0.0209115,1.52272,1.3172,0.00947384,-0.00518649,0.00521084,0.00444875,-0.596398,-0.551074,-0.00254465,-1.3374,-26.7821,-2.08586,26.2289,-0.438846,1.19012,0.14476,2.14267,0.958309,3.98992,-1.27365,1.17844,-0.375817,-0.460618,0.483716,-0.245253,-0.421328,-0.745347,-1.69086,0.0815882,
0.0183599,-0.0505354,0.5081,-1.56258,-0.144042,-0.191756,0.53085,-0.0299845,0.00493983,-0.0307174,-0.0169062,-0.326682,-0.512966,-0.00271208,0,0,0,0,0,0,0,0.0223703,-0.052446,0.512032,-1.5603,-0.038338,1.50582,1.31721,-0.00636609,-0.00601241,-0.0040099,0.00207507,-0.529152,-0.496877,0.000175922,-0.246395,-26.8099,-1.28844,25.983,-0.121158,1.21667,0.0706026,2.14267,0.958309,3.98992,-1.27365,1.17844,-0.375817,-0.460618,0.483716,-0.245253,-0.421328,-0.745347,-1.69086,0.0815882,
0.0182364,-0.0505191,0.507973,-1.56265,-0.145183,-0.193601,0.530838,-0.0308937,0.00406432,-0.03162,-0.0187812,-0.285308,-0.461315,-0.0028879,0,0,0,0,0,0,0,0.0223703,-0.052446,0.512032,-1.5603,-0.038338,1.50582,1.31721,-0.00636609,-0.00601241,-0.0040099,0.00207507,-0.529152,-0.496877,0.000175922,-0.246395,-26.8099,-1.28844,25.983,-0.121158,1.21667,0.0706026,3.01381,1.23237,3.64904,-1.54676,2.09685,-0.506618,-0.553136,1.11709,-0.403804,-0.75014,-0.670175,-1.79774,0.0793653,
0.0181088,-0.0505063,0.507843,-1.56274,-0.146143,-0.195201,0.530826,-0.0318878,0.00322194,-0.0326062,-0.0210547,-0.239976,-0.399971,-0.00301999,0,0,0,0,0,0,0,0.0223703,-0.052446,0.512032,-1.5603,-0.038338,1.50582,1.31721,-0.00636609,-0.00601241,-0.0040099,0.00207507,-0.529152,-0.496877,0.000175922,-0.246395,-26.8099,-1.28844,25.983,-0.121158,1.21667,0.0706026,2.61737,0.861128,4.01138,-1.12923,1.65348,-0.56956,-0.588338,0.799966,-0.508006,-0.527967,-0.632026,-1.76836,0.0778756,
0.0179772,-0.0504962,0.507708,-1.56283,-0.146907,-0.196511,0.530821,-0.0328984,0.00250404,-0.0336199,-0.0237048,-0.190878,-0.327394,-0.00139186,0,0,0,0,0,0,0,0.0223703,-0.052446,0.512032,-1.5603,-0.038338,1.50582,1.31721,-0.00636609,-0.00601241,-0.0040099,0.00207507,-0.529152,-0.496877,0.000175922,-0.246395,-26.8099,-1.28844,25.983,-0.121158,1.21667,0.0706026,2.61737,0.861128,4.01138,-1.12923,1.65348,-0.56956,-0.588338,0.799966,-0.508006,-0.527967,-0.632026,-1.76836,0.0778756,
0.0178488,-0.0504795,0.507577,-1.56292,-0.147522,-0.197597,0.530816,-0.032105,0.00418149,-0.0329259,-0.021377,-0.153825,-0.271542,-0.00124622,0,0,0,0,0,0,0,0.0223703,-0.052446,0.512032,-1.5603,-0.038338,1.50582,1.31721,-0.00636609,-0.00601241,-0.0040099,0.00207507,-0.529152,-0.496877,0.000175922,-0.246395,-26.8099,-1.28844,25.983,-0.121158,1.21667,0.0706026,2.03195,1.04262,3.91062,-1.15079,1.27618,-0.325144,-0.332155,0.617029,-0.276925,-0.470352,-0.496917,-1.71891,0.0756568,
0.0177264,-0.0504554,0.507451,-1.56299,-0.148021,-0.198502,0.530811,-0.030588,0.00603188,-0.0314793,-0.0180628,-0.124634,-0.226288,-0.00128999,0,0,0,0,0,0,0,0.0222335,-0.0525573,0.511925,-1.56034,-0.0540418,1.49092,1.31721,-0.0161341,-0.000136025,-0.00812213,-0.00057145,-0.465666,-0.445769,0.00170453,0.0313145,-27.1074,-1.0623,26.2567,0.269772,1.57464,0.0440523,2.03195,1.04262,3.91062,-1.15079,1.27618,-0.325144,-0.332155,0.617029,-0.276925,-0.470352,-0.496917,-1.71891,0.0756568,
0.0176114,-0.0504254,0.507332,-1.56305,-0.148425,-0.199258,0.530805,-0.02876,0.00749364,-0.029696,-0.0148693,-0.101096,-0.18886,-0.00136754,0,0,0,0,0,0,0,0.0222335,-0.0525573,0.511925,-1.56034,-0.0540418,1.49092,1.31721,-0.0161341,-0.000136025,-0.00812213,-0.00057145,-0.465666,-0.445769,0.00170453,0.0313145,-27.1074,-1.0623,26.2567,0.269772,1.57464,0.0440523,1.45336,1.00453,3.38252,-1.15722,1.12523,-0.185827,-0.17525,0.659505,-0.15379,-0.642112,-0.375965,-1.74695,0.073337,
0.0175041,-0.0503915,0.507221,-1.5631,-0.148752,-0.199888,0.530799,-0.0268138,0.00849098,-0.0277762,-0.0120497,-0.0818313,-0.157658,-0.00144846,0,0,0,0,0,0,0,0.0222335,-0.0525573,0.511925,-1.56034,-0.0540418,1.49092,1.31721,-0.0161341,-0.000136025,-0.00812213,-0.00057145,-0.465666,-0.445769,0.00170453,0.0313145,-27.1074,-1.0623,26.2567,0.269772,1.57464,0.0440523,0.456639,0.859662,3.47913,-0.931491,0.351275,0.0237329,0.0533069,0.213755,0.0285049,-0.470724,-0.286863,-1.71195,0.0721816,
0.0174047,-0.0503551,0.507117,-1.56313,-0.149016,-0.200414,0.530793,-0.024853,0.00907853,-0.0258294,-0.00961634,-0.065887,-0.131559,-0.00152458,0,0,0,0,0,0,0,0.0222335,-0.0525573,0.511925,-1.56034,-0.0540418,1.49092,1.31721,-0.0161341,-0.000136025,-0.00812213,-0.00057145,-0.465666,-0.445769,0.00170453,0.0313145,-27.1074,-1.0623,26.2567,0.269772,1.57464,0.0440523,0.456639,0.859662,3.47913,-0.931491,0.351275,0.0237329,0.0533069,0.213755,0.0285049,-0.470724,-0.286863,-1.71195,0.0721816,
-0.00609048,-0.03987,0.482276,-1.57554,-0.160005,-0.219054,0.518811,-0.202958,0.107921,-0.212308,-0.0980855,-1.24344,-1.32013,-0.0581116,0,0,0,0,0,0,0,0.0222335,-0.0525573,0.511925,-1.56034,-0.0540418,1.49092,1.31721,-0.0161341,-0.000136025,-0.00812213,-0.00057145,-0.465666,-0.445769,0.00170453,0.0313145,-27.1074,-1.0623,26.2567,0.269772,1.57464,0.0440523,0.809678,1.5699,4.0784,-0.996239,0.106882,0.270219,0.315358,-0.151531,0.25154,0.105446,-0.144468,-1.29635,0.0725517,
-0.000524168,-0.0445948,0.488118,-1.57117,-0.235655,-0.201638,0.52511,-0.167169,0.0568769,-0.173606,-0.0674539,-0.950698,0.0554562,-0.0213075,0,0,0,0,0,0,0,0.0222335,-0.0525573,0.511925,-1.56034,-0.0540418,1.49092,1.31721,-0.0161341,-0.000136025,-0.00812213,-0.00057145,-0.465666,-0.445769,0.00170453,0.0313145,-27.1074,-1.0623,26.2567,0.269772,1.57464,0.0440523,0.809678,1.5699,4.0784,-0.996239,0.106882,0.270219,0.315358,-0.151531,0.25154,0.105446,-0.144468,-1.29635,0.0725517,
-0.00120002,-0.0443739,0.487416,-1.57144,-0.239205,-0.201221,0.525028,-0.168963,0.0552302,-0.175434,-0.0662619,-0.887365,0.104073,-0.0205169,0,0,0,0,0,0,0,0.0213831,-0.0525055,0.511072,-1.56098,-0.0699405,1.47337,1.31719,-0.0324493,-0.00201694,-0.0334828,-0.0288644,-0.375194,-0.510463,-0.00445446,0.182071,-27.0082,-1.0623,26.5305,0.813595,3.00652,-0.0026396,1.32751,2.72442,4.31243,-1.3618,0.169683,0.669261,0.724873,-0.26122,0.63956,0.532169,0.126737,-0.855665,0.078351,
-0.00188269,-0.0441598,0.486707,-1.5717,-0.242478,-0.200605,0.524949,-0.170669,0.0535265,-0.177173,-0.0651058,-0.818474,0.154222,-0.019755,0,0,0,0,0,0,0,0.0213831,-0.0525055,0.511072,-1.56098,-0.0699405,1.47337,1.31719,-0.0324493,-0.00201694,-0.0334828,-0.0288644,-0.375194,-0.510463,-0.00445446,0.182071,-27.0082,-1.0623,26.5305,0.813595,3.00652,-0.0026396,1.32751,2.72442,4.31243,-1.3618,0.169683,0.669261,0.724873,-0.26122,0.63956,0.532169,0.126737,-0.855665,0.078351,
-0.00257187,-0.0439528,0.485992,-1.57195,-0.245454,-0.19978,0.524873,-0.172295,0.0517472,-0.178828,-0.0640005,-0.743804,0.206056,-0.019028,0,0,0,0,0,0,0,0.0213831,-0.0525055,0.511072,-1.56098,-0.0699405,1.47337,1.31719,-0.0324493,-0.00201694,-0.0334828,-0.0288644,-0.375194,-0.510463,-0.00445446,0.182071,-27.0082,-1.0623,26.5305,0.813595,3.00652,-0.0026396,0.269278,5.51231,3.64139,-3.02759,-0.438285,2.24434,2.31119,-0.499531,2.24132,0.618359,0.626203,-0.474773,0.08158,
-0.0032673,-0.0437533,0.48527,-1.5722,-0.248106,-0.198741,0.5248,-0.173856,0.0498749,-0.180411,-0.0629545,-0.66298,0.259714,-0.0183392,0,0,0,0,0,0,0,0.0213831,-0.0525055,0.511072,-1.56098,-0.0699405,1.47337,1.31719,-0.0324493,-0.00201694,-0.0334828,-0.0288644,-0.375194,-0.510463,-0.00445446,0.182071,-27.0082,-1.0623,26.5305,0.813595,3.00652,-0.0026396,-0.150438,5.14387,1.96835,-3.00813,-0.0356428,2.19845,2.25478,0.0436128,2.21008,0.0358378,0.785191,-0.479333,0.0738431,
-0.00396877,-0.0435617,0.484542,-1.57245,-0.250408,-0.19748,0.524729,-0.175369,0.0478944,-0.181937,-0.0619711,-0.575502,0.315302,-0.0176934,0,0,0,0,0,0,0,0.0213831,-0.0525055,0.511072,-1.56098,-0.0699405,1.47337,1.31719,-0.0324493,-0.00201694,-0.0334828,-0.0288644,-0.375194,-0.510463,-0.00445446,0.182071,-27.0082,-1.0623,26.5305,0.813595,3.00652,-0.0026396,-0.150438,5.14387,1.96835,-3.00813,-0.0356428,2.19845,2.25478,0.0436128,2.21008,0.0358378,0.785191,-0.479333,0.0738431,
-0.00467616,-0.0433785,0.483809,-1.5727,-0.252331,-0.195989,0.524661,-0.176846,0.0457941,-0.18342,-0.0610488,-0.480791,0.372877,-0.0170984,0,0,0,0,0,0,0,0.0202744,-0.0525894,0.50975,-1.56198,-0.0947042,1.45706,1.3167,-0.0377946,-0.0189523,-0.0426853,-0.0586572,-0.817074,-0.427393,-0.0122441,-2.80926,-25.1872,-3.93462,27.0541,-1.75171,4.45214,-0.0566557,0.577502,2.42078,2.41749,-1.31698,0.024966,0.80427,0.860118,-0.155624,0.777614,0.289332,0.206516,-0.461914,0.0472202,
-0.00538933,-0.0432043,0.483069,-1.57294,-0.253844,-0.194259,0.524595,-0.178292,0.0435689,-0.184863,-0.0601787,-0.378245,0.432405,-0.0165532,0,0,0,0,0,0,0,0.0202744,-0.0525894,0.50975,-1.56198,-0.0947042,1.45706,1.3167,-0.0377946,-0.0189523,-0.0426853,-0.0586572,-0.817074,-0.427393,-0.0122441,-2.80926,-25.1872,-3.93462,27.0541,-1.75171,4.45214,-0.0566557,0.577502,2.42078,2.41749,-1.31698,0.024966,0.80427,0.860118,-0.155624,0.777614,0.289332,0.206516,-0.461914,0.0472202,
-0.00610807,-0.0430394,0.482324,-1.57317,-0.254913,-0.192284,0.52453,-0.179686,0.0412245,-0.186244,-0.0593414,-0.267359,0.493693,-0.0160739,0,0,0,0,0,0,0,0.0202744,-0.0525894,0.50975,-1.56198,-0.0947042,1.45706,1.3167,-0.0377946,-0.0189523,-0.0426853,-0.0586572,-0.817074,-0.427393,-0.0122441,-2.80926,-25.1872,-3.93462,27.0541,-1.75171,4.45214,-0.0566557,4.68918,1.93603,2.24926,-1.24427,2.5794,-0.465888,-0.410089,1.03071,-0.487406,0.261576,-0.329643,-0.0741084,0.0323733,
-0.00683194,-0.0428842,0.481574,-1.57341,-0.255505,-0.190059,0.524468,-0.180967,0.0387855,-0.187505,-0.0584964,-0.147924,0.556274,-0.0156671,0,0,0,0,0,0,0,0.0202744,-0.0525894,0.50975,-1.56198,-0.0947042,1.45706,1.3167,-0.0377946,-0.0189523,-0.0426853,-0.0586572,-0.817074,-0.427393,-0.0122441,-2.80926,-25.1872,-3.93462,27.0541,-1.75171,4.45214,-0.0566557,3.38857,3.16395,2.06653,-1.91739,1.60889,0.482279,0.524457,0.497714,0.487144,0.465319,-0.090963,0.14423,0.0236803,
-0.00755993,-0.042739,0.48082,-1.57364,-0.255586,-0.187582,0.524406,-0.181997,0.0363096,-0.188506,-0.0575664,-0.0203883,0.619208,-0.0153532,0,0,0,0,0,0,0,0.0202744,-0.0525894,0.50975,-1.56198,-0.0947042,1.45706,1.3167,-0.0377946,-0.0189523,-0.0426853,-0.0586572,-0.817074,-0.427393,-0.0122441,-2.80926,-25.1872,-3.93462,27.0541,-1.75171,4.45214,-0.0566557,3.38857,3.16395,2.06653,-1.91739,1.60889,0.482279,0.524457,0.497714,0.487144,0.465319,-0.090963,0.14423,0.0236803,
-0.00828993,-0.0426033,0.480064,-1.57386,-0.255132,-0.184859,0.524346,-0.182502,0.0339115,-0.188979,-0.0564064,0.113521,0.680771,-0.015154,0,0,0,0,0,0,0,0.0202744,-0.0525894,0.50975,-1.56198,-0.0947042,1.45706,1.3167,-0.0377946,-0.0189523,-0.0426853,-0.0586572,-0.817074,-0.427393,-0.0122441,-2.80926,-25.1872,-3.93462,27.0541,-1.75171,4.45214,-0.0566557,3.61654,2.63146,1.59482,-1.67617,1.8338,0.21786,0.260824,0.644902,0.218788,0.372821,-0.197639,0.225965,0.0113083,
-0.00901787,-0.0424761,0.479311,-1.57408,-0.254133,-0.181907,0.524285,-0.181983,0.0317996,-0.188433,-0.0547569,0.249806,0.737977,-0.0151337,0,0,0,0,0,0,0,0.018385,-0.0531262,0.507515,-1.5645,-0.117904,1.44648,1.31651,-0.075281,-0.00461107,-0.0822371,-0.0767475,-0.554738,-0.222543,-0.00173242,-2.73388,-25.9609,-3.76006,27.5024,-1.52558,3.98156,0.0101778,3.61654,2.63146,1.59482,-1.67617,1.8338,0.21786,0.260824,0.644902,0.218788,0.372821,-0.197639,0.225965,0.0113083,
-0.00973624,-0.0423548,0.478567,-1.57429,-0.25261,-0.178764,0.524223,-0.179594,0.0303293,-0.186032,-0.0521708,0.38079,0.785954,-0.0154055,0,0,0,0,0,0,0,0.018385,-0.0531262,0.507515,-1.5645,-0.117904,1.44648,1.31651,-0.075281,-0.00461107,-0.0822371,-0.0767475,-0.554738,-0.222543,-0.00173242,-2.73388,-25.9609,-3.76006,27.5024,-1.52558,3.98156,0.0101778,4.60165,0.198883,1.75143,-0.218395,2.16502,-1.1027,-1.06,0.635828,-1.13461,0.538584,-0.739152,0.300756,0.00287575,
-0.0104322,-0.0422345,0.477845,-1.57448,-0.250636,-0.175495,0.524158,-0.174001,0.0300881,-0.180453,-0.0478789,0.493499,0.817236,-0.0162316,0,0,0,0,0,0,0,0.018385,-0.0531262,0.507515,-1.5645,-0.117904,1.44648,1.31651,-0.075281,-0.00461107,-0.0822371,-0.0767475,-0.554738,-0.222543,-0.00173242,-2.73388,-25.9609,-3.76006,27.5024,-1.52558,3.98156,0.0101778,4.60165,0.198883,1.75143,-0.218395,2.16502,-1.1027,-1.06,0.635828,-1.13461,0.538584,-0.739152,0.300756,0.00287575,
-0.0110852,-0.042106,0.477166,-1.57464,-0.248363,-0.172212,0.524086,-0.16324,0.0321061,-0.169745,-0.0403914,0.568277,0.820735,-0.018213,0,0,0,0,0,0,0,0.018385,-0.0531262,0.507515,-1.5645,-0.117904,1.44648,1.31651,-0.075281,-0.00461107,-0.0822371,-0.0767475,-0.554738,-0.222543,-0.00173242,-2.73388,-25.9609,-3.76006,27.5024,-1.52558,3.98156,0.0101778,4.20786,0.572458,1.03561,-0.628467,2.19572,-0.810715,-0.770443,0.802235,-0.825982,0.262732,-0.673263,0.280562,-0.00194786,
-0.0116629,-0.0419514,0.476562,-1.57475,-0.246054,-0.169099,0.523998,-0.144415,0.038657,-0.151013,-0.0259473,0.577173,0.778227,-0.0218297,0,0,0,0,0,0,0,0.018385,-0.0531262,0.507515,-1.5645,-0.117904,1.44648,1.31651,-0.075281,-0.00461107,-0.0822371,-0.0767475,-0.554738,-0.222543,-0.00173242,-2.73388,-25.9609,-3.76006,27.5024,-1.52558,3.98156,0.0101778,3.87336,1.19195,0.139178,-1.14467,2.41237,-0.430521,-0.389553,1.13484,-0.430637,-0.100057,-0.468674,0.258578,-0.0076292,
-0.0121129,-0.0417262,0.476086,-1.57472,-0.244145,-0.166501,0.523946,-0.11252,0.0562932,-0.118849,0.00727738,0.477186,0.649376,-0.0130516,0,0,0,0,0,0,0,0.0152036,-0.0532691,0.503735,-1.56705,-0.126036,1.44452,1.31645,-0.113735,-0.00103353,-0.144062,-0.0526847,-0.0660398,0.0254298,-0.000183442,-1.18664,-26.2584,-2.312,26.8796,0.0134241,3.17864,-0.00996382,3.87336,1.19195,0.139178,-1.14467,2.41237,-0.430521,-0.389553,1.13484,-0.430637,-0.100057,-0.468674,0.258578,-0.0076292,
-0.0124815,-0.0415014,0.475695,-1.57467,-0.242479,-0.164223,0.523893,-0.0921263,0.0562132,-0.0977437,0.0116951,0.416548,0.5695,-0.0132031,0,0,0,0,0,0,0,0.0152036,-0.0532691,0.503735,-1.56705,-0.126036,1.44452,1.31645,-0.113735,-0.00103353,-0.144062,-0.0526847,-0.0660398,0.0254298,-0.000183442,-1.18664,-26.2584,-2.312,26.8796,0.0134241,3.17864,-0.00996382,4.04452,0.00987309,-0.229104,-0.379392,2.71996,-1.01368,-0.971533,1.37957,-1.03401,-0.260637,-0.489892,0.192508,-0.0123947,
-0.0127919,-0.041296,0.475365,-1.57464,-0.240966,-0.162176,0.523839,-0.0776013,0.0513452,-0.0826879,0.00880257,0.378355,0.511751,-0.0135954,0,0,0,0,0,0,0,0.0152036,-0.0532691,0.503735,-1.56705,-0.126036,1.44452,1.31645,-0.113735,-0.00103353,-0.144062,-0.0526847,-0.0660398,0.0254298,-0.000183442,-1.18664,-26.2584,-2.312,26.8796,0.0134241,3.17864,-0.00996382,4.04452,0.00987309,-0.229104,-0.379392,2.71996,-1.01368,-0.971533,1.37957,-1.03401,-0.260637,-0.489892,0.192508,-0.0123947,
-0.0130586,-0.0411135,0.475079,-1.57462,-0.239549,-0.16031,0.523784,-0.0666762,0.0456268,-0.0713828,0.00479932,0.354249,0.466629,-0.0138392,0,0,0,0,0,0,0,0.0152036,-0.0532691,0.503735,-1.56705,-0.126036,1.44452,1.31645,-0.113735,-0.00103353,-0.144062,-0.0526847,-0.0660398,0.0254298,-0.000183442,-1.18664,-26.2584,-2.312,26.8796,0.0134241,3.17864,-0.00996382,2.60453,-0.853308,0.109282,0.463946,1.64341,-1.04434,-1.00545,0.774853,-1.09018,-0.0267559,-0.321916,0.123552,-0.0109655,
-0.0132914,-0.0409526,0.474828,-1.57461,-0.238191,-0.158589,0.523728,-0.0581988,0.0402139,-0.0626357,0.00128456,0.339424,0.430194,-0.0139942,0,0,0,0,0,0,0,0.0152036,-0.0532691,0.503735,-1.56705,-0.126036,1.44452,1.31645,-0.113735,-0.00103353,-0.144062,-0.0526847,-0.0660398,0.0254298,-0.000183442,-1.18664,-26.2584,-2.312,26.8796,0.0134241,3.17864,-0.00996382,1.44905,0.0546223,0.0156167,0.0197819,0.899281,-0.323365,-0.288926,0.417228,-0.358004,0.0595466,-0.0437689,0.186459,-0.00953658,
-0.0134973,-0.040811,0.474606,-1.57462,-0.236868,-0.156987,0.523671,-0.0514836,0.0354007,-0.055729,-0.00147462,0.330829,0.4004,-0.0140999,0,0,0,0,0,0,0,0.0152036,-0.0532691,0.503735,-1.56705,-0.126036,1.44452,1.31645,-0.113735,-0.00103353,-0.144062,-0.0526847,-0.0660398,0.0254298,-0.000183442,-1.18664,-26.2584,-2.312,26.8796,0.0134241,3.17864,-0.00996382,1.44905,0.0546223,0.0156167,0.0197819,0.899281,-0.323365,-0.288926,0.417228,-0.358004,0.0595466,-0.0437689,0.186459,-0.00953658,
-0.0136816,-0.0406862,0.474405,-1.57463,-0.235562,-0.155484,0.523614,-0.0460779,0.0312164,-0.050187,-0.00355918,0.326416,0.375924,-0.0141757,0,0,0,0,0,0,0,0.0115541,-0.0524732,0.4991,-1.56807,-0.125698,1.4471,1.31641,-0.119897,0.0444717,-0.142957,-0.0019254,-0.00297827,0.0712951,0.000349235,1.24927,-27.9326,0.314344,26.6296,0.703732,3.29857,-0.0429228,1.08863,0.771075,-0.574881,-0.49113,0.905302,0.108067,0.14362,0.546168,0.0859244,-0.122845,0.126252,0.231429,-0.00953217,
-0.0138483,-0.0405757,0.474222,-1.57465,-0.234263,-0.154061,0.523557,-0.0416651,0.0276124,-0.0456769,-0.00511223,0.324778,0.355786,-0.0142316,0,0,0,0,0,0,0,0.0115541,-0.0524732,0.4991,-1.56807,-0.125698,1.4471,1.31641,-0.119897,0.0444717,-0.142957,-0.0019254,-0.00297827,0.0712951,0.000349235,1.24927,-27.9326,0.314344,26.6296,0.703732,3.29857,-0.0429228,1.08863,0.771075,-0.574881,-0.49113,0.905302,0.108067,0.14362,0.546168,0.0859244,-0.122845,0.126252,0.231429,-0.00953217,
-0.0140003,-0.0404776,0.474054,-1.57468,-0.232963,-0.152704,0.5235,-0.0380171,0.0245209,-0.0419588,-0.00626369,0.324943,0.339209,-0.0142741,0,0,0,0,0,0,0,0.0115541,-0.0524732,0.4991,-1.56807,-0.125698,1.4471,1.31641,-0.119897,0.0444717,-0.142957,-0.0019254,-0.00297827,0.0712951,0.000349235,1.24927,-27.9326,0.314344,26.6296,0.703732,3.29857,-0.0429228,0.708792,0.939948,-0.786919,-0.553917,0.849214,0.2702,0.308702,0.616409,0.245375,-0.250239,0.296036,0.156883,-0.0105008,
-0.0293715,-0.0281644,0.457852,-1.58264,-0.236741,-0.282301,0.512957,-0.337243,0.176252,-0.352209,-0.142131,-1.22823,-1.03424,-0.0732406,0,0,0,0,0,0,0,0.0115541,-0.0524732,0.4991,-1.56807,-0.125698,1.4471,1.31641,-0.119897,0.0444717,-0.142957,-0.0019254,-0.00297827,0.0712951,0.000349235,1.24927,-27.9326,0.314344,26.6296,0.703732,3.29857,-0.0429228,0.708792,0.939948,-0.786919,-0.553917,0.849214,0.2702,0.308702,0.616409,0.245375,-0.250239,0.296036,0.156883,-0.0105008,
-0.022928,-0.0383112,0.463153,-1.57981,-0.23128,-0.177063,0.522392,-0.200581,0.0748025,-0.208251,-0.0642527,0.0895006,-0.195803,-0.0309258,0,0,0,0,0,0,0,0.0115541,-0.0524732,0.4991,-1.56807,-0.125698,1.4471,1.31641,-0.119897,0.0444717,-0.142957,-0.0019254,-0.00297827,0.0712951,0.000349235,1.24927,-27.9326,0.314344,26.6296,0.703732,3.29857,-0.0429228,-0.800551,1.50651,-0.933591,-0.979382,0.105564,0.882335,0.926322,0.376887,0.863728,-0.466339,0.489138,-0.112502,-0.00909776,
-0.0237318,-0.0380193,0.462319,-1.58007,-0.230588,-0.177745,0.522271,-0.200964,0.0729775,-0.208626,-0.0636912,0.173059,-0.170601,-0.0302454,0,0,0,0,0,0,0,0.0074398,-0.0513335,0.494713,-1.56802,-0.126535,1.45038,1.31639,-0.138523,0.0296388,-0.141608,-0.000651238,-0.0394561,0.14969,0.00119122,1.85627,-28.607,0.838026,26.2051,0.929867,2.66869,0.0101778,-0.800551,1.50651,-0.933591,-0.979382,0.105564,0.882335,0.926322,0.376887,0.863728,-0.466339,0.489138,-0.112502,-0.00909776,
-0.0245376,-0.0377353,0.461482,-1.58032,-0.229535,-0.178321,0.522153,-0.201455,0.0709936,-0.209107,-0.0631591,0.263237,-0.143838,-0.0295912,0,0,0,0,0,0,0,0.0074398,-0.0513335,0.494713,-1.56802,-0.126535,1.45038,1.31639,-0.138523,0.0296388,-0.141608,-0.000651238,-0.0394561,0.14969,0.00119122,1.85627,-28.607,0.838026,26.2051,0.929867,2.66869,0.0101778,-1.49058,3.27677,-1.15638,-2.19204,-0.171485,1.86907,1.91892,0.33333,1.87434,-0.611523,0.717396,-0.14841,-0.00872351,
-0.0253459,-0.0374599,0.460644,-1.58057,-0.228092,-0.178782,0.522037,-0.202064,0.0688417,-0.209704,-0.062675,0.360758,-0.115297,-0.0289649,0,0,0,0,0,0,0,0.0074398,-0.0513335,0.494713,-1.56802,-0.126535,1.45038,1.31639,-0.138523,0.0296388,-0.141608,-0.000651238,-0.0394561,0.14969,0.00119122,1.85627,-28.607,0.838026,26.2051,0.929867,2.66869,0.0101778,-3.65516,5.3637,-1.08202,-3.43377,-1.79396,3.40989,3.44854,-0.567749,3.45148,-0.344354,1.01896,0.00202699,-0.00971504,
-0.0261571,-0.0371939,0.459802,-1.58082,-0.226227,-0.179121,0.521924,-0.202792,0.0665148,-0.210417,-0.0622631,0.466322,-0.0847132,-0.0283788,0,0,0,0,0,0,0,0.0074398,-0.0513335,0.494713,-1.56802,-0.126535,1.45038,1.31639,-0.138523,0.0296388,-0.141608,-0.000651238,-0.0394561,0.14969,0.00119122,1.85627,-28.607,0.838026,26.2051,0.929867,2.66869,0.0101778,-3.65516,5.3637,-1.08202,-3.43377,-1.79396,3.40989,3.44854,-0.567749,3.45148,-0.344354,1.01896,0.00202699,-0.00971504,
-0.0269716,-0.0369378,0.458957,-1.58107,-0.223905,-0.179328,0.521812,-0.203623,0.0640105,-0.211234,-0.0619546,0.580521,-0.0517627,-0.0278378,0,0,0,0,0,0,0,0.0074398,-0.0513335,0.494713,-1.56802,-0.126535,1.45038,1.31639,-0.138523,0.0296388,-0.141608,-0.000651238,-0.0394561,0.14969,0.00119122,1.85627,-28.607,0.838026,26.2051,0.929867,2.66869,0.0101778,-0.693986,3.31835,-1.48815,-2.36075,0.45281,1.70754,1.74034,0.687837,1.73716,-0.753491,0.606061,-0.0903739,-0.0142791,
-0.0277838,-0.0366898,0.458114,-1.58131,-0.22115,-0.179395,0.521703,-0.203063,0.0619993,-0.210784,-0.0613999,0.68881,-0.0169177,-0.0273431,0,0,0,0,0,0,0,0.0074398,-0.0513335,0.494713,-1.56802,-0.126535,1.45038,1.31639,-0.138523,0.0296388,-0.141608,-0.000651238,-0.0394561,0.14969,0.00119122,1.85627,-28.607,0.838026,26.2051,0.929867,2.66869,0.0101778,-0.693986,3.31835,-1.48815,-2.36075,0.45281,1.70754,1.74034,0.687837,1.73716,-0.753491,0.606061,-0.0903739,-0.0142791,
-0.0285818,-0.0364459,0.457284,-1.58155,-0.218062,-0.179316,0.521595,-0.199493,0.0609723,-0.207465,-0.0605943,0.772008,0.0198936,-0.0269356,0,0,0,0,0,0,0,0.00106067,-0.0503471,0.487814,-1.56832,-0.131936,1.45062,1.316,-0.139296,0.010996,-0.180864,-0.0150532,0.0256731,0.00325809,-0.00165677,-2.1745,-27.9326,-3.08562,26.2805,0.0564539,1.78612,-0.050247,1.49686,1.16025,-0.898154,-1.03297,1.80843,0.147401,0.202431,1.31238,0.126883,-0.799395,0.18594,-0.269466,-0.0336499,
-0.0293581,-0.036206,0.456475,-1.5818,-0.214715,-0.179072,0.521488,-0.194083,0.0599952,-0.202206,-0.0604608,0.836633,0.0608483,-0.0267032,0,0,0,0,0,0,0,0.00106067,-0.0503471,0.487814,-1.56832,-0.131936,1.45062,1.316,-0.139296,0.010996,-0.180864,-0.0150532,0.0256731,0.00325809,-0.00165677,-2.1745,-27.9326,-3.08562,26.2805,0.0564539,1.78612,-0.050247,2.1559,-0.843231,-0.206629,0.395279,2.10074,-0.976045,-0.923621,1.38442,-1.03052,-0.691985,0.0028225,-0.464364,-0.0413821,
-0.0301079,-0.035971,0.455693,-1.58204,-0.211166,-0.178644,0.521382,-0.187434,0.058745,-0.195629,-0.0610959,0.887178,0.106996,-0.0266612,0,0,0,0,0,0,0,0.00106067,-0.0503471,0.487814,-1.56832,-0.131936,1.45062,1.316,-0.139296,0.010996,-0.180864,-0.0150532,0.0256731,0.00325809,-0.00165677,-2.1745,-27.9326,-3.08562,26.2805,0.0564539,1.78612,-0.050247,2.1559,-0.843231,-0.206629,0.395279,2.10074,-0.976045,-0.923621,1.38442,-1.03052,-0.691985,0.0028225,-0.464364,-0.0413821,
-0.0308274,-0.0357425,0.45494,-1.58229,-0.207459,-0.17801,0.521274,-0.179884,0.0571182,-0.188088,-0.0623628,0.926807,0.15865,-0.0268818,0,0,0,0,0,0,0,0.00106067,-0.0503471,0.487814,-1.56832,-0.131936,1.45062,1.316,-0.139296,0.010996,-0.180864,-0.0150532,0.0256731,0.00325809,-0.00165677,-2.1745,-27.9326,-3.08562,26.2805,0.0564539,1.78612,-0.050247,0.637583,-1.47576,-0.108879,0.803838,1.04666,-0.899893,-0.858141,0.836308,-0.953939,-0.643418,-0.0183323,-0.616648,-0.0456231,
-0.0315137,-0.035522,0.454222,-1.58255,-0.203628,-0.17715,0.521164,-0.17157,0.0551313,-0.179716,-0.063979,0.957691,0.214937,-0.0275346,0,0,0,0,0,0,0,0.00106067,-0.0503471,0.487814,-1.56832,-0.131936,1.45062,1.316,-0.139296,0.010996,-0.180864,-0.0150532,0.0256731,0.00325809,-0.00165677,-2.1745,-27.9326,-3.08562,26.2805,0.0564539,1.78612,-0.050247,0.637583,-1.47576,-0.108879,0.803838,1.04666,-0.899893,-0.858141,0.836308,-0.953939,-0.643418,-0.0183323,-0.616648,-0.0456231,
-0.0321633,-0.0353102,0.45354,-1.58281,-0.199704,-0.176059,0.521048,-0.162418,0.0529455,-0.170417,-0.0653912,0.981164,0.272822,-0.0289683,0,0,0,0,0,0,0,-0.00385046,-0.0499079,0.482071,-1.56868,-0.125633,1.45068,1.31596,-0.170926,0.0131272,-0.185766,-0.00976494,0.371219,0.00802961,-0.00200379,-1.08349,-27.9326,-1.96288,25.5585,0.624081,1.78612,-0.0365141,0.340704,-1.97424,-0.317817,0.987337,0.929124,-1.05695,-1.01788,0.818299,-1.10885,-0.765556,-0.140708,-0.706579,-0.0479257,
-0.0327716,-0.0351061,0.452901,-1.58307,-0.195713,-0.174756,0.520921,-0.15207,0.0510316,-0.159798,-0.0654171,0.997723,0.325714,-0.031823,0,0,0,0,0,0,0,-0.00385046,-0.0499079,0.482071,-1.56868,-0.125633,1.45068,1.31596,-0.170926,0.0131272,-0.185766,-0.00976494,0.371219,0.00802961,-0.00200379,-1.08349,-27.9326,-1.96288,25.5585,0.624081,1.78612,-0.0365141,0.330594,-2.26523,-0.457204,1.18428,1.06507,-1.19991,-1.16563,0.958913,-1.25164,-0.882703,-0.0977604,-0.784415,-0.0510719,
-0.0333305,-0.0349031,0.452313,-1.58331,-0.191685,-0.173313,0.520776,-0.139712,0.0507466,-0.146992,-0.0611208,1.00682,0.360707,-0.0363262,0,0,0,0,0,0,0,-0.00385046,-0.0499079,0.482071,-1.56868,-0.125633,1.45068,1.31596,-0.170926,0.0131272,-0.185766,-0.00976494,0.371219,0.00802961,-0.00200379,-1.08349,-27.9326,-1.96288,25.5585,0.624081,1.78612,-0.0365141,0.330594,-2.26523,-0.457204,1.18428,1.06507,-1.19991,-1.16563,0.958913,-1.25164,-0.882703,-0.0977604,-0.784415,-0.0510719,
-0.0337945,-0.0346641,0.451821,-1.58348,-0.187975,-0.171937,0.520668,-0.116019,0.0597542,-0.122953,-0.0413374,0.927589,0.343973,-0.0269364,0,0,0,0,0,0,0,-0.00385046,-0.0499079,0.482071,-1.56868,-0.125633,1.45068,1.31596,-0.170926,0.0131272,-0.185766,-0.00976494,0.371219,0.00802961,-0.00200379,-1.08349,-27.9326,-1.96288,25.5585,0.624081,1.78612,-0.0365141,-0.031106,-0.636501,-0.68678,0.149287,1.00895,-0.350999,-0.31571,1.01991,-0.380256,-0.99811,0.173822,-0.770376,-0.0526775,
-0.0341932,-0.0344276,0.451396,-1.58363,-0.184468,-0.17056,0.52056,-0.0996698,0.0591185,-0.106162,-0.0364778,0.87672,0.344197,-0.0268324,0,0,0,0,0,0,0,-0.00385046,-0.0499079,0.482071,-1.56868,-0.125633,1.45068,1.31596,-0.170926,0.0131272,-0.185766,-0.00976494,0.371219,0.00802961,-0.00200379,-1.08349,-27.9326,-1.96288,25.5585,0.624081,1.78612,-0.0365141,-0.031106,-0.636501,-0.68678,0.149287,1.00895,-0.350999,-0.31571,1.01991,-0.380256,-0.99811,0.173822,-0.770376,-0.0526775,
-0.0345432,-0.034205,0.451022,-1.58377,-0.181095,-0.169165,0.520452,-0.0875019,0.0556476,-0.093674,-0.0354652,0.84319,0.348979,-0.0271532,0,0,0,0,0,0,0,-0.00968764,-0.0497621,0.475913,-1.56897,-0.112167,1.4515,1.31593,-0.190206,0.00373246,-0.206008,-0.00509945,0.476981,0.0411876,-0.00480019,0.689884,-27.6073,-0.16173,25.011,0.953671,2.41692,-0.0429228,0.374309,-0.167432,-1.47823,-0.300854,1.65045,-0.219083,-0.182825,1.52341,-0.234162,-1.34362,0.242723,-0.756755,-0.0540395,
-0.0348556,-0.033999,0.450685,-1.58391,-0.177811,-0.167746,0.520342,-0.0780825,0.0514982,-0.0840311,-0.0351346,0.821039,0.354581,-0.0273881,0,0,0,0,0,0,0,-0.00968764,-0.0497621,0.475913,-1.56897,-0.112167,1.4515,1.31593,-0.190206,0.00373246,-0.206008,-0.00509945,0.476981,0.0411876,-0.00480019,0.689884,-27.6073,-0.16173,25.011,0.953671,2.41692,-0.0429228,-0.929282,-0.690294,-1.75616,0.0803115,0.818323,-0.14507,-0.11481,1.12701,-0.164847,-1.32262,0.295968,-0.77027,-0.0538424,
-0.035138,-0.0338096,0.45038,-1.58405,-0.174585,-0.166307,0.520232,-0.0706105,0.0473633,-0.0764053,-0.0346909,0.806608,0.359929,-0.0275538,0,0,0,0,0,0,0,-0.00968764,-0.0497621,0.475913,-1.56897,-0.112167,1.4515,1.31593,-0.190206,0.00373246,-0.206008,-0.00509945,0.476981,0.0411876,-0.00480019,0.689884,-27.6073,-0.16173,25.011,0.953671,2.41692,-0.0429228,-0.929282,-0.690294,-1.75616,0.0803115,0.818323,-0.14507,-0.11481,1.12701,-0.164847,-1.32262,0.295968,-0.77027,-0.0538424,
-0.0353963,-0.0336357,0.450099,-1.58418,-0.171395,-0.164847,0.520121,-0.0645761,0.0434659,-0.0702663,-0.0340165,0.797473,0.364759,-0.0276757,0,0,0,0,0,0,0,-0.00968764,-0.0497621,0.475913,-1.56897,-0.112167,1.4515,1.31593,-0.190206,0.00373246,-0.206008,-0.00509945,0.476981,0.0411876,-0.00480019,0.689884,-27.6073,-0.16173,25.011,0.953671,2.41692,-0.0429228,-2.05918,-1.37912,-1.09209,0.798035,-0.289211,-0.20776,-0.181874,0.401968,-0.247862,-0.919676,0.347843,-0.752393,-0.0508394,
-0.0356348,-0.0334762,0.449838,-1.58432,-0.168227,-0.163371,0.52001,-0.059629,0.0398724,-0.0652491,-0.033163,0.791968,0.369047,-0.0277681,0,0,0,0,0,0,0,-0.00968764,-0.0497621,0.475913,-1.56897,-0.112167,1.4515,1.31593,-0.190206,0.00373246,-0.206008,-0.00509945,0.476981,0.0411876,-0.00480019,0.689884,-27.6073,-0.16173,25.011,0.953671,2.41692,-0.0429228,-2.05918,-1.37912,-1.09209,0.798035,-0.289211,-0.20776,-0.181874,0.401968,-0.247862,-0.919676,0.347843,-0.752393,-0.0508394,
-0.0358569,-0.0333298,0.449593,-1.58444,-0.165071,-0.16188,0.519899,-0.0555186,0.0365942,-0.0610926,-0.032206,0.788925,0.372832,-0.0278398,0,0,0,0,0,0,0,-0.00968764,-0.0497621,0.475913,-1.56897,-0.112167,1.4515,1.31593,-0.190206,0.00373246,-0.206008,-0.00509945,0.476981,0.0411876,-0.00480019,0.689884,-27.6073,-0.16173,25.011,0.953671,2.41692,-0.0429228,-2.35349,-1.26558,-1.10674,0.727327,-0.53234,-0.0809098,-0.0592474,0.25679,-0.11546,-0.870018,0.348268,-0.717792,-0.0497928,
-0.0360651,-0.0331953,0.449363,-1.58457,-0.161921,-0.160375,0.519787,-0.0520616,0.0336217,-0.0576061,-0.0312082,0.787527,0.376164,-0.0278964,0,0,0,0,0,0,0,-0.0149135,-0.0489249,0.469684,-1.56898,-0.098335,1.45413,1.3159,-0.150951,0.026822,-0.177448,0.00455107,0.37833,0.082694,-0.0002747,1.85627,-28.2579,1.13954,25.1855,0.813595,2.62841,-0.0227812,-2.35349,-1.26558,-1.10674,0.727327,-0.53234,-0.0809098,-0.0592474,0.25679,-0.11546,-0.870018,0.348268,-0.717792,-0.0497928,
-0.0362616,-0.0330716,0.449144,-1.58469,-0.158773,-0.158859,0.519676,-0.0491221,0.0309371,-0.0546485,-0.0302146,0.787198,0.379091,-0.0279418,0,0,0,0,0,0,0,-0.0149135,-0.0489249,0.469684,-1.56898,-0.098335,1.45413,1.3159,-0.150951,0.026822,-0.177448,0.00455107,0.37833,0.082694,-0.0002747,1.85627,-28.2579,1.13954,25.1855,0.813595,2.62841,-0.0227812,-1.27851,-0.717833,-1.82939,0.17559,0.477714,-0.0625683,-0.0453554,0.903091,-0.0742733,-1.18372,0.313587,-0.634808,-0.0486444,
-0.0413301,-0.0313064,0.444107,-1.59168,-0.297524,-0.298316,0.510947,-0.310853,0.137054,-0.322845,-0.147218,-1.19896,-0.751843,-0.0832742,0,0,0,0,0,0,0,-0.0149135,-0.0489249,0.469684,-1.56898,-0.098335,1.45413,1.3159,-0.150951,0.026822,-0.177448,0.00455107,0.37833,0.082694,-0.0002747,1.85627,-28.2579,1.13954,25.1855,0.813595,2.62841,-0.0227812,-0.655383,0.51683,-1.67342,-0.507463,0.687999,0.39877,0.412188,0.90038,0.40337,-0.956612,0.420744,-0.358131,-0.046465,
-0.0434366,-0.0423173,0.439926,-1.58316,-0.198959,-0.0921662,0.520042,-0.152812,0.0272078,-0.159279,-0.0798738,-0.372561,0.651513,-0.0448308,0,0,0,0,0,0,0,-0.0149135,-0.0489249,0.469684,-1.56898,-0.098335,1.45413,1.3159,-0.150951,0.026822,-0.177448,0.00455107,0.37833,0.082694,-0.0002747,1.85627,-28.2579,1.13954,25.1855,0.813595,2.62841,-0.0227812,-0.655383,0.51683,-1.67342,-0.507463,0.687999,0.39877,0.412188,0.90038,0.40337,-0.956612,0.420744,-0.358131,-0.046465,
-0.044047,-0.0422116,0.43929,-1.58348,-0.200312,-0.0893979,0.519865,-0.152597,0.0264154,-0.15906,-0.0798786,-0.338162,0.692067,-0.0441771,0,0,0,0,0,0,0,-0.0149135,-0.0489249,0.469684,-1.56898,-0.098335,1.45413,1.3159,-0.150951,0.026822,-0.177448,0.00455107,0.37833,0.082694,-0.0002747,1.85627,-28.2579,1.13954,25.1855,0.813595,2.62841,-0.0227812,-0.53645,2.38203,-1.49614,-1.50886,0.521439,1.2839,1.30033,0.685967,1.30196,-0.640431,0.673593,-0.0214846,-0.0464453,
-0.0446568,-0.0421091,0.438655,-1.5838,-0.201516,-0.0864592,0.519691,-0.152446,0.0256159,-0.158901,-0.0799341,-0.300991,0.73469,-0.0435517,0,0,0,0,0,0,0,-0.0200893,-0.0483464,0.464137,-1.56912,-0.0871876,1.45538,1.31583,-0.169057,0.0172441,-0.173135,-0.00455624,0.263305,-0.0336679,-0.00932739,0.66608,-27.8056,-0.237108,24.8602,-0.182499,2.60186,-0.0566557,-0.53645,2.38203,-1.49614,-1.50886,0.521439,1.2839,1.30033,0.685967,1.30196,-0.640431,0.673593,-0.0214846,-0.0464453,
-0.0452663,-0.0420099,0.438019,-1.58412,-0.202558,-0.0833415,0.519519,-0.15237,0.0248057,-0.158814,-0.0800388,-0.26057,0.779425,-0.0429587,0,0,0,0,0,0,0,-0.0200893,-0.0483464,0.464137,-1.56912,-0.0871876,1.45538,1.31583,-0.169057,0.0172441,-0.173135,-0.00455624,0.263305,-0.0336679,-0.00932739,0.66608,-27.8056,-0.237108,24.8602,-0.182499,2.60186,-0.0566557,-1.2305,4.36905,-1.59907,-2.75695,0.00551961,2.40484,2.42693,0.38813,2.44373,-0.536943,0.90366,0.139863,-0.0439686,
-0.0458751,-0.0419124,0.437385,-1.58443,-0.203425,-0.0800597,0.51935,-0.152204,0.0243698,-0.158627,-0.0790019,-0.216696,0.820436,-0.0424156,0,0,0,0,0,0,0,-0.0200893,-0.0483464,0.464137,-1.56912,-0.0871876,1.45538,1.31583,-0.169057,0.0172441,-0.173135,-0.00455624,0.263305,-0.0336679,-0.00932739,0.66608,-27.8056,-0.237108,24.8602,-0.182499,2.60186,-0.0566557,-1.2305,4.36905,-1.59907,-2.75695,0.00551961,2.40484,2.42693,0.38813,2.44373,-0.536943,0.90366,0.139863,-0.0439686,
-0.0464826,-0.0418152,0.436752,-1.58474,-0.2041,-0.0766493,0.519182,-0.151885,0.024309,-0.158278,-0.076368,-0.168811,0.852607,-0.0419366,0,0,0,0,0,0,0,-0.0200893,-0.0483464,0.464137,-1.56912,-0.0871876,1.45538,1.31583,-0.169057,0.0172441,-0.173135,-0.00455624,0.263305,-0.0336679,-0.00932739,0.66608,-27.8056,-0.237108,24.8602,-0.182499,2.60186,-0.0566557,-0.871538,0.0572219,-2.39022,-0.234717,0.665409,0.267414,0.274226,0.951473,0.271559,-1.03192,0.409263,-0.197108,-0.0624102,
-0.0470891,-0.0417191,0.43612,-1.58503,-0.204563,-0.073135,0.519016,-0.151612,0.024015,-0.157978,-0.0734496,-0.115719,0.878567,-0.0415239,0,0,0,0,0,0,0,-0.0200893,-0.0483464,0.464137,-1.56912,-0.0871876,1.45538,1.31583,-0.169057,0.0172441,-0.173135,-0.00455624,0.263305,-0.0336679,-0.00932739,0.66608,-27.8056,-0.237108,24.8602,-0.182499,2.60186,-0.0566557,0.243688,-2.47609,-1.68108,1.16567,0.877506,-1.15929,-1.14362,0.805329,-1.18911,-0.746314,-0.327864,-0.178123,-0.0733146,
-0.0476949,-0.0416257,0.435489,-1.58531,-0.204789,-0.0695361,0.518851,-0.15146,0.0233636,-0.1578,-0.0706359,-0.0564312,0.899725,-0.0411704,0,0,0,0,0,0,0,-0.0200893,-0.0483464,0.464137,-1.56912,-0.0871876,1.45538,1.31583,-0.169057,0.0172441,-0.173135,-0.00455624,0.263305,-0.0336679,-0.00932739,0.66608,-27.8056,-0.237108,24.8602,-0.182499,2.60186,-0.0566557,0.243688,-2.47609,-1.68108,1.16567,0.877506,-1.15929,-1.14362,0.805329,-1.18911,-0.746314,-0.327864,-0.178123,-0.0733146,
-0.0483008,-0.0415362,0.434858,-1.58559,-0.204748,-0.0658681,0.518688,-0.151465,0.0223644,-0.157776,-0.0680405,0.0100528,0.917013,-0.0408802,0,0,0,0,0,0,0,-0.0243333,-0.0480235,0.459451,-1.57027,-0.0911482,1.45806,1.3154,-0.102142,-0.00226897,-0.126642,-0.0670271,-0.138566,0.247203,-0.012556,-1.66668,-29.0791,-2.26042,26.3797,-1.14106,3.88817,-0.0703886,1.02881,-2.35938,-2.03966,0.882336,1.37025,-1.24653,-1.23983,1.03068,-1.25595,-0.791946,-0.543507,-0.00776732,-0.0771666,
-0.0489074,-0.041452,0.434226,-1.58585,-0.204409,-0.0621436,0.518525,-0.151643,0.0210581,-0.157921,-0.0657026,0.0847548,0.931132,-0.0406637,0,0,0,0,0,0,0,-0.0243333,-0.0480235,0.459451,-1.57027,-0.0911482,1.45806,1.3154,-0.102142,-0.00226897,-0.126642,-0.0670271,-0.138566,0.247203,-0.012556,-1.66668,-29.0791,-2.26042,26.3797,-1.14106,3.88817,-0.0703886,1.02881,-2.35938,-2.03966,0.882336,1.37025,-1.24653,-1.23983,1.03068,-1.25595,-0.791946,-0.543507,-0.00776732,-0.0771666,
-0.0495153,-0.041374,0.433593,-1.5861,-0.203735,-0.058373,0.518363,-0.151984,0.0194902,-0.158227,-0.0636514,0.168576,0.942641,-0.0405335,0,0,0,0,0,0,0,-0.0243333,-0.0480235,0.459451,-1.57027,-0.0911482,1.45806,1.3154,-0.102142,-0.00226897,-0.126642,-0.0670271,-0.138566,0.247203,-0.012556,-1.66668,-29.0791,-2.26042,26.3797,-1.14106,3.88817,-0.0703886,-0.308049,-1.10463,-1.75837,0.338,-0.0827297,-0.290103,-0.293234,0.0196905,-0.286089,-0.150611,-0.365322,0.459914,-0.0792624,
-0.050125,-0.0413032,0.432958,-1.58635,-0.202687,-0.0545651,0.518201,-0.152424,0.0177117,-0.158633,-0.0619274,0.261959,0.951982,-0.0405082,0,0,0,0,0,0,0,-0.0243333,-0.0480235,0.459451,-1.57027,-0.0911482,1.45806,1.3154,-0.102142,-0.00226897,-0.126642,-0.0670271,-0.138566,0.247203,-0.012556,-1.66668,-29.0791,-2.26042,26.3797,-1.14106,3.88817,-0.0703886,-0.308049,-1.10463,-1.75837,0.338,-0.0827297,-0.290103,-0.293234,0.0196905,-0.286089,-0.150611,-0.365322,0.459914,-0.0792624,
-0.0507361,-0.04124,0.432323,-1.58659,-0.20123,-0.0507271,0.518038,-0.152786,0.0157967,-0.158971,-0.0605837,0.364234,0.959488,-0.040617,0,0,0,0,0,0,0,-0.0243333,-0.0480235,0.459451,-1.57027,-0.0911482,1.45806,1.3154,-0.102142,-0.00226897,-0.126642,-0.0670271,-0.138566,0.247203,-0.012556,-1.66668,-29.0791,-2.26042,26.3797,-1.14106,3.88817,-0.0703886,1.61434,-1.96281,-1.73299,0.773917,1.08097,-1.10377,-1.10224,0.547018,-1.10992,-0.135091,-0.674733,0.607027,-0.0885812,
-0.0513469,-0.0411845,0.431687,-1.58683,-0.19934,-0.0468657,0.517875,-0.152696,0.0138799,-0.158885,-0.0596583,0.472562,0.965346,-0.0409312,0,0,0,0,0,0,0,-0.0281275,-0.0481649,0.454604,-1.5732,-0.0965077,1.46947,1.31515,-0.114376,-0.0052168,-0.143334,-0.0899487,-0.0795877,0.443274,-0.00456768,-1.05969,-27.7342,-1.73674,26.4551,-0.628361,3.80852,-0.0566557,2.21884,-2.6388,-2.66291,0.891709,1.90261,-1.55463,-1.55281,1.16458,-1.55491,-0.60061,-0.872127,0.52481,-0.0944805,
-0.0519528,-0.0411355,0.431056,-1.58707,-0.197018,-0.0429877,0.517708,-0.151463,0.0122379,-0.157707,-0.0590671,0.580557,0.969503,-0.0416422,0,0,0,0,0,0,0,-0.0281275,-0.0481649,0.454604,-1.5732,-0.0965077,1.46947,1.31515,-0.114376,-0.0052168,-0.143334,-0.0899487,-0.0795877,0.443274,-0.00456768,-1.05969,-27.7342,-1.73674,26.4551,-0.628361,3.80852,-0.0566557,2.21884,-2.6388,-2.66291,0.891709,1.90261,-1.55463,-1.55281,1.16458,-1.55491,-0.60061,-0.872127,0.52481,-0.0944805,
-0.0525446,-0.0410896,0.430439,-1.5873,-0.19431,-0.0391021,0.517535,-0.147951,0.0114905,-0.154337,-0.0582593,0.676926,0.971413,-0.0432474,0,0,0,0,0,0,0,-0.0281275,-0.0481649,0.454604,-1.5732,-0.0965077,1.46947,1.31515,-0.114376,-0.0052168,-0.143334,-0.0899487,-0.0795877,0.443274,-0.00456768,-1.05969,-27.7342,-1.73674,26.4551,-0.628361,3.80852,-0.0566557,2.59375,-1.08887,-3.33346,-0.164668,2.37401,-0.865265,-0.857679,1.49426,-0.845052,-0.765462,-0.688792,0.711289,-0.0986141,
-0.0531061,-0.0410367,0.429851,-1.58752,-0.191335,-0.0352252,0.51735,-0.14037,0.0132105,-0.147019,-0.0551314,0.743878,0.969225,-0.0462089,0,0,0,0,0,0,0,-0.0281275,-0.0481649,0.454604,-1.5732,-0.0965077,1.46947,1.31515,-0.114376,-0.0052168,-0.143334,-0.0899487,-0.0795877,0.443274,-0.00456768,-1.05969,-27.7342,-1.73674,26.4551,-0.628361,3.80852,-0.0566557,2.59375,-1.08887,-3.33346,-0.164668,2.37401,-0.865265,-0.857679,1.49426,-0.845052,-0.765462,-0.688792,0.711289,-0.0986141,
-0.0536004,-0.0409309,0.42933,-1.58763,-0.188345,-0.0316818,0.517199,-0.123575,0.026456,-0.130214,-0.0278857,0.747419,0.885837,-0.0379141,0,0,0,0,0,0,0,-0.0281275,-0.0481649,0.454604,-1.5732,-0.0965077,1.46947,1.31515,-0.114376,-0.0052168,-0.143334,-0.0899487,-0.0795877,0.443274,-0.00456768,-1.05969,-27.7342,-1.73674,26.4551,-0.628361,3.80852,-0.0566557,2.35713,-1.64123,-3.08592,0.356499,2.07112,-1.07673,-1.0652,1.28049,-1.07631,-0.583948,-0.64735,0.755601,-0.103514,
-0.0540482,-0.0408187,0.428856,-1.58772,-0.185302,-0.0283385,0.517047,-0.111951,0.0280553,-0.118395,-0.0223725,0.760719,0.835823,-0.0378242,0,0,0,0,0,0,0,-0.0281275,-0.0481649,0.454604,-1.5732,-0.0965077,1.46947,1.31515,-0.114376,-0.0052168,-0.143334,-0.0899487,-0.0795877,0.443274,-0.00456768,-1.05969,-27.7342,-1.73674,26.4551,-0.628361,3.80852,-0.0566557,2.35713,-1.64123,-3.08592,0.356499,2.07112,-1.07673,-1.0652,1.28049,-1.07631,-0.583948,-0.64735,0.755601,-0.103514,
-0.0544591,-0.0407125,0.42842,-1.58782,-0.182196,-0.0251378,0.516895,-0.10274,0.0265389,-0.109013,-0.0229835,0.77656,0.800182,-0.038053,0,0,0,0,0,0,0,-0.0323067,-0.0483202,0.450006,-1.57572,-0.0955214,1.48557,1.31494,-0.130603,0.00410571,-0.137566,-0.0758342,0.101802,0.559065,-0.00244448,-0.702633,-28.73,-1.53838,26.7764,0.116879,3.76916,-0.130813,1.49589,-2.7512,-2.59036,1.29337,1.31137,-1.43927,-1.43132,0.82692,-1.46277,-0.356969,-0.605038,0.673692,-0.108889,
-0.0548391,-0.0406148,0.428016,-1.58792,-0.179026,-0.0220482,0.516742,-0.0949888,0.0244213,-0.101116,-0.0250686,0.792501,0.772399,-0.0382056,0,0,0,0,0,0,0,-0.0323067,-0.0483202,0.450006,-1.57572,-0.0955214,1.48557,1.31494,-0.130603,0.00410571,-0.137566,-0.0758342,0.101802,0.559065,-0.00244448,-0.702633,-28.73,-1.53838,26.7764,0.116879,3.76916,-0.130813,0.970526,-1.44427,-1.93901,0.777421,0.725079,-0.699164,-0.694756,0.412922,-0.716377,-0.0292455,-0.260453,0.755609,-0.109044,
-0.0551922,-0.0405252,0.427639,-1.58802,-0.175795,-0.0190487,0.516589,-0.0882933,0.022405,-0.0942992,-0.0272877,0.80766,0.749881,-0.0383124,0,0,0,0,0,0,0,-0.0323067,-0.0483202,0.450006,-1.57572,-0.0955214,1.48557,1.31494,-0.130603,0.00410571,-0.137566,-0.0758342,0.101802,0.559065,-0.00244448,-0.702633,-28.73,-1.53838,26.7764,0.116879,3.76916,-0.130813,0.970526,-1.44427,-1.93901,0.777421,0.725079,-0.699164,-0.694756,0.412922,-0.716377,-0.0292455,-0.260453,0.755609,-0.109044,
-0.055522,-0.0404426,0.427285,-1.58814,-0.172508,-0.0161233,0.516435,-0.0824392,0.0206523,-0.0883419,-0.0292912,0.821707,0.731336,-0.0383959,0,0,0,0,0,0,0,-0.0323067,-0.0483202,0.450006,-1.57572,-0.0955214,1.48557,1.31494,-0.130603,0.00410571,-0.137566,-0.0758342,0.101802,0.559065,-0.00244448,-0.702633,-28.73,-1.53838,26.7764,0.116879,3.76916,-0.130813,1.33814,-0.246962,-2.75557,-0.00959255,1.54653,-0.204838,-0.196514,1.09756,-0.205816,-0.499814,0.0658725,0.672885,-0.112613,
-0.0558312,-0.0403659,0.426953,-1.58827,-0.16917,-0.0132595,0.516281,-0.0772869,0.0191702,-0.0831013,-0.0310186,0.834529,0.715954,-0.0384653,0,0,0,0,0,0,0,-0.0323067,-0.0483202,0.450006,-1.57572,-0.0955214,1.48557,1.31494,-0.130603,0.00410571,-0.137566,-0.0758342,0.101802,0.559065,-0.00244448,-0.702633,-28.73,-1.53838,26.7764,0.116879,3.76916,-0.130813,1.33814,-0.246962,-2.75557,-0.00959255,1.54653,-0.204838,-0.196514,1.09756,-0.205816,-0.499814,0.0658725,0.672885,-0.112613,
-0.0561221,-0.0402942,0.426639,-1.5884,-0.165786,-0.0104469,0.516127,-0.072733,0.0179262,-0.0784712,-0.0324883,0.846112,0.703145,-0.0385248,0,0,0,0,0,0,0,-0.0380711,-0.0481216,0.443546,-1.57878,-0.0872549,1.512,1.31472,-0.120907,0.00657936,-0.156509,-0.0551036,0.20651,0.628447,-0.00145862,1.12232,-29.9281,0.413527,27.1255,1.6687,3.79571,-0.137222,0.6166,-0.644375,-2.81392,0.456039,1.17908,-0.250991,-0.24147,0.983269,-0.268675,-0.510664,0.286338,0.604299,-0.114998,
-0.0472438,-0.0343959,0.43583,-1.58846,-0.266858,-0.246321,0.512409,-0.180332,0.0876744,-0.188733,-0.124586,-1.19464,-0.30173,-0.0810373,0,0,0,0,0,0,0,-0.0380711,-0.0481216,0.443546,-1.57878,-0.0872549,1.512,1.31472,-0.120907,0.00657936,-0.156509,-0.0551036,0.20651,0.628447,-0.00145862,1.12232,-29.9281,0.413527,27.1255,1.6687,3.79571,-0.137222,0.6166,-0.644375,-2.81392,0.456039,1.17908,-0.250991,-0.24147,0.983269,-0.268675,-0.510664,0.286338,0.604299,-0.114998,
-0.0529957,-0.0416602,0.427703,-1.58964,-0.183234,-0.0588607,0.518861,-0.058245,0.040279,-0.0630622,-0.0671966,-0.544154,-0.186582,-0.0512248,0,0,0,0,0,0,0,-0.0380711,-0.0481216,0.443546,-1.57878,-0.0872549,1.512,1.31472,-0.120907,0.00657936,-0.156509,-0.0551036,0.20651,0.628447,-0.00145862,1.12232,-29.9281,0.413527,27.1255,1.6687,3.79571,-0.137222,-0.242309,-0.425309,-2.31577,0.591999,0.440847,0.0333304,0.0391668,0.539591,0.00823843,-0.267863,0.519883,0.588384,-0.115269,
-0.0532237,-0.0415014,0.427456,-1.58991,-0.185473,-0.0596101,0.518658,-0.0570184,0.0396985,-0.0618309,-0.0668857,-0.559799,-0.187362,-0.0507246,0,0,0,0,0,0,0,-0.0380711,-0.0481216,0.443546,-1.57878,-0.0872549,1.512,1.31472,-0.120907,0.00657936,-0.156509,-0.0551036,0.20651,0.628447,-0.00145862,1.12232,-29.9281,0.413527,27.1255,1.6687,3.79571,-0.137222,-1.29614,1.06655,-2.22278,-0.350276,-0.0389436,0.969865,0.975304,0.392932,0.964926,-0.438391,0.801558,0.342737,-0.119451,
-0.053447,-0.0413451,0.427214,-1.59018,-0.18778,-0.0603633,0.518457,-0.055807,0.0390759,-0.0606153,-0.0665481,-0.576701,-0.188302,-0.0502329,0,0,0,0,0,0,0,-0.0380711,-0.0481216,0.443546,-1.57878,-0.0872549,1.512,1.31472,-0.120907,0.00657936,-0.156509,-0.0551036,0.20651,0.628447,-0.00145862,1.12232,-29.9281,0.413527,27.1255,1.6687,3.79571,-0.137222,-1.29614,1.06655,-2.22278,-0.350276,-0.0389436,0.969865,0.975304,0.392932,0.964926,-0.438391,0.801558,0.342737,-0.119451,
-0.0536654,-0.0411914,0.426976,-1.59044,-0.19016,-0.0611208,0.518258,-0.0546065,0.0384063,-0.0594111,-0.0661923,-0.594843,-0.189383,-0.0497497,0,0,0,0,0,0,0,-0.0380711,-0.0481216,0.443546,-1.57878,-0.0872549,1.512,1.31472,-0.120907,0.00657936,-0.156509,-0.0551036,0.20651,0.628447,-0.00145862,1.12232,-29.9281,0.413527,27.1255,1.6687,3.79571,-0.137222,-1.29614,1.06655,-2.22278,-0.350276,-0.0389436,0.969865,0.975304,0.392932,0.964926,-0.438391,0.801558,0.342737,-0.119451,
-0.0538791,-0.0410407,0.426743,-1.59071,-0.192616,-0.061883,0.518061,-0.0534153,0.0376832,-0.0582159,-0.0658286,-0.614178,-0.19055,-0.0492774,0,0,0,0,0,0,0,-0.042038,-0.0475544,0.438828,-1.57981,-0.0850483,1.52923,1.31448,-0.115692,0.0136176,-0.135838,0.000803422,-0.276526,0.386996,-0.0129042,0.158268,-28.5079,-0.411669,23.4399,-0.0350988,1.59386,0.0577852,-1.29614,1.06655,-2.22278,-0.350276,-0.0389436,0.969865,0.975304,0.392932,0.964926,-0.438391,0.801558,0.342737,-0.119451,
-0.054088,-0.0408931,0.426515,-1.59097,-0.195155,-0.0626498,0.517865,-0.0522352,0.0368987,-0.0570316,-0.0654712,-0.634615,-0.191698,-0.0488148,0,0,0,0,0,0,0,-0.042038,-0.0475544,0.438828,-1.57981,-0.0850483,1.52923,1.31448,-0.115692,0.0136176,-0.135838,0.000803422,-0.276526,0.386996,-0.0129042,0.158268,-28.5079,-0.411669,23.4399,-0.0350988,1.59386,0.0577852,0.252173,2.87843,-2.23827,-1.48096,1.43472,1.49561,1.50271,1.32767,1.5146,-0.840258,1.1275,0.14872,-0.0992566,
-0.0542923,-0.0407489,0.426292,-1.59123,-0.197779,-0.0634204,0.517672,-0.0510743,0.0360427,-0.0558652,-0.0651393,-0.65599,-0.192652,-0.0483645,0,0,0,0,0,0,0,-0.042038,-0.0475544,0.438828,-1.57981,-0.0850483,1.52923,1.31448,-0.115692,0.0136176,-0.135838,0.000803422,-0.276526,0.386996,-0.0129042,0.158268,-28.5079,-0.411669,23.4399,-0.0350988,1.59386,0.0577852,0.0609841,2.49356,-1.45327,-1.39257,0.891471,1.35224,1.36701,0.846511,1.36423,-0.574304,0.780745,0.0880032,-0.113444,
-0.0544921,-0.0406085,0.426073,-1.59149,-0.200491,-0.064193,0.51748,-0.0499491,0.035102,-0.0547326,-0.0648589,-0.678024,-0.19314,-0.0479245,0,0,0,0,0,0,0,-0.042038,-0.0475544,0.438828,-1.57981,-0.0850483,1.52923,1.31448,-0.115692,0.0136176,-0.135838,0.000803422,-0.276526,0.386996,-0.0129042,0.158268,-28.5079,-0.411669,23.4399,-0.0350988,1.59386,0.0577852,0.0609841,2.49356,-1.45327,-1.39257,0.891471,1.35224,1.36701,0.846511,1.36423,-0.574304,0.780745,0.0880032,-0.113444,
-0.0546877,-0.0404723,0.425858,-1.59175,-0.203292,-0.064964,0.51729,-0.0488893,0.0340595,-0.0536625,-0.064666,-0.700264,-0.192754,-0.0474949,0,0,0,0,0,0,0,-0.042038,-0.0475544,0.438828,-1.57981,-0.0850483,1.52923,1.31448,-0.115692,0.0136176,-0.135838,0.000803422,-0.276526,0.386996,-0.0129042,0.158268,-28.5079,-0.411669,23.4399,-0.0350988,1.59386,0.0577852,-0.662389,0.69429,-1.45158,-0.814249,0.468156,0.579774,0.590645,0.662372,0.596353,-0.859623,0.110455,-0.326636,-0.122022,
-0.0548794,-0.0403407,0.425647,-1.59201,-0.20618,-0.0657277,0.517102,-0.0479448,0.0328925,-0.052703,-0.0646093,-0.721995,-0.190908,-0.0470732,0,0,0,0,0,0,0,-0.0450538,-0.0468605,0.435508,-1.57981,-0.101696,1.53534,1.31422,-0.0824924,0.0298071,-0.0891172,-0.000833254,-0.515954,0.169405,0.000451733,0.539127,-29.9043,-0.387865,24.5111,-0.805057,0.560232,-0.204056,-0.662389,0.69429,-1.45158,-0.814249,0.468156,0.579774,0.590645,0.662372,0.596353,-0.859623,0.110455,-0.326636,-0.122022,
-0.0550682,-0.0402144,0.425439,-1.59226,-0.209148,-0.0664747,0.516915,-0.0471954,0.0315713,-0.0519315,-0.0647527,-0.742106,-0.186772,-0.0466512,0,0,0,0,0,0,0,-0.0450538,-0.0468605,0.435508,-1.57981,-0.101696,1.53534,1.31422,-0.0824924,0.0298071,-0.0891172,-0.000833254,-0.515954,0.169405,0.000451733,0.539127,-29.9043,-0.387865,24.5111,-0.805057,0.560232,-0.204056,-1.85239,-1.07693,-0.86198,0.0263422,-0.414354,-0.109543,-0.102312,0.187449,-0.101936,-0.93279,-0.345836,-0.795947,-0.124647,
-0.0552553,-0.0400942,0.425234,-1.59253,-0.212184,-0.0671916,0.51673,-0.046764,0.030057,-0.0514679,-0.0651765,-0.758902,-0.179218,-0.0462177,0,0,0,0,0,0,0,-0.0450538,-0.0468605,0.435508,-1.57981,-0.101696,1.53534,1.31422,-0.0824924,0.0298071,-0.0891172,-0.000833254,-0.515954,0.169405,0.000451733,0.539127,-29.9043,-0.387865,24.5111,-0.805057,0.560232,-0.204056,-1.85239,-1.07693,-0.86198,0.0263422,-0.414354,-0.109543,-0.102312,0.187449,-0.101936,-0.93279,-0.345836,-0.795947,-0.124647,
-0.0554426,-0.039981,0.425028,-1.59279,-0.215263,-0.0678587,0.516547,-0.046836,0.0282995,-0.0514928,-0.0659739,-0.769845,-0.166768,-0.0457538,0,0,0,0,0,0,0,-0.0450538,-0.0468605,0.435508,-1.57981,-0.101696,1.53534,1.31422,-0.0824924,0.0298071,-0.0891172,-0.000833254,-0.515954,0.169405,0.000451733,0.539127,-29.9043,-0.387865,24.5111,-0.805057,0.560232,-0.204056,-1.86095,-1.26416,-0.451177,-0.00413155,-0.600851,-0.219793,-0.208257,-0.000646344,-0.212662,-0.85232,-0.578002,-0.879388,-0.128013,
-0.0556333,-0.0398761,0.424819,-1.59306,-0.218348,-0.0684491,0.516367,-0.0476809,0.0262384,-0.0522702,-0.0672358,-0.771209,-0.147608,-0.0452212,0,0,0,0,0,0,0,-0.0450538,-0.0468605,0.435508,-1.57981,-0.101696,1.53534,1.31422,-0.0824924,0.0298071,-0.0891172,-0.000833254,-0.515954,0.169405,0.000451733,0.539127,-29.9043,-0.387865,24.5111,-0.805057,0.560232,-0.204056,-0.953431,-1.40177,-0.984333,-0.259835,0.249383,-0.481589,-0.463174,0.532195,-0.466311,-1.18796,-0.844342,-0.936417,-0.132206,
-0.055832,-0.0397808,0.424602,-1.59333,-0.221379,-0.0689279,0.516188,-0.0496768,0.0238047,-0.0541708,-0.0690204,-0.757682,-0.119698,-0.0445692,0,0,0,0,0,0,0,-0.0473929,-0.0460693,0.432978,-1.5799,-0.119889,1.5392,1.31415,-0.0723852,0.0248072,-0.062608,0.00384413,-0.574106,0.0755625,-0.000934256,0.25745,-30.2773,-0.463243,24.7849,-1.86158,1.07751,-0.163772,-0.953431,-1.40177,-0.984333,-0.259835,0.249383,-0.481589,-0.463174,0.532195,-0.466311,-1.18796,-0.844342,-0.936417,-0.132206,
-0.0560454,-0.0396971,0.424371,-1.59362,-0.224267,-0.069252,0.516013,-0.053326,0.0209285,-0.0576899,-0.0713059,-0.721995,-0.0810337,-0.0437182,0,0,0,0,0,0,0,-0.0473929,-0.0460693,0.432978,-1.5799,-0.119889,1.5392,1.31415,-0.0723852,0.0248072,-0.062608,0.00384413,-0.574106,0.0755625,-0.000934256,0.25745,-30.2773,-0.463243,24.7849,-1.86158,1.07751,-0.163772,-0.253257,-2.99117,-1.31854,0.44521,0.959834,-1.44499,-1.41872,1.01699,-1.44363,-1.53934,-1.22601,-1.16129,-0.135707,
-0.0562823,-0.0396269,0.424117,-1.59391,-0.226886,-0.069372,0.515843,-0.0592478,0.0175476,-0.0634421,-0.0739472,-0.654804,-0.0299854,-0.0425571,0,0,0,0,0,0,0,-0.0473929,-0.0460693,0.432978,-1.5799,-0.119889,1.5392,1.31415,-0.0723852,0.0248072,-0.062608,0.00384413,-0.574106,0.0755625,-0.000934256,0.25745,-30.2773,-0.463243,24.7849,-1.86158,1.07751,-0.163772,0.342834,-3.71151,-1.96927,0.708724,1.70843,-1.93945,-1.91115,1.56725,-1.94019,-1.91207,-1.36642,-1.26325,-0.135816,
-0.0565549,-0.0395725,0.423829,-1.59422,-0.229066,-0.0692338,0.515679,-0.0681306,0.0136114,-0.0721197,-0.0766884,-0.545093,0.0345428,-0.0409559,0,0,0,0,0,0,0,-0.0473929,-0.0460693,0.432978,-1.5799,-0.119889,1.5392,1.31415,-0.0723852,0.0248072,-0.062608,0.00384413,-0.574106,0.0755625,-0.000934256,0.25745,-30.2773,-0.463243,24.7849,-1.86158,1.07751,-0.163772,0.342834,-3.71151,-1.96927,0.708724,1.70843,-1.93945,-1.91115,1.56725,-1.94019,-1.91207,-1.36642,-1.26325,-0.135816,
-0.0568775,-0.0395362,0.423491,-1.59454,-0.230591,-0.0687803,0.515524,-0.08066,0.00906819,-0.0844223,-0.0792689,-0.381083,0.113381,-0.0389218,0,0,0,0,0,0,0,-0.0473929,-0.0460693,0.432978,-1.5799,-0.119889,1.5392,1.31415,-0.0723852,0.0248072,-0.062608,0.00384413,-0.574106,0.0755625,-0.000934256,0.25745,-30.2773,-0.463243,24.7849,-1.86158,1.07751,-0.163772,0.161396,-3.99708,-2.02271,0.864024,1.51371,-2.04064,-2.01296,1.43592,-2.0436,-1.84979,-1.44399,-1.2079,-0.136992,
-0.0572676,-0.039521,0.423087,-1.59487,-0.231193,-0.0679495,0.515368,-0.0975257,0.00381129,-0.101063,-0.0815999,-0.150487,0.207707,-0.0390062,0,0,0,0,0,0,0,-0.0473929,-0.0460693,0.432978,-1.5799,-0.119889,1.5392,1.31415,-0.0723852,0.0248072,-0.062608,0.00384413,-0.574106,0.0755625,-0.000934256,0.25745,-30.2773,-0.463243,24.7849,-1.86158,1.07751,-0.163772,0.161396,-3.99708,-2.02271,0.864024,1.51371,-2.04064,-2.01296,1.43592,-2.0436,-1.84979,-1.44399,-1.2079,-0.136992,
-0.0576881,-0.0394999,0.422649,-1.59517,-0.231111,-0.0668502,0.515215,-0.105123,0.00525985,-0.109518,-0.0750999,0.0204813,0.274807,-0.0381885,0,0,0,0,0,0,0,-0.0487333,-0.0457683,0.431551,-1.57998,-0.1384,1.54107,1.31411,-0.0355293,0.00737054,-0.0418782,-0.0119928,-0.595044,0.0386346,0.00210549,-0.246395,-30.0551,-0.887743,25.4077,-1.17127,2.11114,-0.190323,-0.429929,-3.66849,-1.11076,0.787306,0.593266,-1.75556,-1.72674,0.714875,-1.76236,-1.36008,-1.47301,-1.1045,-0.140324,
-0.0581189,-0.0394671,0.422198,-1.59544,-0.230511,-0.0655417,0.515064,-0.107707,0.00821237,-0.1127,-0.0679183,0.149977,0.327126,-0.037689,0,0,0,0,0,0,0,-0.0487333,-0.0457683,0.431551,-1.57998,-0.1384,1.54107,1.31411,-0.0355293,0.00737054,-0.0418782,-0.0119928,-0.595044,0.0386346,0.00210549,-0.246395,-30.0551,-0.887743,25.4077,-1.17127,2.11114,-0.190323,-0.429929,-3.66849,-1.11076,0.787306,0.593266,-1.75556,-1.72674,0.714875,-1.76236,-1.36008,-1.47301,-1.1045,-0.140324,
-0.0585478,-0.0394226,0.421748,-1.59569,-0.229513,-0.0640635,0.514914,-0.107216,0.0111295,-0.1126,-0.0619706,0.24958,0.369551,-0.0374159,0,0,0,0,0,0,0,-0.0487333,-0.0457683,0.431551,-1.57998,-0.1384,1.54107,1.31411,-0.0355293,0.00737054,-0.0418782,-0.0119928,-0.595044,0.0386346,0.00210549,-0.246395,-30.0551,-0.887743,25.4077,-1.17127,2.11114,-0.190323,-0.511089,-3.49353,-1.22937,0.74757,0.538168,-1.6384,-1.61293,0.687588,-1.64242,-1.31919,-1.38584,-1.01741,-0.143827,
-0.0589671,-0.0393682,0.421306,-1.59591,-0.228204,-0.0624456,0.514765,-0.104829,0.0135982,-0.110461,-0.0574259,0.327202,0.404487,-0.0372783,0,0,0,0,0,0,0,-0.0487333,-0.0457683,0.431551,-1.57998,-0.1384,1.54107,1.31411,-0.0355293,0.00737054,-0.0418782,-0.0119928,-0.595044,0.0386346,0.00210549,-0.246395,-30.0551,-0.887743,25.4077,-1.17127,2.11114,-0.190323,-0.511089,-3.49353,-1.22937,0.74757,0.538168,-1.6384,-1.61293,0.687588,-1.64242,-1.31919,-1.38584,-1.01741,-0.143827,
-0.0593724,-0.039306,0.420877,-1.59613,-0.22665,-0.0607119,0.514616,-0.101311,0.0155517,-0.107092,-0.0540387,0.388444,0.433428,-0.0372238,0,0,0,0,0,0,0,-0.0487333,-0.0457683,0.431551,-1.57998,-0.1384,1.54107,1.31411,-0.0355293,0.00737054,-0.0418782,-0.0119928,-0.595044,0.0386346,0.00210549,-0.246395,-30.0551,-0.887743,25.4077,-1.17127,2.11114,-0.190323,-0.991784,-3.55283,-2.06265,0.801262,0.608382,-1.55544,-1.52999,0.91952,-1.56005,-1.60997,-1.21252,-1.03206,-0.151583,
-0.0654767,-0.0307984,0.414514,-1.59516,-0.259565,-0.213065,0.511145,-0.164209,0.128553,-0.173608,-0.117822,-1.19366,-0.805595,-0.0861923,0,0,0,0,0,0,0,-0.050694,-0.0458803,0.429002,-1.58104,-0.152861,1.54487,1.31405,-0.0557834,0.000467425,-0.0793142,-0.0291526,-0.0782489,0.137556,0.00133411,-0.222592,-29.0791,-1.18529,26.1298,0.58746,3.99438,-0.150955,-2.22484,-3.73148,-2.29061,1.11774,-0.106609,-1.38969,-1.36335,0.62893,-1.40783,-1.59965,-0.96627,-1.04739,-0.155349,
-0.0710629,-0.0354414,0.407443,-1.59283,-0.216809,-0.0704604,0.517992,-0.137065,0.071587,-0.144727,-0.0678505,0.345727,-0.0806644,-0.0503788,0,0,0,0,0,0,0,-0.050694,-0.0458803,0.429002,-1.58104,-0.152861,1.54487,1.31405,-0.0557834,0.000467425,-0.0793142,-0.0291526,-0.0782489,0.137556,0.00133411,-0.222592,-29.0791,-1.18529,26.1298,0.58746,3.99438,-0.150955,-2.22484,-3.73148,-2.29061,1.11774,-0.106609,-1.38969,-1.36335,0.62893,-1.40783,-1.59965,-0.96627,-1.04739,-0.155349,
-0.0716068,-0.0351598,0.406869,-1.5931,-0.21532,-0.0708066,0.517792,-0.135987,0.070403,-0.143634,-0.0672715,0.372303,-0.0865638,-0.0499216,0,0,0,0,0,0,0,-0.050694,-0.0458803,0.429002,-1.58104,-0.152861,1.54487,1.31405,-0.0557834,0.000467425,-0.0793142,-0.0291526,-0.0782489,0.137556,0.00133411,-0.222592,-29.0791,-1.18529,26.1298,0.58746,3.99438,-0.150955,-1.71118,-3.63376,-1.1198,1.69146,-0.474456,-1.39271,-1.35822,0.121285,-1.44678,-0.791408,-0.652193,-0.635811,-0.157185,
-0.0721471,-0.0348832,0.406298,-1.59336,-0.213716,-0.0711774,0.517594,-0.135059,0.0691598,-0.142693,-0.0666943,0.400895,-0.0927014,-0.0494719,0,0,0,0,0,0,0,-0.050694,-0.0458803,0.429002,-1.58104,-0.152861,1.54487,1.31405,-0.0557834,0.000467425,-0.0793142,-0.0291526,-0.0782489,0.137556,0.00133411,-0.222592,-29.0791,-1.18529,26.1298,0.58746,3.99438,-0.150955,-1.71118,-3.63376,-1.1198,1.69146,-0.474456,-1.39271,-1.35822,0.121285,-1.44678,-0.791408,-0.652193,-0.635811,-0.157185,
-0.0726842,-0.0346118,0.40573,-1.59363,-0.211989,-0.0715734,0.517398,-0.13428,0.067853,-0.141901,-0.0661198,0.431844,-0.0990023,-0.0490302,0,0,0,0,0,0,0,-0.050694,-0.0458803,0.429002,-1.58104,-0.152861,1.54487,1.31405,-0.0557834,0.000467425,-0.0793142,-0.0291526,-0.0782489,0.137556,0.00133411,-0.222592,-29.0791,-1.18529,26.1298,0.58746,3.99438,-0.150955,-0.463149,-0.676507,-0.809003,0.237625,0.0590313,-0.104208,-0.0585428,0.214753,-0.148221,-0.355849,-0.0933842,-0.0912339,-0.141848,
-0.0732188,-0.0343459,0.405165,-1.59389,-0.210127,-0.0719949,0.517204,-0.133646,0.0664769,-0.141254,-0.0655502,0.465516,-0.105379,-0.0485991,0,0,0,0,0,0,0,-0.050694,-0.0458803,0.429002,-1.58104,-0.152861,1.54487,1.31405,-0.0557834,0.000467425,-0.0793142,-0.0291526,-0.0782489,0.137556,0.00133411,-0.222592,-29.0791,-1.18529,26.1298,0.58746,3.99438,-0.150955,0.375843,0.302771,-1.29103,-0.180948,0.809679,0.264175,0.297031,0.680153,0.23778,-0.425377,0.249281,0.137695,-0.146319,
-0.0737514,-0.0340858,0.404602,-1.59415,-0.208118,-0.0724418,0.517011,-0.133156,0.0650239,-0.140752,-0.0649906,0.502303,-0.111722,-0.0481812,0,0,0,0,0,0,0,-0.0528432,-0.0459473,0.426298,-1.58215,-0.157338,1.54358,1.3137,-0.0808545,0.0128339,-0.105411,-0.0290349,-0.111184,-0.112519,-0.00672162,-0.119442,-28.131,-0.963121,26.5027,0.850216,3.03307,-0.0703886,0.375843,0.302771,-1.29103,-0.180948,0.809679,0.264175,0.297031,0.680153,0.23778,-0.425377,0.249281,0.137695,-0.146319,
-0.0742826,-0.0338318,0.404041,-1.59441,-0.205947,-0.0729134,0.51682,-0.132811,0.0634855,-0.140394,-0.0644498,0.542623,-0.117884,-0.0477814,0,0,0,0,0,0,0,-0.0528432,-0.0459473,0.426298,-1.58215,-0.157338,1.54358,1.3137,-0.0808545,0.0128339,-0.105411,-0.0290349,-0.111184,-0.112519,-0.00672162,-0.119442,-28.131,-0.963121,26.5027,0.850216,3.03307,-0.0703886,0.286679,0.758043,-1.03313,-0.335004,0.742515,0.507391,0.540958,0.642382,0.480273,-0.379575,0.419948,0.0953686,-0.156291,
-0.0748131,-0.0335844,0.40348,-1.59466,-0.203599,-0.073408,0.51663,-0.132609,0.0618516,-0.14018,-0.0639418,0.586909,-0.123665,-0.047401,0,0,0,0,0,0,0,-0.0528432,-0.0459473,0.426298,-1.58215,-0.157338,1.54358,1.3137,-0.0808545,0.0128339,-0.105411,-0.0290349,-0.111184,-0.112519,-0.00672162,-0.119442,-28.131,-0.963121,26.5027,0.850216,3.03307,-0.0703886,0.286679,0.758043,-1.03313,-0.335004,0.742515,0.507391,0.540958,0.642382,0.480273,-0.379575,0.419948,0.0953686,-0.156291,
-0.0753433,-0.033344,0.402919,-1.59492,-0.201057,-0.0739231,0.516442,-0.13255,0.0601118,-0.140108,-0.0634888,0.635599,-0.12878,-0.047049,0,0,0,0,0,0,0,-0.0528432,-0.0459473,0.426298,-1.58215,-0.157338,1.54358,1.3137,-0.0808545,0.0128339,-0.105411,-0.0290349,-0.111184,-0.112519,-0.00672162,-0.119442,-28.131,-0.963121,26.5027,0.850216,3.03307,-0.0703886,1.11602,1.41639,-1.43632,-0.742613,1.64021,0.674495,0.710248,1.25252,0.655609,-0.674477,0.601525,0.051747,-0.163256,
-0.0758738,-0.033111,0.402359,-1.59517,-0.198301,-0.0744545,0.516255,-0.132627,0.0582556,-0.140173,-0.0631237,0.689092,-0.132829,-0.046733,0,0,0,0,0,0,0,-0.0528432,-0.0459473,0.426298,-1.58215,-0.157338,1.54358,1.3137,-0.0808545,0.0128339,-0.105411,-0.0290349,-0.111184,-0.112519,-0.00672162,-0.119442,-28.131,-0.963121,26.5027,0.850216,3.03307,-0.0703886,0.962767,2.46191,-2.40586,-1.29786,2.02474,1.25698,1.28879,1.67517,1.25217,-1.00644,0.999026,0.119198,-0.167491,
-0.0764051,-0.0328859,0.401797,-1.59542,-0.19531,-0.0749954,0.516069,-0.132824,0.0562738,-0.14036,-0.0628949,0.747683,-0.135243,-0.0464674,0,0,0,0,0,0,0,-0.0561806,-0.0461647,0.422253,-1.58285,-0.157585,1.5395,1.31362,-0.126828,-0.00483593,-0.129059,-0.00907331,0.00915922,-0.157145,0.00147683,0.134464,-27.9564,-0.661608,25.6061,1.49749,3.02666,-0.190323,0.962767,2.46191,-2.40586,-1.29786,2.02474,1.25698,1.28879,1.67517,1.25217,-1.00644,0.999026,0.119198,-0.167491,
-0.0769375,-0.0326692,0.401235,-1.59567,-0.192064,-0.0755363,0.515884,-0.133105,0.0541617,-0.140632,-0.0628704,0.811435,-0.135219,-0.0462706,0,0,0,0,0,0,0,-0.0561806,-0.0461647,0.422253,-1.58285,-0.157585,1.5395,1.31362,-0.126828,-0.00483593,-0.129059,-0.00907331,0.00915922,-0.157145,0.00147683,0.134464,-27.9564,-0.661608,25.6061,1.49749,3.02666,-0.190323,0.347074,3.06236,-2.38777,-1.55702,1.59498,1.68458,1.71829,1.44658,1.67985,-0.92945,1.18496,0.158641,-0.167566,
-0.0774707,-0.0324614,0.400671,-1.59592,-0.188548,-0.0760631,0.515699,-0.133311,0.051958,-0.140839,-0.0631187,0.879059,-0.131695,-0.046161,0,0,0,0,0,0,0,-0.0561806,-0.0461647,0.422253,-1.58285,-0.157585,1.5395,1.31362,-0.126828,-0.00483593,-0.129059,-0.00907331,0.00915922,-0.157145,0.00147683,0.134464,-27.9564,-0.661608,25.6061,1.49749,3.02666,-0.190323,0.347074,3.06236,-2.38777,-1.55702,1.59498,1.68458,1.71829,1.44658,1.67985,-0.92945,1.18496,0.158641,-0.167566,
-0.0779967,-0.0322597,0.400115,-1.59618,-0.184828,-0.0765598,0.515515,-0.131494,0.0504105,-0.139174,-0.0632499,0.93012,-0.124175,-0.0460336,0,0,0,0,0,0,0,-0.0561806,-0.0461647,0.422253,-1.58285,-0.157585,1.5395,1.31362,-0.126828,-0.00483593,-0.129059,-0.00907331,0.00915922,-0.157145,0.00147683,0.134464,-27.9564,-0.661608,25.6061,1.49749,3.02666,-0.190323,-0.668913,2.47166,-1.68608,-1.02297,0.565853,1.57265,1.60105,0.775695,1.55584,-0.587426,1.16711,0.119413,-0.169342,
-0.0785106,-0.0320643,0.39957,-1.59643,-0.180951,-0.0769982,0.51533,-0.12846,0.0488655,-0.13623,-0.0641399,0.969079,-0.109596,-0.0461943,0,0,0,0,0,0,0,-0.0561806,-0.0461647,0.422253,-1.58285,-0.157585,1.5395,1.31362,-0.126828,-0.00483593,-0.129059,-0.00907331,0.00915922,-0.157145,0.00147683,0.134464,-27.9564,-0.661608,25.6061,1.49749,3.02666,-0.190323,-0.335637,2.26255,-1.30762,-0.865993,0.716003,1.38245,1.41038,0.819588,1.36248,-0.549357,1.12686,0.0303048,-0.170666,
-0.079009,-0.0318759,0.39904,-1.5967,-0.176955,-0.0773392,0.515143,-0.124613,0.0470943,-0.132419,-0.0660654,0.998982,-0.0852549,-0.0467495,0,0,0,0,0,0,0,-0.0561806,-0.0461647,0.422253,-1.58285,-0.157585,1.5395,1.31362,-0.126828,-0.00483593,-0.129059,-0.00907331,0.00915922,-0.157145,0.00147683,0.134464,-27.9564,-0.661608,25.6061,1.49749,3.02666,-0.190323,-0.335637,2.26255,-1.30762,-0.865993,0.716003,1.38245,1.41038,0.819588,1.36248,-0.549357,1.12686,0.0303048,-0.170666,
-0.0794897,-0.0316958,0.398528,-1.59698,-0.172868,-0.0775329,0.514952,-0.120174,0.0450294,-0.127961,-0.0691369,1.02193,-0.0484238,-0.0478803,0,0,0,0,0,0,0,-0.0605428,-0.0461125,0.417661,-1.58343,-0.153021,1.53462,1.31357,-0.154966,0.00149331,-0.160284,-0.0316626,0.257632,-0.123791,-0.00507064,0.614505,-28.73,-0.110155,25.8798,1.54602,2.54876,-0.123489,-1.23416,2.53376,-1.47664,-1.09379,0.312885,1.66277,1.69072,0.706873,1.64884,-0.725667,1.19462,-0.152726,-0.171813,
-0.0799505,-0.0315249,0.398037,-1.59727,-0.16871,-0.0775197,0.514753,-0.115199,0.0427327,-0.122903,-0.073301,1.03928,0.00330344,-0.04984,0,0,0,0,0,0,0,-0.0605428,-0.0461125,0.417661,-1.58343,-0.153021,1.53462,1.31357,-0.154966,0.00149331,-0.160284,-0.0316626,0.257632,-0.123791,-0.00507064,0.614505,-28.73,-0.110155,25.8798,1.54602,2.54876,-0.123489,-1.23416,2.53376,-1.47664,-1.09379,0.312885,1.66277,1.69072,0.706873,1.64884,-0.725667,1.19462,-0.152726,-0.171813,
-0.0803887,-0.0313628,0.397568,-1.59758,-0.164503,-0.0772365,0.514543,-0.109551,0.0405264,-0.117089,-0.0780071,1.05174,0.0707877,-0.0523962,0,0,0,0,0,0,0,-0.0605428,-0.0461125,0.417661,-1.58343,-0.153021,1.53462,1.31357,-0.154966,0.00149331,-0.160284,-0.0316626,0.257632,-0.123791,-0.00507064,0.614505,-28.73,-0.110155,25.8798,1.54602,2.54876,-0.123489,-1.62209,2.27772,-1.58467,-0.939454,0.200075,1.58792,1.61169,0.727063,1.57522,-0.858781,1.21746,-0.291092,-0.17369,
-0.0807751,-0.031195,0.397151,-1.5979,-0.160529,-0.0766492,0.514361,-0.0966094,0.0419265,-0.104314,-0.0791517,0.993746,0.146839,-0.0454135,0,0,0,0,0,0,0,-0.0605428,-0.0461125,0.417661,-1.58343,-0.153021,1.53462,1.31357,-0.154966,0.00149331,-0.160284,-0.0316626,0.257632,-0.123791,-0.00507064,0.614505,-28.73,-0.110155,25.8798,1.54602,2.54876,-0.123489,-1.62209,2.27772,-1.58467,-0.939454,0.200075,1.58792,1.61169,0.727063,1.57522,-0.858781,1.21746,-0.291092,-0.17369,
