PerkyPenguin/Analysis-on-Approximated-Derivatives/Code_and_Data/PaperData/Real_Robot/Scene_2/contact_change/6/trajectory.csv
Commanded Joint 0 Position,Commanded Joint 1 Position,Commanded Joint 2 Position,Commanded Joint 3 Position,Commanded Joint 4 Position,Commanded Joint 5 Position,Commanded Joint 6 Position,Commanded Joint 0 Velocity,Commanded Joint 1 Velocity,Commanded Joint 2 Velocity,Commanded Joint 3 Velocity,Commanded Joint 4 Velocity,Commanded Joint 5 Velocity,Commanded Joint 6 Velocity,Commanded Joint 0 Torque,Commanded Joint 1 Torque,Commanded Joint 2 Torque,Commanded Joint 3 Torque,Commanded Joint 4 Torque,Commanded Joint 5 Torque,Commanded Joint 6 Torque,Actual Joint 0 Position,Actual Joint 1 Position,Actual Joint 2 Position,Actual Joint 3 Position,Actual Joint 4 Position,Actual Joint 5 Position,Actual Joint 6 Position,Actual Joint 0 Velocity,Actual Joint 1 Velocity,Actual Joint 2 Velocity,Actual Joint 3 Velocity,Actual Joint 4 Velocity,Actual Joint 5 Velocity,Actual Joint 6 Velocity,Actual Joint 0 Torque,Actual Joint 1 Torque,Actual Joint 2 Torque,Actual Joint 3 Torque,Actual Joint 4 Torque,Actual Joint 5 Torque,Actual Joint 6 Torque,EE ext force 0,EE ext force 1,EE ext force 2,EE ext force 3,EE ext force 4,EE ext force 5,joint ext torque 0,joint ext torque 1,joint ext torque 2,joint ext torque 3,joint ext torque 4,joint ext torque 5,joint ext torque 6,
0.0181395,-0.0523104,0.510091,-1.5631,0.0367104,-0.0104021,0.532108,0.0109326,0.0293997,0.0150908,-0.143512,-0.0793577,0.199524,-0.00125967,0,0,0,0,0,0,0,0.0180449,-0.0524118,0.509976,-1.56167,0.0374533,1.55842,1.31752,-0.00161175,0.0023394,-0.000708874,-0.000908154,0.00834116,0.000255569,-0.0012823,0.25745,-27.5081,-0.736986,27.0264,0.63049,3.00652,0.0980684,2.49022,2.18465,2.44569,-1.09213,1.37422,0.241853,0.236905,0.550668,0.264849,0.223482,0.201103,-0.37231,0.076965,
0.0181967,-0.0521106,0.510168,-1.56372,0.036326,-0.00957016,0.532103,0.0142967,0.0499538,0.0191991,-0.154298,-0.0961007,0.207985,-0.00134338,0,0,0,0,0,0,0,0.0180449,-0.0524118,0.509976,-1.56167,0.0374533,1.55842,1.31752,-0.00161175,0.0023394,-0.000708874,-0.000908154,0.00834116,0.000255569,-0.0012823,0.25745,-27.5081,-0.736986,27.0264,0.63049,3.00652,0.0980684,2.78714,2.09358,2.41909,-1.04581,1.59991,0.116266,0.112495,0.677245,0.137302,0.188313,0.181383,-0.372629,0.0774017,
0.0180355,-0.0523839,0.509967,-1.56168,0.0375152,-0.0123792,0.532122,-0.000394484,0.00137313,-0.000348888,-0.000540653,0.00217262,-0.000356054,9.36977e-06,0,0,0,0,0,0,0,0.0180449,-0.0524118,0.509976,-1.56167,0.0374533,1.55842,1.31752,-0.00161175,0.0023394,-0.000708874,-0.000908154,0.00834116,0.000255569,-0.0012823,0.25745,-27.5081,-0.736986,27.0264,0.63049,3.00652,0.0980684,2.78714,2.09358,2.41909,-1.04581,1.59991,0.116266,0.112495,0.677245,0.137302,0.188313,0.181383,-0.372629,0.0774017,
0.0180342,-0.0523792,0.509966,-1.56169,0.0375213,-0.0123809,0.532122,-0.000323759,0.00116893,-0.000269812,-0.000498431,0.00150474,-0.000412173,6.01815e-06,0,0,0,0,0,0,0,0.0180532,-0.0524228,0.509979,-1.56167,0.037403,1.55842,1.31752,-0.00398821,0.000937251,3.46774e-05,0.000481525,0.00506148,0.000440235,-0.000967056,0.134464,-27.3811,-0.788561,26.9788,0.9967,3.02666,0.0980684,2.62511,2.1754,2.46729,-1.08217,1.45118,0.198953,0.194674,0.582696,0.220885,0.232656,0.190371,-0.358847,0.0774247,
0.0180331,-0.0523753,0.509965,-1.56169,0.0375253,-0.0123827,0.532122,-0.000271779,0.000990965,-0.000211589,-0.000454245,0.00100647,-0.000455592,3.83088e-06,0,0,0,0,0,0,0,0.0180532,-0.0524228,0.509979,-1.56167,0.037403,1.55842,1.31752,-0.00398821,0.000937251,3.46774e-05,0.000481525,0.00506148,0.000440235,-0.000967056,0.134464,-27.3811,-0.788561,26.9788,0.9967,3.02666,0.0980684,2.62511,2.1754,2.46729,-1.08217,1.45118,0.198953,0.194674,0.582696,0.220885,0.232656,0.190371,-0.358847,0.0774247,
0.0180322,-0.0523719,0.509964,-1.56169,0.0375278,-0.0123847,0.532122,-0.000232947,0.000836216,-0.000168041,-0.000409768,0.000633828,-0.000487345,2.41857e-06,0,0,0,0,0,0,0,0.0180532,-0.0524228,0.509979,-1.56167,0.037403,1.55842,1.31752,-0.00398821,0.000937251,3.46774e-05,0.000481525,0.00506148,0.000440235,-0.000967056,0.134464,-27.3811,-0.788561,26.9788,0.9967,3.02666,0.0980684,1.91143,1.71963,2.12025,-0.800875,1.01549,0.189116,0.181513,0.382256,0.207815,0.221999,0.191631,-0.32542,0.0772348,
0.0180313,-0.0523691,0.509964,-1.56169,0.0375292,-0.0123867,0.532122,-0.000203387,0.000701701,-0.000134871,-0.000366406,0.000354719,-0.000508657,1.52326e-06,0,0,0,0,0,0,0,0.0180532,-0.0524228,0.509979,-1.56167,0.037403,1.55842,1.31752,-0.00398821,0.000937251,3.46774e-05,0.000481525,0.00506148,0.000440235,-0.000967056,0.134464,-27.3811,-0.788561,26.9788,0.9967,3.02666,0.0980684,1.26772,1.57129,1.38602,-0.876,0.793193,0.299203,0.286357,0.3765,0.329178,0.0169768,0.171906,-0.320097,0.0769106,
0.0180306,-0.0523668,0.509963,-1.56169,0.0375298,-0.0123888,0.532122,-0.00018039,0.000584719,-0.000109067,-0.000325108,0.000145517,-0.000520967,9.73495e-07,0,0,0,0,0,0,0,0.0180532,-0.0524228,0.509979,-1.56167,0.037403,1.55842,1.31752,-0.00398821,0.000937251,3.46774e-05,0.000481525,0.00506148,0.000440235,-0.000967056,0.134464,-27.3811,-0.788561,26.9788,0.9967,3.02666,0.0980684,1.26772,1.57129,1.38602,-0.876,0.793193,0.299203,0.286357,0.3765,0.329178,0.0169768,0.171906,-0.320097,0.0769106,
0.0185528,-0.0524555,0.510475,-1.56125,0.023687,-0.0207646,0.532079,0.00572554,-0.00532462,0.00585699,0.00186019,-0.370768,-0.23281,-0.001045,0,0,0,0,0,0,0,0.0180346,-0.0524897,0.509954,-1.56218,0.037355,1.55919,1.31752,0.00232564,-0.000866615,0.000540534,0.00338979,-0.00317012,0.000203689,-0.000292234,0.309024,-27.4327,-0.637804,27.2287,0.855709,3.19237,0.0843355,2.34041,2.31392,1.09422,-1.47652,1.68189,0.340334,0.326678,0.914232,0.388923,-0.183635,0.180884,-0.277179,0.0755391,
0.018553,-0.0526386,0.510466,-1.56172,0.0242318,-0.0195189,0.532084,0.00576989,-0.00618316,0.00594071,0.00232528,-0.350893,-0.22064,-0.000948903,0,0,0,0,0,0,0,0.0180346,-0.0524897,0.509954,-1.56218,0.037355,1.55919,1.31752,0.00232564,-0.000866615,0.000540534,0.00338979,-0.00317012,0.000203689,-0.000292234,0.309024,-27.4327,-0.637804,27.2287,0.855709,3.19237,0.0843355,3.14319,2.0878,1.58205,-1.20462,2.05859,0.0102423,-0.000378851,1.0201,0.0460438,-0.0344832,0.14401,-0.24514,0.0773309,
0.0185719,-0.0526621,0.510486,-1.56172,0.0228145,-0.0204144,0.53208,0.00474285,-0.00589065,0.00491465,0.00169188,-0.354322,-0.223883,-0.000928661,0,0,0,0,0,0,0,0.0180346,-0.0524897,0.509954,-1.56218,0.037355,1.55919,1.31752,0.00232564,-0.000866615,0.000540534,0.00338979,-0.00317012,0.000203689,-0.000292234,0.309024,-27.4327,-0.637804,27.2287,0.855709,3.19237,0.0843355,3.14319,2.0878,1.58205,-1.20462,2.05859,0.0102423,-0.000378851,1.0201,0.0460438,-0.0344832,0.14401,-0.24514,0.0773309,
0.0185871,-0.0526843,0.510502,-1.56171,0.0213871,-0.0213198,0.532077,0.00378901,-0.00554182,0.00395999,0.00113962,-0.356844,-0.226355,-0.000908569,0,0,0,0,0,0,0,0.0180346,-0.0524897,0.509954,-1.56218,0.037355,1.55919,1.31752,0.00232564,-0.000866615,0.000540534,0.00338979,-0.00317012,0.000203689,-0.000292234,0.309024,-27.4327,-0.637804,27.2287,0.855709,3.19237,0.0843355,3.06573,2.31101,1.75566,-1.32009,1.94167,0.132709,0.114487,0.929483,0.177873,0.0289963,0.160162,-0.245648,0.0785232,
0.0185987,-0.0527049,0.510514,-1.56171,0.0199526,-0.0222326,0.532073,0.00290877,-0.00515759,0.00307779,0.000656352,-0.358626,-0.228185,-0.000888963,0,0,0,0,0,0,0,0.0180346,-0.0524897,0.509954,-1.56218,0.037355,1.55919,1.31752,0.00232564,-0.000866615,0.000540534,0.00338979,-0.00317012,0.000203689,-0.000292234,0.309024,-27.4327,-0.637804,27.2287,0.855709,3.19237,0.0843355,3.06573,2.31101,1.75566,-1.32009,1.94167,0.132709,0.114487,0.929483,0.177873,0.0289963,0.160162,-0.245648,0.0785232,
0.0186071,-0.052724,0.510523,-1.56171,0.0185134,-0.0231505,0.53207,0.0021004,-0.00475413,0.00226674,0.000232399,-0.359799,-0.229481,-0.00087003,0,0,0,0,0,0,0,0.0181126,-0.052444,0.510021,-1.5621,0.035546,1.55916,1.31752,0.00177465,0.00505871,0.00260001,0.0003297,-0.134446,0.00165018,-0.00143374,-0.500302,-28.008,-1.31224,26.5027,-0.267643,2.7282,0.104477,2.47967,2.6521,1.80856,-1.56404,1.49547,0.449873,0.420427,0.680641,0.512362,0.0766466,0.173174,-0.259985,0.0801193,
0.0190313,-0.0526219,0.510873,-1.56035,0.000504032,-0.0492235,0.531643,0.00646721,-0.0125089,0.00556067,0.00620348,-1.11393,-1.14063,-0.0109705,0,0,0,0,0,0,0,0.0181126,-0.052444,0.510021,-1.5621,0.035546,1.55916,1.31752,0.00177465,0.00505871,0.00260001,0.0003297,-0.134446,0.00165018,-0.00143374,-0.500302,-28.008,-1.31224,26.5027,-0.267643,2.7282,0.104477,2.47967,2.6521,1.80856,-1.56404,1.49547,0.449873,0.420427,0.680641,0.512362,0.0766466,0.173174,-0.259985,0.0801193,
0.0189675,-0.0524434,0.510809,-1.56052,-0.00325896,-0.04613,0.531682,0.00434799,-0.0097404,0.00352371,0.0045659,-1.13005,-1.04608,-0.00985719,0,0,0,0,0,0,0,0.0181126,-0.052444,0.510021,-1.5621,0.035546,1.55916,1.31752,0.00177465,0.00505871,0.00260001,0.0003297,-0.134446,0.00165018,-0.00143374,-0.500302,-28.008,-1.31224,26.5027,-0.267643,2.7282,0.104477,2.49283,2.18223,1.9306,-1.37092,1.41655,0.221123,0.180918,0.59635,0.292207,0.0817547,-0.014403,-0.31925,0.0816249,
0.0189725,-0.0524762,0.510811,-1.56052,-0.00785389,-0.0503778,0.531643,0.00125457,-0.00820304,0.000468583,0.000783097,-1.14873,-1.06197,-0.00972225,0,0,0,0,0,0,0,0.0181126,-0.052444,0.510021,-1.5621,0.035546,1.55916,1.31752,0.00177465,0.00505871,0.00260001,0.0003297,-0.134446,0.00165018,-0.00143374,-0.500302,-28.008,-1.31224,26.5027,-0.267643,2.7282,0.104477,2.49283,2.18223,1.9306,-1.37092,1.41655,0.221123,0.180918,0.59635,0.292207,0.0817547,-0.014403,-0.31925,0.0816249,
0.0189659,-0.0525019,0.510801,-1.56053,-0.0125108,-0.0546713,0.531605,-0.00163754,-0.0064248,-0.00239376,-0.00251961,-1.16423,-1.07337,-0.00958764,0,0,0,0,0,0,0,0.0181126,-0.052444,0.510021,-1.5621,0.035546,1.55916,1.31752,0.00177465,0.00505871,0.00260001,0.0003297,-0.134446,0.00165018,-0.00143374,-0.500302,-28.008,-1.31224,26.5027,-0.267643,2.7282,0.104477,2.32186,2.14246,2.25356,-1.34621,1.18396,0.245829,0.198033,0.420567,0.323956,0.16401,-0.0740126,-0.376973,0.0827292,
0.0189486,-0.05252,0.510781,-1.56055,-0.0172194,-0.0589955,0.531567,-0.00432655,-0.00450871,-0.00506001,-0.00540179,-1.17714,-1.08105,-0.00945415,0,0,0,0,0,0,0,0.0181126,-0.052444,0.510021,-1.5621,0.035546,1.55916,1.31752,0.00177465,0.00505871,0.00260001,0.0003297,-0.134446,0.00165018,-0.00143374,-0.500302,-28.008,-1.31224,26.5027,-0.267643,2.7282,0.104477,3.61673,3.45975,2.55085,-2.23891,1.99068,0.475774,0.425827,0.805061,0.579403,0.164604,-0.0733701,-0.309254,0.0892032,
0.0189214,-0.0525301,0.510751,-1.56058,-0.021971,-0.063338,0.53153,-0.00681598,-0.00253271,-0.00753263,-0.00791408,-1.1879,-1.08564,-0.00932222,0,0,0,0,0,0,0,0.0183707,-0.052517,0.510364,-1.5618,0.0259941,1.5565,1.31753,0.0173001,-0.00431816,0.0184941,0.0237366,-0.558123,-0.238914,0.00102333,-1.46435,-27.159,-2.13744,25.4077,-1.37909,1.10406,0.0101778,3.61673,3.45975,2.55085,-2.23891,1.99068,0.475774,0.425827,0.805061,0.579403,0.164604,-0.0733701,-0.309254,0.0892032,
0.0132345,-0.0512391,0.504699,-1.56407,-0.000779966,-0.0541934,0.527492,-0.164088,0.0554953,-0.173572,-0.0842067,-1.0439,-1.22416,-0.0910294,0,0,0,0,0,0,0,0.0183707,-0.052517,0.510364,-1.5618,0.0259941,1.5565,1.31753,0.0173001,-0.00431816,0.0184941,0.0237366,-0.558123,-0.238914,0.00102333,-1.46435,-27.159,-2.13744,25.4077,-1.37909,1.10406,0.0101778,3.6248,3.18907,2.94527,-2.22386,1.88596,0.335129,0.276053,0.699077,0.451553,0.147948,-0.298294,-0.485156,0.0893427,
0.0134358,-0.0517902,0.505033,-1.56374,-0.0163464,-0.0604355,0.527988,-0.162671,0.0510649,-0.171454,-0.0783363,-1.07904,-1.24493,-0.0804498,0,0,0,0,0,0,0,0.0183707,-0.052517,0.510364,-1.5618,0.0259941,1.5565,1.31753,0.0173001,-0.00431816,0.0184941,0.0237366,-0.558123,-0.238914,0.00102333,-1.46435,-27.159,-2.13744,25.4077,-1.37909,1.10406,0.0101778,3.6248,3.18907,2.94527,-2.22386,1.88596,0.335129,0.276053,0.699077,0.451553,0.147948,-0.298294,-0.485156,0.0893427,
0.0127607,-0.0515611,0.504323,-1.56406,-0.0207488,-0.0654949,0.52767,-0.168789,0.0572816,-0.177566,-0.0824717,-1.10059,-1.26484,-0.0794085,0,0,0,0,0,0,0,0.0183707,-0.052517,0.510364,-1.5618,0.0259941,1.5565,1.31753,0.0173001,-0.00431816,0.0184941,0.0237366,-0.558123,-0.238914,0.00102333,-1.46435,-27.159,-2.13744,25.4077,-1.37909,1.10406,0.0101778,3.71585,2.56937,3.06545,-2.26765,2.03361,0.00264026,-0.0612255,0.821072,0.136662,-0.170011,-0.705075,-0.866155,0.0879768,
0.0120637,-0.0513087,0.503591,-1.56441,-0.0252278,-0.0706202,0.527357,-0.174253,0.0630978,-0.183024,-0.086095,-1.11976,-1.28134,-0.0783767,0,0,0,0,0,0,0,0.0183707,-0.052517,0.510364,-1.5618,0.0259941,1.5565,1.31753,0.0173001,-0.00431816,0.0184941,0.0237366,-0.558123,-0.238914,0.00102333,-1.46435,-27.159,-2.13744,25.4077,-1.37909,1.10406,0.0101778,2.85912,2.84011,3.667,-2.48838,1.18476,0.360604,0.299898,0.261056,0.499176,0.0246611,-0.824018,-0.968255,0.0801863,
0.0113472,-0.0510347,0.502839,-1.56477,-0.029775,-0.0758002,0.527047,-0.179129,0.0685001,-0.187896,-0.0892491,-1.1368,-1.29499,-0.0773524,0,0,0,0,0,0,0,0.0190277,-0.0526009,0.511024,-1.56098,0.00482069,1.54602,1.31738,0.00931104,-0.00943783,0.00531287,0.00205332,-0.700315,-0.40338,-0.0214202,-4.17798,-25.9847,-5.33507,24.6619,-0.603641,1.0244,-0.0630644,2.85912,2.84011,3.667,-2.48838,1.18476,0.360604,0.299898,0.261056,0.499176,0.0246611,-0.824018,-0.968255,0.0801863,
0.0106133,-0.0507408,0.50207,-1.56513,-0.0343827,-0.0810252,0.526742,-0.183477,0.0734863,-0.192243,-0.0919749,-1.15192,-1.30625,-0.0763341,0,0,0,0,0,0,0,0.0190277,-0.0526009,0.511024,-1.56098,0.00482069,1.54602,1.31738,0.00931104,-0.00943783,0.00531287,0.00205332,-0.700315,-0.40338,-0.0214202,-4.17798,-25.9847,-5.33507,24.6619,-0.603641,1.0244,-0.0630644,1.16899,2.56374,4.28098,-2.07782,-0.247503,0.724062,0.682772,-0.614064,0.828136,0.391827,-0.731958,-1.00507,0.058023,
0.00933832,-0.051191,0.500813,-1.56645,-0.00597542,-0.0536863,0.52471,-0.30521,0.095987,-0.318494,-0.149413,-0.949999,-1.18586,-0.15859,0,0,0,0,0,0,0,0.0190277,-0.0526009,0.511024,-1.56098,0.00482069,1.54602,1.31738,0.00931104,-0.00943783,0.00531287,0.00205332,-0.700315,-0.40338,-0.0214202,-4.17798,-25.9847,-5.33507,24.6619,-0.603641,1.0244,-0.0630644,1.16899,2.56374,4.28098,-2.07782,-0.247503,0.724062,0.682772,-0.614064,0.828136,0.391827,-0.731958,-1.00507,0.058023,
0.010018,-0.0512396,0.501542,-1.56553,-0.0299498,-0.0670269,0.525353,-0.298263,0.0932833,-0.310562,-0.139486,-0.975368,-1.20667,-0.140394,0,0,0,0,0,0,0,0.0190277,-0.0526009,0.511024,-1.56098,0.00482069,1.54602,1.31738,0.00931104,-0.00943783,0.00531287,0.00205332,-0.700315,-0.40338,-0.0214202,-4.17798,-25.9847,-5.33507,24.6619,-0.603641,1.0244,-0.0630644,2.32548,1.80667,4.04417,-1.61688,0.843763,0.0711093,0.0558187,0.088661,0.139764,0.0864306,-0.722737,-1.14495,0.0320636,
0.00878442,-0.0508261,0.500259,-1.56611,-0.033977,-0.0719362,0.524799,-0.308387,0.103372,-0.320737,-0.144184,-1.00681,-1.22733,-0.138429,0,0,0,0,0,0,0,0.0190277,-0.0526009,0.511024,-1.56098,0.00482069,1.54602,1.31738,0.00931104,-0.00943783,0.00531287,0.00205332,-0.700315,-0.40338,-0.0214202,-4.17798,-25.9847,-5.33507,24.6619,-0.603641,1.0244,-0.0630644,4.85301,0.0619434,3.65028,-0.736072,2.90709,-1.42636,-1.42312,1.30477,-1.3904,-0.407249,-1.03417,-1.33145,0.00996242,
0.00751513,-0.0503754,0.49894,-1.5667,-0.0381194,-0.0769142,0.524253,-0.317321,0.112661,-0.329711,-0.148307,-1.03558,-1.24449,-0.136485,0,0,0,0,0,0,0,0.0190277,-0.0526009,0.511024,-1.56098,0.00482069,1.54602,1.31738,0.00931104,-0.00943783,0.00531287,0.00205332,-0.700315,-0.40338,-0.0214202,-4.17798,-25.9847,-5.33507,24.6619,-0.603641,1.0244,-0.0630644,4.85301,0.0619434,3.65028,-0.736072,2.90709,-1.42636,-1.42312,1.30477,-1.3904,-0.407249,-1.03417,-1.33145,0.00996242,
0.00621431,-0.0498907,0.49759,-1.56731,-0.0423665,-0.081949,0.523715,-0.325206,0.121173,-0.337631,-0.151888,-1.06177,-1.25871,-0.134558,0,0,0,0,0,0,0,0.0190325,-0.0530048,0.510981,-1.56107,-0.0191235,1.52956,1.31637,-0.00307721,-0.0232241,-0.00753894,-0.00777284,-0.714812,-0.55922,-0.0345037,-5.74902,-24.4136,-6.75933,24.4119,-0.304264,1.4547,-0.0365141,2.6429,-0.321765,3.49083,-0.476845,1.45604,-0.969729,-0.972808,0.586728,-0.934758,-0.373182,-0.942826,-1.46221,-0.0152108,
0.00488566,-0.049375,0.496211,-1.56793,-0.0467086,-0.087031,0.523184,-0.332162,0.128939,-0.344619,-0.154963,-1.08552,-1.27048,-0.132643,0,0,0,0,0,0,0,0.0190325,-0.0530048,0.510981,-1.56107,-0.0191235,1.52956,1.31637,-0.00307721,-0.0232241,-0.00753894,-0.00777284,-0.714812,-0.55922,-0.0345037,-5.74902,-24.4136,-6.75933,24.4119,-0.304264,1.4547,-0.0365141,2.6429,-0.321765,3.49083,-0.476845,1.45604,-0.969729,-0.972808,0.586728,-0.934758,-0.373182,-0.942826,-1.46221,-0.0152108,
0.0035325,-0.048831,0.494808,-1.56856,-0.0511365,-0.0921517,0.522661,-0.33829,0.135995,-0.350778,-0.157569,-1.10699,-1.28019,-0.130739,0,0,0,0,0,0,0,0.0190325,-0.0530048,0.510981,-1.56107,-0.0191235,1.52956,1.31637,-0.00307721,-0.0232241,-0.00753894,-0.00777284,-0.714812,-0.55922,-0.0345037,-5.74902,-24.4136,-6.75933,24.4119,-0.304264,1.4547,-0.0365141,1.09419,-0.350363,2.95561,-0.459601,0.666784,-0.528402,-0.538683,0.3126,-0.487587,-0.517864,-0.743129,-1.54995,-0.0467137,
0.00384001,-0.0499972,0.495243,-1.56913,-0.0281815,-0.0701075,0.521079,-0.449039,0.151756,-0.463675,-0.212653,-0.923729,-1.19404,-0.210806,0,0,0,0,0,0,0,0.0190325,-0.0530048,0.510981,-1.56107,-0.0191235,1.52956,1.31637,-0.00307721,-0.0232241,-0.00753894,-0.00777284,-0.714812,-0.55922,-0.0345037,-5.74902,-24.4136,-6.75933,24.4119,-0.304264,1.4547,-0.0365141,1.09419,-0.350363,2.95561,-0.459601,0.666784,-0.528402,-0.538683,0.3126,-0.487587,-0.517864,-0.743129,-1.54995,-0.0467137,
0.00432394,-0.0507228,0.495745,-1.56844,-0.0534884,-0.0892149,0.521479,-0.43068,0.139523,-0.443825,-0.190107,-0.937522,-1.20781,-0.1814,0,0,0,0,0,0,0,0.0190325,-0.0530048,0.510981,-1.56107,-0.0191235,1.52956,1.31637,-0.00307721,-0.0232241,-0.00753894,-0.00777284,-0.714812,-0.55922,-0.0345037,-5.74902,-24.4136,-6.75933,24.4119,-0.304264,1.4547,-0.0365141,1.17241,-0.612914,3.42518,-0.117317,0.593901,-0.651061,-0.66045,0.208803,-0.624057,-0.358529,-0.690816,-1.57288,-0.0776221,
0.00255585,-0.0501173,0.493924,-1.56922,-0.0573827,-0.0941049,0.520764,-0.442022,0.151367,-0.455241,-0.19412,-0.973561,-1.22251,-0.17857,0,0,0,0,0,0,0,0.0178085,-0.0533712,0.509225,-1.56206,-0.040649,1.51254,1.31482,-0.0488492,-0.0129554,-0.0685607,-0.0422494,-0.710492,-0.560145,-0.0440196,-5.80059,-23.8146,-6.73552,24.5627,-0.774845,1.14983,-0.197647,1.17241,-0.612914,3.42518,-0.117317,0.593901,-0.651061,-0.66045,0.208803,-0.624057,-0.358529,-0.690816,-1.57288,-0.0776221,
0.000747957,-0.0494689,0.492063,-1.57001,-0.0614092,-0.0990436,0.520061,-0.451973,0.162112,-0.465257,-0.197571,-1.00664,-1.23468,-0.175763,0,0,0,0,0,0,0,0.0178085,-0.0533712,0.509225,-1.56206,-0.040649,1.51254,1.31482,-0.0488492,-0.0129554,-0.0685607,-0.0422494,-0.710492,-0.560145,-0.0440196,-5.80059,-23.8146,-6.73552,24.5627,-0.774845,1.14983,-0.197647,2.02913,-0.194041,2.91585,-0.53542,1.49683,-0.678694,-0.692592,0.831036,-0.633186,-0.693634,-0.644184,-1.61522,-0.105572,
-0.00109483,-0.0487816,0.490167,-1.57081,-0.0655566,-0.104023,0.519369,-0.460697,0.171827,-0.474038,-0.200491,-1.03685,-1.24473,-0.172975,0,0,0,0,0,0,0,0.0178085,-0.0533712,0.509225,-1.56206,-0.040649,1.51254,1.31482,-0.0488492,-0.0129554,-0.0685607,-0.0422494,-0.710492,-0.560145,-0.0440196,-5.80059,-23.8146,-6.73552,24.5627,-0.774845,1.14983,-0.197647,2.35145,0.870667,1.72714,-1.44066,2.14865,-0.242148,-0.263526,1.38414,-0.161136,-1.08965,-0.509347,-1.47928,-0.13327,
-0.00296815,-0.0480593,0.48824,-1.57162,-0.0698139,-0.109034,0.518689,-0.468329,0.180578,-0.481725,-0.202916,-1.06432,-1.25298,-0.170202,0,0,0,0,0,0,0,0.0178085,-0.0533712,0.509225,-1.56206,-0.040649,1.51254,1.31482,-0.0488492,-0.0129554,-0.0685607,-0.0422494,-0.710492,-0.560145,-0.0440196,-5.80059,-23.8146,-6.73552,24.5627,-0.774845,1.14983,-0.197647,2.35145,0.870667,1.72714,-1.44066,2.14865,-0.242148,-0.263526,1.38414,-0.161136,-1.08965,-0.509347,-1.47928,-0.13327,
-0.0048681,-0.0473055,0.486287,-1.57244,-0.0741708,-0.114073,0.518019,-0.474987,0.188431,-0.488437,-0.204881,-1.08922,-1.25972,-0.167442,0,0,0,0,0,0,0,0.0178085,-0.0533712,0.509225,-1.56206,-0.040649,1.51254,1.31482,-0.0488492,-0.0129554,-0.0685607,-0.0422494,-0.710492,-0.560145,-0.0440196,-5.80059,-23.8146,-6.73552,24.5627,-0.774845,1.14983,-0.197647,1.10161,0.663686,1.26663,-1.12136,1.34792,0.0426626,0.0138936,0.994324,0.117057,-0.972173,-0.289375,-1.31081,-0.160778,
-0.000300618,-0.0499372,0.49109,-1.57123,-0.0481628,-0.0874174,0.517889,-0.561736,0.185254,-0.576263,-0.252895,-0.861851,-1.17509,-0.25109,0,0,0,0,0,0,0,0.0178085,-0.0533712,0.509225,-1.56206,-0.040649,1.51254,1.31482,-0.0488492,-0.0129554,-0.0685607,-0.0422494,-0.710492,-0.560145,-0.0440196,-5.80059,-23.8146,-6.73552,24.5627,-0.774845,1.14983,-0.197647,1.10161,0.663686,1.26663,-1.12136,1.34792,0.0426626,0.0138936,0.994324,0.117057,-0.972173,-0.289375,-1.31081,-0.160778,
-0.0016432,-0.0498767,0.489277,-1.57119,-0.0724801,-0.105124,0.518217,-0.545391,0.176816,-0.558359,-0.224763,-0.901366,-1.17926,-0.212336,0,0,0,0,0,0,0,0.0138206,-0.0539232,0.50378,-1.56449,-0.0696569,1.48601,1.31181,-0.12381,-0.0011903,-0.161214,-0.0835781,-0.712232,-0.689759,-0.0793054,-6.68927,-24.0367,-7.6599,24.7372,-1.11634,1.89965,-0.270889,-0.102047,-0.143412,2.16286,-0.0887988,0.0189906,0.0240875,-0.00196853,0.0540368,0.0560664,-0.309763,-0.14139,-1.13551,-0.185686,
-0.00387462,-0.0491173,0.486993,-1.5721,-0.0762476,-0.109898,0.517382,-0.557853,0.189842,-0.570918,-0.228577,-0.941888,-1.19341,-0.208661,0,0,0,0,0,0,0,0.0138206,-0.0539232,0.50378,-1.56449,-0.0696569,1.48601,1.31181,-0.12381,-0.0011903,-0.161214,-0.0835781,-0.712232,-0.689759,-0.0793054,-6.68927,-24.0367,-7.6599,24.7372,-1.11634,1.89965,-0.270889,0.417738,-0.336312,2.36639,0.169683,0.183634,-0.177053,-0.203477,0.0429335,-0.154577,-0.110364,-0.158468,-0.972564,-0.207524,
-0.00614952,-0.0483109,0.484665,-1.57303,-0.0801644,-0.114718,0.516562,-0.568725,0.201597,-0.581872,-0.23182,-0.979177,-1.20509,-0.205018,0,0,0,0,0,0,0,0.0138206,-0.0539232,0.50378,-1.56449,-0.0696569,1.48601,1.31181,-0.12381,-0.0011903,-0.161214,-0.0835781,-0.712232,-0.689759,-0.0793054,-6.68927,-24.0367,-7.6599,24.7372,-1.11634,1.89965,-0.270889,0.417738,-0.336312,2.36639,0.169683,0.183634,-0.177053,-0.203477,0.0429335,-0.154577,-0.110364,-0.158468,-0.972564,-0.207524,
-0.00846228,-0.0474623,0.4823,-1.57397,-0.0842176,-0.119577,0.515757,-0.578192,0.212161,-0.591412,-0.234519,-1.0133,-1.21468,-0.2014,0,0,0,0,0,0,0,0.0138206,-0.0539232,0.50378,-1.56449,-0.0696569,1.48601,1.31181,-0.12381,-0.0011903,-0.161214,-0.0835781,-0.712232,-0.689759,-0.0793054,-6.68927,-24.0367,-7.6599,24.7372,-1.11634,1.89965,-0.270889,0.301277,0.633319,1.33696,-0.661042,0.444067,0.333639,0.301594,0.348026,0.387596,-0.419238,-0.0572841,-0.852659,-0.227986,
-0.0108079,-0.0465758,0.479901,-1.57491,-0.0883951,-0.124467,0.514965,-0.586412,0.221617,-0.599699,-0.236707,-1.04439,-1.22253,-0.197805,0,0,0,0,0,0,0,0.0138206,-0.0539232,0.50378,-1.56449,-0.0696569,1.48601,1.31181,-0.12381,-0.0011903,-0.161214,-0.0835781,-0.712232,-0.689759,-0.0793054,-6.68927,-24.0367,-7.6599,24.7372,-1.11634,1.89965,-0.270889,0.301277,0.633319,1.33696,-0.661042,0.444067,0.333639,0.301594,0.348026,0.387596,-0.419238,-0.0572841,-0.852659,-0.227986,
-0.013182,-0.0456557,0.477474,-1.57587,-0.0926856,-0.129383,0.514188,-0.59352,0.230042,-0.606871,-0.23842,-1.07261,-1.22889,-0.194231,0,0,0,0,0,0,0,0.00866171,-0.0540161,0.497684,-1.56746,-0.0899967,1.46384,1.30944,-0.207384,0.00493785,-0.218144,-0.106408,-0.648881,-0.756897,-0.0792595,-6.56231,-23.763,-7.6361,25.3085,-0.340885,2.56249,-0.270889,-0.448649,0.0439185,0.812395,-0.25248,0.0653286,0.28451,0.246393,0.215793,0.332782,-0.469603,0.00658505,-0.797494,-0.24683,
-0.00604467,-0.0491221,0.485306,-1.57384,-0.0676656,-0.103337,0.514727,-0.666923,0.21952,-0.680942,-0.284346,-0.828294,-1.1469,-0.28005,0,0,0,0,0,0,0,0.00866171,-0.0540161,0.497684,-1.56746,-0.0899967,1.46384,1.30944,-0.207384,0.00493785,-0.218144,-0.106408,-0.648881,-0.756897,-0.0792595,-6.56231,-23.763,-7.6361,25.3085,-0.340885,2.56249,-0.270889,-0.278198,0.651974,1.09529,-0.476755,0.0089271,0.541885,0.510442,0.102593,0.584815,-0.253131,0.119849,-0.641611,-0.26588,
-0.0169997,-0.0482431,0.471532,-1.57852,-0.122293,-0.155679,0.511691,-0.665956,0.226628,-0.678572,-0.258786,-0.916429,-1.15585,-0.232329,0,0,0,0,0,0,0,0.00866171,-0.0540161,0.497684,-1.56746,-0.0899967,1.46384,1.30944,-0.207384,0.00493785,-0.218144,-0.106408,-0.648881,-0.756897,-0.0792595,-6.56231,-23.763,-7.6361,25.3085,-0.340885,2.56249,-0.270889,-0.278198,0.651974,1.09529,-0.476755,0.0089271,0.541885,0.510442,0.102593,0.584815,-0.253131,0.119849,-0.641611,-0.26588,
-0.0197088,-0.0472875,0.468772,-1.57956,-0.126118,-0.160342,0.510779,-0.677277,0.238906,-0.689996,-0.26157,-0.956069,-1.16596,-0.227919,0,0,0,0,0,0,0,0.00866171,-0.0540161,0.497684,-1.56746,-0.0899967,1.46384,1.30944,-0.207384,0.00493785,-0.218144,-0.106408,-0.648881,-0.756897,-0.0792595,-6.56231,-23.763,-7.6361,25.3085,-0.340885,2.56249,-0.270889,0.724913,1.57769,0.689425,-1.24237,0.894778,0.726384,0.705833,0.656191,0.783108,-0.502198,0.126171,-0.600063,-0.279225,
-0.0224569,-0.0462882,0.465973,-1.58062,-0.130088,-0.16504,0.509885,-0.687018,0.249814,-0.699827,-0.263808,-0.992477,-1.17427,-0.223548,0,0,0,0,0,0,0,0.00866171,-0.0540161,0.497684,-1.56746,-0.0899967,1.46384,1.30944,-0.207384,0.00493785,-0.218144,-0.106408,-0.648881,-0.756897,-0.0792595,-6.56231,-23.763,-7.6361,25.3085,-0.340885,2.56249,-0.270889,0.724913,1.57769,0.689425,-1.24237,0.894778,0.726384,0.705833,0.656191,0.783108,-0.502198,0.126171,-0.600063,-0.279225,
-0.0252383,-0.0452504,0.46314,-1.58168,-0.134191,-0.169764,0.509008,-0.695358,0.259451,-0.708247,-0.265525,-1.02574,-1.18108,-0.219213,0,0,0,0,0,0,0,0.00866171,-0.0540161,0.497684,-1.56746,-0.0899967,1.46384,1.30944,-0.207384,0.00493785,-0.218144,-0.106408,-0.648881,-0.756897,-0.0792595,-6.56231,-23.763,-7.6361,25.3085,-0.340885,2.56249,-0.270889,0.248949,1.12545,0.0562999,-1.1677,0.833382,0.652755,0.631386,0.751293,0.714311,-0.784644,0.0350724,-0.702834,-0.291914,
-0.0280481,-0.0441787,0.460278,-1.58275,-0.138415,-0.17451,0.508149,-0.702448,0.267915,-0.71541,-0.266749,-1.05601,-1.1866,-0.214912,0,0,0,0,0,0,0,0.000723954,-0.0539628,0.489258,-1.57137,-0.109846,1.44034,1.30716,-0.275364,0.00165426,-0.313587,-0.137504,-0.583483,-0.733956,-0.0915797,-7.1455,-23.5646,-8.23516,24.0628,-0.603641,1.8731,-0.23793,0.0343223,0.560718,-0.144526,-0.785896,0.752999,0.449291,0.419308,0.739936,0.508738,-0.821887,0.029772,-0.707413,-0.297646,
-0.0308817,-0.0430776,0.457392,-1.58382,-0.142748,-0.179275,0.507306,-0.708416,0.275296,-0.721447,-0.267511,-1.08345,-1.19106,-0.210644,0,0,0,0,0,0,0,0.000723954,-0.0539628,0.489258,-1.57137,-0.109846,1.44034,1.30716,-0.275364,0.00165426,-0.313587,-0.137504,-0.583483,-0.733956,-0.0915797,-7.1455,-23.5646,-8.23516,24.0628,-0.603641,1.8731,-0.23793,0.0343223,0.560718,-0.144526,-0.785896,0.752999,0.449291,0.419308,0.739936,0.508738,-0.821887,0.029772,-0.707413,-0.297646,
-0.0187104,-0.047041,0.470871,-1.58102,-0.120752,-0.15417,0.50837,-0.722512,0.270303,-0.713841,-0.319478,-0.873972,-1.13051,-0.297404,0,0,0,0,0,0,0,0.000723954,-0.0539628,0.489258,-1.57137,-0.109846,1.44034,1.30716,-0.275364,0.00165426,-0.313587,-0.137504,-0.583483,-0.733956,-0.0915797,-7.1455,-23.5646,-8.23516,24.0628,-0.603641,1.8731,-0.23793,-0.0410708,-0.777724,0.0866156,0.125575,0.637003,-0.16575,-0.192559,0.649178,-0.133324,-0.773587,-0.0946329,-0.813575,-0.302173,
-0.0282605,-0.0472063,0.460809,-1.58338,-0.142171,-0.177739,0.50878,-0.741368,0.242321,-0.732934,-0.290511,-0.901847,-1.05443,-0.242417,0,0,0,0,0,0,0,0.000723954,-0.0539628,0.489258,-1.57137,-0.109846,1.44034,1.30716,-0.275364,0.00165426,-0.313587,-0.137504,-0.583483,-0.733956,-0.0915797,-7.1455,-23.5646,-8.23516,24.0628,-0.603641,1.8731,-0.23793,-0.0410708,-0.777724,0.0866156,0.125575,0.637003,-0.16575,-0.192559,0.649178,-0.133324,-0.773587,-0.0946329,-0.813575,-0.302173,
-0.0312765,-0.0461959,0.457813,-1.58457,-0.145919,-0.181747,0.507831,-0.753987,0.252593,-0.749165,-0.298763,-0.937017,-1.00205,-0.237246,0,0,0,0,0,0,0,0.000723954,-0.0539628,0.489258,-1.57137,-0.109846,1.44034,1.30716,-0.275364,0.00165426,-0.313587,-0.137504,-0.583483,-0.733956,-0.0915797,-7.1455,-23.5646,-8.23516,24.0628,-0.603641,1.8731,-0.23793,0.184227,-1.45007,0.135721,0.441534,0.784419,-0.536136,-0.552258,0.721998,-0.518081,-0.840073,-0.282181,-0.905255,-0.305529,
-0.0343308,-0.0451474,0.454754,-1.58579,-0.149799,-0.18549,0.506903,-0.763586,0.262126,-0.764596,-0.30571,-0.969967,-0.93574,-0.232086,0,0,0,0,0,0,0,-0.00931206,-0.0532713,0.47831,-1.57606,-0.129702,1.41711,1.30372,-0.341867,0.0354877,-0.363025,-0.148136,-0.623324,-0.707807,-0.11898,-7.04236,-23.3147,-7.88603,23.7653,-1.48896,1.44829,-0.230606,0.523719,-1.17899,-0.321162,0.0397462,1.23819,-0.488423,-0.501775,1.05884,-0.456358,-1.11497,-0.371838,-0.960208,-0.304668,
-0.0374162,-0.0440628,0.451641,-1.58703,-0.153801,-0.188945,0.505994,-0.771354,0.271157,-0.778309,-0.31032,-1.00057,-0.863769,-0.227155,0,0,0,0,0,0,0,-0.00931206,-0.0532713,0.47831,-1.57606,-0.129702,1.41711,1.30372,-0.341867,0.0354877,-0.363025,-0.148136,-0.623324,-0.707807,-0.11898,-7.04236,-23.3147,-7.88603,23.7653,-1.48896,1.44829,-0.230606,0.523719,-1.17899,-0.321162,0.0397462,1.23819,-0.488423,-0.501775,1.05884,-0.456358,-1.11497,-0.371838,-0.960208,-0.304668,
-0.0405286,-0.0429457,0.448482,-1.58829,-0.157916,-0.192092,0.505105,-0.7781,0.279277,-0.789876,-0.31347,-1.0287,-0.786638,-0.222317,0,0,0,0,0,0,0,-0.00931206,-0.0532713,0.47831,-1.57606,-0.129702,1.41711,1.30372,-0.341867,0.0354877,-0.363025,-0.148136,-0.623324,-0.707807,-0.11898,-7.04236,-23.3147,-7.88603,23.7653,-1.48896,1.44829,-0.230606,0.781673,-0.556274,-0.824829,-0.523617,1.71679,-0.260839,-0.272909,1.44459,-0.211428,-1.42178,-0.335823,-1.02264,-0.308013,
-0.04367,-0.0417996,0.445292,-1.58955,-0.162136,-0.194912,0.504235,-0.785336,0.28651,-0.797345,-0.315436,-1.05511,-0.705024,-0.217524,0,0,0,0,0,0,0,-0.00931206,-0.0532713,0.47831,-1.57606,-0.129702,1.41711,1.30372,-0.341867,0.0354877,-0.363025,-0.148136,-0.623324,-0.707807,-0.11898,-7.04236,-23.3147,-7.88603,23.7653,-1.48896,1.44829,-0.230606,0.781673,-0.556274,-0.824829,-0.523617,1.71679,-0.260839,-0.272909,1.44459,-0.211428,-1.42178,-0.335823,-1.02264,-0.308013,
-0.0280466,-0.0455107,0.460984,-1.58562,-0.142289,-0.176929,0.505542,-0.735687,0.301417,-0.727537,-0.337099,-0.904533,-1.11254,-0.305894,0,0,0,0,0,0,0,-0.00931206,-0.0532713,0.47831,-1.57606,-0.129702,1.41711,1.30372,-0.341867,0.0354877,-0.363025,-0.148136,-0.623324,-0.707807,-0.11898,-7.04236,-23.3147,-7.88603,23.7653,-1.48896,1.44829,-0.230606,-1.74307,0.728487,-0.675693,-1.34281,-0.149605,0.93395,0.910615,0.407444,1.01143,-1.19917,-0.20507,-1.01611,-0.305567,
-0.0396709,-0.0452305,0.448443,-1.58965,-0.164139,-0.187837,0.505074,-0.759778,0.260826,-0.751809,-0.337316,-0.916335,-0.350877,-0.246694,0,0,0,0,0,0,0,-0.00931206,-0.0532713,0.47831,-1.57606,-0.129702,1.41711,1.30372,-0.341867,0.0354877,-0.363025,-0.148136,-0.623324,-0.707807,-0.11898,-7.04236,-23.3147,-7.88603,23.7653,-1.48896,1.44829,-0.230606,-2.25237,1.04656,-0.434696,-1.59943,-0.626869,1.19793,1.1787,0.0913266,1.27829,-1.09645,-0.278542,-1.03098,-0.302424,
-0.0427618,-0.044146,0.445383,-1.59101,-0.167922,-0.188805,0.504106,-0.772711,0.271119,-0.764966,-0.339274,-0.945615,-0.242059,-0.241877,0,0,0,0,0,0,0,-0.0259636,-0.0518137,0.461038,-1.58357,-0.153294,1.39307,1.29872,-0.438004,0.053504,-0.45907,-0.203648,-0.570465,-0.483054,-0.112732,-6.63769,-23.9375,-7.46153,24.4873,-1.45234,1.77331,-0.210464,-2.25237,1.04656,-0.434696,-1.59943,-0.626869,1.19793,1.1787,0.0913266,1.27829,-1.09645,-0.278542,-1.03098,-0.302424,
-0.0458966,-0.0430203,0.442279,-1.59235,-0.171813,-0.189421,0.503165,-0.783705,0.281429,-0.776162,-0.335531,-0.972939,-0.153874,-0.235343,0,0,0,0,0,0,0,-0.0259636,-0.0518137,0.461038,-1.58357,-0.153294,1.39307,1.29872,-0.438004,0.053504,-0.45907,-0.203648,-0.570465,-0.483054,-0.112732,-6.63769,-23.9375,-7.46153,24.4873,-1.45234,1.77331,-0.210464,0.820177,-2.37636,0.373593,0.805246,1.14006,-1.14279,-1.1676,0.865953,-1.11758,-0.905006,-0.667434,-1.03084,-0.288944,
-0.0490704,-0.0418615,0.439134,-1.59367,-0.175802,-0.189739,0.502244,-0.79344,0.289713,-0.78614,-0.330743,-0.997271,-0.0794676,-0.230326,0,0,0,0,0,0,0,-0.0259636,-0.0518137,0.461038,-1.58357,-0.153294,1.39307,1.29872,-0.438004,0.053504,-0.45907,-0.203648,-0.570465,-0.483054,-0.112732,-6.63769,-23.9375,-7.46153,24.4873,-1.45234,1.77331,-0.210464,0.820177,-2.37636,0.373593,0.805246,1.14006,-1.14279,-1.1676,0.865953,-1.11758,-0.905006,-0.667434,-1.03084,-0.288944,
-0.0522789,-0.0406779,0.435954,-1.59498,-0.179877,-0.189803,0.501342,-0.802128,0.295906,-0.795084,-0.325683,-1.01877,-0.0161586,-0.225489,0,0,0,0,0,0,0,-0.0259636,-0.0518137,0.461038,-1.58357,-0.153294,1.39307,1.29872,-0.438004,0.053504,-0.45907,-0.203648,-0.570465,-0.483054,-0.112732,-6.63769,-23.9375,-7.46153,24.4873,-1.45234,1.77331,-0.210464,2.79311,-1.4875,0.63171,0.288602,2.39847,-1.14094,-1.15285,1.45939,-1.11545,-0.865606,-0.62812,-0.885783,-0.286222,
-0.0555185,-0.0394773,0.432741,-1.59626,-0.184028,-0.189652,0.500459,-0.809903,0.30014,-0.803121,-0.320655,-1.03769,0.0379722,-0.220724,0,0,0,0,0,0,0,-0.0259636,-0.0518137,0.461038,-1.58357,-0.153294,1.39307,1.29872,-0.438004,0.053504,-0.45907,-0.203648,-0.570465,-0.483054,-0.112732,-6.63769,-23.9375,-7.46153,24.4873,-1.45234,1.77331,-0.210464,2.79311,-1.4875,0.63171,0.288602,2.39847,-1.14094,-1.15285,1.45939,-1.11545,-0.865606,-0.62812,-0.885783,-0.286222,
-0.0394034,-0.0435961,0.448675,-1.59132,-0.164478,-0.196077,0.501921,-0.754718,0.309136,-0.747173,-0.384799,-0.924898,-0.751184,-0.308325,0,0,0,0,0,0,0,-0.0407515,-0.0500831,0.445857,-1.59125,-0.171901,1.38153,1.29421,-0.48595,0.0685383,-0.503064,-0.257464,-0.582783,-0.222899,-0.147616,-5.34436,-25.8101,-6.13646,25.3323,-1.19599,2.69524,-0.210464,0.409981,0.48204,1.34512,-0.831637,0.284849,0.347844,0.3399,0.120935,0.388541,-0.304139,-0.448185,-0.71285,-0.288825,
-0.0738512,-0.0399403,0.413153,-1.60592,-0.20933,-0.193839,0.495523,-0.78364,0.274958,-0.777084,-0.323273,-0.95568,0.0446924,-0.250285,0,0,0,0,0,0,0,-0.0407515,-0.0500831,0.445857,-1.59125,-0.171901,1.38153,1.29421,-0.48595,0.0685383,-0.503064,-0.257464,-0.582783,-0.222899,-0.147616,-5.34436,-25.8101,-6.13646,25.3323,-1.19599,2.69524,-0.210464,-0.948698,-0.164926,1.31434,-0.328508,-0.809804,0.337432,0.321458,-0.51125,0.36961,-0.0746358,-0.46196,-0.607263,-0.282124,
-0.0770178,-0.0387978,0.410011,-1.60715,-0.213258,-0.193703,0.494568,-0.79166,0.285612,-0.785287,-0.308098,-0.981896,0.0340293,-0.238836,0,0,0,0,0,0,0,-0.0407515,-0.0500831,0.445857,-1.59125,-0.171901,1.38153,1.29421,-0.48595,0.0685383,-0.503064,-0.257464,-0.582783,-0.222899,-0.147616,-5.34436,-25.8101,-6.13646,25.3323,-1.19599,2.69524,-0.210464,-0.948698,-0.164926,1.31434,-0.328508,-0.809804,0.337432,0.321458,-0.51125,0.36961,-0.0746358,-0.46196,-0.607263,-0.282124,
-0.0802183,-0.0376416,0.406834,-1.60837,-0.217267,-0.193503,0.493633,-0.80013,0.289053,-0.794292,-0.305188,-1.00244,0.0499902,-0.233642,0,0,0,0,0,0,0,-0.0407515,-0.0500831,0.445857,-1.59125,-0.171901,1.38153,1.29421,-0.48595,0.0685383,-0.503064,-0.257464,-0.582783,-0.222899,-0.147616,-5.34436,-25.8101,-6.13646,25.3323,-1.19599,2.69524,-0.210464,-1.2451,0.942908,1.32126,-0.997332,-1.08141,0.937403,0.924081,-0.701029,0.980093,0.0328954,-0.339899,-0.48119,-0.275813,
-0.0834304,-0.03648,0.403609,-1.6096,-0.221355,-0.193178,0.492718,-0.803022,0.290402,-0.806333,-0.305575,-1.02184,0.0813445,-0.228807,0,0,0,0,0,0,0,-0.0407515,-0.0500831,0.445857,-1.59125,-0.171901,1.38153,1.29421,-0.48595,0.0685383,-0.503064,-0.257464,-0.582783,-0.222899,-0.147616,-5.34436,-25.8101,-6.13646,25.3323,-1.19599,2.69524,-0.210464,-1.2451,0.942908,1.32126,-0.997332,-1.08141,0.937403,0.924081,-0.701029,0.980093,0.0328954,-0.339899,-0.48119,-0.275813,
-0.0866536,-0.0353123,0.400352,-1.61081,-0.225522,-0.192732,0.491821,-0.805793,0.29191,-0.814242,-0.304188,-1.04176,0.111516,-0.224078,0,0,0,0,0,0,0,-0.057362,-0.0471892,0.429085,-1.59936,-0.192158,1.37816,1.28954,-0.521689,0.0823664,-0.54242,-0.253929,-0.641781,-0.0371497,-0.13311,-6.00293,-25.9847,-6.58476,25.6815,-1.42762,2.81426,-0.143631,2.81615,0.0450539,-0.519268,-0.736713,2.56808,-0.271879,-0.286887,1.5863,-0.219517,-0.9058,-0.472292,-0.41905,-0.271872,
-0.0736458,-0.0385553,0.413329,-1.60765,-0.209719,-0.202018,0.492563,-0.781412,0.319004,-0.775133,-0.37865,-0.962491,-0.116119,-0.307897,0,0,0,0,0,0,0,-0.057362,-0.0471892,0.429085,-1.59936,-0.192158,1.37816,1.28954,-0.521689,0.0823664,-0.54242,-0.253929,-0.641781,-0.0371497,-0.13311,-6.00293,-25.9847,-6.58476,25.6815,-1.42762,2.81426,-0.143631,2.81615,0.0450539,-0.519268,-0.736713,2.56808,-0.271879,-0.286887,1.5863,-0.219517,-0.9058,-0.472292,-0.41905,-0.271872,
-0.0913682,-0.0375546,0.395378,-1.61387,-0.231178,-0.185678,0.491043,-0.785155,0.257146,-0.79254,-0.312185,-0.969521,0.309911,-0.24878,0,0,0,0,0,0,0,-0.057362,-0.0471892,0.429085,-1.59936,-0.192158,1.37816,1.28954,-0.521689,0.0823664,-0.54242,-0.253929,-0.641781,-0.0371497,-0.13311,-6.00293,-25.9847,-6.58476,25.6815,-1.42762,2.81426,-0.143631,2.61463,1.02266,-0.987793,-1.39683,2.56664,0.281704,0.259878,1.62652,0.355146,-0.989602,-0.364609,-0.301436,-0.266837,
-0.0945088,-0.0364787,0.392204,-1.61505,-0.235199,-0.184525,0.490097,-0.785152,0.268976,-0.793641,-0.294767,-1.0052,0.288082,-0.236316,0,0,0,0,0,0,0,-0.057362,-0.0471892,0.429085,-1.59936,-0.192158,1.37816,1.28954,-0.521689,0.0823664,-0.54242,-0.253929,-0.641781,-0.0371497,-0.13311,-6.00293,-25.9847,-6.58476,25.6815,-1.42762,2.81426,-0.143631,2.14834,0.681249,-0.728918,-1.08657,1.96741,0.24924,0.236829,1.19028,0.302959,-0.696134,-0.410394,-0.154342,-0.262482,
-0.0976544,-0.0353871,0.389024,-1.61621,-0.239333,-0.18336,0.489172,-0.78638,0.272889,-0.794951,-0.290759,-1.03351,0.29139,-0.231287,0,0,0,0,0,0,0,-0.057362,-0.0471892,0.429085,-1.59936,-0.192158,1.37816,1.28954,-0.521689,0.0823664,-0.54242,-0.253929,-0.641781,-0.0371497,-0.13311,-6.00293,-25.9847,-6.58476,25.6815,-1.42762,2.81426,-0.143631,2.14834,0.681249,-0.728918,-1.08657,1.96741,0.24924,0.236829,1.19028,0.302959,-0.696134,-0.410394,-0.154342,-0.262482,
-0.100803,-0.0342908,0.385841,-1.61738,-0.243564,-0.182125,0.488265,-0.787102,0.274077,-0.795728,-0.290731,-1.05783,0.308639,-0.226802,0,0,0,0,0,0,0,-0.057362,-0.0471892,0.429085,-1.59936,-0.192158,1.37816,1.28954,-0.521689,0.0823664,-0.54242,-0.253929,-0.641781,-0.0371497,-0.13311,-6.00293,-25.9847,-6.58476,25.6815,-1.42762,2.81426,-0.143631,1.84068,-0.0514853,-0.78289,-0.555244,1.80809,-0.0652106,-0.0739589,1.14932,-0.0285544,-0.713677,-0.403374,-0.205217,-0.259197,
-0.10395,-0.0331931,0.382659,-1.61854,-0.247883,-0.180797,0.487375,-0.786811,0.274415,-0.795488,-0.29102,-1.07965,0.33205,-0.222466,0,0,0,0,0,0,0,-0.0745984,-0.0438215,0.411459,-1.60723,-0.21387,1.37877,1.28547,-0.581451,0.122432,-0.576975,-0.247542,-0.719389,0.060197,-0.141104,-2.91241,-27.758,-3.61327,24.9118,-1.2262,2.19079,-0.204056,1.84068,-0.0514853,-0.78289,-0.555244,1.80809,-0.0652106,-0.0739589,1.14932,-0.0285544,-0.713677,-0.403374,-0.205217,-0.259197,
-0.0911958,-0.0362245,0.395579,-1.61552,-0.231582,-0.193537,0.488187,-0.790672,0.298657,-0.785082,-0.364196,-0.97435,0.137952,-0.304461,0,0,0,0,0,0,0,-0.0745984,-0.0438215,0.411459,-1.60723,-0.21387,1.37877,1.28547,-0.581451,0.122432,-0.576975,-0.247542,-0.719389,0.060197,-0.141104,-2.91241,-27.758,-3.61327,24.9118,-1.2262,2.19079,-0.204056,1.53742,0.909699,-1.71402,-1.26421,2.06267,0.476644,0.471197,1.46891,0.526036,-1.09096,-0.256671,-0.212468,-0.25666,
-0.109523,-0.0339809,0.376607,-1.62164,-0.255399,-0.179195,0.4871,-0.773981,0.257116,-0.783953,-0.290583,-1.03017,0.370526,-0.240262,0,0,0,0,0,0,0,-0.0745984,-0.0438215,0.411459,-1.60723,-0.21387,1.37877,1.28547,-0.581451,0.122432,-0.576975,-0.247542,-0.719389,0.060197,-0.141104,-2.91241,-27.758,-3.61327,24.9118,-1.2262,2.19079,-0.204056,1.53742,0.909699,-1.71402,-1.26421,2.06267,0.476644,0.471197,1.46891,0.526036,-1.09096,-0.256671,-0.212468,-0.25666,
-0.112611,-0.0329366,0.37348,-1.62279,-0.259634,-0.17771,0.486158,-0.772008,0.261073,-0.781882,-0.286761,-1.0589,0.371258,-0.235376,0,0,0,0,0,0,0,-0.0745984,-0.0438215,0.411459,-1.60723,-0.21387,1.37877,1.28547,-0.581451,0.122432,-0.576975,-0.247542,-0.719389,0.060197,-0.141104,-2.91241,-27.758,-3.61327,24.9118,-1.2262,2.19079,-0.204056,0.922897,-0.0951654,-1.4145,-0.532604,1.39504,0.100391,0.0852613,1.03469,0.140696,-0.835351,-0.345432,-0.151321,-0.251661,
-0.115692,-0.0318871,0.37036,-1.62393,-0.263963,-0.176185,0.485234,-0.770136,0.262388,-0.779942,-0.286173,-1.0822,0.381217,-0.231062,0,0,0,0,0,0,0,-0.0745984,-0.0438215,0.411459,-1.60723,-0.21387,1.37877,1.28547,-0.581451,0.122432,-0.576975,-0.247542,-0.719389,0.060197,-0.141104,-2.91241,-27.758,-3.61327,24.9118,-1.2262,2.19079,-0.204056,-0.0191508,-0.0689037,0.142049,-0.338847,0.0614586,0.230997,0.226128,0.0340168,0.249435,-0.190252,-0.352591,-0.179351,-0.247441,
-0.118764,-0.0308372,0.367249,-1.62508,-0.26837,-0.174594,0.484327,-0.767943,0.262478,-0.777705,-0.286459,-1.10175,0.397859,-0.226865,0,0,0,0,0,0,0,-0.0931237,-0.0392101,0.392138,-1.61501,-0.237994,1.38342,1.28136,-0.586735,0.163346,-0.607876,-0.246374,-0.756013,0.221018,-0.127147,-2.37683,-28.9562,-3.01024,24.9118,-1.48896,1.57464,-0.298355,-0.0191508,-0.0689037,0.142049,-0.338847,0.0614586,0.230997,0.226128,0.0340168,0.249435,-0.190252,-0.352591,-0.179351,-0.247441,
-0.121833,-0.0297932,0.364142,-1.62623,-0.272755,-0.172907,0.483435,-0.767286,0.260991,-0.776877,-0.287242,-1.09628,0.42179,-0.222811,0,0,0,0,0,0,0,-0.0931237,-0.0392101,0.392138,-1.61501,-0.237994,1.38342,1.28136,-0.586735,0.163346,-0.607876,-0.246374,-0.756013,0.221018,-0.127147,-2.37683,-28.9562,-3.01024,24.9118,-1.48896,1.57464,-0.298355,-0.573373,-0.22391,0.486135,-0.235206,-0.385654,0.203465,0.206448,-0.224453,0.21051,-0.127707,-0.37896,-0.296297,-0.247173,
-0.124901,-0.0287566,0.361035,-1.62737,-0.277034,-0.171129,0.48256,-0.767125,0.259153,-0.776616,-0.286306,-1.0696,0.444358,-0.218913,0,0,0,0,0,0,0,-0.0931237,-0.0392101,0.392138,-1.61501,-0.237994,1.38342,1.28136,-0.586735,0.163346,-0.607876,-0.246374,-0.756013,0.221018,-0.127147,-2.37683,-28.9562,-3.01024,24.9118,-1.48896,1.57464,-0.298355,-0.573373,-0.22391,0.486135,-0.235206,-0.385654,0.203465,0.206448,-0.224453,0.21051,-0.127707,-0.37896,-0.296297,-0.247173,
-0.109632,-0.0328519,0.376712,-1.62334,-0.255462,-0.184148,0.484346,-0.801338,0.28857,-0.79654,-0.343018,-0.996597,0.275079,-0.294753,0,0,0,0,0,0,0,-0.0931237,-0.0392101,0.392138,-1.61501,-0.237994,1.38342,1.28136,-0.586735,0.163346,-0.607876,-0.246374,-0.756013,0.221018,-0.127147,-2.37683,-28.9562,-3.01024,24.9118,-1.48896,1.57464,-0.298355,-0.722598,1.72119,-1.09795,-1.7199,0.265567,1.24863,1.25395,0.382782,1.28319,-0.776765,-0.239257,-0.266695,-0.250542,
-0.128108,-0.0291726,0.356929,-1.6294,-0.279135,-0.167825,0.483077,-0.767336,0.242687,-0.778278,-0.290702,-0.868483,0.503694,-0.241062,0,0,0,0,0,0,0,-0.0931237,-0.0392101,0.392138,-1.61501,-0.237994,1.38342,1.28136,-0.586735,0.163346,-0.607876,-0.246374,-0.756013,0.221018,-0.127147,-2.37683,-28.9562,-3.01024,24.9118,-1.48896,1.57464,-0.298355,-0.722598,1.72119,-1.09795,-1.7199,0.265567,1.24863,1.25395,0.382782,1.28319,-0.776765,-0.239257,-0.266695,-0.250542,
-0.131175,-0.0281957,0.353819,-1.63055,-0.282451,-0.165764,0.482132,-0.766782,0.244239,-0.777616,-0.287097,-0.828922,0.515233,-0.236297,0,0,0,0,0,0,0,-0.0931237,-0.0392101,0.392138,-1.61501,-0.237994,1.38342,1.28136,-0.586735,0.163346,-0.607876,-0.246374,-0.756013,0.221018,-0.127147,-2.37683,-28.9562,-3.01024,24.9118,-1.48896,1.57464,-0.298355,-0.0144097,-1.27915,-1.81753,0.0904735,1.07941,-0.386482,-0.383887,1.03987,-0.375707,-1.11348,-0.527329,-0.372815,-0.241911,
-0.134239,-0.0272193,0.350711,-1.63169,-0.285582,-0.163641,0.481203,-0.766089,0.244079,-0.776847,-0.28522,-0.782659,0.530656,-0.232159,0,0,0,0,0,0,0,-0.113066,-0.0331071,0.37142,-1.6222,-0.26393,1.394,1.2763,-0.609271,0.201183,-0.633309,-0.197639,-0.789486,0.397722,-0.142127,-1.99597,-30.4042,-2.48656,25.2094,-1.66657,1.36864,-0.258072,0.107219,-1.89444,-1.67992,0.471681,1.12616,-0.730918,-0.718174,1.06398,-0.735667,-1.09245,-0.615757,-0.414904,-0.240364,
-0.137298,-0.0262458,0.347609,-1.63282,-0.288509,-0.161466,0.48029,-0.764784,0.243392,-0.775486,-0.282834,-0.7318,0.543751,-0.228169,0,0,0,0,0,0,0,-0.113066,-0.0331071,0.37142,-1.6222,-0.26393,1.394,1.2763,-0.609271,0.201183,-0.633309,-0.197639,-0.789486,0.397722,-0.142127,-1.99597,-30.4042,-2.48656,25.2094,-1.66657,1.36864,-0.258072,0.107219,-1.89444,-1.67992,0.471681,1.12616,-0.730918,-0.718174,1.06398,-0.735667,-1.09245,-0.615757,-0.414904,-0.240364,
-0.140349,-0.0252761,0.344516,-1.63394,-0.291219,-0.159262,0.479393,-0.762682,0.242421,-0.773346,-0.279467,-0.677438,0.551187,-0.224331,0,0,0,0,0,0,0,-0.113066,-0.0331071,0.37142,-1.6222,-0.26393,1.394,1.2763,-0.609271,0.201183,-0.633309,-0.197639,-0.789486,0.397722,-0.142127,-1.99597,-30.4042,-2.48656,25.2094,-1.66657,1.36864,-0.258072,0.260103,-0.273429,-2.15326,-0.567382,1.47144,0.0988071,0.117579,1.29146,0.102376,-1.27739,-0.450894,-0.347698,-0.243597,
-0.125471,-0.0292951,0.360015,-1.62967,-0.276158,-0.17295,0.481586,-0.800174,0.265981,-0.796705,-0.346116,-0.977901,0.430934,-0.307122,0,0,0,0,0,0,0,-0.113066,-0.0331071,0.37142,-1.6222,-0.26393,1.394,1.2763,-0.609271,0.201183,-0.633309,-0.197639,-0.789486,0.397722,-0.142127,-1.99597,-30.4042,-2.48656,25.2094,-1.66657,1.36864,-0.258072,0.260103,-0.273429,-2.15326,-0.567382,1.47144,0.0988071,0.117579,1.29146,0.102376,-1.27739,-0.450894,-0.347698,-0.243597,
-0.145206,-0.0240885,0.338829,-1.63513,-0.296213,-0.152152,0.47877,-0.769508,0.225584,-0.781719,-0.291564,-0.551085,0.591237,-0.256364,0,0,0,0,0,0,0,-0.113066,-0.0331071,0.37142,-1.6222,-0.26393,1.394,1.2763,-0.609271,0.201183,-0.633309,-0.197639,-0.789486,0.397722,-0.142127,-1.99597,-30.4042,-2.48656,25.2094,-1.66657,1.36864,-0.258072,-0.235655,-0.463476,-2.38168,-0.452253,1.20329,0.0729579,0.0892663,1.1905,0.0755964,-1.30833,-0.473818,-0.323275,-0.242383,
-0.148274,-0.0231798,0.335711,-1.63629,-0.298246,-0.149794,0.47775,-0.767059,0.227155,-0.779618,-0.288732,-0.508365,0.589406,-0.255146,0,0,0,0,0,0,0,-0.133626,-0.0267224,0.34997,-1.629,-0.286855,1.40876,1.27095,-0.615858,0.196379,-0.652553,-0.203077,-0.583848,0.493763,-0.159462,-2.30145,-31.4992,-2.58574,24.9118,-1.28113,1.65429,-0.224197,-0.235655,-0.463476,-2.38168,-0.452253,1.20329,0.0729579,0.0892663,1.1905,0.0755964,-1.30833,-0.473818,-0.323275,-0.242383,
-0.151319,-0.0222543,0.332616,-1.63741,-0.300131,-0.147483,0.476778,-0.761187,0.231398,-0.773593,-0.279893,-0.471245,0.577663,-0.242843,0,0,0,0,0,0,0,-0.133626,-0.0267224,0.34997,-1.629,-0.286855,1.40876,1.27095,-0.615858,0.196379,-0.652553,-0.203077,-0.583848,0.493763,-0.159462,-2.30145,-31.4992,-2.58574,24.9118,-1.28113,1.65429,-0.224197,-0.633838,-2.46749,-2.24325,0.867275,0.807411,-0.934984,-0.922903,1.01519,-0.945753,-1.18068,-0.631856,-0.337045,-0.23698,
-0.154343,-0.0213251,0.329544,-1.63851,-0.301854,-0.145211,0.475825,-0.755894,0.232289,-0.76815,-0.275471,-0.430627,0.568072,-0.238335,0,0,0,0,0,0,0,-0.133626,-0.0267224,0.34997,-1.629,-0.286855,1.40876,1.27095,-0.615858,0.196379,-0.652553,-0.203077,-0.583848,0.493763,-0.159462,-2.30145,-31.4992,-2.58574,24.9118,-1.28113,1.65429,-0.224197,-0.454267,-1.31646,-2.78674,0.21022,1.20426,-0.362097,-0.33761,1.30848,-0.378362,-1.3854,-0.433771,-0.281273,-0.232701,
-0.157345,-0.0203984,0.326492,-1.6396,-0.303405,-0.14298,0.474887,-0.750698,0.231666,-0.762824,-0.27239,-0.387886,0.557789,-0.234437,0,0,0,0,0,0,0,-0.133626,-0.0267224,0.34997,-1.629,-0.286855,1.40876,1.27095,-0.615858,0.196379,-0.652553,-0.203077,-0.583848,0.493763,-0.159462,-2.30145,-31.4992,-2.58574,24.9118,-1.28113,1.65429,-0.224197,-0.454267,-1.31646,-2.78674,0.21022,1.20426,-0.362097,-0.33761,1.30848,-0.378362,-1.3854,-0.433771,-0.281273,-0.232701,
-0.146024,-0.0233766,0.338493,-1.63649,-0.300927,-0.15442,0.476428,-0.807741,0.250243,-0.821133,-0.333539,-0.774146,0.551302,-0.30673,0,0,0,0,0,0,0,-0.133626,-0.0267224,0.34997,-1.629,-0.286855,1.40876,1.27095,-0.615858,0.196379,-0.652553,-0.203077,-0.583848,0.493763,-0.159462,-2.30145,-31.4992,-2.58574,24.9118,-1.28113,1.65429,-0.224197,-1.26312,0.990904,-2.30735,-1.11547,0.442157,0.909733,0.936645,0.733528,0.900266,-1.14531,-0.175995,-0.205761,-0.23418,
-0.165502,-0.0181419,0.317536,-1.64157,-0.301919,-0.136994,0.473255,-0.748084,0.211371,-0.760774,-0.282031,-0.137817,0.522289,-0.25821,0,0,0,0,0,0,0,-0.133626,-0.0267224,0.34997,-1.629,-0.286855,1.40876,1.27095,-0.615858,0.196379,-0.652553,-0.203077,-0.583848,0.493763,-0.159462,-2.30145,-31.4992,-2.58574,24.9118,-1.28113,1.65429,-0.224197,-1.26312,0.990904,-2.30735,-1.11547,0.442157,0.909733,0.936645,0.733528,0.900266,-1.14531,-0.175995,-0.205761,-0.23418,
-0.16848,-0.0172959,0.314506,-1.64269,-0.302336,-0.134955,0.472231,-0.74465,0.211512,-0.757511,-0.281073,-0.104288,0.509809,-0.256079,0,0,0,0,0,0,0,-0.153661,-0.0205395,0.329203,-1.63566,-0.303214,1.4258,1.26664,-0.667891,0.205034,-0.695117,-0.206501,-0.447636,0.564916,-0.135069,-0.452694,-33.225,-0.713182,25.5823,-0.0717199,1.90606,-0.23793,-2.13444,0.0364212,-1.53619,-0.322507,-0.5635,0.446935,0.46648,0.096797,0.432448,-0.741746,-0.147739,-0.188312,-0.232511,
-0.171436,-0.0164488,0.311498,-1.64381,-0.302644,-0.132967,0.471212,-0.738851,0.211768,-0.751996,-0.27917,-0.0769072,0.497047,-0.254849,0,0,0,0,0,0,0,-0.153661,-0.0205395,0.329203,-1.63566,-0.303214,1.4258,1.26664,-0.667891,0.205034,-0.695117,-0.206501,-0.447636,0.564916,-0.135069,-0.452694,-33.225,-0.713182,25.5823,-0.0717199,1.90606,-0.23793,-2.13444,0.0364212,-1.53619,-0.322507,-0.5635,0.446935,0.46648,0.096797,0.432448,-0.741746,-0.147739,-0.188312,-0.232511,
-0.174358,-0.0155912,0.308524,-1.6449,-0.302866,-0.131041,0.470237,-0.730464,0.214389,-0.743411,-0.272366,-0.0554366,0.481464,-0.243582,0,0,0,0,0,0,0,-0.153661,-0.0205395,0.329203,-1.63566,-0.303214,1.4258,1.26664,-0.667891,0.205034,-0.695117,-0.206501,-0.447636,0.564916,-0.135069,-0.452694,-33.225,-0.713182,25.5823,-0.0717199,1.90606,-0.23793,-0.862959,-2.16348,-0.556286,1.26481,-0.195225,-0.874988,-0.860151,0.181575,-0.898221,-0.343062,-0.212774,-0.171083,-0.229347,
-0.17725,-0.0147356,0.305581,-1.64598,-0.302991,-0.129145,0.46928,-0.723062,0.2139,-0.735851,-0.270114,-0.0312332,0.473902,-0.239334,0,0,0,0,0,0,0,-0.153661,-0.0205395,0.329203,-1.63566,-0.303214,1.4258,1.26664,-0.667891,0.205034,-0.695117,-0.206501,-0.447636,0.564916,-0.135069,-0.452694,-33.225,-0.713182,25.5823,-0.0717199,1.90606,-0.23793,1.33037,-0.695444,-1.233,0.350149,1.74509,-0.269157,-0.241771,1.30312,-0.294614,-0.790191,-0.0428362,-0.183387,-0.234943,
-0.169854,-0.0167245,0.313365,-1.64418,-0.312173,-0.135753,0.469817,-0.80014,0.232001,-0.814465,-0.31713,-0.308239,0.510076,-0.302684,0,0,0,0,0,0,0,-0.153661,-0.0205395,0.329203,-1.63566,-0.303214,1.4258,1.26664,-0.667891,0.205034,-0.695117,-0.206501,-0.447636,0.564916,-0.135069,-0.452694,-33.225,-0.713182,25.5823,-0.0717199,1.90606,-0.23793,1.33037,-0.695444,-1.233,0.350149,1.74509,-0.269157,-0.241771,1.30312,-0.294614,-0.790191,-0.0428362,-0.183387,-0.234943,
-0.188402,-0.0115068,0.293812,-1.64917,-0.306199,-0.117152,0.468023,-0.715958,0.192868,-0.729281,-0.280639,0.158632,0.572521,-0.257519,0,0,0,0,0,0,0,-0.18138,-0.0118329,0.300182,-1.64455,-0.316859,1.45022,1.26061,-0.666849,0.218536,-0.694319,-0.191207,-0.178719,0.570296,-0.141553,0.106693,-34.4945,-0.137926,25.5347,0.123287,1.42815,-0.150955,0.594916,1.28203,-1.03756,-0.761183,1.22368,0.805585,0.840711,0.948782,0.776753,-0.738222,0.225962,-0.197948,-0.235377,
-0.191232,-0.010738,0.290928,-1.65028,-0.305476,-0.114888,0.466993,-0.707588,0.192191,-0.721115,-0.278011,0.180962,0.565914,-0.257335,0,0,0,0,0,0,0,-0.18138,-0.0118329,0.300182,-1.64455,-0.316859,1.45022,1.26061,-0.666849,0.218536,-0.694319,-0.191207,-0.178719,0.570296,-0.141553,0.106693,-34.4945,-0.137926,25.5347,0.123287,1.42815,-0.150955,0.594916,1.28203,-1.03756,-0.761183,1.22368,0.805585,0.840711,0.948782,0.776753,-0.738222,0.225962,-0.197948,-0.235377,
-0.19402,-0.00996438,0.288087,-1.65137,-0.304691,-0.112664,0.466012,-0.697018,0.193414,-0.710264,-0.271387,0.196129,0.556131,-0.245223,0,0,0,0,0,0,0,-0.18138,-0.0118329,0.300182,-1.64455,-0.316859,1.45022,1.26061,-0.666849,0.218536,-0.694319,-0.191207,-0.178719,0.570296,-0.141553,0.106693,-34.4945,-0.137926,25.5347,0.123287,1.42815,-0.150955,-0.687785,0.0484452,-0.653811,0.164478,0.150984,0.184128,0.208779,0.407325,0.158611,-0.52159,0.255828,-0.245356,-0.231969,
-0.196771,-0.00919653,0.285284,-1.65244,-0.30384,-0.110451,0.465048,-0.687563,0.191963,-0.700663,-0.268864,0.212784,0.553118,-0.241091,0,0,0,0,0,0,0,-0.18138,-0.0118329,0.300182,-1.64455,-0.316859,1.45022,1.26061,-0.666849,0.218536,-0.694319,-0.191207,-0.178719,0.570296,-0.141553,0.106693,-34.4945,-0.137926,25.5347,0.123287,1.42815,-0.150955,-0.563001,-0.099436,-1.6625,0.277911,0.787798,0.0853789,0.109178,1.00461,0.0615617,-0.995783,0.307927,-0.320772,-0.23161,
-0.199485,-0.0084371,0.282518,-1.65351,-0.30292,-0.108259,0.464098,-0.678631,0.189857,-0.691598,-0.266446,0.229994,0.548128,-0.2376,0,0,0,0,0,0,0,-0.18138,-0.0118329,0.300182,-1.64455,-0.316859,1.45022,1.26061,-0.666849,0.218536,-0.694319,-0.191207,-0.178719,0.570296,-0.141553,0.106693,-34.4945,-0.137926,25.5347,0.123287,1.42815,-0.150955,-0.563001,-0.099436,-1.6625,0.277911,0.787798,0.0853789,0.109178,1.00461,0.0615617,-0.995783,0.307927,-0.320772,-0.23161,
-0.202165,-0.00768766,0.279786,-1.65456,-0.301929,-0.106099,0.463161,-0.670048,0.187361,-0.682893,-0.263735,0.247797,0.540041,-0.23424,0,0,0,0,0,0,0,-0.18138,-0.0118329,0.300182,-1.64455,-0.316859,1.45022,1.26061,-0.666849,0.218536,-0.694319,-0.191207,-0.178719,0.570296,-0.141553,0.106693,-34.4945,-0.137926,25.5347,0.123287,1.42815,-0.150955,-0.0632447,1.26518,-2.245,-0.594173,1.5025,0.79128,0.823156,1.45825,0.762319,-1.33928,0.397575,-0.370051,-0.23214,
-0.190057,-0.01098,0.292117,-1.65047,-0.311905,-0.117989,0.465684,-0.77184,0.213425,-0.786659,-0.312637,0.0343466,0.560107,-0.302635,0,0,0,0,0,0,0,-0.202146,-0.00536185,0.278338,-1.65021,-0.319289,1.46878,1.25599,-0.699093,0.196466,-0.708922,-0.182746,0.00530938,0.623867,-0.154863,2.03479,-34.6452,1.78621,25.6339,0.202938,1.62041,-0.23793,-0.0632447,1.26518,-2.245,-0.594173,1.5025,0.79128,0.823156,1.45825,0.762319,-1.33928,0.397575,-0.370051,-0.23214,
-0.235567,0.00300788,0.244208,-1.66314,-0.308883,-0.073226,0.457337,-0.668358,0.174538,-0.682507,-0.269751,0.318951,0.510906,-0.258665,0,0,0,0,0,0,0,-0.202146,-0.00536185,0.278338,-1.65021,-0.319289,1.46878,1.25599,-0.699093,0.196466,-0.708922,-0.182746,0.00530938,0.623867,-0.154863,2.03479,-34.6452,1.78621,25.6339,0.202938,1.62041,-0.23793,-0.680295,1.46673,-1.96995,-0.614956,0.931618,0.910422,0.948941,1.10685,0.873393,-1.18897,0.482017,-0.355042,-0.233037,
-0.238204,0.00369995,0.241514,-1.66421,-0.307595,-0.0712447,0.456303,-0.659151,0.173017,-0.673394,-0.268155,0.321882,0.495323,-0.25837,0,0,0,0,0,0,0,-0.202146,-0.00536185,0.278338,-1.65021,-0.319289,1.46878,1.25599,-0.699093,0.196466,-0.708922,-0.182746,0.00530938,0.623867,-0.154863,2.03479,-34.6452,1.78621,25.6339,0.202938,1.62041,-0.23793,-0.680295,1.46673,-1.96995,-0.614956,0.931618,0.910422,0.948941,1.10685,0.873393,-1.18897,0.482017,-0.355042,-0.233037,
-0.240797,0.00439456,0.238865,-1.66526,-0.306312,-0.0693335,0.455315,-0.648383,0.173653,-0.662254,-0.262097,0.320779,0.477811,-0.246995,0,0,0,0,0,0,0,-0.202146,-0.00536185,0.278338,-1.65021,-0.319289,1.46878,1.25599,-0.699093,0.196466,-0.708922,-0.182746,0.00530938,0.623867,-0.154863,2.03479,-34.6452,1.78621,25.6339,0.202938,1.62041,-0.23793,-0.541551,-0.618739,-2.69204,0.742813,1.3683,-0.229989,-0.201152,1.6283,-0.25896,-1.48101,0.385116,-0.412283,-0.229575,
-0.243353,0.00508196,0.236255,-1.6663,-0.305021,-0.0674607,0.454343,-0.638872,0.171849,-0.652653,-0.25999,0.322909,0.468195,-0.243031,0,0,0,0,0,0,0,-0.202146,-0.00536185,0.278338,-1.65021,-0.319289,1.46878,1.25599,-0.699093,0.196466,-0.708922,-0.182746,0.00530938,0.623867,-0.154863,2.03479,-34.6452,1.78621,25.6339,0.202938,1.62041,-0.23793,-1.8009,0.842173,-2.23033,-0.239556,0.338023,0.573412,0.607764,0.923981,0.538746,-1.31188,0.382862,-0.44538,-0.228983,
-0.245874,0.00575845,0.233679,-1.66734,-0.303712,-0.0656057,0.453385,-0.630288,0.169124,-0.643982,-0.259144,0.327276,0.463761,-0.239648,0,0,0,0,0,0,0,-0.224274,0.00134363,0.255422,-1.65616,-0.318148,1.48929,1.25075,-0.673899,0.203018,-0.708441,-0.188134,0.102159,0.646535,-0.152772,1.1977,-35.1967,1.13954,25.0864,-0.487369,1.79986,-0.157364,-1.8009,0.842173,-2.23033,-0.239556,0.338023,0.573412,0.607764,0.923981,0.538746,-1.31188,0.382862,-0.44538,-0.228983,
-0.248363,0.00642258,0.231135,-1.66837,-0.302378,-0.0637524,0.452439,-0.622361,0.166032,-0.635968,-0.258608,0.333461,0.463324,-0.236377,0,0,0,0,0,0,0,-0.224274,0.00134363,0.255422,-1.65616,-0.318148,1.48929,1.25075,-0.673899,0.203018,-0.708441,-0.188134,0.102159,0.646535,-0.152772,1.1977,-35.1967,1.13954,25.0864,-0.487369,1.79986,-0.157364,-1.98901,1.83619,-1.85692,-0.933066,-0.0299723,1.13469,1.17356,0.542421,1.09428,-1.10165,0.343962,-0.358538,-0.226905,
-0.237264,0.00321773,0.242449,-1.664,-0.30265,-0.0747106,0.455189,-0.716306,0.186231,-0.731565,-0.29261,0.491093,0.472569,-0.300123,0,0,0,0,0,0,0,-0.224274,0.00134363,0.255422,-1.65616,-0.318148,1.48929,1.25075,-0.673899,0.203018,-0.708441,-0.188134,0.102159,0.646535,-0.152772,1.1977,-35.1967,1.13954,25.0864,-0.487369,1.79986,-0.157364,-1.98901,1.83619,-1.85692,-0.933066,-0.0299723,1.13469,1.17356,0.542421,1.09428,-1.10165,0.343962,-0.358538,-0.226905,
-0.256161,0.00900656,0.222828,-1.66856,-0.297309,-0.0560957,0.452172,-0.627045,0.149168,-0.641125,-0.257469,0.570776,0.425777,-0.258066,0,0,0,0,0,0,0,-0.224274,0.00134363,0.255422,-1.65616,-0.318148,1.48929,1.25075,-0.673899,0.203018,-0.708441,-0.188134,0.102159,0.646535,-0.152772,1.1977,-35.1967,1.13954,25.0864,-0.487369,1.79986,-0.157364,0.0493637,0.896881,-2.4078,-0.270538,1.51107,0.641359,0.67926,1.45937,0.601815,-1.27655,0.332814,-0.240944,-0.221722,
-0.25863,0.00959472,0.220302,-1.66958,-0.295002,-0.0544618,0.451141,-0.617356,0.147039,-0.6315,-0.255443,0.576717,0.408471,-0.25768,0,0,0,0,0,0,0,-0.224274,0.00134363,0.255422,-1.65616,-0.318148,1.48929,1.25075,-0.673899,0.203018,-0.708441,-0.188134,0.102159,0.646535,-0.152772,1.1977,-35.1967,1.13954,25.0864,-0.487369,1.79986,-0.157364,0.0493637,0.896881,-2.4078,-0.270538,1.51107,0.641359,0.67926,1.45937,0.601815,-1.27655,0.332814,-0.240944,-0.221722,
-0.261055,0.0101824,0.217822,-1.67058,-0.292699,-0.0529046,0.450153,-0.606217,0.146909,-0.62,-0.249614,0.575773,0.38931,-0.247123,0,0,0,0,0,0,0,-0.245385,0.00736217,0.233352,-1.66264,-0.313378,1.509,1.24626,-0.667553,0.195814,-0.6706,-0.199078,0.204757,0.588931,-0.13685,0.919986,-35.768,0.913405,25.8084,-0.0598181,1.76049,-0.123489,-0.690759,-1.99588,-1.72078,1.46769,0.658974,-0.964441,-0.93236,1.05786,-0.992006,-0.961863,0.0717813,-0.306869,-0.217906,
-0.26344,0.0107613,0.215383,-1.67157,-0.290398,-0.0513965,0.449179,-0.596134,0.144728,-0.609849,-0.247379,0.575194,0.377018,-0.243365,0,0,0,0,0,0,0,-0.245385,0.00736217,0.233352,-1.66264,-0.313378,1.509,1.24626,-0.667553,0.195814,-0.6706,-0.199078,0.204757,0.588931,-0.13685,0.919986,-35.768,0.913405,25.8084,-0.0598181,1.76049,-0.123489,-1.51428,-0.613066,-0.512314,0.522858,-0.546848,-0.217813,-0.181623,0.0386305,-0.250951,-0.39405,0.0757181,-0.214354,-0.217158,
-0.265787,0.0113285,0.212981,-1.67256,-0.288099,-0.0499196,0.448219,-0.5869,0.141806,-0.600549,-0.246333,0.574725,0.369232,-0.240156,0,0,0,0,0,0,0,-0.245385,0.00736217,0.233352,-1.66264,-0.313378,1.509,1.24626,-0.667553,0.195814,-0.6706,-0.199078,0.204757,0.588931,-0.13685,0.919986,-35.768,0.913405,25.8084,-0.0598181,1.76049,-0.123489,-1.51428,-0.613066,-0.512314,0.522858,-0.546848,-0.217813,-0.181623,0.0386305,-0.250951,-0.39405,0.0757181,-0.214354,-0.217158,
-0.268101,0.0118828,0.210613,-1.67354,-0.285801,-0.0484572,0.447271,-0.578331,0.138576,-0.591914,-0.245745,0.574489,0.365597,-0.237065,0,0,0,0,0,0,0,-0.245385,0.00736217,0.233352,-1.66264,-0.313378,1.509,1.24626,-0.667553,0.195814,-0.6706,-0.199078,0.204757,0.588931,-0.13685,0.919986,-35.768,0.913405,25.8084,-0.0598181,1.76049,-0.123489,0.224541,-0.824509,-0.766047,0.728917,0.742804,-0.308585,-0.267537,0.762323,-0.346325,-0.538393,0.126895,-0.190434,-0.213337,
-0.257394,0.00894266,0.221529,-1.66951,-0.291862,-0.0574427,0.450137,-0.660382,0.152695,-0.675586,-0.281874,0.70472,0.392992,-0.297362,0,0,0,0,0,0,0,-0.245385,0.00736217,0.233352,-1.66264,-0.313378,1.509,1.24626,-0.667553,0.195814,-0.6706,-0.199078,0.204757,0.588931,-0.13685,0.919986,-35.768,0.913405,25.8084,-0.0598181,1.76049,-0.123489,0.224541,-0.824509,-0.766047,0.728917,0.742804,-0.308585,-0.267537,0.762323,-0.346325,-0.538393,0.126895,-0.190434,-0.213337,
-0.275243,0.0139998,0.202793,-1.67487,-0.286794,-0.039917,0.447752,-0.574683,0.119951,-0.588777,-0.252531,0.661887,0.381687,-0.257907,0,0,0,0,0,0,0,-0.245385,0.00736217,0.233352,-1.66264,-0.313378,1.509,1.24626,-0.667553,0.195814,-0.6706,-0.199078,0.204757,0.588931,-0.13685,0.919986,-35.768,0.913405,25.8084,-0.0598181,1.76049,-0.123489,0.568859,-1.80191,-0.876278,1.38469,1.08475,-0.859379,-0.819074,1.07021,-0.892167,-0.649157,0.109197,-0.27064,-0.213038,
-0.277503,0.0144691,0.200477,-1.67587,-0.284122,-0.0384373,0.446722,-0.56487,0.117331,-0.578978,-0.24977,0.668133,0.369933,-0.257604,0,0,0,0,0,0,0,-0.265995,0.0133757,0.211827,-1.66885,-0.303197,1.52591,1.24197,-0.628536,0.18645,-0.641965,-0.177232,0.339707,0.484182,-0.127365,1.83246,-36.9939,1.86159,26.106,0.27618,1.79345,-0.157364,-1.33371,-2.0638,-0.372432,1.51736,-0.397725,-1.10378,-1.06563,0.268269,-1.12951,-0.442141,0.0758312,-0.348739,-0.207633,
-0.279717,0.0149358,0.198208,-1.67684,-0.281458,-0.0370144,0.445733,-0.55371,0.116683,-0.567426,-0.243483,0.665907,0.355713,-0.24734,0,0,0,0,0,0,0,-0.265995,0.0133757,0.211827,-1.66885,-0.303197,1.52591,1.24197,-0.628536,0.18645,-0.641965,-0.177232,0.339707,0.484182,-0.127365,1.83246,-36.9939,1.86159,26.106,0.27618,1.79345,-0.157364,-1.33371,-2.0638,-0.372432,1.51736,-0.397725,-1.10378,-1.06563,0.268269,-1.12951,-0.442141,0.0758312,-0.348739,-0.207633,
-0.281891,0.0153926,0.195979,-1.67781,-0.278809,-0.0356248,0.444758,-0.543449,0.114191,-0.557111,-0.240745,0.662348,0.347416,-0.243736,0,0,0,0,0,0,0,-0.265995,0.0133757,0.211827,-1.66885,-0.303197,1.52591,1.24197,-0.628536,0.18645,-0.641965,-0.177232,0.339707,0.484182,-0.127365,1.83246,-36.9939,1.86159,26.106,0.27618,1.79345,-0.157364,-1.39566,1.17453,-1.06201,-0.392,-0.0325054,0.664773,0.711005,0.41521,0.616341,-0.806953,0.313348,-0.367678,-0.20853,
-0.284027,0.0158369,0.193789,-1.67876,-0.276178,-0.0342533,0.443795,-0.533982,0.111075,-0.547594,-0.239242,0.657711,0.342865,-0.240673,0,0,0,0,0,0,0,-0.265995,0.0133757,0.211827,-1.66885,-0.303197,1.52591,1.24197,-0.628536,0.18645,-0.641965,-0.177232,0.339707,0.484182,-0.127365,1.83246,-36.9939,1.86159,26.106,0.27618,1.79345,-0.157364,-1.39566,1.17453,-1.06201,-0.392,-0.0325054,0.664773,0.711005,0.41521,0.616341,-0.806953,0.313348,-0.367678,-0.20853,
-0.276765,0.0140892,0.201205,-1.67557,-0.278305,-0.0411827,0.445761,-0.614477,0.127794,-0.629615,-0.271686,0.866653,0.345279,-0.296284,0,0,0,0,0,0,0,-0.286016,0.01942,0.190948,-1.67435,-0.290353,1.5416,1.23652,-0.616025,0.181009,-0.629578,-0.170321,0.408215,0.478109,-0.181579,2.59418,-37.6643,2.66298,26.4035,0.715634,1.83922,-0.117081,-1.27962,0.0574103,-1.47416,0.423867,0.31217,0.0126484,0.0570659,0.83348,-0.0271368,-1.04897,0.339281,-0.470582,-0.205172,
-0.293919,0.0189987,0.183205,-1.68054,-0.270862,-0.0260858,0.443475,-0.530815,0.0966306,-0.544854,-0.238929,0.751753,0.30528,-0.257916,0,0,0,0,0,0,0,-0.286016,0.01942,0.190948,-1.67435,-0.290353,1.5416,1.23652,-0.616025,0.181009,-0.629578,-0.170321,0.408215,0.478109,-0.181579,2.59418,-37.6643,2.66298,26.4035,0.715634,1.83922,-0.117081,-1.19545,-1.48901,-1.82414,1.48878,0.543884,-0.860793,-0.826688,1.18832,-0.879642,-1.20134,0.333676,-0.51611,-0.199559,
-0.296003,0.0193743,0.181065,-1.68149,-0.267855,-0.0249215,0.442446,-0.521055,0.0939044,-0.535081,-0.236257,0.751628,0.291072,-0.257361,0,0,0,0,0,0,0,-0.286016,0.01942,0.190948,-1.67435,-0.290353,1.5416,1.23652,-0.616025,0.181009,-0.629578,-0.170321,0.408215,0.478109,-0.181579,2.59418,-37.6643,2.66298,26.4035,0.715634,1.83922,-0.117081,-1.06272,-1.43518,-2.20748,1.51013,0.790205,-0.817214,-0.781481,1.39752,-0.836762,-1.33682,0.353503,-0.490381,-0.198328,
-0.298044,0.0197472,0.178969,-1.68241,-0.264879,-0.0238222,0.441454,-0.510233,0.0932071,-0.52389,-0.230042,0.744083,0.274821,-0.247935,0,0,0,0,0,0,0,-0.286016,0.01942,0.190948,-1.67435,-0.290353,1.5416,1.23652,-0.616025,0.181009,-0.629578,-0.170321,0.408215,0.478109,-0.181579,2.59418,-37.6643,2.66298,26.4035,0.715634,1.83922,-0.117081,-1.06272,-1.43518,-2.20748,1.51013,0.790205,-0.817214,-0.781481,1.39752,-0.836762,-1.33682,0.353503,-0.490381,-0.198328,
-0.300045,0.0201102,0.176914,-1.68332,-0.261937,-0.022764,0.440476,-0.500311,0.0907491,-0.513943,-0.227354,0.735562,0.264557,-0.244528,0,0,0,0,0,0,0,-0.286016,0.01942,0.190948,-1.67435,-0.290353,1.5416,1.23652,-0.616025,0.181009,-0.629578,-0.170321,0.408215,0.478109,-0.181579,2.59418,-37.6643,2.66298,26.4035,0.715634,1.83922,-0.117081,-1.22655,1.67808,-2.54461,-0.283268,0.818894,0.889753,0.937398,1.25346,0.839746,-1.47824,0.597784,-0.435886,-0.20005,
-0.30201,0.0204611,0.174894,-1.68422,-0.259031,-0.0217317,0.439509,-0.491196,0.0877246,-0.504805,-0.225901,0.726329,0.258072,-0.241616,0,0,0,0,0,0,0,-0.286016,0.01942,0.190948,-1.67435,-0.290353,1.5416,1.23652,-0.616025,0.181009,-0.629578,-0.170321,0.408215,0.478109,-0.181579,2.59418,-37.6643,2.66298,26.4035,0.715634,1.83922,-0.117081,-1.22655,1.67808,-2.54461,-0.283268,0.818894,0.889753,0.937398,1.25346,0.839746,-1.47824,0.597784,-0.435886,-0.20005,
-0.303941,0.0207992,0.172909,-1.68512,-0.256164,-0.0207116,0.438554,-0.482754,0.0845225,-0.496337,-0.224967,0.716853,0.255027,-0.238817,0,0,0,0,0,0,0,-0.310204,0.0260564,0.165668,-1.6812,-0.272262,1.55932,1.22984,-0.57979,0.148492,-0.592758,-0.167541,0.459954,0.377953,-0.147571,3.1258,-37.9143,3.21443,26.3559,0.532528,1.82,-0.177505,-1.32341,0.317066,-2.34658,0.552266,0.642295,0.11656,0.160423,1.23233,0.0810054,-1.37977,0.522013,-0.447205,-0.196585,
-0.294958,0.0187934,0.182105,-1.68134,-0.26285,-0.0271661,0.441581,-0.555989,0.0956467,-0.57096,-0.259676,0.945374,0.276706,-0.294424,0,0,0,0,0,0,0,-0.310204,0.0260564,0.165668,-1.6812,-0.272262,1.55932,1.22984,-0.57979,0.148492,-0.592758,-0.167541,0.459954,0.377953,-0.147571,3.1258,-37.9143,3.21443,26.3559,0.532528,1.82,-0.177505,-1.32341,0.317066,-2.34658,0.552266,0.642295,0.11656,0.160423,1.23233,0.0810054,-1.37977,0.522013,-0.447205,-0.196585,
-0.335465,0.0301628,0.139716,-1.69242,-0.237717,0.0035754,0.431377,-0.47519,0.0679616,-0.48913,-0.231138,0.759236,0.267238,-0.258164,0,0,0,0,0,0,0,-0.310204,0.0260564,0.165668,-1.6812,-0.272262,1.55932,1.22984,-0.57979,0.148492,-0.592758,-0.167541,0.459954,0.377953,-0.147571,3.1258,-37.9143,3.21443,26.3559,0.532528,1.82,-0.177505,-1.42666,-1.45087,-2.11311,1.59269,0.40913,-0.868876,-0.831595,1.18605,-0.883401,-1.22242,0.394695,-0.418912,-0.192464,
-0.337326,0.0304262,0.137799,-1.69333,-0.234717,0.00461205,0.430347,-0.465459,0.0658674,-0.479341,-0.228351,0.749938,0.259162,-0.257683,0,0,0,0,0,0,0,-0.310204,0.0260564,0.165668,-1.6812,-0.272262,1.55932,1.22984,-0.57979,0.148492,-0.592758,-0.167541,0.459954,0.377953,-0.147571,3.1258,-37.9143,3.21443,26.3559,0.532528,1.82,-0.177505,-1.41301,-2.03351,-2.463,1.96748,0.547587,-1.18402,-1.14827,1.37522,-1.19199,-1.32087,0.344502,-0.387514,-0.185568,
-0.339146,0.0306882,0.135925,-1.69422,-0.231778,0.00560796,0.429352,-0.454919,0.0654954,-0.468437,-0.222389,0.734768,0.248978,-0.248679,0,0,0,0,0,0,0,-0.310204,0.0260564,0.165668,-1.6812,-0.272262,1.55932,1.22984,-0.57979,0.148492,-0.592758,-0.167541,0.459954,0.377953,-0.147571,3.1258,-37.9143,3.21443,26.3559,0.532528,1.82,-0.177505,-1.41301,-2.03351,-2.463,1.96748,0.547587,-1.18402,-1.14827,1.37522,-1.19199,-1.32087,0.344502,-0.387514,-0.185568,
-0.340927,0.0309421,0.13409,-1.6951,-0.2289,0.00658453,0.42837,-0.445233,0.0634747,-0.458779,-0.219753,0.719383,0.244144,-0.245486,0,0,0,0,0,0,0,-0.32874,0.0304269,0.146548,-1.68698,-0.256386,1.56955,1.22526,-0.55175,0.117991,-0.588647,-0.186994,0.511247,0.290513,-0.157061,2.23713,-38.5133,2.41304,26.828,0.745846,2.23107,-0.190323,-0.715023,2.33053,-2.10481,-0.653077,0.732442,1.29637,1.34792,0.958007,1.23847,-1.14065,0.632581,-0.241813,-0.189326,
-0.342672,0.0311857,0.132291,-1.69598,-0.226085,0.00755574,0.427399,-0.436355,0.0609064,-0.449924,-0.218343,0.703871,0.242801,-0.242782,0,0,0,0,0,0,0,-0.32874,0.0304269,0.146548,-1.68698,-0.256386,1.56955,1.22526,-0.55175,0.117991,-0.588647,-0.186994,0.511247,0.290513,-0.157061,2.23713,-38.5133,2.41304,26.828,0.745846,2.23107,-0.190323,-0.715023,2.33053,-2.10481,-0.653077,0.732442,1.29637,1.34792,0.958007,1.23847,-1.14065,0.632581,-0.241813,-0.189326,
-0.344385,0.0314184,0.130524,-1.69685,-0.223331,0.00853495,0.426438,-0.428144,0.0581602,-0.441729,-0.2175,0.688535,0.244803,-0.240209,0,0,0,0,0,0,0,-0.32874,0.0304269,0.146548,-1.68698,-0.256386,1.56955,1.22526,-0.55175,0.117991,-0.588647,-0.186994,0.511247,0.290513,-0.157061,2.23713,-38.5133,2.41304,26.828,0.745846,2.23107,-0.190323,-1.90465,0.414888,-1.37818,0.40968,-0.436231,0.100001,0.141035,0.367087,0.0735818,-0.783902,0.493477,-0.242272,-0.186109,
-0.3365,0.0298612,0.138607,-1.69289,-0.228504,0.00205513,0.429624,-0.50389,0.0621973,-0.518909,-0.243172,1.05546,0.22187,-0.291885,0,0,0,0,0,0,0,-0.32874,0.0304269,0.146548,-1.68698,-0.256386,1.56955,1.22526,-0.55175,0.117991,-0.588647,-0.186994,0.511247,0.290513,-0.157061,2.23713,-38.5133,2.41304,26.828,0.745846,2.23107,-0.190323,-1.90465,0.414888,-1.37818,0.40968,-0.436231,0.100001,0.141035,0.367087,0.0735818,-0.783902,0.493477,-0.242272,-0.186109,
-0.352402,0.0333909,0.122205,-1.69775,-0.217109,0.0104912,0.42684,-0.431714,0.0427566,-0.445719,-0.216918,0.865688,0.208643,-0.259708,0,0,0,0,0,0,0,-0.32874,0.0304269,0.146548,-1.68698,-0.256386,1.56955,1.22526,-0.55175,0.117991,-0.588647,-0.186994,0.511247,0.290513,-0.157061,2.23713,-38.5133,2.41304,26.828,0.745846,2.23107,-0.190323,-1.65008,0.051266,-0.971033,0.578122,-0.524008,-0.077228,-0.0385243,0.222914,-0.0974132,-0.565754,0.464906,-0.182846,-0.183886,
-0.354088,0.0335588,0.120464,-1.6986,-0.213655,0.0112888,0.425835,-0.421336,0.0419728,-0.435134,-0.211111,0.863572,0.19941,-0.251411,0,0,0,0,0,0,0,-0.32874,0.0304269,0.146548,-1.68698,-0.256386,1.56955,1.22526,-0.55175,0.117991,-0.588647,-0.186994,0.511247,0.290513,-0.157061,2.23713,-38.5133,2.41304,26.828,0.745846,2.23107,-0.190323,-1.65008,0.051266,-0.971033,0.578122,-0.524008,-0.077228,-0.0385243,0.222914,-0.0974132,-0.565754,0.464906,-0.182846,-0.183886,
-0.355735,0.033718,0.118761,-1.69943,-0.210211,0.0120661,0.424841,-0.411846,0.0397991,-0.425692,-0.208299,0.860893,0.194321,-0.248369,0,0,0,0,0,0,0,-0.346028,0.0342232,0.128272,-1.69314,-0.238743,1.57837,1.21982,-0.507727,0.099813,-0.533105,-0.188183,0.558902,0.237198,-0.157496,1.93164,-38.3904,1.96077,26.951,0.941769,2.13128,-0.137222,-0.660011,-2.21094,-1.30081,1.91543,0.315639,-1.19272,-1.15874,0.904068,-1.19349,-0.704724,0.273076,-0.203942,-0.183077,
-0.357347,0.033867,0.117095,-1.70026,-0.206796,0.0128321,0.423858,-0.402873,0.037263,-0.416695,-0.206581,0.85377,0.191493,-0.245718,0,0,0,0,0,0,0,-0.346028,0.0342232,0.128272,-1.69314,-0.238743,1.57837,1.21982,-0.507727,0.099813,-0.533105,-0.188183,0.558902,0.237198,-0.157496,1.93164,-38.3904,1.96077,26.951,0.941769,2.13128,-0.137222,0.201356,-0.986556,-1.3876,1.18675,0.883497,-0.400488,-0.354995,1.06206,-0.42691,-0.727477,0.333931,-0.148657,-0.18491,
-0.358924,0.0340056,0.115462,-1.70108,-0.203422,0.0135955,0.422886,-0.394364,0.0346463,-0.408175,-0.205394,0.843505,0.190853,-0.243191,0,0,0,0,0,0,0,-0.346028,0.0342232,0.128272,-1.69314,-0.238743,1.57837,1.21982,-0.507727,0.099813,-0.533105,-0.188183,0.558902,0.237198,-0.157496,1.93164,-38.3904,1.96077,26.951,0.941769,2.13128,-0.137222,0.201356,-0.986556,-1.3876,1.18675,0.883497,-0.400488,-0.354995,1.06206,-0.42691,-0.727477,0.333931,-0.148657,-0.18491,
-0.360469,0.0341338,0.113861,-1.7019,-0.200097,0.0143664,0.421922,-0.386301,0.0320464,-0.400112,-0.204558,0.831191,0.192737,-0.240793,0,0,0,0,0,0,0,-0.346028,0.0342232,0.128272,-1.69314,-0.238743,1.57837,1.21982,-0.507727,0.099813,-0.533105,-0.188183,0.558902,0.237198,-0.157496,1.93164,-38.3904,1.96077,26.951,0.941769,2.13128,-0.137222,-0.270569,0.0826143,-1.15214,0.505355,0.438947,0.124934,0.178496,0.681617,0.0825691,-0.621063,0.373974,-0.129579,-0.186219,
-0.35246,0.0330012,0.122105,-1.69825,-0.213976,0.00943912,0.425206,-0.435522,0.0330603,-0.450287,-0.228659,1.02272,0.185654,-0.291363,0,0,0,0,0,0,0,-0.346028,0.0342232,0.128272,-1.69314,-0.238743,1.57837,1.21982,-0.507727,0.099813,-0.533105,-0.188183,0.558902,0.237198,-0.157496,1.93164,-38.3904,1.96077,26.951,0.941769,2.13128,-0.137222,-0.270569,0.0826143,-1.15214,0.505355,0.438947,0.124934,0.178496,0.681617,0.0825691,-0.621063,0.373974,-0.129579,-0.186219,
-0.366677,0.0361463,0.106955,-1.70341,-0.198293,0.0168423,0.421501,-0.364478,0.0199022,-0.378266,-0.199532,0.889605,0.140566,-0.252902,0,0,0,0,0,0,0,-0.36178,0.0371868,0.111791,-1.69851,-0.219195,1.58459,1.21417,-0.501801,0.0888063,-0.509597,-0.165621,0.618578,0.171895,-0.188768,3.30432,-38.7633,3.41279,27.1533,0.581051,2.39037,-0.117081,-0.727034,-1.24476,-1.57521,1.34129,0.341075,-0.655339,-0.606011,0.87378,-0.679388,-0.768226,0.287092,-0.140898,-0.185574,
-0.368096,0.0362166,0.105481,-1.70419,-0.194749,0.0173696,0.420501,-0.354711,0.0175775,-0.368659,-0.196563,0.886055,0.131841,-0.250062,0,0,0,0,0,0,0,-0.36178,0.0371868,0.111791,-1.69851,-0.219195,1.58459,1.21417,-0.501801,0.0888063,-0.509597,-0.165621,0.618578,0.171895,-0.188768,3.30432,-38.7633,3.41279,27.1533,0.581051,2.39037,-0.117081,-0.748465,-0.293298,-1.7068,0.784106,0.350565,-0.134101,-0.0777048,0.806344,-0.174206,-0.797712,0.329478,-0.103717,-0.185719,
-0.369478,0.0362765,0.104043,-1.70497,-0.191242,0.0178687,0.419511,-0.345502,0.0149845,-0.359445,-0.194616,0.876777,0.124771,-0.247477,0,0,0,0,0,0,0,-0.36178,0.0371868,0.111791,-1.69851,-0.219195,1.58459,1.21417,-0.501801,0.0888063,-0.509597,-0.165621,0.618578,0.171895,-0.188768,3.30432,-38.7633,3.41279,27.1533,0.581051,2.39037,-0.117081,-0.748465,-0.293298,-1.7068,0.784106,0.350565,-0.134101,-0.0777048,0.806344,-0.174206,-0.797712,0.329478,-0.103717,-0.185719,
-0.370825,0.036326,0.10264,-1.70574,-0.18779,0.0183459,0.418531,-0.336747,0.0123742,-0.350692,-0.193174,0.862837,0.119298,-0.244986,0,0,0,0,0,0,0,-0.36178,0.0371868,0.111791,-1.69851,-0.219195,1.58459,1.21417,-0.501801,0.0888063,-0.509597,-0.165621,0.618578,0.171895,-0.188768,3.30432,-38.7633,3.41279,27.1533,0.581051,2.39037,-0.117081,-0.746075,-1.60662,-1.99725,1.57912,0.534897,-0.847579,-0.79641,1.10968,-0.870938,-0.933075,0.217112,-0.144528,-0.184265,
-0.372139,0.0363653,0.10127,-1.70651,-0.184408,0.0188094,0.417561,-0.328453,0.00981918,-0.342413,-0.192094,0.845507,0.115882,-0.242599,0,0,0,0,0,0,0,-0.36178,0.0371868,0.111791,-1.69851,-0.219195,1.58459,1.21417,-0.501801,0.0888063,-0.509597,-0.165621,0.618578,0.171895,-0.188768,3.30432,-38.7633,3.41279,27.1533,0.581051,2.39037,-0.117081,-0.746075,-1.60662,-1.99725,1.57912,0.534897,-0.847579,-0.79641,1.10968,-0.870938,-0.933075,0.217112,-0.144528,-0.184265,
-0.373422,0.0363947,0.099932,-1.70728,-0.181105,0.0192702,0.4166,-0.320607,0.00734213,-0.334593,-0.191357,0.825812,0.115203,-0.240343,0,0,0,0,0,0,0,-0.3767,0.0396407,0.0964914,-1.70333,-0.198778,1.58903,1.20927,-0.478356,0.072705,-0.477867,-0.142808,0.642566,0.108976,-0.140251,4.59766,-38.6879,4.53554,26.6058,0.660702,2.3565,-0.123489,-0.694271,-0.500413,-2.38839,1.05022,0.720232,-0.248726,-0.197475,1.21,-0.280737,-1.09677,0.345058,-0.137195,-0.182111,
-0.367215,0.0357672,0.10634,-1.70396,-0.195863,0.0175639,0.41989,-0.383468,0.0107919,-0.398614,-0.210722,1.02119,0.159091,-0.284115,0,0,0,0,0,0,0,-0.3767,0.0396407,0.0964914,-1.70333,-0.198778,1.58903,1.20927,-0.478356,0.072705,-0.477867,-0.142808,0.642566,0.108976,-0.140251,4.59766,-38.6879,4.53554,26.6058,0.660702,2.3565,-0.123489,-0.765547,-0.00286958,-2.5409,0.776896,0.699257,0.0118661,0.065117,1.17461,-0.0265694,-1.12383,0.369573,-0.0989465,-0.18015,
-0.395291,0.0401539,0.0772246,-1.71294,-0.156938,0.025122,0.411032,-0.324252,-0.00435892,-0.338339,-0.191099,0.902723,0.14264,-0.252734,0,0,0,0,0,0,0,-0.3767,0.0396407,0.0964914,-1.70333,-0.198778,1.58903,1.20927,-0.478356,0.072705,-0.477867,-0.142808,0.642566,0.108976,-0.140251,4.59766,-38.6879,4.53554,26.6058,0.660702,2.3565,-0.123489,-0.765547,-0.00286958,-2.5409,0.776896,0.699257,0.0118661,0.065117,1.17461,-0.0265694,-1.12383,0.369573,-0.0989465,-0.18015,
-0.396549,0.0401312,0.0759097,-1.71369,-0.153379,0.025673,0.410032,-0.314466,-0.00569166,-0.328709,-0.187667,0.889667,0.137764,-0.249994,0,0,0,0,0,0,0,-0.3767,0.0396407,0.0964914,-1.70333,-0.198778,1.58903,1.20927,-0.478356,0.072705,-0.477867,-0.142808,0.642566,0.108976,-0.140251,4.59766,-38.6879,4.53554,26.6058,0.660702,2.3565,-0.123489,-1.61445,-0.681906,-2.24956,1.08339,0.0413668,-0.501987,-0.44915,0.859307,-0.530492,-1.00947,0.265117,-0.125319,-0.177615,
-0.397772,0.0401012,0.0746292,-1.71443,-0.149868,0.0262044,0.409042,-0.305743,-0.00749294,-0.320126,-0.185266,0.87769,0.132844,-0.247609,0,0,0,0,0,0,0,-0.3767,0.0396407,0.0964914,-1.70333,-0.198778,1.58903,1.20927,-0.478356,0.072705,-0.477867,-0.142808,0.642566,0.108976,-0.140251,4.59766,-38.6879,4.53554,26.6058,0.660702,2.3565,-0.123489,-1.61445,-0.681906,-2.24956,1.08339,0.0413668,-0.501987,-0.44915,0.859307,-0.530492,-1.00947,0.265117,-0.125319,-0.177615,
-0.398963,0.0400634,0.0733795,-1.71517,-0.1464,0.0267162,0.40806,-0.297938,-0.0094519,-0.312443,-0.183381,0.866988,0.12795,-0.245293,0,0,0,0,0,0,0,-0.3767,0.0396407,0.0964914,-1.70333,-0.198778,1.58903,1.20927,-0.478356,0.072705,-0.477867,-0.142808,0.642566,0.108976,-0.140251,4.59766,-38.6879,4.53554,26.6058,0.660702,2.3565,-0.123489,-0.931812,1.73303,-2.38364,-0.251658,0.486098,0.903468,0.970124,0.860089,0.835579,-1.07484,0.460451,-0.0952223,-0.181018,
-0.400125,0.0400178,0.0721596,-1.71589,-0.142996,0.0272099,0.407089,-0.290471,-0.0113894,-0.304964,-0.181807,0.851116,0.123415,-0.242956,0,0,0,0,0,0,0,-0.391129,0.0415197,0.0811321,-1.70845,-0.178125,1.59175,1.20486,-0.432239,0.035163,-0.46061,-0.160402,0.629703,0.0790295,-0.143216,2.59418,-38.2158,2.53602,26.6058,0.733944,2.33727,-0.150955,-0.931812,1.73303,-2.38364,-0.251658,0.486098,0.903468,0.970124,0.860089,0.835579,-1.07484,0.460451,-0.0952223,-0.181018,
-0.401258,0.0399646,0.0709686,-1.71661,-0.139673,0.027691,0.406126,-0.283268,-0.0132952,-0.297754,-0.180608,0.83069,0.120278,-0.240712,0,0,0,0,0,0,0,-0.391129,0.0415197,0.0811321,-1.70845,-0.178125,1.59175,1.20486,-0.432239,0.035163,-0.46061,-0.160402,0.629703,0.0790295,-0.143216,2.59418,-38.2158,2.53602,26.6058,0.733944,2.33727,-0.150955,-1.03576,-1.09151,-2.91565,1.52922,0.706491,-0.636408,-0.583786,1.41991,-0.659785,-1.28423,0.323671,-0.131222,-0.180672,
-0.394958,0.0396792,0.0775205,-1.71334,-0.15611,0.0258535,0.409598,-0.317927,-0.0172577,-0.33305,-0.19826,1.00155,0.163737,-0.280753,0,0,0,0,0,0,0,-0.391129,0.0415197,0.0811321,-1.70845,-0.178125,1.59175,1.20486,-0.432239,0.035163,-0.46061,-0.160402,0.629703,0.0790295,-0.143216,2.59418,-38.2158,2.53602,26.6058,0.733944,2.33727,-0.150955,-1.06521,-1.62586,-2.97068,1.9074,0.714839,-0.936156,-0.888984,1.5176,-0.946121,-1.31766,0.336603,-0.148935,-0.184764,
-0.407279,0.0409495,0.0643137,-1.71763,-0.138975,0.027069,0.406778,-0.266111,-0.025921,-0.280506,-0.184243,0.798742,0.159434,-0.250016,0,0,0,0,0,0,0,-0.391129,0.0415197,0.0811321,-1.70845,-0.178125,1.59175,1.20486,-0.432239,0.035163,-0.46061,-0.160402,0.629703,0.0790295,-0.143216,2.59418,-38.2158,2.53602,26.6058,0.733944,2.33727,-0.150955,-1.06521,-1.62586,-2.97068,1.9074,0.714839,-0.936156,-0.888984,1.5176,-0.946121,-1.31766,0.336603,-0.148935,-0.184764,
-0.408304,0.040843,0.063231,-1.71836,-0.13588,0.0277278,0.405788,-0.256113,-0.0266286,-0.270677,-0.181065,0.773732,0.164708,-0.247457,0,0,0,0,0,0,0,-0.391129,0.0415197,0.0811321,-1.70845,-0.178125,1.59175,1.20486,-0.432239,0.035163,-0.46061,-0.160402,0.629703,0.0790295,-0.143216,2.59418,-38.2158,2.53602,26.6058,0.733944,2.33727,-0.150955,-0.934727,-0.505908,-2.57869,1.22369,0.557713,-0.3249,-0.274897,1.21432,-0.347587,-1.14468,0.43593,-0.116119,-0.185736,
-0.409292,0.0407322,0.0621835,-1.71907,-0.132885,0.0283967,0.404807,-0.247159,-0.0276839,-0.26188,-0.178351,0.74883,0.167208,-0.245169,0,0,0,0,0,0,0,-0.404264,0.0422931,0.0675515,-1.71372,-0.157662,1.5935,1.20003,-0.389035,0.0178805,-0.418824,-0.161212,0.636019,0.0434884,-0.170697,3.02265,-38.188,2.91292,26.828,0.60577,2.32995,-0.217789,-0.934727,-0.505908,-2.57869,1.22369,0.557713,-0.3249,-0.274897,1.21432,-0.347587,-1.14468,0.43593,-0.116119,-0.185736,
-0.410249,0.0406165,0.0611674,-1.71977,-0.129986,0.0290669,0.403836,-0.239156,-0.0289385,-0.254024,-0.175969,0.724719,0.167569,-0.242921,0,0,0,0,0,0,0,-0.404264,0.0422931,0.0675515,-1.71372,-0.157662,1.5935,1.20003,-0.389035,0.0178805,-0.418824,-0.161212,0.636019,0.0434884,-0.170697,3.02265,-38.188,2.91292,26.828,0.60577,2.32995,-0.217789,-1.04303,-1.15475,-2.43325,1.54541,0.415462,-0.69168,-0.641719,1.16165,-0.708087,-1.06083,0.361989,-0.0987922,-0.181972,
-0.411177,0.0404953,0.0601792,-1.72047,-0.127177,0.0297328,0.402873,-0.232031,-0.0303025,-0.247038,-0.173879,0.702217,0.16646,-0.240702,0,0,0,0,0,0,0,-0.404264,0.0422931,0.0675515,-1.71372,-0.157662,1.5935,1.20003,-0.389035,0.0178805,-0.418824,-0.161212,0.636019,0.0434884,-0.170697,3.02265,-38.188,2.91292,26.828,0.60577,2.32995,-0.217789,-1.04303,-1.15475,-2.43325,1.54541,0.415462,-0.69168,-0.641719,1.16165,-0.708087,-1.06083,0.361989,-0.0987922,-0.181972,
-0.413312,0.0393143,0.0578267,-1.72259,-0.112611,0.0342844,0.398924,-0.227881,-0.0486395,-0.24396,-0.178023,0.963667,0.20226,-0.261327,0,0,0,0,0,0,0,-0.404264,0.0422931,0.0675515,-1.71372,-0.157662,1.5935,1.20003,-0.389035,0.0178805,-0.418824,-0.161212,0.636019,0.0434884,-0.170697,3.02265,-38.188,2.91292,26.828,0.60577,2.32995,-0.217789,-1.35109,-1.45009,-1.89781,1.62788,-0.0544272,-0.924461,-0.87502,0.821563,-0.934889,-0.822732,0.350872,-0.079728,-0.174232,
-0.407393,0.0403927,0.0641298,-1.71819,-0.136393,0.029215,0.405356,-0.275289,-0.0404856,-0.291257,-0.193517,0.991044,0.211736,-0.277815,0,0,0,0,0,0,0,-0.404264,0.0422931,0.0675515,-1.71372,-0.157662,1.5935,1.20003,-0.389035,0.0178805,-0.418824,-0.161212,0.636019,0.0434884,-0.170697,3.02265,-38.188,2.91292,26.828,0.60577,2.32995,-0.217789,-0.707313,-0.361815,-1.25948,0.863573,-0.0140694,-0.226266,-0.167108,0.502919,-0.260412,-0.515059,0.410865,-0.00518019,-0.170539,
-0.418483,0.0409405,0.0526212,-1.72275,-0.119158,0.0298847,0.40209,-0.235761,-0.0413602,-0.251548,-0.171323,0.873004,0.141232,-0.247536,0,0,0,0,0,0,0,-0.404264,0.0422931,0.0675515,-1.71372,-0.157662,1.5935,1.20003,-0.389035,0.0178805,-0.418824,-0.161212,0.636019,0.0434884,-0.170697,3.02265,-38.188,2.91292,26.828,0.60577,2.32995,-0.217789,-0.707313,-0.361815,-1.25948,0.863573,-0.0140694,-0.226266,-0.167108,0.502919,-0.260412,-0.515059,0.410865,-0.00518019,-0.170539,
-0.419397,0.0407703,0.0516446,-1.72342,-0.115628,0.0304094,0.40111,-0.228452,-0.0425478,-0.244146,-0.168034,0.882618,0.131176,-0.245072,0,0,0,0,0,0,0,-0.415774,0.0425632,0.0556126,-1.71875,-0.139503,1.59443,1.19436,-0.37309,0.00585202,-0.366298,-0.16077,0.524532,0.013751,-0.187568,3.58203,-38.2396,3.33742,27.3517,0.788876,2.61559,-0.163772,-0.248595,-0.0360017,-1.44413,0.667208,0.341253,0.049912,0.117687,0.654118,-0.000139202,-0.561252,0.392752,0.0294602,-0.172331,
-0.420282,0.0405941,0.0506967,-1.72408,-0.112088,0.0308933,0.400138,-0.221313,-0.0440634,-0.23697,-0.16573,0.884963,0.120976,-0.242801,0,0,0,0,0,0,0,-0.415774,0.0425632,0.0556126,-1.71875,-0.139503,1.59443,1.19436,-0.37309,0.00585202,-0.366298,-0.16077,0.524532,0.013751,-0.187568,3.58203,-38.2396,3.33742,27.3517,0.788876,2.61559,-0.163772,-0.248595,-0.0360017,-1.44413,0.667208,0.341253,0.049912,0.117687,0.654118,-0.000139202,-0.561252,0.392752,0.0294602,-0.172331,
-0.421139,0.0404115,0.0497776,-1.72474,-0.108576,0.0313367,0.399176,-0.214196,-0.0456495,-0.229779,-0.163939,0.878054,0.110835,-0.240563,0,0,0,0,0,0,0,-0.415774,0.0425632,0.0556126,-1.71875,-0.139503,1.59443,1.19436,-0.37309,0.00585202,-0.366298,-0.16077,0.524532,0.013751,-0.187568,3.58203,-38.2396,3.33742,27.3517,0.788876,2.61559,-0.163772,-0.747416,-1.15506,-1.61679,1.33196,0.109754,-0.637289,-0.574774,0.716268,-0.668932,-0.610039,0.310742,0.0326974,-0.173405,
-0.421967,0.0402225,0.048887,-1.72539,-0.105125,0.0317431,0.398222,-0.207128,-0.0472352,-0.222658,-0.162578,0.862827,0.101596,-0.238404,0,0,0,0,0,0,0,-0.415774,0.0425632,0.0556126,-1.71875,-0.139503,1.59443,1.19436,-0.37309,0.00585202,-0.366298,-0.16077,0.524532,0.013751,-0.187568,3.58203,-38.2396,3.33742,27.3517,0.788876,2.61559,-0.163772,-0.747416,-1.15506,-1.61679,1.33196,0.109754,-0.637289,-0.574774,0.716268,-0.668932,-0.610039,0.310742,0.0326974,-0.173405,
-0.422768,0.0400273,0.048024,-1.72603,-0.101759,0.0321208,0.397277,-0.200237,-0.0487957,-0.215755,-0.161684,0.841364,0.0944239,-0.23636,0,0,0,0,0,0,0,-0.415774,0.0425632,0.0556126,-1.71875,-0.139503,1.59443,1.19436,-0.37309,0.00585202,-0.366298,-0.16077,0.524532,0.013751,-0.187568,3.58203,-38.2396,3.33742,27.3517,0.788876,2.61559,-0.163772,-0.700898,-0.319362,-1.92765,0.980533,0.206888,-0.194654,-0.133367,0.76286,-0.229663,-0.715681,0.446013,0.0577013,-0.180901,
-0.418202,0.0404351,0.052874,-1.72321,-0.116363,0.032129,0.400749,-0.22608,-0.0544538,-0.242231,-0.178109,0.983066,0.194546,-0.273403,0,0,0,0,0,0,0,-0.429782,0.0425107,0.0408453,-1.72471,-0.114405,1.5948,1.18769,-0.310778,-0.000106845,-0.325132,-0.122224,0.590165,0.000917361,-0.130439,3.50666,-37.6167,3.36122,27.2525,0.923458,2.66869,-0.204056,-0.874706,-0.114864,-2.19585,0.942316,0.1833,-0.12467,-0.0664582,0.808473,-0.156093,-0.810601,0.490734,0.0684389,-0.187637,
-0.440988,0.0400621,0.028906,-1.73312,-0.0758415,0.0293483,0.389876,-0.175416,-0.0620692,-0.190932,-0.171298,0.762102,0.168708,-0.245702,0,0,0,0,0,0,0,-0.429782,0.0425107,0.0408453,-1.72471,-0.114405,1.5948,1.18769,-0.310778,-0.000106845,-0.325132,-0.122224,0.590165,0.000917361,-0.130439,3.50666,-37.6167,3.36122,27.2525,0.923458,2.66869,-0.204056,-0.874706,-0.114864,-2.19585,0.942316,0.1833,-0.12467,-0.0664582,0.808473,-0.156093,-0.810601,0.490734,0.0684389,-0.187637,
-0.441655,0.0398141,0.0281755,-1.7338,-0.072924,0.0300731,0.388903,-0.166937,-0.0620148,-0.182602,-0.168362,0.729388,0.181191,-0.243371,0,0,0,0,0,0,0,-0.429782,0.0425107,0.0408453,-1.72471,-0.114405,1.5948,1.18769,-0.310778,-0.000106845,-0.325132,-0.122224,0.590165,0.000917361,-0.130439,3.50666,-37.6167,3.36122,27.2525,0.923458,2.66869,-0.204056,-1.67466,-1.64156,-2.23105,1.78044,-0.249742,-1.08727,-1.03723,0.797893,-1.09378,-0.82976,0.33398,0.0441375,-0.190376,
-0.442293,0.0395653,0.0274749,-1.73446,-0.070139,0.0308267,0.387938,-0.159358,-0.0622032,-0.175164,-0.165411,0.696243,0.188406,-0.241282,0,0,0,0,0,0,0,-0.429782,0.0425107,0.0408453,-1.72471,-0.114405,1.5948,1.18769,-0.310778,-0.000106845,-0.325132,-0.122224,0.590165,0.000917361,-0.130439,3.50666,-37.6167,3.36122,27.2525,0.923458,2.66869,-0.204056,-1.67466,-1.64156,-2.23105,1.78044,-0.249742,-1.08727,-1.03723,0.797893,-1.09378,-0.82976,0.33398,0.0441375,-0.190376,
-0.442903,0.0393147,0.0268006,-1.73511,-0.0674852,0.0315937,0.386981,-0.152623,-0.0626374,-0.168562,-0.162701,0.663441,0.191758,-0.239219,0,0,0,0,0,0,0,-0.429782,0.0425107,0.0408453,-1.72471,-0.114405,1.5948,1.18769,-0.310778,-0.000106845,-0.325132,-0.122224,0.590165,0.000917361,-0.130439,3.50666,-37.6167,3.36122,27.2525,0.923458,2.66869,-0.204056,-1.68954,-1.60008,-2.36706,1.80286,-0.17888,-1.07097,-1.01759,0.884578,-1.08098,-0.912231,0.342004,0.0160161,-0.196201,
-0.44349,0.0390617,0.0261496,-1.73575,-0.0649578,0.032363,0.386032,-0.146685,-0.0632547,-0.162752,-0.160317,0.631865,0.192313,-0.237169,0,0,0,0,0,0,0,-0.429782,0.0425107,0.0408453,-1.72471,-0.114405,1.5948,1.18769,-0.310778,-0.000106845,-0.325132,-0.122224,0.590165,0.000917361,-0.130439,3.50666,-37.6167,3.36122,27.2525,0.923458,2.66869,-0.204056,-0.559028,0.356009,-2.82914,0.853565,0.654421,0.188919,0.255243,1.17427,0.144509,-1.09101,0.554022,0.0414559,-0.205021,
-0.444056,0.0388058,0.0255188,-1.73638,-0.0625474,0.033127,0.385091,-0.141511,-0.0639812,-0.157705,-0.158287,0.602585,0.191,-0.23513,0,0,0,0,0,0,0,-0.438882,0.042306,0.030742,-1.7284,-0.0958865,1.59486,1.18345,-0.297305,-0.0116754,-0.303163,-0.113922,0.544161,0.0117975,-0.136267,3.40351,-36.8431,3.18666,26.2567,0.776974,2.55608,-0.291031,-0.559028,0.356009,-2.82914,0.853565,0.654421,0.188919,0.255243,1.17427,0.144509,-1.09101,0.554022,0.0414559,-0.205021,
-0.440709,0.0394672,0.029141,-1.73369,-0.0732124,0.0336739,0.388652,-0.172829,-0.0774005,-0.189408,-0.178755,0.970546,0.273599,-0.269645,0,0,0,0,0,0,0,-0.438882,0.042306,0.030742,-1.7284,-0.0958865,1.59486,1.18345,-0.297305,-0.0116754,-0.303163,-0.113922,0.544161,0.0117975,-0.136267,3.40351,-36.8431,3.18666,26.2567,0.776974,2.55608,-0.291031,-0.906106,1.09951,-2.83726,0.407422,0.41962,0.500719,0.570253,0.982981,0.447214,-1.09746,0.573096,0.0397149,-0.21318,
-0.448421,0.0392181,0.020456,-1.73665,-0.0641659,0.0339518,0.385852,-0.144586,-0.0734316,-0.161402,-0.156671,0.693647,0.20914,-0.241976,0,0,0,0,0,0,0,-0.438882,0.042306,0.030742,-1.7284,-0.0958865,1.59486,1.18345,-0.297305,-0.0116754,-0.303163,-0.113922,0.544161,0.0117975,-0.136267,3.40351,-36.8431,3.18666,26.2567,0.776974,2.55608,-0.291031,-0.906106,1.09951,-2.83726,0.407422,0.41962,0.500719,0.570253,0.982981,0.447214,-1.09746,0.573096,0.0397149,-0.21318,
-0.448976,0.0389227,0.0198341,-1.73727,-0.0613646,0.0347408,0.384893,-0.138823,-0.0738453,-0.15549,-0.153301,0.700324,0.197239,-0.239715,0,0,0,0,0,0,0,-0.438882,0.042306,0.030742,-1.7284,-0.0958865,1.59486,1.18345,-0.297305,-0.0116754,-0.303163,-0.113922,0.544161,0.0117975,-0.136267,3.40351,-36.8431,3.18666,26.2567,0.776974,2.55608,-0.291031,-1.8456,0.169821,-2.87192,0.942598,-0.139528,-0.197123,-0.134137,0.859102,-0.2304,-1.11406,0.501792,0.0242378,-0.21644,
-0.449508,0.0386242,0.0192359,-1.73787,-0.0585762,0.0354763,0.383942,-0.132959,-0.0746292,-0.149541,-0.15077,0.697097,0.183878,-0.237583,0,0,0,0,0,0,0,-0.438882,0.042306,0.030742,-1.7284,-0.0958865,1.59486,1.18345,-0.297305,-0.0116754,-0.303163,-0.113922,0.544161,0.0117975,-0.136267,3.40351,-36.8431,3.18666,26.2567,0.776974,2.55608,-0.291031,-1.8456,0.169821,-2.87192,0.942598,-0.139528,-0.197123,-0.134137,0.859102,-0.2304,-1.11406,0.501792,0.0242378,-0.21644,
-0.450017,0.0383219,0.0186609,-1.73846,-0.0558304,0.0361542,0.383,-0.127191,-0.0755646,-0.14374,-0.148752,0.686439,0.169472,-0.235519,0,0,0,0,0,0,0,-0.447189,0.0417861,0.0219319,-1.73213,-0.0798896,1.59544,1.17897,-0.244827,-0.0230314,-0.262358,-0.124009,0.496029,0.0348229,-0.137183,2.94727,-37.0415,2.78596,26.5305,0.941769,2.54876,-0.26448,-2.13098,-0.426111,-2.63044,1.23302,-0.45212,-0.574546,-0.510351,0.704672,-0.60178,-0.984324,0.470261,0.0540283,-0.219486,
-0.450503,0.0380157,0.0181081,-1.73905,-0.0531496,0.0367731,0.382066,-0.121647,-0.0765483,-0.138196,-0.147153,0.670217,0.154745,-0.233514,0,0,0,0,0,0,0,-0.447189,0.0417861,0.0219319,-1.73213,-0.0798896,1.59544,1.17897,-0.244827,-0.0230314,-0.262358,-0.124009,0.496029,0.0348229,-0.137183,2.94727,-37.0415,2.78596,26.5305,0.941769,2.54876,-0.26448,-1.9978,-0.509646,-2.78081,1.32709,-0.309538,-0.58571,-0.5236,0.824188,-0.610161,-1.04111,0.47602,0.0572331,-0.227253,
-0.450969,0.0377056,0.0175763,-1.73964,-0.0505503,0.0373358,0.38114,-0.116401,-0.0775227,-0.132972,-0.145982,0.649829,0.14067,-0.231568,0,0,0,0,0,0,0,-0.447189,0.0417861,0.0219319,-1.73213,-0.0798896,1.59544,1.17897,-0.244827,-0.0230314,-0.262358,-0.124009,0.496029,0.0348229,-0.137183,2.94727,-37.0415,2.78596,26.5305,0.941769,2.54876,-0.26448,-1.9978,-0.509646,-2.78081,1.32709,-0.309538,-0.58571,-0.5236,0.824188,-0.610161,-1.04111,0.47602,0.0572331,-0.227253,
-0.44825,0.0386701,0.0205956,-1.73719,-0.0564934,0.0377972,0.384668,-0.136157,-0.0874712,-0.153307,-0.16325,0.95542,0.297092,-0.264738,0,0,0,0,0,0,0,-0.447189,0.0417861,0.0219319,-1.73213,-0.0798896,1.59544,1.17897,-0.244827,-0.0230314,-0.262358,-0.124009,0.496029,0.0348229,-0.137183,2.94727,-37.0415,2.78596,26.5305,0.941769,2.54876,-0.26448,-2.13188,-0.227359,-2.89578,1.18384,-0.34385,-0.472799,-0.409308,0.813919,-0.501244,-1.09648,0.480089,0.0478326,-0.232153,
-0.454834,0.0382707,0.0135221,-1.7401,-0.0482336,0.031418,0.381553,-0.101258,-0.0851097,-0.117772,-0.15873,0.583538,0.164064,-0.238309,0,0,0,0,0,0,0,-0.447189,0.0417861,0.0219319,-1.73213,-0.0798896,1.59544,1.17897,-0.244827,-0.0230314,-0.262358,-0.124009,0.496029,0.0348229,-0.137183,2.94727,-37.0415,2.78596,26.5305,0.941769,2.54876,-0.26448,-2.13188,-0.227359,-2.89578,1.18384,-0.34385,-0.472799,-0.409308,0.813919,-0.501244,-1.09648,0.480089,0.0478326,-0.232153,
-0.455209,0.0379304,0.0130805,-1.74073,-0.04605,0.0320988,0.380608,-0.093777,-0.0850718,-0.110389,-0.15609,0.545904,0.170215,-0.236189,0,0,0,0,0,0,0,-0.447189,0.0417861,0.0219319,-1.73213,-0.0798896,1.59544,1.17897,-0.244827,-0.0230314,-0.262358,-0.124009,0.496029,0.0348229,-0.137183,2.94727,-37.0415,2.78596,26.5305,0.941769,2.54876,-0.26448,-2.67454,-0.459252,-2.70922,1.23141,-0.752349,-0.718132,-0.652998,0.598337,-0.745356,-1.02078,0.412126,0.046741,-0.235433,
-0.455557,0.0375896,0.0126655,-1.74134,-0.0440282,0.0327847,0.379672,-0.0870362,-0.0852107,-0.103748,-0.153383,0.50545,0.171472,-0.234192,0,0,0,0,0,0,0,-0.454355,0.0410219,0.0142606,-1.73589,-0.0649614,1.59638,1.17418,-0.214269,-0.0242127,-0.234554,-0.116743,0.450066,0.0304369,-0.14054,3.07422,-37.0415,2.86134,26.3043,1.30798,2.4627,-0.23793,-2.67454,-0.459252,-2.70922,1.23141,-0.752349,-0.718132,-0.652998,0.598337,-0.745356,-1.02078,0.412126,0.046741,-0.235433,
-0.455881,0.0372473,0.0122741,-1.74195,-0.0421744,0.0334632,0.378743,-0.0810458,-0.0855712,-0.0978595,-0.150981,0.463453,0.169628,-0.232183,0,0,0,0,0,0,0,-0.454355,0.0410219,0.0142606,-1.73589,-0.0649614,1.59638,1.17418,-0.214269,-0.0242127,-0.234554,-0.116743,0.450066,0.0304369,-0.14054,3.07422,-37.0415,2.86134,26.3043,1.30798,2.4627,-0.23793,-2.70207,0.152668,-2.78257,0.901321,-0.72912,-0.410987,-0.341055,0.573802,-0.448739,-1.0812,0.437748,0.0182848,-0.246077,
-0.456184,0.0369029,0.0119031,-1.74254,-0.0404884,0.0341278,0.377822,-0.0758308,-0.0860999,-0.0927521,-0.149025,0.421498,0.166149,-0.230139,0,0,0,0,0,0,0,-0.454355,0.0410219,0.0142606,-1.73589,-0.0649614,1.59638,1.17418,-0.214269,-0.0242127,-0.234554,-0.116743,0.450066,0.0304369,-0.14054,3.07422,-37.0415,2.86134,26.3043,1.30798,2.4627,-0.23793,-2.40602,-0.240072,-2.95683,1.19403,-0.478364,-0.537445,-0.473167,0.783372,-0.56685,-1.13777,0.443205,0.0301367,-0.25652,
-0.45647,0.036556,0.0115491,-1.74313,-0.0389615,0.0347774,0.37691,-0.0714504,-0.086716,-0.0884907,-0.147588,0.381711,0.162384,-0.228038,0,0,0,0,0,0,0,-0.454355,0.0410219,0.0142606,-1.73589,-0.0649614,1.59638,1.17418,-0.214269,-0.0242127,-0.234554,-0.116743,0.450066,0.0304369,-0.14054,3.07422,-37.0415,2.86134,26.3043,1.30798,2.4627,-0.23793,-2.40602,-0.240072,-2.95683,1.19403,-0.478364,-0.537445,-0.473167,0.783372,-0.56685,-1.13777,0.443205,0.0301367,-0.25652,
-0.454687,0.0377064,0.0136361,-1.74072,-0.0418775,0.0364451,0.380402,-0.0964107,-0.0993099,-0.113361,-0.166048,0.843951,0.282205,-0.260503,0,0,0,0,0,0,0,-0.454355,0.0410219,0.0142606,-1.73589,-0.0649614,1.59638,1.17418,-0.214269,-0.0242127,-0.234554,-0.116743,0.450066,0.0304369,-0.14054,3.07422,-37.0415,2.86134,26.3043,1.30798,2.4627,-0.23793,-2.46717,-0.906488,-3.18811,1.61407,-0.359888,-0.878404,-0.822075,0.997337,-0.894836,-1.25544,0.367577,0.00112321,-0.267117,
-0.460427,0.0371738,0.00740091,-1.74393,-0.0426858,0.0350335,0.377006,-0.0878342,-0.0915795,-0.106216,-0.158346,0.543639,0.230008,-0.234008,0,0,0,0,0,0,0,-0.460236,0.0400488,0.00736851,-1.73938,-0.0515636,1.59742,1.17068,-0.157161,-0.0254966,-0.190906,-0.097485,0.334717,0.0251685,-0.0859622,2.64179,-37.1684,2.53602,26.6058,1.24115,2.60186,-0.298355,-2.46717,-0.906488,-3.18811,1.61407,-0.359888,-0.878404,-0.822075,0.997337,-0.894836,-1.25544,0.367577,0.00112321,-0.267117,
-0.460773,0.0368091,0.00698261,-1.74455,-0.0403239,0.0359521,0.376078,-0.0867018,-0.0911885,-0.104575,-0.155465,0.590491,0.229648,-0.231877,0,0,0,0,0,0,0,-0.460236,0.0400488,0.00736851,-1.73938,-0.0515636,1.59742,1.17068,-0.157161,-0.0254966,-0.190906,-0.097485,0.334717,0.0251685,-0.0859622,2.64179,-37.1684,2.53602,26.6058,1.24115,2.60186,-0.298355,-3.18632,-0.728034,-2.66877,1.35044,-1.01932,-0.956894,-0.902285,0.53208,-0.971961,-1.06592,0.315853,-0.0142203,-0.276503,
-0.46111,0.0364449,0.00657601,-1.74516,-0.0378549,0.0368503,0.375159,-0.0841338,-0.0910565,-0.10165,-0.152561,0.617237,0.224545,-0.229739,0,0,0,0,0,0,0,-0.460236,0.0400488,0.00736851,-1.73938,-0.0515636,1.59742,1.17068,-0.157161,-0.0254966,-0.190906,-0.097485,0.334717,0.0251685,-0.0859622,2.64179,-37.1684,2.53602,26.6058,1.24115,2.60186,-0.298355,-3.18632,-0.728034,-2.66877,1.35044,-1.01932,-0.956894,-0.902285,0.53208,-0.971961,-1.06592,0.315853,-0.0142203,-0.276503,
-0.461433,0.03608,0.00618406,-1.74576,-0.0353393,0.0377154,0.374248,-0.0807039,-0.0912058,-0.0979885,-0.149971,0.628915,0.216279,-0.227701,0,0,0,0,0,0,0,-0.460236,0.0400488,0.00736851,-1.73938,-0.0515636,1.59742,1.17068,-0.157161,-0.0254966,-0.190906,-0.097485,0.334717,0.0251685,-0.0859622,2.64179,-37.1684,2.53602,26.6058,1.24115,2.60186,-0.298355,-3.41945,0.0348455,-2.2938,0.784664,-1.34562,-0.622124,-0.559705,0.171765,-0.652487,-0.912881,0.313066,-0.00587272,-0.284599,
-0.46174,0.0357138,0.00580824,-1.74635,-0.0328224,0.0385397,0.373345,-0.0768142,-0.0915692,-0.0939551,-0.147794,0.629218,0.206064,-0.225751,0,0,0,0,0,0,0,-0.460236,0.0400488,0.00736851,-1.73938,-0.0515636,1.59742,1.17068,-0.157161,-0.0254966,-0.190906,-0.097485,0.334717,0.0251685,-0.0859622,2.64179,-37.1684,2.53602,26.6058,1.24115,2.60186,-0.298355,-2.15245,0.638315,-2.5466,0.546872,-0.509061,6.60799e-05,0.0724115,0.527018,-0.0495252,-0.974946,0.416263,0.0363973,-0.296733,
-0.462031,0.0353455,0.00544908,-1.74693,-0.0303391,0.0393198,0.37245,-0.0727337,-0.092066,-0.0897904,-0.146068,0.620818,0.195029,-0.223875,0,0,0,0,0,0,0,-0.460236,0.0400488,0.00736851,-1.73938,-0.0515636,1.59742,1.17068,-0.157161,-0.0254966,-0.190906,-0.097485,0.334717,0.0251685,-0.0859622,2.64179,-37.1684,2.53602,26.6058,1.24115,2.60186,-0.298355,-2.15245,0.638315,-2.5466,0.546872,-0.509061,6.60799e-05,0.0724115,0.527018,-0.0495252,-0.974946,0.416263,0.0363973,-0.296733,
-0.460302,0.036649,0.00750677,-1.7445,-0.0320067,0.0396333,0.375899,-0.0749527,-0.105466,-0.093449,-0.16446,0.805329,0.3349,-0.255304,0,0,0,0,0,0,0,-0.465362,0.0391269,0.00189678,-1.74254,-0.0409761,1.59852,1.16813,-0.147791,-0.0351973,-0.158355,-0.102308,0.331239,0.0351119,-0.0790133,2.01099,-36.7162,1.93696,26.7764,1.64398,2.7813,-0.304764,-1.9573,0.199837,-2.56676,0.833861,-0.419116,-0.176718,-0.105825,0.613657,-0.220557,-0.944359,0.437141,0.0736485,-0.301722,
-0.469853,0.0348012,-0.00340326,-1.75039,-0.0110564,0.0373806,0.371145,-0.0489796,-0.100064,-0.0657718,-0.151331,0.55298,0.20213,-0.230486,0,0,0,0,0,0,0,-0.465362,0.0391269,0.00189678,-1.74254,-0.0409761,1.59852,1.16813,-0.147791,-0.0351973,-0.158355,-0.102308,0.331239,0.0351119,-0.0790133,2.01099,-36.7162,1.93696,26.7764,1.64398,2.7813,-0.304764,-1.9573,0.199837,-2.56676,0.833861,-0.419116,-0.176718,-0.105825,0.613657,-0.220557,-0.944359,0.437141,0.0736485,-0.301722,
