PerkyPenguin/Analysis-on-Approximated-Derivatives/Code_and_Data/PaperData/Real_Robot/Scene_2/set_interval/18/trajectory.csv
Commanded Joint 0 Position,Commanded Joint 1 Position,Commanded Joint 2 Position,Commanded Joint 3 Position,Commanded Joint 4 Position,Commanded Joint 5 Position,Commanded Joint 6 Position,Commanded Joint 0 Velocity,Commanded Joint 1 Velocity,Commanded Joint 2 Velocity,Commanded Joint 3 Velocity,Commanded Joint 4 Velocity,Commanded Joint 5 Velocity,Commanded Joint 6 Velocity,Commanded Joint 0 Torque,Commanded Joint 1 Torque,Commanded Joint 2 Torque,Commanded Joint 3 Torque,Commanded Joint 4 Torque,Commanded Joint 5 Torque,Commanded Joint 6 Torque,Actual Joint 0 Position,Actual Joint 1 Position,Actual Joint 2 Position,Actual Joint 3 Position,Actual Joint 4 Position,Actual Joint 5 Position,Actual Joint 6 Position,Actual Joint 0 Velocity,Actual Joint 1 Velocity,Actual Joint 2 Velocity,Actual Joint 3 Velocity,Actual Joint 4 Velocity,Actual Joint 5 Velocity,Actual Joint 6 Velocity,Actual Joint 0 Torque,Actual Joint 1 Torque,Actual Joint 2 Torque,Actual Joint 3 Torque,Actual Joint 4 Torque,Actual Joint 5 Torque,Actual Joint 6 Torque,EE ext force 0,EE ext force 1,EE ext force 2,EE ext force 3,EE ext force 4,EE ext force 5,joint ext torque 0,joint ext torque 1,joint ext torque 2,joint ext torque 3,joint ext torque 4,joint ext torque 5,joint ext torque 6,
0.0213243,-0.0524169,0.513995,-1.56075,0.0380605,-0.0158476,0.532253,0.0110371,0.0303611,0.0152334,-0.143905,-0.0716182,0.200753,-0.00127586,0,0,0,0,0,0,0,0.0212364,-0.052544,0.513877,-1.55931,0.0386961,1.55297,1.31767,-0.00112796,0.00147997,-0.000500304,0.000140403,0.0138216,0.0013684,0.000347719,0.25745,-27.4327,-0.76079,26.9034,0.526119,3.03948,0.0641939,2.33251,1.97589,1.99597,-1.05337,1.35132,0.169846,0.196541,0.583127,0.16415,0.135111,0.144661,-0.309799,0.0834535,
0.0213823,-0.0522143,0.514073,-1.56137,0.0377021,-0.0150103,0.532248,0.0144831,0.0506747,0.0194376,-0.154717,-0.0895976,0.209328,-0.00136227,0,0,0,0,0,0,0,0.0212364,-0.052544,0.513877,-1.55931,0.0386961,1.55297,1.31767,-0.00112796,0.00147997,-0.000500304,0.000140403,0.0138216,0.0013684,0.000347719,0.25745,-27.4327,-0.76079,26.9034,0.526119,3.03948,0.0641939,2.33251,1.97589,1.99597,-1.05337,1.35132,0.169846,0.196541,0.583127,0.16415,0.135111,0.144661,-0.309799,0.0834535,
0.0212339,-0.0525279,0.513875,-1.55931,0.0388128,-0.0178156,0.532271,3.6468e-05,0.000727125,7.70906e-05,-7.15171e-05,0.00470451,0.00063643,9.91578e-06,0,0,0,0,0,0,0,0.0212401,-0.0525487,0.513882,-1.55931,0.0386635,1.55296,1.31767,0.00139037,-0.00201011,0.000129699,-0.00343296,-0.0047912,-0.00174689,0.000308861,0.209842,-27.282,-0.76079,26.1813,0.703732,3.23907,0.0843355,2.18816,1.94523,2.05377,-1.00242,1.22007,0.196784,0.220932,0.499009,0.191519,0.179444,0.15707,-0.302549,0.083662,
0.0212342,-0.0525256,0.513876,-1.55931,0.0388274,-0.0178137,0.532271,9.13976e-05,0.000578508,0.000144619,-9.08947e-05,0.00365246,0.000486481,5.18877e-06,0,0,0,0,0,0,0,0.0212401,-0.0525487,0.513882,-1.55931,0.0386635,1.55296,1.31767,0.00139037,-0.00201011,0.000129699,-0.00343296,-0.0047912,-0.00174689,0.000308861,0.209842,-27.282,-0.76079,26.1813,0.703732,3.23907,0.0843355,2.18816,1.94523,2.05377,-1.00242,1.22007,0.196784,0.220932,0.499009,0.191519,0.179444,0.15707,-0.302549,0.083662,
0.0212347,-0.0525238,0.513876,-1.55931,0.0388388,-0.0178123,0.532271,0.000122214,0.000451037,0.00018483,-9.73809e-05,0.00284906,0.000351131,2.16014e-06,0,0,0,0,0,0,0,0.0212401,-0.0525487,0.513882,-1.55931,0.0386635,1.55296,1.31767,0.00139037,-0.00201011,0.000129699,-0.00343296,-0.0047912,-0.00174689,0.000308861,0.209842,-27.282,-0.76079,26.1813,0.703732,3.23907,0.0843355,1.99659,1.71086,1.91486,-0.849648,1.11265,0.143848,0.16911,0.454007,0.133777,0.17251,0.155873,-0.285441,0.0836887,
0.0212353,-0.0525224,0.513877,-1.55931,0.0388477,-0.0178114,0.532271,0.000136939,0.000342162,0.000206632,-9.53266e-05,0.0022309,0.000232195,2.66053e-07,0,0,0,0,0,0,0,0.0212401,-0.0525487,0.513882,-1.55931,0.0386635,1.55296,1.31767,0.00139037,-0.00201011,0.000129699,-0.00343296,-0.0047912,-0.00174689,0.000308861,0.209842,-27.282,-0.76079,26.1813,0.703732,3.23907,0.0843355,0.883589,1.04304,1.20222,-0.55094,0.548922,0.152151,0.172377,0.25917,0.14309,0.0114544,0.127965,-0.312072,0.083984,
0.0212358,-0.0525214,0.513878,-1.55931,0.0388547,-0.0178108,0.532271,0.00014112,0.000249379,0.000216208,-8.79505e-05,0.00175157,0.000129869,-8.64149e-07,0,0,0,0,0,0,0,0.0212401,-0.0525487,0.513882,-1.55931,0.0386635,1.55296,1.31767,0.00139037,-0.00201011,0.000129699,-0.00343296,-0.0047912,-0.00174689,0.000308861,0.209842,-27.282,-0.76079,26.1813,0.703732,3.23907,0.0843355,0.883589,1.04304,1.20222,-0.55094,0.548922,0.152151,0.172377,0.25917,0.14309,0.0114544,0.127965,-0.312072,0.083984,
0.0212364,-0.0525208,0.513879,-1.55931,0.0388602,-0.0178107,0.532271,0.000138584,0.00017041,0.000217846,-7.75099e-05,0.00137693,4.32959e-05,-1.48303e-06,0,0,0,0,0,0,0,0.0212401,-0.0525487,0.513882,-1.55931,0.0386635,1.55296,1.31767,0.00139037,-0.00201011,0.000129699,-0.00343296,-0.0047912,-0.00174689,0.000308861,0.209842,-27.282,-0.76079,26.1813,0.703732,3.23907,0.0843355,1.35744,1.73141,0.811953,-1.11425,1.02386,0.331569,0.345981,0.583176,0.344885,-0.1587,0.156908,-0.260091,0.0835865,
0.0212369,-0.0525203,0.51388,-1.55931,0.0388645,-0.0178108,0.532271,0.000131955,0.000103237,0.000214497,-6.55402e-05,0.00108176,-2.89627e-05,-1.76436e-06,0,0,0,0,0,0,0,0.0212166,-0.0526116,0.513866,-1.55989,0.0385956,1.55378,1.31767,-0.0039608,0.00115728,-0.000255729,0.00045303,0.00406437,0.00707198,-0.000132477,0.463749,-27.6073,-0.610033,27.4271,0.58746,3.23174,0.0779268,1.35744,1.73141,0.811953,-1.11425,1.02386,0.331569,0.345981,0.583176,0.344885,-0.1587,0.156908,-0.260091,0.0835865,
0.0212374,-0.0525202,0.513881,-1.55932,0.0388679,-0.0178111,0.532271,0.000123017,4.61056e-05,0.000208181,-5.30585e-05,0.000847299,-8.85985e-05,-1.82767e-06,0,0,0,0,0,0,0,0.0212166,-0.0526116,0.513866,-1.55989,0.0385956,1.55378,1.31767,-0.0039608,0.00115728,-0.000255729,0.00045303,0.00406437,0.00707198,-0.000132477,0.463749,-27.6073,-0.610033,27.4271,0.58746,3.23174,0.0779268,2.52279,2.13741,0.956524,-1.39086,1.79736,0.184765,0.201416,0.971526,0.203053,-0.188973,0.125004,-0.215908,0.0847122,
0.0212379,-0.0525202,0.513881,-1.55932,0.0388706,-0.0178117,0.532271,0.000112963,-2.49811e-06,0.000200262,-4.07185e-05,0.000659574,-0.000137348,-1.75475e-06,0,0,0,0,0,0,0,0.0212166,-0.0526116,0.513866,-1.55989,0.0385956,1.55378,1.31767,-0.0039608,0.00115728,-0.000255729,0.00045303,0.00406437,0.00707198,-0.000132477,0.463749,-27.6073,-0.610033,27.4271,0.58746,3.23174,0.0779268,2.55542,2.01384,1.33002,-1.18731,1.65114,0.119632,0.123905,0.810602,0.141565,-0.00910596,0.128667,-0.179482,0.0840382,
0.0212383,-0.0525203,0.513882,-1.55932,0.0388726,-0.0178124,0.532271,0.000102577,-4.38713e-05,0.000191645,-2.89219e-05,0.000508087,-0.000176868,-1.6011e-06,0,0,0,0,0,0,0,0.0212166,-0.0526116,0.513866,-1.55989,0.0385956,1.55378,1.31767,-0.0039608,0.00115728,-0.000255729,0.00045303,0.00406437,0.00707198,-0.000132477,0.463749,-27.6073,-0.610033,27.4271,0.58746,3.23174,0.0779268,2.55542,2.01384,1.33002,-1.18731,1.65114,0.119632,0.123905,0.810602,0.141565,-0.00910596,0.128667,-0.179482,0.0840382,
0.0212386,-0.0525207,0.513883,-1.55932,0.0388741,-0.0178132,0.532271,9.23579e-05,-7.91204e-05,0.00018292,-1.78989e-05,0.000384916,-0.000208671,-1.40388e-06,0,0,0,0,0,0,0,0.0212166,-0.0526116,0.513866,-1.55989,0.0385956,1.55378,1.31767,-0.0039608,0.00115728,-0.000255729,0.00045303,0.00406437,0.00707198,-0.000132477,0.463749,-27.6073,-0.610033,27.4271,0.58746,3.23174,0.0779268,2.52629,2.08596,1.24936,-1.26062,1.66532,0.161581,0.144681,0.835011,0.206163,-0.0446669,0.13359,-0.184246,0.0823069,
0.021239,-0.0525211,0.513884,-1.55932,0.0388753,-0.0178142,0.532271,8.2612e-05,-0.000109185,0.000174457,-7.76389e-06,0.000284045,-0.000234094,-1.18758e-06,0,0,0,0,0,0,0,0.0212409,-0.0525986,0.513872,-1.55983,0.0385843,1.55381,1.31766,-0.00223276,0.00349497,-0.000519445,0.0053757,0.0233364,0.00703313,-0.00129061,0.158268,-27.7342,-0.736986,26.5543,0.526119,2.86095,0.0980684,2.52629,2.08596,1.24936,-1.26062,1.66532,0.161581,0.144681,0.835011,0.206163,-0.0446669,0.13359,-0.184246,0.0823069,
0.0212393,-0.0525216,0.513884,-1.55932,0.0388761,-0.0178152,0.532271,7.35118e-05,-0.000134864,0.000166475,1.44467e-06,0.000200876,-0.000254295,-9.67931e-07,0,0,0,0,0,0,0,0.0212409,-0.0525986,0.513872,-1.55983,0.0385843,1.55381,1.31766,-0.00223276,0.00349497,-0.000519445,0.0053757,0.0233364,0.00703313,-0.00129061,0.158268,-27.7342,-0.736986,26.5543,0.526119,2.86095,0.0980684,2.09503,1.81535,1.4558,-1.04004,1.26047,0.160246,0.135577,0.570761,0.205678,0.0699365,0.105415,-0.2008,0.0811513,
0.0212395,-0.0525223,0.513885,-1.55932,0.0388766,-0.0178163,0.532271,6.51416e-05,-0.000156829,0.000159094,9.73738e-06,0.000131869,-0.000270256,-7.54685e-07,0,0,0,0,0,0,0,0.0212409,-0.0525986,0.513872,-1.55983,0.0385843,1.55381,1.31766,-0.00223276,0.00349497,-0.000519445,0.0053757,0.0233364,0.00703313,-0.00129061,0.158268,-27.7342,-0.736986,26.5543,0.526119,2.86095,0.0980684,2.09503,1.81535,1.4558,-1.04004,1.26047,0.160246,0.135577,0.570761,0.205678,0.0699365,0.105415,-0.2008,0.0811513,
0.0212397,-0.052523,0.513885,-1.55932,0.0388769,-0.0178174,0.532271,5.75273e-05,-0.000175651,0.000152364,1.71548e-05,7.42806e-05,-0.000282803,-5.53556e-07,0,0,0,0,0,0,0,0.0212409,-0.0525986,0.513872,-1.55983,0.0385843,1.55381,1.31766,-0.00223276,0.00349497,-0.000519445,0.0053757,0.0233364,0.00703313,-0.00129061,0.158268,-27.7342,-0.736986,26.5543,0.526119,2.86095,0.0980684,1.69719,1.74667,1.84793,-0.855095,0.810682,0.24242,0.208152,0.249699,0.28888,0.280106,0.14103,-0.180287,0.0811341,
0.0212399,-0.0525237,0.513886,-1.55932,0.038877,-0.0178186,0.532271,5.06579e-05,-0.00019181,0.000146295,2.37548e-05,2.59669e-05,-0.000292619,-3.67554e-07,0,0,0,0,0,0,0,0.0212409,-0.0525986,0.513872,-1.55983,0.0385843,1.55381,1.31766,-0.00223276,0.00349497,-0.000519445,0.0053757,0.0233364,0.00703313,-0.00129061,0.158268,-27.7342,-0.736986,26.5543,0.526119,2.86095,0.0980684,2.10336,1.89034,1.55055,-1.05095,1.2535,0.193461,0.157628,0.560357,0.24882,0.0942988,0.138071,-0.208388,0.080667,
0.0212401,-0.0525246,0.513887,-1.55932,0.0388769,-0.0178198,0.532271,4.44992e-05,-0.000205712,0.000140866,2.96037e-05,-1.47591e-05,-0.000300266,-1.9792e-07,0,0,0,0,0,0,0,0.0212409,-0.0525986,0.513872,-1.55983,0.0385843,1.55381,1.31766,-0.00223276,0.00349497,-0.000519445,0.0053757,0.0233364,0.00703313,-0.00129061,0.158268,-27.7342,-0.736986,26.5543,0.526119,2.86095,0.0980684,2.10336,1.89034,1.55055,-1.05095,1.2535,0.193461,0.157628,0.560357,0.24882,0.0942988,0.138071,-0.208388,0.080667,
0.0212403,-0.0525254,0.513887,-1.55932,0.0388767,-0.017821,0.532271,3.90045e-05,-0.000217699,0.000136043,3.47707e-05,-4.92348e-05,-0.0003062,-4.47659e-08,0,0,0,0,0,0,0,0.0212447,-0.0526105,0.513873,-1.55985,0.0385009,1.55377,1.31767,-0.00262267,0.000352702,-0.00127186,0.00364431,0.0157332,0.00331633,-0.000165846,0.106693,-27.5319,-0.713182,26.8796,0.9967,3.20519,0.0907442,1.91935,1.75394,1.49884,-0.968326,1.13596,0.182607,0.145984,0.503347,0.236833,0.0921099,0.13189,-0.214364,0.0811744,
0.0212404,-0.0525263,0.513888,-1.55931,0.0388764,-0.0178222,0.532271,3.41206e-05,-0.000228059,0.00013178,3.93243e-05,-7.85292e-05,-0.00031079,9.24897e-08,0,0,0,0,0,0,0,0.0212447,-0.0526105,0.513873,-1.55985,0.0385009,1.55377,1.31767,-0.00262267,0.000352702,-0.00127186,0.00364431,0.0157332,0.00331633,-0.000165846,0.106693,-27.5319,-0.713182,26.8796,0.9967,3.20519,0.0907442,1.91935,1.75394,1.49884,-0.968326,1.13596,0.182607,0.145984,0.503347,0.236833,0.0921099,0.13189,-0.214364,0.0811744,
0.0212405,-0.0525273,0.513888,-1.55931,0.038876,-0.0178235,0.532271,2.97923e-05,-0.000237036,0.000128029,4.333e-05,-0.000103503,-0.000314334,2.14828e-07,0,0,0,0,0,0,0,0.0212447,-0.0526105,0.513873,-1.55985,0.0385009,1.55377,1.31767,-0.00262267,0.000352702,-0.00127186,0.00364431,0.0157332,0.00331633,-0.000165846,0.106693,-27.5319,-0.713182,26.8796,0.9967,3.20519,0.0907442,1.70107,1.75637,1.61215,-0.93592,0.928435,0.243052,0.212109,0.367955,0.290253,0.159049,0.138624,-0.211133,0.0840762,
0.0212406,-0.0525283,0.513889,-1.55931,0.0388755,-0.0178248,0.532271,2.59653e-05,-0.000244835,0.000124742,4.68489e-05,-0.000124852,-0.000317067,3.23433e-07,0,0,0,0,0,0,0,0.0212447,-0.0526105,0.513873,-1.55985,0.0385009,1.55377,1.31767,-0.00262267,0.000352702,-0.00127186,0.00364431,0.0157332,0.00331633,-0.000165846,0.106693,-27.5319,-0.713182,26.8796,0.9967,3.20519,0.0907442,1.70107,1.75637,1.61215,-0.93592,0.928435,0.243052,0.212109,0.367955,0.290253,0.159049,0.138624,-0.211133,0.0840762,
0.0212407,-0.0525293,0.513889,-1.55931,0.0388749,-0.017826,0.532271,2.25876e-05,-0.000251631,0.000121871,4.99371e-05,-0.000143148,-0.000319175,4.19566e-07,0,0,0,0,0,0,0,0.0212447,-0.0526105,0.513873,-1.55985,0.0385009,1.55377,1.31767,-0.00262267,0.000352702,-0.00127186,0.00364431,0.0157332,0.00331633,-0.000165846,0.106693,-27.5319,-0.713182,26.8796,0.9967,3.20519,0.0907442,1.81955,1.9073,1.29613,-1.15328,1.15691,0.27676,0.264867,0.561082,0.314195,-0.00926876,0.123199,-0.241993,0.0857956,
0.0212408,-0.0525303,0.51389,-1.55931,0.0388743,-0.0178273,0.532271,1.96108e-05,-0.000257569,0.000119371,5.26457e-05,-0.000158857,-0.000320806,5.04485e-07,0,0,0,0,0,0,0,0.0211965,-0.0526365,0.51385,-1.5598,0.0384521,1.55378,1.31767,-0.000615408,-0.00326849,0.000388026,0.00270499,-0.00581532,0.000647474,0.000549875,0.487552,-27.2066,-0.562425,26.4313,1.3327,3.15941,0.0779268,1.59236,1.71629,1.25397,-0.992672,1.00707,0.255728,0.25934,0.485338,0.273492,0.012778,0.147622,-0.233785,0.0856711,
0.0212409,-0.0525314,0.51389,-1.55931,0.0388736,-0.0178286,0.532271,1.69901e-05,-0.000262775,0.000117201,5.50205e-05,-0.000172367,-0.000322074,5.79393e-07,0,0,0,0,0,0,0,0.0211965,-0.0526365,0.51385,-1.5598,0.0384521,1.55378,1.31767,-0.000615408,-0.00326849,0.000388026,0.00270499,-0.00581532,0.000647474,0.000549875,0.487552,-27.2066,-0.562425,26.4313,1.3327,3.15941,0.0779268,1.59236,1.71629,1.25397,-0.992672,1.00707,0.255728,0.25934,0.485338,0.273492,0.012778,0.147622,-0.233785,0.0856711,
0.0212409,-0.0525324,0.513891,-1.55931,0.0388729,-0.0178299,0.532271,1.4685e-05,-0.000267354,0.000115322,5.71027e-05,-0.000183999,-0.00032307,6.45416e-07,0,0,0,0,0,0,0,0.0211965,-0.0526365,0.51385,-1.5598,0.0384521,1.55378,1.31767,-0.000615408,-0.00326849,0.000388026,0.00270499,-0.00581532,0.000647474,0.000549875,0.487552,-27.2066,-0.562425,26.4313,1.3327,3.15941,0.0779268,1.70758,1.70089,1.45833,-0.916318,0.996895,0.215767,0.223136,0.435354,0.226323,0.105205,0.150811,-0.208288,0.0863319,
0.021241,-0.0525335,0.513891,-1.55931,0.0388721,-0.0178312,0.532271,1.26588e-05,-0.000271395,0.000113702,5.89285e-05,-0.000194022,-0.000323861,7.03582e-07,0,0,0,0,0,0,0,0.0211965,-0.0526365,0.51385,-1.5598,0.0384521,1.55378,1.31767,-0.000615408,-0.00326849,0.000388026,0.00270499,-0.00581532,0.000647474,0.000549875,0.487552,-27.2066,-0.562425,26.4313,1.3327,3.15941,0.0779268,1.70758,1.70089,1.45833,-0.916318,0.996895,0.215767,0.223136,0.435354,0.226323,0.105205,0.150811,-0.208288,0.0863319,
0.0214469,-0.0527705,0.51409,-1.55908,-0.0173016,-0.0534673,0.532114,-0.00518372,0.000945843,-0.00515509,-0.00230937,-0.33544,-0.214987,-0.000698494,0,0,0,0,0,0,0,0.0211965,-0.0526365,0.51385,-1.5598,0.0384521,1.55378,1.31767,-0.000615408,-0.00326849,0.000388026,0.00270499,-0.00581532,0.000647474,0.000549875,0.487552,-27.2066,-0.562425,26.4313,1.3327,3.15941,0.0779268,2.1363,1.91081,1.36335,-1.12463,1.36222,0.189438,0.17852,0.660274,0.224427,0.00117616,0.131054,-0.226319,0.0856093,
0.0213743,-0.0530086,0.514044,-1.55954,-0.00764252,-0.0467076,0.532183,-0.00443702,0.000191981,-0.00430996,-0.00209902,-0.256969,-0.172259,-0.000339674,0,0,0,0,0,0,0,0.0212141,-0.0526616,0.513857,-1.55981,0.0384455,1.55378,1.31767,0.00177106,-0.00283243,0.000611827,0.00318896,-0.0122533,0.00158729,0.00385382,-0.147213,-27.1074,-0.812364,26.6772,1.31439,3.20519,0.0843355,2.1363,1.91081,1.36335,-1.12463,1.36222,0.189438,0.17852,0.660274,0.224427,0.00117616,0.131054,-0.226319,0.0856093,
0.0213563,-0.0530078,0.514027,-1.55955,-0.00865505,-0.047388,0.532182,-0.00449856,0.000206317,-0.00437359,-0.00211448,-0.253133,-0.170091,-0.000337986,0,0,0,0,0,0,0,0.0212141,-0.0526616,0.513857,-1.55981,0.0384455,1.55378,1.31767,0.00177106,-0.00283243,0.000611827,0.00318896,-0.0122533,0.00158729,0.00385382,-0.147213,-27.1074,-0.812364,26.6772,1.31439,3.20519,0.0843355,2.04384,1.82012,1.27659,-1.07032,1.32814,0.174567,0.139284,0.65581,0.231631,-0.0183774,0.139299,-0.225702,0.0844854,
0.0213381,-0.0530069,0.514009,-1.55956,-0.00965127,-0.048059,0.532181,-0.00456115,0.000214188,-0.00443805,-0.00213592,-0.249055,-0.167761,-0.000337271,0,0,0,0,0,0,0,0.0212141,-0.0526616,0.513857,-1.55981,0.0384455,1.55378,1.31767,0.00177106,-0.00283243,0.000611827,0.00318896,-0.0122533,0.00158729,0.00385382,-0.147213,-27.1074,-0.812364,26.6772,1.31439,3.20519,0.0843355,1.96767,1.99604,1.3857,-1.16545,1.23297,0.274743,0.225589,0.586412,0.346957,0.0255572,0.153323,-0.222994,0.0852745,
0.0213196,-0.053006,0.513991,-1.55956,-0.0106301,-0.04872,0.532179,-0.00462661,0.000216104,-0.00450509,-0.00216539,-0.2447,-0.16524,-0.00033773,0,0,0,0,0,0,0,0.0212141,-0.0526616,0.513857,-1.55981,0.0384455,1.55378,1.31767,0.00177106,-0.00283243,0.000611827,0.00318896,-0.0122533,0.00158729,0.00385382,-0.147213,-27.1074,-0.812364,26.6772,1.31439,3.20519,0.0843355,1.96767,1.99604,1.3857,-1.16545,1.23297,0.274743,0.225589,0.586412,0.346957,0.0255572,0.153323,-0.222994,0.0852745,
0.0213008,-0.0530052,0.513973,-1.55957,-0.0115902,-0.0493699,0.532178,-0.00469706,0.000212593,-0.00457679,-0.00220533,-0.240029,-0.162491,-0.000339461,0,0,0,0,0,0,0,0.0212141,-0.0526616,0.513857,-1.55981,0.0384455,1.55378,1.31767,0.00177106,-0.00283243,0.000611827,0.00318896,-0.0122533,0.00158729,0.00385382,-0.147213,-27.1074,-0.812364,26.6772,1.31439,3.20519,0.0843355,1.79294,2.07475,1.56446,-1.29048,1.05816,0.355499,0.289041,0.471401,0.449279,0.0300232,0.0750865,-0.299823,0.0858763,
0.0212817,-0.0530044,0.513954,-1.55958,-0.0125301,-0.0500078,0.532177,-0.00477506,0.000204218,-0.00465564,-0.00225862,-0.23499,-0.159473,-0.000342334,0,0,0,0,0,0,0,0.0212141,-0.0526616,0.513857,-1.55981,0.0384455,1.55378,1.31767,0.00177106,-0.00283243,0.000611827,0.00318896,-0.0122533,0.00158729,0.00385382,-0.147213,-27.1074,-0.812364,26.6772,1.31439,3.20519,0.0843355,1.79294,2.07475,1.56446,-1.29048,1.05816,0.355499,0.289041,0.471401,0.449279,0.0300232,0.0750865,-0.299823,0.0858763,
0.0212622,-0.0530036,0.513935,-1.55959,-0.0134482,-0.0506324,0.532175,-0.00486379,0.000191605,-0.0047447,-0.00232866,-0.229524,-0.156133,-0.000346591,0,0,0,0,0,0,0,0.0213041,-0.0526543,0.513927,-1.5598,0.0343663,1.55339,1.31767,-0.00149796,0.000132373,-0.000449819,-0.00387243,-0.153411,-0.0204919,1.102e-06,-0.476498,-27.4089,-1.38762,26.828,0.0436365,2.77489,0.0779268,1.46258,2.2822,1.70011,-1.49028,0.75321,0.539253,0.45735,0.278831,0.654523,0.0689501,0.0112809,-0.335321,0.0859645,
0.0212424,-0.0530029,0.513916,-1.5596,-0.0143425,-0.051242,0.532174,-0.00496718,0.000175432,-0.00484782,-0.00241955,-0.223553,-0.152408,-0.000351993,0,0,0,0,0,0,0,0.0213041,-0.0526543,0.513927,-1.5598,0.0343663,1.55339,1.31767,-0.00149796,0.000132373,-0.000449819,-0.00387243,-0.153411,-0.0204919,1.102e-06,-0.476498,-27.4089,-1.38762,26.828,0.0436365,2.77489,0.0779268,1.46258,2.2822,1.70011,-1.49028,0.75321,0.539253,0.45735,0.278831,0.654523,0.0689501,0.0112809,-0.335321,0.0859645,
0.021222,-0.0530023,0.513896,-1.55961,-0.0152104,-0.0518349,0.532172,-0.00509027,0.000156481,-0.0049699,-0.00253609,-0.216984,-0.148225,-0.000358565,0,0,0,0,0,0,0,0.0213041,-0.0526543,0.513927,-1.5598,0.0343663,1.55339,1.31767,-0.00149796,0.000132373,-0.000449819,-0.00387243,-0.153411,-0.0204919,1.102e-06,-0.476498,-27.4089,-1.38762,26.828,0.0436365,2.77489,0.0779268,1.67441,2.21882,2.09641,-1.41852,0.728669,0.447493,0.36933,0.182704,0.556731,0.195485,-0.0678379,-0.341195,0.0855952,
0.0212011,-0.0530017,0.513876,-1.55962,-0.0160492,-0.0524089,0.532171,-0.00523949,0.000135634,-0.00511722,-0.00268406,-0.2097,-0.143493,-0.000365991,0,0,0,0,0,0,0,0.0213041,-0.0526543,0.513927,-1.5598,0.0343663,1.55339,1.31767,-0.00149796,0.000132373,-0.000449819,-0.00387243,-0.153411,-0.0204919,1.102e-06,-0.476498,-27.4089,-1.38762,26.828,0.0436365,2.77489,0.0779268,2.14121,2.05705,2.24839,-1.33986,1.03006,0.240397,0.165706,0.328231,0.345149,0.169529,-0.135521,-0.386733,0.0844773,
0.0211794,-0.0530013,0.513854,-1.55963,-0.0168554,-0.0529613,0.532169,-0.00542325,0.000113886,-0.00529794,-0.00287026,-0.201552,-0.138105,-0.000373823,0,0,0,0,0,0,0,0.0213041,-0.0526543,0.513927,-1.5598,0.0343663,1.55339,1.31767,-0.00149796,0.000132373,-0.000449819,-0.00387243,-0.153411,-0.0204919,1.102e-06,-0.476498,-27.4089,-1.38762,26.828,0.0436365,2.77489,0.0779268,2.14121,2.05705,2.24839,-1.33986,1.03006,0.240397,0.165706,0.328231,0.345149,0.169529,-0.135521,-0.386733,0.0844773,
0.0211567,-0.0530009,0.513832,-1.55965,-0.0176248,-0.053489,0.532168,-0.00565252,9.23112e-05,-0.0055228,-0.00310282,-0.192353,-0.131933,-0.000381109,0,0,0,0,0,0,0,0.0213477,-0.0526596,0.513931,-1.5598,0.0288096,1.55243,1.31767,0.000403128,0.000322868,-0.000495358,0.00150397,-0.167257,-0.0253584,0.00112142,-0.500302,-27.3335,-1.31224,26.705,0.288082,2.71447,0.050461,2.64868,1.78295,2.12458,-1.30477,1.49304,-0.0314344,-0.105953,0.623397,0.0760352,-0.0148148,-0.244501,-0.487319,0.083851,
0.021133,-0.0530006,0.513809,-1.55966,-0.0183522,-0.0539883,0.532166,-0.00594185,7.20101e-05,-0.005806,-0.00339143,-0.181861,-0.124826,-0.00038643,0,0,0,0,0,0,0,0.0213477,-0.0526596,0.513931,-1.5598,0.0288096,1.55243,1.31767,0.000403128,0.000322868,-0.000495358,0.00150397,-0.167257,-0.0253584,0.00112142,-0.500302,-27.3335,-1.31224,26.705,0.288082,2.71447,0.050461,2.64868,1.78295,2.12458,-1.30477,1.49304,-0.0314344,-0.105953,0.623397,0.0760352,-0.0148148,-0.244501,-0.487319,0.083851,
0.0211077,-0.0530004,0.513784,-1.55967,-0.0190313,-0.0544547,0.532165,-0.00631068,5.38675e-05,-0.00616655,-0.00374795,-0.169764,-0.116604,-0.000387339,0,0,0,0,0,0,0,0.0213477,-0.0526596,0.513931,-1.5598,0.0288096,1.55243,1.31767,0.000403128,0.000322868,-0.000495358,0.00150397,-0.167257,-0.0253584,0.00112142,-0.500302,-27.3335,-1.31224,26.705,0.288082,2.71447,0.050461,2.59154,1.52732,2.3722,-1.12427,1.36539,-0.132264,-0.206741,0.512693,-0.0296677,0.0508421,-0.302152,-0.53201,0.0815016,
0.0210806,-0.0530003,0.513758,-1.55969,-0.0196539,-0.0548829,0.532163,-0.00678544,3.77165e-05,-0.00663027,-0.00418815,-0.155653,-0.107051,-0.000378894,0,0,0,0,0,0,0,0.0213477,-0.0526596,0.513931,-1.5598,0.0288096,1.55243,1.31767,0.000403128,0.000322868,-0.000495358,0.00150397,-0.167257,-0.0253584,0.00112142,-0.500302,-27.3335,-1.31224,26.705,0.288082,2.71447,0.050461,2.36389,1.64186,2.37606,-1.20516,1.22559,-0.0131637,-0.0729269,0.450063,0.0776303,0.0425792,-0.280341,-0.558717,0.0792064,
0.021051,-0.0530002,0.513729,-1.55971,-0.0202098,-0.0552665,0.532162,-0.00740316,1.97969e-05,-0.00723337,-0.00473696,-0.138983,-0.0958996,-0.000350246,0,0,0,0,0,0,0,0.0213477,-0.0526596,0.513931,-1.5598,0.0288096,1.55243,1.31767,0.000403128,0.000322868,-0.000495358,0.00150397,-0.167257,-0.0253584,0.00112142,-0.500302,-27.3335,-1.31224,26.705,0.288082,2.71447,0.050461,2.36389,1.64186,2.37606,-1.20516,1.22559,-0.0131637,-0.0729269,0.450063,0.0776303,0.0425792,-0.280341,-0.558717,0.0792064,
0.0210181,-0.0530002,0.513697,-1.55973,-0.0206858,-0.0555976,0.532161,-0.00821902,-1.57842e-05,-0.00802968,-0.00544615,-0.118997,-0.0827788,-0.000277138,0,0,0,0,0,0,0,0.0213477,-0.0526596,0.513931,-1.5598,0.0288096,1.55243,1.31767,0.000403128,0.000322868,-0.000495358,0.00150397,-0.167257,-0.0253584,0.00112142,-0.500302,-27.3335,-1.31224,26.705,0.288082,2.71447,0.050461,2.69636,1.5977,2.26096,-1.25705,1.54408,-0.127813,-0.162467,0.659971,-0.0577017,-0.0806238,-0.320821,-0.608529,0.0786239,
0.0209808,-0.0530007,0.51366,-1.55976,-0.0210641,-0.0558659,0.53216,-0.00932519,-0.000125625,-0.00910968,-0.0064543,-0.0945669,-0.0670567,-0.000147311,0,0,0,0,0,0,0,0.0212791,-0.0526583,0.513893,-1.5598,0.0242664,1.55208,1.31766,-0.00316036,0.000340542,-0.00297542,0.0007283,-0.149426,-0.00717163,-0.000813914,0.134464,-27.3573,-0.859972,26.6772,0.795284,2.78771,0.0980684,2.69636,1.5977,2.26096,-1.25705,1.54408,-0.127813,-0.162467,0.659971,-0.0577017,-0.0806238,-0.320821,-0.608529,0.0786239,
0.0209426,-0.0529984,0.513623,-1.55978,-0.0213697,-0.0560875,0.53216,-0.00954565,0.000573525,-0.00941881,-0.00582044,-0.0763916,-0.0553956,-5.26307e-05,0,0,0,0,0,0,0,0.0212791,-0.0526583,0.513893,-1.5598,0.0242664,1.55208,1.31766,-0.00316036,0.000340542,-0.00297542,0.0007283,-0.149426,-0.00717163,-0.000813914,0.134464,-27.3573,-0.859972,26.6772,0.795284,2.78771,0.0980684,2.55872,1.60844,2.44309,-1.18767,1.38934,-0.0838971,-0.0993193,0.55001,-0.0358184,0.00278257,-0.282705,-0.606827,0.0796282,
0.0209051,-0.0529932,0.513585,-1.5598,-0.0216191,-0.0562715,0.53216,-0.00936991,0.00131842,-0.00930718,-0.00489455,-0.0623623,-0.0460219,-1.3908e-05,0,0,0,0,0,0,0,0.0212791,-0.0526583,0.513893,-1.5598,0.0242664,1.55208,1.31766,-0.00316036,0.000340542,-0.00297542,0.0007283,-0.149426,-0.00717163,-0.000813914,0.134464,-27.3573,-0.859972,26.6772,0.795284,2.78771,0.0980684,2.52462,1.83231,2.41082,-1.31052,1.38633,0.02757,0.0256067,0.559757,0.0651949,0.00276538,-0.230566,-0.588251,0.081001,
0.0208692,-0.0529855,0.51355,-1.55982,-0.0218243,-0.0564246,0.53216,-0.00898441,0.00192094,-0.00896472,-0.00402721,-0.0513062,-0.0382565,-4.37594e-07,0,0,0,0,0,0,0,0.0212791,-0.0526583,0.513893,-1.5598,0.0242664,1.55208,1.31766,-0.00316036,0.000340542,-0.00297542,0.0007283,-0.149426,-0.00717163,-0.000813914,0.134464,-27.3573,-0.859972,26.6772,0.795284,2.78771,0.0980684,2.52462,1.83231,2.41082,-1.31052,1.38633,0.02757,0.0256067,0.559757,0.0651949,0.00276538,-0.230566,-0.588251,0.081001,
0.0208353,-0.0529761,0.513516,-1.55983,-0.0219942,-0.0565516,0.53216,-0.00848603,0.00235686,-0.00849438,-0.00328646,-0.0424686,-0.0317604,1.56096e-06,0,0,0,0,0,0,0,0.0212791,-0.0526583,0.513893,-1.5598,0.0242664,1.55208,1.31766,-0.00316036,0.000340542,-0.00297542,0.0007283,-0.149426,-0.00717163,-0.000813914,0.134464,-27.3573,-0.859972,26.6772,0.795284,2.78771,0.0980684,2.42609,1.8645,2.36139,-1.31301,1.34244,0.0709341,0.081863,0.548826,0.0957431,-0.000977527,-0.195977,-0.581378,0.0811226,
0.0208035,-0.0529655,0.513484,-1.55984,-0.0221355,-0.0566569,0.53216,-0.00793202,0.00264516,-0.00795809,-0.00266645,-0.0353224,-0.0263122,-2.11243e-06,0,0,0,0,0,0,0,0.0211372,-0.0526611,0.513844,-1.55981,0.0199299,1.55195,1.31766,-0.0041919,-0.000957877,-0.00317023,-0.000813325,-0.136077,-0.00556931,-0.00150844,0.360599,-27.3573,-0.713182,26.8042,0.9967,2.9937,0.11821,2.42609,1.8645,2.36139,-1.31301,1.34244,0.0709341,0.081863,0.548826,0.0957431,-0.000977527,-0.195977,-0.581378,0.0811226,
0.0207741,-0.0529542,0.513454,-1.55985,-0.0222534,-0.0567438,0.53216,-0.00735833,0.00281303,-0.00739518,-0.00214643,-0.0294836,-0.0217413,-8.69572e-06,0,0,0,0,0,0,0,0.0211372,-0.0526611,0.513844,-1.55981,0.0199299,1.55195,1.31766,-0.0041919,-0.000957877,-0.00317023,-0.000813325,-0.136077,-0.00556931,-0.00150844,0.360599,-27.3573,-0.713182,26.8042,0.9967,2.9937,0.11821,2.18197,2.06946,2.5699,-1.31379,1.09139,0.2362,0.259308,0.377895,0.245944,0.135232,-0.0985025,-0.538616,0.0813697,
0.020747,-0.0529427,0.513427,-1.55986,-0.0223521,-0.0568155,0.53216,-0.00678799,0.00288615,-0.00683102,-0.00170631,-0.0246667,-0.0179069,-1.66923e-05,0,0,0,0,0,0,0,0.0211372,-0.0526611,0.513844,-1.55981,0.0199299,1.55195,1.31766,-0.0041919,-0.000957877,-0.00317023,-0.000813325,-0.136077,-0.00556931,-0.00150844,0.360599,-27.3573,-0.713182,26.8042,0.9967,2.9937,0.11821,2.18197,2.06946,2.5699,-1.31379,1.09139,0.2362,0.259308,0.377895,0.245944,0.135232,-0.0985025,-0.538616,0.0813697,
0.0197802,-0.0513596,0.512248,-1.55995,-0.144406,-0.196487,0.530699,-0.0313396,0.0214712,-0.0323696,-0.0207943,-1.21119,-1.06354,-0.00734458,0,0,0,0,0,0,0,0.0211372,-0.0526611,0.513844,-1.55981,0.0199299,1.55195,1.31766,-0.0041919,-0.000957877,-0.00317023,-0.000813325,-0.136077,-0.00556931,-0.00150844,0.360599,-27.3573,-0.713182,26.8042,0.9967,2.9937,0.11821,2.56182,2.15154,2.58122,-1.31696,1.37368,0.168501,0.204484,0.53349,0.164644,0.129008,-0.0518561,-0.509375,0.0811255,
0.0193024,-0.0516453,0.511905,-1.55988,-0.113745,-0.151458,0.531443,-0.0264567,0.0143127,-0.0271317,-0.0118972,-0.654056,-0.790426,-0.00293547,0,0,0,0,0,0,0,0.0211372,-0.0526611,0.513844,-1.55981,0.0199299,1.55195,1.31766,-0.0041919,-0.000957877,-0.00317023,-0.000813325,-0.136077,-0.00556931,-0.00150844,0.360599,-27.3573,-0.713182,26.8042,0.9967,2.9937,0.11821,2.84577,1.95751,2.51069,-1.14373,1.61378,0.00328029,0.0481938,0.677002,-0.0146247,0.106651,-0.0173968,-0.486385,0.0795488,
0.0191968,-0.0515891,0.511797,-1.55993,-0.116318,-0.154601,0.531431,-0.0263836,0.0140366,-0.0270689,-0.0117114,-0.643145,-0.785761,-0.00286103,0,0,0,0,0,0,0,0.0211372,-0.0526611,0.513844,-1.55981,0.0199299,1.55195,1.31766,-0.0041919,-0.000957877,-0.00317023,-0.000813325,-0.136077,-0.00556931,-0.00150844,0.360599,-27.3573,-0.713182,26.8042,0.9967,2.9937,0.11821,2.84577,1.95751,2.51069,-1.14373,1.61378,0.00328029,0.0481938,0.677002,-0.0146247,0.106651,-0.0173968,-0.486385,0.0795488,
0.0190915,-0.0515342,0.511689,-1.55998,-0.118845,-0.157724,0.53142,-0.0263198,0.0137256,-0.0270149,-0.0115425,-0.631733,-0.780642,-0.00279053,0,0,0,0,0,0,0,0.0209363,-0.0526544,0.513755,-1.55985,0.0161175,1.55191,1.31767,-0.00347924,-0.00073254,-0.000333073,0.000194961,-0.0931523,-0.00706585,0.000666052,0.233646,-27.4089,-0.76079,27.0026,0.905148,3.02025,0.0577852,2.98944,3.13242,3.14018,-1.7275,1.46906,0.496481,0.550906,0.48958,0.479832,0.372485,0.113107,-0.392904,0.0833411,
0.0189865,-0.0514807,0.511581,-1.56002,-0.121323,-0.160824,0.531409,-0.0262693,0.0133794,-0.0269739,-0.011396,-0.619726,-0.774952,-0.00272317,0,0,0,0,0,0,0,0.0209363,-0.0526544,0.513755,-1.55985,0.0161175,1.55191,1.31767,-0.00347924,-0.00073254,-0.000333073,0.000194961,-0.0931523,-0.00706585,0.000666052,0.233646,-27.4089,-0.76079,27.0026,0.905148,3.02025,0.0577852,2.98944,3.13242,3.14018,-1.7275,1.46906,0.496481,0.550906,0.48958,0.479832,0.372485,0.113107,-0.392904,0.0833411,
0.0188815,-0.0514287,0.511473,-1.56007,-0.123752,-0.163898,0.531399,-0.0262365,0.0129969,-0.0269502,-0.0112781,-0.607012,-0.768549,-0.00266067,0,0,0,0,0,0,0,0.0209363,-0.0526544,0.513755,-1.55985,0.0161175,1.55191,1.31767,-0.00347924,-0.00073254,-0.000333073,0.000194961,-0.0931523,-0.00706585,0.000666052,0.233646,-27.4089,-0.76079,27.0026,0.905148,3.02025,0.0577852,4.27194,4.554,3.49549,-2.68955,2.24815,0.768699,0.804754,0.851844,0.794488,0.386341,0.112663,-0.327427,0.0907885,
0.0187766,-0.0513784,0.511365,-1.56011,-0.126125,-0.166943,0.531388,-0.0262268,0.0125769,-0.026949,-0.0111965,-0.593466,-0.761264,-0.00260267,0,0,0,0,0,0,0,0.0209363,-0.0526544,0.513755,-1.55985,0.0161175,1.55191,1.31767,-0.00347924,-0.00073254,-0.000333073,0.000194961,-0.0931523,-0.00706585,0.000666052,0.233646,-27.4089,-0.76079,27.0026,0.905148,3.02025,0.0577852,4.27194,4.554,3.49549,-2.68955,2.24815,0.768699,0.804754,0.851844,0.794488,0.386341,0.112663,-0.327427,0.0907885,
0.0186716,-0.05133,0.511257,-1.56016,-0.128441,-0.169955,0.531378,-0.0262462,0.0121176,-0.0269763,-0.0111603,-0.578941,-0.752894,-0.00255035,0,0,0,0,0,0,0,0.0209363,-0.0526544,0.513755,-1.55985,0.0161175,1.55191,1.31767,-0.00347924,-0.00073254,-0.000333073,0.000194961,-0.0931523,-0.00706585,0.000666052,0.233646,-27.4089,-0.76079,27.0026,0.905148,3.02025,0.0577852,3.04687,4.70957,3.49722,-2.9133,1.33993,1.17348,1.15245,0.35386,1.26273,0.426462,0.0381668,-0.395652,0.0901486,
0.0185664,-0.0512835,0.511149,-1.5602,-0.130694,-0.172927,0.531368,-0.0263016,0.0116172,-0.0270389,-0.0111805,-0.563271,-0.743196,-0.00250449,0,0,0,0,0,0,0,0.0211349,-0.0526817,0.513858,-1.55896,0.000279904,1.54118,1.31766,0.00739628,6.42106e-06,-0.000178292,0.0337649,-0.626068,-0.506511,-0.000242394,-1.36517,-27.0082,-2.16124,25.3839,-1.01288,1.54168,0.0706026,3.04687,4.70957,3.49722,-2.9133,1.33993,1.17348,1.15245,0.35386,1.26273,0.426462,0.0381668,-0.395652,0.0901486,
0.0184608,-0.0512392,0.511041,-1.56025,-0.132879,-0.175855,0.531358,-0.026401,0.0110737,-0.0271448,-0.01127,-0.546263,-0.731878,-0.00246607,0,0,0,0,0,0,0,0.0211349,-0.0526817,0.513858,-1.55896,0.000279904,1.54118,1.31766,0.00739628,6.42106e-06,-0.000178292,0.0337649,-0.626068,-0.506511,-0.000242394,-1.36517,-27.0082,-2.16124,25.3839,-1.01288,1.54168,0.0706026,3.34402,3.81604,3.82294,-2.53382,1.42679,0.666055,0.613562,0.339249,0.781724,0.381361,-0.29411,-0.574901,0.0870131,
0.0183546,-0.0511973,0.510931,-1.56029,-0.13499,-0.178729,0.531348,-0.0265535,0.0104849,-0.027303,-0.0114446,-0.5277,-0.718591,-0.00243661,0,0,0,0,0,0,0,0.0211349,-0.0526817,0.513858,-1.55896,0.000279904,1.54118,1.31766,0.00739628,6.42106e-06,-0.000178292,0.0337649,-0.626068,-0.506511,-0.000242394,-1.36517,-27.0082,-2.16124,25.3839,-1.01288,1.54168,0.0706026,3.88946,2.05209,4.24797,-1.52779,1.70433,-0.308405,-0.383471,0.425219,-0.192036,0.32436,-0.659294,-0.821707,0.0842754,
0.0182475,-0.0511579,0.510821,-1.56034,-0.137019,-0.181541,0.531339,-0.0267695,0.00984899,-0.0275235,-0.0117231,-0.507333,-0.702916,-0.00241793,0,0,0,0,0,0,0,0.0211349,-0.0526817,0.513858,-1.55896,0.000279904,1.54118,1.31766,0.00739628,6.42106e-06,-0.000178292,0.0337649,-0.626068,-0.506511,-0.000242394,-1.36517,-27.0082,-2.16124,25.3839,-1.01288,1.54168,0.0706026,3.88946,2.05209,4.24797,-1.52779,1.70433,-0.308405,-0.383471,0.425219,-0.192036,0.32436,-0.659294,-0.821707,0.0842754,
0.0181393,-0.0511212,0.51071,-1.56039,-0.138959,-0.184278,0.531329,-0.0270601,0.00916444,-0.0278175,-0.0121276,-0.484886,-0.684357,-0.00241159,0,0,0,0,0,0,0,0.0211349,-0.0526817,0.513858,-1.55896,0.000279904,1.54118,1.31766,0.00739628,6.42106e-06,-0.000178292,0.0337649,-0.626068,-0.506511,-0.000242394,-1.36517,-27.0082,-2.16124,25.3839,-1.01288,1.54168,0.0706026,3.75575,1.57107,4.47632,-1.27485,1.67215,-0.504574,-0.599236,0.435128,-0.373901,0.225912,-0.723609,-1.04185,0.0834754,
0.0180295,-0.0510875,0.510597,-1.56044,-0.140799,-0.186928,0.531319,-0.0274373,0.0084306,-0.028197,-0.0126845,-0.460055,-0.662323,-0.00242045,0,0,0,0,0,0,0,0.0211349,-0.0526817,0.513858,-1.55896,0.000279904,1.54118,1.31766,0.00739628,6.42106e-06,-0.000178292,0.0337649,-0.626068,-0.506511,-0.000242394,-1.36517,-27.0082,-2.16124,25.3839,-1.01288,1.54168,0.0706026,3.75575,1.57107,4.47632,-1.27485,1.67215,-0.504574,-0.599236,0.435128,-0.373901,0.225912,-0.723609,-1.04185,0.0834754,
0.0179179,-0.0510569,0.510483,-1.56049,-0.142529,-0.189472,0.531309,-0.0279134,0.00764813,-0.0286739,-0.0134248,-0.432511,-0.636115,-0.00244839,0,0,0,0,0,0,0,0.0215329,-0.0527836,0.513998,-1.55845,-0.019422,1.52245,1.31766,0.011931,2.80783e-05,0.00015116,0.00474081,-0.5814,-0.559226,0.000520532,-1.26202,-26.8852,-1.9113,25.7806,-0.44434,0.87792,0.050461,3.21511,1.05834,4.50348,-1.05371,1.49734,-0.603902,-0.710706,0.438781,-0.464368,0.0110125,-0.748928,-1.3427,0.0816164,
0.0178039,-0.0510296,0.510366,-1.56055,-0.144137,-0.191892,0.531299,-0.0284996,0.0068198,-0.0292594,-0.0143844,-0.401913,-0.604912,-0.0024995,0,0,0,0,0,0,0,0.0215329,-0.0527836,0.513998,-1.55845,-0.019422,1.52245,1.31766,0.011931,2.80783e-05,0.00015116,0.00474081,-0.5814,-0.559226,0.000520532,-1.26202,-26.8852,-1.9113,25.7806,-0.44434,0.87792,0.050461,3.21511,1.05834,4.50348,-1.05371,1.49734,-0.603902,-0.710706,0.438781,-0.464368,0.0110125,-0.748928,-1.3427,0.0816164,
0.0176871,-0.0510058,0.510246,-1.56061,-0.145609,-0.194163,0.531289,-0.0292049,0.00595137,-0.0299623,-0.0156056,-0.36792,-0.567747,-0.00258057,0,0,0,0,0,0,0,0.0215329,-0.0527836,0.513998,-1.55845,-0.019422,1.52245,1.31766,0.011931,2.80783e-05,0.00015116,0.00474081,-0.5814,-0.559226,0.000520532,-1.26202,-26.8852,-1.9113,25.7806,-0.44434,0.87792,0.050461,2.57362,0.818661,4.29112,-1.12012,1.27984,-0.545484,-0.648455,0.438101,-0.402387,-0.259657,-0.82305,-1.60521,0.0756346,
0.0175669,-0.0509856,0.510123,-1.56068,-0.146929,-0.196257,0.531278,-0.0300333,0.00505333,-0.0307866,-0.0171367,-0.330219,-0.523494,-0.00270124,0,0,0,0,0,0,0,0.0215329,-0.0527836,0.513998,-1.55845,-0.019422,1.52245,1.31766,0.011931,2.80783e-05,0.00015116,0.00474081,-0.5814,-0.559226,0.000520532,-1.26202,-26.8852,-1.9113,25.7806,-0.44434,0.87792,0.050461,2.88901,1.05915,3.77325,-1.45152,1.82399,-0.528902,-0.614807,0.883139,-0.389538,-0.603955,-0.7911,-1.71293,0.0701467,
0.017443,-0.050969,0.509996,-1.56076,-0.148084,-0.19814,0.531267,-0.0309802,0.00414407,-0.0317278,-0.0190307,-0.288561,-0.470841,-0.00286928,0,0,0,0,0,0,0,0.0215329,-0.0527836,0.513998,-1.55845,-0.019422,1.52245,1.31766,0.011931,2.80783e-05,0.00015116,0.00474081,-0.5814,-0.559226,0.000520532,-1.26202,-26.8852,-1.9113,25.7806,-0.44434,0.87792,0.050461,2.88901,1.05915,3.77325,-1.45152,1.82399,-0.528902,-0.614807,0.883139,-0.389538,-0.603955,-0.7911,-1.71293,0.0701467,
0.0173149,-0.050956,0.509865,-1.56084,-0.149055,-0.199773,0.531255,-0.0320255,0.00325844,-0.0327659,-0.0213351,-0.242821,-0.408289,-0.00298843,0,0,0,0,0,0,0,0.0215764,-0.0530225,0.513939,-1.55838,-0.0422041,1.50029,1.31766,-0.000168965,-0.00863959,-0.0042042,-0.00109281,-0.548892,-0.506898,-0.000991867,-0.325741,-26.6353,-1.31224,25.8084,0.410763,1.6671,0.0843355,2.83657,1.19158,3.53501,-1.52517,2.00409,-0.462134,-0.51613,1.08214,-0.352055,-0.763911,-0.655384,-1.78228,0.0672709,
0.0171825,-0.0509461,0.509729,-1.56094,-0.149827,-0.20111,0.531249,-0.0331091,0.00247622,-0.0338549,-0.0240493,-0.193116,-0.334216,-0.00136369,0,0,0,0,0,0,0,0.0215764,-0.0530225,0.513939,-1.55838,-0.0422041,1.50029,1.31766,-0.000168965,-0.00863959,-0.0042042,-0.00109281,-0.548892,-0.506898,-0.000991867,-0.325741,-26.6353,-1.31224,25.8084,0.410763,1.6671,0.0843355,2.83657,1.19158,3.53501,-1.52517,2.00409,-0.462134,-0.51613,1.08214,-0.352055,-0.763911,-0.655384,-1.78228,0.0672709,
0.0170531,-0.0509294,0.509596,-1.56103,-0.15045,-0.202219,0.531245,-0.0323392,0.00416259,-0.0331879,-0.0216766,-0.155642,-0.277213,-0.00121926,0,0,0,0,0,0,0,0.0215764,-0.0530225,0.513939,-1.55838,-0.0422041,1.50029,1.31766,-0.000168965,-0.00863959,-0.0042042,-0.00109281,-0.548892,-0.506898,-0.000991867,-0.325741,-26.6353,-1.31224,25.8084,0.410763,1.6671,0.0843355,2.32095,0.765283,3.72545,-1.07047,1.54311,-0.514947,-0.540791,0.786822,-0.447734,-0.580838,-0.58262,-1.74116,0.0657953,
0.0169298,-0.0509053,0.509469,-1.5611,-0.150955,-0.203143,0.53124,-0.0308253,0.00603731,-0.0317468,-0.018298,-0.126139,-0.231026,-0.00126524,0,0,0,0,0,0,0,0.0215764,-0.0530225,0.513939,-1.55838,-0.0422041,1.50029,1.31766,-0.000168965,-0.00863959,-0.0042042,-0.00109281,-0.548892,-0.506898,-0.000991867,-0.325741,-26.6353,-1.31224,25.8084,0.410763,1.6671,0.0843355,1.71535,0.594228,3.6453,-0.879478,1.11147,-0.423877,-0.433844,0.554393,-0.378718,-0.501433,-0.515507,-1.69706,0.0639456,
0.0168139,-0.0508752,0.50935,-1.56116,-0.151364,-0.203914,0.531234,-0.0289904,0.00752272,-0.0299581,-0.0150441,-0.10236,-0.192826,-0.00134516,0,0,0,0,0,0,0,0.0215764,-0.0530225,0.513939,-1.55838,-0.0422041,1.50029,1.31766,-0.000168965,-0.00863959,-0.0042042,-0.00109281,-0.548892,-0.506898,-0.000991867,-0.325741,-26.6353,-1.31224,25.8084,0.410763,1.6671,0.0843355,1.71535,0.594228,3.6453,-0.879478,1.11147,-0.423877,-0.433844,0.554393,-0.378718,-0.501433,-0.515507,-1.69706,0.0639456,
0.0167057,-0.050841,0.509238,-1.56121,-0.151696,-0.204558,0.531228,-0.0270323,0.00853917,-0.0280272,-0.012173,-0.0829045,-0.160979,-0.00142825,0,0,0,0,0,0,0,0.0213047,-0.0529978,0.513759,-1.55856,-0.0568105,1.48536,1.31765,-0.0187671,0.00179628,-0.0107568,-0.00706901,-0.384934,-0.384054,-0.00185199,-0.0440639,-27.4327,-1.18529,26.4035,0.624081,1.93902,0.110886,0.916679,0.759976,3.41696,-0.931744,0.683071,-0.12908,-0.119236,0.39234,-0.103272,-0.530435,-0.359033,-1.70685,0.0605785,
-0.00613404,-0.0405537,0.485067,-1.57339,-0.156874,-0.21528,0.519443,-0.20375,0.110017,-0.213216,-0.0999506,-1.24338,-1.3227,-0.0591958,0,0,0,0,0,0,0,0.0213047,-0.0529978,0.513759,-1.55856,-0.0568105,1.48536,1.31765,-0.0187671,0.00179628,-0.0107568,-0.00706901,-0.384934,-0.384054,-0.00185199,-0.0440639,-27.4327,-1.18529,26.4035,0.624081,1.93902,0.110886,0.916679,0.759976,3.41696,-0.931744,0.683071,-0.12908,-0.119236,0.39234,-0.103272,-0.530435,-0.359033,-1.70685,0.0605785,
-0.000833364,-0.0448915,0.490566,-1.5692,-0.233685,-0.21143,0.525471,-0.164562,0.0611552,-0.171155,-0.069651,-1.04848,-0.0339411,-0.0229629,0,0,0,0,0,0,0,0.0213047,-0.0529978,0.513759,-1.55856,-0.0568105,1.48536,1.31765,-0.0187671,0.00179628,-0.0107568,-0.00706901,-0.384934,-0.384054,-0.00185199,-0.0440639,-27.4327,-1.18529,26.4035,0.624081,1.93902,0.110886,0.474526,0.807686,3.40834,-0.810146,0.344209,0.0144486,0.046335,0.198145,0.0120249,-0.405388,-0.225763,-1.61847,0.0615396,
-0.00149909,-0.0446533,0.489874,-1.56947,-0.237667,-0.211382,0.525382,-0.166432,0.0595336,-0.173057,-0.0684191,-0.995458,0.0120429,-0.0221187,0,0,0,0,0,0,0,0.0213047,-0.0529978,0.513759,-1.55856,-0.0568105,1.48536,1.31765,-0.0187671,0.00179628,-0.0107568,-0.00706901,-0.384934,-0.384054,-0.00185199,-0.0440639,-27.4327,-1.18529,26.4035,0.624081,1.93902,0.110886,0.474526,0.807686,3.40834,-0.810146,0.344209,0.0144486,0.046335,0.198145,0.0120249,-0.405388,-0.225763,-1.61847,0.0615396,
-0.00217204,-0.0444218,0.489174,-1.56974,-0.241414,-0.211145,0.525297,-0.168237,0.0578907,-0.174897,-0.0671759,-0.9369,0.0592356,-0.0212952,0,0,0,0,0,0,0,0.0213047,-0.0529978,0.513759,-1.55856,-0.0568105,1.48536,1.31765,-0.0187671,0.00179628,-0.0107568,-0.00706901,-0.384934,-0.384054,-0.00185199,-0.0440639,-27.4327,-1.18529,26.4035,0.624081,1.93902,0.110886,0.409373,3.09289,4.14113,-1.76868,-0.246186,1.09588,1.1471,-0.364662,1.08539,0.311242,0.164182,-1.0731,0.0583791,
-0.00285188,-0.0441969,0.488467,-1.57001,-0.244906,-0.210714,0.525215,-0.169959,0.0562073,-0.176655,-0.065954,-0.872941,0.107809,-0.0204993,0,0,0,0,0,0,0,0.0213047,-0.0529978,0.513759,-1.55856,-0.0568105,1.48536,1.31765,-0.0187671,0.00179628,-0.0107568,-0.00706901,-0.384934,-0.384054,-0.00185199,-0.0440639,-27.4327,-1.18529,26.4035,0.624081,1.93902,0.110886,0.409373,3.09289,4.14113,-1.76868,-0.246186,1.09588,1.1471,-0.364662,1.08539,0.311242,0.164182,-1.0731,0.0583791,
-0.00353825,-0.0439791,0.487754,-1.57026,-0.24812,-0.210082,0.525136,-0.171594,0.0544646,-0.178323,-0.0647739,-0.803508,0.157928,-0.0197332,0,0,0,0,0,0,0,0.0204945,-0.0530238,0.512849,-1.55916,-0.0753579,1.46938,1.31738,-0.0230569,-0.00839512,-0.0357757,-0.0379321,-0.935261,-0.584558,-0.0144791,-4.88812,-24.9611,-5.58501,25.7806,-1.66016,2.9406,-0.291031,-0.447054,5.56385,2.80688,-3.33677,-0.414443,2.4718,2.52639,-0.232208,2.4956,0.118392,0.695463,-0.716676,0.0567678,
-0.00423086,-0.0437685,0.487034,-1.57052,-0.251034,-0.209243,0.52506,-0.173153,0.0526437,-0.179909,-0.0636488,-0.728355,0.209751,-0.0190013,0,0,0,0,0,0,0,0.0204945,-0.0530238,0.512849,-1.55916,-0.0753579,1.46938,1.31738,-0.0230569,-0.00839512,-0.0357757,-0.0379321,-0.935261,-0.584558,-0.0144791,-4.88812,-24.9611,-5.58501,25.7806,-1.66016,2.9406,-0.291031,-0.942098,3.43343,2.54402,-1.90727,-0.740033,1.6637,1.71402,-0.4089,1.65484,0.140475,0.558815,-0.744385,0.0267695,
-0.00492947,-0.0435656,0.486309,-1.57077,-0.253622,-0.20819,0.524987,-0.17465,0.0507275,-0.181428,-0.0625849,-0.647086,0.263415,-0.0183071,0,0,0,0,0,0,0,0.0204945,-0.0530238,0.512849,-1.55916,-0.0753579,1.46938,1.31738,-0.0230569,-0.00839512,-0.0357757,-0.0379321,-0.935261,-0.584558,-0.0144791,-4.88812,-24.9611,-5.58501,25.7806,-1.66016,2.9406,-0.291031,-0.942098,3.43343,2.54402,-1.90727,-0.740033,1.6637,1.71402,-0.4089,1.65484,0.140475,0.558815,-0.744385,0.0267695,
-0.00563388,-0.0433708,0.485577,-1.57102,-0.255859,-0.206913,0.524916,-0.176104,0.0487004,-0.182895,-0.0615855,-0.559191,0.319037,-0.0176534,0,0,0,0,0,0,0,0.0204945,-0.0530238,0.512849,-1.55916,-0.0753579,1.46938,1.31738,-0.0230569,-0.00839512,-0.0357757,-0.0379321,-0.935261,-0.584558,-0.0144791,-4.88812,-24.9611,-5.58501,25.7806,-1.66016,2.9406,-0.291031,2.26216,1.16079,2.93759,-0.611004,1.03625,-0.212216,-0.150476,0.288448,-0.25869,0.249283,-0.15357,-0.603919,0.0132988,
-0.00634399,-0.0431846,0.48484,-1.57126,-0.257715,-0.205407,0.524848,-0.177528,0.0465513,-0.184324,-0.0606475,-0.464077,0.376676,-0.017044,0,0,0,0,0,0,0,0.0204945,-0.0530238,0.512849,-1.55916,-0.0753579,1.46938,1.31738,-0.0230569,-0.00839512,-0.0357757,-0.0379321,-0.935261,-0.584558,-0.0144791,-4.88812,-24.9611,-5.58501,25.7806,-1.66016,2.9406,-0.291031,2.26216,1.16079,2.93759,-0.611004,1.03625,-0.212216,-0.150476,0.288448,-0.25869,0.249283,-0.15357,-0.603919,0.0132988,
-0.00705969,-0.0430075,0.484097,-1.5715,-0.25916,-0.203661,0.524782,-0.178925,0.0442749,-0.185718,-0.0597624,-0.36114,0.436303,-0.0164927,0,0,0,0,0,0,0,0.0195853,-0.0532281,0.511912,-1.56107,-0.105223,1.45543,1.31713,-0.0450937,-0.00993351,-0.0565435,-0.0698189,-0.914283,-0.435496,-0.0143199,-2.70611,-25.211,-3.66088,26.5027,-0.0598181,3.8955,0.124619,4.09453,1.72184,2.51839,-1.00042,2.16936,-0.404785,-0.35276,0.815052,-0.431337,0.315923,-0.244574,-0.181827,0.00854535,
-0.0077808,-0.04284,0.483349,-1.57173,-0.260159,-0.201671,0.524718,-0.180276,0.0418772,-0.187055,-0.05891,-0.249874,0.497728,-0.0159977,0,0,0,0,0,0,0,0.0195853,-0.0532281,0.511912,-1.56107,-0.105223,1.45543,1.31713,-0.0450937,-0.00993351,-0.0565435,-0.0698189,-0.914283,-0.435496,-0.0143199,-2.70611,-25.211,-3.66088,26.5027,-0.0598181,3.8955,0.124619,3.45389,2.95965,1.90692,-1.78355,1.79096,0.377222,0.422096,0.656887,0.376545,0.353489,-0.0424761,0.0939366,0.00212909,
-0.00850686,-0.0426824,0.482596,-1.57197,-0.260679,-0.199429,0.524656,-0.181517,0.0393833,-0.188275,-0.0580509,-0.130077,0.560487,-0.0155753,0,0,0,0,0,0,0,0.0195853,-0.0532281,0.511912,-1.56107,-0.105223,1.45543,1.31713,-0.0450937,-0.00993351,-0.0565435,-0.0698189,-0.914283,-0.435496,-0.0143199,-2.70611,-25.211,-3.66088,26.5027,-0.0598181,3.8955,0.124619,3.45389,2.95965,1.90692,-1.78355,1.79096,0.377222,0.422096,0.656887,0.376545,0.353489,-0.0424761,0.0939366,0.00212909,
-0.0092369,-0.042535,0.481839,-1.57219,-0.260688,-0.196934,0.524595,-0.182508,0.0368525,-0.189237,-0.057108,-0.00221449,0.62364,-0.0152416,0,0,0,0,0,0,0,0.0195853,-0.0532281,0.511912,-1.56107,-0.105223,1.45543,1.31713,-0.0450937,-0.00993351,-0.0565435,-0.0698189,-0.914283,-0.435496,-0.0143199,-2.70611,-25.211,-3.66088,26.5027,-0.0598181,3.8955,0.124619,3.60866,1.79899,1.67058,-1.19904,1.78939,-0.145687,-0.1049,0.599279,-0.152672,0.35981,-0.353254,0.147853,-0.0113946,
-0.00996878,-0.0423974,0.48108,-1.57242,-0.26016,-0.194192,0.524535,-0.182972,0.0344014,-0.189669,-0.0559379,0.131957,0.685458,-0.0150249,0,0,0,0,0,0,0,0.0195853,-0.0532281,0.511912,-1.56107,-0.105223,1.45543,1.31713,-0.0450937,-0.00993351,-0.0565435,-0.0698189,-0.914283,-0.435496,-0.0143199,-2.70611,-25.211,-3.66088,26.5027,-0.0598181,3.8955,0.124619,3.60866,1.79899,1.67058,-1.19904,1.78939,-0.145687,-0.1049,0.599279,-0.152672,0.35981,-0.353254,0.147853,-0.0113946,
-0.0106984,-0.0422685,0.480324,-1.57263,-0.259087,-0.19122,0.524475,-0.182405,0.0322423,-0.189073,-0.0542836,0.268386,0.742937,-0.0149822,0,0,0,0,0,0,0,0.0195853,-0.0532281,0.511912,-1.56107,-0.105223,1.45543,1.31713,-0.0450937,-0.00993351,-0.0565435,-0.0698189,-0.914283,-0.435496,-0.0143199,-2.70611,-25.211,-3.66088,26.5027,-0.0598181,3.8955,0.124619,5.42828,0.283743,1.56964,-0.3468,2.85845,-1.27622,-1.23624,1.05561,-1.3002,0.37607,-0.762838,0.290312,-0.0162246,
-0.0114182,-0.0421455,0.479577,-1.57284,-0.25749,-0.188056,0.524414,-0.179953,0.0307371,-0.186605,-0.0517011,0.399316,0.791177,-0.0152269,0,0,0,0,0,0,0,0.0172416,-0.0535384,0.508958,-1.5638,-0.127689,1.44508,1.31704,-0.0872754,-0.0106843,-0.100093,-0.0900402,-0.428862,-0.189213,-0.000290931,-1.69445,-25.4848,-2.78807,27.3755,0.245053,3.86895,0.00376909,5.42828,0.283743,1.56964,-0.3468,2.85845,-1.27622,-1.23624,1.05561,-1.3002,0.37607,-0.762838,0.290312,-0.0162246,
-0.0121153,-0.0420236,0.478854,-1.57303,-0.255443,-0.184765,0.52435,-0.174269,0.0304818,-0.18093,-0.0474276,0.511662,0.822664,-0.0160357,0,0,0,0,0,0,0,0.0172416,-0.0535384,0.508958,-1.5638,-0.127689,1.44508,1.31704,-0.0872754,-0.0106843,-0.100093,-0.0900402,-0.428862,-0.189213,-0.000290931,-1.69445,-25.4848,-2.78807,27.3755,0.245053,3.86895,0.00376909,5.13634,0.780668,0.927191,-0.725805,2.97953,-0.961895,-0.922162,1.27725,-0.974896,0.130637,-0.582878,0.286477,-0.0205263,
-0.0127688,-0.0418935,0.478173,-1.57319,-0.2531,-0.18146,0.524278,-0.163376,0.0325193,-0.170081,-0.0399816,0.585621,0.826252,-0.018,0,0,0,0,0,0,0,0.0172416,-0.0535384,0.508958,-1.5638,-0.127689,1.44508,1.31704,-0.0872754,-0.0106843,-0.100093,-0.0900402,-0.428862,-0.189213,-0.000290931,-1.69445,-25.4848,-2.78807,27.3755,0.245053,3.86895,0.00376909,5.13634,0.780668,0.927191,-0.725805,2.97953,-0.961895,-0.922162,1.27725,-0.974896,0.130637,-0.582878,0.286477,-0.0205263,
-0.0133462,-0.0417369,0.477569,-1.57329,-0.250728,-0.178325,0.524191,-0.144359,0.0391433,-0.151141,-0.0256108,0.59308,0.783643,-0.0216209,0,0,0,0,0,0,0,0.0172416,-0.0535384,0.508958,-1.5638,-0.127689,1.44508,1.31704,-0.0872754,-0.0106843,-0.100093,-0.0900402,-0.428862,-0.189213,-0.000290931,-1.69445,-25.4848,-2.78807,27.3755,0.245053,3.86895,0.00376909,4.14339,-0.213665,0.382145,-0.0509905,2.55588,-1.14333,-1.10412,1.17886,-1.17381,-0.0174487,-0.479899,0.203689,-0.0269186,
-0.0137949,-0.0415091,0.477094,-1.57326,-0.248765,-0.175708,0.524139,-0.112177,0.0569565,-0.118662,0.00750934,0.490842,0.654396,-0.0130074,0,0,0,0,0,0,0,0.0172416,-0.0535384,0.508958,-1.5638,-0.127689,1.44508,1.31704,-0.0872754,-0.0106843,-0.100093,-0.0900402,-0.428862,-0.189213,-0.000290931,-1.69445,-25.4848,-2.78807,27.3755,0.245053,3.86895,0.00376909,2.98869,-0.419728,0.472922,0.224615,1.71254,-0.927592,-0.890799,0.717051,-0.966613,0.12979,-0.359558,0.201604,-0.0268639,
-0.0141614,-0.0412813,0.476704,-1.57322,-0.247051,-0.173411,0.524087,-0.0916198,0.0569413,-0.0973848,0.0118396,0.42846,0.574223,-0.0131518,0,0,0,0,0,0,0,0.013818,-0.0534946,0.504612,-1.56616,-0.133652,1.44405,1.317,-0.118234,0.00743303,-0.155239,-0.0657661,0.00260249,0.0355962,3.3955e-05,-0.655026,-27.4089,-1.66136,27.4509,0.514218,3.39104,-0.0163725,2.98869,-0.419728,0.472922,0.224615,1.71254,-0.927592,-0.890799,0.717051,-0.966613,0.12979,-0.359558,0.201604,-0.0268639,
-0.0144695,-0.041073,0.476375,-1.57318,-0.245495,-0.171346,0.524033,-0.077012,0.0520837,-0.0822413,0.00888774,0.388923,0.516259,-0.0135327,0,0,0,0,0,0,0,0.013818,-0.0534946,0.504612,-1.56616,-0.133652,1.44405,1.317,-0.118234,0.00743303,-0.155239,-0.0657661,0.00260249,0.0355962,3.3955e-05,-0.655026,-27.4089,-1.66136,27.4509,0.514218,3.39104,-0.0163725,2.40728,0.498265,0.37317,-0.282852,1.42738,-0.355434,-0.321288,0.627952,-0.381763,0.113,-0.116131,0.21573,-0.0306702,
-0.0147337,-0.0408876,0.476092,-1.57316,-0.24404,-0.169462,0.523978,-0.0660547,0.0463484,-0.0709016,0.00485187,0.363771,0.470977,-0.0137682,0,0,0,0,0,0,0,0.013818,-0.0534946,0.504612,-1.56616,-0.133652,1.44405,1.317,-0.118234,0.00743303,-0.155239,-0.0657661,0.00260249,0.0355962,3.3955e-05,-0.655026,-27.4089,-1.66136,27.4509,0.514218,3.39104,-0.0163725,2.40728,0.498265,0.37317,-0.282852,1.42738,-0.355434,-0.321288,0.627952,-0.381763,0.113,-0.116131,0.21573,-0.0306702,
-0.014964,-0.040724,0.475843,-1.57316,-0.242648,-0.167724,0.523922,-0.0575772,0.0409049,-0.0621533,0.00132516,0.348123,0.434422,-0.0139171,0,0,0,0,0,0,0,0.013818,-0.0534946,0.504612,-1.56616,-0.133652,1.44405,1.317,-0.118234,0.00743303,-0.155239,-0.0657661,0.00260249,0.0355962,3.3955e-05,-0.655026,-27.4089,-1.66136,27.4509,0.514218,3.39104,-0.0163725,1.30166,1.13152,-0.351723,-0.667191,1.04993,0.222602,0.251608,0.620361,0.209808,-0.110817,0.201619,0.198197,-0.0312466,
-0.0151675,-0.0405798,0.475622,-1.57316,-0.241292,-0.166106,0.523866,-0.0508818,0.0360547,-0.0552664,-0.00143163,0.33887,0.404535,-0.0140182,0,0,0,0,0,0,0,0.013818,-0.0534946,0.504612,-1.56616,-0.133652,1.44405,1.317,-0.118234,0.00743303,-0.155239,-0.0657661,0.00260249,0.0355962,3.3955e-05,-0.655026,-27.4089,-1.66136,27.4509,0.514218,3.39104,-0.0163725,1.30166,1.13152,-0.351723,-0.667191,1.04993,0.222602,0.251608,0.620361,0.209808,-0.110817,0.201619,0.198197,-0.0312466,
-0.0290751,-0.0290546,0.460943,-1.58062,-0.233021,-0.282204,0.513504,-0.340411,0.179309,-0.355553,-0.144151,-1.22819,-1.07609,-0.0756099,0,0,0,0,0,0,0,0.013818,-0.0534946,0.504612,-1.56616,-0.133652,1.44405,1.317,-0.118234,0.00743303,-0.155239,-0.0657661,0.00260249,0.0355962,3.3955e-05,-0.655026,-27.4089,-1.66136,27.4509,0.514218,3.39104,-0.0163725,0.530071,1.28056,-0.384494,-0.629073,0.595123,0.484511,0.514591,0.421304,0.465832,-0.0801398,0.396257,0.177676,-0.0312263,
-0.0208367,-0.0393609,0.468496,-1.5785,-0.24275,-0.176567,0.52292,-0.200364,0.077128,-0.208101,-0.0659194,-0.0603024,-0.191632,-0.0322378,0,0,0,0,0,0,0,0.00962308,-0.052598,0.49956,-1.567,-0.133732,1.44579,1.31697,-0.139414,0.0382907,-0.149108,-0.00128873,-0.011653,0.0693751,0.000839892,1.24927,-28.0556,0.286573,26.7526,0.862118,2.31713,-0.0163725,0.948924,1.54488,-0.355444,-0.824531,1.12291,0.456048,0.494676,0.810377,0.434771,-0.317429,0.499612,-0.0243591,-0.0299488,
-0.0216388,-0.0390588,0.467662,-1.57876,-0.242704,-0.17724,0.522794,-0.200536,0.0755174,-0.20827,-0.0653415,0.0116377,-0.168028,-0.0315196,0,0,0,0,0,0,0,0.00962308,-0.052598,0.49956,-1.567,-0.133732,1.44579,1.31697,-0.139414,0.0382907,-0.149108,-0.00128873,-0.011653,0.0693751,0.000839892,1.24927,-28.0556,0.286573,26.7526,0.862118,2.31713,-0.0163725,0.948924,1.54488,-0.355444,-0.824531,1.12291,0.456048,0.494676,0.810377,0.434771,-0.317429,0.499612,-0.0243591,-0.0299488,
-0.022442,-0.0387637,0.466828,-1.57902,-0.242348,-0.177812,0.522671,-0.200791,0.0737776,-0.208521,-0.0647696,0.0888066,-0.143034,-0.0308208,0,0,0,0,0,0,0,0.00962308,-0.052598,0.49956,-1.567,-0.133732,1.44579,1.31697,-0.139414,0.0382907,-0.149108,-0.00128873,-0.011653,0.0693751,0.000839892,1.24927,-28.0556,0.286573,26.7526,0.862118,2.31713,-0.0163725,-0.223715,3.84511,-0.419532,-2.35067,0.519363,1.79906,1.84128,0.6031,1.81104,-0.440012,0.825252,-0.113751,-0.030381,
-0.0232466,-0.0384761,0.465993,-1.57928,-0.241661,-0.178278,0.52255,-0.201146,0.0718969,-0.208869,-0.0642141,0.171859,-0.116514,-0.030141,0,0,0,0,0,0,0,0.00962308,-0.052598,0.49956,-1.567,-0.133732,1.44579,1.31697,-0.139414,0.0382907,-0.149108,-0.00128873,-0.011653,0.0693751,0.000839892,1.24927,-28.0556,0.286573,26.7526,0.862118,2.31713,-0.0163725,-0.223715,3.84511,-0.419532,-2.35067,0.519363,1.79906,1.84128,0.6031,1.81104,-0.440012,0.825252,-0.113751,-0.030381,
-0.024053,-0.0381967,0.465156,-1.57954,-0.240615,-0.178631,0.522432,-0.201615,0.0698643,-0.209327,-0.0636884,0.261495,-0.0882971,-0.0294883,0,0,0,0,0,0,0,0.00962308,-0.052598,0.49956,-1.567,-0.133732,1.44579,1.31697,-0.139414,0.0382907,-0.149108,-0.00128873,-0.011653,0.0693751,0.000839892,1.24927,-28.0556,0.286573,26.7526,0.862118,2.31713,-0.0163725,-2.14007,5.31482,-1.77678,-3.53668,-0.155146,2.97579,2.99517,0.567413,3.04358,-0.938819,1.14671,-0.193702,-0.0348119,
-0.0248618,-0.037926,0.464316,-1.57979,-0.239181,-0.178864,0.522317,-0.202205,0.0676698,-0.209906,-0.06321,0.358439,-0.0581763,-0.0288641,0,0,0,0,0,0,0,0.00492293,-0.0515139,0.494558,-1.56679,-0.139889,1.44668,1.31664,-0.17499,0.0173919,-0.16749,-0.00898996,-0.33398,-0.0257266,-0.0135131,-1.13507,-26.5083,-2.13744,24.6857,-0.023197,2.09832,0.0101778,-1.0601,4.07006,-1.3382,-2.71914,0.426073,2.11582,2.13887,0.784064,2.16072,-0.877675,0.914377,-0.266126,-0.0370273,
-0.0256735,-0.0376648,0.463474,-1.58004,-0.237328,-0.178967,0.522204,-0.20292,0.0653059,-0.210606,-0.0628016,0.463394,-0.0258987,-0.0282778,0,0,0,0,0,0,0,0.00492293,-0.0515139,0.494558,-1.56679,-0.139889,1.44668,1.31664,-0.17499,0.0173919,-0.16749,-0.00898996,-0.33398,-0.0257266,-0.0135131,-1.13507,-26.5083,-2.13744,24.6857,-0.023197,2.09832,0.0101778,-1.0601,4.07006,-1.3382,-2.71914,0.426073,2.11582,2.13887,0.784064,2.16072,-0.877675,0.914377,-0.266126,-0.0370273,
-0.0264885,-0.0374137,0.462628,-1.58029,-0.23502,-0.178932,0.522093,-0.203742,0.0627702,-0.211412,-0.0624918,0.576951,0.00883514,-0.0277354,0,0,0,0,0,0,0,0.00492293,-0.0515139,0.494558,-1.56679,-0.139889,1.44668,1.31664,-0.17499,0.0173919,-0.16749,-0.00898996,-0.33398,-0.0257266,-0.0135131,-1.13507,-26.5083,-2.13744,24.6857,-0.023197,2.09832,0.0101778,0.817363,2.18292,-0.172766,-1.48411,1.20577,0.777999,0.822316,0.935845,0.773245,-0.592807,0.424369,-0.347419,-0.0590182,
-0.0273024,-0.0371713,0.461783,-1.58054,-0.232269,-0.178749,0.521984,-0.20347,0.0606059,-0.211226,-0.0620223,0.687611,0.0456753,-0.0272391,0,0,0,0,0,0,0,0.00492293,-0.0515139,0.494558,-1.56679,-0.139889,1.44668,1.31664,-0.17499,0.0173919,-0.16749,-0.00898996,-0.33398,-0.0257266,-0.0135131,-1.13507,-26.5083,-2.13744,24.6857,-0.023197,2.09832,0.0101778,0.817363,2.18292,-0.172766,-1.48411,1.20577,0.777999,0.822316,0.935845,0.773245,-0.592807,0.424369,-0.347419,-0.0590182,
-0.0281026,-0.036933,0.460951,-1.58078,-0.229179,-0.178412,0.521876,-0.200056,0.0595604,-0.208077,-0.0612183,0.77253,0.0842486,-0.0268159,0,0,0,0,0,0,0,0.00492293,-0.0515139,0.494558,-1.56679,-0.139889,1.44668,1.31664,-0.17499,0.0173919,-0.16749,-0.00898996,-0.33398,-0.0257266,-0.0135131,-1.13507,-26.5083,-2.13744,24.6857,-0.023197,2.09832,0.0101778,1.76324,0.386628,0.176473,-0.348643,1.75772,-0.302374,-0.259101,1.17171,-0.332065,-0.599766,0.143725,-0.491203,-0.066992,
-0.0288816,-0.0366985,0.460139,-1.58103,-0.225825,-0.177905,0.52177,-0.194738,0.0586268,-0.202918,-0.0610725,0.838432,0.126774,-0.0265614,0,0,0,0,0,0,0,0.00492293,-0.0515139,0.494558,-1.56679,-0.139889,1.44668,1.31664,-0.17499,0.0173919,-0.16749,-0.00898996,-0.33398,-0.0257266,-0.0135131,-1.13507,-26.5083,-2.13744,24.6857,-0.023197,2.09832,0.0101778,0.395973,-0.545247,0.272239,0.271584,0.764924,-0.401624,-0.365299,0.634268,-0.440215,-0.514371,0.0851306,-0.609227,-0.0655364,
-0.0296341,-0.0364687,0.459353,-1.58127,-0.222266,-0.177208,0.521664,-0.188139,0.0574572,-0.196395,-0.0616826,0.889935,0.174205,-0.0264894,0,0,0,0,0,0,0,-0.00217675,-0.0507123,0.486641,-1.56765,-0.142546,1.44645,1.31646,-0.17248,0.0293963,-0.201183,-0.0103745,0.117718,-0.000860914,5.15437e-05,-0.730404,-28.4325,-1.63756,25.7092,-0.322574,1.98571,-0.050247,0.395973,-0.545247,0.272239,0.271584,0.764924,-0.401624,-0.365299,0.634268,-0.440215,-0.514371,0.0851306,-0.609227,-0.0655364,
-0.0303565,-0.0362449,0.458598,-1.58152,-0.218545,-0.176302,0.521558,-0.180607,0.0559412,-0.188873,-0.062889,0.93028,0.226651,-0.0266655,0,0,0,0,0,0,0,-0.00217675,-0.0507123,0.486641,-1.56765,-0.142546,1.44645,1.31646,-0.17248,0.0293963,-0.201183,-0.0103745,0.117718,-0.000860914,5.15437e-05,-0.730404,-28.4325,-1.63756,25.7092,-0.322574,1.98571,-0.050247,0.0608977,-1.1292,-0.193205,0.405848,0.694798,-0.578836,-0.549278,0.675595,-0.607571,-0.732388,-0.0993505,-0.704449,-0.0706477,
-0.0310457,-0.0360285,0.457876,-1.58178,-0.214698,-0.17517,0.521449,-0.17228,0.0540969,-0.180488,-0.064375,0.961686,0.282927,-0.0272493,0,0,0,0,0,0,0,-0.00217675,-0.0507123,0.486641,-1.56765,-0.142546,1.44645,1.31646,-0.17248,0.0293963,-0.201183,-0.0103745,0.117718,-0.000860914,5.15437e-05,-0.730404,-28.4325,-1.63756,25.7092,-0.322574,1.98571,-0.050247,0.0608977,-1.1292,-0.193205,0.405848,0.694798,-0.578836,-0.549278,0.675595,-0.607571,-0.732388,-0.0993505,-0.704449,-0.0706477,
-0.031698,-0.0358201,0.457191,-1.58204,-0.210756,-0.173812,0.521334,-0.163077,0.0520937,-0.171141,-0.0655405,0.985512,0.33955,-0.0285834,0,0,0,0,0,0,0,-0.00217675,-0.0507123,0.486641,-1.56765,-0.142546,1.44645,1.31646,-0.17248,0.0293963,-0.201183,-0.0103745,0.117718,-0.000860914,5.15437e-05,-0.730404,-28.4325,-1.63756,25.7092,-0.322574,1.98571,-0.050247,0.505064,-1.48238,-0.443492,0.459762,1.11324,-0.848996,-0.821258,0.94592,-0.872127,-0.915925,-0.251671,-0.767359,-0.0725075,
-0.0323085,-0.0356185,0.45655,-1.58231,-0.206747,-0.172254,0.521209,-0.15263,0.0504182,-0.160426,-0.065141,1.00227,0.389349,-0.0312978,0,0,0,0,0,0,0,-0.00217675,-0.0507123,0.486641,-1.56765,-0.142546,1.44645,1.31646,-0.17248,0.0293963,-0.201183,-0.0103745,0.117718,-0.000860914,5.15437e-05,-0.730404,-28.4325,-1.63756,25.7092,-0.322574,1.98571,-0.050247,0.505064,-1.48238,-0.443492,0.459762,1.11324,-0.848996,-0.821258,0.94592,-0.872127,-0.915925,-0.251671,-0.767359,-0.0725075,
-0.0328689,-0.0354166,0.45596,-1.58255,-0.202701,-0.17058,0.521066,-0.1401,0.0504635,-0.147455,-0.0601384,1.01139,0.418671,-0.0356501,0,0,0,0,0,0,0,-0.00837091,-0.0502507,0.479981,-1.56802,-0.131594,1.44697,1.31643,-0.205323,0.00538233,-0.211388,-0.010435,0.432015,0.0449625,0.000175703,0.562931,-27.6589,-0.360094,25.4077,0.843807,2.13128,-0.0703886,1.36272,-1.06862,-0.667384,0.181311,1.91189,-0.87313,-0.842343,1.45777,-0.891621,-1.11752,-0.154963,-0.788387,-0.0730514,
-0.0333328,-0.0351762,0.455468,-1.5827,-0.198977,-0.16901,0.52096,-0.115989,0.0601035,-0.123014,-0.0391901,0.930934,0.392388,-0.0264805,0,0,0,0,0,0,0,-0.00837091,-0.0502507,0.479981,-1.56802,-0.131594,1.44697,1.31643,-0.205323,0.00538233,-0.211388,-0.010435,0.432015,0.0449625,0.000175703,0.562931,-27.6589,-0.360094,25.4077,0.843807,2.13128,-0.0703886,1.33677,-0.953821,-1.24567,0.0840176,2.23516,-0.816429,-0.783763,1.78876,-0.833213,-1.39059,-0.00911649,-0.839138,-0.0749879,
-0.0337308,-0.0349384,0.455044,-1.58284,-0.195459,-0.167467,0.520855,-0.0994986,0.0594628,-0.106071,-0.0343001,0.879513,0.385811,-0.0264028,0,0,0,0,0,0,0,-0.00837091,-0.0502507,0.479981,-1.56802,-0.131594,1.44697,1.31643,-0.205323,0.00538233,-0.211388,-0.010435,0.432015,0.0449625,0.000175703,0.562931,-27.6589,-0.360094,25.4077,0.843807,2.13128,-0.0703886,1.33677,-0.953821,-1.24567,0.0840176,2.23516,-0.816429,-0.783763,1.78876,-0.833213,-1.39059,-0.00911649,-0.839138,-0.0749879,
-0.03408,-0.034715,0.454669,-1.58297,-0.192077,-0.165926,0.520748,-0.0872836,0.0558392,-0.0935279,-0.03355,0.845701,0.385313,-0.0267251,0,0,0,0,0,0,0,-0.00837091,-0.0502507,0.479981,-1.56802,-0.131594,1.44697,1.31643,-0.205323,0.00538233,-0.211388,-0.010435,0.432015,0.0449625,0.000175703,0.562931,-27.6589,-0.360094,25.4077,0.843807,2.13128,-0.0703886,-0.585864,-1.59303,-0.931779,0.739783,0.692426,-0.64745,-0.620495,0.891173,-0.681548,-1.04458,0.09656,-0.813903,-0.0755113,
-0.0343914,-0.0345089,0.454334,-1.58311,-0.188783,-0.164379,0.52064,-0.0778538,0.0515306,-0.0838685,-0.0335275,0.823389,0.386658,-0.0269568,0,0,0,0,0,0,0,-0.00837091,-0.0502507,0.479981,-1.56802,-0.131594,1.44697,1.31643,-0.205323,0.00538233,-0.211388,-0.010435,0.432015,0.0449625,0.000175703,0.562931,-27.6589,-0.360094,25.4077,0.843807,2.13128,-0.0703886,-0.585864,-1.59303,-0.931779,0.739783,0.692426,-0.64745,-0.620495,0.891173,-0.681548,-1.04458,0.09656,-0.813903,-0.0755113,
-0.0346729,-0.0343198,0.454029,-1.58324,-0.185548,-0.162825,0.520532,-0.0703872,0.0472662,-0.0762436,-0.0333708,0.808857,0.388517,-0.0271184,0,0,0,0,0,0,0,-0.0142519,-0.0495851,0.473095,-1.56827,-0.116121,1.45005,1.31639,-0.163534,0.0366182,-0.206825,0.000796664,0.438069,0.135033,-0.00247248,1.93164,-28.5079,1.18715,25.733,0.770565,2.57531,-0.103348,-2.03481,-2.28166,-0.626529,1.3829,-0.506769,-0.625997,-0.606433,0.180762,-0.673859,-0.752368,0.152757,-0.798497,-0.0750486,
-0.0349304,-0.0341467,0.453749,-1.58337,-0.182349,-0.161263,0.520423,-0.0643654,0.0432735,-0.0701139,-0.0329482,0.799653,0.390469,-0.0272363,0,0,0,0,0,0,0,-0.0142519,-0.0495851,0.473095,-1.56827,-0.116121,1.45005,1.31639,-0.163534,0.0366182,-0.206825,0.000796664,0.438069,0.135033,-0.00247248,1.93164,-28.5079,1.18715,25.733,0.770565,2.57531,-0.103348,-2.03481,-2.28166,-0.626529,1.3829,-0.506769,-0.625997,-0.606433,0.180762,-0.673859,-0.752368,0.152757,-0.798497,-0.0750486,
-0.0351681,-0.0339883,0.453488,-1.5835,-0.179173,-0.159694,0.520313,-0.0594342,0.039615,-0.0651101,-0.0323122,0.794096,0.392373,-0.0273251,0,0,0,0,0,0,0,-0.0142519,-0.0495851,0.473095,-1.56827,-0.116121,1.45005,1.31639,-0.163534,0.0366182,-0.206825,0.000796664,0.438069,0.135033,-0.00247248,1.93164,-28.5079,1.18715,25.733,0.770565,2.57531,-0.103348,-2.05798,-1.60546,-1.2724,0.853838,-0.219056,-0.302238,-0.287755,0.472183,-0.330148,-1.01316,0.273051,-0.785368,-0.0729708,
-0.0702867,-0.0193006,0.417034,-1.60185,-0.380863,-0.314788,0.504473,-0.196184,0.0748165,-0.206914,-0.0803915,-0.534075,0.266252,-0.0568185,0,0,0,0,0,0,0,-0.0142519,-0.0495851,0.473095,-1.56827,-0.116121,1.45005,1.31639,-0.163534,0.0366182,-0.206825,0.000796664,0.438069,0.135033,-0.00247248,1.93164,-28.5079,1.18715,25.733,0.770565,2.57531,-0.103348,-2.05798,-1.60546,-1.2724,0.853838,-0.219056,-0.302238,-0.287755,0.472183,-0.330148,-1.01316,0.273051,-0.785368,-0.0729708,
-0.0408935,-0.0309766,0.447686,-1.58974,-0.299615,-0.299845,0.51164,-0.330583,0.152231,-0.343434,-0.149418,-1.2,-0.810254,-0.0854943,0,0,0,0,0,0,0,-0.0142519,-0.0495851,0.473095,-1.56827,-0.116121,1.45005,1.31639,-0.163534,0.0366182,-0.206825,0.000796664,0.438069,0.135033,-0.00247248,1.93164,-28.5079,1.18715,25.733,0.770565,2.57531,-0.103348,-1.24558,-0.435185,-1.563,0.116878,0.382089,0.0719011,0.0812716,0.796771,0.0658257,-1.03945,0.398571,-0.576544,-0.064797,
-0.0460287,-0.0406723,0.439962,-1.58224,-0.197822,-0.108569,0.520557,-0.170582,0.039467,-0.177828,-0.0789687,-0.233463,0.500941,-0.0460261,0,0,0,0,0,0,0,-0.0142519,-0.0495851,0.473095,-1.56827,-0.116121,1.45005,1.31639,-0.163534,0.0366182,-0.206825,0.000796664,0.438069,0.135033,-0.00247248,1.93164,-28.5079,1.18715,25.733,0.770565,2.57531,-0.103348,-1.52077,2.26891,-1.44485,-1.4691,-0.049734,1.45727,1.46622,0.442717,1.482,-0.718157,0.71006,-0.20755,-0.0665974,
-0.0467099,-0.0405185,0.439251,-1.58256,-0.198605,-0.10643,0.520376,-0.170306,0.0384475,-0.17755,-0.0787837,-0.19563,0.534845,-0.0453346,0,0,0,0,0,0,0,-0.020108,-0.0486429,0.466897,-1.56829,-0.104702,1.45312,1.31629,-0.186472,0.0238367,-0.195485,0.00632853,0.177308,-0.00728001,-0.0117849,-0.349545,-27.6311,-1.18529,24.3127,-0.61005,2.66137,-0.130813,-1.52077,2.26891,-1.44485,-1.4691,-0.049734,1.45727,1.46622,0.442717,1.482,-0.718157,0.71006,-0.20755,-0.0665974,
-0.0473903,-0.0403688,0.438542,-1.58287,-0.199225,-0.104148,0.520197,-0.170095,0.0374246,-0.177335,-0.0786478,-0.155036,0.570563,-0.0446658,0,0,0,0,0,0,0,-0.020108,-0.0486429,0.466897,-1.56829,-0.104702,1.45312,1.31629,-0.186472,0.0238367,-0.195485,0.00632853,0.177308,-0.00728001,-0.0117849,-0.349545,-27.6311,-1.18529,24.3127,-0.61005,2.66137,-0.130813,-2.69678,6.70314,-1.50991,-4.26255,-0.972212,3.86908,3.8759,-0.116306,3.95468,-0.48882,1.19726,0.132134,-0.0627767,
-0.0480701,-0.0402232,0.437833,-1.58318,-0.19967,-0.101715,0.520021,-0.169958,0.0363926,-0.177191,-0.0785612,-0.111271,0.608168,-0.0440218,0,0,0,0,0,0,0,-0.020108,-0.0486429,0.466897,-1.56829,-0.104702,1.45312,1.31629,-0.186472,0.0238367,-0.195485,0.00632853,0.177308,-0.00728001,-0.0117849,-0.349545,-27.6311,-1.18529,24.3127,-0.61005,2.66137,-0.130813,-2.69678,6.70314,-1.50991,-4.26255,-0.972212,3.86908,3.8759,-0.116306,3.95468,-0.48882,1.19726,0.132134,-0.0627767,
-0.0487498,-0.0400818,0.437125,-1.5835,-0.199925,-0.0991242,0.519848,-0.169904,0.0353458,-0.177127,-0.0785248,-0.0638666,0.647725,-0.0434042,0,0,0,0,0,0,0,-0.020108,-0.0486429,0.466897,-1.56829,-0.104702,1.45312,1.31629,-0.186472,0.0238367,-0.195485,0.00632853,0.177308,-0.00728001,-0.0117849,-0.349545,-27.6311,-1.18529,24.3127,-0.61005,2.66137,-0.130813,0.53512,1.18317,-2.75616,-1.16545,1.82247,0.502801,0.491737,1.62588,0.551154,-1.30167,0.385219,-0.148729,-0.0761527,
-0.0494295,-0.0399447,0.436416,-1.58381,-0.199974,-0.0963671,0.519676,-0.169942,0.0342793,-0.177152,-0.0785389,-0.0122941,0.689287,-0.0428202,0,0,0,0,0,0,0,-0.020108,-0.0486429,0.466897,-1.56829,-0.104702,1.45312,1.31629,-0.186472,0.0238367,-0.195485,0.00632853,0.177308,-0.00728001,-0.0117849,-0.349545,-27.6311,-1.18529,24.3127,-0.61005,2.66137,-0.130813,0.53512,1.18317,-2.75616,-1.16545,1.82247,0.502801,0.491737,1.62588,0.551154,-1.30167,0.385219,-0.148729,-0.0761527,
-0.0501098,-0.039812,0.435707,-1.58413,-0.199798,-0.0934356,0.519507,-0.170081,0.0331887,-0.177274,-0.0786036,0.0440407,0.73288,-0.0422738,0,0,0,0,0,0,0,-0.0250387,-0.048108,0.461395,-1.56912,-0.113578,1.45227,1.3157,-0.123772,0.00473382,-0.158877,-0.0512721,-0.128319,0.146102,-0.00340438,-1.61908,-28.8808,-2.41118,26.4551,-0.517582,3.35808,-0.0163725,1.26043,-2.85851,-1.13138,1.25913,1.51238,-1.57195,-1.56326,1.10047,-1.59261,-0.832099,-0.5651,-0.396761,-0.0992463,
-0.0507912,-0.0396837,0.434997,-1.58444,-0.199375,-0.0903216,0.51934,-0.170327,0.0320714,-0.177501,-0.0787172,0.105792,0.778497,-0.0417734,0,0,0,0,0,0,0,-0.0250387,-0.048108,0.461395,-1.56912,-0.113578,1.45227,1.3157,-0.123772,0.00473382,-0.158877,-0.0512721,-0.128319,0.146102,-0.00340438,-1.61908,-28.8808,-2.41118,26.4551,-0.517582,3.35808,-0.0163725,1.46793,-2.53693,-0.876708,1.03614,1.48774,-1.4536,-1.44839,1.00409,-1.46565,-0.70694,-0.626526,-0.333833,-0.102129,
-0.0514732,-0.0395583,0.434287,-1.58475,-0.198682,-0.0870421,0.519175,-0.170501,0.0313388,-0.177643,-0.077618,0.173297,0.819867,-0.0413374,0,0,0,0,0,0,0,-0.0250387,-0.048108,0.461395,-1.56912,-0.113578,1.45227,1.3157,-0.123772,0.00473382,-0.158877,-0.0512721,-0.128319,0.146102,-0.00340438,-1.61908,-28.8808,-2.41118,26.4551,-0.517582,3.35808,-0.0163725,1.46793,-2.53693,-0.876708,1.03614,1.48774,-1.4536,-1.44839,1.00409,-1.46565,-0.70694,-0.626526,-0.333833,-0.102129,
-0.0521554,-0.0394346,0.433576,-1.58505,-0.197693,-0.0836328,0.519011,-0.170551,0.0309394,-0.177653,-0.0749988,0.247258,0.852327,-0.0409835,0,0,0,0,0,0,0,-0.0250387,-0.048108,0.461395,-1.56912,-0.113578,1.45227,1.3157,-0.123772,0.00473382,-0.158877,-0.0512721,-0.128319,0.146102,-0.00340438,-1.61908,-28.8808,-2.41118,26.4551,-0.517582,3.35808,-0.0163725,0.64762,-1.5194,-0.805607,0.682273,0.560713,-0.727429,-0.731549,0.349956,-0.731179,-0.211779,-0.378287,0.105707,-0.106293,
-0.052838,-0.0393134,0.432865,-1.58534,-0.196377,-0.0801189,0.518848,-0.170649,0.030286,-0.177716,-0.0721541,0.328842,0.878477,-0.040715,0,0,0,0,0,0,0,-0.0250387,-0.048108,0.461395,-1.56912,-0.113578,1.45227,1.3157,-0.123772,0.00473382,-0.158877,-0.0512721,-0.128319,0.146102,-0.00340438,-1.61908,-28.8808,-2.41118,26.4551,-0.517582,3.35808,-0.0163725,0.64762,-1.5194,-0.805607,0.682273,0.560713,-0.727429,-0.731549,0.349956,-0.731179,-0.211779,-0.378287,0.105707,-0.106293,
-0.0535213,-0.0391963,0.432154,-1.58562,-0.194702,-0.07652,0.518686,-0.170826,0.0292703,-0.177859,-0.0694796,0.418758,0.899716,-0.0405286,0,0,0,0,0,0,0,-0.0250387,-0.048108,0.461395,-1.56912,-0.113578,1.45227,1.3157,-0.123772,0.00473382,-0.158877,-0.0512721,-0.128319,0.146102,-0.00340438,-1.61908,-28.8808,-2.41118,26.4551,-0.517582,3.35808,-0.0163725,1.4303,-2.03234,-1.22294,0.897811,0.989819,-1.09811,-1.09533,0.520088,-1.11004,-0.164071,-0.595859,0.365583,-0.10839,
-0.0542054,-0.0390846,0.431442,-1.58589,-0.192633,-0.0728522,0.518524,-0.17103,0.0279248,-0.178031,-0.0671066,0.517248,0.916958,-0.04044,0,0,0,0,0,0,0,-0.0292533,-0.0480533,0.456162,-1.57146,-0.116318,1.45838,1.31564,-0.126464,-0.00699783,-0.167496,-0.0809628,0.00410208,0.257181,-0.00209254,-1.64288,-28.1072,-2.13744,26.2289,-0.963444,3.76916,-0.0227812,1.4303,-2.03234,-1.22294,0.897811,0.989819,-1.09811,-1.09533,0.520088,-1.11004,-0.164071,-0.595859,0.365583,-0.10839,
-0.0548898,-0.0389793,0.430729,-1.58615,-0.190139,-0.0691287,0.518362,-0.171113,0.026331,-0.178091,-0.0650968,0.623677,0.930872,-0.040474,0,0,0,0,0,0,0,-0.0292533,-0.0480533,0.456162,-1.57146,-0.116318,1.45838,1.31564,-0.126464,-0.00699783,-0.167496,-0.0809628,0.00410208,0.257181,-0.00209254,-1.64288,-28.1072,-2.13744,26.2289,-0.963444,3.76916,-0.0227812,1.45639,-2.94581,-2.77849,0.999504,1.6951,-1.53712,-1.53978,1.21099,-1.53306,-0.894237,-0.835325,0.195116,-0.109009,
-0.0555682,-0.0388788,0.430022,-1.5864,-0.187245,-0.0653636,0.5182,-0.169587,0.0251207,-0.176679,-0.0631343,0.723553,0.941265,-0.0405665,0,0,0,0,0,0,0,-0.0292533,-0.0480533,0.456162,-1.57146,-0.116318,1.45838,1.31564,-0.126464,-0.00699783,-0.167496,-0.0809628,0.00410208,0.257181,-0.00209254,-1.64288,-28.1072,-2.13744,26.2289,-0.963444,3.76916,-0.0227812,0.511252,-1.66148,-3.15662,0.108269,1.22673,-0.704394,-0.703935,1.04256,-0.682208,-1.00819,-0.665863,0.194815,-0.113788,
-0.0562279,-0.0387799,0.429333,-1.58665,-0.184049,-0.0615707,0.518037,-0.164918,0.0247264,-0.172267,-0.0612181,0.798842,0.948234,-0.0408023,0,0,0,0,0,0,0,-0.0292533,-0.0480533,0.456162,-1.57146,-0.116318,1.45838,1.31564,-0.126464,-0.00699783,-0.167496,-0.0809628,0.00410208,0.257181,-0.00209254,-1.64288,-28.1072,-2.13744,26.2289,-0.963444,3.76916,-0.0227812,0.511252,-1.66148,-3.15662,0.108269,1.22673,-0.704394,-0.703935,1.04256,-0.682208,-1.00819,-0.665863,0.194815,-0.113788,
-0.0568605,-0.0386824,0.428671,-1.58689,-0.180626,-0.057757,0.51787,-0.158151,0.0243838,-0.165635,-0.0601887,0.855779,0.953425,-0.0416665,0,0,0,0,0,0,0,-0.0292533,-0.0480533,0.456162,-1.57146,-0.116318,1.45838,1.31564,-0.126464,-0.00699783,-0.167496,-0.0809628,0.00410208,0.257181,-0.00209254,-1.64288,-28.1072,-2.13744,26.2289,-0.963444,3.76916,-0.0227812,1.64544,-1.58542,-2.46845,0.37999,1.57115,-0.900138,-0.895112,1.0183,-0.895731,-0.565488,-0.580561,0.479728,-0.113763,
-0.0574592,-0.0385859,0.428042,-1.58712,-0.177032,-0.0539287,0.517695,-0.149682,0.0241324,-0.157194,-0.0596807,0.898418,0.957083,-0.0437259,0,0,0,0,0,0,0,-0.0346263,-0.0481125,0.450497,-1.57408,-0.11378,1.47241,1.31562,-0.157826,0.00195359,-0.175159,-0.0833187,0.163841,0.481357,-0.00102916,-0.730404,-28.008,-1.41142,26.1575,0.740353,3.7362,-0.0630644,1.64544,-1.58542,-2.46845,0.37999,1.57115,-0.900138,-0.895112,1.0183,-0.895731,-0.565488,-0.580561,0.479728,-0.113763,
-0.0580168,-0.0384856,0.427455,-1.58736,-0.173316,-0.0500969,0.517506,-0.139411,0.0250519,-0.146853,-0.0576536,0.929029,0.95794,-0.0474391,0,0,0,0,0,0,0,-0.0346263,-0.0481125,0.450497,-1.57408,-0.11378,1.47241,1.31562,-0.157826,0.00195359,-0.175159,-0.0833187,0.163841,0.481357,-0.00102916,-0.730404,-28.008,-1.41142,26.1575,0.740353,3.7362,-0.0630644,1.38146,-2.13116,-2.21679,0.963872,1.25936,-1.11503,-1.1135,0.808948,-1.1264,-0.366293,-0.471509,0.536282,-0.110677,
-0.0585019,-0.0383368,0.426941,-1.58748,-0.169677,-0.0466021,0.517351,-0.121272,0.0371989,-0.12838,-0.0306466,0.909748,0.873707,-0.0386347,0,0,0,0,0,0,0,-0.0346263,-0.0481125,0.450497,-1.57408,-0.11378,1.47241,1.31562,-0.157826,0.00195359,-0.175159,-0.0833187,0.163841,0.481357,-0.00102916,-0.730404,-28.008,-1.41142,26.1575,0.740353,3.7362,-0.0630644,1.38146,-2.13116,-2.21679,0.963872,1.25936,-1.11503,-1.1135,0.808948,-1.1264,-0.366293,-0.471509,0.536282,-0.110677,
-0.0589372,-0.0381861,0.426478,-1.58758,-0.166054,-0.0433099,0.517197,-0.10883,0.0376812,-0.115687,-0.0252715,0.905727,0.82304,-0.0385609,0,0,0,0,0,0,0,-0.0346263,-0.0481125,0.450497,-1.57408,-0.11378,1.47241,1.31562,-0.157826,0.00195359,-0.175159,-0.0833187,0.163841,0.481357,-0.00102916,-0.730404,-28.008,-1.41142,26.1575,0.740353,3.7362,-0.0630644,0.723973,-1.37482,-1.84051,0.718247,0.728619,-0.618696,-0.616668,0.497881,-0.63152,-0.19045,-0.193953,0.53877,-0.114186,
-0.0593342,-0.0380457,0.426055,-1.58768,-0.162421,-0.0401624,0.517041,-0.0992305,0.0351185,-0.105889,-0.0258851,0.908259,0.786892,-0.0388247,0,0,0,0,0,0,0,-0.0346263,-0.0481125,0.450497,-1.57408,-0.11378,1.47241,1.31562,-0.157826,0.00195359,-0.175159,-0.0833187,0.163841,0.481357,-0.00102916,-0.730404,-28.008,-1.41142,26.1575,0.740353,3.7362,-0.0630644,1.58426,-0.370182,-2.51378,0.153805,1.74343,-0.316507,-0.313092,1.21666,-0.317907,-0.519479,0.131219,0.580085,-0.117206,
-0.0596997,-0.0379174,0.425663,-1.58779,-0.158766,-0.0371275,0.516885,-0.091377,0.0320544,-0.0978794,-0.0278634,0.91385,0.758715,-0.0390002,0,0,0,0,0,0,0,-0.0346263,-0.0481125,0.450497,-1.57408,-0.11378,1.47241,1.31562,-0.157826,0.00195359,-0.175159,-0.0833187,0.163841,0.481357,-0.00102916,-0.730404,-28.008,-1.41142,26.1575,0.740353,3.7362,-0.0630644,1.58426,-0.370182,-2.51378,0.153805,1.74343,-0.316507,-0.313092,1.21666,-0.317907,-0.519479,0.131219,0.580085,-0.117206,
-0.0600387,-0.0378006,0.425299,-1.58791,-0.155082,-0.0341839,0.516729,-0.0847638,0.0291966,-0.0911431,-0.0299026,0.920868,0.735896,-0.0391199,0,0,0,0,0,0,0,-0.0397238,-0.0480755,0.444497,-1.5767,-0.104641,1.48965,1.31558,-0.163956,0.0063517,-0.197519,-0.0714587,0.339021,0.601322,0.000107718,0.94379,-28.4047,0.211195,26.2805,1.32629,3.87536,-0.110672,0.62917,-0.536679,-3.02363,0.394132,1.35492,-0.19953,-0.198859,1.15417,-0.206691,-0.647695,0.367868,0.553295,-0.115364,
-0.0603551,-0.0376938,0.424957,-1.58804,-0.151369,-0.0313154,0.516572,-0.0791065,0.0267028,-0.0853877,-0.0316842,0.928436,0.717125,-0.0392097,0,0,0,0,0,0,0,-0.0397238,-0.0480755,0.444497,-1.5767,-0.104641,1.48965,1.31558,-0.163956,0.0063517,-0.197519,-0.0714587,0.339021,0.601322,0.000107718,0.94379,-28.4047,0.211195,26.2805,1.32629,3.87536,-0.110672,0.62917,-0.536679,-3.02363,0.394132,1.35492,-0.19953,-0.198859,1.15417,-0.206691,-0.647695,0.367868,0.553295,-0.115364,
-0.0499741,-0.0334319,0.435733,-1.5888,-0.287715,-0.248539,0.512433,-0.187619,0.0896549,-0.196429,-0.123674,-1.18804,-0.276448,-0.0801838,0,0,0,0,0,0,0,-0.0397238,-0.0480755,0.444497,-1.5767,-0.104641,1.48965,1.31558,-0.163956,0.0063517,-0.197519,-0.0714587,0.339021,0.601322,0.000107718,0.94379,-28.4047,0.211195,26.2805,1.32629,3.87536,-0.110672,0.00133513,0.205052,-2.14748,0.292968,0.57937,0.286283,0.289416,0.594472,0.268386,-0.215306,0.659756,0.621878,-0.112118,
-0.0553719,-0.0416601,0.427864,-1.58821,-0.183342,-0.0704792,0.519562,-0.0462082,0.0308885,-0.0510789,-0.0674007,-0.606382,-0.0624243,-0.050864,0,0,0,0,0,0,0,-0.0397238,-0.0480755,0.444497,-1.5767,-0.104641,1.48965,1.31558,-0.163956,0.0063517,-0.197519,-0.0714587,0.339021,0.601322,0.000107718,0.94379,-28.4047,0.211195,26.2805,1.32629,3.87536,-0.110672,0.0947579,0.926882,-1.89008,-0.0126479,0.617327,0.616331,0.621973,0.598748,0.599007,-0.144949,0.861646,0.627675,-0.112896,
-0.0555515,-0.041539,0.427665,-1.58848,-0.185879,-0.0707096,0.519361,-0.0448985,0.0302799,-0.049763,-0.0672409,-0.634278,-0.0575844,-0.0503778,0,0,0,0,0,0,0,-0.0397238,-0.0480755,0.444497,-1.5767,-0.104641,1.48965,1.31558,-0.163956,0.0063517,-0.197519,-0.0714587,0.339021,0.601322,0.000107718,0.94379,-28.4047,0.211195,26.2805,1.32629,3.87536,-0.110672,0.0947579,0.926882,-1.89008,-0.0126479,0.617327,0.616331,0.621973,0.598748,0.599007,-0.144949,0.861646,0.627675,-0.112896,
-0.0557259,-0.0414204,0.427471,-1.58875,-0.188534,-0.070919,0.519161,-0.0436071,0.029642,-0.0484653,-0.0670887,-0.663747,-0.0523633,-0.0499005,0,0,0,0,0,0,0,-0.046928,-0.0474777,0.436766,-1.57902,-0.0922421,1.51302,1.31541,-0.170743,0.0274979,-0.180254,-0.00933589,0.0544331,0.356864,-0.00469377,0.309024,-28.9046,-0.435472,22.7179,0.0436365,1.59386,-0.304764,-0.26142,2.90677,-2.25848,-1.304,0.618162,1.66675,1.67258,0.689031,1.67702,-0.319871,1.14603,0.632888,-0.110371,
-0.0558953,-0.0413046,0.427282,-1.58901,-0.191313,-0.0711057,0.518963,-0.0423388,0.0289676,-0.0471896,-0.0669563,-0.694681,-0.0466639,-0.0494335,0,0,0,0,0,0,0,-0.046928,-0.0474777,0.436766,-1.57902,-0.0922421,1.51302,1.31541,-0.170743,0.0274979,-0.180254,-0.00933589,0.0544331,0.356864,-0.00469377,0.309024,-28.9046,-0.435472,22.7179,0.0436365,1.59386,-0.304764,-0.26142,2.90677,-2.25848,-1.304,0.618162,1.66675,1.67258,0.689031,1.67702,-0.319871,1.14603,0.632888,-0.110371,
-0.0560597,-0.0411916,0.427098,-1.58928,-0.194221,-0.071267,0.518767,-0.0411048,0.0282471,-0.045947,-0.0668605,-0.726878,-0.0403322,-0.0489757,0,0,0,0,0,0,0,-0.046928,-0.0474777,0.436766,-1.57902,-0.0922421,1.51302,1.31541,-0.170743,0.0274979,-0.180254,-0.00933589,0.0544331,0.356864,-0.00469377,0.309024,-28.9046,-0.435472,22.7179,0.0436365,1.59386,-0.304764,0.384313,4.92002,-3.41087,-2.71657,1.79347,2.52886,2.5324,1.61231,2.57714,-0.965085,1.50584,0.558242,-0.110487,
-0.0562194,-0.0410817,0.426919,-1.58955,-0.197261,-0.0713995,0.518573,-0.0399269,0.0274683,-0.0447579,-0.0668234,-0.760002,-0.0331351,-0.0485272,0,0,0,0,0,0,0,-0.046928,-0.0474777,0.436766,-1.57902,-0.0922421,1.51302,1.31541,-0.170743,0.0274979,-0.180254,-0.00933589,0.0544331,0.356864,-0.00469377,0.309024,-28.9046,-0.435472,22.7179,0.0436365,1.59386,-0.304764,0.467899,4.10688,-2.38335,-2.16584,1.48833,2.0795,2.09279,1.29286,2.1041,-0.705716,1.29941,0.403913,-0.0964103,
-0.0563748,-0.0409753,0.426745,-1.58982,-0.200435,-0.0714985,0.518381,-0.0388421,0.0266147,-0.043658,-0.0668743,-0.793502,-0.0247328,-0.0480871,0,0,0,0,0,0,0,-0.046928,-0.0474777,0.436766,-1.57902,-0.0922421,1.51302,1.31541,-0.170743,0.0274979,-0.180254,-0.00933589,0.0544331,0.356864,-0.00469377,0.309024,-28.9046,-0.435472,22.7179,0.0436365,1.59386,-0.304764,0.467899,4.10688,-2.38335,-2.16584,1.48833,2.0795,2.09279,1.29286,2.1041,-0.705716,1.29941,0.403913,-0.0964103,
-0.0565264,-0.0408726,0.426574,-1.59009,-0.203741,-0.0715571,0.51819,-0.0379107,0.0256643,-0.0427055,-0.0670515,-0.826511,-0.0146441,-0.0476501,0,0,0,0,0,0,0,-0.050575,-0.0467842,0.432598,-1.57919,-0.106702,1.51828,1.31515,-0.0669394,0.0348509,-0.117711,-0.00242039,-0.503557,0.134623,-0.00598759,0.106693,-30.5034,0.314344,25.0348,-1.64826,2.70165,-0.0429228,-0.132867,1.02647,-1.41808,-0.692273,0.735361,0.643317,0.66062,0.761769,0.643626,-0.662378,0.397733,-0.0847187,-0.109942,
-0.0566753,-0.0407743,0.426406,-1.59035,-0.207171,-0.0715659,0.518001,-0.0372274,0.0245875,-0.0419926,-0.0674027,-0.857687,-0.00220863,-0.0472096,0,0,0,0,0,0,0,-0.050575,-0.0467842,0.432598,-1.57919,-0.106702,1.51828,1.31515,-0.0669394,0.0348509,-0.117711,-0.00242039,-0.503557,0.134623,-0.00598759,0.106693,-30.5034,0.314344,25.0348,-1.64826,2.70165,-0.0429228,-0.132867,1.02647,-1.41808,-0.692273,0.735361,0.643317,0.66062,0.761769,0.643626,-0.662378,0.397733,-0.0847187,-0.109942,
-0.0568231,-0.0406809,0.426239,-1.59063,-0.210711,-0.0715121,0.517814,-0.0369374,0.0233447,-0.0416601,-0.0679829,-0.884985,0.0134445,-0.0467506,0,0,0,0,0,0,0,-0.050575,-0.0467842,0.432598,-1.57919,-0.106702,1.51828,1.31515,-0.0669394,0.0348509,-0.117711,-0.00242039,-0.503557,0.134623,-0.00598759,0.106693,-30.5034,0.314344,25.0348,-1.64826,2.70165,-0.0429228,-0.160297,-1.59491,-1.0106,0.454702,0.547474,-0.683583,-0.682569,0.596191,-0.679944,-0.763744,-0.430783,-0.439275,-0.113658,
-0.0569721,-0.0405933,0.426071,-1.5909,-0.214333,-0.0713785,0.517629,-0.0372568,0.0218844,-0.0419185,-0.0688456,-0.905357,0.0333983,-0.0462488,0,0,0,0,0,0,0,-0.050575,-0.0467842,0.432598,-1.57919,-0.106702,1.51828,1.31515,-0.0669394,0.0348509,-0.117711,-0.00242039,-0.503557,0.134623,-0.00598759,0.106693,-30.5034,0.314344,25.0348,-1.64826,2.70165,-0.0429228,-1.27112,-0.682803,-0.774485,-0.317838,-0.292917,-0.0203872,-0.0231541,0.101928,0.00600754,-0.726379,-0.518997,-0.5541,-0.117548,
-0.0571261,-0.0405128,0.425899,-1.59118,-0.21799,-0.071143,0.517447,-0.0384985,0.0201425,-0.0430734,-0.0700225,-0.914343,0.0588834,-0.0456663,0,0,0,0,0,0,0,-0.050575,-0.0467842,0.432598,-1.57919,-0.106702,1.51828,1.31515,-0.0669394,0.0348509,-0.117711,-0.00242039,-0.503557,0.134623,-0.00598759,0.106693,-30.5034,0.314344,25.0348,-1.64826,2.70165,-0.0429228,-1.27112,-0.682803,-0.774485,-0.317838,-0.292917,-0.0203872,-0.0231541,0.101928,0.00600754,-0.726379,-0.518997,-0.5541,-0.117548,
-0.0572905,-0.0404406,0.425717,-1.59147,-0.221613,-0.0707786,0.517267,-0.0410974,0.0180446,-0.0455511,-0.0714858,-0.905626,0.0910947,-0.0449421,0,0,0,0,0,0,0,-0.050575,-0.0467842,0.432598,-1.57919,-0.106702,1.51828,1.31515,-0.0669394,0.0348509,-0.117711,-0.00242039,-0.503557,0.134623,-0.00598759,0.106693,-30.5034,0.314344,25.0348,-1.64826,2.70165,-0.0429228,-0.748425,-0.643416,-0.918313,-0.62005,0.270163,-0.135809,-0.132104,0.474869,-0.102214,-1.02567,-0.710957,-0.751112,-0.118253,
-0.057473,-0.0403785,0.425517,-1.59176,-0.225095,-0.0702551,0.517091,-0.0456275,0.0155118,-0.049916,-0.0730976,-0.870627,0.130877,-0.0439909,0,0,0,0,0,0,0,-0.0528226,-0.0457878,0.42961,-1.57952,-0.125754,1.52312,1.31514,-0.0542618,0.0284139,-0.073103,-0.0046963,-0.679165,0.172717,-0.00137146,0.638309,-30.7533,-0.0625476,24.9594,-2.36237,1.36223,-0.137222,-0.748425,-0.643416,-0.918313,-0.62005,0.270163,-0.135809,-0.132104,0.474869,-0.102214,-1.02567,-0.710957,-0.751112,-0.118253,
-0.0576842,-0.0403287,0.42529,-1.59206,-0.228289,-0.0695415,0.51692,-0.0527909,0.0124689,-0.0568649,-0.0745691,-0.798401,0.178391,-0.042699,0,0,0,0,0,0,0,-0.0528226,-0.0457878,0.42961,-1.57952,-0.125754,1.52312,1.31514,-0.0542618,0.0284139,-0.073103,-0.0046963,-0.679165,0.172717,-0.00137146,0.638309,-30.7533,-0.0625476,24.9594,-2.36237,1.36223,-0.137222,0.37665,-3.26951,-1.74707,0.528748,1.56928,-1.71222,-1.69812,1.41211,-1.69821,-1.72533,-1.30355,-1.13774,-0.121383,
-0.0579376,-0.0402933,0.425021,-1.59236,-0.230993,-0.0686095,0.516756,-0.0633649,0.00885327,-0.0671786,-0.0754748,-0.67611,0.233015,-0.0409438,0,0,0,0,0,0,0,-0.0528226,-0.0457878,0.42961,-1.57952,-0.125754,1.52312,1.31514,-0.0542618,0.0284139,-0.073103,-0.0046963,-0.679165,0.172717,-0.00137146,0.638309,-30.7533,-0.0625476,24.9594,-2.36237,1.36223,-0.137222,0.37665,-3.26951,-1.74707,0.528748,1.56928,-1.71222,-1.69812,1.41211,-1.69821,-1.72533,-1.30355,-1.13774,-0.121383,
-0.0582501,-0.0402747,0.424695,-1.59266,-0.232953,-0.0674352,0.516601,-0.0781156,0.00464031,-0.0816388,-0.0752985,-0.490032,0.293581,-0.038836,0,0,0,0,0,0,0,-0.0528226,-0.0457878,0.42961,-1.57952,-0.125754,1.52312,1.31514,-0.0542618,0.0284139,-0.073103,-0.0046963,-0.679165,0.172717,-0.00137146,0.638309,-30.7533,-0.0625476,24.9594,-2.36237,1.36223,-0.137222,-0.479365,-4.03991,-2.05414,0.831256,1.108,-1.94221,-1.92654,1.23856,-1.93268,-1.87002,-1.49303,-1.27053,-0.124201,
-0.0586411,-0.0402749,0.424291,-1.59295,-0.233858,-0.0660024,0.516443,-0.0977596,-6.00378e-05,-0.100966,-0.0732978,-0.226093,0.358187,-0.0394926,0,0,0,0,0,0,0,-0.0528226,-0.0457878,0.42961,-1.57952,-0.125754,1.52312,1.31514,-0.0542618,0.0284139,-0.073103,-0.0046963,-0.679165,0.172717,-0.00137146,0.638309,-30.7533,-0.0625476,24.9594,-2.36237,1.36223,-0.137222,-0.922437,-3.86953,-2.59222,0.589311,0.963715,-1.76349,-1.74909,1.23177,-1.74524,-2.0109,-1.52789,-1.23753,-0.127117,
-0.0590698,-0.0402708,0.423845,-1.59322,-0.233976,-0.0643906,0.516289,-0.107164,0.00103704,-0.111418,-0.0657086,-0.0296167,0.402939,-0.0386106,0,0,0,0,0,0,0,-0.0539758,-0.0451664,0.427927,-1.57983,-0.147171,1.53014,1.31511,-0.0336137,0.0124719,-0.0466475,-0.0139758,-0.627128,0.234723,-0.000915044,-0.0956386,-30.5034,-0.76079,25.5069,-1.9101,2.08459,-0.117081,-0.922437,-3.86953,-2.59222,0.589311,0.963715,-1.76349,-1.74909,1.23177,-1.74524,-2.0109,-1.52789,-1.23753,-0.127117,
-0.0595133,-0.0402564,0.423382,-1.59345,-0.233499,-0.0626411,0.516137,-0.110877,0.00359397,-0.11586,-0.0586158,0.119251,0.437393,-0.0380138,0,0,0,0,0,0,0,-0.0539758,-0.0451664,0.427927,-1.57983,-0.147171,1.53014,1.31511,-0.0336137,0.0124719,-0.0466475,-0.0139758,-0.627128,0.234723,-0.000915044,-0.0956386,-30.5034,-0.76079,25.5069,-1.9101,2.08459,-0.117081,-0.263067,-4.68964,-2.22945,1.09336,1.1477,-2.30327,-2.28439,1.20889,-2.29829,-1.8262,-1.7479,-1.16667,-0.129226,
-0.0599573,-0.0402313,0.422916,-1.59367,-0.232565,-0.0607805,0.515986,-0.111018,0.006273,-0.116478,-0.0532154,0.233599,0.465155,-0.0376629,0,0,0,0,0,0,0,-0.0539758,-0.0451664,0.427927,-1.57983,-0.147171,1.53014,1.31511,-0.0336137,0.0124719,-0.0466475,-0.0139758,-0.627128,0.234723,-0.000915044,-0.0956386,-30.5034,-0.76079,25.5069,-1.9101,2.08459,-0.117081,-0.263067,-4.68964,-2.22945,1.09336,1.1477,-2.30327,-2.28439,1.20889,-2.29829,-1.8262,-1.7479,-1.16667,-0.129226,
-0.060393,-0.0401966,0.422457,-1.59386,-0.231275,-0.0588288,0.515836,-0.108918,0.00867356,-0.11468,-0.0493995,0.322523,0.487919,-0.0374687,0,0,0,0,0,0,0,-0.0539758,-0.0451664,0.427927,-1.57983,-0.147171,1.53014,1.31511,-0.0336137,0.0124719,-0.0466475,-0.0139758,-0.627128,0.234723,-0.000915044,-0.0956386,-30.5034,-0.76079,25.5069,-1.9101,2.08459,-0.117081,-0.41765,-4.9184,-1.5059,1.46143,0.598497,-2.38148,-2.36445,0.727612,-2.38842,-1.37935,-1.72879,-1.01937,-0.127083,
-0.0608149,-0.0401538,0.422011,-1.59405,-0.229705,-0.056802,0.515687,-0.105462,0.0106952,-0.111403,-0.0468016,0.392507,0.506704,-0.0373745,0,0,0,0,0,0,0,-0.0539758,-0.0451664,0.427927,-1.57983,-0.147171,1.53014,1.31511,-0.0336137,0.0124719,-0.0466475,-0.0139758,-0.627128,0.234723,-0.000915044,-0.0956386,-30.5034,-0.76079,25.5069,-1.9101,2.08459,-0.117081,-0.760337,-4.22875,-1.63477,1.13902,0.41353,-1.94903,-1.93378,0.651932,-1.94996,-1.35184,-1.52165,-0.9421,-0.141042,
-0.0612198,-0.0401045,0.421582,-1.59423,-0.227912,-0.054713,0.515537,-0.101242,0.0123363,-0.107282,-0.0450759,0.448234,0.522241,-0.0373444,0,0,0,0,0,0,0,-0.0539758,-0.0451664,0.427927,-1.57983,-0.147171,1.53014,1.31511,-0.0336137,0.0124719,-0.0466475,-0.0139758,-0.627128,0.234723,-0.000915044,-0.0956386,-30.5034,-0.76079,25.5069,-1.9101,2.08459,-0.117081,-0.760337,-4.22875,-1.63477,1.13902,0.41353,-1.94903,-1.93378,0.651932,-1.94996,-1.35184,-1.52165,-0.9421,-0.141042,
-0.066135,-0.0311412,0.416463,-1.59301,-0.271014,-0.218625,0.512328,-0.153332,0.121092,-0.162728,-0.117374,-1.1878,-0.731146,-0.0875179,0,0,0,0,0,0,0,-0.0551742,-0.0451255,0.426178,-1.58093,-0.158733,1.5384,1.31507,-0.0537368,-0.00700355,-0.0701249,-0.0341309,-0.159414,0.302192,-0.00508376,-0.603451,-29.5274,-1.31224,25.856,0.178219,2.69524,-0.0630644,-1.04172,-4.46686,-1.96171,1.45166,0.420426,-2.0104,-1.99497,0.765879,-2.02136,-1.44978,-1.31705,-0.948579,-0.143775,
-0.0739735,-0.035346,0.406192,-1.59209,-0.225188,-0.0683978,0.519065,-0.131834,0.0740359,-0.139672,-0.068745,0.301892,-0.131102,-0.0514919,0,0,0,0,0,0,0,-0.0551742,-0.0451255,0.426178,-1.58093,-0.158733,1.5384,1.31507,-0.0537368,-0.00700355,-0.0701249,-0.0341309,-0.159414,0.302192,-0.00508376,-0.603451,-29.5274,-1.31224,25.856,0.178219,2.69524,-0.0630644,-1.04172,-4.46686,-1.96171,1.45166,0.420426,-2.0104,-1.99497,0.765879,-2.02136,-1.44978,-1.31705,-0.948579,-0.143775,
-0.0744956,-0.0350536,0.405639,-1.59237,-0.223903,-0.0689515,0.518861,-0.130509,0.073097,-0.13833,-0.0682653,0.321101,-0.138436,-0.0510192,0,0,0,0,0,0,0,-0.0551742,-0.0451255,0.426178,-1.58093,-0.158733,1.5384,1.31507,-0.0537368,-0.00700355,-0.0701249,-0.0341309,-0.159414,0.302192,-0.00508376,-0.603451,-29.5274,-1.31224,25.856,0.178219,2.69524,-0.0630644,-1.23865,-3.69826,-1.22411,1.55468,-0.155057,-1.54799,-1.52736,0.27654,-1.58106,-0.857277,-0.844916,-0.623255,-0.141741,
-0.0750129,-0.0347653,0.40509,-1.59264,-0.222537,-0.0695361,0.518659,-0.129335,0.072092,-0.13714,-0.0677648,0.341563,-0.146151,-0.0505494,0,0,0,0,0,0,0,-0.0551742,-0.0451255,0.426178,-1.58093,-0.158733,1.5384,1.31507,-0.0537368,-0.00700355,-0.0701249,-0.0341309,-0.159414,0.302192,-0.00508376,-0.603451,-29.5274,-1.31224,25.856,0.178219,2.69524,-0.0630644,-1.23865,-3.69826,-1.22411,1.55468,-0.155057,-1.54799,-1.52736,0.27654,-1.58106,-0.857277,-0.844916,-0.623255,-0.141741,
-0.0755261,-0.0344812,0.404546,-1.59291,-0.221083,-0.070153,0.518459,-0.128306,0.0710199,-0.136096,-0.0672443,0.363554,-0.15421,-0.0500848,0,0,0,0,0,0,0,-0.0551742,-0.0451255,0.426178,-1.58093,-0.158733,1.5384,1.31507,-0.0537368,-0.00700355,-0.0701249,-0.0341309,-0.159414,0.302192,-0.00508376,-0.603451,-29.5274,-1.31224,25.856,0.178219,2.69524,-0.0630644,0.243736,-0.685986,-0.211242,0.285591,0.180531,-0.250397,-0.21742,0.10321,-0.284353,-0.0670416,-0.209226,0.0298635,-0.132749,
-0.0760358,-0.0342017,0.404005,-1.59317,-0.219534,-0.0708033,0.51826,-0.127415,0.0698777,-0.135192,-0.0667054,0.387362,-0.16257,-0.0496266,0,0,0,0,0,0,0,-0.0581458,-0.0451008,0.423047,-1.58225,-0.162781,1.54423,1.31486,-0.0858011,0.0135723,-0.0880766,-0.0171261,-0.0933638,-0.0456955,-0.00130327,-0.627255,-28.73,-1.463,26.1298,0.379635,2.77489,-0.150955,0.509417,0.301847,-0.493283,-0.0811809,0.4334,0.239112,0.262256,0.264933,0.216541,-0.0146922,0.16189,0.254945,-0.136713,
-0.0765424,-0.033927,0.403468,-1.59344,-0.21788,-0.071488,0.518063,-0.126659,0.0686611,-0.134423,-0.0661503,0.413298,-0.171179,-0.0491774,0,0,0,0,0,0,0,-0.0581458,-0.0451008,0.423047,-1.58225,-0.162781,1.54423,1.31486,-0.0858011,0.0135723,-0.0880766,-0.0171261,-0.0933638,-0.0456955,-0.00130327,-0.627255,-28.73,-1.463,26.1298,0.379635,2.77489,-0.150955,0.509417,0.301847,-0.493283,-0.0811809,0.4334,0.239112,0.262256,0.264933,0.216541,-0.0146922,0.16189,0.254945,-0.136713,
-0.0770466,-0.0336576,0.402932,-1.5937,-0.216114,-0.0722078,0.517868,-0.126036,0.0673636,-0.133787,-0.0655831,0.441697,-0.179966,-0.0487378,0,0,0,0,0,0,0,-0.0581458,-0.0451008,0.423047,-1.58225,-0.162781,1.54423,1.31486,-0.0858011,0.0135723,-0.0880766,-0.0171261,-0.0933638,-0.0456955,-0.00130327,-0.627255,-28.73,-1.463,26.1298,0.379635,2.77489,-0.150955,0.571434,0.805885,-0.957948,-0.445925,0.885237,0.46641,0.492502,0.68377,0.450905,-0.376401,0.320365,0.0955533,-0.145397,
-0.0775487,-0.0333937,0.402399,-1.59396,-0.214222,-0.0729632,0.517675,-0.125543,0.0659776,-0.133282,-0.0650109,0.472918,-0.18883,-0.0483095,0,0,0,0,0,0,0,-0.0581458,-0.0451008,0.423047,-1.58225,-0.162781,1.54423,1.31486,-0.0858011,0.0135723,-0.0880766,-0.0171261,-0.0933638,-0.0456955,-0.00130327,-0.627255,-28.73,-1.463,26.1298,0.379635,2.77489,-0.150955,0.571434,0.805885,-0.957948,-0.445925,0.885237,0.46641,0.492502,0.68377,0.450905,-0.376401,0.320365,0.0955533,-0.145397,
-0.0780495,-0.0331357,0.401868,-1.59422,-0.212192,-0.0737537,0.517484,-0.125182,0.0644938,-0.132909,-0.064444,0.507347,-0.197629,-0.0478988,0,0,0,0,0,0,0,-0.0581458,-0.0451008,0.423047,-1.58225,-0.162781,1.54423,1.31486,-0.0858011,0.0135723,-0.0880766,-0.0171261,-0.0933638,-0.0456955,-0.00130327,-0.627255,-28.73,-1.463,26.1298,0.379635,2.77489,-0.150955,0.842832,2.04461,-1.57423,-1.17546,1.52794,1.03798,1.07159,1.21572,1.03091,-0.733038,0.663563,0.0459766,-0.149494,
-0.0785493,-0.0328841,0.401337,-1.59447,-0.210011,-0.0745783,0.517294,-0.124952,0.0629015,-0.132668,-0.0638992,0.545394,-0.206153,-0.0475074,0,0,0,0,0,0,0,-0.0581458,-0.0451008,0.423047,-1.58225,-0.162781,1.54423,1.31486,-0.0858011,0.0135723,-0.0880766,-0.0171261,-0.0933638,-0.0456955,-0.00130327,-0.627255,-28.73,-1.463,26.1298,0.379635,2.77489,-0.150955,-0.230619,3.6821,-2.43602,-1.95986,1.2695,2.09216,2.12156,1.29905,2.09903,-0.972337,1.27262,0.108386,-0.150459,
-0.0790487,-0.0326393,0.400807,-1.59473,-0.207661,-0.0754347,0.517105,-0.124854,0.0611891,-0.132559,-0.0634015,0.587476,-0.214094,-0.0471427,0,0,0,0,0,0,0,-0.0615235,-0.0452532,0.41931,-1.58265,-0.163885,1.54185,1.31482,-0.122389,0.00190497,-0.134831,0.000954031,-0.0315266,-0.113813,-3.24989e-07,0.562931,-27.9326,-0.288683,25.1855,1.28326,2.36382,-0.157364,-0.230619,3.6821,-2.43602,-1.95986,1.2695,2.09216,2.12156,1.29905,2.09903,-0.972337,1.27262,0.108386,-0.150459,
-0.0795482,-0.032402,0.400276,-1.59498,-0.205125,-0.0763187,0.516918,-0.124887,0.0593439,-0.132581,-0.0629889,0.633992,-0.221008,-0.0468113,0,0,0,0,0,0,0,-0.0615235,-0.0452532,0.41931,-1.58265,-0.163885,1.54185,1.31482,-0.122389,0.00190497,-0.134831,0.000954031,-0.0315266,-0.113813,-3.24989e-07,0.562931,-27.9326,-0.288683,25.1855,1.28326,2.36382,-0.157364,-0.188353,3.39527,-2.60076,-1.71033,1.51433,1.92106,1.95424,1.53811,1.91844,-1.14852,1.37669,-0.0155109,-0.150497,
-0.0800484,-0.0321725,0.399745,-1.59523,-0.202384,-0.0772237,0.516732,-0.12504,0.0573542,-0.132725,-0.0627165,0.685269,-0.226248,-0.0465258,0,0,0,0,0,0,0,-0.0615235,-0.0452532,0.41931,-1.58265,-0.163885,1.54185,1.31482,-0.122389,0.00190497,-0.134831,0.000954031,-0.0315266,-0.113813,-3.24989e-07,0.562931,-27.9326,-0.288683,25.1855,1.28326,2.36382,-0.157364,-0.188353,3.39527,-2.60076,-1.71033,1.51433,1.92106,1.95424,1.53811,1.91844,-1.14852,1.37669,-0.0155109,-0.150497,
-0.0805496,-0.0319517,0.399214,-1.59548,-0.199418,-0.0781392,0.516546,-0.125291,0.0552108,-0.132967,-0.0626629,0.741452,-0.228893,-0.046305,0,0,0,0,0,0,0,-0.0615235,-0.0452532,0.41931,-1.58265,-0.163885,1.54185,1.31482,-0.122389,0.00190497,-0.134831,0.000954031,-0.0315266,-0.113813,-3.24989e-07,0.562931,-27.9326,-0.288683,25.1855,1.28326,2.36382,-0.157364,-1.43717,2.70661,-1.68994,-1.16773,0.290196,1.7767,1.80766,0.750532,1.76021,-0.800268,1.2908,-0.153298,-0.150858,
-0.0810519,-0.0317401,0.398681,-1.59573,-0.196209,-0.0790498,0.516362,-0.125582,0.0529117,-0.133253,-0.0629367,0.802303,-0.22765,-0.0461703,0,0,0,0,0,0,0,-0.0615235,-0.0452532,0.41931,-1.58265,-0.163885,1.54185,1.31482,-0.122389,0.00190497,-0.134831,0.000954031,-0.0315266,-0.113813,-3.24989e-07,0.562931,-27.9326,-0.288683,25.1855,1.28326,2.36382,-0.157364,-1.43717,2.70661,-1.68994,-1.16773,0.290196,1.7767,1.80766,0.750532,1.76021,-0.800268,1.2908,-0.153298,-0.150858,
-0.0815551,-0.0315382,0.398147,-1.59599,-0.192742,-0.0799329,0.516177,-0.125798,0.0504713,-0.13347,-0.0636793,0.866839,-0.220759,-0.0461635,0,0,0,0,0,0,0,-0.0653464,-0.0451819,0.414542,-1.58295,-0.161976,1.53875,1.31479,-0.136552,0.00369047,-0.1697,-0.0158421,0.132769,-0.0935579,-0.000323355,0.840641,-28.9562,0.112013,25.4831,1.18621,2.21734,-0.150955,-0.775859,3.13693,-1.30567,-1.48351,0.680005,1.84739,1.87792,0.907948,1.83927,-0.801842,1.25419,-0.230999,-0.153057,
-0.0820537,-0.0313447,0.397617,-1.59625,-0.189055,-0.080759,0.515992,-0.124658,0.0483663,-0.13242,-0.0647602,0.921574,-0.20652,-0.0462532,0,0,0,0,0,0,0,-0.0653464,-0.0451819,0.414542,-1.58295,-0.161976,1.53875,1.31479,-0.136552,0.00369047,-0.1697,-0.0158421,0.132769,-0.0935579,-0.000323355,0.840641,-28.9562,0.112013,25.4831,1.18621,2.21734,-0.150955,-1.0106,3.23938,-1.43299,-1.64032,0.703967,1.92078,1.94995,1.00069,1.92005,-0.992105,1.24361,-0.3919,-0.157537,
-0.0825421,-0.0311591,0.397097,-1.59651,-0.185203,-0.0814855,0.515805,-0.122087,0.0464081,-0.129936,-0.0666918,0.963163,-0.181633,-0.0466448,0,0,0,0,0,0,0,-0.0653464,-0.0451819,0.414542,-1.58295,-0.161976,1.53875,1.31479,-0.136552,0.00369047,-0.1697,-0.0158421,0.132769,-0.0935579,-0.000323355,0.840641,-28.9562,0.112013,25.4831,1.18621,2.21734,-0.150955,-1.0106,3.23938,-1.43299,-1.64032,0.703967,1.92078,1.94995,1.00069,1.92005,-0.992105,1.24361,-0.3919,-0.157537,
-0.0830164,-0.030982,0.396591,-1.59679,-0.181223,-0.0820545,0.515615,-0.118579,0.0442743,-0.12645,-0.069954,0.994962,-0.142261,-0.0475609,0,0,0,0,0,0,0,-0.0653464,-0.0451819,0.414542,-1.58295,-0.161976,1.53875,1.31479,-0.136552,0.00369047,-0.1697,-0.0158421,0.132769,-0.0935579,-0.000323355,0.840641,-28.9562,0.112013,25.4831,1.18621,2.21734,-0.150955,-1.59435,2.98979,-1.58036,-1.50026,0.483338,1.87845,1.90109,0.977292,1.88163,-1.14447,1.26859,-0.551632,-0.157351,
-0.0834738,-0.0308143,0.396103,-1.59709,-0.177146,-0.0823947,0.515418,-0.114354,0.0419278,-0.122175,-0.0746257,1.0192,-0.085037,-0.0492021,0,0,0,0,0,0,0,-0.0653464,-0.0451819,0.414542,-1.58295,-0.161976,1.53875,1.31479,-0.136552,0.00369047,-0.1697,-0.0158421,0.132769,-0.0935579,-0.000323355,0.840641,-28.9562,0.112013,25.4831,1.18621,2.21734,-0.150955,-1.59435,2.98979,-1.58036,-1.50026,0.483338,1.87845,1.90109,0.977292,1.88163,-1.14447,1.26859,-0.551632,-0.157351,
-0.0839083,-0.0306546,0.395637,-1.59741,-0.173031,-0.0824281,0.515213,-0.108619,0.0399179,-0.116367,-0.0800768,1.02886,-0.00835195,-0.0512427,0,0,0,0,0,0,0,-0.0653464,-0.0451819,0.414542,-1.58295,-0.161976,1.53875,1.31479,-0.136552,0.00369047,-0.1697,-0.0158421,0.132769,-0.0935579,-0.000323355,0.840641,-28.9562,0.112013,25.4831,1.18621,2.21734,-0.150955,-1.15119,2.26985,-1.26406,-1.04163,0.686357,1.41797,1.4415,1.04716,1.41123,-1.09953,1.14292,-0.619154,-0.156494,
-0.0842956,-0.0304921,0.395218,-1.59775,-0.169121,-0.0820919,0.515034,-0.096823,0.0406262,-0.104709,-0.0836002,0.977493,0.0840364,-0.0447708,0,0,0,0,0,0,0,-0.0700236,-0.0451612,0.408803,-1.58336,-0.153474,1.53648,1.31475,-0.151798,3.92547e-05,-0.17807,-0.0205803,0.410106,-0.0531151,-0.00153425,0.765262,-29.0791,0.112013,26.0822,0.63049,2.43615,-0.110672,-0.297931,0.288823,-0.460008,0.179067,0.866749,0.247586,0.275878,0.983707,0.211846,-0.845363,0.73459,-0.672314,-0.156714,
