PerkyPenguin/Analysis-on-Approximated-Derivatives/Code_and_Data/PaperData/Real_Robot/Scene_2/contact_change/4/trajectory.csv
Commanded Joint 0 Position,Commanded Joint 1 Position,Commanded Joint 2 Position,Commanded Joint 3 Position,Commanded Joint 4 Position,Commanded Joint 5 Position,Commanded Joint 6 Position,Commanded Joint 0 Velocity,Commanded Joint 1 Velocity,Commanded Joint 2 Velocity,Commanded Joint 3 Velocity,Commanded Joint 4 Velocity,Commanded Joint 5 Velocity,Commanded Joint 6 Velocity,Commanded Joint 0 Torque,Commanded Joint 1 Torque,Commanded Joint 2 Torque,Commanded Joint 3 Torque,Commanded Joint 4 Torque,Commanded Joint 5 Torque,Commanded Joint 6 Torque,Actual Joint 0 Position,Actual Joint 1 Position,Actual Joint 2 Position,Actual Joint 3 Position,Actual Joint 4 Position,Actual Joint 5 Position,Actual Joint 6 Position,Actual Joint 0 Velocity,Actual Joint 1 Velocity,Actual Joint 2 Velocity,Actual Joint 3 Velocity,Actual Joint 4 Velocity,Actual Joint 5 Velocity,Actual Joint 6 Velocity,Actual Joint 0 Torque,Actual Joint 1 Torque,Actual Joint 2 Torque,Actual Joint 3 Torque,Actual Joint 4 Torque,Actual Joint 5 Torque,Actual Joint 6 Torque,EE ext force 0,EE ext force 1,EE ext force 2,EE ext force 3,EE ext force 4,EE ext force 5,joint ext torque 0,joint ext torque 1,joint ext torque 2,joint ext torque 3,joint ext torque 4,joint ext torque 5,joint ext torque 6,
0.0212336,-0.0511046,0.513454,-1.56495,0.0368852,-0.0124077,0.532815,0.0110004,0.0315325,0.0150979,-0.144312,-0.0728573,0.200479,-0.00125889,0,0,0,0,0,0,0,0.021153,-0.0512589,0.513341,-1.5635,0.0374398,1.5564,1.31823,0.000323069,-0.00083375,-3.60656e-05,0.000845866,-0.00550645,-0.000117503,-2.70075e-06,0.182071,-27.4843,-0.736986,26.9788,1.15509,3.06603,0.0907442,2.07874,1.91595,2.25215,-0.895887,1.10229,0.209429,0.219504,0.415135,0.212351,0.249388,0.21033,-0.325926,0.0922859,
0.0212913,-0.0508973,0.513531,-1.56557,0.0365208,-0.0115716,0.53281,0.0144433,0.0518187,0.0192747,-0.155102,-0.0910877,0.209015,-0.00134759,0,0,0,0,0,0,0,0.021153,-0.0512589,0.513341,-1.5635,0.0374398,1.5564,1.31823,0.000323069,-0.00083375,-3.60656e-05,0.000845866,-0.00550645,-0.000117503,-2.70075e-06,0.182071,-27.4843,-0.736986,26.9788,1.15509,3.06603,0.0907442,2.07874,1.91595,2.25215,-0.895887,1.10229,0.209429,0.219504,0.415135,0.212351,0.249388,0.21033,-0.325926,0.0922859,
0.0211516,-0.0512714,0.51334,-1.5635,0.0373913,-0.014391,0.532828,-0.000130263,-0.000668395,-7.73672e-05,0.000308273,-0.00210285,0.000316401,-1.01703e-06,0,0,0,0,0,0,0,0.021153,-0.0512589,0.513341,-1.5635,0.0374398,1.5564,1.31823,0.000323069,-0.00083375,-3.60656e-05,0.000845866,-0.00550645,-0.000117503,-2.70075e-06,0.182071,-27.4843,-0.736986,26.9788,1.15509,3.06603,0.0907442,2.29844,1.99727,2.20617,-0.978033,1.2837,0.18307,0.192253,0.524519,0.18951,0.204422,0.20067,-0.329335,0.0933246,
0.0211511,-0.0512738,0.51334,-1.56349,0.0373844,-0.0143898,0.532828,-0.000136581,-0.000601291,-7.72496e-05,0.000285172,-0.00172008,0.000293071,4.14205e-07,0,0,0,0,0,0,0,0.021153,-0.0512589,0.513341,-1.5635,0.0374398,1.5564,1.31823,0.000323069,-0.00083375,-3.60656e-05,0.000845866,-0.00550645,-0.000117503,-2.70075e-06,0.182071,-27.4843,-0.736986,26.9788,1.15509,3.06603,0.0907442,2.29844,1.99727,2.20617,-0.978033,1.2837,0.18307,0.192253,0.524519,0.18951,0.204422,0.20067,-0.329335,0.0933246,
0.0211505,-0.051276,0.51334,-1.56349,0.0373787,-0.0143888,0.532828,-0.000136585,-0.000545311,-7.12677e-05,0.00026373,-0.00142153,0.000263891,1.25791e-06,0,0,0,0,0,0,0,0.021153,-0.0512589,0.513341,-1.5635,0.0374398,1.5564,1.31823,0.000323069,-0.00083375,-3.60656e-05,0.000845866,-0.00550645,-0.000117503,-2.70075e-06,0.182071,-27.4843,-0.736986,26.9788,1.15509,3.06603,0.0907442,2.10596,1.78544,2.38343,-0.759932,1.03441,0.14194,0.149457,0.336304,0.142727,0.338578,0.195654,-0.289596,0.0916141,
0.02115,-0.051278,0.513339,-1.56349,0.037374,-0.0143879,0.532828,-0.000132679,-0.000499169,-6.1862e-05,0.000243479,-0.00118622,0.000230836,1.76961e-06,0,0,0,0,0,0,0,0.021153,-0.0512589,0.513341,-1.5635,0.0374398,1.5564,1.31823,0.000323069,-0.00083375,-3.60656e-05,0.000845866,-0.00550645,-0.000117503,-2.70075e-06,0.182071,-27.4843,-0.736986,26.9788,1.15509,3.06603,0.0907442,2.10596,1.78544,2.38343,-0.759932,1.03441,0.14194,0.149457,0.336304,0.142727,0.338578,0.195654,-0.289596,0.0916141,
0.0211495,-0.0512798,0.513339,-1.56349,0.03737,-0.0143871,0.532828,-0.000126423,-0.000461363,-5.06004e-05,0.000224536,-0.000999005,0.000195139,2.07754e-06,0,0,0,0,0,0,0,0.0211578,-0.0513495,0.513342,-1.56382,0.0374524,1.55673,1.31823,0.00181667,-0.0147344,0.000686861,-0.0341204,-0.00620577,0.0374826,0.000165374,0.158268,-26.3616,-0.685411,25.1102,0.911556,2.92046,0.0843355,1.30186,1.34404,1.69927,-0.592956,0.688859,0.166256,0.169876,0.257978,0.169873,0.170104,0.193176,-0.292916,0.0919486,
0.021149,-0.0512816,0.513339,-1.56349,0.0373666,-0.0143864,0.532828,-0.000118859,-0.000430515,-3.85075e-05,0.000207056,-0.000848733,0.000157808,2.25552e-06,0,0,0,0,0,0,0,0.0211578,-0.0513495,0.513342,-1.56382,0.0374524,1.55673,1.31823,0.00181667,-0.0147344,0.000686861,-0.0341204,-0.00620577,0.0374826,0.000165374,0.158268,-26.3616,-0.685411,25.1102,0.911556,2.92046,0.0843355,1.39461,1.74523,1.21399,-1.00099,0.940397,0.321409,0.322173,0.484328,0.341237,-0.0321469,0.201438,-0.28596,0.0929569,
0.0216702,-0.0513783,0.51385,-1.56305,0.0235277,-0.0227154,0.532784,0.00574386,-0.00599232,0.00588439,0.00222839,-0.370976,-0.231108,-0.00105302,0,0,0,0,0,0,0,0.0211578,-0.0513495,0.513342,-1.56382,0.0374524,1.55673,1.31823,0.00181667,-0.0147344,0.000686861,-0.0341204,-0.00620577,0.0374826,0.000165374,0.158268,-26.3616,-0.685411,25.1102,0.911556,2.92046,0.0843355,1.39461,1.74523,1.21399,-1.00099,0.940397,0.321409,0.322173,0.484328,0.341237,-0.0321469,0.201438,-0.28596,0.0929569,
0.0217186,-0.0514479,0.513903,-1.5635,0.0241902,-0.0219301,0.532789,0.0058652,-0.00552707,0.00606464,0.00176657,-0.350572,-0.220625,-0.000964579,0,0,0,0,0,0,0,0.0211578,-0.0513495,0.513342,-1.56382,0.0374524,1.55673,1.31823,0.00181667,-0.0147344,0.000686861,-0.0341204,-0.00620577,0.0374826,0.000165374,0.158268,-26.3616,-0.685411,25.1102,0.911556,2.92046,0.0843355,2.1992,1.99994,1.39101,-1.13661,1.4479,0.210376,0.214462,0.724974,0.229504,-0.016099,0.196478,-0.250574,0.0930183,
0.0217378,-0.0514692,0.513923,-1.56349,0.0227744,-0.0228249,0.532785,0.00480581,-0.00532047,0.00500194,0.00121121,-0.353964,-0.223713,-0.000942112,0,0,0,0,0,0,0,0.0211578,-0.0513495,0.513342,-1.56382,0.0374524,1.55673,1.31823,0.00181667,-0.0147344,0.000686861,-0.0341204,-0.00620577,0.0374826,0.000165374,0.158268,-26.3616,-0.685411,25.1102,0.911556,2.92046,0.0843355,2.1992,1.99994,1.39101,-1.13661,1.4479,0.210376,0.214462,0.724974,0.229504,-0.016099,0.196478,-0.250574,0.0930183,
0.0217531,-0.0514894,0.51394,-1.56349,0.0213485,-0.0237291,0.532782,0.00382782,-0.00504648,0.00401981,0.00072549,-0.356473,-0.22604,-0.000920309,0,0,0,0,0,0,0,0.0211751,-0.051311,0.513364,-1.56396,0.0370903,1.55694,1.31823,0.000929099,-0.00132362,0.00359921,0.00272458,-0.0599491,-0.00824688,0.00196837,-0.119442,-27.881,-0.986925,27.1255,0.349423,3.16582,0.0440523,2.36354,1.87943,1.77092,-0.943905,1.40485,0.109173,0.107587,0.623805,0.126327,0.143081,0.194503,-0.224824,0.0925632,
0.0217648,-0.0515083,0.513952,-1.56349,0.0199154,-0.02464,0.532778,0.00292953,-0.00472764,0.00311695,0.000299326,-0.358256,-0.227734,-0.000899367,0,0,0,0,0,0,0,0.0211751,-0.051311,0.513364,-1.56396,0.0370903,1.55694,1.31823,0.000929099,-0.00132362,0.00359921,0.00272458,-0.0599491,-0.00824688,0.00196837,-0.119442,-27.881,-0.986925,27.1255,0.349423,3.16582,0.0440523,2.09232,2.37655,1.63188,-1.35435,1.27215,0.410582,0.399197,0.586444,0.449174,0.0772503,0.205155,-0.243004,0.0934016,
0.0217733,-0.0515258,0.513961,-1.56349,0.0184777,-0.0255556,0.532774,0.00210765,-0.00438144,0.00229034,-7.53625e-05,-0.359439,-0.228904,-0.000879376,0,0,0,0,0,0,0,0.0211751,-0.051311,0.513364,-1.56396,0.0370903,1.55694,1.31823,0.000929099,-0.00132362,0.00359921,0.00272458,-0.0599491,-0.00824688,0.00196837,-0.119442,-27.881,-0.986925,27.1255,0.349423,3.16582,0.0440523,2.09232,2.37655,1.63188,-1.35435,1.27215,0.410582,0.399197,0.586444,0.449174,0.0772503,0.205155,-0.243004,0.0934016,
0.0221994,-0.0514861,0.514305,-1.56217,-0.00406803,-0.0555136,0.532304,0.00287555,-0.010351,0.00194463,0.00102523,-1.1348,-1.13708,-0.0108684,0,0,0,0,0,0,0,0.0211751,-0.051311,0.513364,-1.56396,0.0370903,1.55694,1.31823,0.000929099,-0.00132362,0.00359921,0.00272458,-0.0599491,-0.00824688,0.00196837,-0.119442,-27.881,-0.986925,27.1255,0.349423,3.16582,0.0440523,1.36535,2.322,1.82822,-1.35308,0.606981,0.586107,0.562842,0.16353,0.637041,0.214368,0.111348,-0.251156,0.0933387,
0.0221685,-0.0514851,0.514282,-1.56235,-0.00519169,-0.0515785,0.532365,0.00331702,-0.0101955,0.00252105,0.00110506,-1.14176,-1.03054,-0.0096531,0,0,0,0,0,0,0,0.0211751,-0.051311,0.513364,-1.56396,0.0370903,1.55694,1.31823,0.000929099,-0.00132362,0.00359921,0.00272458,-0.0599491,-0.00824688,0.00196837,-0.119442,-27.881,-0.986925,27.1255,0.349423,3.16582,0.0440523,1.36535,2.322,1.82822,-1.35308,0.606981,0.586107,0.562842,0.16353,0.637041,0.214368,0.111348,-0.251156,0.0933387,
0.0221694,-0.0515185,0.51428,-1.56236,-0.00982498,-0.055744,0.532327,0.00022978,-0.00835572,-0.000533663,-0.00215885,-1.15832,-1.04137,-0.00951667,0,0,0,0,0,0,0,0.0213186,-0.0513523,0.513463,-1.56393,0.0323619,1.5568,1.31823,0.00403103,-0.00382112,-4.05088e-05,0.00118398,-0.189776,-0.0265367,0.000107045,-0.500302,-27.3811,-1.41142,26.9272,0.312802,2.96715,0.0779268,1.58312,1.85351,1.8401,-1.16423,0.754981,0.305799,0.279935,0.238221,0.35775,0.142924,-0.0409491,-0.326043,0.0927745,
0.0221588,-0.0515441,0.514266,-1.56238,-0.0145135,-0.0599384,0.53229,-0.00264043,-0.00638535,-0.00337881,-0.00500508,-1.17213,-1.0486,-0.00938103,0,0,0,0,0,0,0,0.0213186,-0.0513523,0.513463,-1.56393,0.0323619,1.5568,1.31823,0.00403103,-0.00382112,-4.05088e-05,0.00118398,-0.189776,-0.0265367,0.000107045,-0.500302,-27.3811,-1.41142,26.9272,0.312802,2.96715,0.0779268,2.11975,2.65937,2.21835,-1.65696,0.958728,0.517643,0.492586,0.268688,0.580383,0.263993,-0.0466446,-0.263523,0.0942155,
0.0221376,-0.0515615,0.514242,-1.56241,-0.0192482,-0.0641497,0.532253,-0.00529656,-0.00436068,-0.00601606,-0.00748486,-1.18368,-1.05283,-0.00924677,0,0,0,0,0,0,0,0.0213186,-0.0513523,0.513463,-1.56393,0.0323619,1.5568,1.31823,0.00403103,-0.00382112,-4.05088e-05,0.00118398,-0.189776,-0.0265367,0.000107045,-0.500302,-27.3811,-1.41142,26.9272,0.312802,2.96715,0.0779268,2.11975,2.65937,2.21835,-1.65696,0.958728,0.517643,0.492586,0.268688,0.580383,0.263993,-0.0466446,-0.263523,0.0942155,
0.0221067,-0.0515709,0.514209,-1.56245,-0.0240217,-0.068368,0.532216,-0.00774558,-0.00233855,-0.00845142,-0.00964182,-1.19336,-1.05458,-0.00911423,0,0,0,0,0,0,0,0.0213186,-0.0513523,0.513463,-1.56393,0.0323619,1.5568,1.31823,0.00403103,-0.00382112,-4.05088e-05,0.00118398,-0.189776,-0.0265367,0.000107045,-0.500302,-27.3811,-1.41142,26.9272,0.312802,2.96715,0.0779268,3.65267,3.60393,2.65955,-2.32677,1.88838,0.498707,0.47326,0.696109,0.579985,0.266274,-0.130982,-0.243064,0.103497,
0.0163899,-0.0502574,0.508131,-1.56583,0.00191693,-0.0564868,0.528189,-0.163201,0.0532576,-0.172668,-0.0829854,-1.03615,-1.22286,-0.091434,0,0,0,0,0,0,0,0.0213186,-0.0513523,0.513463,-1.56393,0.0323619,1.5568,1.31823,0.00403103,-0.00382112,-4.05088e-05,0.00118398,-0.189776,-0.0265367,0.000107045,-0.500302,-27.3811,-1.41142,26.9272,0.312802,2.96715,0.0779268,3.65267,3.60393,2.65955,-2.32677,1.88838,0.498707,0.47326,0.696109,0.579985,0.266274,-0.130982,-0.243064,0.103497,
0.0166096,-0.0504486,0.508341,-1.56553,-0.00508338,-0.0570876,0.528684,-0.158171,0.0484024,-0.166953,-0.074786,-1.053,-1.22708,-0.0808197,0,0,0,0,0,0,0,0.0213186,-0.0513523,0.513463,-1.56393,0.0323619,1.5568,1.31823,0.00403103,-0.00382112,-4.05088e-05,0.00118398,-0.189776,-0.0265367,0.000107045,-0.500302,-27.3811,-1.41142,26.9272,0.312802,2.96715,0.0779268,2.80274,2.45247,3.068,-1.91376,1.22775,0.190987,0.158197,0.317679,0.278212,0.150384,-0.539975,-0.642466,0.105164,
0.0159506,-0.050231,0.507647,-1.56584,-0.00939905,-0.0620881,0.528365,-0.164763,0.0544103,-0.173531,-0.0792478,-1.07892,-1.25011,-0.0797689,0,0,0,0,0,0,0,0.0220154,-0.0513957,0.514106,-1.56304,0.0139059,1.54838,1.31822,0.0296926,-0.00533599,0.0265565,0.0344853,-0.70211,-0.32584,0.000114193,-1.41278,-27.9802,-2.08586,25.4593,-1.48255,1.30913,0.0706026,2.80274,2.45247,3.068,-1.91376,1.22775,0.190987,0.158197,0.317679,0.278212,0.150384,-0.539975,-0.642466,0.105164,
0.0152679,-0.0499905,0.50693,-1.56617,-0.013806,-0.0671648,0.52805,-0.170679,0.0601139,-0.179434,-0.0831545,-1.10173,-1.26919,-0.0787266,0,0,0,0,0,0,0,0.0220154,-0.0513957,0.514106,-1.56304,0.0139059,1.54838,1.31822,0.0296926,-0.00533599,0.0265565,0.0344853,-0.70211,-0.32584,0.000114193,-1.41278,-27.9802,-2.08586,25.4593,-1.48255,1.30913,0.0706026,2.67306,2.3533,3.29546,-2.20258,1.09518,0.170064,0.137738,0.236136,0.273481,-0.00507466,-0.873043,-0.900374,0.0977673,
0.0145639,-0.0497286,0.506191,-1.56652,-0.0182933,-0.0723047,0.527739,-0.175982,0.0654773,-0.184728,-0.0865572,-1.12184,-1.28496,-0.0776915,0,0,0,0,0,0,0,0.0220154,-0.0513957,0.514106,-1.56304,0.0139059,1.54838,1.31822,0.0296926,-0.00533599,0.0265565,0.0344853,-0.70211,-0.32584,0.000114193,-1.41278,-27.9802,-2.08586,25.4593,-1.48255,1.30913,0.0706026,1.71831,2.54216,3.93804,-2.19813,0.178337,0.540305,0.525615,-0.363503,0.624205,0.277103,-0.850905,-0.942091,0.0767493,
0.013841,-0.0494467,0.505433,-1.56688,-0.0228516,-0.0774965,0.527432,-0.180728,0.0704798,-0.189469,-0.0895028,-1.13956,-1.29796,-0.0766622,0,0,0,0,0,0,0,0.0220154,-0.0513957,0.514106,-1.56304,0.0139059,1.54838,1.31822,0.0296926,-0.00533599,0.0265565,0.0344853,-0.70211,-0.32584,0.000114193,-1.41278,-27.9802,-2.08586,25.4593,-1.48255,1.30913,0.0706026,1.71831,2.54216,3.93804,-2.19813,0.178337,0.540305,0.525615,-0.363503,0.624205,0.277103,-0.850905,-0.942091,0.0767493,
0.0131011,-0.0491463,0.504658,-1.56725,-0.0274723,-0.082731,0.52713,-0.184968,0.0751131,-0.193707,-0.0920343,-1.15519,-1.30863,-0.0756377,0,0,0,0,0,0,0,0.0220154,-0.0513957,0.514106,-1.56304,0.0139059,1.54838,1.31822,0.0296926,-0.00533599,0.0265565,0.0344853,-0.70211,-0.32584,0.000114193,-1.41278,-27.9802,-2.08586,25.4593,-1.48255,1.30913,0.0706026,1.36947,1.96142,4.33147,-1.71427,-0.0622306,0.391247,0.398743,-0.49396,0.43956,0.311997,-0.80615,-1.1142,0.0497763,
0.0112383,-0.0495426,0.502784,-1.56895,0.00137107,-0.0552452,0.524751,-0.311873,0.101409,-0.325361,-0.153004,-0.959185,-1.1942,-0.157538,0,0,0,0,0,0,0,0.0222289,-0.0516467,0.51425,-1.56288,-0.00874944,1.53446,1.31738,-0.000249255,-0.00763993,-0.000960486,0.0026562,-0.717534,-0.491822,-0.0398862,-3.62256,-25.461,-4.71221,25.3085,-1.02478,1.09673,-0.083206,1.36947,1.96142,4.33147,-1.71427,-0.0622306,0.391247,0.398743,-0.49396,0.43956,0.311997,-0.80615,-1.1142,0.0497763,
0.0117853,-0.049873,0.503279,-1.56818,-0.0479353,-0.084595,0.524846,-0.310734,0.102712,-0.32308,-0.14543,-1.00887,-1.22917,-0.137273,0,0,0,0,0,0,0,0.0222289,-0.0516467,0.51425,-1.56288,-0.00874944,1.53446,1.31738,-0.000249255,-0.00763993,-0.000960486,0.0026562,-0.717534,-0.491822,-0.0398862,-3.62256,-25.461,-4.71221,25.3085,-1.02478,1.09673,-0.083206,3.62299,0.605776,3.95982,-1.06227,1.87944,-0.854847,-0.831239,0.692705,-0.832056,-0.213493,-1.00981,-1.35131,0.0262247,
0.0105074,-0.049426,0.501952,-1.56877,-0.0520828,-0.0895747,0.524305,-0.319487,0.11176,-0.331868,-0.149227,-1.03688,-1.24494,-0.135316,0,0,0,0,0,0,0,0.0222289,-0.0516467,0.51425,-1.56288,-0.00874944,1.53446,1.31738,-0.000249255,-0.00763993,-0.000960486,0.0026562,-0.717534,-0.491822,-0.0398862,-3.62256,-25.461,-4.71221,25.3085,-1.02478,1.09673,-0.083206,4.33036,-0.396717,3.81711,-0.504546,2.47295,-1.50155,-1.48102,1.0456,-1.48689,-0.380473,-1.15409,-1.4452,0.00602092,
0.00919855,-0.0489459,0.500593,-1.56938,-0.0563323,-0.0946068,0.523771,-0.327207,0.120032,-0.339617,-0.152511,-1.06238,-1.25802,-0.133376,0,0,0,0,0,0,0,0.0222289,-0.0516467,0.51425,-1.56288,-0.00874944,1.53446,1.31738,-0.000249255,-0.00763993,-0.000960486,0.0026562,-0.717534,-0.491822,-0.0398862,-3.62256,-25.461,-4.71221,25.3085,-1.02478,1.09673,-0.083206,4.33036,-0.396717,3.81711,-0.504546,2.47295,-1.50155,-1.48102,1.0456,-1.48689,-0.380473,-1.15409,-1.4452,0.00602092,
0.00786251,-0.0484356,0.499208,-1.57001,-0.0606744,-0.0996821,0.523246,-0.33401,0.127565,-0.346448,-0.155313,-1.08551,-1.26882,-0.131448,0,0,0,0,0,0,0,0.0222289,-0.0516467,0.51425,-1.56288,-0.00874944,1.53446,1.31738,-0.000249255,-0.00763993,-0.000960486,0.0026562,-0.717534,-0.491822,-0.0398862,-3.62256,-25.461,-4.71221,25.3085,-1.02478,1.09673,-0.083206,1.86104,0.274662,3.06145,-1.06099,1.10317,-0.478809,-0.464688,0.505362,-0.441829,-0.573352,-0.926313,-1.54848,-0.0219501,
0.00650252,-0.047898,0.497798,-1.57064,-0.0651,-0.104793,0.522727,-0.339996,0.134396,-0.352461,-0.15767,-1.10641,-1.27772,-0.12953,0,0,0,0,0,0,0,0.0222289,-0.0516467,0.51425,-1.56288,-0.00874944,1.53446,1.31738,-0.000249255,-0.00763993,-0.000960486,0.0026562,-0.717534,-0.491822,-0.0398862,-3.62256,-25.461,-4.71221,25.3085,-1.02478,1.09673,-0.083206,1.86104,0.274662,3.06145,-1.06099,1.10317,-0.478809,-0.464688,0.505362,-0.441829,-0.573352,-0.926313,-1.54848,-0.0219501,
0.00512152,-0.0473357,0.496367,-1.57127,-0.0696009,-0.109933,0.522217,-0.345251,0.140566,-0.357743,-0.159617,-1.12524,-1.28499,-0.127621,0,0,0,0,0,0,0,0.0222317,-0.0519064,0.51421,-1.56289,-0.022994,1.52391,1.31666,-0.00572738,-0.0139448,-0.0124759,-0.00121972,-0.703473,-0.531764,-0.0363291,-5.03888,-25.0881,-6.06108,24.3365,-0.224613,1.35583,-0.00996382,0.185975,0.120432,2.99515,-0.883384,0.00299726,-0.0575326,-0.0500607,-0.0404966,-0.0208943,-0.512877,-0.784779,-1.62317,-0.0541662,
0.00677762,-0.0489904,0.498196,-1.57116,-0.0421152,-0.0827079,0.521125,-0.453268,0.152712,-0.467986,-0.213041,-0.925317,-1.19472,-0.209685,0,0,0,0,0,0,0,0.0222317,-0.0519064,0.51421,-1.56289,-0.022994,1.52391,1.31666,-0.00572738,-0.0139448,-0.0124759,-0.00121972,-0.703473,-0.531764,-0.0363291,-5.03888,-25.0881,-6.06108,24.3365,-0.224613,1.35583,-0.00996382,0.185975,0.120432,2.99515,-0.883384,0.00299726,-0.0575326,-0.0500607,-0.0404966,-0.0208943,-0.512877,-0.784779,-1.62317,-0.0541662,
0.00736883,-0.0495632,0.498811,-1.57017,-0.0572252,-0.0942018,0.521822,-0.433448,0.138618,-0.446658,-0.188179,-0.937204,-1.20141,-0.180134,0,0,0,0,0,0,0,0.0222317,-0.0519064,0.51421,-1.56289,-0.022994,1.52391,1.31666,-0.00572738,-0.0139448,-0.0124759,-0.00121972,-0.703473,-0.531764,-0.0363291,-5.03888,-25.0881,-6.06108,24.3365,-0.224613,1.35583,-0.00996382,1.60586,-0.145254,3.28648,-0.624985,0.925623,-0.556243,-0.542859,0.405185,-0.533494,-0.495964,-0.817876,-1.59819,-0.08328,
0.00558984,-0.048962,0.496979,-1.57094,-0.0611183,-0.0990682,0.521113,-0.444746,0.150292,-0.458021,-0.192136,-0.973272,-1.21662,-0.177289,0,0,0,0,0,0,0,0.0222317,-0.0519064,0.51421,-1.56289,-0.022994,1.52391,1.31666,-0.00572738,-0.0139448,-0.0124759,-0.00121972,-0.703473,-0.531764,-0.0363291,-5.03888,-25.0881,-6.06108,24.3365,-0.224613,1.35583,-0.00996382,1.60586,-0.145254,3.28648,-0.624985,0.925623,-0.556243,-0.542859,0.405185,-0.533494,-0.495964,-0.817876,-1.59819,-0.08328,
0.00377121,-0.0483185,0.495107,-1.57172,-0.0651437,-0.103985,0.520415,-0.454659,0.160889,-0.467989,-0.195533,-1.00635,-1.2292,-0.174468,0,0,0,0,0,0,0,0.0222317,-0.0519064,0.51421,-1.56289,-0.022994,1.52391,1.31666,-0.00572738,-0.0139448,-0.0124759,-0.00121972,-0.703473,-0.531764,-0.0363291,-5.03888,-25.0881,-6.06108,24.3365,-0.224613,1.35583,-0.00996382,2.8961,0.735137,2.81544,-1.24576,1.95881,-0.481845,-0.47247,1.01505,-0.438487,-0.649344,-0.74317,-1.41228,-0.108307,
0.00191782,-0.0476366,0.4932,-1.57251,-0.0692899,-0.108943,0.519729,-0.463347,0.170474,-0.476726,-0.198401,-1.03655,-1.23959,-0.171667,0,0,0,0,0,0,0,0.0198035,-0.0525013,0.511174,-1.56436,-0.0532767,1.49811,1.31477,-0.0873587,-0.0155742,-0.109581,-0.0453418,-0.691055,-0.667349,-0.053597,-6.63769,-23.3147,-7.6361,23.6661,-0.688785,1.6076,-0.258072,1.83435,1.12861,1.77536,-1.59247,1.53986,0.0329643,0.0315029,0.95249,0.0970986,-0.84723,-0.576439,-1.29188,-0.136837,
3.40325e-05,-0.0469202,0.491263,-1.57331,-0.0735458,-0.113936,0.519053,-0.470946,0.17911,-0.484371,-0.200775,-1.06399,-1.24812,-0.16888,0,0,0,0,0,0,0,0.0198035,-0.0525013,0.511174,-1.56436,-0.0532767,1.49811,1.31477,-0.0873587,-0.0155742,-0.109581,-0.0453418,-0.691055,-0.667349,-0.053597,-6.63769,-23.3147,-7.6361,23.6661,-0.688785,1.6076,-0.258072,1.83435,1.12861,1.77536,-1.59247,1.53986,0.0329643,0.0315029,0.95249,0.0970986,-0.84723,-0.576439,-1.29188,-0.136837,
-0.00187626,-0.0461727,0.489299,-1.57412,-0.0779012,-0.118956,0.518389,-0.477574,0.186861,-0.491044,-0.202692,-1.08885,-1.25508,-0.166108,0,0,0,0,0,0,0,0.0198035,-0.0525013,0.511174,-1.56436,-0.0532767,1.49811,1.31477,-0.0873587,-0.0155742,-0.109581,-0.0453418,-0.691055,-0.667349,-0.053597,-6.63769,-23.3147,-7.6361,23.6661,-0.688785,1.6076,-0.258072,0.629,-0.208446,1.71975,-0.411325,0.599618,-0.213634,-0.223092,0.398382,-0.179677,-0.559371,-0.444453,-1.15468,-0.161333,
0.00270636,-0.0487839,0.494125,-1.57294,-0.0518807,-0.0924012,0.518222,-0.565571,0.184249,-0.580026,-0.250504,-0.861173,-1.16856,-0.250046,0,0,0,0,0,0,0,0.0198035,-0.0525013,0.511174,-1.56436,-0.0532767,1.49811,1.31477,-0.0873587,-0.0155742,-0.109581,-0.0453418,-0.691055,-0.667349,-0.053597,-6.63769,-23.3147,-7.6361,23.6661,-0.688785,1.6076,-0.258072,0.629,-0.208446,1.71975,-0.411325,0.599618,-0.213634,-0.223092,0.398382,-0.179677,-0.559371,-0.444453,-1.15468,-0.161333,
-0.000505535,-0.0487777,0.490351,-1.57357,-0.0859874,-0.120959,0.518235,-0.555765,0.181083,-0.568698,-0.225133,-0.916189,-1.18033,-0.211056,0,0,0,0,0,0,0,0.0198035,-0.0525013,0.511174,-1.56436,-0.0532767,1.49811,1.31477,-0.0873587,-0.0155742,-0.109581,-0.0453418,-0.691055,-0.667349,-0.053597,-6.63769,-23.3147,-7.6361,23.6661,-0.688785,1.6076,-0.258072,0.484183,-0.566207,2.70584,0.282287,-0.037902,-0.304866,-0.309504,-0.200934,-0.304341,0.0731249,-0.352483,-0.924476,-0.188703,
-0.00277589,-0.0480029,0.488029,-1.57448,-0.0898074,-0.12573,0.517405,-0.56759,0.193701,-0.580608,-0.22863,-0.955008,-1.19276,-0.20738,0,0,0,0,0,0,0,0.0143168,-0.0528356,0.504692,-1.56758,-0.0817596,1.46771,1.31159,-0.154993,-0.00592223,-0.200639,-0.085394,-0.675976,-0.770476,-0.0748942,-6.66546,-23.2155,-7.50914,24.0628,-0.603641,2.25762,-0.217789,1.03071,0.315173,1.6797,-0.530528,0.744208,-0.0163565,-0.0234873,0.407169,0.0126406,-0.337138,-0.281871,-0.851029,-0.213724,
-0.00508745,-0.0471827,0.485665,-1.57541,-0.0937702,-0.130542,0.51659,-0.57789,0.205044,-0.590981,-0.231571,-0.990688,-1.20302,-0.203734,0,0,0,0,0,0,0,0.0143168,-0.0528356,0.504692,-1.56758,-0.0817596,1.46771,1.31159,-0.154993,-0.00592223,-0.200639,-0.085394,-0.675976,-0.770476,-0.0748942,-6.66546,-23.2155,-7.50914,24.0628,-0.603641,2.25762,-0.217789,1.03071,0.315173,1.6797,-0.530528,0.744208,-0.0163565,-0.0234873,0.407169,0.0126406,-0.337138,-0.281871,-0.851029,-0.213724,
-0.00743482,-0.0463219,0.483265,-1.57634,-0.0978634,-0.135388,0.51579,-0.586841,0.2152,-0.599998,-0.233986,-1.02331,-1.21145,-0.200113,0,0,0,0,0,0,0,0.0143168,-0.0528356,0.504692,-1.56758,-0.0817596,1.46771,1.31159,-0.154993,-0.00592223,-0.200639,-0.085394,-0.675976,-0.770476,-0.0748942,-6.66546,-23.2155,-7.50914,24.0628,-0.603641,2.25762,-0.217789,0.584737,0.872237,0.796856,-1.06942,0.720363,0.393443,0.377915,0.535448,0.448132,-0.585875,-0.218578,-0.77469,-0.233947,
-0.00981319,-0.0454249,0.480834,-1.57729,-0.102075,-0.140262,0.515004,-0.594593,0.224256,-0.607812,-0.235908,-1.053,-1.21833,-0.196514,0,0,0,0,0,0,0,0.0143168,-0.0528356,0.504692,-1.56758,-0.0817596,1.46771,1.31159,-0.154993,-0.00592223,-0.200639,-0.085394,-0.675976,-0.770476,-0.0748942,-6.66546,-23.2155,-7.50914,24.0628,-0.603641,2.25762,-0.217789,0.584737,0.872237,0.796856,-1.06942,0.720363,0.393443,0.377915,0.535448,0.448132,-0.585875,-0.218578,-0.77469,-0.233947,
-0.0221277,-0.041556,0.468873,-1.5833,-0.105001,-0.147454,0.508419,-0.740304,0.296266,-0.754834,-0.298704,-1.0757,-1.19524,-0.25196,0,0,0,0,0,0,0,0.0143168,-0.0528356,0.504692,-1.56758,-0.0817596,1.46771,1.31159,-0.154993,-0.00592223,-0.200639,-0.085394,-0.675976,-0.770476,-0.0748942,-6.66546,-23.2155,-7.50914,24.0628,-0.603641,2.25762,-0.217789,0.145035,0.814577,0.739657,-0.947824,0.356402,0.509006,0.487544,0.315037,0.564028,-0.470016,-0.166243,-0.676517,-0.249937,
-0.00488997,-0.0480336,0.486454,-1.57623,-0.0812684,-0.119131,0.514734,-0.676585,0.223269,-0.690529,-0.285012,-0.843609,-1.14733,-0.278985,0,0,0,0,0,0,0,0.0143168,-0.0528356,0.504692,-1.56758,-0.0817596,1.46771,1.31159,-0.154993,-0.00592223,-0.200639,-0.085394,-0.675976,-0.770476,-0.0748942,-6.66546,-23.2155,-7.50914,24.0628,-0.603641,2.25762,-0.217789,0.455793,0.616972,0.814642,-0.722014,0.588568,0.340199,0.325201,0.440973,0.38079,-0.456594,-0.104275,-0.672118,-0.262443,
-0.0107838,-0.047795,0.479118,-1.57836,-0.113305,-0.151892,0.513881,-0.661977,0.215601,-0.674216,-0.253883,-0.90253,-1.15795,-0.231257,0,0,0,0,0,0,0,0.0078611,-0.0527952,0.497184,-1.57099,-0.101304,1.44368,1.30884,-0.238858,0.00654797,-0.252421,-0.120096,-0.65992,-0.763551,-0.0771949,-6.86779,-23.64,-7.81066,24.2889,-1.29944,1.79345,-0.298355,0.455793,0.616972,0.814642,-0.722014,0.588568,0.340199,0.325201,0.440973,0.38079,-0.456594,-0.104275,-0.672118,-0.262443,
-0.0134796,-0.0468813,0.476373,-1.57939,-0.11708,-0.156564,0.512974,-0.673942,0.228431,-0.686278,-0.256809,-0.943692,-1.16801,-0.226833,0,0,0,0,0,0,0,0.0078611,-0.0527952,0.497184,-1.57099,-0.101304,1.44368,1.30884,-0.238858,0.00654797,-0.252421,-0.120096,-0.65992,-0.763551,-0.0771949,-6.86779,-23.64,-7.81066,24.2889,-1.29944,1.79345,-0.298355,-0.324532,1.50371,0.64627,-1.37331,0.10269,0.969276,0.95954,0.215848,1.02277,-0.486014,-0.038714,-0.661556,-0.276782,
-0.0162166,-0.0459219,0.473587,-1.58042,-0.121006,-0.161269,0.512084,-0.684245,0.239837,-0.696663,-0.259176,-0.981574,-1.17627,-0.22245,0,0,0,0,0,0,0,0.0078611,-0.0527952,0.497184,-1.57099,-0.101304,1.44368,1.30884,-0.238858,0.00654797,-0.252421,-0.120096,-0.65992,-0.763551,-0.0771949,-6.86779,-23.64,-7.81066,24.2889,-1.29944,1.79345,-0.298355,-0.324532,1.50371,0.64627,-1.37331,0.10269,0.969276,0.95954,0.215848,1.02277,-0.486014,-0.038714,-0.661556,-0.276782,
-0.0189889,-0.0449222,0.470764,-1.58147,-0.125071,-0.166001,0.511212,-0.693074,0.249924,-0.705566,-0.261008,-1.01625,-1.18303,-0.218107,0,0,0,0,0,0,0,0.0078611,-0.0527952,0.497184,-1.57099,-0.101304,1.44368,1.30884,-0.238858,0.00654797,-0.252421,-0.120096,-0.65992,-0.763551,-0.0771949,-6.86779,-23.64,-7.81066,24.2889,-1.29944,1.79345,-0.298355,-0.93343,0.867818,-0.780927,-1.32795,0.314345,0.84335,0.822076,0.626735,0.916237,-1.10165,-0.0935582,-0.814128,-0.289447,
-0.0217912,-0.0438871,0.467912,-1.58252,-0.129262,-0.170755,0.510357,-0.700588,0.258793,-0.713147,-0.262332,-1.04786,-1.18852,-0.2138,0,0,0,0,0,0,0,0.0078611,-0.0527952,0.497184,-1.57099,-0.101304,1.44368,1.30884,-0.238858,0.00654797,-0.252421,-0.120096,-0.65992,-0.763551,-0.0771949,-6.86779,-23.64,-7.81066,24.2889,-1.29944,1.79345,-0.298355,-0.93343,0.867818,-0.780927,-1.32795,0.314345,0.84335,0.822076,0.626735,0.916237,-1.10165,-0.0935582,-0.814128,-0.289447,
-0.0246189,-0.0428209,0.465034,-1.58357,-0.133569,-0.175527,0.509518,-0.706922,0.26654,-0.719543,-0.263174,-1.07656,-1.19294,-0.209528,0,0,0,0,0,0,0,-0.00165648,-0.0524605,0.486986,-1.57558,-0.120477,1.42036,1.30561,-0.303429,0.0234464,-0.341028,-0.157178,-0.611891,-0.70253,-0.114729,-6.79242,-24.7112,-7.93761,24.5627,-1.64185,1.44829,-0.291031,-0.807876,-0.328711,0.0717595,-0.250236,0.0712439,0.240299,0.222388,0.339407,0.275104,-0.744973,-0.11466,-0.825743,-0.294381,
-0.0124001,-0.046511,0.478533,-1.58085,-0.111833,-0.150391,0.51052,-0.71608,0.261353,-0.707411,-0.314862,-0.860768,-1.13288,-0.297149,0,0,0,0,0,0,0,-0.00165648,-0.0524605,0.486986,-1.57558,-0.120477,1.42036,1.30561,-0.303429,0.0234464,-0.341028,-0.157178,-0.611891,-0.70253,-0.114729,-6.79242,-24.7112,-7.93761,24.5627,-1.64185,1.44829,-0.291031,0.829497,-1.64398,0.393635,0.670193,1.09946,-0.785857,-0.794386,0.823225,-0.783319,-0.723033,-0.28114,-0.842027,-0.298528,
-0.0312958,-0.0449452,0.457855,-1.58775,-0.154142,-0.197119,0.507249,-0.749146,0.250573,-0.74122,-0.291281,-0.918234,-1.0406,-0.241815,0,0,0,0,0,0,0,-0.00165648,-0.0524605,0.486986,-1.57558,-0.120477,1.42036,1.30561,-0.303429,0.0234464,-0.341028,-0.157178,-0.611891,-0.70253,-0.114729,-6.79242,-24.7112,-7.93761,24.5627,-1.64185,1.44829,-0.291031,0.829497,-1.64398,0.393635,0.670193,1.09946,-0.785857,-0.794386,0.823225,-0.783319,-0.723033,-0.28114,-0.842027,-0.298528,
-0.0343481,-0.0439055,0.454833,-1.58894,-0.157946,-0.201081,0.506302,-0.763071,0.259931,-0.755413,-0.298477,-0.950999,-0.990504,-0.236794,0,0,0,0,0,0,0,-0.00165648,-0.0524605,0.486986,-1.57558,-0.120477,1.42036,1.30561,-0.303429,0.0234464,-0.341028,-0.157178,-0.611891,-0.70253,-0.114729,-6.79242,-24.7112,-7.93761,24.5627,-1.64185,1.44829,-0.291031,-0.182801,-2.36593,0.00165549,0.952691,0.523737,-0.866838,-0.882064,0.58509,-0.859983,-0.85795,-0.428619,-0.942619,-0.299944,
-0.0374433,-0.042831,0.451756,-1.59016,-0.161872,-0.204803,0.505374,-0.773802,0.268637,-0.769309,-0.30398,-0.981539,-0.930567,-0.231846,0,0,0,0,0,0,0,-0.00165648,-0.0524605,0.486986,-1.57558,-0.120477,1.42036,1.30561,-0.303429,0.0234464,-0.341028,-0.157178,-0.611891,-0.70253,-0.114729,-6.79242,-24.7112,-7.93761,24.5627,-1.64185,1.44829,-0.291031,-0.182801,-2.36593,0.00165549,0.952691,0.523737,-0.866838,-0.882064,0.58509,-0.859983,-0.85795,-0.428619,-0.942619,-0.299944,
-0.0405683,-0.0417246,0.448624,-1.59139,-0.165912,-0.208253,0.504466,-0.781259,0.276582,-0.782969,-0.308095,-1.01008,-0.862434,-0.226965,0,0,0,0,0,0,0,-0.00165648,-0.0524605,0.486986,-1.57558,-0.120477,1.42036,1.30561,-0.303429,0.0234464,-0.341028,-0.157178,-0.611891,-0.70253,-0.114729,-6.79242,-24.7112,-7.93761,24.5627,-1.64185,1.44829,-0.291031,-0.838909,-0.71403,-1.06545,-0.484226,0.577094,0.0697059,0.0557053,0.847073,0.119322,-1.35506,-0.35653,-1.00977,-0.302225,
-0.0437167,-0.0405904,0.445443,-1.59264,-0.170057,-0.211401,0.503578,-0.787086,0.283561,-0.795309,-0.31118,-1.03623,-0.787031,-0.222183,0,0,0,0,0,0,0,-0.0129015,-0.0514365,0.475173,-1.58077,-0.139174,1.39909,1.30193,-0.391273,0.0302573,-0.42072,-0.164467,-0.548972,-0.625069,-0.134669,-5.97912,-24.5366,-6.93785,24.0628,-1.43402,1.30273,-0.23793,-0.838909,-0.71403,-1.06545,-0.484226,0.577094,0.0697059,0.0557053,0.847073,0.119322,-1.35506,-0.35653,-1.00977,-0.302225,
-0.0468875,-0.0394319,0.442224,-1.59389,-0.174299,-0.214222,0.502708,-0.792715,0.289631,-0.804713,-0.313347,-1.06045,-0.705075,-0.217473,0,0,0,0,0,0,0,-0.0129015,-0.0514365,0.475173,-1.58077,-0.139174,1.39909,1.30193,-0.391273,0.0302573,-0.42072,-0.164467,-0.548972,-0.625069,-0.134669,-5.97912,-24.5366,-6.93785,24.0628,-1.43402,1.30273,-0.23793,-0.839875,0.283976,-1.21327,-1.16438,0.653783,0.537337,0.516253,0.915173,0.610636,-1.41473,-0.273669,-0.965834,-0.302883,
-0.0311044,-0.0434577,0.458011,-1.58999,-0.154266,-0.196403,0.504046,-0.743744,0.303916,-0.736049,-0.336563,-0.921532,-1.10417,-0.30459,0,0,0,0,0,0,0,-0.0129015,-0.0514365,0.475173,-1.58077,-0.139174,1.39909,1.30193,-0.391273,0.0302573,-0.42072,-0.164467,-0.548972,-0.625069,-0.134669,-5.97912,-24.5366,-6.93785,24.0628,-1.43402,1.30273,-0.23793,-2.63433,1.18201,-0.509246,-1.62294,-0.889893,1.3644,1.33888,-0.0396643,1.44755,-1.05181,-0.18965,-0.981709,-0.304227,
-0.0442036,-0.0432423,0.444314,-1.59453,-0.174014,-0.198014,0.503341,-0.768463,0.261377,-0.760971,-0.335485,-0.928172,-0.117068,-0.2447,0,0,0,0,0,0,0,-0.0129015,-0.0514365,0.475173,-1.58077,-0.139174,1.39909,1.30193,-0.391273,0.0302573,-0.42072,-0.164467,-0.548972,-0.625069,-0.134669,-5.97912,-24.5366,-6.93785,24.0628,-1.43402,1.30273,-0.23793,-2.63433,1.18201,-0.509246,-1.62294,-0.889893,1.3644,1.33888,-0.0396643,1.44755,-1.05181,-0.18965,-0.981709,-0.304227,
-0.0473231,-0.0421534,0.441223,-1.59586,-0.177839,-0.198135,0.502382,-0.779858,0.272222,-0.772575,-0.332416,-0.956238,-0.0302564,-0.239542,0,0,0,0,0,0,0,-0.0129015,-0.0514365,0.475173,-1.58077,-0.139174,1.39909,1.30193,-0.391273,0.0302573,-0.42072,-0.164467,-0.548972,-0.625069,-0.134669,-5.97912,-24.5366,-6.93785,24.0628,-1.43402,1.30273,-0.23793,-1.72904,0.432805,0.384736,-0.965842,-0.730154,0.803921,0.784656,-0.176237,0.861272,-0.658389,-0.34245,-0.881697,-0.301129,
-0.0504828,-0.041029,0.438092,-1.59717,-0.181764,-0.197965,0.501444,-0.789921,0.281099,-0.782867,-0.328066,-0.981334,0.0425015,-0.234604,0,0,0,0,0,0,0,-0.0269315,-0.0499028,0.460799,-1.58696,-0.158324,1.38093,1.2981,-0.441658,0.0654478,-0.467448,-0.214787,-0.623516,-0.513273,-0.125941,-6.9154,-25.0365,-7.58452,24.8602,-1.51368,1.5078,-0.278213,-1.72904,0.432805,0.384736,-0.965842,-0.730154,0.803921,0.784656,-0.176237,0.861272,-0.658389,-0.34245,-0.881697,-0.301129,
-0.0536783,-0.0398776,0.434924,-1.59846,-0.185778,-0.197549,0.500525,-0.798888,0.287862,-0.792075,-0.323353,-1.00356,0.104048,-0.229761,0,0,0,0,0,0,0,-0.0269315,-0.0499028,0.460799,-1.58696,-0.158324,1.38093,1.2981,-0.441658,0.0654478,-0.467448,-0.214787,-0.623516,-0.513273,-0.125941,-6.9154,-25.0365,-7.58452,24.8602,-1.51368,1.5078,-0.278213,0.628065,-3.47801,1.24095,1.80412,0.43174,-1.59361,-1.62139,0.241359,-1.59663,-0.324829,-0.741223,-0.841293,-0.291771,
-0.0569059,-0.0387071,0.431722,-1.59974,-0.189871,-0.196924,0.499625,-0.806903,0.292623,-0.800338,-0.318628,-1.02316,0.156358,-0.224994,0,0,0,0,0,0,0,-0.0269315,-0.0499028,0.460799,-1.58696,-0.158324,1.38093,1.2981,-0.441658,0.0654478,-0.467448,-0.214787,-0.623516,-0.513273,-0.125941,-6.9154,-25.0365,-7.58452,24.8602,-1.51368,1.5078,-0.278213,0.628065,-3.47801,1.24095,1.80412,0.43174,-1.59361,-1.62139,0.241359,-1.59663,-0.324829,-0.741223,-0.841293,-0.291771,
-0.0601622,-0.037525,0.428491,-1.60099,-0.194032,-0.19612,0.498744,-0.814081,0.29553,-0.807768,-0.314088,-1.0404,0.201004,-0.220304,0,0,0,0,0,0,0,-0.0269315,-0.0499028,0.460799,-1.58696,-0.158324,1.38093,1.2981,-0.441658,0.0654478,-0.467448,-0.214787,-0.623516,-0.513273,-0.125941,-6.9154,-25.0365,-7.58452,24.8602,-1.51368,1.5078,-0.278213,-1.32618,-2.00578,1.25189,0.871868,-0.929542,-0.475851,-0.495767,-0.480968,-0.467636,-0.210007,-0.551701,-0.827289,-0.292181,
-0.0439288,-0.0415325,0.444553,-1.59608,-0.174419,-0.208608,0.500213,-0.764237,0.311872,-0.757153,-0.386668,-0.937754,-0.491709,-0.305716,0,0,0,0,0,0,0,-0.0269315,-0.0499028,0.460799,-1.58696,-0.158324,1.38093,1.2981,-0.441658,0.0654478,-0.467448,-0.214787,-0.623516,-0.513273,-0.125941,-6.9154,-25.0365,-7.58452,24.8602,-1.51368,1.5078,-0.278213,-1.75705,-0.848526,0.61071,0.00717361,-1.09477,0.205765,0.187648,-0.521227,0.234004,-0.298635,-0.490989,-0.649066,-0.291978,
-0.0594723,-0.0406681,0.428677,-1.60178,-0.195205,-0.19323,0.499474,-0.777169,0.26861,-0.770141,-0.305525,-0.947438,0.110558,-0.24366,0,0,0,0,0,0,0,-0.0269315,-0.0499028,0.460799,-1.58696,-0.158324,1.38093,1.2981,-0.441658,0.0654478,-0.467448,-0.214787,-0.623516,-0.513273,-0.125941,-6.9154,-25.0365,-7.58452,24.8602,-1.51368,1.5078,-0.278213,-1.75705,-0.848526,0.61071,0.00717361,-1.09477,0.205765,0.187648,-0.521227,0.234004,-0.298635,-0.490989,-0.649066,-0.291978,
-0.0626213,-0.0395734,0.425555,-1.60299,-0.19909,-0.192715,0.498521,-0.787255,0.273696,-0.780567,-0.302486,-0.97125,0.128876,-0.238409,0,0,0,0,0,0,0,-0.0426594,-0.0473975,0.444664,-1.59509,-0.178468,1.37134,1.29317,-0.498464,0.0839144,-0.528511,-0.259096,-0.617881,-0.0937718,-0.157293,-5.34436,-25.1357,-6.00951,25.5069,-1.44593,2.89391,-0.224197,-1.29803,-0.401454,-0.276607,-0.405689,-0.472176,0.344582,0.317764,-0.0659458,0.393929,-0.574868,-0.455845,-0.524466,-0.286996,
-0.065805,-0.0384685,0.422391,-1.6042,-0.203059,-0.192068,0.497586,-0.795922,0.276205,-0.790907,-0.302945,-0.992268,0.16157,-0.233616,0,0,0,0,0,0,0,-0.0426594,-0.0473975,0.444664,-1.59509,-0.178468,1.37134,1.29317,-0.498464,0.0839144,-0.528511,-0.259096,-0.617881,-0.0937718,-0.157293,-5.34436,-25.1357,-6.00951,25.5069,-1.44593,2.89391,-0.224197,-1.29803,-0.401454,-0.276607,-0.405689,-0.472176,0.344582,0.317764,-0.0659458,0.393929,-0.574868,-0.455845,-0.524466,-0.286996,
-0.0689987,-0.0373529,0.419178,-1.60541,-0.207113,-0.191307,0.496671,-0.798427,0.278904,-0.803136,-0.30131,-1.01358,0.190418,-0.228883,0,0,0,0,0,0,0,-0.0426594,-0.0473975,0.444664,-1.59509,-0.178468,1.37134,1.29317,-0.498464,0.0839144,-0.528511,-0.259096,-0.617881,-0.0937718,-0.157293,-5.34436,-25.1357,-6.00951,25.5069,-1.44593,2.89391,-0.224197,1.53022,0.712566,-1.07986,-1.29713,1.82276,0.344172,0.324335,1.25443,0.413275,-0.992847,-0.446878,-0.362777,-0.279443,
-0.0722059,-0.036228,0.415939,-1.6066,-0.211255,-0.190439,0.495774,-0.801813,0.281232,-0.80988,-0.298767,-1.03551,0.216795,-0.224244,0,0,0,0,0,0,0,-0.0426594,-0.0473975,0.444664,-1.59509,-0.178468,1.37134,1.29317,-0.498464,0.0839144,-0.528511,-0.259096,-0.617881,-0.0937718,-0.157293,-5.34436,-25.1357,-6.00951,25.5069,-1.44593,2.89391,-0.224197,1.53022,0.712566,-1.07986,-1.29713,1.82276,0.344172,0.324335,1.25443,0.413275,-0.992847,-0.446878,-0.362777,-0.279443,
-0.0786022,-0.0314494,0.409652,-1.61211,-0.22036,-0.207223,0.489633,-0.825279,0.330596,-0.820254,-0.357185,-1.068,0.0710821,-0.270322,0,0,0,0,0,0,0,-0.0426594,-0.0473975,0.444664,-1.59509,-0.178468,1.37134,1.29317,-0.498464,0.0839144,-0.528511,-0.259096,-0.617881,-0.0937718,-0.157293,-5.34436,-25.1357,-6.00951,25.5069,-1.44593,2.89391,-0.224197,4.2091,-0.0865638,-1.79557,-0.871578,3.92082,-0.521449,-0.541124,2.46086,-0.456307,-1.31271,-0.564123,-0.227167,-0.273814,
-0.0592368,-0.0392819,0.428881,-1.60345,-0.195691,-0.206299,0.496432,-0.774727,0.312031,-0.768007,-0.363298,-0.957849,-0.183038,-0.302872,0,0,0,0,0,0,0,-0.0599179,-0.0445868,0.427375,-1.6033,-0.198729,1.37098,1.28871,-0.555196,0.094611,-0.552858,-0.242165,-0.641722,0.00590568,-0.118671,-4.30493,-27.1828,-4.86296,25.2094,-1.31226,2.57531,-0.163772,1.11078,0.760893,-1.45859,-1.26077,1.45346,0.523664,0.504021,1.01518,0.587623,-0.838515,-0.423457,-0.0876451,-0.267609,
-0.0943356,-0.0347462,0.393224,-1.6176,-0.238414,-0.192971,0.490185,-0.784345,0.265555,-0.792431,-0.293889,-0.988307,0.237326,-0.243024,0,0,0,0,0,0,0,-0.0599179,-0.0445868,0.427375,-1.6033,-0.198729,1.37098,1.28871,-0.555196,0.094611,-0.552858,-0.242165,-0.641722,0.00590568,-0.118671,-4.30493,-27.1828,-4.86296,25.2094,-1.31226,2.57531,-0.163772,1.11078,0.760893,-1.45859,-1.26077,1.45346,0.523664,0.504021,1.01518,0.587623,-0.838515,-0.423457,-0.0876451,-0.267609,
-0.0974866,-0.0336651,0.390039,-1.61876,-0.242474,-0.192052,0.489234,-0.787754,0.270259,-0.796263,-0.289298,-1.01481,0.229826,-0.237832,0,0,0,0,0,0,0,-0.0599179,-0.0445868,0.427375,-1.6033,-0.198729,1.37098,1.28871,-0.555196,0.094611,-0.552858,-0.242165,-0.641722,0.00590568,-0.118671,-4.30493,-27.1828,-4.86296,25.2094,-1.31226,2.57531,-0.163772,0.119554,-1.04409,-0.787941,0.0872979,0.369535,-0.184888,-0.20284,0.310062,-0.156096,-0.420719,-0.538979,-0.0688782,-0.262365,
-0.100649,-0.032577,0.386842,-1.61991,-0.246627,-0.1911,0.488301,-0.790527,0.272033,-0.799125,-0.289242,-1.03836,0.238025,-0.233166,0,0,0,0,0,0,0,-0.0599179,-0.0445868,0.427375,-1.6033,-0.198729,1.37098,1.28871,-0.555196,0.094611,-0.552858,-0.242165,-0.641722,0.00590568,-0.118671,-4.30493,-27.1828,-4.86296,25.2094,-1.31226,2.57531,-0.163772,0.119554,-1.04409,-0.787941,0.0872979,0.369535,-0.184888,-0.20284,0.310062,-0.156096,-0.420719,-0.538979,-0.0688782,-0.262365,
-0.103817,-0.0314864,0.383639,-1.62107,-0.250867,-0.19007,0.487387,-0.792185,0.272643,-0.80085,-0.290408,-1.05989,0.25734,-0.22862,0,0,0,0,0,0,0,-0.0599179,-0.0445868,0.427375,-1.6033,-0.198729,1.37098,1.28871,-0.555196,0.094611,-0.552858,-0.242165,-0.641722,0.00590568,-0.118671,-4.30493,-27.1828,-4.86296,25.2094,-1.31226,2.57531,-0.163772,-0.0318799,0.0765325,-1.06802,-0.637005,0.482225,0.378102,0.365612,0.444416,0.415049,-0.585394,-0.378161,-0.0967736,-0.261787,
-0.106988,-0.0303959,0.380433,-1.62224,-0.255186,-0.188928,0.48649,-0.792656,0.272624,-0.801381,-0.291741,-1.07974,0.285641,-0.224199,0,0,0,0,0,0,0,-0.0599179,-0.0445868,0.427375,-1.6033,-0.198729,1.37098,1.28871,-0.555196,0.094611,-0.552858,-0.242165,-0.641722,0.00590568,-0.118671,-4.30493,-27.1828,-4.86296,25.2094,-1.31226,2.57531,-0.163772,-0.0318799,0.0765325,-1.06802,-0.637005,0.482225,0.378102,0.365612,0.444416,0.415049,-0.585394,-0.378161,-0.0967736,-0.261787,
-0.110154,-0.0293035,0.377232,-1.6234,-0.259581,-0.187696,0.48561,-0.791494,0.273117,-0.800271,-0.290267,-1.09884,0.307931,-0.219966,0,0,0,0,0,0,0,-0.0837143,-0.0387452,0.402913,-1.61315,-0.228177,1.37359,1.28359,-0.566496,0.164342,-0.599734,-0.221799,-0.745449,0.123207,-0.129149,-4.93969,-29.456,-5.46202,25.733,-1.92841,1.68084,-0.244339,0.843472,0.386295,-1.26789,-0.807973,1.25371,0.36519,0.350473,0.913174,0.407402,-0.747283,-0.293287,-0.107958,-0.259201,
-0.0942072,-0.0334448,0.393383,-1.61931,-0.238706,-0.196996,0.487341,-0.792734,0.305767,-0.787612,-0.345009,-0.985179,0.169846,-0.298702,0,0,0,0,0,0,0,-0.0837143,-0.0387452,0.402913,-1.61315,-0.228177,1.37359,1.28359,-0.566496,0.164342,-0.599734,-0.221799,-0.745449,0.123207,-0.129149,-4.93969,-29.456,-5.46202,25.733,-1.92841,1.68084,-0.244339,-0.604672,-0.117494,-0.584706,-0.369988,-0.0473112,0.328666,0.311371,0.116687,0.359868,-0.41867,-0.315399,-0.166115,-0.255571,
-0.118883,-0.0283085,0.367798,-1.62751,-0.269942,-0.181708,0.485197,-0.779366,0.261586,-0.789474,-0.290294,-1.02549,0.427825,-0.241586,0,0,0,0,0,0,0,-0.0837143,-0.0387452,0.402913,-1.61315,-0.228177,1.37359,1.28359,-0.566496,0.164342,-0.599734,-0.221799,-0.745449,0.123207,-0.129149,-4.93969,-29.456,-5.46202,25.733,-1.92841,1.68084,-0.244339,-0.604672,-0.117494,-0.584706,-0.369988,-0.0473112,0.328666,0.311371,0.116687,0.359868,-0.41867,-0.315399,-0.166115,-0.255571,
-0.121993,-0.0272488,0.364648,-1.62865,-0.274157,-0.180004,0.48425,-0.777352,0.264925,-0.787371,-0.286059,-1.05359,0.426037,-0.236685,0,0,0,0,0,0,0,-0.0837143,-0.0387452,0.402913,-1.61315,-0.228177,1.37359,1.28359,-0.566496,0.164342,-0.599734,-0.221799,-0.745449,0.123207,-0.129149,-4.93969,-29.456,-5.46202,25.733,-1.92841,1.68084,-0.244339,-1.69335,-0.930467,-0.00878418,0.22618,-0.961245,0.0333342,0.0240883,-0.403566,0.0429904,-0.244573,-0.356184,-0.322703,-0.253005,
-0.125094,-0.0261862,0.361507,-1.62979,-0.278462,-0.178268,0.483321,-0.775422,0.265664,-0.785379,-0.285193,-1.07645,0.433829,-0.232353,0,0,0,0,0,0,0,-0.0837143,-0.0387452,0.402913,-1.61315,-0.228177,1.37359,1.28359,-0.566496,0.164342,-0.599734,-0.221799,-0.745449,0.123207,-0.129149,-4.93969,-29.456,-5.46202,25.733,-1.92841,1.68084,-0.244339,-1.69335,-0.930467,-0.00878418,0.22618,-0.961245,0.0333342,0.0240883,-0.403566,0.0429904,-0.244573,-0.356184,-0.322703,-0.253005,
-0.128187,-0.0251253,0.358375,-1.63093,-0.282845,-0.176474,0.482408,-0.773165,0.265233,-0.783077,-0.285279,-1.09567,0.448587,-0.228144,0,0,0,0,0,0,0,-0.102966,-0.0327155,0.383227,-1.62024,-0.253076,1.38122,1.27947,-0.630296,0.194698,-0.627033,-0.213439,-0.760054,0.319431,-0.145707,-1.82141,-29.4045,-2.26042,24.5349,-1.33057,1.67351,-0.250748,-1.78037,0.200885,-0.860529,-0.667801,-0.502367,0.59675,0.592361,0.0289144,0.618976,-0.711042,-0.284038,-0.421426,-0.254387,
-0.131275,-0.0240715,0.355247,-1.63208,-0.287221,-0.174591,0.481512,-0.772033,0.263442,-0.78183,-0.285811,-1.09406,0.470669,-0.224075,0,0,0,0,0,0,0,-0.102966,-0.0327155,0.383227,-1.62024,-0.253076,1.38122,1.27947,-0.630296,0.194698,-0.627033,-0.213439,-0.760054,0.319431,-0.145707,-1.82141,-29.4045,-2.26042,24.5349,-1.33057,1.67351,-0.250748,-1.40824,-0.0209892,-2.03547,-0.687413,0.370423,0.421687,0.419314,0.759949,0.445355,-1.27341,-0.306511,-0.504508,-0.255085,
-0.134362,-0.0230276,0.352121,-1.63322,-0.291499,-0.17261,0.480631,-0.771724,0.260966,-0.781431,-0.28543,-1.06948,0.495348,-0.220171,0,0,0,0,0,0,0,-0.102966,-0.0327155,0.383227,-1.62024,-0.253076,1.38122,1.27947,-0.630296,0.194698,-0.627033,-0.213439,-0.760054,0.319431,-0.145707,-1.82141,-29.4045,-2.26042,24.5349,-1.33057,1.67351,-0.250748,-1.40824,-0.0209892,-2.03547,-0.687413,0.370423,0.421687,0.419314,0.759949,0.445355,-1.27341,-0.306511,-0.504508,-0.255085,
-0.118991,-0.0273105,0.367875,-1.62917,-0.269969,-0.18359,0.482489,-0.804184,0.289917,-0.800317,-0.338371,-0.993878,0.407872,-0.295116,0,0,0,0,0,0,0,-0.102966,-0.0327155,0.383227,-1.62024,-0.253076,1.38122,1.27947,-0.630296,0.194698,-0.627033,-0.213439,-0.760054,0.319431,-0.145707,-1.82141,-29.4045,-2.26042,24.5349,-1.33057,1.67351,-0.250748,-0.734756,-1.46062,-2.42225,0.208717,0.997233,-0.416691,-0.417395,1.20206,-0.406403,-1.43859,-0.430407,-0.518496,-0.249584,
-0.138709,-0.0223447,0.34723,-1.63439,-0.293533,-0.1645,0.481164,-0.778899,0.242617,-0.789619,-0.284699,-0.776475,0.609383,-0.241364,0,0,0,0,0,0,0,-0.102966,-0.0327155,0.383227,-1.62024,-0.253076,1.38122,1.27947,-0.630296,0.194698,-0.627033,-0.213439,-0.760054,0.319431,-0.145707,-1.82141,-29.4045,-2.26042,24.5349,-1.33057,1.67351,-0.250748,-0.734756,-1.46062,-2.42225,0.208717,0.997233,-0.416691,-0.417395,1.20206,-0.406403,-1.43859,-0.430407,-0.518496,-0.249584,
-0.141818,-0.02137,0.344078,-1.63551,-0.296445,-0.162034,0.480217,-0.777232,0.243678,-0.787852,-0.280652,-0.728141,0.616398,-0.236604,0,0,0,0,0,0,0,-0.102966,-0.0327155,0.383227,-1.62024,-0.253076,1.38122,1.27947,-0.630296,0.194698,-0.627033,-0.213439,-0.760054,0.319431,-0.145707,-1.82141,-29.4045,-2.26042,24.5349,-1.33057,1.67351,-0.250748,-0.121082,-2.31374,-2.15614,0.744212,1.20323,-0.913464,-0.904863,1.23132,-0.91907,-1.27202,-0.586643,-0.434342,-0.247662,
-0.144919,-0.0203954,0.340935,-1.63662,-0.299147,-0.159559,0.479287,-0.775136,0.24364,-0.785674,-0.276897,-0.675503,0.61895,-0.232498,0,0,0,0,0,0,0,-0.122493,-0.0263355,0.362949,-1.62683,-0.278543,1.39485,1.27439,-0.610731,0.210057,-0.636665,-0.217074,-0.792505,0.469019,-0.150514,-2.09912,-30.7018,-2.41118,24.8602,-1.43402,1.62041,-0.197647,-0.121082,-2.31374,-2.15614,0.744212,1.20323,-0.913464,-0.904863,1.23132,-0.91907,-1.27202,-0.586643,-0.434342,-0.247662,
-0.148009,-0.0194244,0.337804,-1.63771,-0.301626,-0.157087,0.478373,-0.772506,0.242751,-0.782976,-0.273296,-0.619689,0.617793,-0.228534,0,0,0,0,0,0,0,-0.122493,-0.0263355,0.362949,-1.62683,-0.278543,1.39485,1.27439,-0.610731,0.210057,-0.636665,-0.217074,-0.792505,0.469019,-0.150514,-2.09912,-30.7018,-2.41118,24.8602,-1.43402,1.62041,-0.197647,-1.50495,-0.0696868,-1.64802,-0.670851,-0.0397992,0.437062,0.447524,0.369191,0.442841,-0.949393,-0.473128,-0.315148,-0.246287,
-0.151086,-0.0184598,0.334685,-1.63879,-0.303871,-0.154632,0.477474,-0.769297,0.241151,-0.779712,-0.269835,-0.561329,0.613736,-0.2247,0,0,0,0,0,0,0,-0.122493,-0.0263355,0.362949,-1.62683,-0.278543,1.39485,1.27439,-0.610731,0.210057,-0.636665,-0.217074,-0.792505,0.469019,-0.150514,-2.09912,-30.7018,-2.41118,24.8602,-1.43402,1.62041,-0.197647,-0.646543,-1.04882,-2.55859,-0.158038,0.966432,-0.158007,-0.154813,1.10294,-0.148791,-1.33969,-0.590495,-0.320617,-0.243089,
-0.154148,-0.0175041,0.331581,-1.63986,-0.305874,-0.152202,0.47659,-0.765489,0.238922,-0.775864,-0.266546,-0.500688,0.607551,-0.221036,0,0,0,0,0,0,0,-0.122493,-0.0263355,0.362949,-1.62683,-0.278543,1.39485,1.27439,-0.610731,0.210057,-0.636665,-0.217074,-0.792505,0.469019,-0.150514,-2.09912,-30.7018,-2.41118,24.8602,-1.43402,1.62041,-0.197647,-0.646543,-1.04882,-2.55859,-0.158038,0.966432,-0.158007,-0.154813,1.10294,-0.148791,-1.33969,-0.590495,-0.320617,-0.243089,
-0.139187,-0.0214835,0.347101,-1.63596,-0.295667,-0.166156,0.47855,-0.805515,0.269537,-0.817395,-0.329468,-0.962592,0.589398,-0.292949,0,0,0,0,0,0,0,-0.122493,-0.0263355,0.362949,-1.62683,-0.278543,1.39485,1.27439,-0.610731,0.210057,-0.636665,-0.217074,-0.792505,0.469019,-0.150514,-2.09912,-30.7018,-2.41118,24.8602,-1.43402,1.62041,-0.197647,-1.28898,-1.27181,-2.20584,0.0981399,0.275267,-0.201632,-0.195333,0.651976,-0.201156,-1.06825,-0.564121,-0.229066,-0.242447,
-0.157739,-0.016479,0.327175,-1.64054,-0.302948,-0.146264,0.476131,-0.756584,0.220669,-0.768054,-0.271369,-0.246742,0.605057,-0.242339,0,0,0,0,0,0,0,-0.142537,-0.0199333,0.342206,-1.63346,-0.297977,1.41143,1.26928,-0.655422,0.215797,-0.682393,-0.219915,-0.524601,0.567793,-0.139654,-0.781979,-32.1736,-1.01073,25.5585,-0.242924,2.17797,-0.217789,-1.28898,-1.27181,-2.20584,0.0981399,0.275267,-0.201632,-0.195333,0.651976,-0.201156,-1.06825,-0.564121,-0.229066,-0.242447,
-0.160743,-0.0155953,0.324125,-1.64161,-0.303783,-0.143851,0.475179,-0.751102,0.220939,-0.76244,-0.268819,-0.208769,0.603183,-0.23787,0,0,0,0,0,0,0,-0.142537,-0.0199333,0.342206,-1.63346,-0.297977,1.41143,1.26928,-0.655422,0.215797,-0.682393,-0.219915,-0.524601,0.567793,-0.139654,-0.781979,-32.1736,-1.01073,25.5585,-0.242924,2.17797,-0.217789,-2.3145,-1.71783,-1.94928,0.570395,-0.62828,-0.35562,-0.343469,0.141375,-0.36891,-0.813413,-0.463231,-0.149215,-0.238046,
-0.163726,-0.0147156,0.321097,-1.64268,-0.304462,-0.141433,0.474243,-0.745709,0.219919,-0.75693,-0.267522,-0.169931,0.604537,-0.234008,0,0,0,0,0,0,0,-0.142537,-0.0199333,0.342206,-1.63346,-0.297977,1.41143,1.26928,-0.655422,0.215797,-0.682393,-0.219915,-0.524601,0.567793,-0.139654,-0.781979,-32.1736,-1.01073,25.5585,-0.242924,2.17797,-0.217789,-2.3145,-1.71783,-1.94928,0.570395,-0.62828,-0.35562,-0.343469,0.141375,-0.36891,-0.813413,-0.463231,-0.149215,-0.238046,
-0.166686,-0.0138408,0.318093,-1.64374,-0.304986,-0.139029,0.473322,-0.739997,0.218694,-0.75111,-0.265158,-0.130795,0.601151,-0.230292,0,0,0,0,0,0,0,-0.142537,-0.0199333,0.342206,-1.63346,-0.297977,1.41143,1.26928,-0.655422,0.215797,-0.682393,-0.219915,-0.524601,0.567793,-0.139654,-0.781979,-32.1736,-1.01073,25.5585,-0.242924,2.17797,-0.217789,-2.17516,0.712631,-1.7702,-0.848877,-0.608187,0.893745,0.916093,0.0200232,0.87961,-0.717937,-0.194888,-0.0349066,-0.238958,
-0.169622,-0.012973,0.315113,-1.64479,-0.305349,-0.13665,0.472415,-0.734032,0.216965,-0.745052,-0.262509,-0.0909646,0.594733,-0.22671,0,0,0,0,0,0,0,-0.142537,-0.0199333,0.342206,-1.63346,-0.297977,1.41143,1.26928,-0.655422,0.215797,-0.682393,-0.219915,-0.524601,0.567793,-0.139654,-0.781979,-32.1736,-1.01073,25.5585,-0.242924,2.17797,-0.217789,-0.251051,-3.00251,-1.35972,1.536,0.535008,-1.28843,-1.27289,0.698116,-1.30977,-0.651815,-0.48004,-0.139797,-0.235534,
-0.172533,-0.0121142,0.312158,-1.64583,-0.305549,-0.134304,0.471522,-0.727828,0.214683,-0.738772,-0.259852,-0.0500163,0.586335,-0.223303,0,0,0,0,0,0,0,-0.163617,-0.0128577,0.320462,-1.64015,-0.312324,1.4304,1.26521,-0.659251,0.219353,-0.671205,-0.222311,-0.307878,0.626705,-0.130558,0.0828892,-34.0224,-0.16173,26.8042,0.354916,1.86577,-0.183914,-0.251051,-3.00251,-1.35972,1.536,0.535008,-1.28843,-1.27289,0.698116,-1.30977,-0.651815,-0.48004,-0.139797,-0.235534,
-0.15892,-0.0158191,0.326361,-1.64207,-0.312904,-0.147087,0.473622,-0.809083,0.242524,-0.822035,-0.30909,-0.495987,0.605551,-0.290943,0,0,0,0,0,0,0,-0.163617,-0.0128577,0.320462,-1.64015,-0.312324,1.4304,1.26521,-0.659251,0.219353,-0.671205,-0.222311,-0.307878,0.626705,-0.130558,0.0828892,-34.0224,-0.16173,26.8042,0.354916,1.86577,-0.183914,-0.314874,-1.57607,-0.277325,0.872626,-0.00828778,-0.57783,-0.555771,0.154481,-0.603272,-0.195165,-0.218738,-0.074802,-0.235635,
-0.198126,-0.00310089,0.285333,-1.65351,-0.31545,-0.10958,0.466951,-0.715068,0.206753,-0.7276,-0.267554,0.0906325,0.58155,-0.244376,0,0,0,0,0,0,0,-0.163617,-0.0128577,0.320462,-1.64015,-0.312324,1.4304,1.26521,-0.659251,0.219353,-0.671205,-0.222311,-0.307878,0.626705,-0.130558,0.0828892,-34.0224,-0.16173,26.8042,0.354916,1.86577,-0.183914,-0.314874,-1.57607,-0.277325,0.872626,-0.00828778,-0.57783,-0.555771,0.154481,-0.603272,-0.195165,-0.218738,-0.074802,-0.235635,
-0.200957,-0.00227737,0.282453,-1.65456,-0.315019,-0.107287,0.465991,-0.707673,0.20588,-0.720074,-0.26476,0.107818,0.573202,-0.240085,0,0,0,0,0,0,0,-0.163617,-0.0128577,0.320462,-1.64015,-0.312324,1.4304,1.26521,-0.659251,0.219353,-0.671205,-0.222311,-0.307878,0.626705,-0.130558,0.0828892,-34.0224,-0.16173,26.8042,0.354916,1.86577,-0.183914,-0.0465098,0.669606,-0.927285,-0.397859,0.601062,0.567475,0.598875,0.576143,0.538488,-0.545978,0.139019,-0.0927026,-0.241449,
-0.203759,-0.00146039,0.279602,-1.65561,-0.314512,-0.105037,0.465045,-0.700577,0.204245,-0.712853,-0.262098,0.126824,0.562436,-0.23641,0,0,0,0,0,0,0,-0.163617,-0.0128577,0.320462,-1.64015,-0.312324,1.4304,1.26521,-0.659251,0.219353,-0.671205,-0.222311,-0.307878,0.626705,-0.130558,0.0828892,-34.0224,-0.16173,26.8042,0.354916,1.86577,-0.183914,-0.0465098,0.669606,-0.927285,-0.397859,0.601062,0.567475,0.598875,0.576143,0.538488,-0.545978,0.139019,-0.0927026,-0.241449,
-0.206534,-0.000652271,0.276778,-1.65665,-0.313922,-0.102839,0.464113,-0.693668,0.20203,-0.705829,-0.259456,0.147542,0.549667,-0.232857,0,0,0,0,0,0,0,-0.163617,-0.0128577,0.320462,-1.64015,-0.312324,1.4304,1.26521,-0.659251,0.219353,-0.671205,-0.222311,-0.307878,0.626705,-0.130558,0.0828892,-34.0224,-0.16173,26.8042,0.354916,1.86577,-0.183914,-0.610989,2.13771,-1.60636,-1.23582,0.70118,1.34389,1.38104,0.793095,1.31066,-0.942428,0.373782,-0.215217,-0.244179,
-0.209281,0.000145077,0.273982,-1.65768,-0.313241,-0.100697,0.463196,-0.686868,0.199337,-0.698926,-0.256823,0.170094,0.535371,-0.22942,0,0,0,0,0,0,0,-0.185477,-0.0057696,0.297877,-1.64645,-0.319133,1.45046,1.26103,-0.671483,0.225261,-0.71242,-0.181804,-0.159724,0.650724,-0.127631,-1.36517,-33.9708,-1.36382,25.3085,-0.109257,1.38878,-0.217789,-0.754648,-0.331951,-2.00295,0.29096,0.867441,-0.0123124,0.0119226,1.13313,-0.0361767,-1.18045,0.186852,-0.382251,-0.23942,
-0.199928,-0.00270816,0.283478,-1.65463,-0.316167,-0.109779,0.464613,-0.771586,0.223837,-0.785466,-0.294912,0.0961893,0.582201,-0.289534,0,0,0,0,0,0,0,-0.185477,-0.0057696,0.297877,-1.64645,-0.319133,1.45046,1.26103,-0.671483,0.225261,-0.71242,-0.181804,-0.159724,0.650724,-0.127631,-1.36517,-33.9708,-1.36382,25.3085,-0.109257,1.38878,-0.217789,-0.754648,-0.331951,-2.00295,0.29096,0.867441,-0.0123124,0.0119226,1.13313,-0.0361767,-1.18045,0.186852,-0.382251,-0.23942,
-0.219325,0.00308037,0.26339,-1.65891,-0.308697,-0.0917911,0.462812,-0.676995,0.180591,-0.689659,-0.252572,0.364488,0.474653,-0.245112,0,0,0,0,0,0,0,-0.185477,-0.0057696,0.297877,-1.64645,-0.319133,1.45046,1.26103,-0.671483,0.225261,-0.71242,-0.181804,-0.159724,0.650724,-0.127631,-1.36517,-33.9708,-1.36382,25.3085,-0.109257,1.38878,-0.217789,-0.583569,0.380471,-2.60896,-0.037434,1.34178,0.338977,0.371903,1.52395,0.306789,-1.48263,0.364957,-0.418475,-0.241478,
-0.221994,0.00379616,0.26067,-1.65991,-0.307211,-0.089949,0.461848,-0.667447,0.178949,-0.680009,-0.250591,0.371375,0.460521,-0.241065,0,0,0,0,0,0,0,-0.185477,-0.0057696,0.297877,-1.64645,-0.319133,1.45046,1.26103,-0.671483,0.225261,-0.71242,-0.181804,-0.159724,0.650724,-0.127631,-1.36517,-33.9708,-1.36382,25.3085,-0.109257,1.38878,-0.217789,-0.583569,0.380471,-2.60896,-0.037434,1.34178,0.338977,0.371903,1.52395,0.306789,-1.48263,0.364957,-0.418475,-0.241478,
-0.224629,0.00450126,0.257986,-1.66091,-0.305692,-0.0881409,0.460898,-0.658726,0.176275,-0.671191,-0.249947,0.379726,0.452023,-0.237595,0,0,0,0,0,0,0,-0.185477,-0.0057696,0.297877,-1.64645,-0.319133,1.45046,1.26103,-0.671483,0.225261,-0.71242,-0.181804,-0.159724,0.650724,-0.127631,-1.36517,-33.9708,-1.36382,25.3085,-0.109257,1.38878,-0.217789,-0.885784,1.73317,-2.53307,-0.672684,1.08342,1.06151,1.09818,1.32996,1.02448,-1.41392,0.635723,-0.357567,-0.241469,
-0.227232,0.00519368,0.255334,-1.66191,-0.304135,-0.0863457,0.459961,-0.650607,0.173104,-0.66298,-0.249791,0.389419,0.448806,-0.234252,0,0,0,0,0,0,0,-0.213561,0.00323364,0.268667,-1.6536,-0.319354,1.47903,1.25495,-0.669383,0.220375,-0.6875,-0.182368,0.0727087,0.684287,-0.167014,0.689884,-36.4186,0.536512,25.3085,0.0619471,1.05736,-0.190323,-1.96489,-0.244471,-1.92713,0.568577,-0.00414655,0.0072833,0.0365389,0.739127,-0.0205557,-1.08546,0.464119,-0.374586,-0.237225,
-0.229804,0.00587215,0.252713,-1.66291,-0.302532,-0.08454,0.459036,-0.642955,0.169619,-0.655244,-0.249929,0.400623,0.451428,-0.231046,0,0,0,0,0,0,0,-0.213561,0.00323364,0.268667,-1.6536,-0.319354,1.47903,1.25495,-0.669383,0.220375,-0.6875,-0.182368,0.0727087,0.684287,-0.167014,0.689884,-36.4186,0.536512,25.3085,0.0619471,1.05736,-0.190323,-1.96489,-0.244471,-1.92713,0.568577,-0.00414655,0.0072833,0.0365389,0.739127,-0.0205557,-1.08546,0.464119,-0.374586,-0.237225,
-0.220809,0.00324147,0.261841,-1.66007,-0.308902,-0.0917191,0.460573,-0.72245,0.190838,-0.736282,-0.280414,0.365879,0.480559,-0.288415,0,0,0,0,0,0,0,-0.213561,0.00323364,0.268667,-1.6536,-0.319354,1.47903,1.25495,-0.669383,0.220375,-0.6875,-0.182368,0.0727087,0.684287,-0.167014,0.689884,-36.4186,0.536512,25.3085,0.0619471,1.05736,-0.190323,-1.62718,-0.688279,-2.30441,0.785333,0.443384,-0.252412,-0.222351,1.08362,-0.280311,-1.28958,0.36451,-0.423192,-0.233368,
-0.245408,0.0111166,0.23617,-1.66585,-0.300824,-0.0634127,0.456684,-0.627223,0.151556,-0.63992,-0.249407,0.511494,0.527809,-0.247933,0,0,0,0,0,0,0,-0.213561,0.00323364,0.268667,-1.6536,-0.319354,1.47903,1.25495,-0.669383,0.220375,-0.6875,-0.182368,0.0727087,0.684287,-0.167014,0.689884,-36.4186,0.536512,25.3085,0.0619471,1.05736,-0.190323,-1.62718,-0.688279,-2.30441,0.785333,0.443384,-0.252412,-0.222351,1.08362,-0.280311,-1.28958,0.36451,-0.423192,-0.233368,
-0.247875,0.0117153,0.233652,-1.66683,-0.298765,-0.0613601,0.455708,-0.61682,0.149661,-0.629437,-0.245558,0.514811,0.513152,-0.243989,0,0,0,0,0,0,0,-0.213561,0.00323364,0.268667,-1.6536,-0.319354,1.47903,1.25495,-0.669383,0.220375,-0.6875,-0.182368,0.0727087,0.684287,-0.167014,0.689884,-36.4186,0.536512,25.3085,0.0619471,1.05736,-0.190323,-2.68608,0.491232,-1.49452,0.0426675,-0.703087,0.392041,0.424296,0.23349,0.360936,-0.902928,0.399122,-0.368927,-0.230464,
-0.250304,0.012303,0.231173,-1.6678,-0.296691,-0.0593681,0.454745,-0.607143,0.146942,-0.619686,-0.242648,0.518315,0.497999,-0.240677,0,0,0,0,0,0,0,-0.213561,0.00323364,0.268667,-1.6536,-0.319354,1.47903,1.25495,-0.669383,0.220375,-0.6875,-0.182368,0.0727087,0.684287,-0.167014,0.689884,-36.4186,0.536512,25.3085,0.0619471,1.05736,-0.190323,-2.50796,2.746,-1.9446,-1.30514,-0.417805,1.64314,1.68224,0.31546,1.5992,-1.03946,0.576608,-0.25053,-0.232523,
-0.252696,0.0128782,0.228731,-1.66876,-0.294602,-0.0574397,0.453795,-0.598037,0.143795,-0.610509,-0.240058,0.522242,0.482098,-0.237485,0,0,0,0,0,0,0,-0.234735,0.00984862,0.246593,-1.65921,-0.31494,1.49901,1.24998,-0.670827,0.200758,-0.720199,-0.183521,0.176483,0.612825,-0.147002,0.182071,-35.8672,0.413527,26.0306,0.0198328,1.68084,-0.117081,-2.50796,2.746,-1.9446,-1.30514,-0.417805,1.64314,1.68224,0.31546,1.5992,-1.03946,0.576608,-0.25053,-0.232523,
-0.255053,0.0134397,0.226324,-1.66971,-0.292494,-0.0555772,0.452858,-0.589394,0.140372,-0.601798,-0.237605,0.526963,0.465627,-0.234406,0,0,0,0,0,0,0,-0.234735,0.00984862,0.246593,-1.65921,-0.31494,1.49901,1.24998,-0.670827,0.200758,-0.720199,-0.183521,0.176483,0.612825,-0.147002,0.182071,-35.8672,0.413527,26.0306,0.0198328,1.68084,-0.117081,-0.517723,0.127414,-2.62071,0.307791,1.24268,0.208794,0.238993,1.45819,0.179022,-1.35353,0.376001,-0.277944,-0.228509,
-0.257378,0.0139866,0.22395,-1.67065,-0.290363,-0.0537816,0.451932,-0.581121,0.136736,-0.593467,-0.235257,0.532929,0.44889,-0.23149,0,0,0,0,0,0,0,-0.234735,0.00984862,0.246593,-1.65921,-0.31494,1.49901,1.24998,-0.670827,0.200758,-0.720199,-0.183521,0.176483,0.612825,-0.147002,0.182071,-35.8672,0.413527,26.0306,0.0198328,1.68084,-0.117081,-0.517723,0.127414,-2.62071,0.307791,1.24268,0.208794,0.238993,1.45819,0.179022,-1.35353,0.376001,-0.277944,-0.228509,
-0.247023,0.0113075,0.234493,-1.66666,-0.296274,-0.0650616,0.454544,-0.673429,0.162222,-0.687129,-0.270923,0.627849,0.4823,-0.28927,0,0,0,0,0,0,0,-0.234735,0.00984862,0.246593,-1.65921,-0.31494,1.49901,1.24998,-0.670827,0.200758,-0.720199,-0.183521,0.176483,0.612825,-0.147002,0.182071,-35.8672,0.413527,26.0306,0.0198328,1.68084,-0.117081,-0.499934,-2.34761,-1.8361,1.74626,0.857311,-1.16582,-1.13723,1.2303,-1.1841,-1.02267,0.110322,-0.320945,-0.22511,
-0.265528,0.0167265,0.215166,-1.6708,-0.290972,-0.048826,0.451689,-0.58533,0.126323,-0.597763,-0.23449,0.578426,0.346375,-0.249145,0,0,0,0,0,0,0,-0.234735,0.00984862,0.246593,-1.65921,-0.31494,1.49901,1.24998,-0.670827,0.200758,-0.720199,-0.183521,0.176483,0.612825,-0.147002,0.182071,-35.8672,0.413527,26.0306,0.0198328,1.68084,-0.117081,-1.70449,-0.325801,-0.508536,0.504101,-0.685411,-0.085487,-0.0529266,-0.0139615,-0.111362,-0.382709,0.253041,-0.202599,-0.221437,
-0.267824,0.0172214,0.21282,-1.67173,-0.28868,-0.0474919,0.450707,-0.57411,0.12373,-0.586542,-0.23242,0.572998,0.333522,-0.245439,0,0,0,0,0,0,0,-0.255234,0.0160027,0.22531,-1.66504,-0.306261,1.51769,1.24601,-0.648768,0.207462,-0.673899,-0.183506,0.314459,0.559075,-0.11608,2.61798,-37.343,2.48842,26.2289,-0.0900305,1.43548,-0.177505,-1.70449,-0.325801,-0.508536,0.504101,-0.685411,-0.085487,-0.0529266,-0.0139615,-0.111362,-0.382709,0.253041,-0.202599,-0.221437,
-0.27008,0.0177031,0.210515,-1.67266,-0.286406,-0.0461876,0.449738,-0.564003,0.120439,-0.576425,-0.231611,0.568647,0.32608,-0.242274,0,0,0,0,0,0,0,-0.255234,0.0160027,0.22531,-1.66504,-0.306261,1.51769,1.24601,-0.648768,0.207462,-0.673899,-0.183506,0.314459,0.559075,-0.11608,2.61798,-37.343,2.48842,26.2289,-0.0900305,1.43548,-0.177505,-1.03287,0.733782,-0.586608,-0.148339,-0.138819,0.493748,0.539387,0.222917,0.448551,-0.494147,0.308026,-0.230482,-0.221505,
-0.2723,0.0181708,0.208246,-1.67359,-0.284145,-0.0448934,0.448781,-0.554765,0.116911,-0.567168,-0.231278,0.565202,0.323534,-0.239217,0,0,0,0,0,0,0,-0.255234,0.0160027,0.22531,-1.66504,-0.306261,1.51769,1.24601,-0.648768,0.207462,-0.673899,-0.183506,0.314459,0.559075,-0.11608,2.61798,-37.343,2.48842,26.2289,-0.0900305,1.43548,-0.177505,-1.03287,0.733782,-0.586608,-0.148339,-0.138819,0.493748,0.539387,0.222917,0.448551,-0.494147,0.308026,-0.230482,-0.221505,
-0.274484,0.018624,0.206011,-1.67451,-0.281894,-0.0435887,0.447836,-0.546232,0.113295,-0.55861,-0.231225,0.562739,0.326189,-0.236275,0,0,0,0,0,0,0,-0.255234,0.0160027,0.22531,-1.66504,-0.306261,1.51769,1.24601,-0.648768,0.207462,-0.673899,-0.183506,0.314459,0.559075,-0.11608,2.61798,-37.343,2.48842,26.2289,-0.0900305,1.43548,-0.177505,-0.721786,-2.38046,-1.52481,1.75185,0.657035,-1.24214,-1.20578,1.12083,-1.26378,-0.995325,0.0634464,-0.427383,-0.218679,
-0.276637,0.0190637,0.203809,-1.67543,-0.279649,-0.0422693,0.446902,-0.53813,0.109938,-0.550477,-0.230476,0.561254,0.32984,-0.233512,0,0,0,0,0,0,0,-0.255234,0.0160027,0.22531,-1.66504,-0.306261,1.51769,1.24601,-0.648768,0.207462,-0.673899,-0.183506,0.314459,0.559075,-0.11608,2.61798,-37.343,2.48842,26.2289,-0.0900305,1.43548,-0.177505,-0.721786,-2.38046,-1.52481,1.75185,0.657035,-1.24214,-1.20578,1.12083,-1.26378,-0.995325,0.0634464,-0.427383,-0.218679,
-0.266839,0.0166481,0.213785,-1.67172,-0.284813,-0.0495384,0.449648,-0.620475,0.129506,-0.63402,-0.257583,0.729311,0.328631,-0.28854,0,0,0,0,0,0,0,-0.255234,0.0160027,0.22531,-1.66504,-0.306261,1.51769,1.24601,-0.648768,0.207462,-0.673899,-0.183506,0.314459,0.559075,-0.11608,2.61798,-37.343,2.48842,26.2289,-0.0900305,1.43548,-0.177505,0.0151655,-2.21654,-1.63497,1.70738,1.17882,-1.12488,-1.08521,1.39359,-1.15029,-1.03547,0.115996,-0.391231,-0.215748,
-0.2837,0.0221432,0.196209,-1.67657,-0.279172,-0.0331804,0.447695,-0.536729,0.101701,-0.549437,-0.230903,0.645003,0.3243,-0.250987,0,0,0,0,0,0,0,-0.275705,0.0222103,0.204286,-1.67058,-0.29466,1.5346,1.2422,-0.6283,0.184224,-0.660492,-0.163299,0.363537,0.498612,-0.118502,3.68122,-37.4144,3.61116,25.9552,0.0134241,1.48125,-0.210464,-0.513618,0.706292,-1.87507,-0.015118,0.977011,0.460619,0.510417,1.16384,0.407936,-1.17543,0.328301,-0.387476,-0.215285,
-0.285804,0.0225372,0.194055,-1.67748,-0.276602,-0.0319221,0.446706,-0.525952,0.098509,-0.538644,-0.228182,0.642504,0.314591,-0.247399,0,0,0,0,0,0,0,-0.275705,0.0222103,0.204286,-1.67058,-0.29466,1.5346,1.2422,-0.6283,0.184224,-0.660492,-0.163299,0.363537,0.498612,-0.118502,3.68122,-37.4144,3.61116,25.9552,0.0134241,1.48125,-0.210464,-0.513618,0.706292,-1.87507,-0.015118,0.977011,0.460619,0.510417,1.16384,0.407936,-1.17543,0.328301,-0.387476,-0.215285,
-0.287868,0.0229167,0.19194,-1.67839,-0.274048,-0.0306866,0.445728,-0.516022,0.0948694,-0.528699,-0.226662,0.638474,0.308863,-0.244349,0,0,0,0,0,0,0,-0.275705,0.0222103,0.204286,-1.67058,-0.29466,1.5346,1.2422,-0.6283,0.184224,-0.660492,-0.163299,0.363537,0.498612,-0.118502,3.68122,-37.4144,3.61116,25.9552,0.0134241,1.48125,-0.210464,-1.58692,1.38004,-1.98903,-0.434778,0.386204,0.755001,0.81023,0.883698,0.693041,-1.27396,0.328157,-0.465972,-0.211908,
-0.289895,0.0232813,0.189862,-1.67929,-0.271514,-0.0294597,0.444763,-0.506796,0.0911465,-0.519457,-0.225648,0.63338,0.306725,-0.241413,0,0,0,0,0,0,0,-0.275705,0.0222103,0.204286,-1.67058,-0.29466,1.5346,1.2422,-0.6283,0.184224,-0.660492,-0.163299,0.363537,0.498612,-0.118502,3.68122,-37.4144,3.61116,25.9552,0.0134241,1.48125,-0.210464,-1.58692,1.38004,-1.98903,-0.434778,0.386204,0.755001,0.81023,0.883698,0.693041,-1.27396,0.328157,-0.465972,-0.211908,
-0.291888,0.0236311,0.187819,-1.68019,-0.269003,-0.028226,0.443808,-0.498172,0.0874519,-0.510816,-0.224947,0.627746,0.308428,-0.238588,0,0,0,0,0,0,0,-0.275705,0.0222103,0.204286,-1.67058,-0.29466,1.5346,1.2422,-0.6283,0.184224,-0.660492,-0.163299,0.363537,0.498612,-0.118502,3.68122,-37.4144,3.61116,25.9552,0.0134241,1.48125,-0.210464,-2.11912,-2.00946,-1.64931,1.61855,-0.164066,-1.18038,-1.14538,0.795366,-1.19334,-1.07913,0.122966,-0.499805,-0.202741,
-0.282851,0.0216808,0.197045,-1.67628,-0.274149,-0.0352909,0.446859,-0.585801,0.10663,-0.599904,-0.255355,0.850651,0.311811,-0.300169,0,0,0,0,0,0,0,-0.295747,0.028352,0.183442,-1.67547,-0.281343,1.54967,1.23697,-0.581484,0.17579,-0.593926,-0.151899,0.415349,0.438314,-0.170473,3.22498,-38.4895,3.31361,26.0306,0.312802,1.64055,-0.210464,-2.11912,-2.00946,-1.64931,1.61855,-0.164066,-1.18038,-1.14538,0.795366,-1.19334,-1.07913,0.122966,-0.499805,-0.202741,
-0.319729,0.0327059,0.158852,-1.68559,-0.251361,-0.00494431,0.43943,-0.503681,0.0783382,-0.516978,-0.227433,0.733354,0.293814,-0.262621,0,0,0,0,0,0,0,-0.295747,0.028352,0.183442,-1.67547,-0.281343,1.54967,1.23697,-0.581484,0.17579,-0.593926,-0.151899,0.415349,0.438314,-0.170473,3.22498,-38.4895,3.31361,26.0306,0.312802,1.64055,-0.210464,-1.88401,-1.4371,-1.75195,1.36976,-0.00520464,-0.858889,-0.821976,0.85966,-0.874949,-1.09396,0.239478,-0.449403,-0.203201,
-0.321709,0.0330086,0.156818,-1.68649,-0.248418,-0.00382138,0.438383,-0.494968,0.0756729,-0.508348,-0.224834,0.735596,0.280733,-0.261968,0,0,0,0,0,0,0,-0.295747,0.028352,0.183442,-1.67547,-0.281343,1.54967,1.23697,-0.581484,0.17579,-0.593926,-0.151899,0.415349,0.438314,-0.170473,3.22498,-38.4895,3.31361,26.0306,0.312802,1.64055,-0.210464,-2.01684,0.834304,-1.79806,0.0218178,-0.0964493,0.38357,0.430724,0.638906,0.339574,-1.10828,0.383668,-0.398351,-0.202435,
-0.323651,0.0333083,0.154824,-1.68736,-0.245482,-0.00275861,0.437372,-0.485505,0.0749201,-0.498537,-0.218889,0.734088,0.265691,-0.252757,0,0,0,0,0,0,0,-0.295747,0.028352,0.183442,-1.67547,-0.281343,1.54967,1.23697,-0.581484,0.17579,-0.593926,-0.151899,0.415349,0.438314,-0.170473,3.22498,-38.4895,3.31361,26.0306,0.312802,1.64055,-0.210464,-2.01684,0.834304,-1.79806,0.0218178,-0.0964493,0.38357,0.430724,0.638906,0.339574,-1.10828,0.383668,-0.398351,-0.202435,
-0.325557,0.0335989,0.152866,-1.68823,-0.242566,-0.00173537,0.436374,-0.476556,0.0726572,-0.489542,-0.216212,0.728882,0.255812,-0.249308,0,0,0,0,0,0,0,-0.295747,0.028352,0.183442,-1.67547,-0.281343,1.54967,1.23697,-0.581484,0.17579,-0.593926,-0.151899,0.415349,0.438314,-0.170473,3.22498,-38.4895,3.31361,26.0306,0.312802,1.64055,-0.210464,-3.5062,1.20794,-1.08861,-0.323786,-1.41948,0.442094,0.492701,-0.215253,0.395761,-0.805918,0.321427,-0.413846,-0.19943,
-0.327429,0.0338787,0.150942,-1.68909,-0.239683,-0.00073871,0.435389,-0.46813,0.0699331,-0.481082,-0.21472,0.72085,0.249164,-0.246345,0,0,0,0,0,0,0,-0.295747,0.028352,0.183442,-1.67547,-0.281343,1.54967,1.23697,-0.581484,0.17579,-0.593926,-0.151899,0.415349,0.438314,-0.170473,3.22498,-38.4895,3.31361,26.0306,0.312802,1.64055,-0.210464,-3.5062,1.20794,-1.08861,-0.323786,-1.41948,0.442094,0.492701,-0.215253,0.395761,-0.805918,0.321427,-0.413846,-0.19943,
-0.32927,0.034147,0.149049,-1.68994,-0.236839,0.000243157,0.434415,-0.460171,0.0670868,-0.473094,-0.213748,0.710867,0.245467,-0.2435,0,0,0,0,0,0,0,-0.314368,0.0335226,0.16413,-1.68075,-0.267623,1.56212,1.2316,-0.570423,0.147113,-0.597142,-0.17256,0.485317,0.376015,-0.180387,1.4278,-37.8667,1.61165,26.2289,0.60577,1.86577,-0.258072,-2.60008,-1.55014,-2.12555,1.51868,-0.299751,-1.02149,-0.988687,0.8533,-1.026,-1.24261,0.244044,-0.466544,-0.197652,
-0.322573,0.0325825,0.155888,-1.68706,-0.238354,-0.00582922,0.43656,-0.514953,0.0672242,-0.529175,-0.239874,1.00897,0.22528,-0.296999,0,0,0,0,0,0,0,-0.314368,0.0335226,0.16413,-1.68075,-0.267623,1.56212,1.2316,-0.570423,0.147113,-0.597142,-0.17256,0.485317,0.376015,-0.180387,1.4278,-37.8667,1.61165,26.2289,0.60577,1.86577,-0.258072,-2.60008,-1.55014,-2.12555,1.51868,-0.299751,-1.02149,-0.988687,0.8533,-1.026,-1.24261,0.244044,-0.466544,-0.197652,
-0.33867,0.037014,0.139187,-1.6914,-0.231576,0.0043653,0.433099,-0.44703,0.0482254,-0.460278,-0.215743,0.788744,0.21221,-0.260641,0,0,0,0,0,0,0,-0.314368,0.0335226,0.16413,-1.68075,-0.267623,1.56212,1.2316,-0.570423,0.147113,-0.597142,-0.17256,0.485317,0.376015,-0.180387,1.4278,-37.8667,1.61165,26.2289,0.60577,1.86577,-0.258072,-1.22742,-2.22401,-2.70713,2.12188,0.790618,-1.26494,-1.23404,1.57912,-1.26072,-1.41895,0.349692,-0.381763,-0.196435,
-0.340418,0.0372029,0.137388,-1.69223,-0.228429,0.0051678,0.432091,-0.436874,0.0472432,-0.449908,-0.209634,0.786858,0.200627,-0.252066,0,0,0,0,0,0,0,-0.314368,0.0335226,0.16413,-1.68075,-0.267623,1.56212,1.2316,-0.570423,0.147113,-0.597142,-0.17256,0.485317,0.376015,-0.180387,1.4278,-37.8667,1.61165,26.2289,0.60577,1.86577,-0.258072,-1.11281,0.613687,-2.585,0.430638,0.741515,0.320472,0.35974,1.25829,0.290741,-1.3456,0.524346,-0.295226,-0.198903,
-0.342128,0.0373821,0.135625,-1.69306,-0.225287,0.00594155,0.431095,-0.427676,0.0448058,-0.440779,-0.206663,0.78561,0.193436,-0.248861,0,0,0,0,0,0,0,-0.314368,0.0335226,0.16413,-1.68075,-0.267623,1.56212,1.2316,-0.570423,0.147113,-0.597142,-0.17256,0.485317,0.376015,-0.180387,1.4278,-37.8667,1.61165,26.2289,0.60577,1.86577,-0.258072,-1.11281,0.613687,-2.585,0.430638,0.741515,0.320472,0.35974,1.25829,0.290741,-1.3456,0.524346,-0.295226,-0.198903,
-0.343804,0.0375503,0.133896,-1.69388,-0.222168,0.00669536,0.430111,-0.41895,0.0420318,-0.432017,-0.204806,0.77957,0.188452,-0.246028,0,0,0,0,0,0,0,-0.331379,0.037367,0.146483,-1.68633,-0.252855,1.57284,1.22653,-0.53827,0.125337,-0.571323,-0.179305,0.50454,0.302835,-0.155109,2.59418,-38.8902,2.6114,27.0779,1.11847,2.01867,-0.177505,-1.15938,0.71424,-2.23755,0.332969,0.513495,0.359436,0.407865,1.03781,0.320409,-1.18351,0.512716,-0.271007,-0.193801,
-0.345447,0.0377071,0.132202,-1.69469,-0.219088,0.00743755,0.429138,-0.410639,0.0392025,-0.423683,-0.203478,0.770049,0.185548,-0.243304,0,0,0,0,0,0,0,-0.331379,0.037367,0.146483,-1.68633,-0.252855,1.57284,1.22653,-0.53827,0.125337,-0.571323,-0.179305,0.50454,0.302835,-0.155109,2.59418,-38.8902,2.6114,27.0779,1.11847,2.01867,-0.177505,-1.15938,0.71424,-2.23755,0.332969,0.513495,0.359436,0.407865,1.03781,0.320409,-1.18351,0.512716,-0.271007,-0.193801,
-0.347058,0.0378527,0.130539,-1.6955,-0.216055,0.00817789,0.428175,-0.402734,0.0364069,-0.415767,-0.202503,0.758139,0.185087,-0.240691,0,0,0,0,0,0,0,-0.331379,0.037367,0.146483,-1.68633,-0.252855,1.57284,1.22653,-0.53827,0.125337,-0.571323,-0.179305,0.50454,0.302835,-0.155109,2.59418,-38.8902,2.6114,27.0779,1.11847,2.01867,-0.177505,-1.12098,-1.06966,-1.95935,1.42067,0.358076,-0.635802,-0.596711,1.04722,-0.643712,-1.02128,0.457466,-0.250865,-0.187749,
-0.339493,0.0366197,0.138286,-1.69196,-0.224605,0.00363289,0.431337,-0.471405,0.0396175,-0.485794,-0.228912,1.03864,0.191118,-0.294605,0,0,0,0,0,0,0,-0.331379,0.037367,0.146483,-1.68633,-0.252855,1.57284,1.22653,-0.53827,0.125337,-0.571323,-0.179305,0.50454,0.302835,-0.155109,2.59418,-38.8902,2.6114,27.0779,1.11847,2.01867,-0.177505,-1.12098,-1.06966,-1.95935,1.42067,0.358076,-0.635802,-0.596711,1.04722,-0.643712,-1.02128,0.457466,-0.250865,-0.187749,
-0.353874,0.039797,0.123345,-1.69663,-0.213945,0.0124441,0.428104,-0.404309,0.0245026,-0.417672,-0.205195,0.850947,0.160492,-0.259448,0,0,0,0,0,0,0,-0.331379,0.037367,0.146483,-1.68633,-0.252855,1.57284,1.22653,-0.53827,0.125337,-0.571323,-0.179305,0.50454,0.302835,-0.155109,2.59418,-38.8902,2.6114,27.0779,1.11847,2.01867,-0.177505,-1.38981,-2.32638,-1.0801,2.05417,-0.298678,-1.36788,-1.33466,0.591314,-1.35245,-0.595922,0.371621,-0.200843,-0.185862,
-0.355448,0.0398909,0.121717,-1.69742,-0.210572,0.0130336,0.427098,-0.393683,0.023474,-0.406874,-0.198949,0.84333,0.147379,-0.25151,0,0,0,0,0,0,0,-0.353934,0.0419251,0.123066,-1.69366,-0.229051,1.58319,1.21956,-0.519172,0.0988677,-0.5428,-0.164758,0.576784,0.188058,-0.1605,4.16523,-38.8902,3.98805,26.8796,0.703732,2.18438,-0.143631,-0.285245,0.959166,-0.941139,0.0519319,0.305651,0.587562,0.643582,0.504144,0.539434,-0.542931,0.523203,-0.118679,-0.187935,
-0.356984,0.0399753,0.120129,-1.6982,-0.207237,0.0135853,0.426104,-0.383911,0.0211073,-0.397163,-0.195769,0.833551,0.137924,-0.248445,0,0,0,0,0,0,0,-0.353934,0.0419251,0.123066,-1.69366,-0.229051,1.58319,1.21956,-0.519172,0.0988677,-0.5428,-0.164758,0.576784,0.188058,-0.1605,4.16523,-38.8902,3.98805,26.8796,0.703732,2.18438,-0.143631,-0.285245,0.959166,-0.941139,0.0519319,0.305651,0.587562,0.643582,0.504144,0.539434,-0.542931,0.523203,-0.118679,-0.187935,
-0.358483,0.0400489,0.118576,-1.69898,-0.203958,0.0141065,0.425121,-0.374772,0.0184055,-0.38804,-0.193725,0.819772,0.130293,-0.245756,0,0,0,0,0,0,0,-0.353934,0.0419251,0.123066,-1.69366,-0.229051,1.58319,1.21956,-0.519172,0.0988677,-0.5428,-0.164758,0.576784,0.188058,-0.1605,4.16523,-38.8902,3.98805,26.8796,0.703732,2.18438,-0.143631,0.224773,1.50037,-1.26117,-0.255936,0.782856,0.9648,1.02762,0.747945,0.899694,-0.672644,0.520257,-0.102412,-0.189137,
-0.359948,0.0401116,0.117058,-1.69975,-0.200747,0.014604,0.424148,-0.366197,0.015664,-0.379486,-0.192232,0.802938,0.124396,-0.243168,0,0,0,0,0,0,0,-0.353934,0.0419251,0.123066,-1.69366,-0.229051,1.58319,1.21956,-0.519172,0.0988677,-0.5428,-0.164758,0.576784,0.188058,-0.1605,4.16523,-38.8902,3.98805,26.8796,0.703732,2.18438,-0.143631,0.224773,1.50037,-1.26117,-0.255936,0.782856,0.9648,1.02762,0.747945,0.899694,-0.672644,0.520257,-0.102412,-0.189137,
-0.361381,0.0401635,0.115573,-1.70051,-0.197611,0.0150869,0.423185,-0.358145,0.0129773,-0.37146,-0.191129,0.783854,0.120721,-0.240679,0,0,0,0,0,0,0,-0.353934,0.0419251,0.123066,-1.69366,-0.229051,1.58319,1.21956,-0.519172,0.0988677,-0.5428,-0.164758,0.576784,0.188058,-0.1605,4.16523,-38.8902,3.98805,26.8796,0.703732,2.18438,-0.143631,-0.389702,-0.285725,-1.75651,0.900855,0.635324,-0.0999806,-0.045381,1.00181,-0.133545,-0.868064,0.446106,-0.145353,-0.189055,
-0.354169,0.0393399,0.122986,-1.69719,-0.210748,0.0117858,0.426431,-0.416238,0.0130989,-0.430729,-0.217606,1.02035,0.1454,-0.291861,0,0,0,0,0,0,0,-0.353934,0.0419251,0.123066,-1.69366,-0.229051,1.58319,1.21956,-0.519172,0.0988677,-0.5428,-0.164758,0.576784,0.188058,-0.1605,4.16523,-38.8902,3.98805,26.8796,0.703732,2.18438,-0.143631,-1.62375,-1.01133,-1.64913,1.29018,-0.201139,-0.680583,-0.635956,0.661061,-0.690175,-0.821145,0.368367,-0.177807,-0.189101,
-0.374332,0.0431421,0.102042,-1.70357,-0.190809,0.0193335,0.421226,-0.354244,0.000548825,-0.367773,-0.202135,0.793607,0.148255,-0.257966,0,0,0,0,0,0,0,-0.369164,0.0446713,0.107385,-1.6984,-0.210741,1.58792,1.21426,-0.459157,0.0924639,-0.474572,-0.13942,0.585369,0.125452,-0.180042,3.73279,-38.8902,3.68654,26.9788,0.245053,2.17156,-0.183914,-1.62375,-1.01133,-1.64913,1.29018,-0.201139,-0.680583,-0.635956,0.661061,-0.690175,-0.821145,0.368367,-0.177807,-0.189101,
-0.375706,0.0431424,0.100615,-1.70435,-0.187707,0.0199298,0.420224,-0.343391,8.76264e-05,-0.356815,-0.196378,0.775472,0.149083,-0.250665,0,0,0,0,0,0,0,-0.369164,0.0446713,0.107385,-1.6984,-0.210741,1.58792,1.21426,-0.459157,0.0924639,-0.474572,-0.13942,0.585369,0.125452,-0.180042,3.73279,-38.8902,3.68654,26.9788,0.245053,2.17156,-0.183914,-2.38118,-1.97318,-1.76211,1.77851,-0.583279,-1.31397,-1.27116,0.605321,-1.31097,-0.878295,0.203352,-0.219144,-0.189785,
-0.37704,0.0431362,0.0992256,-1.70512,-0.184669,0.0205309,0.419232,-0.333702,-0.00154269,-0.347305,-0.192878,0.75953,0.150286,-0.247823,0,0,0,0,0,0,0,-0.369164,0.0446713,0.107385,-1.6984,-0.210741,1.58792,1.21426,-0.459157,0.0924639,-0.474572,-0.13942,0.585369,0.125452,-0.180042,3.73279,-38.8902,3.68654,26.9788,0.245053,2.17156,-0.183914,-2.38118,-1.97318,-1.76211,1.77851,-0.583279,-1.31397,-1.27116,0.605321,-1.31097,-0.878295,0.203352,-0.219144,-0.189785,
-0.378341,0.0431219,0.0978701,-1.70589,-0.181686,0.0211346,0.418251,-0.325106,-0.00358948,-0.338864,-0.190265,0.74578,0.150906,-0.24533,0,0,0,0,0,0,0,-0.369164,0.0446713,0.107385,-1.6984,-0.210741,1.58792,1.21426,-0.459157,0.0924639,-0.474572,-0.13942,0.585369,0.125452,-0.180042,3.73279,-38.8902,3.68654,26.9788,0.245053,2.17156,-0.183914,-1.13041,0.312752,-2.19639,0.521266,0.376359,0.126697,0.187455,0.930578,0.0793246,-1.05014,0.358127,-0.160478,-0.191465,
-0.379611,0.0430988,0.0965447,-1.70664,-0.178748,0.0217385,0.41728,-0.31745,-0.00577563,-0.331344,-0.188095,0.734449,0.150992,-0.242898,0,0,0,0,0,0,0,-0.369164,0.0446713,0.107385,-1.6984,-0.210741,1.58792,1.21426,-0.459157,0.0924639,-0.474572,-0.13942,0.585369,0.125452,-0.180042,3.73279,-38.8902,3.68654,26.9788,0.245053,2.17156,-0.183914,-0.549157,0.459332,-2.61791,0.506221,0.942327,0.301689,0.365593,1.29007,0.245951,-1.21903,0.364419,-0.151128,-0.19115,
-0.380853,0.0430668,0.0952462,-1.70738,-0.175845,0.0223422,0.416317,-0.310613,-0.00798617,-0.324626,-0.18623,0.725845,0.150925,-0.240522,0,0,0,0,0,0,0,-0.383316,0.0468061,0.0926535,-1.70273,-0.191899,1.59092,1.20959,-0.43069,0.0525695,-0.468691,-0.146371,0.582058,0.0811902,-0.12915,3.09803,-38.9894,3.11128,27.0026,0.477596,2.46911,-0.163772,-0.549157,0.459332,-2.61791,0.506221,0.942327,0.301689,0.365593,1.29007,0.245951,-1.21903,0.364419,-0.151128,-0.19115,
-0.374752,0.0426479,0.101544,-1.70411,-0.187027,0.0198996,0.419623,-0.371411,-0.012095,-0.386411,-0.212673,1.00812,0.161586,-0.289094,0,0,0,0,0,0,0,-0.383316,0.0468061,0.0926535,-1.70273,-0.191899,1.59092,1.20959,-0.43069,0.0525695,-0.468691,-0.146371,0.582058,0.0811902,-0.12915,3.09803,-38.9894,3.11128,27.0026,0.477596,2.46911,-0.163772,-1.04373,-1.01974,-2.70189,1.33222,0.687451,-0.577515,-0.517448,1.33393,-0.612212,-1.23464,0.212541,-0.163935,-0.187125,
-0.400964,0.0464378,0.0743268,-1.71215,-0.151058,0.0274094,0.411352,-0.311536,-0.0238837,-0.325731,-0.185067,0.921974,0.130585,-0.25468,0,0,0,0,0,0,0,-0.383316,0.0468061,0.0926535,-1.70273,-0.191899,1.59092,1.20959,-0.43069,0.0525695,-0.468691,-0.146371,0.582058,0.0811902,-0.12915,3.09803,-38.9894,3.11128,27.0026,0.477596,2.46911,-0.163772,-1.04373,-1.01974,-2.70189,1.33222,0.687451,-0.577515,-0.517448,1.33393,-0.612212,-1.23464,0.212541,-0.163935,-0.187125,
-0.402173,0.046342,0.0730615,-1.71287,-0.147405,0.0278807,0.410357,-0.302263,-0.023952,-0.316309,-0.179436,0.913077,0.117834,-0.248858,0,0,0,0,0,0,0,-0.383316,0.0468061,0.0926535,-1.70273,-0.191899,1.59092,1.20959,-0.43069,0.0525695,-0.468691,-0.146371,0.582058,0.0811902,-0.12915,3.09803,-38.9894,3.11128,27.0026,0.477596,2.46911,-0.163772,-1.52345,0.120753,-2.38151,0.59644,0.194546,-0.0507627,0.0111573,0.892172,-0.0979367,-1.0943,0.252318,-0.142882,-0.185384,
-0.403349,0.046241,0.0718297,-1.71357,-0.143791,0.0283101,0.409372,-0.293809,-0.0252642,-0.307967,-0.176474,0.903552,0.10733,-0.246186,0,0,0,0,0,0,0,-0.383316,0.0468061,0.0926535,-1.70273,-0.191899,1.59092,1.20959,-0.43069,0.0525695,-0.468691,-0.146371,0.582058,0.0811902,-0.12915,3.09803,-38.9894,3.11128,27.0026,0.477596,2.46911,-0.163772,-1.52345,0.120753,-2.38151,0.59644,0.194546,-0.0507627,0.0111573,0.892172,-0.0979367,-1.0943,0.252318,-0.142882,-0.185384,
-0.404493,0.0461331,0.0706285,-1.71427,-0.140222,0.0287007,0.408397,-0.286059,-0.0269606,-0.300292,-0.174528,0.89231,0.0976694,-0.243763,0,0,0,0,0,0,0,-0.383316,0.0468061,0.0926535,-1.70273,-0.191899,1.59092,1.20959,-0.43069,0.0525695,-0.468691,-0.146371,0.582058,0.0811902,-0.12915,3.09803,-38.9894,3.11128,27.0026,0.477596,2.46911,-0.163772,-1.95899,-1.16861,-2.10874,1.28969,-0.213861,-0.827494,-0.771237,0.753072,-0.851091,-0.956468,0.156036,-0.135474,-0.18543,
-0.405607,0.0460182,0.0694573,-1.71496,-0.136722,0.0290556,0.407432,-0.278598,-0.0287199,-0.292803,-0.17304,0.87503,0.0887218,-0.241351,0,0,0,0,0,0,0,-0.397103,0.0481851,0.0782872,-1.70774,-0.173111,1.59321,1.20513,-0.396877,0.0301599,-0.424306,-0.161632,0.61141,0.0558806,-0.148234,1.80469,-38.2634,1.81398,26.7764,1.19171,2.43615,-0.163772,-1.95899,-1.16861,-2.10874,1.28969,-0.213861,-0.827494,-0.771237,0.753072,-0.851091,-0.956468,0.156036,-0.135474,-0.18543,
-0.406693,0.0458963,0.0683148,-1.71565,-0.133309,0.0293806,0.406476,-0.27143,-0.0304803,-0.285634,-0.171943,0.853265,0.0812507,-0.239031,0,0,0,0,0,0,0,-0.397103,0.0481851,0.0782872,-1.70774,-0.173111,1.59321,1.20513,-0.396877,0.0301599,-0.424306,-0.161632,0.61141,0.0558806,-0.148234,1.80469,-38.2634,1.81398,26.7764,1.19171,2.43615,-0.163772,-1.18135,-1.08224,-2.62165,1.40865,0.498492,-0.648618,-0.591467,1.23086,-0.675048,-1.16424,0.242266,-0.127354,-0.188507,
-0.400648,0.0459213,0.0746075,-1.71254,-0.149822,0.0282704,0.40991,-0.303419,-0.0378398,-0.318586,-0.191844,1.0045,0.153504,-0.282822,0,0,0,0,0,0,0,-0.397103,0.0481851,0.0782872,-1.70774,-0.173111,1.59321,1.20513,-0.396877,0.0301599,-0.424306,-0.161632,0.61141,0.0558806,-0.148234,1.80469,-38.2634,1.81398,26.7764,1.19171,2.43615,-0.163772,-0.296722,0.0453368,-3.12924,0.938203,1.25699,0.113085,0.172118,1.62209,0.0706436,-1.38116,0.400333,-0.118132,-0.194794,
-0.412284,0.0470279,0.0624362,-1.71677,-0.133186,0.0264256,0.407076,-0.253321,-0.042863,-0.267696,-0.183268,0.826841,0.11312,-0.25266,0,0,0,0,0,0,0,-0.397103,0.0481851,0.0782872,-1.70774,-0.173111,1.59321,1.20513,-0.396877,0.0301599,-0.424306,-0.161632,0.61141,0.0558806,-0.148234,1.80469,-38.2634,1.81398,26.7764,1.19171,2.43615,-0.163772,-0.296722,0.0453368,-3.12924,0.938203,1.25699,0.113085,0.172118,1.62209,0.0706436,-1.38116,0.400333,-0.118132,-0.194794,
-0.413258,0.0468558,0.0614047,-1.71748,-0.129985,0.0269401,0.40609,-0.243544,-0.0430123,-0.25786,-0.179941,0.800285,0.128632,-0.246399,0,0,0,0,0,0,0,-0.397103,0.0481851,0.0782872,-1.70774,-0.173111,1.59321,1.20513,-0.396877,0.0301599,-0.424306,-0.161632,0.61141,0.0558806,-0.148234,1.80469,-38.2634,1.81398,26.7764,1.19171,2.43615,-0.163772,-1.75967,-1.05697,-2.44866,1.46663,4.33647e-05,-0.766913,-0.720177,0.982014,-0.773826,-1.0921,0.333527,-0.129317,-0.195529,
-0.414197,0.0466817,0.0604081,-1.71819,-0.126889,0.0274967,0.405115,-0.234666,-0.0435311,-0.249155,-0.176781,0.773891,0.139131,-0.24384,0,0,0,0,0,0,0,-0.409648,0.048617,0.0651134,-1.71271,-0.152398,1.59458,1.2004,-0.360801,0.0137835,-0.388652,-0.14975,0.624053,0.0259646,-0.162567,2.34027,-38.8387,2.26228,27.0541,1.20453,2.41692,-0.103348,-1.75967,-1.05697,-2.44866,1.46663,4.33647e-05,-0.766913,-0.720177,0.982014,-0.773826,-1.0921,0.333527,-0.129317,-0.195529,
-0.415104,0.0465043,0.0594427,-1.71889,-0.123897,0.02808,0.404149,-0.226711,-0.044349,-0.241362,-0.173903,0.748122,0.145842,-0.24157,0,0,0,0,0,0,0,-0.409648,0.048617,0.0651134,-1.71271,-0.152398,1.59458,1.2004,-0.360801,0.0137835,-0.388652,-0.14975,0.624053,0.0259646,-0.162567,2.34027,-38.8387,2.26228,27.0541,1.20453,2.41692,-0.103348,-2.02356,-1.55808,-2.37004,1.76844,-0.196107,-1.10345,-1.05159,0.94052,-1.1074,-1.0702,0.319837,-0.147439,-0.190209,
-0.415982,0.0463228,0.0585051,-1.71957,-0.121003,0.0286791,0.403191,-0.2196,-0.0453811,-0.2344,-0.171338,0.723511,0.149763,-0.239344,0,0,0,0,0,0,0,-0.409648,0.048617,0.0651134,-1.71271,-0.152398,1.59458,1.2004,-0.360801,0.0137835,-0.388652,-0.14975,0.624053,0.0259646,-0.162567,2.34027,-38.8387,2.26228,27.0541,1.20453,2.41692,-0.103348,-2.02356,-1.55808,-2.37004,1.76844,-0.196107,-1.10345,-1.05159,0.94052,-1.1074,-1.0702,0.319837,-0.147439,-0.190209,
-0.411315,0.0466706,0.0634015,-1.71655,-0.134993,0.0283361,0.406771,-0.269534,-0.0563484,-0.285374,-0.192821,0.988272,0.1599,-0.282167,0,0,0,0,0,0,0,-0.409648,0.048617,0.0651134,-1.71271,-0.152398,1.59458,1.2004,-0.360801,0.0137835,-0.388652,-0.14975,0.624053,0.0259646,-0.162567,2.34027,-38.8387,2.26228,27.0541,1.20453,2.41692,-0.103348,-1.19357,0.150548,-1.92227,0.74716,0.0624498,-0.0535529,0.0120879,0.744091,-0.0930854,-0.888582,0.469658,-0.115648,-0.185973,
-0.42218,0.0468277,0.0519358,-1.72096,-0.116513,0.0308465,0.403351,-0.228532,-0.0570731,-0.243873,-0.175455,0.844665,0.177633,-0.252467,0,0,0,0,0,0,0,-0.409648,0.048617,0.0651134,-1.71271,-0.152398,1.59458,1.2004,-0.360801,0.0137835,-0.388652,-0.14975,0.624053,0.0259646,-0.162567,2.34027,-38.8387,2.26228,27.0541,1.20453,2.41692,-0.103348,-0.877256,-0.155081,-1.61469,0.893152,0.0717252,-0.161763,-0.100058,0.676286,-0.193445,-0.721879,0.487221,-0.0703357,-0.182809,
-0.423063,0.0465923,0.050991,-1.72165,-0.113135,0.031542,0.40235,-0.220681,-0.0588341,-0.236198,-0.17265,0.844522,0.173885,-0.250396,0,0,0,0,0,0,0,-0.409648,0.048617,0.0651134,-1.71271,-0.152398,1.59458,1.2004,-0.360801,0.0137835,-0.388652,-0.14975,0.624053,0.0259646,-0.162567,2.34027,-38.8387,2.26228,27.0541,1.20453,2.41692,-0.103348,-0.877256,-0.155081,-1.61469,0.893152,0.0717252,-0.161763,-0.100058,0.676286,-0.193445,-0.721879,0.487221,-0.0703357,-0.182809,
-0.423916,0.0463523,0.0500745,-1.72233,-0.109751,0.0322094,0.401356,-0.213434,-0.0600053,-0.229105,-0.169132,0.845971,0.166841,-0.248482,0,0,0,0,0,0,0,-0.421137,0.0486779,0.0533008,-1.71758,-0.133389,1.59537,1.19473,-0.325476,-0.000334236,-0.349956,-0.143878,0.541903,0.00406896,-0.175505,3.30432,-38.065,3.16286,27.3755,1.03973,2.66137,-0.190323,-1.17203,-1.11091,-1.61726,1.44441,-0.122647,-0.731675,-0.674383,0.686776,-0.745911,-0.696276,0.433237,-0.0562434,-0.179643,
-0.424743,0.0461125,0.0491858,-1.72299,-0.106364,0.0328344,0.40038,-0.206555,-0.0599372,-0.222192,-0.163742,0.846937,0.156255,-0.244025,0,0,0,0,0,0,0,-0.421137,0.0486779,0.0533008,-1.71758,-0.133389,1.59537,1.19473,-0.325476,-0.000334236,-0.349956,-0.143878,0.541903,0.00406896,-0.175505,3.30432,-38.065,3.16286,27.3755,1.03973,2.66137,-0.190323,-1.17203,-1.11091,-1.61726,1.44441,-0.122647,-0.731675,-0.674383,0.686776,-0.745911,-0.696276,0.433237,-0.0562434,-0.179643,
-0.425542,0.0458691,0.0483237,-1.72363,-0.102999,0.0334198,0.399413,-0.199909,-0.060868,-0.21551,-0.160605,0.84111,0.146344,-0.241568,0,0,0,0,0,0,0,-0.421137,0.0486779,0.0533008,-1.71758,-0.133389,1.59537,1.19473,-0.325476,-0.000334236,-0.349956,-0.143878,0.541903,0.00406896,-0.175505,3.30432,-38.065,3.16286,27.3755,1.03973,2.66137,-0.190323,-0.974324,0.298623,-1.73705,0.669893,0.00755859,0.0521287,0.119654,0.621629,0.0116034,-0.741787,0.534734,-0.0393666,-0.186748,
-0.42276,0.0460542,0.0512612,-1.72209,-0.110751,0.0336575,0.401001,-0.213882,-0.0730767,-0.230114,-0.178965,0.990994,0.223612,-0.276617,0,0,0,0,0,0,0,-0.421137,0.0486779,0.0533008,-1.71758,-0.133389,1.59537,1.19473,-0.325476,-0.000334236,-0.349956,-0.143878,0.541903,0.00406896,-0.175505,3.30432,-38.065,3.16286,27.3755,1.03973,2.66137,-0.190323,-0.566895,0.860633,-1.75717,0.374337,0.190797,0.43091,0.502004,0.621127,0.380216,-0.695866,0.611836,0.0225742,-0.188991,
-0.43262,0.045995,0.0411044,-1.72607,-0.0960544,0.0293173,0.396872,-0.175572,-0.0730943,-0.190965,-0.167423,0.76782,0.11108,-0.247695,0,0,0,0,0,0,0,-0.421137,0.0486779,0.0533008,-1.71758,-0.133389,1.59537,1.19473,-0.325476,-0.000334236,-0.349956,-0.143878,0.541903,0.00406896,-0.175505,3.30432,-38.065,3.16286,27.3755,1.03973,2.66137,-0.190323,-0.566895,0.860633,-1.75717,0.374337,0.190797,0.43091,0.502004,0.621127,0.380216,-0.695866,0.611836,0.0225742,-0.188991,
-0.433285,0.0456975,0.0403769,-1.72674,-0.0931114,0.0298178,0.395887,-0.166338,-0.0743912,-0.181885,-0.166795,0.735751,0.125124,-0.246208,0,0,0,0,0,0,0,-0.434373,0.0485761,0.0390129,-1.72317,-0.109815,1.59558,1.18817,-0.280925,-0.00109876,-0.326208,-0.121301,0.572251,0.00774462,-0.134211,3.32813,-37.4422,3.16286,26.7764,1.30798,2.68792,-0.210464,-1.00047,-0.60843,-2.01082,1.21784,0.0574488,-0.42001,-0.358572,0.781988,-0.444304,-0.769281,0.470144,0.032664,-0.191554,
-0.433915,0.0454005,0.0396847,-1.72739,-0.0903108,0.0303696,0.394923,-0.157501,-0.0742459,-0.173035,-0.163913,0.700151,0.137946,-0.2411,0,0,0,0,0,0,0,-0.434373,0.0485761,0.0390129,-1.72317,-0.109815,1.59558,1.18817,-0.280925,-0.00109876,-0.326208,-0.121301,0.572251,0.00774462,-0.134211,3.32813,-37.4422,3.16286,26.7764,1.30798,2.68792,-0.210464,-1.00047,-0.60843,-2.01082,1.21784,0.0574488,-0.42001,-0.358572,0.781988,-0.444304,-0.769281,0.470144,0.032664,-0.191554,
-0.434513,0.0451031,0.0390239,-1.72804,-0.0876565,0.0309517,0.393968,-0.149513,-0.0743404,-0.16521,-0.161018,0.663581,0.145522,-0.238776,0,0,0,0,0,0,0,-0.434373,0.0485761,0.0390129,-1.72317,-0.109815,1.59558,1.18817,-0.280925,-0.00109876,-0.326208,-0.121301,0.572251,0.00774462,-0.134211,3.32813,-37.4422,3.16286,26.7764,1.30798,2.68792,-0.210464,-1.40878,-1.42261,-2.23819,1.71456,-0.0802521,-0.930137,-0.869988,0.878269,-0.942618,-0.853975,0.400483,0.0280806,-0.195016,
-0.435083,0.0448044,0.0383908,-1.72867,-0.0851492,0.0315489,0.393021,-0.142408,-0.0746751,-0.158263,-0.158374,0.626815,0.149304,-0.236656,0,0,0,0,0,0,0,-0.434373,0.0485761,0.0390129,-1.72317,-0.109815,1.59558,1.18817,-0.280925,-0.00109876,-0.326208,-0.121301,0.572251,0.00774462,-0.134211,3.32813,-37.4422,3.16286,26.7764,1.30798,2.68792,-0.210464,-1.40878,-1.42261,-2.23819,1.71456,-0.0802521,-0.930137,-0.869988,0.878269,-0.942618,-0.853975,0.400483,0.0280806,-0.195016,
-0.435627,0.0445037,0.0377822,-1.72929,-0.082786,0.0321507,0.392083,-0.136148,-0.0751869,-0.152155,-0.15607,0.590798,0.150443,-0.234548,0,0,0,0,0,0,0,-0.434373,0.0485761,0.0390129,-1.72317,-0.109815,1.59558,1.18817,-0.280925,-0.00109876,-0.326208,-0.121301,0.572251,0.00774462,-0.134211,3.32813,-37.4422,3.16286,26.7764,1.30798,2.68792,-0.210464,-1.46209,-0.508309,-2.47823,1.26084,-0.0394923,-0.469958,-0.402582,0.870516,-0.498507,-0.956469,0.477949,0.026779,-0.200187,
-0.432631,0.045397,0.0410332,-1.72665,-0.0931557,0.0331516,0.395556,-0.181763,-0.0885929,-0.198714,-0.175834,0.979467,0.203851,-0.273547,0,0,0,0,0,0,0,-0.434373,0.0485761,0.0390129,-1.72317,-0.109815,1.59558,1.18817,-0.280925,-0.00109876,-0.326208,-0.121301,0.572251,0.00774462,-0.134211,3.32813,-37.4422,3.16286,26.7764,1.30798,2.68792,-0.210464,-1.17791,0.169713,-2.52083,0.834749,0.160745,-0.0389435,0.0340152,0.882032,-0.0848373,-0.975572,0.462377,0.0312382,-0.209981,
-0.444031,0.045388,0.0286093,-1.73155,-0.0773206,0.0328441,0.3905,-0.145066,-0.0822061,-0.161913,-0.162088,0.659932,0.188295,-0.242643,0,0,0,0,0,0,0,-0.443043,0.0484255,0.0299343,-1.72655,-0.0931035,1.59562,1.18402,-0.259761,-0.00338537,-0.28319,-0.103464,0.486114,0.000854811,-0.134476,3.55426,-37.6167,3.38899,26.5781,1.1679,2.58904,-0.210464,-1.17791,0.169713,-2.52083,0.834749,0.160745,-0.0389435,0.0340152,0.882032,-0.0848373,-0.975572,0.462377,0.0312382,-0.209981,
-0.444595,0.0450603,0.0279767,-1.73218,-0.0745878,0.0335889,0.389539,-0.141042,-0.0819296,-0.158162,-0.158006,0.683183,0.186188,-0.24018,0,0,0,0,0,0,0,-0.443043,0.0484255,0.0299343,-1.72655,-0.0931035,1.59562,1.18402,-0.259761,-0.00338537,-0.28319,-0.103464,0.486114,0.000854811,-0.134476,3.55426,-37.6167,3.38899,26.5781,1.1679,2.58904,-0.210464,-1.89539,-0.129442,-2.23976,0.8844,-0.392246,-0.349661,-0.276839,0.578764,-0.390886,-0.864759,0.368394,0.0250985,-0.215339,
-0.445142,0.0447315,0.027363,-1.7328,-0.0718229,0.034314,0.388588,-0.136559,-0.0821955,-0.153427,-0.154871,0.691236,0.181276,-0.237875,0,0,0,0,0,0,0,-0.443043,0.0484255,0.0299343,-1.72655,-0.0931035,1.59562,1.18402,-0.259761,-0.00338537,-0.28319,-0.103464,0.486114,0.000854811,-0.134476,3.55426,-37.6167,3.38899,26.5781,1.1679,2.58904,-0.210464,-1.89539,-0.129442,-2.23976,0.8844,-0.392246,-0.349661,-0.276839,0.578764,-0.390886,-0.864759,0.368394,0.0250985,-0.215339,
-0.445668,0.0444005,0.0267693,-1.73341,-0.0690707,0.0350104,0.387645,-0.131702,-0.0827464,-0.14841,-0.15232,0.688051,0.174115,-0.235657,0,0,0,0,0,0,0,-0.443043,0.0484255,0.0299343,-1.72655,-0.0931035,1.59562,1.18402,-0.259761,-0.00338537,-0.28319,-0.103464,0.486114,0.000854811,-0.134476,3.55426,-37.6167,3.38899,26.5781,1.1679,2.58904,-0.210464,-2.2751,-0.826793,-2.29379,1.30521,-0.582706,-0.798785,-0.727803,0.604628,-0.82832,-0.899085,0.325166,0.006018,-0.222449,
-0.446175,0.0440667,0.0261958,-1.73401,-0.0663639,0.0356721,0.386711,-0.12675,-0.0834463,-0.143373,-0.150213,0.67669,0.165407,-0.233505,0,0,0,0,0,0,0,-0.443043,0.0484255,0.0299343,-1.72655,-0.0931035,1.59562,1.18402,-0.259761,-0.00338537,-0.28319,-0.103464,0.486114,0.000854811,-0.134476,3.55426,-37.6167,3.38899,26.5781,1.1679,2.58904,-0.210464,-2.17425,-0.683861,-2.51703,1.31232,-0.455433,-0.707792,-0.637621,0.714748,-0.736274,-0.977025,0.381592,0.0178506,-0.228238,
-0.443813,0.0448556,0.0287975,-1.73202,-0.070423,0.0363646,0.38927,-0.136535,-0.0959694,-0.153708,-0.167492,0.918829,0.269052,-0.26634,0,0,0,0,0,0,0,-0.450579,0.0480721,0.0216988,-1.72985,-0.0778886,1.59597,1.18027,-0.224791,-0.0132155,-0.231587,-0.105826,0.451582,0.0124475,-0.117024,2.79651,-37.1407,2.6114,26.3043,1.00311,2.59545,-0.177505,-2.17425,-0.683861,-2.51703,1.31232,-0.455433,-0.707792,-0.637621,0.714748,-0.736274,-0.977025,0.381592,0.0178506,-0.228238,
-0.457928,0.0443595,0.0135737,-1.73783,-0.0456971,0.0326271,0.382816,-0.10486,-0.0917719,-0.121593,-0.15695,0.637369,0.164633,-0.239617,0,0,0,0,0,0,0,-0.450579,0.0480721,0.0216988,-1.72985,-0.0778886,1.59597,1.18027,-0.224791,-0.0132155,-0.231587,-0.105826,0.451582,0.0124475,-0.117024,2.79651,-37.1407,2.6114,26.3043,1.00311,2.59545,-0.177505,-2.50054,-0.284885,-2.6395,1.09176,-0.597335,-0.582243,-0.510553,0.648579,-0.615867,-1.04489,0.376828,-0.000969425,-0.22983,
-0.458326,0.0439938,0.0131088,-1.73844,-0.0432025,0.0333121,0.38187,-0.0994112,-0.0914391,-0.116233,-0.154324,0.623653,0.171237,-0.236392,0,0,0,0,0,0,0,-0.450579,0.0480721,0.0216988,-1.72985,-0.0778886,1.59597,1.18027,-0.224791,-0.0132155,-0.231587,-0.105826,0.451582,0.0124475,-0.117024,2.79651,-37.1407,2.6114,26.3043,1.00311,2.59545,-0.177505,-2.50054,-0.284885,-2.6395,1.09176,-0.597335,-0.582243,-0.510553,0.648579,-0.615867,-1.04489,0.376828,-0.000969425,-0.22983,
-0.458702,0.0436285,0.0126653,-1.73905,-0.0407944,0.0340028,0.380933,-0.0941065,-0.0913081,-0.110883,-0.151567,0.602026,0.172665,-0.234214,0,0,0,0,0,0,0,-0.450579,0.0480721,0.0216988,-1.72985,-0.0778886,1.59597,1.18027,-0.224791,-0.0132155,-0.231587,-0.105826,0.451582,0.0124475,-0.117024,2.79651,-37.1407,2.6114,26.3043,1.00311,2.59545,-0.177505,-1.96755,0.3333,-2.73379,0.750466,-0.192778,-0.134776,-0.0543055,0.794683,-0.188442,-1.11765,0.383649,-0.0313232,-0.235145,
-0.459059,0.0432628,0.0122421,-1.73965,-0.0384955,0.0346846,0.380005,-0.0890256,-0.0914247,-0.105795,-0.149033,0.57472,0.170464,-0.232138,0,0,0,0,0,0,0,-0.450579,0.0480721,0.0216988,-1.72985,-0.0778886,1.59597,1.18027,-0.224791,-0.0132155,-0.231587,-0.105826,0.451582,0.0124475,-0.117024,2.79651,-37.1407,2.6114,26.3043,1.00311,2.59545,-0.177505,-1.96755,0.3333,-2.73379,0.750466,-0.192778,-0.134776,-0.0543055,0.794683,-0.188442,-1.11765,0.383649,-0.0313232,-0.235145,
-0.459396,0.0428959,0.0118377,-1.74023,-0.0363209,0.0353478,0.379084,-0.0842882,-0.0917371,-0.101082,-0.14684,0.543653,0.165796,-0.230082,0,0,0,0,0,0,0,-0.457469,0.0472835,0.0141723,-1.73348,-0.0628292,1.59726,1.17593,-0.179869,-0.0290075,-0.222001,-0.120426,0.434406,0.0498141,-0.14639,2.84412,-37.466,2.73836,26.3559,1.31988,2.48284,-0.284622,-2.12362,0.325794,-2.67559,0.822824,-0.348669,-0.194902,-0.115145,0.733544,-0.243,-1.10457,0.464401,-0.0416752,-0.239271,
-0.459716,0.0425272,0.0114504,-1.74081,-0.0342782,0.0359866,0.378172,-0.0799899,-0.0921722,-0.0968328,-0.145037,0.510666,0.159697,-0.228029,0,0,0,0,0,0,0,-0.457469,0.0472835,0.0141723,-1.73348,-0.0628292,1.59726,1.17593,-0.179869,-0.0290075,-0.222001,-0.120426,0.434406,0.0498141,-0.14639,2.84412,-37.466,2.73836,26.3559,1.31988,2.48284,-0.284622,-3.00699,-0.321151,-2.5093,1.16653,-0.981992,-0.75,-0.68034,0.487656,-0.775109,-1.03352,0.437252,-0.0414957,-0.240553,
-0.457755,0.0437455,0.0137107,-1.73841,-0.0394526,0.0376155,0.381651,-0.0990758,-0.107524,-0.116306,-0.163545,0.889137,0.282522,-0.262097,0,0,0,0,0,0,0,-0.457469,0.0472835,0.0141723,-1.73348,-0.0628292,1.59726,1.17593,-0.179869,-0.0290075,-0.222001,-0.120426,0.434406,0.0498141,-0.14639,2.84412,-37.466,2.73836,26.3559,1.31988,2.48284,-0.284622,-3.00699,-0.321151,-2.5093,1.16653,-0.981992,-0.75,-0.68034,0.487656,-0.775109,-1.03352,0.437252,-0.0414957,-0.240553,
-0.463304,0.0431619,0.0075429,-1.74139,-0.0366389,0.0356604,0.378703,-0.0798961,-0.0996672,-0.09746,-0.154322,0.527447,0.202897,-0.233571,0,0,0,0,0,0,0,-0.457469,0.0472835,0.0141723,-1.73348,-0.0628292,1.59726,1.17593,-0.179869,-0.0290075,-0.222001,-0.120426,0.434406,0.0498141,-0.14639,2.84412,-37.466,2.73836,26.3559,1.31988,2.48284,-0.284622,-3.46408,-0.0859389,-2.6807,1.02042,-1.1271,-0.734268,-0.663379,0.465727,-0.763799,-1.15622,0.370821,-0.0962882,-0.245466,
-0.463618,0.0427655,0.00715771,-1.742,-0.034405,0.0364866,0.377775,-0.0783825,-0.0991098,-0.0962952,-0.15189,0.558478,0.206565,-0.232047,0,0,0,0,0,0,0,-0.457469,0.0472835,0.0141723,-1.73348,-0.0628292,1.59726,1.17593,-0.179869,-0.0290075,-0.222001,-0.120426,0.434406,0.0498141,-0.14639,2.84412,-37.466,2.73836,26.3559,1.31988,2.48284,-0.284622,-3.46408,-0.0859389,-2.6807,1.02042,-1.1271,-0.734268,-0.663379,0.465727,-0.763799,-1.15622,0.370821,-0.0962882,-0.245466,
-0.463922,0.0423706,0.00678324,-1.7426,-0.032118,0.0373051,0.376855,-0.0760414,-0.0987254,-0.0936188,-0.149095,0.57174,0.20462,-0.229907,0,0,0,0,0,0,0,-0.457469,0.0472835,0.0141723,-1.73348,-0.0628292,1.59726,1.17593,-0.179869,-0.0290075,-0.222001,-0.120426,0.434406,0.0498141,-0.14639,2.84412,-37.466,2.73836,26.3559,1.31988,2.48284,-0.284622,-3.17769,0.268177,-2.73726,0.852336,-0.926141,-0.48925,-0.416884,0.539284,-0.524875,-1.19372,0.405285,-0.109072,-0.248583,
-0.464214,0.0419761,0.00642191,-1.74318,-0.0298309,0.0381003,0.375944,-0.0729846,-0.0986234,-0.0903327,-0.146469,0.571786,0.198806,-0.227804,0,0,0,0,0,0,0,-0.462672,0.0462606,0.00807279,-1.73694,-0.0500163,1.59913,1.17171,-0.171696,-0.0354669,-0.181677,-0.117281,0.433196,0.0707664,-0.123052,2.3125,-37.5176,2.31386,26.705,1.6687,2.48925,-0.258072,-3.17769,0.268177,-2.73726,0.852336,-0.926141,-0.48925,-0.416884,0.539284,-0.524875,-1.19372,0.405285,-0.109072,-0.248583,
-0.464492,0.041581,0.00607481,-1.74376,-0.0275827,0.0388616,0.375041,-0.0695686,-0.098761,-0.0867751,-0.144171,0.562049,0.190322,-0.225761,0,0,0,0,0,0,0,-0.462672,0.0462606,0.00807279,-1.73694,-0.0500163,1.59913,1.17171,-0.171696,-0.0354669,-0.181677,-0.117281,0.433196,0.0707664,-0.123052,2.3125,-37.5176,2.31386,26.705,1.6687,2.48925,-0.258072,-2.65931,0.253619,-2.73504,0.932248,-0.651713,-0.378787,-0.306704,0.665124,-0.41378,-1.17336,0.486279,-0.0884934,-0.255293,
-0.462827,0.04306,0.00807239,-1.74129,-0.0307439,0.0390299,0.378597,-0.0722998,-0.11304,-0.0897001,-0.161332,0.768422,0.306073,-0.258126,0,0,0,0,0,0,0,-0.462672,0.0462606,0.00807279,-1.73694,-0.0500163,1.59913,1.17171,-0.171696,-0.0354669,-0.181677,-0.117281,0.433196,0.0707664,-0.123052,2.3125,-37.5176,2.31386,26.705,1.6687,2.48925,-0.258072,-2.46906,0.206306,-2.97468,1.06723,-0.482356,-0.362167,-0.294181,0.814565,-0.390698,-1.24047,0.552953,-0.0611444,-0.263032,
