PerkyPenguin/Analysis-on-Approximated-Derivatives/Code_and_Data/PaperData/Real_Robot/Scene_1/contact_change/7/trajectory.csv
Commanded Joint 0 Position,Commanded Joint 1 Position,Commanded Joint 2 Position,Commanded Joint 3 Position,Commanded Joint 4 Position,Commanded Joint 5 Position,Commanded Joint 6 Position,Commanded Joint 0 Velocity,Commanded Joint 1 Velocity,Commanded Joint 2 Velocity,Commanded Joint 3 Velocity,Commanded Joint 4 Velocity,Commanded Joint 5 Velocity,Commanded Joint 6 Velocity,Commanded Joint 0 Torque,Commanded Joint 1 Torque,Commanded Joint 2 Torque,Commanded Joint 3 Torque,Commanded Joint 4 Torque,Commanded Joint 5 Torque,Commanded Joint 6 Torque,Actual Joint 0 Position,Actual Joint 1 Position,Actual Joint 2 Position,Actual Joint 3 Position,Actual Joint 4 Position,Actual Joint 5 Position,Actual Joint 6 Position,Actual Joint 0 Velocity,Actual Joint 1 Velocity,Actual Joint 2 Velocity,Actual Joint 3 Velocity,Actual Joint 4 Velocity,Actual Joint 5 Velocity,Actual Joint 6 Velocity,Actual Joint 0 Torque,Actual Joint 1 Torque,Actual Joint 2 Torque,Actual Joint 3 Torque,Actual Joint 4 Torque,Actual Joint 5 Torque,Actual Joint 6 Torque,EE ext force 0,EE ext force 1,EE ext force 2,EE ext force 3,EE ext force 4,EE ext force 5,joint ext torque 0,joint ext torque 1,joint ext torque 2,joint ext torque 3,joint ext torque 4,joint ext torque 5,joint ext torque 6,
0.0104837,-0.195693,-0.335017,-1.66012,-0.0961988,-0.0923334,-0.383716,-0.00259574,0.0139465,-0.0126017,-0.149334,0.0111458,0.199654,-0.00212312,0,0,0,0,0,0,0,0.010504,-0.195658,-0.334915,-1.65863,-0.0963474,1.47647,0.401706,-0.000309013,0.00456754,7.23361e-05,-0.00130809,-0.00560284,0.000198545,-0.00165303,-0.0718349,-25.8339,1.83778,25.983,0.642391,2.95983,-0.0026396,-1.62442,0.0733321,-0.560561,0.0356716,-0.744246,-0.209397,-0.0939988,-0.211523,-0.314729,-0.310151,-0.111495,-0.299417,-0.0404126,
0.0104686,-0.195562,-0.335079,-1.66075,-0.0961613,-0.0915055,-0.383724,-0.00379008,0.0328192,-0.0154271,-0.15862,0.00937534,0.206965,-0.00202622,0,0,0,0,0,0,0,0.010504,-0.195658,-0.334915,-1.65863,-0.0963474,1.47647,0.401706,-0.000309013,0.00456754,7.23361e-05,-0.00130809,-0.00560284,0.000198545,-0.00165303,-0.0718349,-25.8339,1.83778,25.983,0.642391,2.95983,-0.0026396,-1.32786,0.00417172,-0.745822,0.120009,-0.440439,-0.18806,-0.0742704,-0.0070018,-0.304771,-0.421918,-0.110237,-0.304959,-0.0395806,
0.0105035,-0.19561,-0.334917,-1.65865,-0.0964064,-0.0943244,-0.383693,-2.27793e-05,0.00235865,-0.000126437,-0.00122572,-0.0027582,-0.000451639,-6.86537e-06,0,0,0,0,0,0,0,0.010504,-0.195658,-0.334915,-1.65863,-0.0963474,1.47647,0.401706,-0.000309013,0.00456754,7.23361e-05,-0.00130809,-0.00560284,0.000198545,-0.00165303,-0.0718349,-25.8339,1.83778,25.983,0.642391,2.95983,-0.0026396,-1.32786,0.00417172,-0.745822,0.120009,-0.440439,-0.18806,-0.0742704,-0.0070018,-0.304771,-0.421918,-0.110237,-0.304959,-0.0395806,
0.0105034,-0.195602,-0.334917,-1.65866,-0.0964156,-0.0943267,-0.383693,-2.09852e-05,0.00203445,-0.000118515,-0.0010887,-0.00230905,-0.000585131,-5.6639e-06,0,0,0,0,0,0,0,0.0105032,-0.19572,-0.334916,-1.65873,-0.0963212,1.47658,0.401711,0.000420711,-0.0081385,-0.00147715,-0.0155173,0.00454144,0.0227274,-1.28311e-06,-0.0718349,-24.9373,1.81398,23.8882,0.440975,3.11272,-0.0429228,-1.75111,0.269692,-0.325314,-0.144883,-0.952818,-0.144182,-0.0303397,-0.376602,-0.226752,-0.185073,-0.0953597,-0.279241,-0.0399381,
0.0105034,-0.195595,-0.334918,-1.65866,-0.0964234,-0.0943294,-0.383693,-1.81671e-05,0.00175397,-0.0001094,-0.000962545,-0.00193668,-0.000675428,-4.67385e-06,0,0,0,0,0,0,0,0.0105032,-0.19572,-0.334916,-1.65873,-0.0963212,1.47658,0.401711,0.000420711,-0.0081385,-0.00147715,-0.0155173,0.00454144,0.0227274,-1.28311e-06,-0.0718349,-24.9373,1.81398,23.8882,0.440975,3.11272,-0.0429228,-1.75111,0.269692,-0.325314,-0.144883,-0.952818,-0.144182,-0.0303397,-0.376602,-0.226752,-0.185073,-0.0953597,-0.279241,-0.0399381,
0.0105033,-0.195589,-0.334918,-1.65867,-0.0964299,-0.0943323,-0.383693,-1.47924e-05,0.00151028,-9.99157e-05,-0.000848518,-0.00162694,-0.000730609,-3.87086e-06,0,0,0,0,0,0,0,0.0105032,-0.19572,-0.334916,-1.65873,-0.0963212,1.47658,0.401711,0.000420711,-0.0081385,-0.00147715,-0.0155173,0.00454144,0.0227274,-1.28311e-06,-0.0718349,-24.9373,1.81398,23.8882,0.440975,3.11272,-0.0429228,-2.37092,0.379961,-0.963211,-0.146583,-1.19922,-0.20206,-0.090063,-0.416676,-0.288676,-0.343001,-0.107414,-0.275468,-0.0420506,
0.0105033,-0.195584,-0.334919,-1.65867,-0.0964354,-0.0943354,-0.383693,-1.12444e-05,0.00129809,-9.06166e-05,-0.000746226,-0.00136842,-0.000758432,-3.22551e-06,0,0,0,0,0,0,0,0.0105032,-0.19572,-0.334916,-1.65873,-0.0963212,1.47658,0.401711,0.000420711,-0.0081385,-0.00147715,-0.0155173,0.00454144,0.0227274,-1.28311e-06,-0.0718349,-24.9373,1.81398,23.8882,0.440975,3.11272,-0.0429228,-2.71868,0.393732,-1.35337,-0.0921576,-1.32896,-0.256477,-0.141172,-0.431395,-0.356308,-0.444941,-0.101928,-0.274645,-0.0422687,
0.0105032,-0.195579,-0.334919,-1.65867,-0.09644,-0.0943384,-0.383693,-7.78718e-06,0.00111307,-8.18486e-05,-0.000654779,-0.00115193,-0.000765524,-2.70572e-06,0,0,0,0,0,0,0,0.0105032,-0.19572,-0.334916,-1.65873,-0.0963212,1.47658,0.401711,0.000420711,-0.0081385,-0.00147715,-0.0155173,0.00454144,0.0227274,-1.28311e-06,-0.0718349,-24.9373,1.81398,23.8882,0.440975,3.11272,-0.0429228,-2.71868,0.393732,-1.35337,-0.0921576,-1.32896,-0.256477,-0.141172,-0.431395,-0.356308,-0.444941,-0.101928,-0.274645,-0.0422687,
0.0103788,-0.195563,-0.335012,-1.65852,-0.0948225,-0.0953102,-0.383692,-0.0118383,0.00670452,-0.0106979,0.00891399,0.175596,-0.112112,0.000379199,0,0,0,0,0,0,0,0.0105032,-0.19572,-0.334916,-1.65873,-0.0963212,1.47658,0.401711,0.000420711,-0.0081385,-0.00147715,-0.0155173,0.00454144,0.0227274,-1.28311e-06,-0.0718349,-24.9373,1.81398,23.8882,0.440975,3.11272,-0.0429228,-1.08928,-0.075622,-1.6468,0.302993,0.0124574,-0.174058,-0.0613626,0.365033,-0.321183,-0.72307,-0.103355,-0.238691,-0.0422822,
0.0103742,-0.195682,-0.335022,-1.65863,-0.0947307,-0.0951092,-0.383686,-0.0121181,0.00336731,-0.0111276,0.00982016,0.178847,-0.10657,0.000382906,0,0,0,0,0,0,0,0.010517,-0.195676,-0.334903,-1.65896,-0.0963516,1.4771,0.401711,8.65149e-05,0.00127398,-0.000200104,0.00123273,-0.00103767,0.000689681,-0.00018996,-0.222592,-25.6355,1.71083,26.2289,0.667111,3.15209,-0.0365141,-1.08928,-0.075622,-1.6468,0.302993,0.0124574,-0.174058,-0.0613626,0.365033,-0.321183,-0.72307,-0.103355,-0.238691,-0.0422822,
0.0103265,-0.195674,-0.335068,-1.65859,-0.0938883,-0.0956253,-0.383684,-0.0119372,0.00214698,-0.0116186,0.0085707,0.210581,-0.129017,0.000520868,0,0,0,0,0,0,0,0.010517,-0.195676,-0.334903,-1.65896,-0.0963516,1.4771,0.401711,8.65149e-05,0.00127398,-0.000200104,0.00123273,-0.00103767,0.000689681,-0.00018996,-0.222592,-25.6355,1.71083,26.2289,0.667111,3.15209,-0.0365141,-1.07526,-0.02928,-1.47732,0.244636,-0.0676485,-0.15083,-0.0410571,0.280844,-0.287415,-0.634968,-0.0902651,-0.212506,-0.0421171,
0.0102815,-0.19567,-0.335114,-1.65857,-0.0929481,-0.0962141,-0.383682,-0.0112434,0.000949527,-0.0113636,0.00710729,0.235052,-0.147204,0.000592713,0,0,0,0,0,0,0,0.010517,-0.195676,-0.334903,-1.65896,-0.0963516,1.4771,0.401711,8.65149e-05,0.00127398,-0.000200104,0.00123273,-0.00103767,0.000689681,-0.00018996,-0.222592,-25.6355,1.71083,26.2289,0.667111,3.15209,-0.0365141,-1.07526,-0.02928,-1.47732,0.244636,-0.0676485,-0.15083,-0.0410571,0.280844,-0.287415,-0.634968,-0.0902651,-0.212506,-0.0421171,
0.0102404,-0.19567,-0.335156,-1.65854,-0.0919318,-0.0968624,-0.383679,-0.0102708,-5.05264e-05,-0.01066,0.00575581,0.254086,-0.162079,0.000626938,0,0,0,0,0,0,0,0.010517,-0.195676,-0.334903,-1.65896,-0.0963516,1.4771,0.401711,8.65149e-05,0.00127398,-0.000200104,0.00123273,-0.00103767,0.000689681,-0.00018996,-0.222592,-25.6355,1.71083,26.2289,0.667111,3.15209,-0.0365141,-1.30659,-0.0195228,-1.30313,0.213814,-0.305941,-0.188976,-0.0758569,0.119667,-0.321963,-0.547743,-0.0903881,-0.219153,-0.0413233,
0.0102038,-0.195673,-0.335195,-1.65852,-0.0908558,-0.0975594,-0.383677,-0.00916169,-0.000825842,-0.00970159,0.00458754,0.268985,-0.174242,0.000638335,0,0,0,0,0,0,0,0.010517,-0.195676,-0.334903,-1.65896,-0.0963516,1.4771,0.401711,8.65149e-05,0.00127398,-0.000200104,0.00123273,-0.00103767,0.000689681,-0.00018996,-0.222592,-25.6355,1.71083,26.2289,0.667111,3.15209,-0.0365141,-1.97179,-0.0507881,-1.42921,0.270872,-0.747511,-0.321836,-0.201883,-0.101249,-0.466516,-0.545331,-0.0898699,-0.25163,-0.0417285,
0.0102046,-0.195587,-0.335133,-1.65831,-0.0917167,-0.0979381,-0.383656,-0.0272282,0.00819479,-0.0228113,0.0348074,0.524836,-0.422257,0.00332083,0,0,0,0,0,0,0,0.0104658,-0.195553,-0.334947,-1.65885,-0.0954736,1.47711,0.40171,-0.00116702,0.00796302,-0.00134496,0.00404407,0.0551465,0.00191404,-0.000312212,0.285221,-26.3338,2.08772,26.1298,1.33819,2.87377,-0.0301054,-1.97179,-0.0507881,-1.42921,0.270872,-0.747511,-0.321836,-0.201883,-0.101249,-0.466516,-0.545331,-0.0898699,-0.25163,-0.0417285,
0.0101895,-0.195364,-0.335144,-1.65844,-0.0905028,-0.0972194,-0.38366,-0.024948,0.0111973,-0.020777,0.0318199,0.548795,-0.39926,0.0031475,0,0,0,0,0,0,0,0.0104658,-0.195553,-0.334947,-1.65885,-0.0954736,1.47711,0.40171,-0.00116702,0.00796302,-0.00134496,0.00404407,0.0551465,0.00191404,-0.000312212,0.285221,-26.3338,2.08772,26.1298,1.33819,2.87377,-0.0301054,-1.81402,-0.0692468,-1.05979,0.329849,-0.792167,-0.301942,-0.177333,-0.199371,-0.461008,-0.428702,0.0143142,-0.254435,-0.0415909,
0.0100956,-0.195341,-0.335228,-1.65834,-0.0879243,-0.0991115,-0.383646,-0.0234742,0.00571954,-0.0209579,0.0253453,0.644627,-0.473036,0.00345668,0,0,0,0,0,0,0,0.0104658,-0.195553,-0.334947,-1.65885,-0.0954736,1.47711,0.40171,-0.00116702,0.00796302,-0.00134496,0.00404407,0.0551465,0.00191404,-0.000312212,0.285221,-26.3338,2.08772,26.1298,1.33819,2.87377,-0.0301054,-1.81402,-0.0692468,-1.05979,0.329849,-0.792167,-0.301942,-0.177333,-0.199371,-0.461008,-0.428702,0.0143142,-0.254435,-0.0415909,
0.0100121,-0.195336,-0.335306,-1.65826,-0.085042,-0.101237,-0.383632,-0.020868,0.00121207,-0.019432,0.0191935,0.720565,-0.531377,0.00362166,0,0,0,0,0,0,0,0.0104658,-0.195553,-0.334947,-1.65885,-0.0954736,1.47711,0.40171,-0.00116702,0.00796302,-0.00134496,0.00404407,0.0551465,0.00191404,-0.000312212,0.285221,-26.3338,2.08772,26.1298,1.33819,2.87377,-0.0301054,-1.84382,-0.0637224,-0.699939,0.336141,-0.951453,-0.304411,-0.17539,-0.349158,-0.468326,-0.307563,0.076035,-0.272014,-0.0424466,
0.00994145,-0.195345,-0.335373,-1.65821,-0.0819167,-0.103547,-0.383617,-0.0176632,-0.00220709,-0.0168934,0.0138351,0.781347,-0.577498,0.00370023,0,0,0,0,0,0,0,0.0104658,-0.195553,-0.334947,-1.65885,-0.0954736,1.47711,0.40171,-0.00116702,0.00796302,-0.00134496,0.00404407,0.0551465,0.00191404,-0.000312212,0.285221,-26.3338,2.08772,26.1298,1.33819,2.87377,-0.0301054,-1.15262,-0.171896,-0.658351,0.481078,-0.441723,-0.22664,-0.0973818,-0.0707435,-0.413761,-0.387448,0.144378,-0.281808,-0.0446532,
0.00988469,-0.195364,-0.335428,-1.65817,-0.0785949,-0.106002,-0.383602,-0.0141896,-0.00465358,-0.0137981,0.00929817,0.830432,-0.613705,0.00372361,0,0,0,0,0,0,0,0.0104658,-0.195553,-0.334947,-1.65885,-0.0954736,1.47711,0.40171,-0.00116702,0.00796302,-0.00134496,0.00404407,0.0551465,0.00191404,-0.000312212,0.285221,-26.3338,2.08772,26.1298,1.33819,2.87377,-0.0301054,-1.15262,-0.171896,-0.658351,0.481078,-0.441723,-0.22664,-0.0973818,-0.0707435,-0.413761,-0.387448,0.144378,-0.281808,-0.0446532,
0.00984207,-0.195389,-0.33547,-1.65815,-0.0751134,-0.108569,-0.383587,-0.0106557,-0.00629701,-0.0104464,0.00549006,0.870386,-0.6418,0.00371072,0,0,0,0,0,0,0,0.0103159,-0.195477,-0.335057,-1.65869,-0.091313,1.47653,0.40171,-0.0145269,0.0102056,-0.00388627,0.00566161,0.234689,-0.0464747,0.000309703,0.590702,-26.187,2.26228,26.1298,1.74194,2.3565,-0.0301054,-1.6404,-0.394821,0.30696,0.618365,-1.15423,-0.415456,-0.27419,-0.622271,-0.620399,-0.024805,0.23602,-0.339138,-0.0451229,
0.011083,-0.195617,-0.334224,-1.65873,-0.0921691,-0.0991344,-0.383543,0.0743023,-0.0132415,0.0866572,0.00227274,0.374792,-0.630847,0.0120883,0,0,0,0,0,0,0,0.0103159,-0.195477,-0.335057,-1.65869,-0.091313,1.47653,0.40171,-0.0145269,0.0102056,-0.00388627,0.00566161,0.234689,-0.0464747,0.000309703,0.590702,-26.187,2.26228,26.1298,1.74194,2.3565,-0.0301054,-1.6404,-0.394821,0.30696,0.618365,-1.15423,-0.415456,-0.27419,-0.622271,-0.620399,-0.024805,0.23602,-0.339138,-0.0451229,
0.0109421,-0.195565,-0.334352,-1.65861,-0.0866922,-0.100084,-0.383535,0.0766842,-0.0153206,0.0873516,-0.00153812,0.459645,-0.655809,0.0125715,0,0,0,0,0,0,0,0.0103159,-0.195477,-0.335057,-1.65869,-0.091313,1.47653,0.40171,-0.0145269,0.0102056,-0.00388627,0.00566161,0.234689,-0.0464747,0.000309703,0.590702,-26.187,2.26228,26.1298,1.74194,2.3565,-0.0301054,-1.09436,-0.531078,0.587286,0.850916,-0.780914,-0.377057,-0.227015,-0.433153,-0.626756,-0.091019,0.377914,-0.442809,-0.0468454,
0.0113267,-0.195646,-0.333913,-1.65866,-0.0845752,-0.10322,-0.383487,0.0961614,-0.0200723,0.109651,-0.0104508,0.529244,-0.784063,0.0121051,0,0,0,0,0,0,0,0.0103159,-0.195477,-0.335057,-1.65869,-0.091313,1.47653,0.40171,-0.0145269,0.0102056,-0.00388627,0.00566161,0.234689,-0.0464747,0.000309703,0.590702,-26.187,2.26228,26.1298,1.74194,2.3565,-0.0301054,-1.09436,-0.531078,0.587286,0.850916,-0.780914,-0.377057,-0.227015,-0.433153,-0.626756,-0.091019,0.377914,-0.442809,-0.0468454,
0.0117778,-0.195736,-0.3334,-1.65873,-0.0822004,-0.106775,-0.38344,0.112771,-0.0226193,0.128391,-0.0188868,0.593712,-0.888713,0.0116894,0,0,0,0,0,0,0,0.0103159,-0.195477,-0.335057,-1.65869,-0.091313,1.47653,0.40171,-0.0145269,0.0102056,-0.00388627,0.00566161,0.234689,-0.0464747,0.000309703,0.590702,-26.187,2.26228,26.1298,1.74194,2.3565,-0.0301054,-0.179695,-0.168253,0.39722,0.852197,0.0697119,-0.0499544,0.106217,0.111445,-0.335731,-0.41652,0.599706,-0.589745,-0.0450042,
0.0122859,-0.19583,-0.332822,-1.65884,-0.07959,-0.110672,-0.383395,0.127021,-0.0234276,0.144277,-0.0265697,0.652602,-0.97434,0.0113194,0,0,0,0,0,0,0,0.00974393,-0.195425,-0.335295,-1.65835,-0.0771443,1.47261,0.401716,0.00593224,0.000811738,0.00449486,0.00524398,0.254015,-0.108627,4.11684e-05,1.52698,-25.5126,3.68654,25.5823,1.21002,1.95916,-0.0163725,-1.01154,-0.173847,0.546108,0.947623,-0.502679,-0.213625,-0.0407185,-0.185998,-0.528034,-0.41598,0.659442,-0.748933,-0.0323903,
0.0128432,-0.195922,-0.332191,-1.65897,-0.0767666,-0.11485,-0.383351,0.139315,-0.0229323,0.157847,-0.0334451,0.70584,-1.0445,0.0109855,0,0,0,0,0,0,0,0.00974393,-0.195425,-0.335295,-1.65835,-0.0771443,1.47261,0.401716,0.00593224,0.000811738,0.00449486,0.00524398,0.254015,-0.108627,4.11684e-05,1.52698,-25.5126,3.68654,25.5823,1.21002,1.95916,-0.0163725,-1.01154,-0.173847,0.546108,0.947623,-0.502679,-0.213625,-0.0407185,-0.185998,-0.528034,-0.41598,0.659442,-0.748933,-0.0323903,
0.013443,-0.196008,-0.331513,-1.65913,-0.0737522,-0.119258,-0.383308,0.149967,-0.0214956,0.16951,-0.0395371,0.753598,-1.10201,0.0106795,0,0,0,0,0,0,0,0.00974393,-0.195425,-0.335295,-1.65835,-0.0771443,1.47261,0.401716,0.00593224,0.000811738,0.00449486,0.00524398,0.254015,-0.108627,4.11684e-05,1.52698,-25.5126,3.68654,25.5823,1.21002,1.95916,-0.0163725,-0.515407,-0.178862,0.784965,0.886291,-0.122903,-0.135689,0.0156387,0.0305635,-0.421616,-0.455734,0.610353,-0.816658,-0.026012,
0.0116738,-0.195942,-0.333613,-1.65919,-0.0880375,-0.0998361,-0.383508,0.157449,-0.0507808,0.172995,-0.0552978,0.320271,-0.638257,0.0146047,0,0,0,0,0,0,0,0.00974393,-0.195425,-0.335295,-1.65835,-0.0771443,1.47261,0.401716,0.00593224,0.000811738,0.00449486,0.00524398,0.254015,-0.108627,4.11684e-05,1.52698,-25.5126,3.68654,25.5823,1.21002,1.95916,-0.0163725,0.053829,0.12878,1.25054,0.557033,0.186424,0.0962556,0.202918,0.155548,-0.11263,-0.378358,0.590981,-0.845443,-0.0222357,
0.0111847,-0.195954,-0.333755,-1.65888,-0.0735704,-0.104182,-0.383487,0.162315,-0.0545742,0.178527,-0.0574488,0.34478,-0.664355,0.0154893,0,0,0,0,0,0,0,0.00974393,-0.195425,-0.335295,-1.65835,-0.0771443,1.47261,0.401716,0.00593224,0.000811738,0.00449486,0.00524398,0.254015,-0.108627,4.11684e-05,1.52698,-25.5126,3.68654,25.5823,1.21002,1.95916,-0.0163725,0.053829,0.12878,1.25054,0.557033,0.186424,0.0962556,0.202918,0.155548,-0.11263,-0.378358,0.590981,-0.845443,-0.0222357,
0.0119615,-0.196185,-0.332892,-1.65915,-0.0719471,-0.107345,-0.383428,0.194186,-0.0577828,0.215847,-0.066873,0.405834,-0.790758,0.014615,0,0,0,0,0,0,0,0.00974393,-0.195425,-0.335295,-1.65835,-0.0771443,1.47261,0.401716,0.00593224,0.000811738,0.00449486,0.00524398,0.254015,-0.108627,4.11684e-05,1.52698,-25.5126,3.68654,25.5823,1.21002,1.95916,-0.0163725,-0.166901,1.17872,1.53112,-0.16458,-0.00701298,0.525467,0.607236,0.0407253,0.401959,-0.356082,0.706377,-0.965541,-0.0204849,
0.012844,-0.196418,-0.331906,-1.65945,-0.0700682,-0.11092,-0.383372,0.220624,-0.0580645,0.246364,-0.0751363,0.469712,-0.893712,0.0139016,0,0,0,0,0,0,0,0.009863,-0.19567,-0.334716,-1.65822,-0.068011,1.46599,0.401722,0.00359014,-0.0074875,0.0247085,0.00605009,0.283413,-0.253282,-0.000169998,2.69336,-25.2348,4.83705,24.5349,1.6687,2.02508,-0.00996382,-0.166901,1.17872,1.53112,-0.16458,-0.00701298,0.525467,0.607236,0.0407253,0.401959,-0.356082,0.706377,-0.965541,-0.0204849,
0.0138152,-0.196643,-0.33082,-1.65978,-0.0679363,-0.11483,-0.383319,0.242792,-0.0564129,0.271612,-0.0825561,0.532979,-0.97745,0.0133035,0,0,0,0,0,0,0,0.009863,-0.19567,-0.334716,-1.65822,-0.068011,1.46599,0.401722,0.00359014,-0.0074875,0.0247085,0.00605009,0.283413,-0.253282,-0.000169998,2.69336,-25.2348,4.83705,24.5349,1.6687,2.02508,-0.00996382,-0.443275,1.75014,0.851991,-0.384138,0.148938,0.727701,0.808622,0.289105,0.606388,-0.722155,0.786726,-1.1185,-0.0144942,
0.0148613,-0.196857,-0.329649,-1.66013,-0.065562,-0.119012,-0.383268,0.261534,-0.0534809,0.29271,-0.0892254,0.593572,-1.04555,0.01279,0,0,0,0,0,0,0,0.009863,-0.19567,-0.334716,-1.65822,-0.068011,1.46599,0.401722,0.00359014,-0.0074875,0.0247085,0.00605009,0.283413,-0.253282,-0.000169998,2.69336,-25.2348,4.83705,24.5349,1.6687,2.02508,-0.00996382,-0.443275,1.75014,0.851991,-0.384138,0.148938,0.727701,0.808622,0.289105,0.606388,-0.722155,0.786726,-1.1185,-0.0144942,
0.0118742,-0.196233,-0.333057,-1.65938,-0.0748293,-0.103943,-0.383491,0.238491,-0.0795472,0.259446,-0.104691,0.214325,-0.646321,0.0152727,0,0,0,0,0,0,0,0.009863,-0.19567,-0.334716,-1.65822,-0.068011,1.46599,0.401722,0.00359014,-0.0074875,0.0247085,0.00605009,0.283413,-0.253282,-0.000169998,2.69336,-25.2348,4.83705,24.5349,1.6687,2.02508,-0.00996382,-1.45684,0.964116,0.888019,0.0184277,-0.600633,0.188136,0.275732,-0.12491,0.0446909,-0.576344,0.568849,-1.1023,-0.00674713,
0.01204,-0.196555,-0.33242,-1.65931,-0.0653413,-0.111636,-0.383455,0.240942,-0.0843432,0.261839,-0.11051,0.242931,-0.716097,0.0170515,0,0,0,0,0,0,0,0.009863,-0.19567,-0.334716,-1.65822,-0.068011,1.46599,0.401722,0.00359014,-0.0074875,0.0247085,0.00605009,0.283413,-0.253282,-0.000169998,2.69336,-25.2348,4.83705,24.5349,1.6687,2.02508,-0.00996382,-1.66627,-0.756044,0.890932,1.00879,-0.689551,-0.620191,-0.521568,-0.149333,-0.838761,-0.528714,0.202962,-1.0626,-0.00369405,
0.0131788,-0.196892,-0.331166,-1.65979,-0.0641594,-0.114964,-0.383391,0.284708,-0.0841646,0.31346,-0.120439,0.295474,-0.832114,0.0158251,0,0,0,0,0,0,0,0.0109071,-0.196345,-0.332887,-1.65871,-0.0612468,1.45855,0.401733,0.0545952,-0.0225018,0.0875091,-0.0194684,0.28595,-0.300261,-0.000737154,3.55426,-25.0881,6.06294,25.011,1.60736,1.46203,0.017502,-1.66627,-0.756044,0.890932,1.00879,-0.689551,-0.620191,-0.521568,-0.149333,-0.838761,-0.528714,0.202962,-1.0626,-0.00369405,
0.0144612,-0.197215,-0.329745,-1.66031,-0.062726,-0.11867,-0.383332,0.320591,-0.0806989,0.355215,-0.12855,0.358356,-0.926503,0.0148666,0,0,0,0,0,0,0,0.0109071,-0.196345,-0.332887,-1.65871,-0.0612468,1.45855,0.401733,0.0545952,-0.0225018,0.0875091,-0.0194684,0.28595,-0.300261,-0.000737154,3.55426,-25.0881,6.06294,25.011,1.60736,1.46203,0.017502,-1.77151,-0.351102,0.993913,0.619089,-0.790727,-0.454618,-0.36348,-0.212691,-0.620477,-0.472421,0.146322,-1.06098,-0.00174461,
0.0158626,-0.197516,-0.328187,-1.66085,-0.0610246,-0.122681,-0.383275,0.350366,-0.0753882,0.389416,-0.135721,0.42535,-1.00282,0.0141213,0,0,0,0,0,0,0,0.0109071,-0.196345,-0.332887,-1.65871,-0.0612468,1.45855,0.401733,0.0545952,-0.0225018,0.0875091,-0.0194684,0.28595,-0.300261,-0.000737154,3.55426,-25.0881,6.06294,25.011,1.60736,1.46203,0.017502,-1.77151,-0.351102,0.993913,0.619089,-0.790727,-0.454618,-0.36348,-0.212691,-0.620477,-0.472421,0.146322,-1.06098,-0.00174461,
0.0173639,-0.197792,-0.326517,-1.66142,-0.0590544,-0.126939,-0.383222,0.375313,-0.0689459,0.417698,-0.141974,0.492531,-1.06453,0.0134449,0,0,0,0,0,0,0,0.0109071,-0.196345,-0.332887,-1.65871,-0.0612468,1.45855,0.401733,0.0545952,-0.0225018,0.0875091,-0.0194684,0.28595,-0.300261,-0.000737154,3.55426,-25.0881,6.06294,25.011,1.60736,1.46203,0.017502,-1.01667,0.913079,0.370053,-0.149309,-0.00991381,0.242325,0.303558,0.322601,0.154863,-0.789003,0.290443,-1.06481,0.00132446,
0.0126489,-0.196829,-0.331816,-1.65978,-0.0664348,-0.111399,-0.383478,0.307877,-0.109272,0.331865,-0.154585,0.130015,-0.698049,0.0155911,0,0,0,0,0,0,0,0.0109071,-0.196345,-0.332887,-1.65871,-0.0612468,1.45855,0.401733,0.0545952,-0.0225018,0.0875091,-0.0194684,0.28595,-0.300261,-0.000737154,3.55426,-25.0881,6.06294,25.011,1.60736,1.46203,0.017502,-1.91912,0.483849,-0.149171,0.119566,-0.529875,-0.108972,-0.0435274,0.101081,-0.217386,-0.822588,0.154853,-1.01055,0.00528247,
0.0140729,-0.197496,-0.329545,-1.66034,-0.059136,-0.119282,-0.383441,0.332458,-0.105536,0.359788,-0.158138,0.184492,-0.726611,0.0170241,0,0,0,0,0,0,0,0.0109071,-0.196345,-0.332887,-1.65871,-0.0612468,1.45855,0.401733,0.0545952,-0.0225018,0.0875091,-0.0194684,0.28595,-0.300261,-0.000737154,3.55426,-25.0881,6.06294,25.011,1.60736,1.46203,0.017502,-1.91912,0.483849,-0.149171,0.119566,-0.529875,-0.108972,-0.0435274,0.101081,-0.217386,-0.822588,0.154853,-1.01055,0.00528247,
0.015603,-0.197909,-0.327869,-1.66102,-0.0581991,-0.122636,-0.383378,0.382505,-0.103049,0.418969,-0.16826,0.234231,-0.838681,0.015772,0,0,0,0,0,0,0,0.013429,-0.19764,-0.329863,-1.65975,-0.055742,1.44941,0.401751,0.103895,-0.0479276,0.129045,-0.0437676,0.170613,-0.315821,0.000322243,4.72065,-24.7627,7.23726,24.6619,1.09466,2.11114,-0.0163725,-3.03317,-0.189615,0.0207958,0.358609,-1.5075,-0.594895,-0.503346,-0.507883,-0.717269,-0.503323,-0.085205,-0.883536,0.00575178,
0.0172962,-0.198298,-0.326003,-1.66172,-0.0570066,-0.126346,-0.383319,0.423316,-0.0972176,0.466605,-0.176554,0.298124,-0.927298,0.0148014,0,0,0,0,0,0,0,0.013429,-0.19764,-0.329863,-1.65975,-0.055742,1.44941,0.401751,0.103895,-0.0479276,0.129045,-0.0437676,0.170613,-0.315821,0.000322243,4.72065,-24.7627,7.23726,24.6619,1.09466,2.11114,-0.0163725,-3.03317,-0.189615,0.0207958,0.358609,-1.5075,-0.594895,-0.503346,-0.507883,-0.717269,-0.503323,-0.085205,-0.883536,0.00575178,
0.019124,-0.198657,-0.323981,-1.66246,-0.0555321,-0.130294,-0.383263,0.456946,-0.089956,0.505397,-0.185347,0.368619,-0.987182,0.013946,0,0,0,0,0,0,0,0.013429,-0.19764,-0.329863,-1.65975,-0.055742,1.44941,0.401751,0.103895,-0.0479276,0.129045,-0.0437676,0.170613,-0.315821,0.000322243,4.72065,-24.7627,7.23726,24.6619,1.09466,2.11114,-0.0163725,-0.791107,0.937905,-0.52662,-0.332627,0.347218,0.296513,0.34768,0.607479,0.249506,-0.919154,0.0669377,-0.830395,0.00611349,
0.0210632,-0.198988,-0.321832,-1.66325,-0.0537684,-0.134326,-0.38321,0.484791,-0.0825882,0.537303,-0.196822,0.440921,-1.00781,0.0133418,0,0,0,0,0,0,0,0.013429,-0.19764,-0.329863,-1.65975,-0.055742,1.44941,0.401751,0.103895,-0.0479276,0.129045,-0.0437676,0.170613,-0.315821,0.000322243,4.72065,-24.7627,7.23726,24.6619,1.09466,2.11114,-0.0163725,-0.791107,0.937905,-0.52662,-0.332627,0.347218,0.296513,0.34768,0.607479,0.249506,-0.919154,0.0669377,-0.830395,0.00611349,
0.0148889,-0.197707,-0.329509,-1.66075,-0.0598874,-0.119045,-0.383478,0.408485,-0.124132,0.37848,-0.197521,0.108252,-0.706828,0.0146366,0,0,0,0,0,0,0,0.013429,-0.19764,-0.329863,-1.65975,-0.055742,1.44941,0.401751,0.103895,-0.0479276,0.129045,-0.0437676,0.170613,-0.315821,0.000322243,4.72065,-24.7627,7.23726,24.6619,1.09466,2.11114,-0.0163725,-1.44891,0.256058,-0.522161,0.17625,-0.164282,-0.130007,-0.0840723,0.310521,-0.219098,-0.837002,0.0430596,-0.824735,0.0126579,
0.0175938,-0.199072,-0.3261,-1.66182,-0.0548447,-0.128403,-0.383424,0.418256,-0.126108,0.402613,-0.196629,0.0923427,-0.721153,0.016855,0,0,0,0,0,0,0,0.0177277,-0.199783,-0.32504,-1.66195,-0.0519942,1.43816,0.401776,0.143871,-0.0743144,0.203597,-0.0787015,0.0746021,-0.362492,0.00163037,5.12928,-24.9611,7.31264,24.5111,1.20453,2.13128,-0.0630644,-3.76622,-1.25265,-0.255647,1.10829,-2.05791,-1.18903,-1.07389,-0.824451,-1.39655,-0.411349,-0.177359,-0.769531,0.016419,
0.0194737,-0.199556,-0.324223,-1.66266,-0.0542439,-0.131677,-0.383362,0.469964,-0.121127,0.469222,-0.209472,0.150196,-0.818545,0.0155055,0,0,0,0,0,0,0,0.0177277,-0.199783,-0.32504,-1.66195,-0.0519942,1.43816,0.401776,0.143871,-0.0743144,0.203597,-0.0787015,0.0746021,-0.362492,0.00163037,5.12928,-24.9611,7.31264,24.5111,1.20453,2.13128,-0.0630644,-3.76622,-1.25265,-0.255647,1.10829,-2.05791,-1.18903,-1.07389,-0.824451,-1.39655,-0.411349,-0.177359,-0.769531,0.016419,
0.0215217,-0.200013,-0.322128,-1.66355,-0.0533565,-0.135132,-0.383304,0.512008,-0.114074,0.52387,-0.224376,0.221841,-0.86365,0.0146147,0,0,0,0,0,0,0,0.0177277,-0.199783,-0.32504,-1.66195,-0.0519942,1.43816,0.401776,0.143871,-0.0743144,0.203597,-0.0787015,0.0746021,-0.362492,0.00163037,5.12928,-24.9611,7.31264,24.5111,1.20453,2.13128,-0.0630644,-2.77913,-0.193958,-0.580698,0.458724,-1.21728,-0.541515,-0.428139,-0.307764,-0.703773,-0.638373,-0.026641,-0.763857,0.0164193,
0.0237088,-0.20043,-0.319852,-1.6645,-0.0521596,-0.138656,-0.383248,0.54677,-0.104256,0.569005,-0.236059,0.299222,-0.881076,0.0138854,0,0,0,0,0,0,0,0.0177277,-0.199783,-0.32504,-1.66195,-0.0519942,1.43816,0.401776,0.143871,-0.0743144,0.203597,-0.0787015,0.0746021,-0.362492,0.00163037,5.12928,-24.9611,7.31264,24.5111,1.20453,2.13128,-0.0630644,-2.77913,-0.193958,-0.580698,0.458724,-1.21728,-0.541515,-0.428139,-0.307764,-0.703773,-0.638373,-0.026641,-0.763857,0.0164193,
0.0260116,-0.200801,-0.317424,-1.66547,-0.0506511,-0.142186,-0.383195,0.575691,-0.0927188,0.606881,-0.244308,0.377141,-0.882352,0.0132742,0,0,0,0,0,0,0,0.0177277,-0.199783,-0.32504,-1.66195,-0.0519942,1.43816,0.401776,0.143871,-0.0743144,0.203597,-0.0787015,0.0746021,-0.362492,0.00163037,5.12928,-24.9611,7.31264,24.5111,1.20453,2.13128,-0.0630644,-1.17762,1.75277,-0.189898,-0.859623,-0.181871,0.589929,0.63012,0.213993,0.598363,-0.684668,0.265648,-0.775234,0.0164073,
0.0180046,-0.199204,-0.326279,-1.66217,-0.055033,-0.128157,-0.383484,0.45861,-0.137514,0.387887,-0.231866,0.0733407,-0.699439,0.0127765,0,0,0,0,0,0,0,0.0177277,-0.199783,-0.32504,-1.66195,-0.0519942,1.43816,0.401776,0.143871,-0.0743144,0.203597,-0.0787015,0.0746021,-0.362492,0.00163037,5.12928,-24.9611,7.31264,24.5111,1.20453,2.13128,-0.0630644,-1.95624,0.754291,0.391788,-0.255529,-1.01062,0.0174012,0.0699057,-0.362536,-0.0243843,-0.344184,0.171687,-0.739148,0.0169129,
0.0226905,-0.201401,-0.320988,-1.66445,-0.0515764,-0.139789,-0.383427,0.483957,-0.138814,0.418168,-0.238842,0.0720803,-0.694275,0.0146021,0,0,0,0,0,0,0,0.0261242,-0.203394,-0.316197,-1.66628,-0.0503649,1.42274,0.401798,0.241646,-0.101837,0.240727,-0.13333,0.00515741,-0.362201,-0.000997306,6.06556,-24.362,8.31239,24.7849,1.88202,2.07818,0.0376436,-1.95624,0.754291,0.391788,-0.255529,-1.01062,0.0174012,0.0699057,-0.362536,-0.0243843,-0.344184,0.171687,-0.739148,0.0169129,
0.0248351,-0.201927,-0.319071,-1.66547,-0.051015,-0.142738,-0.383373,0.536132,-0.131571,0.479181,-0.256788,0.140335,-0.737198,0.0136314,0,0,0,0,0,0,0,0.0261242,-0.203394,-0.316197,-1.66628,-0.0503649,1.42274,0.401798,0.241646,-0.101837,0.240727,-0.13333,0.00515741,-0.362201,-0.000997306,6.06556,-24.362,8.31239,24.7849,1.88202,2.07818,0.0376436,-2.31061,-0.325396,-0.302923,0.595899,-0.987753,-0.511381,-0.383785,-0.240568,-0.705832,-0.582095,0.0637128,-0.753762,0.0181367,
0.027154,-0.202408,-0.316954,-1.66655,-0.0501454,-0.145767,-0.383321,0.579729,-0.120323,0.529389,-0.268719,0.217404,-0.757268,0.0128918,0,0,0,0,0,0,0,0.0261242,-0.203394,-0.316197,-1.66628,-0.0503649,1.42274,0.401798,0.241646,-0.101837,0.240727,-0.13333,0.00515741,-0.362201,-0.000997306,6.06556,-24.362,8.31239,24.7849,1.88202,2.07818,0.0376436,-2.31061,-0.325396,-0.302923,0.595899,-0.987753,-0.511381,-0.383785,-0.240568,-0.705832,-0.582095,0.0637128,-0.753762,0.0181367,
0.0296205,-0.202837,-0.314668,-1.66766,-0.0489579,-0.148817,-0.383272,0.616639,-0.107195,0.571372,-0.276606,0.296884,-0.762514,0.012301,0,0,0,0,0,0,0,0.0261242,-0.203394,-0.316197,-1.66628,-0.0503649,1.42274,0.401798,0.241646,-0.101837,0.240727,-0.13333,0.00515741,-0.362201,-0.000997306,6.06556,-24.362,8.31239,24.7849,1.88202,2.07818,0.0376436,-2.20521,1.85535,-0.344224,-0.86543,-0.913203,0.489331,0.574251,-0.176595,0.459172,-0.638953,0.317982,-0.795971,0.0143353,
0.0322134,-0.203211,-0.312241,-1.66878,-0.0474584,-0.151848,-0.383225,0.648223,-0.0934988,0.606949,-0.281773,0.374874,-0.757904,0.0118147,0,0,0,0,0,0,0,0.0261242,-0.203394,-0.316197,-1.66628,-0.0503649,1.42274,0.401798,0.241646,-0.101837,0.240727,-0.13333,0.00515741,-0.362201,-0.000997306,6.06556,-24.362,8.31239,24.7849,1.88202,2.07818,0.0376436,-2.20521,1.85535,-0.344224,-0.86543,-0.913203,0.489331,0.574251,-0.176595,0.459172,-0.638953,0.317982,-0.795971,0.0143353,
0.0349153,-0.203531,-0.309691,-1.66992,-0.045662,-0.154835,-0.383179,0.675479,-0.0799993,0.637425,-0.285058,0.449099,-0.746634,0.0114052,0,0,0,0,0,0,0,0.0342709,-0.206531,-0.308662,-1.67032,-0.0503802,1.41279,0.40183,0.285064,-0.10872,0.259687,-0.1471,0.00306781,-0.294153,0.0014404,4.87537,-24.5882,6.76118,24.3881,1.56433,2.29699,-0.0301054,-1.82475,1.65167,-0.3104,-0.629561,-0.604203,0.443245,0.459283,0.00504162,0.43674,-0.718868,0.403693,-0.840127,0.0165532,
0.0226871,-0.201487,-0.320978,-1.66476,-0.0515665,-0.139652,-0.383479,0.483833,-0.144773,0.418575,-0.265991,0.0734432,-0.698505,0.0108536,0,0,0,0,0,0,0,0.0342709,-0.206531,-0.308662,-1.67032,-0.0503802,1.41279,0.40183,0.285064,-0.10872,0.259687,-0.1471,0.00306781,-0.294153,0.0014404,4.87537,-24.5882,6.76118,24.3881,1.56433,2.29699,-0.0301054,-2.88445,0.145056,-0.486516,0.432462,-1.3733,-0.37875,-0.263909,-0.438101,-0.562809,-0.614352,0.257038,-0.791242,0.0182267,
0.0399217,-0.208188,-0.30383,-1.67332,-0.0496881,-0.163941,-0.383414,0.529996,-0.13557,0.470975,-0.278262,0.11863,-0.559161,0.0119373,0,0,0,0,0,0,0,0.0342709,-0.206531,-0.308662,-1.67032,-0.0503802,1.41279,0.40183,0.285064,-0.10872,0.259687,-0.1471,0.00306781,-0.294153,0.0014404,4.87537,-24.5882,6.76118,24.3881,1.56433,2.29699,-0.0301054,-2.88445,0.145056,-0.486516,0.432462,-1.3733,-0.37875,-0.263909,-0.438101,-0.562809,-0.614352,0.257038,-0.791242,0.0182267,
0.0422221,-0.208685,-0.301738,-1.67449,-0.0489028,-0.166309,-0.383369,0.575118,-0.124282,0.523195,-0.292152,0.19632,-0.59183,0.0111903,0,0,0,0,0,0,0,0.0342709,-0.206531,-0.308662,-1.67032,-0.0503802,1.41279,0.40183,0.285064,-0.10872,0.259687,-0.1471,0.00306781,-0.294153,0.0014404,4.87537,-24.5882,6.76118,24.3881,1.56433,2.29699,-0.0301054,-2.85496,-0.46458,-1.31432,0.972744,-1.08493,-0.63782,-0.475729,-0.178654,-0.928289,-0.876006,0.227034,-0.737708,0.0187984,
0.0446748,-0.209128,-0.299471,-1.67569,-0.0477951,-0.168743,-0.383327,0.613157,-0.110815,0.566721,-0.301096,0.276927,-0.608571,0.0105918,0,0,0,0,0,0,0,0.0342709,-0.206531,-0.308662,-1.67032,-0.0503802,1.41279,0.40183,0.285064,-0.10872,0.259687,-0.1471,0.00306781,-0.294153,0.0014404,4.87537,-24.5882,6.76118,24.3881,1.56433,2.29699,-0.0301054,-2.85496,-0.46458,-1.31432,0.972744,-1.08493,-0.63782,-0.475729,-0.178654,-0.928289,-0.876006,0.227034,-0.737708,0.0187984,
0.0472572,-0.209515,-0.297057,-1.67692,-0.0463698,-0.171199,-0.383287,0.645596,-0.0967216,0.603483,-0.306942,0.356326,-0.613971,0.0100914,0,0,0,0,0,0,0,0.0459369,-0.21038,-0.298626,-1.67569,-0.0501737,1.40295,0.401845,0.330378,-0.113133,0.272104,-0.16844,0.0142347,-0.249529,-0.000413383,0.590702,-24.4136,3.06367,24.9832,1.1734,2.32354,0.00376909,-1.44313,2.73401,-0.96679,-1.22499,-0.182653,1.00787,1.08009,0.307406,0.987717,-0.927798,0.613145,-0.757084,0.013939,
0.0499512,-0.209847,-0.294517,-1.67816,-0.0446414,-0.173644,-0.383248,0.673505,-0.082836,0.63487,-0.310696,0.432092,-0.611291,0.00964377,0,0,0,0,0,0,0,0.0459369,-0.21038,-0.298626,-1.67569,-0.0501737,1.40295,0.401845,0.330378,-0.113133,0.272104,-0.16844,0.0142347,-0.249529,-0.000413383,0.590702,-24.4136,3.06367,24.9832,1.1734,2.32354,0.00376909,-1.44313,2.73401,-0.96679,-1.22499,-0.182653,1.00787,1.08009,0.307406,0.987717,-0.927798,0.613145,-0.757084,0.013939,
0.0378017,-0.207646,-0.305714,-1.67221,-0.0501626,-0.161705,-0.383462,0.475594,-0.141738,0.407365,-0.255777,0.0506586,-0.504316,0.0129138,0,0,0,0,0,0,0,0.0459369,-0.21038,-0.298626,-1.67569,-0.0501737,1.40295,0.401845,0.330378,-0.113133,0.272104,-0.16844,0.0142347,-0.249529,-0.000413383,0.590702,-24.4136,3.06367,24.9832,1.1734,2.32354,0.00376909,-0.625901,2.05737,-0.220343,-0.868458,0.127578,0.810198,0.81763,0.344134,0.820906,-0.683453,0.561315,-0.687384,0.0143732,
0.0518067,-0.211978,-0.293565,-1.67879,-0.0491578,-0.172433,-0.383382,0.545233,-0.127333,0.486988,-0.278714,0.147242,-0.438759,0.0132166,0,0,0,0,0,0,0,0.0459369,-0.21038,-0.298626,-1.67569,-0.0501737,1.40295,0.401845,0.330378,-0.113133,0.272104,-0.16844,0.0142347,-0.249529,-0.000413383,0.590702,-24.4136,3.06367,24.9832,1.1734,2.32354,0.00376909,-1.54099,0.314175,-1.21463,0.386251,-0.180641,-0.0832305,0.02282,0.299388,-0.277265,-0.92281,0.320589,-0.661759,0.0132258,
0.0541604,-0.212438,-0.291416,-1.67994,-0.0482628,-0.174332,-0.383333,0.588423,-0.115168,0.53712,-0.28766,0.22374,-0.474838,0.0122478,0,0,0,0,0,0,0,0.0459369,-0.21038,-0.298626,-1.67569,-0.0501737,1.40295,0.401845,0.330378,-0.113133,0.272104,-0.16844,0.0142347,-0.249529,-0.000413383,0.590702,-24.4136,3.06367,24.9832,1.1734,2.32354,0.00376909,-1.54099,0.314175,-1.21463,0.386251,-0.180641,-0.0832305,0.02282,0.299388,-0.277265,-0.92281,0.320589,-0.661759,0.0132258,
0.05666,-0.212846,-0.2891,-1.68112,-0.0470534,-0.176324,-0.383287,0.62489,-0.101871,0.57904,-0.293471,0.302357,-0.497952,0.011452,0,0,0,0,0,0,0,0.0459369,-0.21038,-0.298626,-1.67569,-0.0501737,1.40295,0.401845,0.330378,-0.113133,0.272104,-0.16844,0.0142347,-0.249529,-0.000413383,0.590702,-24.4136,3.06367,24.9832,1.1734,2.32354,0.00376909,-2.72872,-0.0226578,-1.86952,0.726764,-0.817497,-0.384864,-0.233953,0.0405871,-0.655906,-1.06132,0.312201,-0.699333,0.0126808,
0.059284,-0.2132,-0.286642,-1.68231,-0.0455355,-0.178367,-0.383244,0.656003,-0.0885128,0.614494,-0.29742,0.379476,-0.510755,0.010802,0,0,0,0,0,0,0,0.0572834,-0.213982,-0.288377,-1.68145,-0.0495822,1.39557,0.401856,0.382081,-0.111919,0.340134,-0.182452,0.00963218,-0.204828,-8.30254e-05,-1.51593,-24.8381,1.11177,25.8798,1.27777,2.3565,0.00376909,-2.72872,-0.0226578,-1.86952,0.726764,-0.817497,-0.384864,-0.233953,0.0405871,-0.655906,-1.06132,0.312201,-0.699333,0.0126808,
0.062015,-0.213502,-0.284063,-1.68351,-0.0437237,-0.180429,-0.383203,0.682762,-0.075618,0.644765,-0.300076,0.45294,-0.515539,0.0102732,0,0,0,0,0,0,0,0.0572834,-0.213982,-0.288377,-1.68145,-0.0495822,1.39557,0.401856,0.382081,-0.111919,0.340134,-0.182452,0.00963218,-0.204828,-8.30254e-05,-1.51593,-24.8381,1.11177,25.8798,1.27777,2.3565,0.00376909,-2.36761,1.35279,-0.638661,-0.304587,-1.01283,0.278712,0.321621,-0.235559,0.208366,-0.667398,0.522679,-0.720723,0.00922004,
0.0648387,-0.213756,-0.28138,-1.67662,-0.0500618,-0.169128,-0.383492,0.705926,-0.0634475,0.670818,-0.233924,0.0279857,-0.320818,0.0151744,0,0,0,0,0,0,0,0.0572834,-0.213982,-0.288377,-1.68145,-0.0495822,1.39557,0.401856,0.382081,-0.111919,0.340134,-0.182452,0.00963218,-0.204828,-8.30254e-05,-1.51593,-24.8381,1.11177,25.8798,1.27777,2.3565,0.00376909,-2.36761,1.35279,-0.638661,-0.304587,-1.01283,0.278712,0.321621,-0.235559,0.208366,-0.667398,0.522679,-0.720723,0.00922004,
0.0496258,-0.211468,-0.295513,-1.67768,-0.0497468,-0.170678,-0.383435,0.493322,-0.136051,0.426235,-0.26352,0.0787569,-0.387312,0.0144347,0,0,0,0,0,0,0,0.0572834,-0.213982,-0.288377,-1.68145,-0.0495822,1.39557,0.401856,0.382081,-0.111919,0.340134,-0.182452,0.00963218,-0.204828,-8.30254e-05,-1.51593,-24.8381,1.11177,25.8798,1.27777,2.3565,0.00376909,-2.47565,0.57157,-0.814845,0.185302,-0.951488,-0.0686312,0.00398769,-0.15562,-0.206175,-0.765444,0.37241,-0.763849,0.0087144,
0.0636018,-0.215456,-0.282794,-1.68455,-0.0481813,-0.179011,-0.38337,0.576172,-0.115423,0.522435,-0.274184,0.189053,-0.367408,0.0133285,0,0,0,0,0,0,0,0.0572834,-0.213982,-0.288377,-1.68145,-0.0495822,1.39557,0.401856,0.382081,-0.111919,0.340134,-0.182452,0.00963218,-0.204828,-8.30254e-05,-1.51593,-24.8381,1.11177,25.8798,1.27777,2.3565,0.00376909,-2.4894,-0.99655,-1.58161,1.26375,-0.661199,-0.755908,-0.606566,0.0939004,-1.06594,-1.01338,0.143619,-0.727298,0.00753195,
0.0660607,-0.21587,-0.280526,-1.68568,-0.047107,-0.180624,-0.38332,0.614718,-0.103317,0.566997,-0.281223,0.268572,-0.403105,0.012356,0,0,0,0,0,0,0,0.0697729,-0.217489,-0.276472,-1.68791,-0.047985,1.3908,0.401871,0.431312,-0.09701,0.394709,-0.176825,0.0699706,-0.144362,0.00118408,3.25275,-23.5646,5.56306,25.3601,1.47277,2.48925,-0.0301054,-2.4894,-0.99655,-1.58161,1.26375,-0.661199,-0.755908,-0.606566,0.0939004,-1.06594,-1.01338,0.143619,-0.727298,0.00753195,
0.0686505,-0.216232,-0.278108,-1.68682,-0.0457172,-0.182333,-0.383274,0.647448,-0.0906542,0.604527,-0.285872,0.347447,-0.427408,0.0115873,0,0,0,0,0,0,0,0.0697729,-0.217489,-0.276472,-1.68791,-0.047985,1.3908,0.401871,0.431312,-0.09701,0.394709,-0.176825,0.0699706,-0.144362,0.00118408,3.25275,-23.5646,5.56306,25.3601,1.47277,2.48925,-0.0301054,-2.55396,0.539465,-1.23906,0.19135,-0.835509,-0.0555033,0.0712125,-0.0200797,-0.240409,-0.91512,0.319921,-0.761096,0.0042989,
0.0713525,-0.216545,-0.275562,-1.68798,-0.0440247,-0.184102,-0.38323,0.675499,-0.0782098,0.63645,-0.289094,0.423136,-0.44224,0.01102,0,0,0,0,0,0,0,0.0697729,-0.217489,-0.276472,-1.68791,-0.047985,1.3908,0.401871,0.431312,-0.09701,0.394709,-0.176825,0.0699706,-0.144362,0.00118408,3.25275,-23.5646,5.56306,25.3601,1.47277,2.48925,-0.0301054,-2.55396,0.539465,-1.23906,0.19135,-0.835509,-0.0555033,0.0712125,-0.0200797,-0.240409,-0.91512,0.319921,-0.761096,0.0042989,
0.0741513,-0.21681,-0.272907,-1.68914,-0.042048,-0.1859,-0.383188,0.699707,-0.0663391,0.663828,-0.291295,0.494184,-0.449422,0.0105401,0,0,0,0,0,0,0,0.0697729,-0.217489,-0.276472,-1.68791,-0.047985,1.3908,0.401871,0.431312,-0.09701,0.394709,-0.176825,0.0699706,-0.144362,0.00118408,3.25275,-23.5646,5.56306,25.3601,1.47277,2.48925,-0.0301054,-0.516169,2.48679,0.610079,-1.36196,-0.0307061,1.05927,1.06203,0.18254,1.14505,-0.422681,0.514249,-0.707846,0.000895678,
0.0612971,-0.214995,-0.284883,-1.68345,-0.0489375,-0.177542,-0.383423,0.530157,-0.125172,0.468919,-0.262176,0.113137,-0.319147,0.0145469,0,0,0,0,0,0,0,0.0697729,-0.217489,-0.276472,-1.68791,-0.047985,1.3908,0.401871,0.431312,-0.09701,0.394709,-0.176825,0.0699706,-0.144362,0.00118408,3.25275,-23.5646,5.56306,25.3601,1.47277,2.48925,-0.0301054,-0.516169,2.48679,0.610079,-1.36196,-0.0307061,1.05927,1.06203,0.18254,1.14505,-0.422681,0.514249,-0.707846,0.000895678,
0.0765086,-0.218793,-0.270413,-1.69093,-0.0457667,-0.182955,-0.383356,0.605721,-0.101865,0.555941,-0.266672,0.256799,-0.297717,0.0131937,0,0,0,0,0,0,0,0.0697729,-0.217489,-0.276472,-1.68791,-0.047985,1.3908,0.401871,0.431312,-0.09701,0.394709,-0.176825,0.0699706,-0.144362,0.00118408,3.25275,-23.5646,5.56306,25.3601,1.47277,2.48925,-0.0301054,-0.270204,-0.493494,0.62993,0.598677,0.126519,-0.268122,-0.235086,0.177814,-0.387587,-0.340857,0.155707,-0.61377,0.00608835,
0.0790698,-0.219156,-0.268029,-1.69202,-0.0444345,-0.184294,-0.383307,0.640283,-0.0907793,0.595888,-0.273182,0.333048,-0.334791,0.0123396,0,0,0,0,0,0,0,0.0833809,-0.220429,-0.264186,-1.69412,-0.0465472,1.38799,0.401874,0.425483,-0.0816451,0.423685,-0.189238,0.100817,-0.0841459,0.00239331,3.78437,-24.5128,5.33693,24.884,2.02301,2.22375,0.0101778,-1.59427,-0.80916,-0.600709,0.939852,-0.403435,-0.533233,-0.398228,0.0604711,-0.781887,-0.667824,0.121459,-0.639421,0.0054057,
0.0817485,-0.219473,-0.265511,-1.69313,-0.042804,-0.185738,-0.38326,0.669686,-0.0792341,0.629624,-0.277465,0.407631,-0.361063,0.0116501,0,0,0,0,0,0,0,0.0833809,-0.220429,-0.264186,-1.69412,-0.0465472,1.38799,0.401874,0.425483,-0.0816451,0.423685,-0.189238,0.100817,-0.0841459,0.00239331,3.78437,-24.5128,5.33693,24.884,2.02301,2.22375,0.0101778,-1.59427,-0.80916,-0.600709,0.939852,-0.403435,-0.533233,-0.398228,0.0604711,-0.781887,-0.667824,0.121459,-0.639421,0.0054057,
0.0845282,-0.219745,-0.262877,-1.69425,-0.0408898,-0.187251,-0.383216,0.694923,-0.0679233,0.658381,-0.280445,0.478544,-0.378095,0.0110791,0,0,0,0,0,0,0,0.0833809,-0.220429,-0.264186,-1.69412,-0.0465472,1.38799,0.401874,0.425483,-0.0816451,0.423685,-0.189238,0.100817,-0.0841459,0.00239331,3.78437,-24.5128,5.33693,24.884,2.02301,2.22375,0.0101778,-1.66238,0.789758,-0.525291,-0.0521354,-0.475161,0.184505,0.284815,0.0530374,0.048439,-0.689027,0.392394,-0.688608,0.00390188,
0.0873951,-0.219973,-0.260145,-1.69538,-0.0387111,-0.188801,-0.383174,0.716726,-0.0571503,0.683086,-0.282489,0.544674,-0.387527,0.0105965,0,0,0,0,0,0,0,0.0833809,-0.220429,-0.264186,-1.69412,-0.0465472,1.38799,0.401874,0.425483,-0.0816451,0.423685,-0.189238,0.100817,-0.0841459,0.00239331,3.78437,-24.5128,5.33693,24.884,2.02301,2.22375,0.0101778,-1.66238,0.789758,-0.525291,-0.0521354,-0.475161,0.184505,0.284815,0.0530374,0.048439,-0.689027,0.392394,-0.688608,0.00390188,
0.0740857,-0.218385,-0.272637,-1.68986,-0.0467939,-0.181764,-0.383409,0.564544,-0.110803,0.508134,-0.255378,0.1823,-0.24932,0.0143478,0,0,0,0,0,0,0,0.0833809,-0.220429,-0.264186,-1.69412,-0.0465472,1.38799,0.401874,0.425483,-0.0816451,0.423685,-0.189238,0.100817,-0.0841459,0.00239331,3.78437,-24.5128,5.33693,24.884,2.02301,2.22375,0.0101778,-1.8708,0.0842093,-0.00621441,0.395988,-0.817921,-0.163441,-0.117941,-0.237424,-0.286024,-0.468877,0.346495,-0.690548,0.00582111,
0.0902338,-0.221541,-0.257998,-1.69713,-0.0440436,-0.185151,-0.383346,0.614606,-0.0871144,0.565343,-0.26334,0.278443,-0.248439,0.0137622,0,0,0,0,0,0,0,0.0970757,-0.222567,-0.251094,-1.69951,-0.0439168,1.38642,0.401884,0.451441,-0.0593694,0.423925,-0.174704,0.0983144,-0.0263364,-0.000128862,4.31598,-24.2153,5.88838,24.9832,1.6687,2.4096,-0.0026396,-1.83656,0.748796,-1.00326,-0.0882417,-0.421994,0.176456,0.281274,0.166562,0.044995,-0.833308,0.30466,-0.670698,0.00238903,
0.0928267,-0.221852,-0.25558,-1.6982,-0.0426334,-0.186297,-0.383294,0.648214,-0.0776113,0.604415,-0.268703,0.352551,-0.286567,0.0128378,0,0,0,0,0,0,0,0.0970757,-0.222567,-0.251094,-1.69951,-0.0439168,1.38642,0.401884,0.451441,-0.0593694,0.423925,-0.174704,0.0983144,-0.0263364,-0.000128862,4.31598,-24.2153,5.88838,24.9832,1.6687,2.4096,-0.0026396,-1.83656,0.748796,-1.00326,-0.0882417,-0.421994,0.176456,0.281274,0.166562,0.044995,-0.833308,0.30466,-0.670698,0.00238903,
0.0955338,-0.222122,-0.25303,-1.69929,-0.040933,-0.187552,-0.383246,0.676777,-0.0675971,0.637374,-0.272203,0.425106,-0.313813,0.0120883,0,0,0,0,0,0,0,0.0970757,-0.222567,-0.251094,-1.69951,-0.0439168,1.38642,0.401884,0.451441,-0.0593694,0.423925,-0.174704,0.0983144,-0.0263364,-0.000128862,4.31598,-24.2153,5.88838,24.9832,1.6687,2.4096,-0.0026396,-2.73124,0.703934,-1.29034,-0.00306492,-1.00803,0.0880683,0.201125,-0.128713,-0.0571602,-0.83375,0.342178,-0.66706,0.000704515,
0.0983388,-0.222353,-0.250369,-1.70039,-0.0389564,-0.18888,-0.3832,0.701261,-0.0576966,0.665431,-0.274602,0.494136,-0.33178,0.0114638,0,0,0,0,0,0,0,0.0970757,-0.222567,-0.251094,-1.69951,-0.0439168,1.38642,0.401884,0.451441,-0.0593694,0.423925,-0.174704,0.0983144,-0.0263364,-0.000128862,4.31598,-24.2153,5.88838,24.9832,1.6687,2.4096,-0.0026396,-2.73124,0.703934,-1.29034,-0.00306492,-1.00803,0.0880683,0.201125,-0.128713,-0.0571602,-0.83375,0.342178,-0.66706,0.000704515,
0.101228,-0.222546,-0.247611,-1.70149,-0.0367223,-0.190248,-0.383156,0.722388,-0.0481957,0.6895,-0.276192,0.558539,-0.342113,0.0109336,0,0,0,0,0,0,0,0.0970757,-0.222567,-0.251094,-1.69951,-0.0439168,1.38642,0.401884,0.451441,-0.0593694,0.423925,-0.174704,0.0983144,-0.0263364,-0.000128862,4.31598,-24.2153,5.88838,24.9832,1.6687,2.4096,-0.0026396,-1.96821,0.271494,-0.756532,0.38368,-0.590256,-0.0648619,-0.031292,0.0102661,-0.197245,-0.756773,0.447376,-0.703909,0.00222726,
0.0877754,-0.221193,-0.260259,-1.69607,-0.0451574,-0.184157,-0.383401,0.574508,-0.094628,0.518583,-0.253976,0.206102,-0.198699,0.0149342,0,0,0,0,0,0,0,0.0970757,-0.222567,-0.251094,-1.69951,-0.0439168,1.38642,0.401884,0.451441,-0.0593694,0.423925,-0.174704,0.0983144,-0.0263364,-0.000128862,4.31598,-24.2153,5.88838,24.9832,1.6687,2.4096,-0.0026396,-1.22729,0.744018,-0.786993,0.00859528,-0.00961156,0.225586,0.27099,0.364468,0.115327,-0.851022,0.447851,-0.694636,0.00125171,
0.104029,-0.223496,-0.244796,-1.70242,-0.0413468,-0.186004,-0.383332,0.621568,-0.0741434,0.573362,-0.256473,0.285247,-0.190457,0.0141797,0,0,0,0,0,0,0,0.116428,-0.22469,-0.232666,-1.70628,-0.0387981,1.38598,0.401894,0.456515,-0.0543053,0.454913,-0.166503,0.143483,-0.0122992,-0.000108976,4.06208,-24.1121,5.23775,23.9874,1.63757,2.32354,-0.0163725,-1.22729,0.744018,-0.786993,0.00859528,-0.00961156,0.225586,0.27099,0.364468,0.115327,-0.851022,0.447851,-0.694636,0.00125171,
0.106646,-0.223762,-0.24235,-1.70347,-0.0399082,-0.186928,-0.383279,0.654277,-0.0663022,0.611476,-0.261777,0.359653,-0.231059,0.0132134,0,0,0,0,0,0,0,0.116428,-0.22469,-0.232666,-1.70628,-0.0387981,1.38598,0.401894,0.456515,-0.0543053,0.454913,-0.166503,0.143483,-0.0122992,-0.000108976,4.06208,-24.1121,5.23775,23.9874,1.63757,2.32354,-0.0163725,-1.76531,-0.484241,-1.56952,0.843267,-0.121994,-0.356517,-0.233197,0.373978,-0.613812,-1.05281,0.275609,-0.675527,0.00065825,
0.109374,-0.223993,-0.239776,-1.70453,-0.0381797,-0.187971,-0.383229,0.682075,-0.0577125,0.643639,-0.265113,0.432121,-0.260673,0.0124232,0,0,0,0,0,0,0,0.116428,-0.22469,-0.232666,-1.70628,-0.0387981,1.38598,0.401894,0.456515,-0.0543053,0.454913,-0.166503,0.143483,-0.0122992,-0.000108976,4.06208,-24.1121,5.23775,23.9874,1.63757,2.32354,-0.0163725,-1.76531,-0.484241,-1.56952,0.843267,-0.121994,-0.356517,-0.233197,0.373978,-0.613812,-1.05281,0.275609,-0.675527,0.00065825,
0.112198,-0.224189,-0.237092,-1.7056,-0.0361764,-0.189094,-0.383182,0.705904,-0.0490569,0.671025,-0.267336,0.500826,-0.280806,0.0117611,0,0,0,0,0,0,0,0.116428,-0.22469,-0.232666,-1.70628,-0.0387981,1.38598,0.401894,0.456515,-0.0543053,0.454913,-0.166503,0.143483,-0.0122992,-0.000108976,4.06208,-24.1121,5.23775,23.9874,1.63757,2.32354,-0.0163725,-1.81088,0.826739,-1.68909,0.055215,-0.0599672,0.244654,0.350852,0.491832,0.061186,-1.17549,0.511039,-0.744248,-0.00147633,
0.115104,-0.224351,-0.234314,-1.70668,-0.0339173,-0.190266,-0.383137,0.726464,-0.0406499,0.694523,-0.268769,0.564762,-0.293092,0.0111965,0,0,0,0,0,0,0,0.116428,-0.22469,-0.232666,-1.70628,-0.0387981,1.38598,0.401894,0.456515,-0.0543053,0.454913,-0.166503,0.143483,-0.0122992,-0.000108976,4.06208,-24.1121,5.23775,23.9874,1.63757,2.32354,-0.0163725,-1.81088,0.826739,-1.68909,0.055215,-0.0599672,0.244654,0.350852,0.491832,0.061186,-1.17549,0.511039,-0.744248,-0.00147633,
0.118081,-0.224482,-0.231454,-1.70775,-0.0314235,-0.191462,-0.383095,0.744296,-0.0326483,0.714815,-0.269554,0.623459,-0.299003,0.010709,0,0,0,0,0,0,0,0.131799,-0.22601,-0.218101,-1.71148,-0.0346601,1.38635,0.401902,0.484341,-0.0290362,0.459407,-0.158086,0.12775,0.0060763,0.000515601,3.02265,-24.8381,4.33717,24.5111,1.49109,2.03148,-0.0365141,-2.26448,1.16391,-1.1227,-0.190213,-0.532663,0.375633,0.442506,0.190488,0.260218,-1.00865,0.570538,-0.836152,-0.000643444,
0.101543,-0.2232,-0.24709,-1.7014,-0.0424878,-0.185242,-0.383388,0.582569,-0.0796148,0.527755,-0.246788,0.211999,-0.138453,0.015365,0,0,0,0,0,0,0,0.131799,-0.22601,-0.218101,-1.71148,-0.0346601,1.38635,0.401902,0.484341,-0.0290362,0.459407,-0.158086,0.12775,0.0060763,0.000515601,3.02265,-24.8381,4.33717,24.5111,1.49109,2.03148,-0.0365141,-2.73416,-0.955522,-1.47998,1.18958,-0.757744,-0.609696,-0.505817,0.0280002,-0.878692,-1.03728,0.293217,-0.806945,0.00101234,
0.139019,-0.22667,-0.211481,-1.71431,-0.0316346,-0.18552,-0.383316,0.640402,-0.0540899,0.596271,-0.251429,0.323957,-0.14172,0.0139905,0,0,0,0,0,0,0,0.131799,-0.22601,-0.218101,-1.71148,-0.0346601,1.38635,0.401902,0.484341,-0.0290362,0.459407,-0.158086,0.12775,0.0060763,0.000515601,3.02265,-24.8381,4.33717,24.5111,1.49109,2.03148,-0.0365141,-2.73416,-0.955522,-1.47998,1.18958,-0.757744,-0.609696,-0.505817,0.0280002,-0.878692,-1.03728,0.293217,-0.806945,0.00101234,
0.141701,-0.226862,-0.208955,-1.71534,-0.030047,-0.186248,-0.383264,0.670598,-0.0480766,0.631474,-0.256938,0.396885,-0.181962,0.0130626,0,0,0,0,0,0,0,0.131799,-0.22601,-0.218101,-1.71148,-0.0346601,1.38635,0.401902,0.484341,-0.0290362,0.459407,-0.158086,0.12775,0.0060763,0.000515601,3.02265,-24.8381,4.33717,24.5111,1.49109,2.03148,-0.0365141,-2.47245,-0.639948,-1.8553,0.952259,-0.414742,-0.430375,-0.324789,0.295267,-0.684493,-1.20507,0.301418,-0.798266,-0.00165689,
0.144486,-0.227026,-0.20631,-1.71638,-0.0281788,-0.187095,-0.383215,0.696303,-0.0411283,0.661267,-0.260209,0.467072,-0.211803,0.0122977,0,0,0,0,0,0,0,0.131799,-0.22601,-0.218101,-1.71148,-0.0346601,1.38635,0.401902,0.484341,-0.0290362,0.459407,-0.158086,0.12775,0.0060763,0.000515601,3.02265,-24.8381,4.33717,24.5111,1.49109,2.03148,-0.0365141,-2.47245,-0.639948,-1.8553,0.952259,-0.414742,-0.430375,-0.324789,0.295267,-0.684493,-1.20507,0.301418,-0.798266,-0.00165689,
0.14736,-0.227162,-0.203563,-1.71743,-0.0260464,-0.188025,-0.383168,0.718363,-0.0339786,0.68669,-0.262263,0.533082,-0.232485,0.0116525,0,0,0,0,0,0,0,0.131799,-0.22601,-0.218101,-1.71148,-0.0346601,1.38635,0.401902,0.484341,-0.0290362,0.459407,-0.158086,0.12775,0.0060763,0.000515601,3.02265,-24.8381,4.33717,24.5111,1.49109,2.03148,-0.0365141,-2.53312,2.05623,-1.20365,-0.880554,-0.683407,0.826831,0.900425,0.183827,0.782678,-1.03326,0.606796,-0.840905,-0.00548954,
0.150309,-0.22727,-0.200729,-1.71849,-0.0236698,-0.189007,-0.383124,0.737411,-0.0269588,0.708539,-0.263493,0.594156,-0.245511,0.0110994,0,0,0,0,0,0,0,0.147091,-0.226693,-0.203438,-1.71615,-0.0286688,1.38669,0.401903,0.50558,-0.0170037,0.457956,-0.152061,0.136892,0.0264555,0.000944505,-0.95654,-25.9847,0.639662,25.8798,1.31439,1.96557,0.00376909,-2.53312,2.05623,-1.20365,-0.880554,-0.683407,0.826831,0.900425,0.183827,0.782678,-1.03326,0.606796,-0.840905,-0.00548954,
0.153325,-0.227351,-0.19782,-1.71954,-0.0210699,-0.190017,-0.383082,0.753939,-0.0202329,0.727428,-0.264071,0.649984,-0.252279,0.0106197,0,0,0,0,0,0,0,0.147091,-0.226693,-0.203438,-1.71615,-0.0286688,1.38669,0.401903,0.50558,-0.0170037,0.457956,-0.152061,0.136892,0.0264555,0.000944505,-0.95654,-25.9847,0.639662,25.8798,1.31439,1.96557,0.00376909,-1.91188,1.15851,-0.554387,-0.302749,-0.498051,0.438188,0.47696,0.122773,0.371715,-0.793524,0.532105,-0.785094,-0.00162135,
0.136457,-0.226453,-0.213866,-1.71331,-0.0329304,-0.184954,-0.383372,0.60447,-0.0573879,0.554303,-0.240839,0.25077,-0.0912512,0.0151175,0,0,0,0,0,0,0,0.147091,-0.226693,-0.203438,-1.71615,-0.0286688,1.38669,0.401903,0.50558,-0.0170037,0.457956,-0.152061,0.136892,0.0264555,0.000944505,-0.95654,-25.9847,0.639662,25.8798,1.31439,1.96557,0.00376909,-2.40105,0.670062,-0.902687,-0.0830054,-0.846679,0.229562,0.348737,-0.0736879,0.0946544,-0.74692,0.364692,-0.666194,-0.00208919,
0.15438,-0.227231,-0.196736,-1.71893,-0.0254976,-0.184839,-0.383314,0.645176,-0.0449866,0.602404,-0.246071,0.335402,-0.110552,0.0142219,0,0,0,0,0,0,0,0.147091,-0.226693,-0.203438,-1.71615,-0.0286688,1.38669,0.401903,0.50558,-0.0170037,0.457956,-0.152061,0.136892,0.0264555,0.000944505,-0.95654,-25.9847,0.639662,25.8798,1.31439,1.96557,0.00376909,-2.40105,0.670062,-0.902687,-0.0830054,-0.846679,0.229562,0.348737,-0.0736879,0.0946544,-0.74692,0.364692,-0.666194,-0.00208919,
0.157079,-0.22739,-0.194188,-1.71993,-0.0238687,-0.185436,-0.383261,0.674776,-0.0398197,0.636959,-0.251305,0.407221,-0.149206,0.0132724,0,0,0,0,0,0,0,0.147091,-0.226693,-0.203438,-1.71615,-0.0286688,1.38669,0.401903,0.50558,-0.0170037,0.457956,-0.152061,0.136892,0.0264555,0.000944505,-0.95654,-25.9847,0.639662,25.8798,1.31439,1.96557,0.00376909,-2.7752,-1.6255,-1.06149,1.50595,-1.08297,-0.84207,-0.711602,-0.318761,-1.13762,-0.709765,0.179878,-0.643206,0.00118549,
0.159879,-0.227525,-0.191523,-1.72095,-0.0219638,-0.186148,-0.383211,0.699977,-0.0336541,0.666215,-0.254311,0.476233,-0.177935,0.0124826,0,0,0,0,0,0,0,0.163529,-0.226975,-0.187751,-1.72112,-0.021786,1.38692,0.401908,0.53446,-0.00120156,0.519104,-0.153168,0.250543,0.004496,0.000219435,0.995365,-25.6871,2.48842,25.1855,1.87652,1.82641,0.00376909,-2.7752,-1.6255,-1.06149,1.50595,-1.08297,-0.84207,-0.711602,-0.318761,-1.13762,-0.709765,0.179878,-0.643206,0.00118549,
0.162765,-0.227634,-0.188758,-1.72197,-0.0197995,-0.186939,-0.383164,0.721603,-0.0272261,0.691184,-0.256126,0.541077,-0.197873,0.0118135,0,0,0,0,0,0,0,0.163529,-0.226975,-0.187751,-1.72112,-0.021786,1.38692,0.401908,0.53446,-0.00120156,0.519104,-0.153168,0.250543,0.004496,0.000219435,0.995365,-25.6871,2.48842,25.1855,1.87652,1.82641,0.00376909,-2.02374,0.727635,-0.897134,0.000468497,-0.5708,0.263878,0.326011,0.0584325,0.147548,-0.768829,0.522967,-0.643463,-0.000168661,
0.165727,-0.227717,-0.185908,-1.723,-0.0173953,-0.187781,-0.383119,0.740272,-0.0208694,0.712642,-0.257147,0.601037,-0.210443,0.0112376,0,0,0,0,0,0,0,0.163529,-0.226975,-0.187751,-1.72112,-0.021786,1.38692,0.401908,0.53446,-0.00120156,0.519104,-0.153168,0.250543,0.004496,0.000219435,0.995365,-25.6871,2.48842,25.1855,1.87652,1.82641,0.00376909,-2.02374,0.727635,-0.897134,0.000468497,-0.5708,0.263878,0.326011,0.0584325,0.147548,-0.768829,0.522967,-0.643463,-0.000168661,
0.151799,-0.227051,-0.199145,-1.71794,-0.0268392,-0.184397,-0.383371,0.610001,-0.0473668,0.561216,-0.235721,0.263115,-0.0623215,0.0153451,0,0,0,0,0,0,0,0.163529,-0.226975,-0.187751,-1.72112,-0.021786,1.38692,0.401908,0.53446,-0.00120156,0.519104,-0.153168,0.250543,0.004496,0.000219435,0.995365,-25.6871,2.48842,25.1855,1.87652,1.82641,0.00376909,-1.94204,1.89473,-1.13495,-0.876189,-0.463372,0.823372,0.84612,0.222303,0.830794,-0.836135,0.563774,-0.590506,-0.00204961,
0.171193,-0.227339,-0.180602,-1.72388,-0.0174446,-0.184611,-0.383318,0.672217,-0.0311319,0.634151,-0.244341,0.424926,-0.101901,0.0135189,0,0,0,0,0,0,0,0.163529,-0.226975,-0.187751,-1.72112,-0.021786,1.38692,0.401908,0.53446,-0.00120156,0.519104,-0.153168,0.250543,0.004496,0.000219435,0.995365,-25.6871,2.48842,25.1855,1.87652,1.82641,0.00376909,-1.8321,-0.194421,-1.74051,0.451991,-0.218304,-0.12376,-0.0407664,0.313407,-0.291096,-0.962772,0.270244,-0.509385,0.000357062,
0.173987,-0.227446,-0.177944,-1.72488,-0.0154911,-0.185147,-0.383267,0.698316,-0.0268454,0.664634,-0.24894,0.488371,-0.134085,0.0126629,0,0,0,0,0,0,0,0.179972,-0.226994,-0.171712,-1.72579,-0.0149279,1.38704,0.401914,0.509578,0.00215584,0.515191,-0.147918,0.26965,0.00399984,0.000482928,2.72113,-26.2108,3.76192,25.4593,1.89483,2.28417,-0.0163725,-1.8321,-0.194421,-1.74051,0.451991,-0.218304,-0.12376,-0.0407664,0.313407,-0.291096,-0.962772,0.270244,-0.509385,0.000357062,
0.176869,-0.227532,-0.175182,-1.72588,-0.0132943,-0.185778,-0.38322,0.72054,-0.0215867,0.690468,-0.251358,0.549206,-0.157741,0.0119486,0,0,0,0,0,0,0,0.179972,-0.226994,-0.171712,-1.72579,-0.0149279,1.38704,0.401914,0.509578,0.00215584,0.515191,-0.147918,0.26965,0.00399984,0.000482928,2.72113,-26.2108,3.76192,25.4593,1.89483,2.28417,-0.0163725,-1.99874,1.10809,-1.44125,-0.409354,-0.516492,0.495717,0.602565,0.150065,0.39611,-0.796688,0.426153,-0.449873,-0.00284786,
0.179827,-0.227597,-0.172332,-1.72689,-0.0108692,-0.186473,-0.383174,0.739613,-0.0160643,0.712531,-0.25264,0.606278,-0.173745,0.0113424,0,0,0,0,0,0,0,0.179972,-0.226994,-0.171712,-1.72579,-0.0149279,1.38704,0.401914,0.509578,0.00215584,0.515191,-0.147918,0.26965,0.00399984,0.000482928,2.72113,-26.2108,3.76192,25.4593,1.89483,2.28417,-0.0163725,-1.99874,1.10809,-1.44125,-0.409354,-0.516492,0.495717,0.602565,0.150065,0.39611,-0.796688,0.426153,-0.449873,-0.00284786,
0.182852,-0.227639,-0.169406,-1.72791,-0.00823326,-0.187206,-0.383131,0.756077,-0.0105927,0.731501,-0.253184,0.658981,-0.183311,0.0108163,0,0,0,0,0,0,0,0.179972,-0.226994,-0.171712,-1.72579,-0.0149279,1.38704,0.401914,0.509578,0.00215584,0.515191,-0.147918,0.26965,0.00399984,0.000482928,2.72113,-26.2108,3.76192,25.4593,1.89483,2.28417,-0.0163725,-2.10366,-0.450416,-1.5245,0.747777,-0.487347,-0.245614,-0.204532,0.0943211,-0.41427,-0.859087,0.404493,-0.517791,0.000832136,
0.168504,-0.227214,-0.183139,-1.7229,-0.0191443,-0.184203,-0.383372,0.641176,-0.0327017,0.597892,-0.234669,0.360853,-0.0618495,0.01454,0,0,0,0,0,0,0,0.179972,-0.226994,-0.171712,-1.72579,-0.0149279,1.38704,0.401914,0.509578,0.00215584,0.515191,-0.147918,0.26965,0.00399984,0.000482928,2.72113,-26.2108,3.76192,25.4593,1.89483,2.28417,-0.0163725,-2.60139,-0.649953,-1.83784,0.830074,-0.742154,-0.311608,-0.242958,-0.000137797,-0.501389,-0.924662,0.343171,-0.519856,-0.00251781,
0.187539,-0.227322,-0.164666,-1.72848,-0.010543,-0.184344,-0.383303,0.665965,-0.0283845,0.627512,-0.23839,0.424023,-0.085393,0.0140468,0,0,0,0,0,0,0,0.179972,-0.226994,-0.171712,-1.72579,-0.0149279,1.38704,0.401914,0.509578,0.00215584,0.515191,-0.147918,0.26965,0.00399984,0.000482928,2.72113,-26.2108,3.76192,25.4593,1.89483,2.28417,-0.0163725,-2.60139,-0.649953,-1.83784,0.830074,-0.742154,-0.311608,-0.242958,-0.000137797,-0.501389,-0.924662,0.343171,-0.519856,-0.00251781,
0.190312,-0.227419,-0.162028,-1.72945,-0.00860363,-0.184801,-0.383251,0.693257,-0.0242069,0.65954,-0.242767,0.484852,-0.114161,0.0131079,0,0,0,0,0,0,0,0.196888,-0.226886,-0.15508,-1.73045,-0.00707434,1.38748,0.401918,0.525875,0.000687046,0.531947,-0.153894,0.290886,0.00484474,-0.00100477,3.60584,-26.4607,4.31337,24.6381,1.53412,2.29058,-0.00996382,-2.57634,-1.10955,-2.00614,1.06884,-0.752725,-0.492845,-0.364422,-0.0418467,-0.746646,-0.888905,0.231126,-0.42428,-0.005294,
0.193177,-0.227495,-0.159282,-1.73043,-0.00642761,-0.185342,-0.383202,0.716417,-0.0190621,0.686581,-0.244989,0.544007,-0.135155,0.0123208,0,0,0,0,0,0,0,0.196888,-0.226886,-0.15508,-1.73045,-0.00707434,1.38748,0.401918,0.525875,0.000687046,0.531947,-0.153894,0.290886,0.00484474,-0.00100477,3.60584,-26.4607,4.31337,24.6381,1.53412,2.29058,-0.00996382,-2.57634,-1.10955,-2.00614,1.06884,-0.752725,-0.492845,-0.364422,-0.0418467,-0.746646,-0.888905,0.231126,-0.42428,-0.005294,
0.196122,-0.22755,-0.156444,-1.73142,-0.00402735,-0.185938,-0.383155,0.736227,-0.0136617,0.709593,-0.24611,0.600063,-0.149099,0.0116613,0,0,0,0,0,0,0,0.196888,-0.226886,-0.15508,-1.73045,-0.00707434,1.38748,0.401918,0.525875,0.000687046,0.531947,-0.153894,0.290886,0.00484474,-0.00100477,3.60584,-26.4607,4.31337,24.6381,1.53412,2.29058,-0.00996382,-2.23451,1.9602,-2.03094,-1.01084,-0.398768,0.93588,0.978874,0.410703,0.938804,-1.06167,0.549025,-0.490231,-0.00957468,
0.19913,-0.227583,-0.153523,-1.7324,-0.0014162,-0.186566,-0.383111,0.751837,-0.00828166,0.730135,-0.246544,0.652788,-0.15708,0.0110244,0,0,0,0,0,0,0,0.196888,-0.226886,-0.15508,-1.73045,-0.00707434,1.38748,0.401918,0.525875,0.000687046,0.531947,-0.153894,0.290886,0.00484474,-0.00100477,3.60584,-26.4607,4.31337,24.6381,1.53412,2.29058,-0.00996382,-2.23451,1.9602,-2.03094,-1.01084,-0.398768,0.93588,0.978874,0.410703,0.938804,-1.06167,0.549025,-0.490231,-0.00957468,
0.202179,-0.227595,-0.150525,-1.73339,0.0013937,-0.187207,-0.383069,0.762258,-0.00303556,0.749395,-0.246473,0.702475,-0.160172,0.0104196,0,0,0,0,0,0,0,0.196888,-0.226886,-0.15508,-1.73045,-0.00707434,1.38748,0.401918,0.525875,0.000687046,0.531947,-0.153894,0.290886,0.00484474,-0.00100477,3.60584,-26.4607,4.31337,24.6381,1.53412,2.29058,-0.00996382,-2.05237,1.82325,-1.99873,-0.950875,-0.214684,0.874636,0.880132,0.531152,0.901159,-1.1211,0.528567,-0.542363,-0.00636048,
0.184875,-0.227209,-0.167176,-1.72753,-0.0122391,-0.184003,-0.38336,0.633378,-0.029838,0.589299,-0.22894,0.363861,-0.0497153,0.0151777,0,0,0,0,0,0,0,0.214783,-0.226924,-0.138012,-1.7357,0.00176303,1.38833,0.401923,0.544946,-0.0042099,0.539342,-0.152843,0.272097,0.0196355,-0.000571319,1.47541,-25.9093,2.1393,24.2889,1.03973,2.18438,-0.00996382,-1.85498,-1.07411,-2.50413,0.930952,0.0608334,-0.45712,-0.391011,0.535566,-0.659246,-1.22022,0.194942,-0.486016,-0.00369066,
0.222549,-0.227219,-0.130702,-1.73833,0.00638036,-0.18282,-0.383301,0.679382,-0.0238104,0.645963,-0.23148,0.446652,-0.061022,0.013691,0,0,0,0,0,0,0,0.214783,-0.226924,-0.138012,-1.7357,0.00176303,1.38833,0.401923,0.544946,-0.0042099,0.539342,-0.152843,0.272097,0.0196355,-0.000571319,1.47541,-25.9093,2.1393,24.2889,1.03973,2.18438,-0.00996382,-1.85498,-1.07411,-2.50413,0.930952,0.0608334,-0.45712,-0.391011,0.535566,-0.659246,-1.22022,0.194942,-0.486016,-0.00369066,
0.225368,-0.227295,-0.128001,-1.73927,0.00841157,-0.183164,-0.38325,0.704594,-0.0190502,0.675397,-0.235739,0.507802,-0.0861117,0.0128274,0,0,0,0,0,0,0,0.214783,-0.226924,-0.138012,-1.7357,0.00176303,1.38833,0.401923,0.544946,-0.0042099,0.539342,-0.152843,0.272097,0.0196355,-0.000571319,1.47541,-25.9093,2.1393,24.2889,1.03973,2.18438,-0.00996382,-1.89318,-1.13193,-2.71296,0.994837,0.14617,-0.470245,-0.37331,0.616075,-0.713626,-1.32166,0.237939,-0.511865,-0.00483817,
0.228266,-0.22735,-0.125196,-1.74022,0.0106784,-0.183581,-0.383202,0.724662,-0.0136406,0.701224,-0.238036,0.56671,-0.104282,0.0120242,0,0,0,0,0,0,0,0.214783,-0.226924,-0.138012,-1.7357,0.00176303,1.38833,0.401923,0.544946,-0.0042099,0.539342,-0.152843,0.272097,0.0196355,-0.000571319,1.47541,-25.9093,2.1393,24.2889,1.03973,2.18438,-0.00996382,-1.89318,-1.13193,-2.71296,0.994837,0.14617,-0.470245,-0.37331,0.616075,-0.713626,-1.32166,0.237939,-0.511865,-0.00483817,
0.231222,-0.227382,-0.122296,-1.74118,0.0131708,-0.184046,-0.383157,0.738807,-0.00811656,0.724871,-0.239291,0.623094,-0.116188,0.0112823,0,0,0,0,0,0,0,0.214783,-0.226924,-0.138012,-1.7357,0.00176303,1.38833,0.401923,0.544946,-0.0042099,0.539342,-0.152843,0.272097,0.0196355,-0.000571319,1.47541,-25.9093,2.1393,24.2889,1.03973,2.18438,-0.00996382,-1.88373,1.26658,-1.96495,-0.499056,-0.0886224,0.638684,0.693115,0.540742,0.56592,-1.10488,0.589437,-0.524961,-0.00819648,
0.234221,-0.227393,-0.119315,-1.74214,0.0158733,-0.184537,-0.383114,0.749917,-0.00276841,0.745233,-0.239832,0.675641,-0.12281,0.0106474,0,0,0,0,0,0,0,0.214783,-0.226924,-0.138012,-1.7357,0.00176303,1.38833,0.401923,0.544946,-0.0042099,0.539342,-0.152843,0.272097,0.0196355,-0.000571319,1.47541,-25.9093,2.1393,24.2889,1.03973,2.18438,-0.00996382,-1.88373,1.26658,-1.96495,-0.499056,-0.0886224,0.638684,0.693115,0.540742,0.56592,-1.10488,0.589437,-0.524961,-0.00819648,
0.219832,-0.227124,-0.133286,-1.7374,0.00459375,-0.182576,-0.383356,0.649509,-0.0265327,0.611098,-0.222782,0.384291,-0.0296964,0.0146941,0,0,0,0,0,0,0,0.23777,-0.226757,-0.115214,-1.74204,0.01417,1.38941,0.401925,0.547109,0.0102177,0.548656,-0.1547,0.28823,0.0213216,-0.000356484,3.32813,-26.8852,3.68654,25.5069,1.58905,2.11846,0.00376909,-1.98417,1.42652,-1.70153,-0.661475,-0.30241,0.730147,0.756149,0.391584,0.711961,-0.964675,0.55506,-0.489208,-0.008879,
0.245574,-0.226896,-0.107833,-1.74466,0.0189418,-0.181589,-0.3833,0.681147,-0.0117732,0.651938,-0.22997,0.458097,-0.0442587,0.0136368,0,0,0,0,0,0,0,0.23777,-0.226757,-0.115214,-1.74204,0.01417,1.38941,0.401925,0.547109,0.0102177,0.548656,-0.1547,0.28823,0.0213216,-0.000356484,3.32813,-26.8852,3.68654,25.5069,1.58905,2.11846,0.00376909,-1.98264,-1.36997,-1.45804,1.16193,-0.514582,-0.542197,-0.453177,-0.030876,-0.764611,-0.722777,0.21756,-0.398012,-0.00279999,
0.24838,-0.226928,-0.1051,-1.74559,0.021019,-0.181854,-0.383249,0.701707,-0.00793847,0.683292,-0.233672,0.519284,-0.0661467,0.0126558,0,0,0,0,0,0,0,0.23777,-0.226757,-0.115214,-1.74204,0.01417,1.38941,0.401925,0.547109,0.0102177,0.548656,-0.1547,0.28823,0.0213216,-0.000356484,3.32813,-26.8852,3.68654,25.5069,1.58905,2.11846,0.00376909,-1.98264,-1.36997,-1.45804,1.16193,-0.514582,-0.542197,-0.453177,-0.030876,-0.764611,-0.722777,0.21756,-0.398012,-0.00279999,
0.251253,-0.226942,-0.10226,-1.74654,0.0233319,-0.182181,-0.383202,0.718096,-0.00343752,0.709967,-0.235473,0.578229,-0.0818628,0.0118247,0,0,0,0,0,0,0,0.23777,-0.226757,-0.115214,-1.74204,0.01417,1.38941,0.401925,0.547109,0.0102177,0.548656,-0.1547,0.28823,0.0213216,-0.000356484,3.32813,-26.8852,3.68654,25.5069,1.58905,2.11846,0.00376909,-2.00687,-0.475949,-1.05843,0.619211,-0.716977,-0.123029,-0.0616032,-0.162382,-0.268778,-0.54104,0.351474,-0.348803,-0.0049731,
0.254178,-0.226937,-0.0993289,-1.74748,0.0258668,-0.182549,-0.383157,0.73121,0.00116428,0.732714,-0.236267,0.633732,-0.0919316,0.0111133,0,0,0,0,0,0,0,0.23777,-0.226757,-0.115214,-1.74204,0.01417,1.38941,0.401925,0.547109,0.0102177,0.548656,-0.1547,0.28823,0.0213216,-0.000356484,3.32813,-26.8852,3.68654,25.5069,1.58905,2.11846,0.00376909,-2.00687,-0.475949,-1.05843,0.619211,-0.716977,-0.123029,-0.0616032,-0.162382,-0.268778,-0.54104,0.351474,-0.348803,-0.0049731,
0.257144,-0.226914,-0.0963201,-1.74843,0.0286074,-0.182938,-0.383115,0.741627,0.00562358,0.752218,-0.236406,0.685142,-0.0972093,0.0104883,0,0,0,0,0,0,0,0.256356,-0.226445,-0.0968831,-1.74702,0.0242396,1.38996,0.401924,0.541893,0.012846,0.543087,-0.145099,0.282813,0.0209427,-0.000918837,2.26093,-27.0836,2.81373,25.1578,1.43615,2.09191,0.0303194,-1.80139,1.3429,-1.41337,-0.580633,-0.349467,0.701365,0.712279,0.275891,0.689555,-0.77921,0.587817,-0.388957,-0.00729069,
0.260143,-0.226875,-0.093244,-1.74937,0.0315361,-0.183332,-0.383075,0.749788,0.00982831,0.769028,-0.23605,0.732169,-0.0985505,0.00993474,0,0,0,0,0,0,0,0.256356,-0.226445,-0.0968831,-1.74702,0.0242396,1.38996,0.401924,0.541893,0.012846,0.543087,-0.145099,0.282813,0.0209427,-0.000918837,2.26093,-27.0836,2.81373,25.1578,1.43615,2.09191,0.0303194,-1.80139,1.3429,-1.41337,-0.580633,-0.349467,0.701365,0.712279,0.275891,0.689555,-0.77921,0.587817,-0.388957,-0.00729069,
0.242849,-0.226849,-0.110441,-1.74374,0.0171094,-0.181412,-0.383354,0.653112,-0.0135181,0.616676,-0.221981,0.397012,-0.0170103,0.0146982,0,0,0,0,0,0,0,0.256356,-0.226445,-0.0968831,-1.74702,0.0242396,1.38996,0.401924,0.541893,0.012846,0.543087,-0.145099,0.282813,0.0209427,-0.000918837,2.26093,-27.0836,2.81373,25.1578,1.43615,2.09191,0.0303194,-2.10069,1.82907,-1.82722,-0.998022,-0.449954,0.967241,1.01166,0.340763,0.975383,-0.886822,0.56582,-0.355968,-0.00755283,
0.264046,-0.226559,-0.0895101,-1.74956,0.0289652,-0.180878,-0.383299,0.668688,-0.00957621,0.65367,-0.223748,0.455457,-0.0260599,0.0136897,0,0,0,0,0,0,0,0.256356,-0.226445,-0.0968831,-1.74702,0.0242396,1.38996,0.401924,0.541893,0.012846,0.543087,-0.145099,0.282813,0.0209427,-0.000918837,2.26093,-27.0836,2.81373,25.1578,1.43615,2.09191,0.0303194,-2.10069,1.82907,-1.82722,-0.998022,-0.449954,0.967241,1.01166,0.340763,0.975383,-0.886822,0.56582,-0.355968,-0.00755283,
0.266802,-0.226582,-0.0867698,-1.75047,0.031033,-0.181059,-0.383249,0.689036,-0.00571095,0.68506,-0.227514,0.516958,-0.0450326,0.0127082,0,0,0,0,0,0,0,0.256356,-0.226445,-0.0968831,-1.74702,0.0242396,1.38996,0.401924,0.541893,0.012846,0.543087,-0.145099,0.282813,0.0209427,-0.000918837,2.26093,-27.0836,2.81373,25.1578,1.43615,2.09191,0.0303194,-2.26395,-1.05437,-1.84241,0.94376,-0.677799,-0.332783,-0.23973,-0.0849429,-0.534818,-0.731289,0.298158,-0.274409,-0.00429831,
0.269624,-0.226587,-0.0839232,-1.75139,0.0333368,-0.181293,-0.383201,0.705428,-0.00124083,0.711667,-0.229317,0.575959,-0.0586248,0.0118581,0,0,0,0,0,0,0,0.256356,-0.226445,-0.0968831,-1.74702,0.0242396,1.38996,0.401924,0.541893,0.012846,0.543087,-0.145099,0.282813,0.0209427,-0.000918837,2.26093,-27.0836,2.81373,25.1578,1.43615,2.09191,0.0303194,-2.28459,-0.869275,-1.76738,0.918826,-0.663892,-0.251761,-0.192398,-0.0775014,-0.436442,-0.73726,0.435876,-0.304267,-0.00421147,
0.272498,-0.226573,-0.0809857,-1.75231,0.0358624,-0.181562,-0.383157,0.718574,0.00327705,0.734359,-0.230093,0.631394,-0.0671625,0.0111172,0,0,0,0,0,0,0,0.273752,-0.225833,-0.0790844,-1.75131,0.0348474,1.39026,0.401934,0.564321,0.0179372,0.565818,-0.136193,0.298056,0.0195443,-0.000104883,-1.26202,-27.3097,-0.562425,26.1575,1.02142,2.21734,-0.0163725,-2.28459,-0.869275,-1.76738,0.918826,-0.663892,-0.251761,-0.192398,-0.0775014,-0.436442,-0.73726,0.435876,-0.304267,-0.00421147,
0.275414,-0.226543,-0.0779704,-1.75323,0.0385931,-0.181847,-0.383115,0.729028,0.00761235,0.753823,-0.230212,0.68267,-0.0713644,0.0104664,0,0,0,0,0,0,0,0.273752,-0.225833,-0.0790844,-1.75131,0.0348474,1.39026,0.401934,0.564321,0.0179372,0.565818,-0.136193,0.298056,0.0195443,-0.000104883,-1.26202,-27.3097,-0.562425,26.1575,1.02142,2.21734,-0.0163725,-1.70432,1.35589,-2.02318,-0.619963,-0.0871419,0.72006,0.715245,0.508487,0.713062,-0.948592,0.63872,-0.308012,-0.00700091,
0.278363,-0.226496,-0.074888,-1.75415,0.0415112,-0.182135,-0.383075,0.737227,0.0116651,0.770602,-0.22984,0.729532,-0.0719864,0.00989077,0,0,0,0,0,0,0,0.273752,-0.225833,-0.0790844,-1.75131,0.0348474,1.39026,0.401934,0.564321,0.0179372,0.565818,-0.136193,0.298056,0.0195443,-0.000104883,-1.26202,-27.3097,-0.562425,26.1575,1.02142,2.21734,-0.0163725,-1.70432,1.35589,-2.02318,-0.619963,-0.0871419,0.72006,0.715245,0.508487,0.713062,-0.948592,0.63872,-0.308012,-0.00700091,
0.261371,-0.22652,-0.0921247,-1.74867,0.0271433,-0.180774,-0.383354,0.643369,-0.0114121,0.616452,-0.21548,0.393163,-0.00283525,0.014804,0,0,0,0,0,0,0,0.273752,-0.225833,-0.0790844,-1.75131,0.0348474,1.39026,0.401934,0.564321,0.0179372,0.565818,-0.136193,0.298056,0.0195443,-0.000104883,-1.26202,-27.3097,-0.562425,26.1575,1.02142,2.21734,-0.0163725,-1.24689,0.284435,-2.45077,-0.0491939,0.328714,0.212603,0.254396,0.700712,0.116015,-1.07172,0.417738,-0.249263,-0.00694308,
0.281494,-0.225893,-0.0714519,-1.75378,0.0398896,-0.180419,-0.383297,0.670005,-0.00523973,0.671802,-0.218402,0.483266,-0.00785455,0.0131625,0,0,0,0,0,0,0,0.273752,-0.225833,-0.0790844,-1.75131,0.0348474,1.39026,0.401934,0.564321,0.0179372,0.565818,-0.136193,0.298056,0.0195443,-0.000104883,-1.26202,-27.3097,-0.562425,26.1575,1.02142,2.21734,-0.0163725,-1.18235,-0.197517,-2.57796,0.233151,0.396361,0.00452923,0.0987247,0.707641,-0.161317,-1.09515,0.347701,-0.22823,-0.00816749,
0.284247,-0.225899,-0.0686498,-1.75467,0.0420656,-0.180514,-0.383248,0.688254,-0.00151269,0.700525,-0.22217,0.544,-0.0237202,0.0122421,0,0,0,0,0,0,0,0.291723,-0.225346,-0.0603667,-1.75558,0.045321,1.39073,0.401937,0.571173,0.00785467,0.608072,-0.132365,0.374774,0.0200029,0.000599459,0.539127,-26.7821,0.937208,24.884,1.87652,1.89232,-0.0429228,-1.18235,-0.197517,-2.57796,0.233151,0.396361,0.00452923,0.0987247,0.707641,-0.161317,-1.09515,0.347701,-0.22823,-0.00816749,
0.287059,-0.225888,-0.0657498,-1.75556,0.0444712,-0.180654,-0.383203,0.702942,0.00275588,0.724982,-0.223905,0.601411,-0.0350385,0.0114371,0,0,0,0,0,0,0,0.291723,-0.225346,-0.0603667,-1.75558,0.045321,1.39073,0.401937,0.571173,0.00785467,0.608072,-0.132365,0.374774,0.0200029,0.000599459,0.539127,-26.7821,0.937208,24.884,1.87652,1.89232,-0.0429228,-1.03084,-0.938278,-2.67562,0.806262,0.625284,-0.361569,-0.294041,0.780937,-0.577666,-1.19017,0.404242,-0.28768,-0.00637769,
0.289918,-0.22586,-0.0627662,-1.75646,0.0470904,-0.180822,-0.38316,0.714689,0.00702087,0.745918,-0.224594,0.654796,-0.0419387,0.0107313,0,0,0,0,0,0,0,0.291723,-0.225346,-0.0603667,-1.75558,0.045321,1.39073,0.401937,0.571173,0.00785467,0.608072,-0.132365,0.374774,0.0200029,0.000599459,0.539127,-26.7821,0.937208,24.884,1.87652,1.89232,-0.0429228,-1.03084,-0.938278,-2.67562,0.806262,0.625284,-0.361569,-0.294041,0.780937,-0.577666,-1.19017,0.404242,-0.28768,-0.00637769,
0.292814,-0.225816,-0.0597105,-1.75736,0.0499056,-0.181002,-0.383119,0.723985,0.0110685,0.763931,-0.224627,0.703803,-0.0450032,0.0101087,0,0,0,0,0,0,0,0.291723,-0.225346,-0.0603667,-1.75558,0.045321,1.39073,0.401937,0.571173,0.00785467,0.608072,-0.132365,0.374774,0.0200029,0.000599459,0.539127,-26.7821,0.937208,24.884,1.87652,1.89232,-0.0429228,-2.22986,1.51175,-2.35216,-0.768634,-0.30018,0.879899,0.876981,0.501551,0.887949,-1.06027,0.705477,-0.331543,-0.00964256,
0.278814,-0.225872,-0.0741391,-1.7529,0.0379565,-0.180388,-0.38335,0.647345,-0.00698715,0.637913,-0.20993,0.420345,0.0111094,0.0141719,0,0,0,0,0,0,0,0.291723,-0.225346,-0.0603667,-1.75558,0.045321,1.39073,0.401937,0.571173,0.00785467,0.608072,-0.132365,0.374774,0.0200029,0.000599459,0.539127,-26.7821,0.937208,24.884,1.87652,1.89232,-0.0429228,-2.22986,1.51175,-2.35216,-0.768634,-0.30018,0.879899,0.876981,0.501551,0.887949,-1.06027,0.705477,-0.331543,-0.00964256,
0.299565,-0.225462,-0.0524227,-1.75796,0.0511528,-0.179814,-0.383303,0.67542,-0.00833956,0.693999,-0.210169,0.543582,0.00767874,0.0124746,0,0,0,0,0,0,0,0.291723,-0.225346,-0.0603667,-1.75558,0.045321,1.39073,0.401937,0.571173,0.00785467,0.608072,-0.132365,0.374774,0.0200029,0.000599459,0.539127,-26.7821,0.937208,24.884,1.87652,1.89232,-0.0429228,-2.04916,0.125234,-2.56292,0.0158836,-0.177463,0.264013,0.310915,0.463329,0.171828,-1.08263,0.451947,-0.289654,-0.00743519,
0.30233,-0.225477,-0.0495431,-1.75881,0.0535469,-0.179832,-0.383256,0.691335,-0.00375409,0.719909,-0.214029,0.598522,-0.00433294,0.0116203,0,0,0,0,0,0,0,0.30916,-0.224928,-0.0420184,-1.75984,0.0553725,1.39215,0.401934,0.549643,0.0178228,0.590491,-0.131187,0.36466,0.0394086,0.000198078,1.60236,-26.9606,1.46089,24.8602,1.46728,2.12487,-0.0163725,-1.76325,0.0455974,-2.81599,-0.0419795,0.0801929,0.220392,0.306986,0.642344,0.101558,-1.17127,0.360236,-0.256015,-0.00990112,
0.305146,-0.225473,-0.0465751,-1.75968,0.0561479,-0.179883,-0.383213,0.70405,0.00112012,0.741998,-0.215924,0.65025,-0.0126985,0.0108702,0,0,0,0,0,0,0,0.30916,-0.224928,-0.0420184,-1.75984,0.0553725,1.39215,0.401934,0.549643,0.0178228,0.590491,-0.131187,0.36466,0.0394086,0.000198078,1.60236,-26.9606,1.46089,24.8602,1.46728,2.12487,-0.0163725,-1.76325,0.0455974,-2.81599,-0.0419795,0.0801929,0.220392,0.306986,0.642344,0.101558,-1.17127,0.360236,-0.256015,-0.00990112,
0.308003,-0.225449,-0.0435314,-1.76054,0.0589408,-0.179952,-0.383172,0.71412,0.00581485,0.760921,-0.216783,0.698215,-0.0174238,0.0102104,0,0,0,0,0,0,0,0.30916,-0.224928,-0.0420184,-1.75984,0.0553725,1.39215,0.401934,0.549643,0.0178228,0.590491,-0.131187,0.36466,0.0394086,0.000198078,1.60236,-26.9606,1.46089,24.8602,1.46728,2.12487,-0.0163725,-1.02692,0.0851087,-2.76069,-0.00600468,0.688704,0.125129,0.144381,0.971047,0.0291773,-1.26623,0.467149,-0.300873,-0.00776567,
0.310891,-0.225409,-0.0404226,-1.76141,0.0619094,-0.180028,-0.383133,0.721979,0.0101623,0.777209,-0.216979,0.742148,-0.0189587,0.00962726,0,0,0,0,0,0,0,0.30916,-0.224928,-0.0420184,-1.75984,0.0553725,1.39215,0.401934,0.549643,0.0178228,0.590491,-0.131187,0.36466,0.0394086,0.000198078,1.60236,-26.9606,1.46089,24.8602,1.46728,2.12487,-0.0163725,-1.02692,0.0851087,-2.76069,-0.00600468,0.688704,0.125129,0.144381,0.971047,0.0291773,-1.26623,0.467149,-0.300873,-0.00776567,
0.313803,-0.225352,-0.0372574,-1.76228,0.0650373,-0.180099,-0.383097,0.727976,0.0141085,0.791288,-0.21668,0.781995,-0.0178381,0.00910919,0,0,0,0,0,0,0,0.30916,-0.224928,-0.0420184,-1.75984,0.0553725,1.39215,0.401934,0.549643,0.0178228,0.590491,-0.131187,0.36466,0.0394086,0.000198078,1.60236,-26.9606,1.46089,24.8602,1.46728,2.12487,-0.0163725,-1.52668,0.0306091,-2.68152,0.0343522,0.311259,0.175015,0.177323,0.762325,0.101808,-1.21483,0.486616,-0.325436,-0.0090767,
0.296863,-0.225429,-0.0551987,-1.75712,0.0489785,-0.179845,-0.383353,0.655538,-0.0113492,0.663506,-0.201848,0.486315,0.0218494,0.0134177,0,0,0,0,0,0,0,0.327012,-0.224614,-0.0229472,-1.76432,0.0665712,1.39379,0.401931,0.532009,0.0168479,0.615286,-0.133701,0.360947,0.0536376,-0.000743465,3.07422,-27.4843,2.33766,25.3085,1.96167,2.10473,0.0101778,-0.73952,-1.48415,-2.86276,0.979405,0.853245,-0.588364,-0.499835,0.880752,-0.829915,-1.24325,0.285733,-0.250343,-0.00980907,
0.33462,-0.224615,-0.015057,-1.76666,0.0722001,-0.176377,-0.383307,0.657279,0.000657821,0.690459,-0.206693,0.526775,0.0399464,0.0125732,0,0,0,0,0,0,0,0.327012,-0.224614,-0.0229472,-1.76432,0.0665712,1.39379,0.401931,0.532009,0.0168479,0.615286,-0.133701,0.360947,0.0536376,-0.000743465,3.07422,-27.4843,2.33766,25.3085,1.96167,2.10473,0.0101778,-0.73952,-1.48415,-2.86276,0.979405,0.853245,-0.588364,-0.499835,0.880752,-0.829915,-1.24325,0.285733,-0.250343,-0.00980907,
0.337316,-0.224597,-0.0121877,-1.7675,0.0745282,-0.176265,-0.38326,0.674057,0.00446162,0.71733,-0.210332,0.582037,0.0278197,0.0116811,0,0,0,0,0,0,0,0.327012,-0.224614,-0.0229472,-1.76432,0.0665712,1.39379,0.401931,0.532009,0.0168479,0.615286,-0.133701,0.360947,0.0536376,-0.000743465,3.07422,-27.4843,2.33766,25.3085,1.96167,2.10473,0.0101778,-1.12177,0.128767,-2.55589,-0.0346754,0.488787,0.188113,0.265364,0.810823,0.0530575,-1.12129,0.473879,-0.237637,-0.0152503,
0.340066,-0.224563,-0.00922683,-1.76835,0.0770651,-0.176189,-0.383216,0.687511,0.00854573,0.740219,-0.212074,0.634213,0.0191342,0.0108964,0,0,0,0,0,0,0,0.327012,-0.224614,-0.0229472,-1.76432,0.0665712,1.39379,0.401931,0.532009,0.0168479,0.615286,-0.133701,0.360947,0.0536376,-0.000743465,3.07422,-27.4843,2.33766,25.3085,1.96167,2.10473,0.0101778,-1.12177,0.128767,-2.55589,-0.0346754,0.488787,0.188113,0.265364,0.810823,0.0530575,-1.12129,0.473879,-0.237637,-0.0152503,
0.342859,-0.224513,-0.00618761,-1.7692,0.0797959,-0.176133,-0.383175,0.698209,0.0124759,0.759807,-0.212803,0.682714,0.0139138,0.0102066,0,0,0,0,0,0,0,0.327012,-0.224614,-0.0229472,-1.76432,0.0665712,1.39379,0.401931,0.532009,0.0168479,0.615286,-0.133701,0.360947,0.0536376,-0.000743465,3.07422,-27.4843,2.33766,25.3085,1.96167,2.10473,0.0101778,-1.32873,1.38743,-2.2149,-0.785026,0.28594,0.76614,0.791526,0.794808,0.739049,-1.03041,0.669276,-0.261348,-0.0163752,
0.345685,-0.224449,-0.00308101,-1.77006,0.0827049,-0.176086,-0.383137,0.706599,0.0160973,0.77665,-0.212879,0.727239,0.0117541,0.00959818,0,0,0,0,0,0,0,0.327012,-0.224614,-0.0229472,-1.76432,0.0665712,1.39379,0.401931,0.532009,0.0168479,0.615286,-0.133701,0.360947,0.0536376,-0.000743465,3.07422,-27.4843,2.33766,25.3085,1.96167,2.10473,0.0101778,-1.32873,1.38743,-2.2149,-0.785026,0.28594,0.76614,0.791526,0.794808,0.739049,-1.03041,0.669276,-0.261348,-0.0163752,
0.348537,-0.224371,8.38035e-05,-1.77091,0.0857757,-0.176038,-0.383101,0.713028,0.0193618,0.791203,-0.212471,0.767711,0.0121686,0.00905675,0,0,0,0,0,0,0,0.344204,-0.224225,-0.00422989,-1.76841,0.0785713,1.39513,0.401934,0.567979,0.014173,0.585762,-0.132662,0.322169,0.0534814,0.000753683,-1.49212,-27.4565,-1.53838,25.9314,1.28967,2.15783,-0.00996382,-0.916724,-0.0145745,-1.76366,0.196114,0.359838,0.0812469,0.0765363,0.559488,-0.00646396,-0.822386,0.536355,-0.223861,-0.0114638,
0.331991,-0.224618,-0.0178189,-1.76584,0.070093,-0.176536,-0.383357,0.636363,-0.00167084,0.658855,-0.198813,0.469332,0.0540747,0.013565,0,0,0,0,0,0,0,0.344204,-0.224225,-0.00422989,-1.76841,0.0785713,1.39513,0.401934,0.567979,0.014173,0.585762,-0.132662,0.322169,0.0534814,0.000753683,-1.49212,-27.4565,-1.53838,25.9314,1.28967,2.15783,-0.00996382,-1.50545,-0.54826,-1.70044,0.501571,-0.190082,-0.0272493,0.0300286,0.181084,-0.164912,-0.682767,0.410198,-0.173846,-0.0119144,
0.351696,-0.224225,0.00370335,-1.7707,0.0839953,-0.174944,-0.383307,0.646173,0.00141411,0.693815,-0.202167,0.514073,0.0510483,0.0124344,0,0,0,0,0,0,0,0.344204,-0.224225,-0.00422989,-1.76841,0.0785713,1.39513,0.401934,0.567979,0.014173,0.585762,-0.132662,0.322169,0.0534814,0.000753683,-1.49212,-27.4565,-1.53838,25.9314,1.28967,2.15783,-0.00996382,-1.50545,-0.54826,-1.70044,0.501571,-0.190082,-0.0272493,0.0300286,0.181084,-0.164912,-0.682767,0.410198,-0.173846,-0.0119144,
0.354346,-0.224203,0.00658391,-1.77152,0.086283,-0.174777,-0.383261,0.66262,0.00547396,0.72014,-0.205596,0.571909,0.0418325,0.0115514,0,0,0,0,0,0,0,0.344204,-0.224225,-0.00422989,-1.76841,0.0785713,1.39513,0.401934,0.567979,0.014173,0.585762,-0.132662,0.322169,0.0534814,0.000753683,-1.49212,-27.4565,-1.53838,25.9314,1.28967,2.15783,-0.00996382,-1.31404,-0.250701,-1.84066,0.316112,0.0443226,0.0694136,0.126136,0.368829,-0.0658525,-0.77206,0.491102,-0.182703,-0.0122829,
0.357049,-0.224165,0.00955445,-1.77235,0.0887865,-0.174635,-0.383218,0.675855,0.00966044,0.742637,-0.207208,0.625887,0.0354113,0.010766,0,0,0,0,0,0,0,0.344204,-0.224225,-0.00422989,-1.76841,0.0785713,1.39513,0.401934,0.567979,0.014173,0.585762,-0.132662,0.322169,0.0534814,0.000753683,-1.49212,-27.4565,-1.53838,25.9314,1.28967,2.15783,-0.00996382,-1.31404,-0.250701,-1.84066,0.316112,0.0443226,0.0694136,0.126136,0.368829,-0.0658525,-0.77206,0.491102,-0.182703,-0.0122829,
0.359795,-0.22411,0.0126023,-1.77318,0.0914891,-0.174507,-0.383177,0.686389,0.0135962,0.761954,-0.207844,0.675651,0.0319044,0.010071,0,0,0,0,0,0,0,0.367345,-0.223231,0.0216619,-1.77349,0.0939645,1.39687,0.401941,0.559954,0.0227189,0.599542,-0.110847,0.308547,0.0493447,0.000990993,-1.76983,-27.4565,-2.16124,25.4315,0.971981,2.20452,-0.0365141,-1.49504,2.17549,-2.09001,-1.27146,0.158037,1.13614,1.14585,0.808697,1.16119,-0.969477,0.82224,-0.234806,-0.0143447,
0.362573,-0.224042,0.015717,-1.77402,0.0943735,-0.174383,-0.383139,0.69454,0.0171588,0.778674,-0.207862,0.721105,0.0310522,0.00950606,0,0,0,0,0,0,0,0.367345,-0.223231,0.0216619,-1.77349,0.0939645,1.39687,0.401941,0.559954,0.0227189,0.599542,-0.110847,0.308547,0.0493447,0.000990993,-1.76983,-27.4565,-2.16124,25.4315,0.971981,2.20452,-0.0365141,-1.59167,0.668925,-2.16676,-0.321194,0.0721058,0.511106,0.498205,0.596695,0.482189,-0.959401,0.667767,-0.242258,-0.0128035,
0.365379,-0.22396,0.0188908,-1.77484,0.0974014,-0.174253,-0.383103,0.701341,0.0203156,0.793447,-0.207215,0.756956,0.0323862,0.00900352,0,0,0,0,0,0,0,0.367345,-0.223231,0.0216619,-1.77349,0.0939645,1.39687,0.401941,0.559954,0.0227189,0.599542,-0.110847,0.308547,0.0493447,0.000990993,-1.76983,-27.4565,-2.16124,25.4315,0.971981,2.20452,-0.0365141,-1.59167,0.668925,-2.16676,-0.321194,0.0721058,0.511106,0.498205,0.596695,0.482189,-0.959401,0.667767,-0.242258,-0.0128035,
0.351696,-0.224225,0.0037034,-1.7707,0.0839946,-0.174944,-0.383307,0.646179,0.00141258,0.69382,-0.202168,0.513983,0.0510772,0.0124339,0,0,0,0,0,0,0,0.367345,-0.223231,0.0216619,-1.77349,0.0939645,1.39687,0.401941,0.559954,0.0227189,0.599542,-0.110847,0.308547,0.0493447,0.000990993,-1.76983,-27.4565,-2.16124,25.4315,0.971981,2.20452,-0.0365141,-1.40699,-1.12251,-2.07437,0.800781,0.025421,-0.256946,-0.191588,0.301747,-0.43337,-0.828341,0.392615,-0.176969,-0.0123819,
0.374741,-0.223197,0.0296868,-1.77569,0.0993455,-0.173008,-0.383305,0.63738,0.00340149,0.70015,-0.195946,0.513014,0.0718475,0.0121535,0,0,0,0,0,0,0,0.367345,-0.223231,0.0216619,-1.77349,0.0939645,1.39687,0.401941,0.559954,0.0227189,0.599542,-0.110847,0.308547,0.0493447,0.000990993,-1.76983,-27.4565,-2.16124,25.4315,0.971981,2.20452,-0.0365141,-1.40699,-1.12251,-2.07437,0.800781,0.025421,-0.256946,-0.191588,0.301747,-0.43337,-0.828341,0.392615,-0.176969,-0.0123819,
0.377354,-0.223168,0.0325894,-1.77649,0.101633,-0.172749,-0.38326,0.65323,0.00728298,0.72567,-0.199891,0.571785,0.0645613,0.0112968,0,0,0,0,0,0,0,0.385338,-0.222263,0.042725,-1.77715,0.106811,1.39859,0.401937,0.543574,0.0213049,0.628224,-0.101307,0.411293,0.056456,-0.000186318,0.463749,-26.8337,-0.137926,25.4831,2.20611,1.95916,-0.0026396,-0.457637,-0.966643,-2.38751,0.630156,0.844218,-0.374278,-0.300993,0.808871,-0.572196,-1.02405,0.402633,-0.16546,-0.012784,
0.380017,-0.223123,0.0355799,-1.77729,0.104137,-0.172512,-0.383217,0.665879,0.0113494,0.747621,-0.201722,0.626165,0.0593129,0.0105748,0,0,0,0,0,0,0,0.385338,-0.222263,0.042725,-1.77715,0.106811,1.39859,0.401937,0.543574,0.0213049,0.628224,-0.101307,0.411293,0.056456,-0.000186318,0.463749,-26.8337,-0.137926,25.4831,2.20611,1.95916,-0.0026396,-0.457637,-0.966643,-2.38751,0.630156,0.844218,-0.374278,-0.300993,0.808871,-0.572196,-1.02405,0.402633,-0.16546,-0.012784,
0.382723,-0.223062,0.0386472,-1.7781,0.10682,-0.172286,-0.383177,0.676494,0.0151571,0.766811,-0.20225,0.670706,0.0564622,0.00993337,0,0,0,0,0,0,0,0.385338,-0.222263,0.042725,-1.77715,0.106811,1.39859,0.401937,0.543574,0.0213049,0.628224,-0.101307,0.411293,0.056456,-0.000186318,0.463749,-26.8337,-0.137926,25.4831,2.20611,1.95916,-0.0026396,-1.27025,1.40087,-2.7163,-0.936024,0.535172,0.775319,0.802119,1.06523,0.749344,-1.2094,0.740789,-0.229802,-0.0152701,
0.385476,-0.222988,0.0417737,-1.77891,0.10961,-0.172063,-0.38314,0.688201,0.0185214,0.781636,-0.201687,0.697444,0.0557333,0.00931003,0,0,0,0,0,0,0,0.385338,-0.222263,0.042725,-1.77715,0.106811,1.39859,0.401937,0.543574,0.0213049,0.628224,-0.101307,0.411293,0.056456,-0.000186318,0.463749,-26.8337,-0.137926,25.4831,2.20611,1.95916,-0.0026396,-1.27025,1.40087,-2.7163,-0.936024,0.535172,0.775319,0.802119,1.06523,0.749344,-1.2094,0.740789,-0.229802,-0.0152701,
0.388269,-0.222903,0.0449479,-1.77971,0.112465,-0.171836,-0.383105,0.698309,0.0213117,0.793553,-0.200719,0.713804,0.0569303,0.00869397,0,0,0,0,0,0,0,0.385338,-0.222263,0.042725,-1.77715,0.106811,1.39859,0.401937,0.543574,0.0213049,0.628224,-0.101307,0.411293,0.056456,-0.000186318,0.463749,-26.8337,-0.137926,25.4831,2.20611,1.95916,-0.0026396,-2.03886,0.835131,-2.59315,-0.560911,-0.0798176,0.705415,0.716961,0.66221,0.685541,-1.10454,0.698938,-0.251165,-0.0127701,
0.374742,-0.223197,0.0296873,-1.77569,0.0993368,-0.173005,-0.383305,0.63745,0.0033857,0.70021,-0.195954,0.512005,0.0721278,0.0121483,0,0,0,0,0,0,0,0.385338,-0.222263,0.042725,-1.77715,0.106811,1.39859,0.401937,0.543574,0.0213049,0.628224,-0.101307,0.411293,0.056456,-0.000186318,0.463749,-26.8337,-0.137926,25.4831,2.20611,1.95916,-0.0026396,-1.18075,-1.51163,-2.45939,0.921961,0.302606,-0.42859,-0.3644,0.477587,-0.616409,-0.979005,0.347775,-0.166244,-0.0107241,
0.392714,-0.222244,0.0509107,-1.77925,0.113048,-0.171081,-0.383314,0.635086,0.00238787,0.71254,-0.188548,0.572373,0.0926818,0.011692,0,0,0,0,0,0,0,0.402631,-0.221384,0.0628607,-1.78037,0.11861,1.40061,0.401935,0.530689,0.0264245,0.64486,-0.103386,0.411612,0.0694385,-0.000941168,0.412174,-26.8575,-0.312487,25.4077,2.03491,1.9793,0.017502,-1.18075,-1.51163,-2.45939,0.921961,0.302606,-0.42859,-0.3644,0.477587,-0.616409,-0.979005,0.347775,-0.166244,-0.0107241,
0.395316,-0.222218,0.0538609,-1.78002,0.115513,-0.170731,-0.38327,0.650502,0.00639259,0.737553,-0.192524,0.616484,0.0874573,0.010905,0,0,0,0,0,0,0,0.402631,-0.221384,0.0628607,-1.78037,0.11861,1.40061,0.401935,0.530689,0.0264245,0.64486,-0.103386,0.411612,0.0694385,-0.000941168,0.412174,-26.8575,-0.312487,25.4077,2.03491,1.9793,0.017502,-0.477414,-0.486939,-2.72358,0.135297,0.936434,-0.148649,-0.0861222,1.01723,-0.287661,-1.16863,0.397176,-0.167942,-0.0131189,
0.397981,-0.222176,0.0568895,-1.7808,0.118091,-0.170397,-0.38323,0.666145,0.0105072,0.757127,-0.193895,0.644404,0.0833895,0.0101432,0,0,0,0,0,0,0,0.402631,-0.221384,0.0628607,-1.78037,0.11861,1.40061,0.401935,0.530689,0.0264245,0.64486,-0.103386,0.411612,0.0694385,-0.000941168,0.412174,-26.8575,-0.312487,25.4077,2.03491,1.9793,0.017502,-0.477414,-0.486939,-2.72358,0.135297,0.936434,-0.148649,-0.0861222,1.01723,-0.287661,-1.16863,0.397176,-0.167942,-0.0131189,
0.400699,-0.222119,0.0599812,-1.78157,0.120743,-0.170072,-0.383192,0.6795,0.0141591,0.772931,-0.194237,0.663048,0.081185,0.00940646,0,0,0,0,0,0,0,0.402631,-0.221384,0.0628607,-1.78037,0.11861,1.40061,0.401935,0.530689,0.0264245,0.64486,-0.103386,0.411612,0.0694385,-0.000941168,0.412174,-26.8575,-0.312487,25.4077,2.03491,1.9793,0.017502,-0.863584,0.82847,-2.907,-0.737426,0.858856,0.466768,0.48827,1.23584,0.429383,-1.31023,0.615231,-0.234852,-0.0135414,
0.403459,-0.22205,0.0631239,-1.78235,0.123453,-0.169749,-0.383157,0.689878,0.0172521,0.785688,-0.194139,0.67736,0.0808112,0.00882243,0,0,0,0,0,0,0,0.402631,-0.221384,0.0628607,-1.78037,0.11861,1.40061,0.401935,0.530689,0.0264245,0.64486,-0.103386,0.411612,0.0694385,-0.000941168,0.412174,-26.8575,-0.312487,25.4077,2.03491,1.9793,0.017502,-2.61424,1.72894,-2.91331,-1.33186,-0.359585,1.25102,1.25451,0.774416,1.32435,-1.2335,0.743109,-0.277797,-0.0189144,
0.406251,-0.221971,0.0663072,-1.78312,0.126195,-0.169421,-0.383124,0.698144,0.0198526,0.795818,-0.193574,0.685486,0.0819329,0.00824754,0,0,0,0,0,0,0,0.419258,-0.220838,0.0822369,-1.78376,0.130307,1.40319,0.401936,0.51693,0.0202001,0.627358,-0.110774,0.368154,0.0940426,-0.000849394,1.85627,-27.3811,0.413527,25.1102,1.83349,1.99212,0.00376909,-2.61424,1.72894,-2.91331,-1.33186,-0.359585,1.25102,1.25451,0.774416,1.32435,-1.2335,0.743109,-0.277797,-0.0189144,
0.392722,-0.222245,0.050916,-1.77925,0.112956,-0.171058,-0.383315,0.635812,0.00223509,0.71316,-0.188571,0.561775,0.0952236,0.0116418,0,0,0,0,0,0,0,0.419258,-0.220838,0.0822369,-1.78376,0.130307,1.40319,0.401936,0.51693,0.0202001,0.627358,-0.110774,0.368154,0.0940426,-0.000849394,1.85627,-27.3811,0.413527,25.1102,1.83349,1.99212,0.00376909,-1.34318,-0.809258,-2.57649,0.371333,0.300931,-0.0581932,0.0219859,0.641539,-0.212391,-1.08543,0.443748,-0.218199,-0.0134265,
0.426431,-0.220766,0.0903742,-1.78584,0.135918,-0.166108,-0.383314,0.621697,0.00732347,0.7085,-0.184493,0.507247,0.122785,0.0117099,0,0,0,0,0,0,0,0.419258,-0.220838,0.0822369,-1.78376,0.130307,1.40319,0.401936,0.51693,0.0202001,0.627358,-0.110774,0.368154,0.0940426,-0.000849394,1.85627,-27.3811,0.413527,25.1102,1.83349,1.99212,0.00376909,-1.34318,-0.809258,-2.57649,0.371333,0.300931,-0.0581932,0.0219859,0.641539,-0.212391,-1.08543,0.443748,-0.218199,-0.0134265,
0.428996,-0.220722,0.0933011,-1.78659,0.138051,-0.165637,-0.383271,0.641334,0.0108962,0.731723,-0.18774,0.533201,0.117585,0.0107795,0,0,0,0,0,0,0,0.419258,-0.220838,0.0822369,-1.78376,0.130307,1.40319,0.401936,0.51693,0.0202001,0.627358,-0.110774,0.368154,0.0940426,-0.000849394,1.85627,-27.3811,0.413527,25.1102,1.83349,1.99212,0.00376909,-0.510774,-1.32324,-2.43654,0.713,0.825259,-0.460426,-0.37715,0.79318,-0.664572,-1.06741,0.375613,-0.19753,-0.0115917,
0.431624,-0.220665,0.0963038,-1.78735,0.140272,-0.165183,-0.383231,0.656989,0.0142957,0.750674,-0.189311,0.555366,0.113487,0.0100122,0,0,0,0,0,0,0,0.419258,-0.220838,0.0822369,-1.78376,0.130307,1.40319,0.401936,0.51693,0.0202001,0.627358,-0.110774,0.368154,0.0940426,-0.000849394,1.85627,-27.3811,0.413527,25.1102,1.83349,1.99212,0.00376909,-0.281239,-0.254707,-2.66351,-0.0475483,1.15823,-0.0976328,-0.0550252,1.19199,-0.220259,-1.23635,0.511444,-0.231347,-0.0127927,
0.434303,-0.220596,0.0993678,-1.78811,0.142559,-0.16474,-0.383194,0.669703,0.0172828,0.765988,-0.189859,0.571549,0.110899,0.00927759,0,0,0,0,0,0,0,0.419258,-0.220838,0.0822369,-1.78376,0.130307,1.40319,0.401936,0.51693,0.0202001,0.627358,-0.110774,0.368154,0.0940426,-0.000849394,1.85627,-27.3811,0.413527,25.1102,1.83349,1.99212,0.00376909,-0.281239,-0.254707,-2.66351,-0.0475483,1.15823,-0.0976328,-0.0550252,1.19199,-0.220259,-1.23635,0.511444,-0.231347,-0.0127927,
0.437021,-0.220517,0.102481,-1.78887,0.144896,-0.1643,-0.383159,0.679483,0.0197664,0.778191,-0.189909,0.584476,0.109909,0.00864396,0,0,0,0,0,0,0,0.435908,-0.220462,0.102164,-1.7874,0.142361,1.40667,0.401937,0.540545,0.00470988,0.614853,-0.117372,0.358098,0.120811,-0.000106025,-1.61908,-26.9606,-2.7365,25.1102,1.27136,2.10473,-0.0026396,-1.34244,0.674049,-2.82477,-0.708787,0.486833,0.539997,0.552405,1.05175,0.525816,-1.26312,0.618919,-0.258485,-0.0134953,
0.439769,-0.220429,0.105632,-1.78963,0.147265,-0.163859,-0.383126,0.687111,0.0218094,0.787793,-0.189462,0.59214,0.11031,0.0081149,0,0,0,0,0,0,0,0.435908,-0.220462,0.102164,-1.7874,0.142361,1.40667,0.401937,0.540545,0.00470988,0.614853,-0.117372,0.358098,0.120811,-0.000106025,-1.61908,-26.9606,-2.7365,25.1102,1.27136,2.10473,-0.0026396,-1.34244,0.674049,-2.82477,-0.708787,0.486833,0.539997,0.552405,1.05175,0.525816,-1.26312,0.618919,-0.258485,-0.0134953,
0.426494,-0.220774,0.0904174,-1.78583,0.13513,-0.166003,-0.383319,0.627718,0.00628674,0.713597,-0.183588,0.416541,0.134933,0.0112653,0,0,0,0,0,0,0,0.435908,-0.220462,0.102164,-1.7874,0.142361,1.40667,0.401937,0.540545,0.00470988,0.614853,-0.117372,0.358098,0.120811,-0.000106025,-1.61908,-26.9606,-2.7365,25.1102,1.27136,2.10473,-0.0026396,-1.95412,0.320128,-2.6567,-0.469481,-0.0885245,0.581021,0.647119,0.665591,0.529661,-1.10824,0.542345,-0.226664,-0.0122357,
0.443143,-0.220484,0.110393,-1.78939,0.146756,-0.162308,-0.383323,0.627141,0.000785858,0.715274,-0.175772,0.370966,0.153466,0.0109528,0,0,0,0,0,0,0,0.435908,-0.220462,0.102164,-1.7874,0.142361,1.40667,0.401937,0.540545,0.00470988,0.614853,-0.117372,0.358098,0.120811,-0.000106025,-1.61908,-26.9606,-2.7365,25.1102,1.27136,2.10473,-0.0026396,-1.95412,0.320128,-2.6567,-0.469481,-0.0885245,0.581021,0.647119,0.665591,0.529661,-1.10824,0.542345,-0.226664,-0.0122357,
0.445724,-0.220465,0.113342,-1.79011,0.148259,-0.161702,-0.383282,0.645056,0.00478763,0.737224,-0.179254,0.375849,0.151358,0.0100585,0,0,0,0,0,0,0,0.435908,-0.220462,0.102164,-1.7874,0.142361,1.40667,0.401937,0.540545,0.00470988,0.614853,-0.117372,0.358098,0.120811,-0.000106025,-1.61908,-26.9606,-2.7365,25.1102,1.27136,2.10473,-0.0026396,-0.406509,-0.0355948,-2.59808,-0.253072,0.984754,0.0333203,0.109055,1.12545,-0.0866712,-1.17089,0.478018,-0.193431,-0.00863756,
0.448359,-0.220431,0.116361,-1.79083,0.149785,-0.161104,-0.383245,0.658942,0.00848573,0.754631,-0.18123,0.381492,0.149504,0.0092825,0,0,0,0,0,0,0,0.452867,-0.220159,0.122703,-1.79101,0.153497,1.41102,0.401937,0.542356,0.00376295,0.653747,-0.109061,0.328856,0.144349,-0.00120944,0.0313145,-26.1354,-1.0385,25.3601,1.6925,2.15783,-0.0026396,0.0302376,0.198221,-2.76751,-0.468766,1.39917,-0.00133234,0.0383045,1.42538,-0.0898688,-1.30321,0.516374,-0.218701,-0.00938151,
0.451039,-0.220384,0.119434,-1.79156,0.151325,-0.160511,-0.383211,0.669825,0.0117153,0.768327,-0.182223,0.384805,0.148455,0.00863837,0,0,0,0,0,0,0,0.452867,-0.220159,0.122703,-1.79101,0.153497,1.41102,0.401937,0.542356,0.00376295,0.653747,-0.109061,0.328856,0.144349,-0.00120944,0.0313145,-26.1354,-1.0385,25.3601,1.6925,2.15783,-0.0026396,0.0302376,0.198221,-2.76751,-0.468766,1.39917,-0.00133234,0.0383045,1.42538,-0.0898688,-1.30321,0.516374,-0.218701,-0.00938151,
0.453752,-0.220326,0.12255,-1.79229,0.152864,-0.159917,-0.383178,0.678213,0.0144321,0.779017,-0.182551,0.38489,0.148392,0.00807017,0,0,0,0,0,0,0,0.452867,-0.220159,0.122703,-1.79101,0.153497,1.41102,0.401937,0.542356,0.00376295,0.653747,-0.109061,0.328856,0.144349,-0.00120944,0.0313145,-26.1354,-1.0385,25.3601,1.6925,2.15783,-0.0026396,-1.82234,0.987418,-2.76581,-1.00961,0.0821509,0.819499,0.826365,0.921278,0.860022,-1.20533,0.605626,-0.25128,-0.012277,
0.459836,-0.220325,0.129399,-1.79362,0.141706,-0.15788,-0.383157,0.699089,0.013076,0.804798,-0.180601,-0.154141,0.176437,0.0067174,0,0,0,0,0,0,0,0.452867,-0.220159,0.122703,-1.79101,0.153497,1.41102,0.401937,0.542356,0.00376295,0.653747,-0.109061,0.328856,0.144349,-0.00120944,0.0313145,-26.1354,-1.0385,25.3601,1.6925,2.15783,-0.0026396,-1.82234,0.987418,-2.76581,-1.00961,0.0821509,0.819499,0.826365,0.921278,0.860022,-1.20533,0.605626,-0.25128,-0.012277,
0.443362,-0.220503,0.11054,-1.78933,0.14389,-0.162115,-0.38334,0.647418,-0.00220154,0.732346,-0.170473,0.044319,0.175816,0.00953254,0,0,0,0,0,0,0,0.452867,-0.220159,0.122703,-1.79101,0.153497,1.41102,0.401937,0.542356,0.00376295,0.653747,-0.109061,0.328856,0.144349,-0.00120944,0.0313145,-26.1354,-1.0385,25.3601,1.6925,2.15783,-0.0026396,-1.66468,0.145456,-2.31673,-0.397684,-0.0661425,0.478962,0.526992,0.595069,0.446507,-0.975766,0.449142,-0.204268,-0.00972489,
0.460422,-0.220212,0.131243,-1.79286,0.154734,-0.157486,-0.383343,0.652381,-0.00335589,0.741237,-0.164159,0.021324,0.198181,0.00920743,0,0,0,0,0,0,0,0.452867,-0.220159,0.122703,-1.79101,0.153497,1.41102,0.401937,0.542356,0.00376295,0.653747,-0.109061,0.328856,0.144349,-0.00120944,0.0313145,-26.1354,-1.0385,25.3601,1.6925,2.15783,-0.0026396,-1.66468,0.145456,-2.31673,-0.397684,-0.0661425,0.478962,0.526992,0.595069,0.446507,-0.975766,0.449142,-0.204268,-0.00972489,
0.46309,-0.220215,0.134288,-1.79354,0.154596,-0.156691,-0.383309,0.66703,-0.000539722,0.761226,-0.168546,-0.0347208,0.198717,0.00852224,0,0,0,0,0,0,0,0.475654,-0.219526,0.149781,-1.79511,0.16301,1.41709,0.401936,0.555348,0.0140597,0.659302,-0.0979754,0.11747,0.159097,-0.000533124,-0.349545,-26.1592,-1.68517,25.5347,1.25305,2.00493,0.00376909,-1.2519,0.329605,-2.04768,-0.489932,0.12317,0.44429,0.514026,0.656635,0.393711,-0.890428,0.425602,-0.184016,-0.00858522,
0.465801,-0.220205,0.137391,-1.79422,0.154278,-0.1559,-0.383277,0.677596,0.00232708,0.775885,-0.171297,-0.079353,0.197785,0.00794746,0,0,0,0,0,0,0,0.475654,-0.219526,0.149781,-1.79511,0.16301,1.41709,0.401936,0.555348,0.0140597,0.659302,-0.0979754,0.11747,0.159097,-0.000533124,-0.349545,-26.1592,-1.68517,25.5347,1.25305,2.00493,0.00376909,0.162944,-0.227274,-2.08021,-0.161579,1.17778,-0.185818,-0.131272,1.10788,-0.295411,-1.02661,0.381265,-0.207959,-0.000183116,
0.46854,-0.220185,0.140537,-1.79491,0.153819,-0.155114,-0.383247,0.684792,0.00496119,0.786358,-0.173148,-0.114838,0.196481,0.00742903,0,0,0,0,0,0,0,0.475654,-0.219526,0.149781,-1.79511,0.16301,1.41709,0.401936,0.555348,0.0140597,0.659302,-0.0979754,0.11747,0.159097,-0.000533124,-0.349545,-26.1592,-1.68517,25.5347,1.25305,2.00493,0.00376909,0.162944,-0.227274,-2.08021,-0.161579,1.17778,-0.185818,-0.131272,1.10788,-0.295411,-1.02661,0.381265,-0.207959,-0.000183116,
0.471297,-0.220156,0.143711,-1.79561,0.153245,-0.154333,-0.383219,0.689348,0.00729467,0.793517,-0.174373,-0.143478,0.195309,0.00712133,0,0,0,0,0,0,0,0.475654,-0.219526,0.149781,-1.79511,0.16301,1.41709,0.401936,0.555348,0.0140597,0.659302,-0.0979754,0.11747,0.159097,-0.000533124,-0.349545,-26.1592,-1.68517,25.5347,1.25305,2.00493,0.00376909,-1.23955,-0.00418506,-2.1321,-0.404495,0.14153,0.332746,0.357239,0.681011,0.325371,-0.971659,0.337901,-0.24143,-0.00152788,
0.474065,-0.220119,0.146903,-1.79631,0.152576,-0.153555,-0.383192,0.69184,0.00932277,0.798069,-0.1751,-0.167183,0.194517,0.00662127,0,0,0,0,0,0,0,0.475654,-0.219526,0.149781,-1.79511,0.16301,1.41709,0.401936,0.555348,0.0140597,0.659302,-0.0979754,0.11747,0.159097,-0.000533124,-0.349545,-26.1592,-1.68517,25.5347,1.25305,2.00493,0.00376909,-1.23955,-0.00418506,-2.1321,-0.404495,0.14153,0.332746,0.357239,0.681011,0.325371,-0.971659,0.337901,-0.24143,-0.00152788,
0.460554,-0.220338,0.131255,-1.7929,0.150013,-0.156536,-0.383355,0.656496,-0.0172967,0.74114,-0.167634,-0.500198,0.298513,0.00864139,0,0,0,0,0,0,0,0.492931,-0.218897,0.170252,-1.79756,0.163194,1.42225,0.40194,0.552821,0.0243823,0.660848,-0.078893,-0.0139395,0.166187,0.000531064,0.487552,-26.5599,-1.21306,25.5823,1.02691,1.9793,-0.0301054,-1.13457,-0.625248,-2.00926,-0.0612959,0.00925869,0.10622,0.14806,0.470335,0.0794955,-0.859005,0.127995,-0.187586,-0.00329879,
0.500377,-0.21897,0.178693,-1.7994,0.158121,-0.145158,-0.383342,0.632014,-0.0106062,0.723837,-0.168153,-0.558465,0.306291,0.00941016,0,0,0,0,0,0,0,0.492931,-0.218897,0.170252,-1.79756,0.163194,1.42225,0.40194,0.552821,0.0243823,0.660848,-0.078893,-0.0139395,0.166187,0.000531064,0.487552,-26.5599,-1.21306,25.5823,1.02691,1.9793,-0.0301054,-0.661522,-0.14989,-2.37164,-0.598424,0.428642,0.160127,0.219189,0.882628,0.161421,-1.07375,0.0425168,-0.214874,-0.00546441,
0.502923,-0.219012,0.181628,-1.80009,0.155562,-0.143902,-0.383307,0.636299,-0.010518,0.733862,-0.174297,-0.639633,0.313871,0.00888051,0,0,0,0,0,0,0,0.492931,-0.218897,0.170252,-1.79756,0.163194,1.42225,0.40194,0.552821,0.0243823,0.660848,-0.078893,-0.0139395,0.166187,0.000531064,0.487552,-26.5599,-1.21306,25.5823,1.02691,1.9793,-0.0301054,-0.661522,-0.14989,-2.37164,-0.598424,0.428642,0.160127,0.219189,0.882628,0.161421,-1.07375,0.0425168,-0.214874,-0.00546441,
