PerkyPenguin/Analysis-on-Approximated-Derivatives/Code_and_Data/PaperData/Real_Robot/Scene_2/set_interval/8/trajectory.csv
Commanded Joint 0 Position,Commanded Joint 1 Position,Commanded Joint 2 Position,Commanded Joint 3 Position,Commanded Joint 4 Position,Commanded Joint 5 Position,Commanded Joint 6 Position,Commanded Joint 0 Velocity,Commanded Joint 1 Velocity,Commanded Joint 2 Velocity,Commanded Joint 3 Velocity,Commanded Joint 4 Velocity,Commanded Joint 5 Velocity,Commanded Joint 6 Velocity,Commanded Joint 0 Torque,Commanded Joint 1 Torque,Commanded Joint 2 Torque,Commanded Joint 3 Torque,Commanded Joint 4 Torque,Commanded Joint 5 Torque,Commanded Joint 6 Torque,Actual Joint 0 Position,Actual Joint 1 Position,Actual Joint 2 Position,Actual Joint 3 Position,Actual Joint 4 Position,Actual Joint 5 Position,Actual Joint 6 Position,Actual Joint 0 Velocity,Actual Joint 1 Velocity,Actual Joint 2 Velocity,Actual Joint 3 Velocity,Actual Joint 4 Velocity,Actual Joint 5 Velocity,Actual Joint 6 Velocity,Actual Joint 0 Torque,Actual Joint 1 Torque,Actual Joint 2 Torque,Actual Joint 3 Torque,Actual Joint 4 Torque,Actual Joint 5 Torque,Actual Joint 6 Torque,EE ext force 0,EE ext force 1,EE ext force 2,EE ext force 3,EE ext force 4,EE ext force 5,joint ext torque 0,joint ext torque 1,joint ext torque 2,joint ext torque 3,joint ext torque 4,joint ext torque 5,joint ext torque 6,
0.0219809,-0.0541367,0.513068,-1.56029,0.0408869,-0.0128446,0.531248,0.0111225,0.0305328,0.0154784,-0.144301,-0.0734994,0.199564,-0.00128525,0,0,0,0,0,0,0,0.0218999,-0.0542745,0.51295,-1.55885,0.0415004,1.55597,1.31667,-0.00124349,0.000382628,-0.000141009,0.000373311,0.0182094,6.29673e-05,0.000563627,0.285221,-27.4565,-0.76079,26.9034,0.502316,3.05962,0.0779268,1.8825,1.81469,1.90501,-0.948443,1.07533,0.214449,0.225479,0.455721,0.221717,0.128254,0.16472,-0.329821,0.0935864,
0.022039,-0.0539338,0.513146,-1.56091,0.040522,-0.012013,0.531243,0.0145144,0.0507364,0.01965,-0.155034,-0.0912066,0.207891,-0.00136752,0,0,0,0,0,0,0,0.0219079,-0.0542761,0.512954,-1.55885,0.041447,1.55598,1.31667,8.59071e-05,0.000195276,-7.85823e-05,0.000253934,0.00912595,0.000944396,0.00193561,0.182071,-27.4327,-0.788561,26.8796,0.923458,3.06603,0.0779268,1.8825,1.81469,1.90501,-0.948443,1.07533,0.214449,0.225479,0.455721,0.221717,0.128254,0.16472,-0.329821,0.0935864,
0.0219123,-0.0542748,0.512958,-1.55884,0.0415289,-0.014808,0.531272,0.000333728,-8.08687e-06,0.000383245,0.000142636,0.00350448,0.0004881,2.63676e-06,0,0,0,0,0,0,0,0.0219079,-0.0542761,0.512954,-1.55885,0.041447,1.55598,1.31667,8.59071e-05,0.000195276,-7.85823e-05,0.000253934,0.00912595,0.000944396,0.00193561,0.182071,-27.4327,-0.788561,26.8796,0.923458,3.06603,0.0779268,1.87927,1.75818,1.90387,-0.915102,1.0683,0.189024,0.201991,0.449522,0.193675,0.130183,0.153867,-0.330137,0.0938866,
0.0219136,-0.054275,0.51296,-1.55884,0.0415402,-0.0148064,0.531272,0.000334403,-6.11203e-05,0.000394482,0.000117223,0.002825,0.000396266,1.28355e-07,0,0,0,0,0,0,0,0.0219079,-0.0542761,0.512954,-1.55885,0.041447,1.55598,1.31667,8.59071e-05,0.000195276,-7.85823e-05,0.000253934,0.00912595,0.000944396,0.00193561,0.182071,-27.4327,-0.788561,26.8796,0.923458,3.06603,0.0779268,1.87927,1.75818,1.90387,-0.915102,1.0683,0.189024,0.201991,0.449522,0.193675,0.130183,0.153867,-0.330137,0.0938866,
0.0219149,-0.0542754,0.512962,-1.55884,0.0415494,-0.0148051,0.531272,0.000324222,-0.000106407,0.000392548,0.000100371,0.00229426,0.000309035,-1.33561e-06,0,0,0,0,0,0,0,0.0219079,-0.0542761,0.512954,-1.55885,0.041447,1.55598,1.31667,8.59071e-05,0.000195276,-7.85823e-05,0.000253934,0.00912595,0.000944396,0.00193561,0.182071,-27.4327,-0.788561,26.8796,0.923458,3.06603,0.0779268,1.71205,1.56724,2.09873,-0.690842,0.835562,0.151111,0.163946,0.269106,0.147566,0.27326,0.16575,-0.285274,0.0924348,
0.0219162,-0.054276,0.512963,-1.55884,0.0415569,-0.0148042,0.531272,0.00030754,-0.000144645,0.000382386,8.96562e-05,0.00187545,0.000228441,-2.14563e-06,0,0,0,0,0,0,0,0.0219079,-0.0542761,0.512954,-1.55885,0.041447,1.55598,1.31667,8.59071e-05,0.000195276,-7.85823e-05,0.000253934,0.00912595,0.000944396,0.00193561,0.182071,-27.4327,-0.788561,26.8796,0.923458,3.06603,0.0779268,0.766137,1.031,1.11585,-0.552777,0.509161,0.172686,0.183131,0.258528,0.173598,-0.0181422,0.144948,-0.319406,0.0923091,
0.0219173,-0.0542767,0.512965,-1.55884,0.0415631,-0.0148036,0.531272,0.000287287,-0.000176708,0.000367358,8.31542e-05,0.00154157,0.000155495,-2.5273e-06,0,0,0,0,0,0,0,0.0219065,-0.054358,0.512953,-1.55939,0.0413892,1.55665,1.31667,-0.00201526,0.00196087,-0.000460195,-0.0189935,0.00384973,0.0227545,-0.000754103,0.233646,-27.3573,-0.76079,27.8,1.11297,3.49724,0.104477,0.766137,1.031,1.11585,-0.552777,0.509161,0.172686,0.183131,0.258528,0.173598,-0.0181422,0.144948,-0.319406,0.0923091,
0.0219184,-0.0542775,0.512966,-1.55884,0.0415681,-0.0148032,0.531272,0.000265421,-0.000203456,0.00034974,7.94601e-05,0.00127269,9.04348e-05,-2.6299e-06,0,0,0,0,0,0,0,0.0219065,-0.054358,0.512953,-1.55939,0.0413892,1.55665,1.31667,-0.00201526,0.00196087,-0.000460195,-0.0189935,0.00384973,0.0227545,-0.000754103,0.233646,-27.3573,-0.76079,27.8,1.11297,3.49724,0.104477,1.16154,1.64336,0.796916,-1.06491,0.896214,0.338813,0.343842,0.520419,0.36093,-0.160998,0.153421,-0.277675,0.09166,
0.0219193,-0.0542784,0.512967,-1.55884,0.0415724,-0.0148031,0.531272,0.00024323,-0.000225678,0.000331052,7.75852e-05,0.00105398,3.30075e-05,-2.55498e-06,0,0,0,0,0,0,0,0.0219065,-0.054358,0.512953,-1.55939,0.0413892,1.55665,1.31667,-0.00201526,0.00196087,-0.000460195,-0.0189935,0.00384973,0.0227545,-0.000754103,0.233646,-27.3573,-0.76079,27.8,1.11297,3.49724,0.104477,1.16154,1.64336,0.796916,-1.06491,0.896214,0.338813,0.343842,0.520419,0.36093,-0.160998,0.153421,-0.277675,0.09166,
0.0219202,-0.0542794,0.512969,-1.55884,0.0415759,-0.0148032,0.531272,0.000221538,-0.000244076,0.00031229,7.6848e-05,0.000874357,-1.73229e-05,-2.37177e-06,0,0,0,0,0,0,0,0.0219065,-0.054358,0.512953,-1.55939,0.0413892,1.55665,1.31667,-0.00201526,0.00196087,-0.000460195,-0.0189935,0.00384973,0.0227545,-0.000754103,0.233646,-27.3573,-0.76079,27.8,1.11297,3.49724,0.104477,1.93352,1.97133,0.915149,-1.26637,1.41011,0.268761,0.271716,0.779107,0.29762,-0.172854,0.155857,-0.24547,0.09269,
0.021921,-0.0542804,0.51297,-1.55884,0.0415788,-0.0148034,0.531272,0.000200849,-0.000259259,0.000294084,7.67866e-05,0.000725473,-6.12279e-05,-2.12721e-06,0,0,0,0,0,0,0,0.0219065,-0.054358,0.512953,-1.55939,0.0413892,1.55665,1.31667,-0.00201526,0.00196087,-0.000460195,-0.0189935,0.00384973,0.0227545,-0.000754103,0.233646,-27.3573,-0.76079,27.8,1.11297,3.49724,0.104477,1.93352,1.97133,0.915149,-1.26637,1.41011,0.268761,0.271716,0.779107,0.29762,-0.172854,0.155857,-0.24547,0.09269,
0.0219218,-0.0542815,0.512971,-1.55884,0.0415812,-0.0148038,0.531272,0.000181451,-0.000271754,0.000276817,7.70936e-05,0.000600999,-9.94214e-05,-1.85272e-06,0,0,0,0,0,0,0,0.0219065,-0.054358,0.512953,-1.55939,0.0413892,1.55665,1.31667,-0.00201526,0.00196087,-0.000460195,-0.0189935,0.00384973,0.0227545,-0.000754103,0.233646,-27.3573,-0.76079,27.8,1.11297,3.49724,0.104477,2.22944,1.81456,1.31377,-1.05039,1.44276,0.110638,0.107437,0.709421,0.136801,-0.00746653,0.136248,-0.208592,0.095072,
0.0219224,-0.0542827,0.512972,-1.55884,0.0415831,-0.0148043,0.531272,0.000163483,-0.000282009,0.0002607,7.75691e-05,0.000496099,-0.000132603,-1.56894e-06,0,0,0,0,0,0,0,0.0219217,-0.0543534,0.512955,-1.55944,0.0413539,1.55669,1.31667,0.00277479,0.000264252,0.000459503,0.000235802,-0.00611633,-0.000223585,0.000240828,-0.0202602,-27.6073,-0.836168,27.1255,1.32629,3.30498,0.104477,1.94652,1.89439,1.00385,-1.16983,1.38458,0.228342,0.213387,0.747222,0.270539,-0.126964,0.170399,-0.234923,0.0943143,
0.021923,-0.0542838,0.512973,-1.55884,0.0415848,-0.014805,0.531272,0.000146987,-0.000290407,0.000245827,7.80872e-05,0.00040705,-0.000161428,-1.28905e-06,0,0,0,0,0,0,0,0.0219217,-0.0543534,0.512955,-1.55944,0.0413539,1.55669,1.31667,0.00277479,0.000264252,0.000459503,0.000235802,-0.00611633,-0.000223585,0.000240828,-0.0202602,-27.6073,-0.836168,27.1255,1.32629,3.30498,0.104477,1.94652,1.89439,1.00385,-1.16983,1.38458,0.228342,0.213387,0.747222,0.270539,-0.126964,0.170399,-0.234923,0.0943143,
0.0219235,-0.054285,0.512974,-1.55884,0.0415861,-0.0148057,0.531272,0.000131942,-0.000297269,0.000232219,7.85724e-05,0.000330961,-0.000186488,-1.02115e-06,0,0,0,0,0,0,0,0.0219217,-0.0543534,0.512955,-1.55944,0.0413539,1.55669,1.31667,0.00277479,0.000264252,0.000459503,0.000235802,-0.00611633,-0.000223585,0.000240828,-0.0202602,-27.6073,-0.836168,27.1255,1.32629,3.30498,0.104477,1.64061,1.70118,1.22017,-0.992357,1.07077,0.225876,0.211525,0.532831,0.261624,-0.0172122,0.152825,-0.244861,0.0949311,
0.021924,-0.0542862,0.512975,-1.55884,0.0415872,-0.0148066,0.531272,0.000118288,-0.000302865,0.000219849,7.89829e-05,0.000265566,-0.000208309,-7.69846e-07,0,0,0,0,0,0,0,0.0219217,-0.0543534,0.512955,-1.55944,0.0413539,1.55669,1.31667,0.00277479,0.000264252,0.000459503,0.000235802,-0.00611633,-0.000223585,0.000240828,-0.0202602,-27.6073,-0.836168,27.1255,1.32629,3.30498,0.104477,1.64061,1.70118,1.22017,-0.992357,1.07077,0.225876,0.211525,0.532831,0.261624,-0.0172122,0.152825,-0.244861,0.0949311,
0.0219244,-0.0542875,0.512976,-1.55884,0.041588,-0.0148075,0.531272,0.000105943,-0.000307421,0.000208659,7.92993e-05,0.000209071,-0.000227349,-5.37422e-07,0,0,0,0,0,0,0,0.0219217,-0.0543534,0.512955,-1.55944,0.0413539,1.55669,1.31667,0.00277479,0.000264252,0.000459503,0.000235802,-0.00611633,-0.000223585,0.000240828,-0.0202602,-27.6073,-0.836168,27.1255,1.32629,3.30498,0.104477,1.40446,1.48605,1.59604,-0.7485,0.743373,0.194507,0.173086,0.280058,0.228044,0.158472,0.1427,-0.243402,0.0949276,
0.0219248,-0.0542887,0.512976,-1.55884,0.0415886,-0.0148085,0.531272,9.48135e-05,-0.000311125,0.000198574,7.95163e-05,0.000160046,-0.000244004,-3.24644e-07,0,0,0,0,0,0,0,0.0219226,-0.0543502,0.512955,-1.55944,0.0413944,1.55669,1.31667,0.000246406,-0.000687351,0.000146163,-0.00111603,-0.0116765,-0.00336944,-0.000764738,0.00751081,-27.6073,-0.836168,27.2763,1.07635,3.33153,0.104477,1.60943,1.64165,1.45613,-0.887941,0.966577,0.209021,0.177475,0.436614,0.256785,0.0719962,0.161177,-0.250537,0.093556,
0.0219251,-0.05429,0.512977,-1.55884,0.0415891,-0.0148095,0.531272,8.48002e-05,-0.000314134,0.000189513,7.96376e-05,0.000117336,-0.000258615,-1.31298e-07,0,0,0,0,0,0,0,0.0219226,-0.0543502,0.512955,-1.55944,0.0413944,1.55669,1.31667,0.000246406,-0.000687351,0.000146163,-0.00111603,-0.0116765,-0.00336944,-0.000764738,0.00751081,-27.6073,-0.836168,27.2763,1.07635,3.33153,0.104477,1.60943,1.64165,1.45613,-0.887941,0.966577,0.209021,0.177475,0.436614,0.256785,0.0719962,0.161177,-0.250537,0.093556,
0.0219254,-0.0542912,0.512978,-1.55884,0.0415894,-0.0148106,0.531272,7.58059e-05,-0.000316578,0.000181389,7.96717e-05,8.00016e-05,-0.00027147,4.34286e-08,0,0,0,0,0,0,0,0.0219226,-0.0543502,0.512955,-1.55944,0.0413944,1.55669,1.31667,0.000246406,-0.000687351,0.000146163,-0.00111603,-0.0116765,-0.00336944,-0.000764738,0.00751081,-27.6073,-0.836168,27.2763,1.07635,3.33153,0.104477,1.56057,1.7076,1.42083,-0.944209,0.94584,0.253473,0.22445,0.432993,0.300548,0.0591085,0.164719,-0.252096,0.0929871,
0.0219257,-0.0542925,0.512978,-1.55884,0.0415896,-0.0148117,0.531272,6.77363e-05,-0.000318565,0.00017412,7.96298e-05,4.72723e-05,-0.000282815,2.00691e-07,0,0,0,0,0,0,0,0.0219226,-0.0543502,0.512955,-1.55944,0.0413944,1.55669,1.31667,0.000246406,-0.000687351,0.000146163,-0.00111603,-0.0116765,-0.00336944,-0.000764738,0.00751081,-27.6073,-0.836168,27.2763,1.07635,3.33153,0.104477,1.56057,1.7076,1.42083,-0.944209,0.94584,0.253473,0.22445,0.432993,0.300548,0.0591085,0.164719,-0.252096,0.0929871,
0.021926,-0.0542938,0.512979,-1.55884,0.0415897,-0.0148129,0.531272,6.05025e-05,-0.000320182,0.000167625,7.9524e-05,1.85096e-05,-0.000292858,3.41816e-07,0,0,0,0,0,0,0,0.0219226,-0.0543502,0.512955,-1.55944,0.0413944,1.55669,1.31667,0.000246406,-0.000687351,0.000146163,-0.00111603,-0.0116765,-0.00336944,-0.000764738,0.00751081,-27.6073,-0.836168,27.2763,1.07635,3.33153,0.104477,1.22112,1.75991,1.53908,-0.934341,0.648449,0.374283,0.353612,0.248294,0.412034,0.14158,0.186094,-0.245176,0.0930138,
0.0219262,-0.0542951,0.51298,-1.55884,0.0415897,-0.0148141,0.531272,5.40218e-05,-0.000321503,0.000161829,7.93663e-05,-6.81967e-06,-0.000301775,4.68188e-07,0,0,0,0,0,0,0,0.0219226,-0.0543502,0.512955,-1.55944,0.0413944,1.55669,1.31667,0.000246406,-0.000687351,0.000146163,-0.00111603,-0.0116765,-0.00336944,-0.000764738,0.00751081,-27.6073,-0.836168,27.2763,1.07635,3.33153,0.104477,1.22112,1.75991,1.53908,-0.934341,0.648449,0.374283,0.353612,0.248294,0.412034,0.14158,0.186094,-0.245176,0.0930138,
0.0219264,-0.0542964,0.51298,-1.55884,0.0415895,-0.0148153,0.531272,4.82182e-05,-0.000322588,0.000156662,7.91682e-05,-2.9164e-05,-0.000309714,5.81178e-07,0,0,0,0,0,0,0,0.0218826,-0.0543574,0.512929,-1.55941,0.041446,1.55672,1.31667,-0.00355058,-0.00140427,-0.000519829,0.0020414,-0.00130233,-0.00215006,-0.000825315,0.487552,-27.5081,-0.510851,26.828,0.654293,3.12554,0.104477,1.51382,1.75438,1.33075,-1.01492,0.956697,0.288257,0.278489,0.461205,0.319915,0.00992171,0.15814,-0.269734,0.093468,
0.0219265,-0.0542976,0.512981,-1.55884,0.0415893,-0.0148166,0.531272,4.30221e-05,-0.000323486,0.00015206,7.89399e-05,-4.89031e-05,-0.000316801,6.82101e-07,0,0,0,0,0,0,0,0.0218826,-0.0543574,0.512929,-1.55941,0.041446,1.55672,1.31667,-0.00355058,-0.00140427,-0.000519829,0.0020414,-0.00130233,-0.00215006,-0.000825315,0.487552,-27.5081,-0.510851,26.828,0.654293,3.12554,0.104477,1.51361,1.48729,1.17466,-0.870049,1.00296,0.164782,0.165187,0.506671,0.183833,-0.0373358,0.132209,-0.268993,0.0949355,
0.0219267,-0.0542989,0.512982,-1.55884,0.0415891,-0.0148179,0.531272,3.83707e-05,-0.000324236,0.000147964,7.86906e-05,-6.63608e-05,-0.000323144,7.7219e-07,0,0,0,0,0,0,0,0.0218826,-0.0543574,0.512929,-1.55941,0.041446,1.55672,1.31667,-0.00355058,-0.00140427,-0.000519829,0.0020414,-0.00130233,-0.00215006,-0.000825315,0.487552,-27.5081,-0.510851,26.828,0.654293,3.12554,0.104477,1.51361,1.48729,1.17466,-0.870049,1.00296,0.164782,0.165187,0.506671,0.183833,-0.0373358,0.132209,-0.268993,0.0949355,
0.0219268,-0.0543002,0.512982,-1.55884,0.0415888,-0.0148192,0.531272,3.42068e-05,-0.000324873,0.000144322,7.84281e-05,-8.18148e-05,-0.000328833,8.52583e-07,0,0,0,0,0,0,0,0.0218826,-0.0543574,0.512929,-1.55941,0.041446,1.55672,1.31667,-0.00355058,-0.00140427,-0.000519829,0.0020414,-0.00130233,-0.00215006,-0.000825315,0.487552,-27.5081,-0.510851,26.828,0.654293,3.12554,0.104477,1.22105,1.47379,1.32311,-0.783525,0.719631,0.241765,0.243402,0.319012,0.255401,0.0734688,0.165331,-0.243335,0.0956303,
0.0221535,-0.0545486,0.513202,-1.55859,-0.0134302,-0.0499963,0.531119,-0.00514777,0.000876755,-0.00510686,-0.00236179,-0.338598,-0.218927,-0.000708875,0,0,0,0,0,0,0,0.0218826,-0.0543574,0.512929,-1.55941,0.041446,1.55672,1.31667,-0.00355058,-0.00140427,-0.000519829,0.0020414,-0.00130233,-0.00215006,-0.000825315,0.487552,-27.5081,-0.510851,26.828,0.654293,3.12554,0.104477,1.63848,1.80792,1.29801,-1.05504,1.04853,0.275613,0.274812,0.512239,0.299901,0.000233741,0.156761,-0.252622,0.0952678,
0.0220327,-0.0546644,0.513094,-1.55916,-0.00410907,-0.0436696,0.531184,-0.00440561,0.00025501,-0.00428743,-0.0021094,-0.264677,-0.178111,-0.000346879,0,0,0,0,0,0,0,0.0218871,-0.0543996,0.512927,-1.55941,0.0413527,1.5567,1.31667,0.00114466,-0.00424762,0.000709317,0.00150385,-0.0107072,-0.000447409,0.000937911,0.106693,-27.159,-0.76079,26.951,1.28967,3.27843,0.0706026,1.63848,1.80792,1.29801,-1.05504,1.04853,0.275613,0.274812,0.512239,0.299901,0.000233741,0.156761,-0.252622,0.0952678,
0.0220148,-0.0546633,0.513076,-1.55917,-0.00515393,-0.0443743,0.531183,-0.00446222,0.000275911,-0.00434663,-0.00211386,-0.261215,-0.176172,-0.000343384,0,0,0,0,0,0,0,0.0218871,-0.0543996,0.512927,-1.55941,0.0413527,1.5567,1.31667,0.00114466,-0.00424762,0.000709317,0.00150385,-0.0107072,-0.000447409,0.000937911,0.106693,-27.159,-0.76079,26.951,1.28967,3.27843,0.0706026,1.87608,1.84049,1.17224,-1.10887,1.28501,0.224755,0.214887,0.670326,0.259939,-0.0791475,0.162047,-0.259899,0.0936687,
0.0219968,-0.0546621,0.513059,-1.55918,-0.00618419,-0.0450708,0.531181,-0.00451761,0.000289984,-0.00440444,-0.00212144,-0.257564,-0.174115,-0.00034078,0,0,0,0,0,0,0,0.0218871,-0.0543996,0.512927,-1.55941,0.0413527,1.5567,1.31667,0.00114466,-0.00424762,0.000709317,0.00150385,-0.0107072,-0.000447409,0.000937911,0.106693,-27.159,-0.76079,26.951,1.28967,3.27843,0.0706026,1.87608,1.84049,1.17224,-1.10887,1.28501,0.224755,0.214887,0.670326,0.259939,-0.0791475,0.162047,-0.259899,0.0936687,
0.0219785,-0.0546609,0.513041,-1.55919,-0.00719899,-0.0457585,0.53118,-0.00457313,0.000297681,-0.00446218,-0.00213365,-0.2537,-0.171919,-0.00033914,0,0,0,0,0,0,0,0.0218871,-0.0543996,0.512927,-1.55941,0.0413527,1.5567,1.31667,0.00114466,-0.00424762,0.000709317,0.00150385,-0.0107072,-0.000447409,0.000937911,0.106693,-27.159,-0.76079,26.951,1.28967,3.27843,0.0706026,1.80023,1.98161,1.321,-1.18408,1.16522,0.307243,0.287241,0.576176,0.353628,-0.0182279,0.157144,-0.256652,0.095391,
0.0219599,-0.0546597,0.513023,-1.5592,-0.00819737,-0.0464367,0.531178,-0.00463029,0.000299455,-0.00452132,-0.00215224,-0.249596,-0.16956,-0.00033861,0,0,0,0,0,0,0,0.0218871,-0.0543996,0.512927,-1.55941,0.0413527,1.5567,1.31667,0.00114466,-0.00424762,0.000709317,0.00150385,-0.0107072,-0.000447409,0.000937911,0.106693,-27.159,-0.76079,26.951,1.28967,3.27843,0.0706026,1.80023,1.98161,1.321,-1.18408,1.16522,0.307243,0.287241,0.576176,0.353628,-0.0182279,0.157144,-0.256652,0.095391,
0.0219412,-0.0546586,0.513004,-1.55921,-0.00917824,-0.0471047,0.531177,-0.00469086,0.000295777,-0.00458356,-0.00217927,-0.245216,-0.167008,-0.000339035,0,0,0,0,0,0,0,0.0220126,-0.0543979,0.513038,-1.55934,0.0382989,1.55649,1.31667,0.0030716,0.0010742,0.00370712,-0.00103007,-0.173811,-0.0170984,-0.000111763,-0.908932,-27.3811,-1.71294,26.4035,0.410763,2.95342,0.104477,1.37302,2.06087,1.47591,-1.31653,0.78902,0.459546,0.423988,0.344155,0.526395,0.0175624,0.0686731,-0.317822,0.0947809,
0.0219222,-0.0546574,0.512986,-1.55922,-0.0101403,-0.0477616,0.531176,-0.00475693,0.000287128,-0.00465093,-0.00221719,-0.24052,-0.164227,-0.000340863,0,0,0,0,0,0,0,0.0220126,-0.0543979,0.513038,-1.55934,0.0382989,1.55649,1.31667,0.0030716,0.0010742,0.00370712,-0.00103007,-0.173811,-0.0170984,-0.000111763,-0.908932,-27.3811,-1.71294,26.4035,0.410763,2.95342,0.104477,1.37302,2.06087,1.47591,-1.31653,0.78902,0.459546,0.423988,0.344155,0.526395,0.0175624,0.0686731,-0.317822,0.0947809,
0.0219028,-0.0546563,0.512967,-1.55922,-0.0110821,-0.0484063,0.531174,-0.00483101,0.000274048,-0.0047259,-0.00226887,-0.235456,-0.161173,-0.000343786,0,0,0,0,0,0,0,0.0220126,-0.0543979,0.513038,-1.55934,0.0382989,1.55649,1.31667,0.0030716,0.0010742,0.00370712,-0.00103007,-0.173811,-0.0170984,-0.000111763,-0.908932,-27.3811,-1.71294,26.4035,0.410763,2.95342,0.104477,1.20458,1.76547,1.54914,-1.19816,0.607,0.366571,0.31987,0.217504,0.443148,0.0345418,-0.0508402,-0.357366,0.095044,
0.0218832,-0.0546553,0.512948,-1.55923,-0.012002,-0.0490375,0.531173,-0.00491625,0.000257127,-0.0048115,-0.00233776,-0.229964,-0.157793,-0.000347972,0,0,0,0,0,0,0,0.0220126,-0.0543979,0.513038,-1.55934,0.0382989,1.55649,1.31667,0.0030716,0.0010742,0.00370712,-0.00103007,-0.173811,-0.0170984,-0.000111763,-0.908932,-27.3811,-1.71294,26.4035,0.410763,2.95342,0.104477,1.41921,1.83816,1.86553,-1.22223,0.625451,0.335916,0.292968,0.164545,0.409004,0.129008,-0.101765,-0.35878,0.0953199,
0.0218631,-0.0546543,0.512928,-1.55924,-0.0128979,-0.0496536,0.531172,-0.00501658,0.000237031,-0.00491155,-0.00242795,-0.223968,-0.154025,-0.000353438,0,0,0,0,0,0,0,0.0220126,-0.0543979,0.513038,-1.55934,0.0382989,1.55649,1.31667,0.0030716,0.0010742,0.00370712,-0.00103007,-0.173811,-0.0170984,-0.000111763,-0.908932,-27.3811,-1.71294,26.4035,0.410763,2.95342,0.104477,1.41921,1.83816,1.86553,-1.22223,0.625451,0.335916,0.292968,0.164545,0.409004,0.129008,-0.101765,-0.35878,0.0953199,
0.0218426,-0.0546535,0.512908,-1.55925,-0.0137674,-0.0502528,0.53117,-0.00513702,0.000214522,-0.00503093,-0.00254436,-0.217372,-0.149792,-0.000359993,0,0,0,0,0,0,0,0.0220126,-0.0543979,0.513038,-1.55934,0.0382989,1.55649,1.31667,0.0030716,0.0010742,0.00370712,-0.00103007,-0.173811,-0.0170984,-0.000111763,-0.908932,-27.3811,-1.71294,26.4035,0.410763,2.95342,0.104477,1.92492,1.81628,2.01275,-1.23213,0.955106,0.180802,0.139948,0.326198,0.252849,0.103499,-0.154982,-0.391994,0.0950511,
0.0218214,-0.0546527,0.512887,-1.55926,-0.0146076,-0.0508328,0.531169,-0.005284,0.000190489,-0.00517591,-0.00269277,-0.210058,-0.145004,-0.000367418,0,0,0,0,0,0,0,0.0221046,-0.054398,0.513054,-1.5594,0.0324156,1.55548,1.31667,0.00322261,-9.85898e-05,0.00110766,0.000856832,-0.190361,-0.0387539,0.000323428,-0.781979,-27.3811,-1.53838,27.0026,0.226742,2.84722,0.0907442,1.92492,1.81628,2.01275,-1.23213,0.955106,0.180802,0.139948,0.326198,0.252849,0.103499,-0.154982,-0.391994,0.0950511,
0.0217996,-0.054652,0.512866,-1.55928,-0.0154151,-0.051391,0.531167,-0.00546593,0.000165917,-0.00535466,-0.00288012,-0.201879,-0.13955,-0.000375063,0,0,0,0,0,0,0,0.0221046,-0.054398,0.513054,-1.5594,0.0324156,1.55548,1.31667,0.00322261,-9.85898e-05,0.00110766,0.000856832,-0.190361,-0.0387539,0.000323428,-0.781979,-27.3811,-1.53838,27.0026,0.226742,2.84722,0.0907442,2.20178,1.68548,2.21427,-1.18713,1.1019,0.0396671,-0.00530022,0.380622,0.115673,0.0952086,-0.236863,-0.455428,0.0943214,
0.0217768,-0.0546515,0.512843,-1.55929,-0.0161857,-0.0519242,0.531166,-0.00569381,0.000141912,-0.00557793,-0.00311464,-0.192645,-0.133303,-0.000382226,0,0,0,0,0,0,0,0.0221046,-0.054398,0.513054,-1.5594,0.0324156,1.55548,1.31667,0.00322261,-9.85898e-05,0.00110766,0.000856832,-0.190361,-0.0387539,0.000323428,-0.781979,-27.3811,-1.53838,27.0026,0.226742,2.84722,0.0907442,2.20178,1.68548,2.21427,-1.18713,1.1019,0.0396671,-0.00530022,0.380622,0.115673,0.0952086,-0.236863,-0.455428,0.0943214,
0.0217528,-0.054651,0.51282,-1.5593,-0.0169141,-0.0524286,0.531164,-0.00598222,0.000119609,-0.00585993,-0.00340618,-0.182113,-0.126108,-0.000387394,0,0,0,0,0,0,0,0.0221046,-0.054398,0.513054,-1.5594,0.0324156,1.55548,1.31667,0.00322261,-9.85898e-05,0.00110766,0.000856832,-0.190361,-0.0387539,0.000323428,-0.781979,-27.3811,-1.53838,27.0026,0.226742,2.84722,0.0907442,2.40978,1.30089,2.3456,-0.981066,1.24329,-0.195332,-0.24053,0.450981,-0.123203,0.0531848,-0.321949,-0.543698,0.0916945,
0.0217274,-0.0546506,0.512795,-1.55932,-0.017594,-0.0528998,0.531162,-0.00635068,9.99245e-05,-0.00621972,-0.00376681,-0.169969,-0.117783,-0.000388002,0,0,0,0,0,0,0,0.0221046,-0.054398,0.513054,-1.5594,0.0324156,1.55548,1.31667,0.00322261,-9.85898e-05,0.00110766,0.000856832,-0.190361,-0.0387539,0.000323428,-0.781979,-27.3811,-1.53838,27.0026,0.226742,2.84722,0.0907442,1.97136,1.65869,2.38,-1.20986,0.966897,0.0944037,0.0548884,0.323165,0.16683,0.0516372,-0.255103,-0.585438,0.0898867,
0.0217001,-0.0546503,0.512768,-1.55933,-0.0182172,-0.0533322,0.531161,-0.00682571,8.27451e-05,-0.00668323,-0.00421259,-0.155804,-0.108108,-0.00037905,0,0,0,0,0,0,0,0.0220727,-0.054398,0.513024,-1.55939,0.0270132,1.55497,1.31667,-0.00290717,-0.000673137,-0.00399148,0.0013192,-0.159932,-0.00648035,0.000150042,0.0551182,-27.3811,-0.963121,26.8042,0.392452,2.64855,0.0706026,1.97136,1.65869,2.38,-1.20986,0.966897,0.0944037,0.0548884,0.323165,0.16683,0.0516372,-0.255103,-0.585438,0.0898867,
0.0216704,-0.05465,0.512739,-1.55935,-0.0187735,-0.0537194,0.53116,-0.00744454,6.43118e-05,-0.00728678,-0.00476897,-0.139068,-0.0968104,-0.00034949,0,0,0,0,0,0,0,0.0220727,-0.054398,0.513024,-1.55939,0.0270132,1.55497,1.31667,-0.00290717,-0.000673137,-0.00399148,0.0013192,-0.159932,-0.00648035,0.000150042,0.0551182,-27.3811,-0.963121,26.8042,0.392452,2.64855,0.0706026,2.38075,1.43864,2.44482,-1.0649,1.28119,-0.121489,-0.145764,0.499966,-0.0673478,0.00242251,-0.275273,-0.629152,0.089262,
0.0216373,-0.0546499,0.512707,-1.55938,-0.0192495,-0.0540535,0.531158,-0.00826274,2.85102e-05,-0.00808458,-0.00548887,-0.119001,-0.0835136,-0.000274912,0,0,0,0,0,0,0,0.0220727,-0.054398,0.513024,-1.55939,0.0270132,1.55497,1.31667,-0.00290717,-0.000673137,-0.00399148,0.0013192,-0.159932,-0.00648035,0.000150042,0.0551182,-27.3811,-0.963121,26.8042,0.392452,2.64855,0.0706026,2.38075,1.43864,2.44482,-1.0649,1.28119,-0.121489,-0.145764,0.499966,-0.0673478,0.00242251,-0.275273,-0.629152,0.089262,
0.0215998,-0.0546502,0.51267,-1.5594,-0.0196274,-0.0543238,0.531158,-0.00937348,-8.23593e-05,-0.00916795,-0.00651416,-0.0944633,-0.0675725,-0.000147895,0,0,0,0,0,0,0,0.0220727,-0.054398,0.513024,-1.55939,0.0270132,1.55497,1.31667,-0.00290717,-0.000673137,-0.00399148,0.0013192,-0.159932,-0.00648035,0.000150042,0.0551182,-27.3811,-0.963121,26.8042,0.392452,2.64855,0.0706026,2.52581,1.35459,2.56622,-0.971232,1.38531,-0.200753,-0.210003,0.554753,-0.164409,0.00405169,-0.255432,-0.663186,0.0894694,
0.0215615,-0.0546477,0.512632,-1.55943,-0.0199322,-0.0545468,0.531158,-0.00959112,0.000623329,-0.00947814,-0.00587571,-0.0762168,-0.0557472,-5.22642e-05,0,0,0,0,0,0,0,0.0220727,-0.054398,0.513024,-1.55939,0.0270132,1.55497,1.31667,-0.00290717,-0.000673137,-0.00399148,0.0013192,-0.159932,-0.00648035,0.000150042,0.0551182,-27.3811,-0.963121,26.8042,0.392452,2.64855,0.0706026,2.29419,1.66754,2.56363,-1.13093,1.26406,0.00886072,0.00987937,0.512118,0.0382573,0.00604909,-0.159909,-0.669131,0.0900739,
0.0215238,-0.0546422,0.512595,-1.55944,-0.0201808,-0.0547317,0.531158,-0.00941161,0.00137432,-0.00936548,-0.00494013,-0.0621355,-0.0462419,-1.30073e-05,0,0,0,0,0,0,0,0.0220727,-0.054398,0.513024,-1.55939,0.0270132,1.55497,1.31667,-0.00290717,-0.000673137,-0.00399148,0.0013192,-0.159932,-0.00648035,0.000150042,0.0551182,-27.3811,-0.963121,26.8042,0.392452,2.64855,0.0706026,2.29419,1.66754,2.56363,-1.13093,1.26406,0.00886072,0.00987937,0.512118,0.0382573,0.00604909,-0.159909,-0.669131,0.0900739,
0.0214877,-0.0546343,0.512559,-1.55946,-0.0203849,-0.0548852,0.531158,-0.00902236,0.0019809,-0.00902107,-0.0040626,-0.0510398,-0.0383682,7.20215e-07,0,0,0,0,0,0,0,0.0219979,-0.0543976,0.512962,-1.55939,0.0216914,1.55492,1.31667,-0.00239816,0.00137282,-0.000896004,0.00101776,-0.165635,0.000448244,-0.000246505,0.384403,-27.4327,-0.685411,26.705,0.440975,2.70165,0.0843355,1.99963,1.99819,2.47484,-1.34176,1.10897,0.244321,0.25423,0.457568,0.27038,-0.0118927,-0.0884658,-0.667645,0.0896414,
0.0214536,-0.0546246,0.512525,-1.55947,-0.0205536,-0.0550123,0.531158,-0.00852051,0.00241887,-0.0085484,-0.00331233,-0.0421713,-0.0317823,2.85069e-06,0,0,0,0,0,0,0,0.0219979,-0.0543976,0.512962,-1.55939,0.0216914,1.55492,1.31667,-0.00239816,0.00137282,-0.000896004,0.00101776,-0.165635,0.000448244,-0.000246505,0.384403,-27.4327,-0.685411,26.705,0.440975,2.70165,0.0843355,1.99963,1.99819,2.47484,-1.34176,1.10897,0.244321,0.25423,0.457568,0.27038,-0.0118927,-0.0884658,-0.667645,0.0896414,
0.0214218,-0.0546138,0.512493,-1.55949,-0.0206936,-0.0551174,0.531158,-0.00796333,0.0027076,-0.00800968,-0.00268367,-0.0350004,-0.0262595,-7.51917e-07,0,0,0,0,0,0,0,0.0219979,-0.0543976,0.512962,-1.55939,0.0216914,1.55492,1.31667,-0.00239816,0.00137282,-0.000896004,0.00101776,-0.165635,0.000448244,-0.000246505,0.384403,-27.4327,-0.685411,26.705,0.440975,2.70165,0.0843355,1.8631,1.96169,2.5261,-1.23184,1.00792,0.268392,0.285872,0.399977,0.282059,0.0393562,-0.0172702,-0.650561,0.0897846,
0.0205025,-0.0529815,0.511365,-1.55957,-0.141696,-0.197546,0.529702,-0.0297655,0.0222844,-0.0308399,-0.0209159,-1.22489,-1.09561,-0.00736456,0,0,0,0,0,0,0,0.0219979,-0.0543976,0.512962,-1.55939,0.0216914,1.55492,1.31667,-0.00239816,0.00137282,-0.000896004,0.00101776,-0.165635,0.000448244,-0.000246505,0.384403,-27.4327,-0.685411,26.705,0.440975,2.70165,0.0843355,1.8631,1.96169,2.5261,-1.23184,1.00792,0.268392,0.285872,0.399977,0.282059,0.0393562,-0.0172702,-0.650561,0.0897846,
0.0202702,-0.0533391,0.511135,-1.55944,-0.117897,-0.153941,0.530446,-0.0261689,0.0148475,-0.0268322,-0.012297,-0.686125,-0.826446,-0.00295138,0,0,0,0,0,0,0,0.0219979,-0.0543976,0.512962,-1.55939,0.0216914,1.55492,1.31667,-0.00239816,0.00137282,-0.000896004,0.00101776,-0.165635,0.000448244,-0.000246505,0.384403,-27.4327,-0.685411,26.705,0.440975,2.70165,0.0843355,1.92677,2.10912,2.53017,-1.26319,1.07216,0.321,0.344471,0.442746,0.327965,0.0537835,0.0601927,-0.625172,0.0890273,
0.0201658,-0.0532809,0.511028,-1.55949,-0.120598,-0.157228,0.530435,-0.02609,0.0145554,-0.0267645,-0.0121039,-0.67525,-0.821796,-0.00287805,0,0,0,0,0,0,0,0.0217503,-0.0543939,0.512794,-1.55942,0.016817,1.5549,1.31667,-0.00946759,0.00161755,-0.0113565,0.00102393,-0.131021,0.00203282,-0.00124756,0.412174,-27.4843,-0.713182,27.0779,0.697323,2.87377,0.110886,2.07768,2.49815,2.62315,-1.45755,1.15674,0.456816,0.4882,0.47928,0.459729,0.0924612,0.131166,-0.589658,0.0894721,
0.0200617,-0.053224,0.510921,-1.55954,-0.123254,-0.160495,0.530424,-0.0260228,0.0142274,-0.0267082,-0.0119292,-0.663869,-0.816666,-0.00280795,0,0,0,0,0,0,0,0.0217503,-0.0543939,0.512794,-1.55942,0.016817,1.5549,1.31667,-0.00946759,0.00161755,-0.0113565,0.00102393,-0.131021,0.00203282,-0.00124756,0.412174,-27.4843,-0.713182,27.0779,0.697323,2.87377,0.110886,2.07768,2.49815,2.62315,-1.45755,1.15674,0.456816,0.4882,0.47928,0.459729,0.0924612,0.131166,-0.589658,0.0894721,
0.0199578,-0.0531685,0.510814,-1.55959,-0.125861,-0.163739,0.530413,-0.0259714,0.0138629,-0.0266672,-0.0117782,-0.651883,-0.810933,-0.00274149,0,0,0,0,0,0,0,0.0217503,-0.0543939,0.512794,-1.55942,0.016817,1.5549,1.31667,-0.00946759,0.00161755,-0.0113565,0.00102393,-0.131021,0.00203282,-0.00124756,0.412174,-27.4843,-0.713182,27.0779,0.697323,2.87377,0.110886,3.40538,4.27272,3.34161,-2.47679,1.81472,0.880452,0.921574,0.705441,0.896764,0.303469,0.228791,-0.443521,0.097807,
0.0198541,-0.0531147,0.510708,-1.55963,-0.128418,-0.166957,0.530402,-0.0259404,0.0134611,-0.0266464,-0.0116574,-0.639177,-0.804445,-0.00267918,0,0,0,0,0,0,0,0.0217503,-0.0543939,0.512794,-1.55942,0.016817,1.5549,1.31667,-0.00946759,0.00161755,-0.0113565,0.00102393,-0.131021,0.00203282,-0.00124756,0.412174,-27.4843,-0.713182,27.0779,0.697323,2.87377,0.110886,3.40538,4.27272,3.34161,-2.47679,1.81472,0.880452,0.921574,0.705441,0.896764,0.303469,0.228791,-0.443521,0.097807,
0.0197503,-0.0530626,0.510601,-1.55968,-0.13092,-0.170145,0.530391,-0.0259355,0.0130204,-0.026651,-0.0115746,-0.625619,-0.797026,-0.00262166,0,0,0,0,0,0,0,0.0217503,-0.0543939,0.512794,-1.55942,0.016817,1.5549,1.31667,-0.00946759,0.00161755,-0.0113565,0.00102393,-0.131021,0.00203282,-0.00124756,0.412174,-27.4843,-0.713182,27.0779,0.697323,2.87377,0.110886,3.48619,4.4899,3.44266,-2.67512,1.77285,0.940358,0.951432,0.639004,0.992356,0.350205,0.14802,-0.415599,0.102834,
0.0196465,-0.0530125,0.510494,-1.55973,-0.133365,-0.173298,0.530381,-0.025963,0.0125391,-0.0266874,-0.0115391,-0.611055,-0.788461,-0.00256991,0,0,0,0,0,0,0,0.0217503,-0.0543939,0.512794,-1.55942,0.016817,1.5549,1.31667,-0.00946759,0.00161755,-0.0113565,0.00102393,-0.131021,0.00203282,-0.00124756,0.412174,-27.4843,-0.713182,27.0779,0.697323,2.87377,0.110886,2.6773,3.76758,3.20681,-2.54466,1.2519,0.821433,0.803597,0.388864,0.906989,0.184009,-0.160671,-0.601553,0.100353,
0.0195423,-0.0529644,0.510387,-1.55977,-0.135746,-0.176412,0.530371,-0.0260305,0.0120151,-0.0267632,-0.0115621,-0.59531,-0.778494,-0.0025237,0,0,0,0,0,0,0,0.0220477,-0.0544302,0.512932,-1.55823,-0.00442308,1.54084,1.31667,0.0184676,-0.00713472,0.00319563,0.0300057,-0.633605,-0.543798,0.000387411,-1.5675,-27.0082,-2.01048,25.5347,-0.756534,1.37505,0.0706026,2.6773,3.76758,3.20681,-2.54466,1.2519,0.821433,0.803597,0.388864,0.906989,0.184009,-0.160671,-0.601553,0.100353,
0.0194378,-0.0529186,0.51028,-1.55982,-0.138059,-0.17948,0.530361,-0.0261467,0.011446,-0.0268869,-0.0116569,-0.578181,-0.766819,-0.00248505,0,0,0,0,0,0,0,0.0220477,-0.0544302,0.512932,-1.55823,-0.00442308,1.54084,1.31667,0.0184676,-0.00713472,0.00319563,0.0300057,-0.633605,-0.543798,0.000387411,-1.5675,-27.0082,-2.01048,25.5347,-0.756534,1.37505,0.0706026,3.56734,2.6668,3.28015,-2.10859,1.90944,0.0505272,0.0159595,0.747994,0.149038,-0.0485257,-0.519461,-0.826353,0.0978091,
0.0193325,-0.0528753,0.510172,-1.55987,-0.140296,-0.182492,0.530351,-0.0263218,0.0108296,-0.0270685,-0.0118396,-0.559435,-0.75307,-0.00245515,0,0,0,0,0,0,0,0.0220477,-0.0544302,0.512932,-1.55823,-0.00442308,1.54084,1.31667,0.0184676,-0.00713472,0.00319563,0.0300057,-0.633605,-0.543798,0.000387411,-1.5675,-27.0082,-2.01048,25.5347,-0.756534,1.37505,0.0706026,3.56734,2.6668,3.28015,-2.10859,1.90944,0.0505272,0.0159595,0.747994,0.149038,-0.0485257,-0.519461,-0.826353,0.0978091,
0.0192262,-0.0528346,0.510062,-1.55991,-0.142452,-0.185439,0.530342,-0.0265673,0.0101633,-0.0273195,-0.0121294,-0.538806,-0.736809,-0.0024349,0,0,0,0,0,0,0,0.0220477,-0.0544302,0.512932,-1.55823,-0.00442308,1.54084,1.31667,0.0184676,-0.00713472,0.00319563,0.0300057,-0.633605,-0.543798,0.000387411,-1.5675,-27.0082,-2.01048,25.5347,-0.756534,1.37505,0.0706026,3.27982,1.75266,4.02861,-1.41938,1.46995,-0.298211,-0.345493,0.395147,-0.207361,0.156856,-0.64727,-0.974083,0.0958538,
0.0191186,-0.0527969,0.509952,-1.55996,-0.144516,-0.188309,0.530332,-0.0268964,0.00944533,-0.0276529,-0.012549,-0.515993,-0.717515,-0.00242671,0,0,0,0,0,0,0,0.0220477,-0.0544302,0.512932,-1.55823,-0.00442308,1.54084,1.31667,0.0184676,-0.00713472,0.00319563,0.0300057,-0.633605,-0.543798,0.000387411,-1.5675,-27.0082,-2.01048,25.5347,-0.756534,1.37505,0.0706026,3.27982,1.75266,4.02861,-1.41938,1.46995,-0.298211,-0.345493,0.395147,-0.207361,0.156856,-0.64727,-0.974083,0.0958538,
0.0190093,-0.0527622,0.509839,-1.56002,-0.146478,-0.191088,0.530322,-0.0273235,0.00867435,-0.028083,-0.013125,-0.49066,-0.694572,-0.00243252,0,0,0,0,0,0,0,0.0223333,-0.0546233,0.513116,-1.55774,-0.0255462,1.52113,1.31666,0.0108892,-0.00292134,0.00656715,0.00954327,-0.624413,-0.584705,-0.000862252,-1.51593,-27.2066,-2.23662,25.4077,-0.774845,1.09673,0.0980684,3.06963,1.64338,4.50632,-1.36009,1.34562,-0.307151,-0.361014,0.340173,-0.21108,0.10725,-0.655534,-1.23005,0.0931165,
0.0188979,-0.0527308,0.509725,-1.56007,-0.148328,-0.193757,0.530312,-0.0278642,0.00785015,-0.0286251,-0.0138891,-0.462437,-0.66725,-0.0024549,0,0,0,0,0,0,0,0.0223333,-0.0546233,0.513116,-1.55774,-0.0255462,1.52113,1.31666,0.0108892,-0.00292134,0.00656715,0.00954327,-0.624413,-0.584705,-0.000862252,-1.51593,-27.2066,-2.23662,25.4077,-0.774845,1.09673,0.0980684,3.06963,1.64338,4.50632,-1.36009,1.34562,-0.307151,-0.361014,0.340173,-0.21108,0.10725,-0.655534,-1.23005,0.0931165,
0.0187837,-0.0527029,0.509608,-1.56013,-0.150052,-0.196295,0.530302,-0.0285343,0.00697445,-0.0292951,-0.0148783,-0.430922,-0.634689,-0.00249765,0,0,0,0,0,0,0,0.0223333,-0.0546233,0.513116,-1.55774,-0.0255462,1.52113,1.31666,0.0108892,-0.00292134,0.00656715,0.00954327,-0.624413,-0.584705,-0.000862252,-1.51593,-27.2066,-2.23662,25.4077,-0.774845,1.09673,0.0980684,2.42007,0.689526,4.48201,-0.906913,1.0127,-0.576291,-0.640284,0.220026,-0.477601,-0.0618086,-0.808756,-1.49745,0.0899215,
0.0186663,-0.0526787,0.509487,-1.5602,-0.151634,-0.198679,0.530292,-0.0293491,0.00605137,-0.0301079,-0.0161359,-0.395697,-0.595881,-0.00256717,0,0,0,0,0,0,0,0.0223333,-0.0546233,0.513116,-1.55774,-0.0255462,1.52113,1.31666,0.0108892,-0.00292134,0.00656715,0.00954327,-0.624413,-0.584705,-0.000862252,-1.51593,-27.2066,-2.23662,25.4077,-0.774845,1.09673,0.0980684,2.20772,0.477611,4.42409,-0.883071,0.929026,-0.62204,-0.684795,0.208187,-0.522079,-0.164492,-0.887151,-1.60906,0.0873444,
0.018545,-0.0526583,0.509363,-1.56027,-0.15306,-0.200877,0.530281,-0.0303212,0.00508868,-0.0310763,-0.017713,-0.356342,-0.549644,-0.00266926,0,0,0,0,0,0,0,0.0223333,-0.0546233,0.513116,-1.55774,-0.0255462,1.52113,1.31666,0.0108892,-0.00292134,0.00656715,0.00954327,-0.624413,-0.584705,-0.000862252,-1.51593,-27.2066,-2.23662,25.4077,-0.774845,1.09673,0.0980684,2.20772,0.477611,4.42409,-0.883071,0.929026,-0.62204,-0.684795,0.208187,-0.522079,-0.164492,-0.887151,-1.60906,0.0873444,
0.0184192,-0.0526419,0.509234,-1.56035,-0.15431,-0.202856,0.53027,-0.0314593,0.00409895,-0.0322084,-0.0196704,-0.312457,-0.494592,-0.00280527,0,0,0,0,0,0,0,0.0223333,-0.0546233,0.513116,-1.55774,-0.0255462,1.52113,1.31666,0.0108892,-0.00292134,0.00656715,0.00954327,-0.624413,-0.584705,-0.000862252,-1.51593,-27.2066,-2.23662,25.4077,-0.774845,1.09673,0.0980684,2.53679,0.867057,3.8355,-1.30332,1.55746,-0.546865,-0.585442,0.734047,-0.455138,-0.56333,-0.796022,-1.73648,0.084787,
0.0182881,-0.0526295,0.5091,-1.56043,-0.155364,-0.204572,0.530259,-0.0327643,0.00310163,-0.0335057,-0.0220805,-0.263689,-0.429097,-0.00287293,0,0,0,0,0,0,0,0.0223133,-0.0547607,0.513082,-1.55773,-0.0433429,1.5027,1.31666,-0.00101527,-0.00838065,-0.000762695,0.00860841,-0.54874,-0.559062,-0.000559708,-0.452694,-26.7583,-1.51061,25.6815,-0.316166,1.59386,0.0843355,2.53679,0.867057,3.8355,-1.30332,1.55746,-0.546865,-0.585442,0.734047,-0.455138,-0.56333,-0.796022,-1.73648,0.084787,
0.0181513,-0.052621,0.50896,-1.56053,-0.156203,-0.205977,0.530254,-0.0342164,0.00212979,-0.0349661,-0.0250253,-0.209769,-0.351237,-0.00126619,0,0,0,0,0,0,0,0.0223133,-0.0547607,0.513082,-1.55773,-0.0433429,1.5027,1.31666,-0.00101527,-0.00838065,-0.000762695,0.00860841,-0.54874,-0.559062,-0.000559708,-0.452694,-26.7583,-1.51061,25.6815,-0.316166,1.59386,0.0843355,2.97245,0.635267,3.60716,-1.176,2.00971,-0.778388,-0.790026,1.04088,-0.715094,-0.709912,-0.777108,-1.76784,0.0823281,
0.0180169,-0.0526055,0.508822,-1.56063,-0.15688,-0.207143,0.530249,-0.0335944,0.00386796,-0.0344731,-0.0225198,-0.169208,-0.291434,-0.00111627,0,0,0,0,0,0,0,0.0223133,-0.0547607,0.513082,-1.55773,-0.0433429,1.5027,1.31666,-0.00101527,-0.00838065,-0.000762695,0.00860841,-0.54874,-0.559062,-0.000559708,-0.452694,-26.7583,-1.51061,25.6815,-0.316166,1.59386,0.0843355,2.97245,0.635267,3.60716,-1.176,2.00971,-0.778388,-0.790026,1.04088,-0.715094,-0.709912,-0.777108,-1.76784,0.0823281,
0.0178884,-0.0525821,0.50869,-1.5607,-0.15743,-0.208115,0.530245,-0.0321237,0.00584677,-0.033093,-0.0189455,-0.137361,-0.243009,-0.00116187,0,0,0,0,0,0,0,0.0223133,-0.0547607,0.513082,-1.55773,-0.0433429,1.5027,1.31666,-0.00101527,-0.00838065,-0.000762695,0.00860841,-0.54874,-0.559062,-0.000559708,-0.452694,-26.7583,-1.51061,25.6815,-0.316166,1.59386,0.0843355,1.75523,0.718374,3.76143,-1.04501,1.04505,-0.398089,-0.394596,0.478457,-0.357698,-0.470446,-0.630882,-1.69819,0.0783053,
0.0177673,-0.0525524,0.508565,-1.56076,-0.157877,-0.208927,0.53024,-0.030273,0.0074336,-0.0312997,-0.0155126,-0.111761,-0.202966,-0.00124422,0,0,0,0,0,0,0,0.0223133,-0.0547607,0.513082,-1.55773,-0.0433429,1.5027,1.31666,-0.00101527,-0.00838065,-0.000762695,0.00860841,-0.54874,-0.559062,-0.000559708,-0.452694,-26.7583,-1.51061,25.6815,-0.316166,1.59386,0.0843355,1.32926,0.579982,3.34319,-0.927603,0.935972,-0.342283,-0.331687,0.509702,-0.312715,-0.572349,-0.506659,-1.68964,0.0751411,
0.0176543,-0.0525182,0.508447,-1.56081,-0.15824,-0.209605,0.530234,-0.0282643,0.00853483,-0.0293249,-0.0124942,-0.0908693,-0.169581,-0.0013308,0,0,0,0,0,0,0,0.0220882,-0.0548501,0.512938,-1.55785,-0.0584089,1.48644,1.31666,-0.0134646,0.00103143,-0.01268,-0.00691868,-0.427463,-0.461098,-0.000217049,0.0828892,-27.2344,-0.963121,26.3043,0.221249,1.63415,0.0779268,1.32926,0.579982,3.34319,-0.927603,0.935972,-0.342283,-0.331687,0.509702,-0.312715,-0.572349,-0.506659,-1.68964,0.0751411,
0.0175494,-0.0524814,0.508338,-1.56085,-0.158535,-0.210172,0.530229,-0.0262185,0.00920307,-0.027297,-0.00990032,-0.0736214,-0.141654,-0.00141261,0,0,0,0,0,0,0,0.0220882,-0.0548501,0.512938,-1.55785,-0.0584089,1.48644,1.31666,-0.0134646,0.00103143,-0.01268,-0.00691868,-0.427463,-0.461098,-0.000217049,0.0828892,-27.2344,-0.963121,26.3043,0.221249,1.63415,0.0779268,0.623997,0.457502,3.13475,-0.829314,0.543223,-0.204109,-0.188491,0.350572,-0.182562,-0.603702,-0.426675,-1.71496,0.0732959,
-0.0062442,-0.0414277,0.483134,-1.57356,-0.16051,-0.217724,0.518287,-0.204177,0.112635,-0.213955,-0.100482,-1.24287,-1.32231,-0.057986,0,0,0,0,0,0,0,0.0220882,-0.0548501,0.512938,-1.55785,-0.0584089,1.48644,1.31666,-0.0134646,0.00103143,-0.01268,-0.00691868,-0.427463,-0.461098,-0.000217049,0.0828892,-27.2344,-0.963121,26.3043,0.221249,1.63415,0.0779268,0.623997,0.457502,3.13475,-0.829314,0.543223,-0.204109,-0.188491,0.350572,-0.182562,-0.603702,-0.426675,-1.71496,0.0732959,
-0.000817226,-0.0463294,0.488929,-1.56892,-0.238472,-0.208505,0.524574,-0.16958,0.0594818,-0.176399,-0.0677961,-0.924331,0.0357528,-0.021175,0,0,0,0,0,0,0,0.0220882,-0.0548501,0.512938,-1.55785,-0.0584089,1.48644,1.31666,-0.0134646,0.00103143,-0.01268,-0.00691868,-0.427463,-0.461098,-0.000217049,0.0828892,-27.2344,-0.963121,26.3043,0.221249,1.63415,0.0779268,0.357671,0.815702,3.65656,-0.656546,-0.0163544,0.033325,0.0600179,-0.126559,0.0288631,-0.0943025,-0.231364,-1.41227,0.0835971,
-0.00150242,-0.0460982,0.488217,-1.56919,-0.24191,-0.20817,0.524492,-0.171299,0.0578128,-0.178157,-0.0665665,-0.85953,0.0838695,-0.020386,0,0,0,0,0,0,0,0.0220882,-0.0548501,0.512938,-1.55785,-0.0584089,1.48644,1.31666,-0.0134646,0.00103143,-0.01268,-0.00691868,-0.427463,-0.461098,-0.000217049,0.0828892,-27.2344,-0.963121,26.3043,0.221249,1.63415,0.0779268,0.499111,2.51274,3.93536,-1.37437,-0.240876,0.792705,0.829408,-0.394069,0.786768,0.375329,0.093758,-0.951066,0.0785349,
-0.00219413,-0.0458739,0.487497,-1.56945,-0.245067,-0.207636,0.524414,-0.172927,0.0560767,-0.179819,-0.065382,-0.789298,0.133525,-0.0196251,0,0,0,0,0,0,0,0.0214031,-0.0548203,0.51225,-1.55838,-0.0709667,1.47151,1.31663,-0.0343172,-0.00173349,-0.0419202,-0.0203784,-0.473213,-0.566779,-0.00570029,-1.53973,-26.31,-2.58574,25.1855,-0.127567,2.03148,-0.130813,0.499111,2.51274,3.93536,-1.37437,-0.240876,0.792705,0.829408,-0.394069,0.786768,0.375329,0.093758,-0.951066,0.0785349,
-0.00289203,-0.0456569,0.486772,-1.56971,-0.247921,-0.206896,0.524338,-0.174476,0.0542551,-0.181397,-0.064254,-0.713362,0.184882,-0.0188948,0,0,0,0,0,0,0,0.0214031,-0.0548203,0.51225,-1.55838,-0.0709667,1.47151,1.31663,-0.0343172,-0.00173349,-0.0419202,-0.0203784,-0.473213,-0.566779,-0.00570029,-1.53973,-26.31,-2.58574,25.1855,-0.127567,2.03148,-0.130813,-0.375936,5.42741,2.78183,-3.24964,-0.512834,2.39234,2.43392,-0.354925,2.42898,0.246055,0.609284,-0.578292,0.0621856,
-0.00359589,-0.0454475,0.48604,-1.56996,-0.250446,-0.205944,0.524265,-0.175964,0.0523308,-0.182907,-0.0631889,-0.631306,0.238087,-0.0182026,0,0,0,0,0,0,0,0.0214031,-0.0548203,0.51225,-1.55838,-0.0709667,1.47151,1.31663,-0.0343172,-0.00173349,-0.0419202,-0.0203784,-0.473213,-0.566779,-0.00570029,-1.53973,-26.31,-2.58574,25.1855,-0.127567,2.03148,-0.130813,-0.375936,5.42741,2.78183,-3.24964,-0.512834,2.39234,2.43392,-0.354925,2.42898,0.246055,0.609284,-0.578292,0.0621856,
-0.00430552,-0.0452464,0.485303,-1.57021,-0.252616,-0.204771,0.524195,-0.177409,0.0502888,-0.184367,-0.0621889,-0.542604,0.293261,-0.0175512,0,0,0,0,0,0,0,0.0214031,-0.0548203,0.51225,-1.55838,-0.0709667,1.47151,1.31663,-0.0343172,-0.00173349,-0.0419202,-0.0203784,-0.473213,-0.566779,-0.00570029,-1.53973,-26.31,-2.58574,25.1855,-0.127567,2.03148,-0.130813,-1.54081,4.14426,2.18063,-2.32803,-1.21818,2.16221,2.19137,-0.683896,2.18462,0.276168,0.661173,-0.490186,0.0371816,
-0.00502083,-0.0450539,0.48456,-1.57045,-0.254403,-0.203369,0.524127,-0.178826,0.0481178,-0.185789,-0.061252,-0.446655,0.350478,-0.0169462,0,0,0,0,0,0,0,0.0214031,-0.0548203,0.51225,-1.55838,-0.0709667,1.47151,1.31663,-0.0343172,-0.00173349,-0.0419202,-0.0203784,-0.473213,-0.566779,-0.00570029,-1.53973,-26.31,-2.58574,25.1855,-0.127567,2.03148,-0.130813,-1.54081,4.14426,2.18063,-2.32803,-1.21818,2.16221,2.19137,-0.683896,2.18462,0.276168,0.661173,-0.490186,0.0371816,
-0.0057417,-0.0448707,0.483811,-1.57069,-0.255774,-0.20173,0.524062,-0.180219,0.0458126,-0.187178,-0.0603702,-0.342849,0.409726,-0.0163938,0,0,0,0,0,0,0,0.0214031,-0.0548203,0.51225,-1.55838,-0.0709667,1.47151,1.31663,-0.0343172,-0.00173349,-0.0419202,-0.0203784,-0.473213,-0.566779,-0.00570029,-1.53973,-26.31,-2.58574,25.1855,-0.127567,2.03148,-0.130813,2.66221,1.85465,2.06957,-1.14278,1.41252,0.023344,0.0682746,0.537653,0.00926276,0.175765,-0.108277,-0.272939,0.0276076,
-0.00646797,-0.0446971,0.483057,-1.57093,-0.256697,-0.199847,0.523998,-0.181567,0.0433794,-0.188512,-0.059525,-0.230685,0.470836,-0.0158989,0,0,0,0,0,0,0,0.0202408,-0.0551074,0.510774,-1.55988,-0.0986252,1.45351,1.31632,-0.0312465,-0.032178,-0.0452063,-0.0755046,-0.804966,-0.456066,-0.00791374,-3.74554,-24.3144,-4.73601,27.0264,-0.194401,3.70232,-0.083206,2.66221,1.85465,2.06957,-1.14278,1.41252,0.023344,0.0682746,0.537653,0.00926276,0.175765,-0.108277,-0.272939,0.0276076,
-0.0071992,-0.0445338,0.482298,-1.57117,-0.257137,-0.197713,0.523936,-0.182806,0.0408435,-0.189729,-0.0586783,-0.109976,0.533376,-0.0154755,0,0,0,0,0,0,0,0.0202408,-0.0551074,0.510774,-1.55988,-0.0986252,1.45351,1.31632,-0.0312465,-0.032178,-0.0452063,-0.0755046,-0.804966,-0.456066,-0.00791374,-3.74554,-24.3144,-4.73601,27.0264,-0.194401,3.70232,-0.083206,4.66691,1.62117,1.23751,-1.23152,2.93814,-0.58009,-0.542406,1.3983,-0.578335,-0.0908723,-0.325692,-0.0501712,0.0186506,
-0.00793437,-0.0443807,0.481535,-1.5714,-0.257062,-0.195327,0.523876,-0.183793,0.0382643,-0.190687,-0.0577556,0.0187808,0.596447,-0.015133,0,0,0,0,0,0,0,0.0202408,-0.0551074,0.510774,-1.55988,-0.0986252,1.45351,1.31632,-0.0312465,-0.032178,-0.0452063,-0.0755046,-0.804966,-0.456066,-0.00791374,-3.74554,-24.3144,-4.73601,27.0264,-0.194401,3.70232,-0.083206,3.38028,2.8456,1.1578,-1.85693,1.94159,0.36533,0.391544,0.833563,0.389802,0.160066,-0.0643993,0.176501,0.00661014,
-0.00867135,-0.0442377,0.480771,-1.57162,-0.256447,-0.192694,0.523816,-0.184246,0.0357592,-0.191108,-0.0566158,0.153768,0.65837,-0.0149098,0,0,0,0,0,0,0,0.0202408,-0.0551074,0.510774,-1.55988,-0.0986252,1.45351,1.31632,-0.0312465,-0.032178,-0.0452063,-0.0755046,-0.804966,-0.456066,-0.00791374,-3.74554,-24.3144,-4.73601,27.0264,-0.194401,3.70232,-0.083206,3.38028,2.8456,1.1578,-1.85693,1.94159,0.36533,0.391544,0.833563,0.389802,0.160066,-0.0643993,0.176501,0.00661014,
-0.00940597,-0.0441035,0.480009,-1.57184,-0.255283,-0.189829,0.523757,-0.183654,0.0335415,-0.190489,-0.0550043,0.290834,0.716208,-0.0148518,0,0,0,0,0,0,0,0.0202408,-0.0551074,0.510774,-1.55988,-0.0986252,1.45351,1.31632,-0.0312465,-0.032178,-0.0452063,-0.0755046,-0.804966,-0.456066,-0.00791374,-3.74554,-24.3144,-4.73601,27.0264,-0.194401,3.70232,-0.083206,3.40711,2.29204,1.79539,-1.33796,1.40416,0.166275,0.191292,0.280218,0.174173,0.672171,-0.263165,0.424699,-0.00661812,
-0.0101306,-0.0439756,0.479257,-1.57205,-0.253595,-0.186769,0.523696,-0.181147,0.031976,-0.187971,-0.052478,0.422052,0.765133,-0.0150785,0,0,0,0,0,0,0,0.0181473,-0.0557121,0.508068,-1.5626,-0.119807,1.44248,1.31621,-0.0831098,-0.00842247,-0.101303,-0.0974961,-0.464521,-0.258984,-0.000794379,-2.63073,-25.9371,-3.66088,28.0222,-0.359196,3.98797,0.0440523,3.40711,2.29204,1.79539,-1.33796,1.40416,0.166275,0.191292,0.280218,0.174173,0.672171,-0.263165,0.424699,-0.00661812,
-0.010832,-0.0438489,0.478528,-1.57225,-0.251459,-0.183578,0.523633,-0.175359,0.0316628,-0.182201,-0.0482714,0.534082,0.797704,-0.0158575,0,0,0,0,0,0,0,0.0181473,-0.0557121,0.508068,-1.5626,-0.119807,1.44248,1.31621,-0.0831098,-0.00842247,-0.101303,-0.0974961,-0.464521,-0.258984,-0.000794379,-2.63073,-25.9371,-3.66088,28.0222,-0.359196,3.98797,0.0440523,4.08954,0.959074,2.18674,-0.486157,1.57244,-0.596747,-0.574338,0.213416,-0.608267,0.859829,-0.579327,0.458988,-0.00909494,
-0.0114891,-0.0437143,0.477843,-1.57241,-0.249032,-0.180366,0.523562,-0.164284,0.03365,-0.171184,-0.0408966,0.606779,0.802832,-0.017777,0,0,0,0,0,0,0,0.0181473,-0.0557121,0.508068,-1.5626,-0.119807,1.44248,1.31621,-0.0831098,-0.00842247,-0.101303,-0.0974961,-0.464521,-0.258984,-0.000794379,-2.63073,-25.9371,-3.66088,28.0222,-0.359196,3.98797,0.0440523,4.08954,0.959074,2.18674,-0.486157,1.57244,-0.596747,-0.574338,0.213416,-0.608267,0.859829,-0.579327,0.458988,-0.00909494,
-0.012069,-0.0435534,0.477235,-1.57252,-0.246585,-0.177317,0.523476,-0.144979,0.0402323,-0.151975,-0.0265945,0.611641,0.76227,-0.0213295,0,0,0,0,0,0,0,0.0181473,-0.0557121,0.508068,-1.5626,-0.119807,1.44248,1.31621,-0.0831098,-0.00842247,-0.101303,-0.0974961,-0.464521,-0.258984,-0.000794379,-2.63073,-25.9371,-3.66088,28.0222,-0.359196,3.98797,0.0440523,4.68501,0.623855,1.46442,-0.447729,2.36429,-0.907222,-0.88004,0.808067,-0.919413,0.462937,-0.586224,0.371109,-0.0107526,
-0.0125186,-0.0433214,0.476759,-1.57249,-0.244565,-0.174775,0.523425,-0.112381,0.0579941,-0.11912,0.00645353,0.505147,0.635654,-0.0127865,0,0,0,0,0,0,0,0.0181473,-0.0557121,0.508068,-1.5626,-0.119807,1.44248,1.31621,-0.0831098,-0.00842247,-0.101303,-0.0974961,-0.464521,-0.258984,-0.000794379,-2.63073,-25.9371,-3.66088,28.0222,-0.359196,3.98797,0.0440523,3.96625,0.331813,0.285616,-0.387409,2.39366,-0.834203,-0.808261,1.07747,-0.84335,0.0469496,-0.424619,0.321512,-0.0182582,
-0.012885,-0.0430898,0.476369,-1.57245,-0.242806,-0.172544,0.523374,-0.0916082,0.057914,-0.0975607,0.0107853,0.439627,0.557623,-0.0129515,0,0,0,0,0,0,0,0.0181473,-0.0557121,0.508068,-1.5626,-0.119807,1.44248,1.31621,-0.0831098,-0.00842247,-0.101303,-0.0974961,-0.464521,-0.258984,-0.000794379,-2.63073,-25.9371,-3.66088,28.0222,-0.359196,3.98797,0.0440523,3.96625,0.331813,0.285616,-0.387409,2.39366,-0.834203,-0.808261,1.07747,-0.84335,0.0469496,-0.424619,0.321512,-0.0182582,
-0.0131925,-0.0428778,0.47604,-1.57242,-0.241215,-0.170539,0.52332,-0.0768717,0.0529861,-0.0822402,0.00788441,0.397727,0.501408,-0.0133424,0,0,0,0,0,0,0,0.0144984,-0.0559184,0.50372,-1.5655,-0.124876,1.43992,1.31616,-0.110923,0.00406316,-0.154726,-0.0683525,0.00317436,0.0158727,0.000252581,-0.984311,-26.7107,-2.06206,27.0779,0.685421,3.37823,-0.00996382,2.54593,0.100305,0.110083,-0.105229,1.52604,-0.570453,-0.549785,0.679675,-0.585876,0.0782828,-0.225014,0.27658,-0.0166397,
-0.0134558,-0.0426891,0.475757,-1.5724,-0.239732,-0.168708,0.523266,-0.0658427,0.0471775,-0.0707953,0.00392622,0.37077,0.457564,-0.0135836,0,0,0,0,0,0,0,0.0144984,-0.0559184,0.50372,-1.5655,-0.124876,1.43992,1.31616,-0.110923,0.00406316,-0.154726,-0.0683525,0.00317436,0.0158727,0.000252581,-0.984311,-26.7107,-2.06206,27.0779,0.685421,3.37823,-0.00996382,2.54593,0.100305,0.110083,-0.105229,1.52604,-0.570453,-0.549785,0.679675,-0.585876,0.0782828,-0.225014,0.27658,-0.0166397,
-0.0136852,-0.0425225,0.475509,-1.5724,-0.238317,-0.16702,0.523211,-0.0573311,0.0416598,-0.0619899,0.000489159,0.353728,0.422196,-0.0137359,0,0,0,0,0,0,0,0.0144984,-0.0559184,0.50372,-1.5655,-0.124876,1.43992,1.31616,-0.110923,0.00406316,-0.154726,-0.0683525,0.00317436,0.0158727,0.000252581,-0.984311,-26.7107,-2.06206,27.0779,0.685421,3.37823,-0.00996382,1.58444,-0.0332976,0.337298,0.110447,0.868314,-0.398148,-0.381546,0.339893,-0.419066,0.156405,-0.0925358,0.172407,-0.0161884,
-0.0138877,-0.0423755,0.475288,-1.57241,-0.236944,-0.165446,0.523156,-0.0506262,0.0367362,-0.0550775,-0.0021748,0.343385,0.393293,-0.0138388,0,0,0,0,0,0,0,0.0144984,-0.0559184,0.50372,-1.5655,-0.124876,1.43992,1.31616,-0.110923,0.00406316,-0.154726,-0.0683525,0.00317436,0.0158727,0.000252581,-0.984311,-26.7107,-2.06206,27.0779,0.685421,3.37823,-0.00996382,1.04692,0.767584,-0.276742,-0.476589,0.872551,0.096407,0.110434,0.526614,0.0948086,-0.132319,0.133933,0.105847,-0.0148601,
-0.0140687,-0.0422458,0.47509,-1.57242,-0.235593,-0.163968,0.5231,-0.0452582,0.0324417,-0.0495629,-0.00415681,0.337579,0.369563,-0.0139117,0,0,0,0,0,0,0,0.0144984,-0.0559184,0.50372,-1.5655,-0.124876,1.43992,1.31616,-0.110923,0.00406316,-0.154726,-0.0683525,0.00317436,0.0158727,0.000252581,-0.984311,-26.7107,-2.06206,27.0779,0.685421,3.37823,-0.00996382,1.04692,0.767584,-0.276742,-0.476589,0.872551,0.096407,0.110434,0.526614,0.0948086,-0.132319,0.133933,0.105847,-0.0148601,
-0.0255641,-0.0320318,0.462921,-1.57898,-0.22531,-0.273802,0.513344,-0.34197,0.18366,-0.357467,-0.143689,-1.22939,-1.16879,-0.077812,0,0,0,0,0,0,0,0.00931719,-0.0546241,0.497457,-1.56632,-0.124802,1.4423,1.31613,-0.133125,0.0306686,-0.146063,0.00339438,-0.037709,0.0812742,-0.00103849,1.32465,-27.881,0.389723,25.3085,0.672604,2.27044,-0.050247,1.01394,1.69138,-1.40166,-1.26277,1.46902,0.518275,0.533341,1.1383,0.540763,-0.676683,0.372537,0.0289736,-0.014252,
-0.0244873,-0.0405993,0.462135,-1.57791,-0.241513,-0.182689,0.522047,-0.200795,0.085131,-0.20907,-0.0684332,-0.302954,-0.277127,-0.0349699,0,0,0,0,0,0,0,0.00931719,-0.0546241,0.497457,-1.56632,-0.124802,1.4423,1.31613,-0.133125,0.0306686,-0.146063,0.00339438,-0.037709,0.0812742,-0.00103849,1.32465,-27.881,0.389723,25.3085,0.672604,2.27044,-0.050247,1.01394,1.69138,-1.40166,-1.26277,1.46902,0.518275,0.533341,1.1383,0.540763,-0.676683,0.372537,0.0289736,-0.014252,
-0.0252902,-0.0402639,0.461299,-1.57818,-0.242497,-0.183719,0.52191,-0.200703,0.083863,-0.208984,-0.0678269,-0.246169,-0.257739,-0.0341968,0,0,0,0,0,0,0,0.00931719,-0.0546241,0.497457,-1.56632,-0.124802,1.4423,1.31613,-0.133125,0.0306686,-0.146063,0.00339438,-0.037709,0.0812742,-0.00103849,1.32465,-27.881,0.389723,25.3085,0.672604,2.27044,-0.050247,-0.58833,2.04261,-1.32615,-1.41874,0.448228,1.07358,1.09332,0.650553,1.09286,-0.656793,0.558789,-0.109524,-0.0130257,
-0.0260927,-0.0399338,0.460463,-1.57845,-0.243242,-0.184669,0.521776,-0.20064,0.0825132,-0.208926,-0.0672059,-0.186207,-0.237348,-0.033435,0,0,0,0,0,0,0,0.00931719,-0.0546241,0.497457,-1.56632,-0.124802,1.4423,1.31613,-0.133125,0.0306686,-0.146063,0.00339438,-0.037709,0.0812742,-0.00103849,1.32465,-27.881,0.389723,25.3085,0.672604,2.27044,-0.050247,-0.58833,2.04261,-1.32615,-1.41874,0.448228,1.07358,1.09332,0.650553,1.09286,-0.656793,0.558789,-0.109524,-0.0130257,
-0.0268952,-0.0396096,0.459627,-1.57872,-0.243733,-0.185532,0.521646,-0.200621,0.0810703,-0.208908,-0.0665752,-0.122645,-0.215902,-0.0326884,0,0,0,0,0,0,0,0.00931719,-0.0546241,0.497457,-1.56632,-0.124802,1.4423,1.31613,-0.133125,0.0306686,-0.146063,0.00339438,-0.037709,0.0812742,-0.00103849,1.32465,-27.881,0.389723,25.3085,0.672604,2.27044,-0.050247,-4.08578,4.53559,-0.454294,-2.76749,-2.3334,3.11967,3.13803,-0.962983,3.16493,-0.101292,0.960835,-0.0767573,-0.0158007,
-0.0276978,-0.0392915,0.458791,-1.57898,-0.243953,-0.186306,0.521518,-0.200659,0.079523,-0.208946,-0.0659399,-0.0550009,-0.193333,-0.0319553,0,0,0,0,0,0,0,0.00931719,-0.0546241,0.497457,-1.56632,-0.124802,1.4423,1.31613,-0.133125,0.0306686,-0.146063,0.00339438,-0.037709,0.0812742,-0.00103849,1.32465,-27.881,0.389723,25.3085,0.672604,2.27044,-0.050247,-2.86977,3.74984,-1.18769,-2.52502,-1.15341,2.44069,2.44269,-0.191117,2.50285,-0.536095,0.779521,-0.161794,-0.0143219,
-0.0285009,-0.03898,0.457955,-1.57924,-0.243884,-0.186984,0.521393,-0.200772,0.07786,-0.209054,-0.0653064,0.0172669,-0.16955,-0.0312382,0,0,0,0,0,0,0,0.00473841,-0.0533229,0.492679,-1.56636,-0.132136,1.44233,1.31574,-0.158768,0.0199187,-0.148245,-0.0224137,-0.348301,-0.0432372,-0.0135408,-0.984311,-26.3338,-1.96288,25.5823,-0.371097,1.91247,-0.0566557,-2.86977,3.74984,-1.18769,-2.52502,-1.15341,2.44069,2.44269,-0.191117,2.50285,-0.536095,0.779521,-0.161794,-0.0143219,
-0.0293048,-0.0386757,0.457118,-1.5795,-0.243505,-0.187562,0.521271,-0.200972,0.0760698,-0.209249,-0.064682,0.0947588,-0.144439,-0.0305396,0,0,0,0,0,0,0,0.00473841,-0.0533229,0.492679,-1.56636,-0.132136,1.44233,1.31574,-0.158768,0.0199187,-0.148245,-0.0224137,-0.348301,-0.0432372,-0.0135408,-0.984311,-26.3338,-1.96288,25.5823,-0.371097,1.91247,-0.0566557,0.484911,2.23967,-0.985801,-1.80115,1.23098,0.87583,0.895942,1.07354,0.910535,-0.880568,0.326248,-0.353956,-0.0281627,
-0.0301099,-0.0383792,0.45628,-1.57976,-0.242792,-0.188033,0.521151,-0.201276,0.0741408,-0.209545,-0.0640767,0.178133,-0.117858,-0.0298604,0,0,0,0,0,0,0,0.00473841,-0.0533229,0.492679,-1.56636,-0.132136,1.44233,1.31574,-0.158768,0.0199187,-0.148245,-0.0224137,-0.348301,-0.0432372,-0.0135408,-0.984311,-26.3338,-1.96288,25.5823,-0.371097,1.91247,-0.0566557,0.484911,2.23967,-0.985801,-1.80115,1.23098,0.87583,0.895942,1.07354,0.910535,-0.880568,0.326248,-0.353956,-0.0281627,
-0.0309167,-0.0380909,0.45544,-1.58001,-0.24172,-0.188392,0.521034,-0.201697,0.0720622,-0.209955,-0.063503,0.268092,-0.0896363,-0.0292069,0,0,0,0,0,0,0,0.00473841,-0.0533229,0.492679,-1.56636,-0.132136,1.44233,1.31574,-0.158768,0.0199187,-0.148245,-0.0224137,-0.348301,-0.0432372,-0.0135408,-0.984311,-26.3338,-1.96288,25.5823,-0.371097,1.91247,-0.0566557,1.34373,0.376064,-0.335537,-0.676154,1.59928,-0.213445,-0.187849,1.15345,-0.209179,-0.82182,-0.071277,-0.554591,-0.0386684,
-0.0317257,-0.0378116,0.454598,-1.58026,-0.240258,-0.18863,0.52092,-0.202244,0.0698236,-0.210489,-0.0629782,0.365363,-0.0595638,-0.0285823,0,0,0,0,0,0,0,0.00473841,-0.0533229,0.492679,-1.56636,-0.132136,1.44233,1.31574,-0.158768,0.0199187,-0.148245,-0.0224137,-0.348301,-0.0432372,-0.0135408,-0.984311,-26.3338,-1.96288,25.5823,-0.371097,1.91247,-0.0566557,1.34373,0.376064,-0.335537,-0.676154,1.59928,-0.213445,-0.187849,1.15345,-0.209179,-0.82182,-0.071277,-0.554591,-0.0386684,
-0.0325374,-0.037542,0.453754,-1.58051,-0.238376,-0.18874,0.520808,-0.202918,0.0674173,-0.211147,-0.0625245,0.47065,-0.0273872,-0.0279922,0,0,0,0,0,0,0,-0.000273005,-0.0522622,0.486954,-1.5668,-0.138841,1.44138,1.3155,-0.1444,0.0344868,-0.179891,-0.0176542,-0.0406341,-0.0052282,0.0017657,-1.08349,-27.5319,-1.8637,25.6577,-0.304264,1.84655,-0.050247,1.0048,-1.37553,0.0938316,0.395471,1.17947,-0.943364,-0.919976,0.845584,-0.961429,-0.723997,-0.380559,-0.733192,-0.0483187,
-0.0333522,-0.0372826,0.452906,-1.58076,-0.236038,-0.188711,0.520698,-0.203703,0.0648403,-0.211915,-0.0621704,0.584545,0.00719477,-0.0274487,0,0,0,0,0,0,0,-0.000273005,-0.0522622,0.486954,-1.5668,-0.138841,1.44138,1.3155,-0.1444,0.0344868,-0.179891,-0.0176542,-0.0406341,-0.0052282,0.0017657,-1.08349,-27.5319,-1.8637,25.6577,-0.304264,1.84655,-0.050247,1.0048,-1.37553,0.0938316,0.395471,1.17947,-0.943364,-0.919976,0.845584,-0.961429,-0.723997,-0.380559,-0.733192,-0.0483187,
-0.0341649,-0.0370317,0.45206,-1.58101,-0.233264,-0.188536,0.52059,-0.203192,0.0627177,-0.211505,-0.0616156,0.693409,0.0437174,-0.0269579,0,0,0,0,0,0,0,-0.000273005,-0.0522622,0.486954,-1.5668,-0.138841,1.44138,1.3155,-0.1444,0.0344868,-0.179891,-0.0176542,-0.0406341,-0.0052282,0.0017657,-1.08349,-27.5319,-1.8637,25.6577,-0.304264,1.84655,-0.050247,0.182556,-1.38135,0.356287,0.335531,0.505438,-0.743843,-0.724854,0.444971,-0.754904,-0.644446,-0.465865,-0.825311,-0.0514812,
-0.0349636,-0.0367853,0.451227,-1.58125,-0.230156,-0.188208,0.520484,-0.199656,0.0616064,-0.208223,-0.0608241,0.777108,0.0820796,-0.0265631,0,0,0,0,0,0,0,-0.000273005,-0.0522622,0.486954,-1.5668,-0.138841,1.44138,1.3155,-0.1444,0.0344868,-0.179891,-0.0176542,-0.0406341,-0.0052282,0.0017657,-1.08349,-27.5319,-1.8637,25.6577,-0.304264,1.84655,-0.050247,0.985,-1.41718,0.368123,0.263297,1.11659,-0.965721,-0.949787,0.788354,-0.969151,-0.770368,-0.554481,-0.884536,-0.053605,
-0.0357406,-0.036543,0.450415,-1.5815,-0.226787,-0.18771,0.520379,-0.194272,0.060576,-0.202989,-0.0606918,0.842154,0.124394,-0.0263312,0,0,0,0,0,0,0,-0.000273005,-0.0522622,0.486954,-1.5668,-0.138841,1.44138,1.3155,-0.1444,0.0344868,-0.179891,-0.0176542,-0.0406341,-0.0052282,0.0017657,-1.08349,-27.5319,-1.8637,25.6577,-0.304264,1.84655,-0.050247,0.985,-1.41718,0.368123,0.263297,1.11659,-0.965721,-0.949787,0.788354,-0.969151,-0.770368,-0.554481,-0.884536,-0.053605,
-0.0364912,-0.0363058,0.449629,-1.58174,-0.223215,-0.187024,0.520274,-0.187641,0.0593015,-0.196426,-0.0612983,0.893045,0.171599,-0.0262755,0,0,0,0,0,0,0,-0.000273005,-0.0522622,0.486954,-1.5668,-0.138841,1.44138,1.3155,-0.1444,0.0344868,-0.179891,-0.0176542,-0.0406341,-0.0052282,0.0017657,-1.08349,-27.5319,-1.8637,25.6577,-0.304264,1.84655,-0.050247,2.50839,-1.43293,0.142589,0.0900083,2.35374,-1.346,-1.32521,1.51719,-1.34398,-1.0615,-0.681112,-0.951653,-0.0601941,
-0.0372116,-0.0360751,0.448874,-1.58199,-0.219483,-0.186128,0.520168,-0.180099,0.0576785,-0.188887,-0.0624882,0.932947,0.223821,-0.0264651,0,0,0,0,0,0,0,-0.00561173,-0.0513425,0.480911,-1.56729,-0.135979,1.44141,1.31541,-0.177835,0.0116137,-0.18619,-0.0144068,0.213635,-0.00383474,-0.002447,-1.08349,-27.2582,-1.93511,25.3601,0.495907,1.9793,0.017502,2.50839,-1.43293,0.142589,0.0900083,2.35374,-1.346,-1.32521,1.51719,-1.34398,-1.0615,-0.681112,-0.951653,-0.0601941,
-0.0378987,-0.0358522,0.448152,-1.58225,-0.215627,-0.185009,0.52006,-0.17178,0.0557257,-0.180501,-0.0639545,0.964032,0.279907,-0.0270636,0,0,0,0,0,0,0,-0.00561173,-0.0513425,0.480911,-1.56729,-0.135979,1.44141,1.31541,-0.177835,0.0116137,-0.18619,-0.0144068,0.213635,-0.00383474,-0.002447,-1.08349,-27.2582,-1.93511,25.3601,0.495907,1.9793,0.017502,2.42042,-1.90937,-0.555644,0.340048,2.64148,-1.54419,-1.52634,1.83417,-1.54328,-1.35126,-0.615527,-1.00593,-0.0624833,
-0.0385491,-0.0356377,0.447467,-1.58251,-0.211676,-0.183663,0.519946,-0.1626,0.0536107,-0.171162,-0.0651102,0.987629,0.336424,-0.0284138,0,0,0,0,0,0,0,-0.00561173,-0.0513425,0.480911,-1.56729,-0.135979,1.44141,1.31541,-0.177835,0.0116137,-0.18619,-0.0144068,0.213635,-0.00383474,-0.002447,-1.08349,-27.2582,-1.93511,25.3601,0.495907,1.9793,0.017502,2.42042,-1.90937,-0.555644,0.340048,2.64148,-1.54419,-1.52634,1.83417,-1.54328,-1.35126,-0.615527,-1.00593,-0.0624833,
-0.0391579,-0.0354305,0.446825,-1.58277,-0.207659,-0.182118,0.519821,-0.152191,0.0518191,-0.160462,-0.0647248,1.00423,0.386266,-0.0311576,0,0,0,0,0,0,0,-0.00561173,-0.0513425,0.480911,-1.56729,-0.135979,1.44141,1.31541,-0.177835,0.0116137,-0.18619,-0.0144068,0.213635,-0.00383474,-0.002447,-1.08349,-27.2582,-1.93511,25.3601,0.495907,1.9793,0.017502,-0.284809,-2.02839,-0.551817,0.669342,0.780193,-0.946633,-0.935021,0.875649,-0.955348,-1.13858,-0.32355,-1.04462,-0.0673395,
-0.0397168,-0.0352235,0.446235,-1.583,-0.203606,-0.180454,0.519679,-0.139716,0.0517452,-0.147511,-0.0597722,1.01327,0.415871,-0.0355618,0,0,0,0,0,0,0,-0.00561173,-0.0513425,0.480911,-1.56729,-0.135979,1.44141,1.31541,-0.177835,0.0116137,-0.18619,-0.0144068,0.213635,-0.00383474,-0.002447,-1.08349,-27.2582,-1.93511,25.3601,0.495907,1.9793,0.017502,-2.73373,-1.58812,0.178273,0.771079,-1.21397,-0.16285,-0.153871,-0.300376,-0.183079,-0.643679,-0.00979722,-1.02952,-0.0698748,
-0.0401801,-0.0349789,0.445742,-1.58316,-0.19987,-0.178893,0.519573,-0.115836,0.061138,-0.123257,-0.0390046,0.934175,0.390319,-0.0264482,0,0,0,0,0,0,0,-0.0116229,-0.0504297,0.474136,-1.56757,-0.124869,1.44249,1.31537,-0.178943,0.0309558,-0.226034,-0.0184685,0.404367,0.0745571,-0.00234178,0.539127,-28.5317,-0.360094,25.9314,1.07635,2.10473,-0.0163725,-2.73373,-1.58812,0.178273,0.771079,-1.21397,-0.16285,-0.153871,-0.300376,-0.183079,-0.643679,-0.00979722,-1.02952,-0.0698748,
-0.0405778,-0.0347371,0.445317,-1.5833,-0.196336,-0.177357,0.519468,-0.0994156,0.060471,-0.106388,-0.0340542,0.883499,0.384077,-0.026342,0,0,0,0,0,0,0,-0.0116229,-0.0504297,0.474136,-1.56757,-0.124869,1.44249,1.31537,-0.178943,0.0309558,-0.226034,-0.0184685,0.404367,0.0745571,-0.00234178,0.539127,-28.5317,-0.360094,25.9314,1.07635,2.10473,-0.0163725,-2.25575,-1.40417,-0.130973,0.741031,-0.640748,-0.205689,-0.194454,0.114585,-0.229085,-0.818052,0.180149,-1.03674,-0.071049,
-0.0409267,-0.0345095,0.444941,-1.58343,-0.192935,-0.175822,0.519361,-0.0872233,0.056879,-0.0938718,-0.0332128,0.850145,0.383807,-0.0266458,0,0,0,0,0,0,0,-0.0116229,-0.0504297,0.474136,-1.56757,-0.124869,1.44249,1.31537,-0.178943,0.0309558,-0.226034,-0.0184685,0.404367,0.0745571,-0.00234178,0.539127,-28.5317,-0.360094,25.9314,1.07635,2.10473,-0.0163725,-1.25331,-1.90138,-0.860554,1.06448,0.416494,-0.684023,-0.673719,0.841153,-0.712648,-1.14121,0.266517,-1.01494,-0.0692487,
-0.0412379,-0.0342991,0.444604,-1.58356,-0.189623,-0.17428,0.519254,-0.0777997,0.0526146,-0.0842215,-0.0331144,0.828135,0.385341,-0.0268668,0,0,0,0,0,0,0,-0.0116229,-0.0504297,0.474136,-1.56757,-0.124869,1.44249,1.31537,-0.178943,0.0309558,-0.226034,-0.0184685,0.404367,0.0745571,-0.00234178,0.539127,-28.5317,-0.360094,25.9314,1.07635,2.10473,-0.0163725,-1.25331,-1.90138,-0.860554,1.06448,0.416494,-0.684023,-0.673719,0.841153,-0.712648,-1.14121,0.266517,-1.01494,-0.0692487,
-0.0468279,-0.0313109,0.438972,-1.59064,-0.297052,-0.299178,0.510249,-0.325493,0.153157,-0.338599,-0.150668,-1.20098,-0.713011,-0.0846744,0,0,0,0,0,0,0,-0.0116229,-0.0504297,0.474136,-1.56757,-0.124869,1.44249,1.31537,-0.178943,0.0309558,-0.226034,-0.0184685,0.404367,0.0745571,-0.00234178,0.539127,-28.5317,-0.360094,25.9314,1.07635,2.10473,-0.0163725,-2.61623,-0.415538,-0.877993,0.373333,-0.684913,0.362873,0.364829,0.190599,0.350212,-0.808799,0.620847,-0.733686,-0.0687734,
-0.0441623,-0.0410534,0.440182,-1.58251,-0.209102,-0.103585,0.519557,-0.163939,0.0367773,-0.171216,-0.0796846,-0.208107,0.627091,-0.0443454,0,0,0,0,0,0,0,-0.017335,-0.0494816,0.467504,-1.56804,-0.112733,1.44538,1.31528,-0.190367,0.036772,-0.207349,-0.00596242,0.331311,0.0506158,-0.00513516,2.01099,-28.5555,1.21095,25.8322,1.18621,3.22533,-0.103348,-2.61623,-0.415538,-0.877993,0.373333,-0.684913,0.362873,0.364829,0.190599,0.350212,-0.808799,0.620847,-0.733686,-0.0687734,
-0.0448171,-0.0409106,0.439498,-1.58283,-0.209774,-0.100926,0.519382,-0.163712,0.0356856,-0.170983,-0.0795894,-0.168019,0.664596,-0.0437029,0,0,0,0,0,0,0,-0.017335,-0.0494816,0.467504,-1.56804,-0.112733,1.44538,1.31528,-0.190367,0.036772,-0.207349,-0.00596242,0.331311,0.0506158,-0.00513516,2.01099,-28.5555,1.21095,25.8322,1.18621,3.22533,-0.103348,-1.83211,1.95427,-1.53677,-1.11673,-0.0249435,1.3466,1.34796,0.575926,1.36744,-0.856692,0.925143,-0.356431,-0.0743196,
-0.0454714,-0.0407723,0.438815,-1.58315,-0.210273,-0.0981095,0.519209,-0.16357,0.0345942,-0.170834,-0.0795507,-0.124606,0.704184,-0.0430883,0,0,0,0,0,0,0,-0.017335,-0.0494816,0.467504,-1.56804,-0.112733,1.44538,1.31528,-0.190367,0.036772,-0.207349,-0.00596242,0.331311,0.0506158,-0.00513516,2.01099,-28.5555,1.21095,25.8322,1.18621,3.22533,-0.103348,-1.83211,1.95427,-1.53677,-1.11673,-0.0249435,1.3466,1.34796,0.575926,1.36744,-0.856692,0.925143,-0.356431,-0.0743196,
-0.0461255,-0.0406383,0.438132,-1.58347,-0.210582,-0.0951258,0.519039,-0.163524,0.0334967,-0.170776,-0.0795677,-0.0773616,0.745914,-0.0425063,0,0,0,0,0,0,0,-0.017335,-0.0494816,0.467504,-1.56804,-0.112733,1.44538,1.31528,-0.190367,0.036772,-0.207349,-0.00596242,0.331311,0.0506158,-0.00513516,2.01099,-28.5555,1.21095,25.8322,1.18621,3.22533,-0.103348,-2.49972,5.06063,-2.18249,-3.15925,-0.281422,3.00721,3.0078,0.519953,3.07573,-0.952871,1.31026,-0.133494,-0.0809889,
-0.0467798,-0.0405087,0.437449,-1.58378,-0.210685,-0.0919666,0.518871,-0.163581,0.0323876,-0.170818,-0.0796381,-0.0257129,0.789816,-0.0419612,0,0,0,0,0,0,0,-0.017335,-0.0494816,0.467504,-1.56804,-0.112733,1.44538,1.31528,-0.190367,0.036772,-0.207349,-0.00596242,0.331311,0.0506158,-0.00513516,2.01099,-28.5555,1.21095,25.8322,1.18621,3.22533,-0.103348,-1.73253,3.0677,-2.73936,-2.00967,0.562466,1.86851,1.85485,1.11638,1.92905,-1.31397,1.09841,-0.299613,-0.0800468,
-0.047434,-0.0403819,0.436766,-1.5841,-0.210563,-0.088649,0.518706,-0.16355,0.0316974,-0.170761,-0.0784461,0.0305953,0.829394,-0.0414716,0,0,0,0,0,0,0,-0.017335,-0.0494816,0.467504,-1.56804,-0.112733,1.44538,1.31528,-0.190367,0.036772,-0.207349,-0.00596242,0.331311,0.0506158,-0.00513516,2.01099,-28.5555,1.21095,25.8322,1.18621,3.22533,-0.103348,-1.73253,3.0677,-2.73936,-2.00967,0.562466,1.86851,1.85485,1.11638,1.92905,-1.31397,1.09841,-0.299613,-0.0800468,
-0.0480876,-0.0402566,0.436083,-1.5844,-0.210194,-0.0852071,0.518541,-0.163398,0.0313283,-0.170576,-0.0757965,0.092274,0.86047,-0.0410547,0,0,0,0,0,0,0,-0.0233755,-0.0489102,0.461096,-1.56852,-0.111924,1.4458,1.31495,-0.182424,0.0181375,-0.185093,-0.0378856,-0.160569,0.132607,-0.0130881,1.88404,-28.73,0.913405,26.8042,-0.731815,3.51006,-0.351456,-0.820775,0.696901,-2.41707,-0.681722,0.994847,0.555017,0.556223,1.25737,0.576606,-1.30791,0.560602,-0.429091,-0.100235,
-0.0487408,-0.0401338,0.435401,-1.58469,-0.209551,-0.081665,0.518379,-0.163309,0.0307163,-0.170457,-0.0729113,0.160528,0.885525,-0.0407088,0,0,0,0,0,0,0,-0.0233755,-0.0489102,0.461096,-1.56852,-0.111924,1.4458,1.31495,-0.182424,0.0181375,-0.185093,-0.0378856,-0.160569,0.132607,-0.0130881,1.88404,-28.73,0.913405,26.8042,-0.731815,3.51006,-0.351456,-0.820775,0.696901,-2.41707,-0.681722,0.994847,0.555017,0.556223,1.25737,0.576606,-1.30791,0.560602,-0.429091,-0.100235,
-0.0493942,-0.0400148,0.43472,-1.58497,-0.208606,-0.0780414,0.518217,-0.163341,0.0297492,-0.170458,-0.0701573,0.236287,0.905899,-0.0404291,0,0,0,0,0,0,0,-0.0233755,-0.0489102,0.461096,-1.56852,-0.111924,1.4458,1.31495,-0.182424,0.0181375,-0.185093,-0.0378856,-0.160569,0.132607,-0.0130881,1.88404,-28.73,0.913405,26.8042,-0.731815,3.51006,-0.351456,0.831953,-0.859618,-2.23129,0.243933,1.56164,-0.489736,-0.487571,1.2837,-0.487561,-0.913898,0.0451998,-0.015329,-0.0968246,
-0.0500482,-0.039901,0.434037,-1.58524,-0.207325,-0.0743515,0.518056,-0.163497,0.0284436,-0.170584,-0.0676481,0.320321,0.922482,-0.0402234,0,0,0,0,0,0,0,-0.0233755,-0.0489102,0.461096,-1.56852,-0.111924,1.4458,1.31495,-0.182424,0.0181375,-0.185093,-0.0378856,-0.160569,0.132607,-0.0130881,1.88404,-28.73,0.913405,26.8042,-0.731815,3.51006,-0.351456,0.608659,-1.4677,-2.06435,0.784833,0.82094,-0.659923,-0.669621,0.626808,-0.663477,-0.327561,-0.118419,0.466859,-0.0937752,
-0.0507031,-0.0397936,0.433354,-1.58551,-0.205673,-0.0706077,0.517896,-0.163735,0.0268516,-0.170792,-0.065433,0.413088,0.935934,-0.0401058,0,0,0,0,0,0,0,-0.0233755,-0.0489102,0.461096,-1.56852,-0.111924,1.4458,1.31495,-0.182424,0.0181375,-0.185093,-0.0378856,-0.160569,0.132607,-0.0130881,1.88404,-28.73,0.913405,26.8042,-0.731815,3.51006,-0.351456,0.608659,-1.4677,-2.06435,0.784833,0.82094,-0.659923,-0.669621,0.626808,-0.663477,-0.327561,-0.118419,0.466859,-0.0937752,
-0.0513589,-0.0396934,0.43267,-1.58576,-0.203615,-0.0668207,0.517735,-0.163935,0.0250433,-0.170967,-0.0635544,0.514326,0.946762,-0.0400988,0,0,0,0,0,0,0,-0.0301643,-0.0488162,0.453008,-1.57152,-0.115326,1.45729,1.31468,-0.169804,-0.00235725,-0.191238,-0.0900445,0.00743025,0.387105,-0.00345807,-0.57568,-28.4563,-1.18529,26.7526,-0.658573,4.11431,-0.050247,0.643054,-1.35732,-1.98186,0.660254,0.701736,-0.584477,-0.592299,0.494083,-0.585993,-0.224156,-0.216518,0.550627,-0.106862,
-0.0520142,-0.0396009,0.431987,-1.58601,-0.201126,-0.0629993,0.517574,-0.163839,0.0231187,-0.170862,-0.0620607,0.622292,0.955339,-0.0402374,0,0,0,0,0,0,0,-0.0301643,-0.0488162,0.453008,-1.57152,-0.115326,1.45729,1.31468,-0.169804,-0.00235725,-0.191238,-0.0900445,0.00743025,0.387105,-0.00345807,-0.57568,-28.4563,-1.18529,26.7526,-0.658573,4.11431,-0.050247,0.643054,-1.35732,-1.98186,0.660254,0.701736,-0.584477,-0.592299,0.494083,-0.585993,-0.224156,-0.216518,0.550627,-0.106862,
-0.0526622,-0.0395143,0.43131,-1.58625,-0.198235,-0.0591541,0.517412,-0.162,0.021659,-0.169143,-0.0607066,0.72282,0.961321,-0.0405131,0,0,0,0,0,0,0,-0.0301643,-0.0488162,0.453008,-1.57152,-0.115326,1.45729,1.31468,-0.169804,-0.00235725,-0.191238,-0.0900445,0.00743025,0.387105,-0.00345807,-0.57568,-28.4563,-1.18529,26.7526,-0.658573,4.11431,-0.050247,1.22215,-1.75148,-2.00668,0.726284,0.987166,-0.877856,-0.886067,0.584955,-0.875741,-0.220624,-0.488806,0.603615,-0.111614,
-0.0532898,-0.0394298,0.430653,-1.58649,-0.195042,-0.0552958,0.517248,-0.156896,0.0211269,-0.164297,-0.0594305,0.798289,0.96457,-0.0411272,0,0,0,0,0,0,0,-0.0301643,-0.0488162,0.453008,-1.57152,-0.115326,1.45729,1.31468,-0.169804,-0.00235725,-0.191238,-0.0900445,0.00743025,0.387105,-0.00345807,-0.57568,-28.4563,-1.18529,26.7526,-0.658573,4.11431,-0.050247,1.22215,-1.75148,-2.00668,0.726284,0.987166,-0.877856,-0.886067,0.584955,-0.875741,-0.220624,-0.488806,0.603615,-0.111614,
-0.0538877,-0.0393458,0.430025,-1.58672,-0.191622,-0.0514308,0.517076,-0.149485,0.0210056,-0.157009,-0.0586018,0.854835,0.966237,-0.0428592,0,0,0,0,0,0,0,-0.0301643,-0.0488162,0.453008,-1.57152,-0.115326,1.45729,1.31468,-0.169804,-0.00235725,-0.191238,-0.0900445,0.00743025,0.387105,-0.00345807,-0.57568,-28.4563,-1.18529,26.7526,-0.658573,4.11431,-0.050247,2.59366,-1.16516,-2.00777,0.219308,1.74117,-0.857511,-0.864688,0.871431,-0.840799,-0.140004,-0.659984,0.835211,-0.113928,
-0.0544474,-0.039257,0.429435,-1.58695,-0.188038,-0.0475698,0.516892,-0.139917,0.0221875,-0.147444,-0.056321,0.896102,0.965266,-0.0461491,0,0,0,0,0,0,0,-0.0301643,-0.0488162,0.453008,-1.57152,-0.115326,1.45729,1.31468,-0.169804,-0.00235725,-0.191238,-0.0900445,0.00743025,0.387105,-0.00345807,-0.57568,-28.4563,-1.18529,26.7526,-0.658573,4.11431,-0.050247,2.59366,-1.16516,-2.00777,0.219308,1.74117,-0.857511,-0.864688,0.871431,-0.840799,-0.140004,-0.659984,0.835211,-0.113928,
-0.0549339,-0.0391178,0.428919,-1.58707,-0.184523,-0.0440447,0.516741,-0.121616,0.0348159,-0.128959,-0.029472,0.878838,0.881264,-0.0376863,0,0,0,0,0,0,0,-0.035988,-0.0488789,0.446766,-1.57455,-0.11018,1.47246,1.3146,-0.174867,0.00253389,-0.190247,-0.0814657,0.252406,0.526427,-0.00317029,0.412174,-28.1548,-0.360094,26.705,0.843807,4.10699,-0.137222,2.33458,-1.35469,-2.67483,0.326303,1.87075,-0.888482,-0.898298,1.08857,-0.870628,-0.37346,-0.557113,0.824628,-0.119706,
-0.0553703,-0.038975,0.428455,-1.58716,-0.181017,-0.0407211,0.51659,-0.109113,0.035686,-0.116197,-0.0242492,0.876426,0.830905,-0.0376373,0,0,0,0,0,0,0,-0.035988,-0.0488789,0.446766,-1.57455,-0.11018,1.47246,1.3146,-0.174867,0.00253389,-0.190247,-0.0814657,0.252406,0.526427,-0.00317029,0.412174,-28.1548,-0.360094,26.705,0.843807,4.10699,-0.137222,1.60341,-1.77652,-2.54754,0.799163,1.36206,-0.94976,-0.959887,0.835997,-0.947805,-0.274777,-0.400839,0.790977,-0.121088,
-0.0557682,-0.0388412,0.428029,-1.58726,-0.177496,-0.0375409,0.516439,-0.0994609,0.0334484,-0.106336,-0.025,0.880277,0.795059,-0.0379057,0,0,0,0,0,0,0,-0.035988,-0.0488789,0.446766,-1.57455,-0.11018,1.47246,1.3146,-0.174867,0.00253389,-0.190247,-0.0814657,0.252406,0.526427,-0.00317029,0.412174,-28.1548,-0.360094,26.705,0.843807,4.10699,-0.137222,1.60341,-1.77652,-2.54754,0.799163,1.36206,-0.94976,-0.959887,0.835997,-0.947805,-0.274777,-0.400839,0.790977,-0.121088,
-0.0561344,-0.0387186,0.427636,-1.58737,-0.173948,-0.0344722,0.516286,-0.0915563,0.0306613,-0.0982663,-0.0270998,0.886965,0.767154,-0.0380847,0,0,0,0,0,0,0,-0.035988,-0.0488789,0.446766,-1.57455,-0.11018,1.47246,1.3146,-0.174867,0.00253389,-0.190247,-0.0814657,0.252406,0.526427,-0.00317029,0.412174,-28.1548,-0.360094,26.705,0.843807,4.10699,-0.137222,2.08909,-1.65733,-2.26552,0.866881,1.73233,-1.01696,-1.02178,1.04893,-1.02444,-0.286582,-0.258575,0.718243,-0.124855,
-0.056474,-0.0386064,0.42727,-1.58749,-0.170368,-0.031494,0.516133,-0.084894,0.0280408,-0.0914735,-0.0292462,0.8949,0.744571,-0.0382077,0,0,0,0,0,0,0,-0.035988,-0.0488789,0.446766,-1.57455,-0.11018,1.47246,1.3146,-0.174867,0.00253389,-0.190247,-0.0814657,0.252406,0.526427,-0.00317029,0.412174,-28.1548,-0.360094,26.705,0.843807,4.10699,-0.137222,2.08909,-1.65733,-2.26552,0.866881,1.73233,-1.01696,-1.02178,1.04893,-1.02444,-0.286582,-0.258575,0.718243,-0.124855,
-0.0567907,-0.0385034,0.426928,-1.58761,-0.166755,-0.0285899,0.51598,-0.0791898,0.0257512,-0.0856651,-0.0311224,0.903239,0.726002,-0.0383003,0,0,0,0,0,0,0,-0.0412457,-0.0485848,0.440606,-1.57698,-0.099223,1.49149,1.31447,-0.161092,0.0182027,-0.18852,-0.0577159,0.357652,0.634016,-0.00383356,1.67774,-29.9043,1.01259,26.8518,1.1734,3.55675,-0.083206,2.02571,-1.17628,-2.37264,0.611864,1.90668,-0.791932,-0.799333,1.2406,-0.791714,-0.450667,-0.074376,0.60574,-0.12319,
-0.0570878,-0.0384082,0.426605,-1.58774,-0.163109,-0.0257474,0.515827,-0.0742568,0.0237964,-0.0806477,-0.0326926,0.911496,0.710627,-0.038374,0,0,0,0,0,0,0,-0.0412457,-0.0485848,0.440606,-1.57698,-0.099223,1.49149,1.31447,-0.161092,0.0182027,-0.18852,-0.0577159,0.357652,0.634016,-0.00383356,1.67774,-29.9043,1.01259,26.8518,1.1734,3.55675,-0.083206,2.02571,-1.17628,-2.37264,0.611864,1.90668,-0.791932,-0.799333,1.2406,-0.791714,-0.450667,-0.074376,0.60574,-0.12319,
-0.0573676,-0.0383197,0.4263,-1.58788,-0.159432,-0.022956,0.515673,-0.0699594,0.0221389,-0.0762809,-0.0339919,0.919382,0.697848,-0.0384346,0,0,0,0,0,0,0,-0.0412457,-0.0485848,0.440606,-1.57698,-0.099223,1.49149,1.31447,-0.161092,0.0182027,-0.18852,-0.0577159,0.357652,0.634016,-0.00383356,1.67774,-29.9043,1.01259,26.8518,1.1734,3.55675,-0.083206,0.0849182,-0.487829,-1.9585,0.406724,0.464192,-0.059502,-0.074936,0.446205,-0.054817,-0.209528,0.215156,0.540042,-0.125063,
-0.0473447,-0.0333076,0.436726,-1.58806,-0.292487,-0.250094,0.511946,-0.188456,0.0965554,-0.197647,-0.124608,-1.18707,-0.264359,-0.0803324,0,0,0,0,0,0,0,-0.0412457,-0.0485848,0.440606,-1.57698,-0.099223,1.49149,1.31447,-0.161092,0.0182027,-0.18852,-0.0577159,0.357652,0.634016,-0.00383356,1.67774,-29.9043,1.01259,26.8518,1.1734,3.55675,-0.083206,-0.483521,0.279516,-1.99353,0.0446071,0.234652,0.424077,0.409339,0.401445,0.433062,-0.276924,0.487362,0.461981,-0.127756,
-0.0571136,-0.0412229,0.423708,-1.58802,-0.171902,-0.0744417,0.518674,-0.0542995,0.0393683,-0.0596439,-0.0664899,-0.487653,-0.158207,-0.0510861,0,0,0,0,0,0,0,-0.0412457,-0.0485848,0.440606,-1.57698,-0.099223,1.49149,1.31447,-0.161092,0.0182027,-0.18852,-0.0577159,0.357652,0.634016,-0.00383356,1.67774,-29.9043,1.01259,26.8518,1.1734,3.55675,-0.083206,-0.483521,0.279516,-1.99353,0.0446071,0.234652,0.424077,0.409339,0.401445,0.433062,-0.276924,0.487362,0.461981,-0.127756,
-0.0573259,-0.041068,0.423474,-1.58828,-0.173934,-0.0750752,0.518472,-0.0530675,0.038738,-0.0584069,-0.0662005,-0.50792,-0.158356,-0.050591,0,0,0,0,0,0,0,-0.0412457,-0.0485848,0.440606,-1.57698,-0.099223,1.49149,1.31447,-0.161092,0.0182027,-0.18852,-0.0577159,0.357652,0.634016,-0.00383356,1.67774,-29.9043,1.01259,26.8518,1.1734,3.55675,-0.083206,-0.90099,0.872307,-2.18199,-0.278973,0.235805,0.788926,0.777758,0.535797,0.800534,-0.488169,0.718257,0.305322,-0.132221,
-0.0575333,-0.0409157,0.423245,-1.58855,-0.176052,-0.0757092,0.518271,-0.0518517,0.0380767,-0.0571864,-0.0658928,-0.529501,-0.15852,-0.0501046,0,0,0,0,0,0,0,-0.0463519,-0.0479211,0.435064,-1.57862,-0.0886408,1.51198,1.3144,-0.164204,0.0219621,-0.179038,-0.0466564,0.323428,0.689882,0.000894915,1.90784,-29.6306,1.06416,26.2289,1.01501,2.21093,-0.210464,-0.90099,0.872307,-2.18199,-0.278973,0.235805,0.788926,0.777758,0.535797,0.800534,-0.488169,0.718257,0.305322,-0.132221,
-0.0577359,-0.0407661,0.423021,-1.58881,-0.178261,-0.0763439,0.518073,-0.0506483,0.0373786,-0.0559788,-0.0655745,-0.552378,-0.158676,-0.0496254,0,0,0,0,0,0,0,-0.0463519,-0.0479211,0.435064,-1.57862,-0.0886408,1.51198,1.3144,-0.164204,0.0219621,-0.179038,-0.0466564,0.323428,0.689882,0.000894915,1.90784,-29.6306,1.06416,26.2289,1.01501,2.21093,-0.210464,-1.12381,2.46259,-2.21951,-1.25045,0.315626,1.60918,1.60165,0.668628,1.63673,-0.657232,1.01494,0.186979,-0.135446,
-0.0579337,-0.0406196,0.422802,-1.58907,-0.180567,-0.076979,0.517876,-0.0494567,0.0366369,-0.0547826,-0.0652552,-0.576502,-0.158768,-0.0491556,0,0,0,0,0,0,0,-0.0463519,-0.0479211,0.435064,-1.57862,-0.0886408,1.51198,1.3144,-0.164204,0.0219621,-0.179038,-0.0466564,0.323428,0.689882,0.000894915,1.90784,-29.6306,1.06416,26.2289,1.01501,2.21093,-0.210464,0.531309,2.92979,-2.5931,-1.55059,1.72237,1.48852,1.47978,1.51567,1.52595,-0.937387,1.12339,0.212703,-0.119198,
-0.0581268,-0.0404762,0.422588,-1.58933,-0.182974,-0.0776138,0.517681,-0.0482797,0.0358434,-0.0536006,-0.0649482,-0.601772,-0.15869,-0.0486972,0,0,0,0,0,0,0,-0.0463519,-0.0479211,0.435064,-1.57862,-0.0886408,1.51198,1.3144,-0.164204,0.0219621,-0.179038,-0.0466564,0.323428,0.689882,0.000894915,1.90784,-29.6306,1.06416,26.2289,1.01501,2.21093,-0.210464,0.531309,2.92979,-2.5931,-1.55059,1.72237,1.48852,1.47978,1.51567,1.52595,-0.937387,1.12339,0.212703,-0.119198,
-0.0583153,-0.0403363,0.422378,-1.58959,-0.185486,-0.0782469,0.517488,-0.0471263,0.0349877,-0.0524411,-0.0646715,-0.628013,-0.158272,-0.0482495,0,0,0,0,0,0,0,-0.0463519,-0.0479211,0.435064,-1.57862,-0.0886408,1.51198,1.3144,-0.164204,0.0219621,-0.179038,-0.0466564,0.323428,0.689882,0.000894915,1.90784,-29.6306,1.06416,26.2289,1.01501,2.21093,-0.210464,0.448106,1.60841,-1.43717,-0.779057,1.12356,0.838571,0.838899,0.9614,0.850587,-0.558204,0.706275,0.0978075,-0.119319,
-0.0584994,-0.0402,0.422173,-1.58985,-0.188106,-0.0788759,0.517297,-0.0460144,0.0340565,-0.0513212,-0.0644499,-0.654926,-0.157251,-0.0478124,0,0,0,0,0,0,0,-0.050299,-0.047085,0.430956,-1.57874,-0.0963846,1.52116,1.31412,-0.075378,0.0383798,-0.112667,0.00421316,-0.404718,0.17953,-0.00624305,0.590702,-30.8009,0.238966,24.5627,-2.01447,0.632559,-0.143631,0.448106,1.60841,-1.43717,-0.779057,1.12356,0.838571,0.838899,0.9614,0.850587,-0.558204,0.706275,0.0978075,-0.119319,
-0.0586793,-0.0400679,0.421972,-1.5901,-0.190834,-0.0794968,0.517108,-0.044976,0.0330327,-0.0502715,-0.0643177,-0.68203,-0.155238,-0.0473847,0,0,0,0,0,0,0,-0.050299,-0.047085,0.430956,-1.57874,-0.0963846,1.52116,1.31412,-0.075378,0.0383798,-0.112667,0.00421316,-0.404718,0.17953,-0.00624305,0.590702,-30.8009,0.238966,24.5627,-2.01447,0.632559,-0.143631,-0.269276,-0.473299,-1.56581,-0.0367719,0.85336,-0.0937377,-0.0945066,0.932089,-0.0823615,-0.976979,0.0413723,-0.410385,-0.119749,
-0.0588556,-0.0399403,0.421774,-1.59036,-0.193668,-0.0801035,0.51692,-0.0440634,0.0318936,-0.0493429,-0.0643213,-0.708566,-0.151669,-0.0469632,0,0,0,0,0,0,0,-0.050299,-0.047085,0.430956,-1.57874,-0.0963846,1.52116,1.31412,-0.075378,0.0383798,-0.112667,0.00421316,-0.404718,0.17953,-0.00624305,0.590702,-30.8009,0.238966,24.5627,-2.01447,0.632559,-0.143631,-1.51333,-0.710016,-1.48939,-0.145955,0.057994,0.00963145,0.00138939,0.541455,0.0351297,-1.0924,-0.178007,-0.673248,-0.119829,
-0.059029,-0.0398179,0.42158,-1.59062,-0.196602,-0.0806865,0.516734,-0.04336,0.0306097,-0.0486163,-0.0645214,-0.733356,-0.145757,-0.0465403,0,0,0,0,0,0,0,-0.050299,-0.047085,0.430956,-1.57874,-0.0963846,1.52116,1.31412,-0.075378,0.0383798,-0.112667,0.00421316,-0.404718,0.17953,-0.00624305,0.590702,-30.8009,0.238966,24.5627,-2.01447,0.632559,-0.143631,-1.51333,-0.710016,-1.48939,-0.145955,0.057994,0.00963145,0.00138939,0.541455,0.0351297,-1.0924,-0.178007,-0.673248,-0.119829,
-0.059201,-0.0397013,0.421387,-1.59088,-0.19962,-0.0812322,0.516549,-0.0429943,0.029142,-0.0482168,-0.0649937,-0.754612,-0.136432,-0.0461036,0,0,0,0,0,0,0,-0.050299,-0.047085,0.430956,-1.57874,-0.0963846,1.52116,1.31412,-0.075378,0.0383798,-0.112667,0.00421316,-0.404718,0.17953,-0.00624305,0.590702,-30.8009,0.238966,24.5627,-2.01447,0.632559,-0.143631,-0.945601,0.00496713,-1.40873,-0.805989,0.406864,0.250383,0.246967,0.678651,0.290362,-1.14455,-0.324205,-0.67764,-0.125427,
-0.0593736,-0.0395916,0.421194,-1.59114,-0.202699,-0.0817215,0.516367,-0.0431591,0.0274413,-0.0483325,-0.0658239,-0.769653,-0.12231,-0.045631,0,0,0,0,0,0,0,-0.0527093,-0.046201,0.42775,-1.57887,-0.111788,1.52542,1.31398,-0.066771,0.0250996,-0.0966129,-0.0060787,-0.534656,0.077802,-0.0010903,0.689884,-30.0273,0.112013,25.4315,-1.51917,1.54809,-0.130813,-0.945601,0.00496713,-1.40873,-0.805989,0.406864,0.250383,0.246967,0.678651,0.290362,-1.14455,-0.324205,-0.67764,-0.125427,
-0.0595502,-0.0394898,0.420997,-1.59141,-0.205797,-0.0821283,0.516186,-0.0441348,0.0254478,-0.0492377,-0.0670927,-0.774555,-0.101713,-0.0450866,0,0,0,0,0,0,0,-0.0527093,-0.046201,0.42775,-1.57887,-0.111788,1.52542,1.31398,-0.066771,0.0250996,-0.0966129,-0.0060787,-0.534656,0.077802,-0.0010903,0.689884,-30.0273,0.112013,25.4315,-1.51917,1.54809,-0.130813,-0.17788,-1.18854,-1.30024,-0.405132,0.951173,-0.525706,-0.523026,0.966374,-0.490744,-1.34215,-0.800458,-0.892519,-0.127535,
-0.0597354,-0.0393974,0.420791,-1.59169,-0.208852,-0.0824195,0.516009,-0.0463143,0.0230943,-0.0513175,-0.0688428,-0.763734,-0.0728008,-0.0444159,0,0,0,0,0,0,0,-0.0527093,-0.046201,0.42775,-1.57887,-0.111788,1.52542,1.31398,-0.066771,0.0250996,-0.0966129,-0.0060787,-0.534656,0.077802,-0.0010903,0.689884,-30.0273,0.112013,25.4315,-1.51917,1.54809,-0.130813,-0.00443488,-2.8963,-0.863201,0.526113,0.903531,-1.44373,-1.43507,0.880043,-1.43061,-1.30289,-1.19723,-1.06983,-0.124693,
-0.0599363,-0.0393161,0.420571,-1.59197,-0.21177,-0.0825549,0.515834,-0.0502188,0.0203134,-0.0550854,-0.0710312,-0.729567,-0.0338478,-0.0435358,0,0,0,0,0,0,0,-0.0527093,-0.046201,0.42775,-1.57887,-0.111788,1.52542,1.31398,-0.066771,0.0250996,-0.0966129,-0.0060787,-0.534656,0.077802,-0.0010903,0.689884,-30.0273,0.112013,25.4315,-1.51917,1.54809,-0.130813,-0.00443488,-2.8963,-0.863201,0.526113,0.903531,-1.44373,-1.43507,0.880043,-1.43061,-1.30289,-1.19723,-1.06983,-0.124693,
-0.0601622,-0.039248,0.420326,-1.59226,-0.214419,-0.0824893,0.515665,-0.0564899,0.0170469,-0.061178,-0.0734871,-0.662287,0.0164197,-0.0423356,0,0,0,0,0,0,0,-0.0527093,-0.046201,0.42775,-1.57887,-0.111788,1.52542,1.31398,-0.066771,0.0250996,-0.0966129,-0.0060787,-0.534656,0.077802,-0.0010903,0.689884,-30.0273,0.112013,25.4315,-1.51917,1.54809,-0.130813,-0.555304,-3.62005,-1.03448,0.847697,0.579203,-1.70723,-1.69743,0.743517,-1.69913,-1.3812,-1.37131,-1.15896,-0.126516,
-0.0604256,-0.039195,0.420045,-1.59257,-0.216621,-0.0821745,0.515502,-0.0658399,0.0132493,-0.0703107,-0.075925,-0.55041,0.07868,-0.0406847,0,0,0,0,0,0,0,-0.0527093,-0.046201,0.42775,-1.57887,-0.111788,1.52542,1.31398,-0.066771,0.0250996,-0.0966129,-0.0060787,-0.534656,0.077802,-0.0010903,0.689884,-30.0273,0.112013,25.4315,-1.51917,1.54809,-0.130813,-0.555304,-3.62005,-1.03448,0.847697,0.579203,-1.70723,-1.69743,0.743517,-1.69913,-1.3812,-1.37131,-1.15896,-0.126516,
-0.0607415,-0.0391594,0.419712,-1.59288,-0.218148,-0.0815614,0.515348,-0.078975,0.00888231,-0.0832037,-0.0780401,-0.381681,0.153294,-0.0386066,0,0,0,0,0,0,0,-0.0542067,-0.0454234,0.425635,-1.57901,-0.129017,1.52767,1.31388,-0.0351009,0.0193888,-0.0483651,-0.00567346,-0.567283,0.0535784,-0.00752247,0.0828892,-30.1543,-0.487047,24.8364,-1.10443,1.85937,-0.103348,-0.481364,-4.18143,-1.90962,1.00668,1.0247,-2.00312,-1.99359,1.16218,-1.99296,-1.76921,-1.46878,-1.22808,-0.130834,
-0.0611279,-0.0391439,0.41931,-1.5932,-0.218721,-0.0805983,0.515193,-0.0965938,0.00388873,-0.100574,-0.0796259,-0.143394,0.240771,-0.0386762,0,0,0,0,0,0,0,-0.0542067,-0.0454234,0.425635,-1.57901,-0.129017,1.52767,1.31388,-0.0351009,0.0193888,-0.0483651,-0.00567346,-0.567283,0.0535784,-0.00752247,0.0828892,-30.1543,-0.487047,24.8364,-1.10443,1.85937,-0.103348,-0.425664,-3.95518,-2.0031,0.79398,1.05975,-1.89647,-1.88593,1.1714,-1.8811,-1.78261,-1.51161,-1.19152,-0.135569,
-0.0615469,-0.0391224,0.418871,-1.59349,-0.218586,-0.0793868,0.515042,-0.104759,0.00535819,-0.109619,-0.0729788,0.0337603,0.302868,-0.0378917,0,0,0,0,0,0,0,-0.0542067,-0.0454234,0.425635,-1.57901,-0.129017,1.52767,1.31388,-0.0351009,0.0193888,-0.0483651,-0.00567346,-0.567283,0.0535784,-0.00752247,0.0828892,-30.1543,-0.487047,24.8364,-1.10443,1.85937,-0.103348,-0.425664,-3.95518,-2.0031,0.79398,1.05975,-1.89647,-1.88593,1.1714,-1.8811,-1.78261,-1.51161,-1.19152,-0.135569,
-0.0619779,-0.0390893,0.418419,-1.59375,-0.217914,-0.0779817,0.514892,-0.107752,0.00829235,-0.113228,-0.0658435,0.168162,0.351278,-0.0374156,0,0,0,0,0,0,0,-0.0542067,-0.0454234,0.425635,-1.57901,-0.129017,1.52767,1.31388,-0.0351009,0.0193888,-0.0483651,-0.00567346,-0.567283,0.0535784,-0.00752247,0.0828892,-30.1543,-0.487047,24.8364,-1.10443,1.85937,-0.103348,-0.495718,-3.23338,-1.39605,0.526895,0.616888,-1.50247,-1.49285,0.750874,-1.48557,-1.37371,-1.40208,-0.991209,-0.139634,
-0.0624081,-0.0390445,0.417965,-1.59399,-0.216827,-0.0764195,0.514743,-0.107544,0.0112042,-0.113424,-0.0600069,0.27164,0.390552,-0.0371585,0,0,0,0,0,0,0,-0.0542067,-0.0454234,0.425635,-1.57901,-0.129017,1.52767,1.31388,-0.0351009,0.0193888,-0.0483651,-0.00567346,-0.567283,0.0535784,-0.00752247,0.0828892,-30.1543,-0.487047,24.8364,-1.10443,1.85937,-0.103348,-0.495718,-3.23338,-1.39605,0.526895,0.616888,-1.50247,-1.49285,0.750874,-1.48557,-1.37371,-1.40208,-0.991209,-0.139634,
-0.0628295,-0.0389897,0.417519,-1.59422,-0.215418,-0.0747278,0.514595,-0.105346,0.0136897,-0.111482,-0.0555945,0.352324,0.422908,-0.0370327,0,0,0,0,0,0,0,-0.0556764,-0.0452071,0.423502,-1.57986,-0.149156,1.53026,1.31378,-0.0535406,-0.000949766,-0.0639444,-0.0334177,-0.269302,0.0761427,-0.00285536,-0.781979,-29.3053,-1.4868,25.7568,0.123287,2.32995,-0.217789,-0.753996,-2.76169,-1.60197,0.331368,0.447732,-1.1879,-1.18103,0.665525,-1.16667,-1.31228,-1.24467,-0.852765,-0.14745,
-0.0696676,-0.0304753,0.410442,-1.59372,-0.269567,-0.217671,0.510942,-0.164815,0.126503,-0.174839,-0.11616,-1.18903,-0.712435,-0.0859003,0,0,0,0,0,0,0,-0.0556764,-0.0452071,0.423502,-1.57986,-0.149156,1.53026,1.31378,-0.0535406,-0.000949766,-0.0639444,-0.0334177,-0.269302,0.0761427,-0.00285536,-0.781979,-29.3053,-1.4868,25.7568,0.123287,2.32995,-0.217789,-0.753996,-2.76169,-1.60197,0.331368,0.447732,-1.1879,-1.18103,0.665525,-1.16667,-1.31228,-1.24467,-0.852765,-0.14745,
-0.0769198,-0.0347944,0.400966,-1.59186,-0.205089,-0.0774384,0.51776,-0.140488,0.0723141,-0.148822,-0.0681594,0.469044,-0.0431856,-0.0501732,0,0,0,0,0,0,0,-0.0556764,-0.0452071,0.423502,-1.57986,-0.149156,1.53026,1.31378,-0.0535406,-0.000949766,-0.0639444,-0.0334177,-0.269302,0.0761427,-0.00285536,-0.781979,-29.3053,-1.4868,25.7568,0.123287,2.32995,-0.217789,-1.67342,-3.35239,-1.68582,0.911721,-0.137903,-1.29359,-1.28857,0.408269,-1.28811,-1.2504,-1.07999,-0.860222,-0.157951,
-0.0774774,-0.0345097,0.400375,-1.59213,-0.203103,-0.077633,0.517561,-0.139403,0.0711575,-0.14772,-0.0676482,0.49661,-0.0486542,-0.0497227,0,0,0,0,0,0,0,-0.0556764,-0.0452071,0.423502,-1.57986,-0.149156,1.53026,1.31378,-0.0535406,-0.000949766,-0.0639444,-0.0334177,-0.269302,0.0761427,-0.00285536,-0.781979,-29.3053,-1.4868,25.7568,0.123287,2.32995,-0.217789,-1.12246,-3.60994,-0.737682,1.64953,-0.283698,-1.50431,-1.49208,0.115757,-1.53499,-0.642705,-0.778967,-0.577374,-0.155527,
-0.0780314,-0.03423,0.399788,-1.5924,-0.200997,-0.0778502,0.517364,-0.138487,0.0699424,-0.146789,-0.0671371,0.526418,-0.0542931,-0.0492771,0,0,0,0,0,0,0,-0.0556764,-0.0452071,0.423502,-1.57986,-0.149156,1.53026,1.31378,-0.0535406,-0.000949766,-0.0639444,-0.0334177,-0.269302,0.0761427,-0.00285536,-0.781979,-29.3053,-1.4868,25.7568,0.123287,2.32995,-0.217789,-1.12246,-3.60994,-0.737682,1.64953,-0.283698,-1.50431,-1.49208,0.115757,-1.53499,-0.642705,-0.778967,-0.577374,-0.155527,
-0.0785823,-0.0339553,0.399204,-1.59266,-0.198762,-0.0780903,0.517169,-0.137738,0.0686657,-0.146025,-0.0666276,0.558835,-0.0600327,-0.0488412,0,0,0,0,0,0,0,-0.0577691,-0.0452174,0.421255,-1.58117,-0.153274,1.53126,1.31363,-0.0798248,-0.0125997,-0.0839412,-0.0427646,-0.198532,-0.0913812,-0.00535498,-2.4046,-27.5319,-3.08562,26.0822,1.75384,3.3709,-0.170181,-0.619282,-0.981413,-0.543454,0.373208,-0.163309,-0.224447,-0.205857,0.0460785,-0.244248,-0.285187,-0.223714,-0.144661,-0.159254,
-0.0791309,-0.033686,0.398622,-1.59293,-0.196385,-0.0783535,0.516975,-0.137152,0.0673223,-0.145425,-0.0661233,0.594255,-0.0657909,-0.0484164,0,0,0,0,0,0,0,-0.0577691,-0.0452174,0.421255,-1.58117,-0.153274,1.53126,1.31363,-0.0798248,-0.0125997,-0.0839412,-0.0427646,-0.198532,-0.0913812,-0.00535498,-2.4046,-27.5319,-3.08562,26.0822,1.75384,3.3709,-0.170181,-0.921793,-0.186695,-1.09254,0.0775568,-0.133171,0.264806,0.272811,0.174692,0.256822,-0.372876,0.15186,-0.0158835,-0.167173,
-0.0796778,-0.0334224,0.398042,-1.59319,-0.193853,-0.0786393,0.516783,-0.136727,0.0659059,-0.144986,-0.06563,0.633094,-0.0714647,-0.0480022,0,0,0,0,0,0,0,-0.0577691,-0.0452174,0.421255,-1.58117,-0.153274,1.53126,1.31363,-0.0798248,-0.0125997,-0.0839412,-0.0427646,-0.198532,-0.0913812,-0.00535498,-2.4046,-27.5319,-3.08562,26.0822,1.75384,3.3709,-0.170181,-0.921793,-0.186695,-1.09254,0.0775568,-0.133171,0.264806,0.272811,0.174692,0.256822,-0.372876,0.15186,-0.0158835,-0.167173,
-0.0802237,-0.0331647,0.397463,-1.59345,-0.191149,-0.078947,0.516593,-0.136462,0.0644087,-0.144707,-0.0651576,0.675793,-0.0769158,-0.047607,0,0,0,0,0,0,0,-0.0577691,-0.0452174,0.421255,-1.58117,-0.153274,1.53126,1.31363,-0.0798248,-0.0125997,-0.0839412,-0.0427646,-0.198532,-0.0913812,-0.00535498,-2.4046,-27.5319,-3.08562,26.0822,1.75384,3.3709,-0.170181,0.805853,0.600645,-1.24952,-0.233372,1.25677,0.334492,0.352251,0.985049,0.321747,-0.536395,0.446226,0.0591794,-0.169465,
-0.0807691,-0.0329135,0.396885,-1.59371,-0.188258,-0.0792748,0.516404,-0.136355,0.0628222,-0.144586,-0.0647209,0.722809,-0.0819532,-0.0472309,0,0,0,0,0,0,0,-0.0577691,-0.0452174,0.421255,-1.58117,-0.153274,1.53126,1.31363,-0.0798248,-0.0125997,-0.0839412,-0.0427646,-0.198532,-0.0913812,-0.00535498,-2.4046,-27.5319,-3.08562,26.0822,1.75384,3.3709,-0.170181,0.805853,0.600645,-1.24952,-0.233372,1.25677,0.334492,0.352251,0.985049,0.321747,-0.536395,0.446226,0.0591794,-0.169465,
-0.0813147,-0.0326689,0.396306,-1.59397,-0.18516,-0.07962,0.516216,-0.136403,0.0611372,-0.144621,-0.0643427,0.774586,-0.0863073,-0.046883,0,0,0,0,0,0,0,-0.0609932,-0.0454164,0.417629,-1.58235,-0.153195,1.52853,1.31359,-0.114488,-0.00613533,-0.121874,-0.0220887,0.0319458,-0.101871,-0.00175187,-0.40112,-27.3097,-1.08611,25.6339,1.92505,3.10631,-0.103348,1.37415,1.57426,-1.70876,-0.657572,1.93421,0.73123,0.749534,1.46598,0.723807,-0.713128,0.822056,0.143683,-0.171994,
-0.0818611,-0.0324315,0.395727,-1.59422,-0.181834,-0.0799784,0.51603,-0.136596,0.0593452,-0.144801,-0.0640564,0.831524,-0.0895947,-0.0465729,0,0,0,0,0,0,0,-0.0609932,-0.0454164,0.417629,-1.58235,-0.153195,1.52853,1.31359,-0.114488,-0.00613533,-0.121874,-0.0220887,0.0319458,-0.101871,-0.00175187,-0.40112,-27.3097,-1.08611,25.6339,1.92505,3.10631,-0.103348,0.411293,2.82618,-2.5345,-1.42752,1.7746,1.54261,1.55673,1.60417,1.5552,-1.06823,1.17729,0.0669574,-0.175323,
-0.0824088,-0.0322018,0.395147,-1.59448,-0.178258,-0.0803435,0.515845,-0.136913,0.0574392,-0.145107,-0.0639098,0.893891,-0.0912703,-0.0463121,0,0,0,0,0,0,0,-0.0609932,-0.0454164,0.417629,-1.58235,-0.153195,1.52853,1.31359,-0.114488,-0.00613533,-0.121874,-0.0220887,0.0319458,-0.101871,-0.00175187,-0.40112,-27.3097,-1.08611,25.6339,1.92505,3.10631,-0.103348,0.411293,2.82618,-2.5345,-1.42752,1.7746,1.54261,1.55673,1.60417,1.5552,-1.06823,1.17729,0.0669574,-0.175323,
-0.0829507,-0.0319772,0.394572,-1.59473,-0.174489,-0.0807098,0.515661,-0.135476,0.0561521,-0.143805,-0.063411,0.942352,-0.0915842,-0.0459701,0,0,0,0,0,0,0,-0.0609932,-0.0454164,0.417629,-1.58235,-0.153195,1.52853,1.31359,-0.114488,-0.00613533,-0.121874,-0.0220887,0.0319458,-0.101871,-0.00175187,-0.40112,-27.3097,-1.08611,25.6339,1.92505,3.10631,-0.103348,-0.276385,3.05555,-2.30059,-1.42898,1.22901,1.77967,1.78895,1.29194,1.79255,-0.941696,1.32065,0.0502597,-0.173844,
-0.0834821,-0.0317573,0.394006,-1.59499,-0.170572,-0.081064,0.515478,-0.132849,0.0549552,-0.141278,-0.0632798,0.979267,-0.0885355,-0.0457711,0,0,0,0,0,0,0,-0.0609932,-0.0454164,0.417629,-1.58235,-0.153195,1.52853,1.31359,-0.114488,-0.00613533,-0.121874,-0.0220887,0.0319458,-0.101871,-0.00175187,-0.40112,-27.3097,-1.08611,25.6339,1.92505,3.10631,-0.103348,-0.276385,3.05555,-2.30059,-1.42898,1.22901,1.77967,1.78895,1.29194,1.79255,-0.941696,1.32065,0.0502597,-0.173844,
-0.0839999,-0.031543,0.393455,-1.59524,-0.166541,-0.0813852,0.515294,-0.12945,0.053595,-0.137938,-0.0637883,1.00759,-0.0803186,-0.0457696,0,0,0,0,0,0,0,-0.0651104,-0.0454431,0.412473,-1.58299,-0.148218,1.52559,1.31357,-0.135745,-0.005889,-0.178638,-0.0257312,0.262188,-0.0987204,-0.00254099,0.511356,-28.3809,-0.185533,26.1813,1.92505,3.0468,-0.0767973,-0.444277,3.27051,-1.81276,-1.43974,0.871142,1.91908,1.9267,0.993587,1.92998,-0.698857,1.37547,0.0975609,-0.174193,
-0.084502,-0.0313351,0.392919,-1.5955,-0.162424,-0.0816452,0.51511,-0.125534,0.0519686,-0.134049,-0.0650567,1.0294,-0.0649841,-0.0460312,0,0,0,0,0,0,0,-0.0651104,-0.0454431,0.412473,-1.58299,-0.148218,1.52559,1.31357,-0.135745,-0.005889,-0.178638,-0.0257312,0.262188,-0.0987204,-0.00254099,0.511356,-28.3809,-0.185533,26.1813,1.92505,3.0468,-0.0767973,-0.495244,3.35165,-1.7783,-1.46817,0.866911,1.96136,1.9713,1.00565,1.96997,-0.723281,1.41363,0.0553113,-0.174551,
-0.084987,-0.031135,0.392399,-1.59577,-0.158239,-0.0818063,0.514924,-0.121247,0.0500287,-0.129758,-0.0671984,1.04619,-0.0402726,-0.0466847,0,0,0,0,0,0,0,-0.0651104,-0.0454431,0.412473,-1.58299,-0.148218,1.52559,1.31357,-0.135745,-0.005889,-0.178638,-0.0257312,0.262188,-0.0987204,-0.00254099,0.511356,-28.3809,-0.185533,26.1813,1.92505,3.0468,-0.0767973,-0.495244,3.35165,-1.7783,-1.46817,0.866911,1.96136,1.9713,1.00565,1.96997,-0.723281,1.41363,0.0553113,-0.174551,
-0.0854535,-0.0309439,0.391899,-1.59605,-0.154003,-0.0818213,0.514732,-0.11664,0.0477709,-0.125104,-0.070314,1.05896,-0.00374794,-0.0479498,0,0,0,0,0,0,0,-0.0651104,-0.0454431,0.412473,-1.58299,-0.148218,1.52559,1.31357,-0.135745,-0.005889,-0.178638,-0.0257312,0.262188,-0.0987204,-0.00254099,0.511356,-28.3809,-0.185533,26.1813,1.92505,3.0468,-0.0767973,-0.318435,2.01877,-1.8948,-0.626684,1.11957,1.23814,1.2484,1.22563,1.23039,-0.869579,1.30384,-0.083108,-0.173884,
-0.0859001,-0.0307627,0.391419,-1.59635,-0.14973,-0.0816346,0.514531,-0.111642,0.0452897,-0.119997,-0.0743493,1.06825,0.0466602,-0.0501373,0,0,0,0,0,0,0,-0.0651104,-0.0454431,0.412473,-1.58299,-0.148218,1.52559,1.31357,-0.135745,-0.005889,-0.178638,-0.0257312,0.262188,-0.0987204,-0.00254099,0.511356,-28.3809,-0.185533,26.1813,1.92505,3.0468,-0.0767973,-0.318435,2.01877,-1.8948,-0.626684,1.11957,1.23814,1.2484,1.22563,1.23039,-0.869579,1.30384,-0.083108,-0.173884,
-0.0863241,-0.0305909,0.390962,-1.59666,-0.145434,-0.0811895,0.514319,-0.106001,0.0429669,-0.114162,-0.0786656,1.07412,0.111268,-0.053052,0,0,0,0,0,0,0,-0.0651104,-0.0454431,0.412473,-1.58299,-0.148218,1.52559,1.31357,-0.135745,-0.005889,-0.178638,-0.0257312,0.262188,-0.0987204,-0.00254099,0.511356,-28.3809,-0.185533,26.1813,1.92505,3.0468,-0.0767973,-0.606816,1.71592,-1.313,-0.340929,0.700407,1.12122,1.13066,0.916067,1.10506,-0.668391,1.28396,-0.143325,-0.173339,
-0.0867038,-0.0304161,0.39055,-1.59698,-0.14131,-0.0804586,0.514135,-0.0949261,0.0436854,-0.103041,-0.0792907,1.03093,0.182731,-0.0460049,0,0,0,0,0,0,0,-0.0698097,-0.0453442,0.406757,-1.58377,-0.135308,1.52364,1.31355,-0.168932,7.19495e-05,-0.181406,-0.0341681,0.492212,-0.0324873,-0.00172174,1.09455,-29.2061,0.286573,26.106,1.68701,2.80144,-0.110672,-0.606816,1.71592,-1.313,-0.340929,0.700407,1.12122,1.13066,0.916067,1.10506,-0.668391,1.28396,-0.143325,-0.173339,
-0.0870493,-0.0302396,0.390173,-1.59729,-0.137308,-0.0794958,0.513952,-0.0863602,0.0441372,-0.0942394,-0.0776678,1.00046,0.240694,-0.0458445,0,0,0,0,0,0,0,-0.0698097,-0.0453442,0.406757,-1.58377,-0.135308,1.52364,1.31355,-0.168932,7.19495e-05,-0.181406,-0.0341681,0.492212,-0.0324873,-0.00172174,1.09455,-29.2061,0.286573,26.106,1.68701,2.80144,-0.110672,-0.583111,1.73932,-1.12052,-0.355962,0.731793,1.11135,1.12618,0.939398,1.09038,-0.701323,1.28516,-0.250276,-0.173714,
-0.0873678,-0.0300635,0.389824,-1.59759,-0.133391,-0.078342,0.513767,-0.0796257,0.0440312,-0.0873399,-0.075255,0.979233,0.288464,-0.0461126,0,0,0,0,0,0,0,-0.0698097,-0.0453442,0.406757,-1.58377,-0.135308,1.52364,1.31355,-0.168932,7.19495e-05,-0.181406,-0.0341681,0.492212,-0.0324873,-0.00172174,1.09455,-29.2061,0.286573,26.106,1.68701,2.80144,-0.110672,-0.931085,1.51174,-0.852503,-0.222279,0.436435,1.04633,1.06513,0.765157,1.01837,-0.665447,1.23328,-0.357347,-0.177165,
-0.0876649,-0.0298898,0.389496,-1.59788,-0.129533,-0.0770296,0.513582,-0.074278,0.0434215,-0.0818814,-0.0726031,0.964592,0.328105,-0.0463474,0,0,0,0,0,0,0,-0.0698097,-0.0453442,0.406757,-1.58377,-0.135308,1.52364,1.31355,-0.168932,7.19495e-05,-0.181406,-0.0341681,0.492212,-0.0324873,-0.00172174,1.09455,-29.2061,0.286573,26.106,1.68701,2.80144,-0.110672,-0.931085,1.51174,-0.852503,-0.222279,0.436435,1.04633,1.06513,0.765157,1.01837,-0.665447,1.23328,-0.357347,-0.177165,
