PerkyPenguin/Analysis-on-Approximated-Derivatives/Code_and_Data/PaperData/Real_Robot/Scene_2/set_interval/16/trajectory.csv
Commanded Joint 0 Position,Commanded Joint 1 Position,Commanded Joint 2 Position,Commanded Joint 3 Position,Commanded Joint 4 Position,Commanded Joint 5 Position,Commanded Joint 6 Position,Commanded Joint 0 Velocity,Commanded Joint 1 Velocity,Commanded Joint 2 Velocity,Commanded Joint 3 Velocity,Commanded Joint 4 Velocity,Commanded Joint 5 Velocity,Commanded Joint 6 Velocity,Commanded Joint 0 Torque,Commanded Joint 1 Torque,Commanded Joint 2 Torque,Commanded Joint 3 Torque,Commanded Joint 4 Torque,Commanded Joint 5 Torque,Commanded Joint 6 Torque,Actual Joint 0 Position,Actual Joint 1 Position,Actual Joint 2 Position,Actual Joint 3 Position,Actual Joint 4 Position,Actual Joint 5 Position,Actual Joint 6 Position,Actual Joint 0 Velocity,Actual Joint 1 Velocity,Actual Joint 2 Velocity,Actual Joint 3 Velocity,Actual Joint 4 Velocity,Actual Joint 5 Velocity,Actual Joint 6 Velocity,Actual Joint 0 Torque,Actual Joint 1 Torque,Actual Joint 2 Torque,Actual Joint 3 Torque,Actual Joint 4 Torque,Actual Joint 5 Torque,Actual Joint 6 Torque,EE ext force 0,EE ext force 1,EE ext force 2,EE ext force 3,EE ext force 4,EE ext force 5,joint ext torque 0,joint ext torque 1,joint ext torque 2,joint ext torque 3,joint ext torque 4,joint ext torque 5,joint ext torque 6,
0.0239993,-0.0512438,0.514695,-1.55985,0.0430738,-0.0125036,0.533572,0.0108964,0.0308955,0.0149998,-0.143876,-0.0719027,0.200486,-0.00127993,0,0,0,0,0,0,0,0.0239293,-0.0513928,0.51459,-1.55841,0.0436153,1.55631,1.31899,0.00521979,-0.00495232,0.000941801,0.000569255,-0.0158001,-4.20907e-05,0.000396834,0.285221,-27.3811,-0.812364,26.8042,1.3327,3.09899,0.104477,1.38586,1.49636,1.58457,-0.723594,0.826025,0.203087,0.275238,0.371504,0.145105,0.0926139,0.213769,-0.306601,0.103748,
0.0240569,-0.0510392,0.514772,-1.56047,0.0427124,-0.0116679,0.533567,0.0143953,0.0511521,0.0192433,-0.154707,-0.0903495,0.208933,-0.00136748,0,0,0,0,0,0,0,0.0239293,-0.0513928,0.51459,-1.55841,0.0436153,1.55631,1.31899,0.00521979,-0.00495232,0.000941801,0.000569255,-0.0158001,-4.20907e-05,0.000396834,0.285221,-27.3811,-0.812364,26.8042,1.3327,3.09899,0.104477,1.38586,1.49636,1.58457,-0.723594,0.826025,0.203087,0.275238,0.371504,0.145105,0.0926139,0.213769,-0.306601,0.103748,
0.0239566,-0.0514501,0.514618,-1.5584,0.0435003,-0.0144853,0.533588,0.00118773,-0.002908,0.00126556,0.000961839,-0.00390665,0.000178947,-2.98119e-05,0,0,0,0,0,0,0,0.0239293,-0.0513928,0.51459,-1.55841,0.0436153,1.55631,1.31899,0.00521979,-0.00495232,0.000941801,0.000569255,-0.0158001,-4.20907e-05,0.000396834,0.285221,-27.3811,-0.812364,26.8042,1.3327,3.09899,0.104477,1.94636,1.77035,1.3789,-0.995915,1.32199,0.168094,0.243078,0.685154,0.116243,-0.0538082,0.196532,-0.309677,0.103233,
0.0239605,-0.0514603,0.514622,-1.5584,0.0434896,-0.0144842,0.533588,0.000982295,-0.00256526,0.0010592,0.000924274,-0.00265848,0.000276658,-2.13215e-05,0,0,0,0,0,0,0,0.0239293,-0.0513928,0.51459,-1.55841,0.0436153,1.55631,1.31899,0.00521979,-0.00495232,0.000941801,0.000569255,-0.0158001,-4.20907e-05,0.000396834,0.285221,-27.3811,-0.812364,26.8042,1.3327,3.09899,0.104477,1.36952,1.36355,1.71174,-0.594348,0.745485,0.148127,0.220372,0.294492,0.0858336,0.164613,0.201639,-0.290093,0.102408,
0.0239638,-0.0514694,0.514626,-1.55839,0.0434826,-0.0144828,0.533588,0.000824722,-0.00227108,0.000903048,0.000873479,-0.00175388,0.000352355,-1.53105e-05,0,0,0,0,0,0,0,0.0239308,-0.0514444,0.514585,-1.55861,0.0436644,1.55655,1.31899,0.000585465,-0.0124964,0.000140565,-0.0299698,-0.00698596,0.0423916,0.000379208,0.336795,-26.5083,-0.661608,24.2889,0.795284,3.07976,0.0980684,1.36952,1.36355,1.71174,-0.594348,0.745485,0.148127,0.220372,0.294492,0.0858336,0.164613,0.201639,-0.290093,0.102408,
0.0239666,-0.0514775,0.514629,-1.55839,0.0434782,-0.0144812,0.533588,0.000702099,-0.00201854,0.000783248,0.000816104,-0.00110034,0.000404635,-1.1055e-05,0,0,0,0,0,0,0,0.0239308,-0.0514444,0.514585,-1.55861,0.0436644,1.55655,1.31899,0.000585465,-0.0124964,0.000140565,-0.0299698,-0.00698596,0.0423916,0.000379208,0.336795,-26.5083,-0.661608,24.2889,0.795284,3.07976,0.0980684,0.500869,1.07118,1.04406,-0.524479,0.363664,0.262132,0.333892,0.202591,0.20178,-0.00799804,0.220882,-0.305999,0.102012,
0.023969,-0.0514847,0.514632,-1.55839,0.0434757,-0.0144794,0.533588,0.000605162,-0.00180165,0.000689907,0.000756459,-0.000630504,0.000434767,-8.0315e-06,0,0,0,0,0,0,0,0.0239308,-0.0514444,0.514585,-1.55861,0.0436644,1.55655,1.31899,0.000585465,-0.0124964,0.000140565,-0.0299698,-0.00698596,0.0423916,0.000379208,0.336795,-26.5083,-0.661608,24.2889,0.795284,3.07976,0.0980684,0.500869,1.07118,1.04406,-0.524479,0.363664,0.262132,0.333892,0.202591,0.20178,-0.00799804,0.220882,-0.305999,0.102012,
0.0239712,-0.0514912,0.514634,-1.55838,0.0434745,-0.0144777,0.533587,0.000527264,-0.00161527,0.00061596,0.000697306,-0.000295217,0.000445351,-5.87004e-06,0,0,0,0,0,0,0,0.0239308,-0.0514444,0.514585,-1.55861,0.0436644,1.55655,1.31899,0.000585465,-0.0124964,0.000140565,-0.0299698,-0.00698596,0.0423916,0.000379208,0.336795,-26.5083,-0.661608,24.2889,0.795284,3.07976,0.0980684,0.260371,1.29853,0.46005,-0.833203,0.376512,0.431953,0.499252,0.301013,0.387361,-0.192299,0.211195,-0.282855,0.101524,
0.023973,-0.051497,0.514636,-1.55838,0.0434743,-0.0144759,0.533587,0.00046362,-0.00145494,0.000556353,0.000640359,-5.85569e-05,0.000439526,-4.31085e-06,0,0,0,0,0,0,0,0.0239308,-0.0514444,0.514585,-1.55861,0.0436644,1.55655,1.31899,0.000585465,-0.0124964,0.000140565,-0.0299698,-0.00698596,0.0423916,0.000379208,0.336795,-26.5083,-0.661608,24.2889,0.795284,3.07976,0.0980684,1.24087,1.63013,0.432949,-1.06482,1.08516,0.303758,0.373087,0.686007,0.263083,-0.260275,0.209755,-0.232256,0.101381,
0.0239746,-0.0515023,0.514638,-1.55838,0.0434747,-0.0144742,0.533587,0.000410778,-0.00131688,0.000507463,0.000586624,0.000105798,0.0004205,-3.17225e-06,0,0,0,0,0,0,0,0.0239172,-0.051438,0.51458,-1.55894,0.0436528,1.55707,1.31899,0.00119877,0.00616388,0.0015706,0.00255199,0.00208552,0.000471955,-0.000530451,0.412174,-27.9088,-0.713182,26.9788,0.733944,3.23174,0.0980684,1.24087,1.63013,0.432949,-1.06482,1.08516,0.303758,0.373087,0.686007,0.263083,-0.260275,0.209755,-0.232256,0.101381,
0.0239761,-0.051507,0.51464,-1.55838,0.0434756,-0.0144727,0.533587,0.000366231,-0.00119783,0.000466685,0.000536631,0.000217178,0.00039129,-2.32755e-06,0,0,0,0,0,0,0,0.0239172,-0.051438,0.51458,-1.55894,0.0436528,1.55707,1.31899,0.00119877,0.00616388,0.0015706,0.00255199,0.00208552,0.000471955,-0.000530451,0.412174,-27.9088,-0.713182,26.9788,0.733944,3.23174,0.0980684,1.55785,1.57626,0.856483,-0.905825,1.11848,0.188312,0.254533,0.610259,0.143647,-0.0793147,0.200017,-0.183397,0.101708,
0.0239774,-0.0515114,0.514642,-1.55837,0.0434767,-0.0144712,0.533587,0.000328154,-0.00109502,0.000432137,0.000490591,0.000289809,0.000354587,-1.68859e-06,0,0,0,0,0,0,0,0.0239172,-0.051438,0.51458,-1.55894,0.0436528,1.55707,1.31899,0.00119877,0.00616388,0.0015706,0.00255199,0.00208552,0.000471955,-0.000530451,0.412174,-27.9088,-0.713182,26.9788,0.733944,3.23174,0.0980684,1.55785,1.57626,0.856483,-0.905825,1.11848,0.188312,0.254533,0.610259,0.143647,-0.0793147,0.200017,-0.183397,0.101708,
0.0239786,-0.0515154,0.514644,-1.55837,0.0434781,-0.01447,0.533587,0.000295204,-0.0010061,0.000402451,0.000448511,0.000334187,0.000312704,-1.19415e-06,0,0,0,0,0,0,0,0.0239172,-0.051438,0.51458,-1.55894,0.0436528,1.55707,1.31899,0.00119877,0.00616388,0.0015706,0.00255199,0.00208552,0.000471955,-0.000530451,0.412174,-27.9088,-0.713182,26.9788,0.733944,3.23174,0.0980684,1.33401,1.55474,0.788468,-0.901797,0.979859,0.24312,0.291101,0.54578,0.216047,-0.0849757,0.207578,-0.185774,0.100044,
0.0239797,-0.0515192,0.514645,-1.55837,0.0434795,-0.0144689,0.533587,0.000266386,-0.000929075,0.000376628,0.000410266,0.000358065,0.000267571,-8.01857e-07,0,0,0,0,0,0,0,0.0239172,-0.051438,0.51458,-1.55894,0.0436528,1.55707,1.31899,0.00119877,0.00616388,0.0015706,0.00255199,0.00208552,0.000471955,-0.000530451,0.412174,-27.9088,-0.713182,26.9788,0.733944,3.23174,0.0980684,0.684945,1.32898,0.829376,-0.73247,0.499081,0.324236,0.361851,0.278699,0.302464,-0.0255558,0.212438,-0.21375,0.10082,
0.0239806,-0.0515226,0.514647,-1.55837,0.043481,-0.014468,0.533587,0.000240956,-0.000862235,0.000353929,0.000375654,0.000367186,0.000220756,-4.82416e-07,0,0,0,0,0,0,0,0.0239288,-0.0514137,0.514588,-1.5589,0.0436657,1.55711,1.31899,-0.00232466,0.00603359,0.000135924,-0.0029361,0.0114183,0.00205507,0.000269418,0.336795,-28.1072,-0.788561,26.6058,0.63049,2.9406,0.0907442,0.684945,1.32898,0.829376,-0.73247,0.499081,0.324236,0.361851,0.278699,0.302464,-0.0255558,0.212438,-0.21375,0.10082,
0.0239815,-0.0515258,0.514648,-1.55837,0.0434824,-0.0144673,0.533587,0.000218347,-0.000804141,0.000333802,0.000344432,0.0003658,0.000173502,-2.15618e-07,0,0,0,0,0,0,0,0.0239288,-0.0514137,0.514588,-1.5589,0.0436657,1.55711,1.31899,-0.00232466,0.00603359,0.000135924,-0.0029361,0.0114183,0.00205507,0.000269418,0.336795,-28.1072,-0.788561,26.6058,0.63049,2.9406,0.0907442,0.796588,1.02973,1.03065,-0.487535,0.491084,0.154801,0.194771,0.230076,0.123655,0.0518766,0.17712,-0.21435,0.101677,
0.0239823,-0.0515288,0.514649,-1.55837,0.0434839,-0.0144668,0.533587,0.000198126,-0.000753564,0.00031583,0.000316338,0.000357063,0.000126772,1.24598e-08,0,0,0,0,0,0,0,0.0239288,-0.0514137,0.514588,-1.5589,0.0436657,1.55711,1.31899,-0.00232466,0.00603359,0.000135924,-0.0029361,0.0114183,0.00205507,0.000269418,0.336795,-28.1072,-0.788561,26.6058,0.63049,2.9406,0.0907442,0.796588,1.02973,1.03065,-0.487535,0.491084,0.154801,0.194771,0.230076,0.123655,0.0518766,0.17712,-0.21435,0.101677,
0.023983,-0.0515317,0.51465,-1.55837,0.0434852,-0.0144665,0.533587,0.000179953,-0.000709462,0.000299693,0.000291105,0.000343309,8.12872e-05,2.1141e-07,0,0,0,0,0,0,0,0.0239288,-0.0514137,0.514588,-1.5589,0.0436657,1.55711,1.31899,-0.00232466,0.00603359,0.000135924,-0.0029361,0.0114183,0.00205507,0.000269418,0.336795,-28.1072,-0.788561,26.6058,0.63049,2.9406,0.0907442,0.691848,1.01188,1.04331,-0.452117,0.420902,0.178185,0.208258,0.193817,0.155039,0.0652554,0.201293,-0.216599,0.100595,
0.0239837,-0.0515344,0.514651,-1.55836,0.0434865,-0.0144664,0.533587,0.000163559,-0.000670947,0.000285142,0.000268475,0.000326267,3.75701e-05,3.87852e-07,0,0,0,0,0,0,0,0.0239288,-0.0514137,0.514588,-1.5589,0.0436657,1.55711,1.31899,-0.00232466,0.00603359,0.000135924,-0.0029361,0.0114183,0.00205507,0.000269418,0.336795,-28.1072,-0.788561,26.6058,0.63049,2.9406,0.0907442,0.691848,1.01188,1.04331,-0.452117,0.420902,0.178185,0.208258,0.193817,0.155039,0.0652554,0.201293,-0.216599,0.100595,
0.0239843,-0.0515369,0.514653,-1.55836,0.0434878,-0.0144664,0.533587,0.000148725,-0.00063726,0.000271977,0.000248203,0.000307213,-4.01876e-06,5.46375e-07,0,0,0,0,0,0,0,0.0239288,-0.0514137,0.514588,-1.5589,0.0436657,1.55711,1.31899,-0.00232466,0.00603359,0.000135924,-0.0029361,0.0114183,0.00205507,0.000269418,0.336795,-28.1072,-0.788561,26.6058,0.63049,2.9406,0.0907442,1.24369,1.28322,0.829371,-0.722413,0.926748,0.144113,0.170479,0.520018,0.133321,-0.0938033,0.19298,-0.23018,0.100723,
0.0239848,-0.0515393,0.514654,-1.55836,0.0434889,-0.0144665,0.533587,0.000135273,-0.000607757,0.000260037,0.000230057,0.000287082,-4.32493e-05,6.90184e-07,0,0,0,0,0,0,0,0.0239409,-0.0514544,0.514589,-1.55893,0.043617,1.55709,1.31899,-0.00162987,0.00482041,-0.00122001,0.000226084,0.00798253,0.00266672,0.000841499,0.209842,-27.5835,-0.76079,26.7764,0.966488,3.07244,0.0706026,0.474627,1.13229,1.32772,-0.482853,0.152803,0.295042,0.321867,-0.00227481,0.274559,0.181426,0.198189,-0.224036,0.100233,
0.0239853,-0.0515417,0.514655,-1.55836,0.04349,-0.0144669,0.533587,0.000123053,-0.000581883,0.000249188,0.000213825,0.000266556,-7.99945e-05,8.21553e-07,0,0,0,0,0,0,0,0.0239409,-0.0514544,0.514589,-1.55893,0.043617,1.55709,1.31899,-0.00162987,0.00482041,-0.00122001,0.000226084,0.00798253,0.00266672,0.000841499,0.209842,-27.5835,-0.76079,26.7764,0.966488,3.07244,0.0706026,0.474627,1.13229,1.32772,-0.482853,0.152803,0.295042,0.321867,-0.00227481,0.274559,0.181426,0.198189,-0.224036,0.100233,
0.0239858,-0.0515439,0.514656,-1.55836,0.043491,-0.0144673,0.533587,0.000111937,-0.000559167,0.00023932,0.000199312,0.000246127,-0.000114207,9.42124e-07,0,0,0,0,0,0,0,0.0239409,-0.0514544,0.514589,-1.55893,0.043617,1.55709,1.31899,-0.00162987,0.00482041,-0.00122001,0.000226084,0.00798253,0.00266672,0.000841499,0.209842,-27.5835,-0.76079,26.7764,0.966488,3.07244,0.0706026,1.11263,1.55705,0.908184,-0.911893,0.81975,0.308269,0.351474,0.459465,0.28626,-0.0826705,0.203933,-0.250074,0.0997718,
0.0239862,-0.0515461,0.514656,-1.55836,0.0434919,-0.0144679,0.533587,0.000101817,-0.0005392,0.000230336,0.000186341,0.000226144,-0.000145899,1.05312e-06,0,0,0,0,0,0,0,0.0239409,-0.0514544,0.514589,-1.55893,0.043617,1.55709,1.31899,-0.00162987,0.00482041,-0.00122001,0.000226084,0.00798253,0.00266672,0.000841499,0.209842,-27.5835,-0.76079,26.7764,0.966488,3.07244,0.0706026,1.11263,1.55705,0.908184,-0.911893,0.81975,0.308269,0.351474,0.459465,0.28626,-0.0826705,0.203933,-0.250074,0.0997718,
0.0239865,-0.0515482,0.514657,-1.55836,0.0434927,-0.0144686,0.533587,9.25963e-05,-0.000521634,0.000222154,0.000174751,0.000206847,-0.00017513,1.15547e-06,0,0,0,0,0,0,0,0.0239409,-0.0514544,0.514589,-1.55893,0.043617,1.55709,1.31899,-0.00162987,0.00482041,-0.00122001,0.000226084,0.00798253,0.00266672,0.000841499,0.209842,-27.5835,-0.76079,26.7764,0.966488,3.07244,0.0706026,1.12303,1.50597,0.845307,-0.901429,0.855352,0.281246,0.34179,0.49226,0.243005,-0.115388,0.193337,-0.260056,0.101021,
0.0239869,-0.0515502,0.514658,-1.55836,0.0434935,-0.0144694,0.533587,8.41919e-05,-0.000506169,0.0002147,0.000164397,0.000188398,-0.00020199,1.24994e-06,0,0,0,0,0,0,0,0.0238896,-0.0514989,0.51455,-1.55888,0.0435507,1.55709,1.31899,1.63502e-05,-0.00195362,-0.00112803,-0.0019478,-0.000962979,-0.000594077,0.000167919,0.638309,-27.2344,-0.562425,26.4789,1.38763,3.16582,0.110886,1.12303,1.50597,0.845307,-0.901429,0.855352,0.281246,0.34179,0.49226,0.243005,-0.115388,0.193337,-0.260056,0.101021,
0.0239872,-0.0515521,0.514659,-1.55836,0.0434941,-0.0144703,0.533587,7.65289e-05,-0.000492543,0.00020791,0.000155149,0.000170896,-0.000226589,1.33714e-06,0,0,0,0,0,0,0,0.0238896,-0.0514989,0.51455,-1.55888,0.0435507,1.55709,1.31899,1.63502e-05,-0.00195362,-0.00112803,-0.0019478,-0.000962979,-0.000594077,0.000167919,0.638309,-27.2344,-0.562425,26.4789,1.38763,3.16582,0.110886,0.694418,1.30169,1.32464,-0.597984,0.332517,0.310711,0.387384,0.107039,0.245506,0.148445,0.213538,-0.227458,0.102117,
0.0239875,-0.0515541,0.51466,-1.55836,0.0434948,-0.0144713,0.533587,6.95406e-05,-0.000480532,0.000201726,0.00014689,0.000154399,-0.000249056,1.41762e-06,0,0,0,0,0,0,0,0.0238896,-0.0514989,0.51455,-1.55888,0.0435507,1.55709,1.31899,1.63502e-05,-0.00195362,-0.00112803,-0.0019478,-0.000962979,-0.000594077,0.000167919,0.638309,-27.2344,-0.562425,26.4789,1.38763,3.16582,0.110886,0.694418,1.30169,1.32464,-0.597984,0.332517,0.310711,0.387384,0.107039,0.245506,0.148445,0.213538,-0.227458,0.102117,
0.0241655,-0.0518023,0.514833,-1.55813,-0.0140508,-0.0513158,0.533427,-0.00524044,0.000887952,-0.00518068,-0.00226981,-0.333381,-0.215853,-0.000692674,0,0,0,0,0,0,0,0.0238896,-0.0514989,0.51455,-1.55888,0.0435507,1.55709,1.31899,1.63502e-05,-0.00195362,-0.00112803,-0.0019478,-0.000962979,-0.000594077,0.000167919,0.638309,-27.2344,-0.562425,26.4789,1.38763,3.16582,0.110886,1.46887,1.5506,1.18329,-0.832737,0.970384,0.203063,0.275427,0.490429,0.149413,0.00486252,0.201115,-0.232525,0.102335,
0.0240343,-0.0517968,0.514713,-1.55869,-0.00326458,-0.0443451,0.533502,-0.00453874,0.000190324,-0.00441328,-0.0021767,-0.250089,-0.16987,-0.000340485,0,0,0,0,0,0,0,0.0238896,-0.0514989,0.51455,-1.55888,0.0435507,1.55709,1.31899,1.63502e-05,-0.00195362,-0.00112803,-0.0019478,-0.000962979,-0.000594077,0.000167919,0.638309,-27.2344,-0.562425,26.4789,1.38763,3.16582,0.110886,1.80094,1.74589,0.982655,-1.04993,1.30599,0.195888,0.253207,0.718608,0.164083,-0.129637,0.187697,-0.250901,0.102681,
0.0240159,-0.051796,0.514695,-1.5587,-0.00424756,-0.0450144,0.533501,-0.00460733,0.000195032,-0.00448338,-0.00220826,-0.245747,-0.167335,-0.000340813,0,0,0,0,0,0,0,0.0239339,-0.051534,0.514566,-1.55889,0.0435487,1.55709,1.31899,0.00181496,-0.00845792,0.00125173,0.000261866,-0.0223296,1.1797e-06,-0.000110185,0.0828892,-27.032,-0.812364,26.5027,1.41784,3.18596,0.104477,1.3717,1.86701,1.16449,-1.05992,0.927056,0.370794,0.410971,0.481481,0.353921,-0.0180388,0.230506,-0.244227,0.105487,
0.0239972,-0.0517953,0.514677,-1.55871,-0.0052119,-0.0456727,0.5335,-0.00468054,0.000194153,-0.00455779,-0.00225039,-0.241085,-0.164571,-0.000342364,0,0,0,0,0,0,0,0.0239339,-0.051534,0.514566,-1.55889,0.0435487,1.55709,1.31899,0.00181496,-0.00845792,0.00125173,0.000261866,-0.0223296,1.1797e-06,-0.000110185,0.0828892,-27.032,-0.812364,26.5027,1.41784,3.18596,0.104477,1.55822,1.9712,1.23265,-1.20393,1.06753,0.36117,0.389762,0.562161,0.36082,-0.0779518,0.174065,-0.307621,0.107051,
0.0239781,-0.0517945,0.514659,-1.55871,-0.00615611,-0.0463189,0.533498,-0.00476098,0.000188287,-0.00463901,-0.00230604,-0.236053,-0.161534,-0.000345219,0,0,0,0,0,0,0,0.0239339,-0.051534,0.514566,-1.55889,0.0435487,1.55709,1.31899,0.00181496,-0.00845792,0.00125173,0.000261866,-0.0223296,1.1797e-06,-0.000110185,0.0828892,-27.032,-0.812364,26.5027,1.41784,3.18596,0.104477,0.90605,1.91338,1.44708,-1.22628,0.516654,0.517776,0.527919,0.228989,0.537273,-0.012274,0.0881595,-0.388512,0.105196,
0.0239587,-0.0517938,0.51464,-1.55872,-0.00707847,-0.0469515,0.533497,-0.00485181,0.000178094,-0.00473015,-0.00237869,-0.23059,-0.158173,-0.000349311,0,0,0,0,0,0,0,0.0239339,-0.051534,0.514566,-1.55889,0.0435487,1.55709,1.31899,0.00181496,-0.00845792,0.00125173,0.000261866,-0.0223296,1.1797e-06,-0.000110185,0.0828892,-27.032,-0.812364,26.5027,1.41784,3.18596,0.104477,0.90605,1.91338,1.44708,-1.22628,0.516654,0.517776,0.527919,0.228989,0.537273,-0.012274,0.0881595,-0.388512,0.105196,
0.0239389,-0.0517931,0.51462,-1.55873,-0.00797695,-0.0475692,0.533496,-0.00495703,0.000164319,-0.00483505,-0.00247249,-0.22462,-0.154423,-0.000354661,0,0,0,0,0,0,0,0.0240514,-0.0515028,0.514646,-1.55891,0.0380173,1.55679,1.31899,0.000904745,0.00707217,-0.00180181,-0.00204159,-0.183743,-0.0245911,0.000329299,-0.424923,-27.8056,-1.41142,26.9272,0.0985682,2.68151,0.0907442,0.634981,1.85946,1.71835,-1.15883,0.182521,0.568371,0.564985,-0.0163909,0.598491,0.121772,0.043183,-0.385516,0.103755,
0.0239186,-0.0517925,0.5146,-1.55874,-0.00884914,-0.0481701,0.533494,-0.00508162,0.000147796,-0.00495862,-0.0025924,-0.218048,-0.150209,-0.00036109,0,0,0,0,0,0,0,0.0240514,-0.0515028,0.514646,-1.55891,0.0380173,1.55679,1.31899,0.000904745,0.00707217,-0.00180181,-0.00204159,-0.183743,-0.0245911,0.000329299,-0.424923,-27.8056,-1.41142,26.9272,0.0985682,2.68151,0.0907442,1.41837,1.88049,1.67391,-1.27647,0.764045,0.353748,0.352131,0.306864,0.38763,0.00649096,-0.0513162,-0.408062,0.100958,
0.0238977,-0.051792,0.51458,-1.55876,-0.00969217,-0.0487518,0.533493,-0.00523206,0.00012948,-0.00510714,-0.00274431,-0.210757,-0.145441,-0.000368428,0,0,0,0,0,0,0,0.0240514,-0.0515028,0.514646,-1.55891,0.0380173,1.55679,1.31899,0.000904745,0.00707217,-0.00180181,-0.00204159,-0.183743,-0.0245911,0.000329299,-0.424923,-27.8056,-1.41142,26.9272,0.0985682,2.68151,0.0907442,1.41837,1.88049,1.67391,-1.27647,0.764045,0.353748,0.352131,0.306864,0.38763,0.00649096,-0.0513162,-0.408062,0.100958,
0.023876,-0.0517916,0.514559,-1.55877,-0.0105026,-0.0493119,0.533491,-0.00541669,0.000110453,-0.00528874,-0.00293523,-0.202598,-0.140009,-0.000376145,0,0,0,0,0,0,0,0.0240514,-0.0515028,0.514646,-1.55891,0.0380173,1.55679,1.31899,0.000904745,0.00707217,-0.00180181,-0.00204159,-0.183743,-0.0245911,0.000329299,-0.424923,-27.8056,-1.41142,26.9272,0.0985682,2.68151,0.0907442,1.33625,1.57879,1.91568,-1.0807,0.631156,0.239253,0.236342,0.199046,0.269766,0.0549343,-0.118887,-0.472003,0.0986038,
0.0238534,-0.0517912,0.514537,-1.55878,-0.0112761,-0.049847,0.53349,-0.00564646,9.19174e-05,-0.00551411,-0.00317347,-0.193383,-0.133785,-0.000383365,0,0,0,0,0,0,0,0.0240514,-0.0515028,0.514646,-1.55891,0.0380173,1.55679,1.31899,0.000904745,0.00707217,-0.00180181,-0.00204159,-0.183743,-0.0245911,0.000329299,-0.424923,-27.8056,-1.41142,26.9272,0.0985682,2.68151,0.0907442,1.33625,1.57879,1.91568,-1.0807,0.631156,0.239253,0.236342,0.199046,0.269766,0.0549343,-0.118887,-0.472003,0.0986038,
0.0238297,-0.0517909,0.514514,-1.55879,-0.0120076,-0.0503535,0.533488,-0.00593582,7.51146e-05,-0.00579739,-0.00346899,-0.18287,-0.126615,-0.000388827,0,0,0,0,0,0,0,0.0241059,-0.0515601,0.514647,-1.5589,0.0321525,1.55609,1.31899,-0.000714941,0.00174775,-0.00067619,-0.00128271,-0.169986,-0.0163484,0.00115446,-0.274166,-27.3335,-1.26067,26.7288,0.373226,2.74102,0.0641939,2.15051,1.37531,1.86487,-1.06406,1.27233,-0.0876604,-0.0863996,0.570307,-0.0586024,-0.102594,-0.226427,-0.541162,0.0973115,
0.0238044,-0.0517907,0.514489,-1.55881,-0.0126906,-0.0508267,0.533486,-0.00630412,6.11043e-05,-0.00615745,-0.00383403,-0.170747,-0.118316,-0.000389865,0,0,0,0,0,0,0,0.0241059,-0.0515601,0.514647,-1.5589,0.0321525,1.55609,1.31899,-0.000714941,0.00174775,-0.00067619,-0.00128271,-0.169986,-0.0163484,0.00115446,-0.274166,-27.3335,-1.26067,26.7288,0.373226,2.74102,0.0641939,2.15051,1.37531,1.86487,-1.06406,1.27233,-0.0876604,-0.0863996,0.570307,-0.0586024,-0.102594,-0.226427,-0.541162,0.0973115,
0.0237773,-0.0517905,0.514462,-1.55883,-0.013317,-0.0512614,0.533485,-0.00677755,4.99534e-05,-0.00661997,-0.00428482,-0.156605,-0.108669,-0.000381554,0,0,0,0,0,0,0,0.0241059,-0.0515601,0.514647,-1.5589,0.0321525,1.55609,1.31899,-0.000714941,0.00174775,-0.00067619,-0.00128271,-0.169986,-0.0163484,0.00115446,-0.274166,-27.3335,-1.26067,26.7288,0.373226,2.74102,0.0641939,1.92507,1.2475,1.98274,-1.00105,1.0849,-0.083386,-0.074402,0.457705,-0.062687,-0.0863496,-0.265635,-0.596768,0.0967567,
0.0237478,-0.0517903,0.514434,-1.55885,-0.0138766,-0.051651,0.533484,-0.00739292,3.81587e-05,-0.00722086,-0.00484696,-0.139899,-0.097403,-0.000353152,0,0,0,0,0,0,0,0.0241059,-0.0515601,0.514647,-1.5589,0.0321525,1.55609,1.31899,-0.000714941,0.00174775,-0.00067619,-0.00128271,-0.169986,-0.0163484,0.00115446,-0.274166,-27.3335,-1.26067,26.7288,0.373226,2.74102,0.0641939,1.68039,1.45079,2.01107,-1.13985,0.923631,0.0796071,0.105398,0.380112,0.0877914,-0.0864716,-0.240297,-0.622371,0.0961521,
0.0237149,-0.0517903,0.514402,-1.55887,-0.0143561,-0.0519876,0.533482,-0.00820505,1.00281e-05,-0.00801366,-0.00557349,-0.119874,-0.0841401,-0.000280088,0,0,0,0,0,0,0,0.0241059,-0.0515601,0.514647,-1.5589,0.0321525,1.55609,1.31899,-0.000714941,0.00174775,-0.00067619,-0.00128271,-0.169986,-0.0163484,0.00115446,-0.274166,-27.3335,-1.26067,26.7288,0.373226,2.74102,0.0641939,1.68039,1.45079,2.01107,-1.13985,0.923631,0.0796071,0.105398,0.380112,0.0877914,-0.0864716,-0.240297,-0.622371,0.0961521,
0.0236777,-0.0517906,0.514365,-1.55889,-0.0147377,-0.0522605,0.533482,-0.00930584,-9.12901e-05,-0.00908868,-0.00660596,-0.0953998,-0.0682383,-0.000151992,0,0,0,0,0,0,0,0.0241059,-0.0515601,0.514647,-1.5589,0.0321525,1.55609,1.31899,-0.000714941,0.00174775,-0.00067619,-0.00128271,-0.169986,-0.0163484,0.00115446,-0.274166,-27.3335,-1.26067,26.7288,0.373226,2.74102,0.0641939,2.05761,1.47993,2.00137,-1.18403,1.20731,-0.0143633,0.0305971,0.539473,-0.0228312,-0.132956,-0.262005,-0.627993,0.0951633,
0.0236396,-0.0517882,0.514328,-1.55892,-0.0150465,-0.0524863,0.533482,-0.00952398,0.000619992,-0.00939226,-0.00597066,-0.0772007,-0.0564421,-5.58602e-05,0,0,0,0,0,0,0,0.0240475,-0.0515758,0.514596,-1.5589,0.0270981,1.55582,1.31899,-0.0038355,-0.00270724,-0.00174597,0.0002535,-0.140918,-0.00897713,0.000698966,0.336795,-27.3335,-0.76079,26.7288,0.941769,2.91405,0.0843355,2.05761,1.47993,2.00137,-1.18403,1.20731,-0.0143633,0.0305971,0.539473,-0.0228312,-0.132956,-0.262005,-0.627993,0.0951633,
0.0236022,-0.0517827,0.514291,-1.55894,-0.0152991,-0.0526741,0.533482,-0.0093476,0.00137383,-0.009278,-0.00503616,-0.0631543,-0.0469589,-1.63277e-05,0,0,0,0,0,0,0,0.0240475,-0.0515758,0.514596,-1.5589,0.0270981,1.55582,1.31899,-0.0038355,-0.00270724,-0.00174597,0.0002535,-0.140918,-0.00897713,0.000698966,0.336795,-27.3335,-0.76079,26.7288,0.941769,2.91405,0.0843355,2.01344,1.55866,2.09319,-1.1627,1.13862,0.0355489,0.0950095,0.484725,0.0108655,-0.0666201,-0.212049,-0.597272,0.0951378,
0.0235664,-0.0517747,0.514255,-1.55895,-0.0155074,-0.0528306,0.533482,-0.0089629,0.00198145,-0.00893519,-0.00415834,-0.0520847,-0.0391025,-2.36785e-06,0,0,0,0,0,0,0,0.0240475,-0.0515758,0.514596,-1.5589,0.0270981,1.55582,1.31899,-0.0038355,-0.00270724,-0.00174597,0.0002535,-0.140918,-0.00897713,0.000698966,0.336795,-27.3335,-0.76079,26.7288,0.941769,2.91405,0.0843355,2.13694,1.48157,2.09929,-1.06686,1.23089,-0.034352,0.0347767,0.53444,-0.0717862,-0.0552946,-0.181743,-0.579861,0.0957643,
0.0235325,-0.0517651,0.514221,-1.55897,-0.0156804,-0.0529607,0.533482,-0.00846626,0.00241933,-0.00846601,-0.00340689,-0.0432363,-0.0325306,-4.89307e-09,0,0,0,0,0,0,0,0.0240475,-0.0515758,0.514596,-1.5589,0.0270981,1.55582,1.31899,-0.0038355,-0.00270724,-0.00174597,0.0002535,-0.140918,-0.00897713,0.000698966,0.336795,-27.3335,-0.76079,26.7288,0.941769,2.91405,0.0843355,1.68351,1.74851,2.04189,-1.21797,0.936431,0.218747,0.294558,0.392666,0.17793,-0.0351271,-0.11064,-0.569747,0.0947004,
0.0235009,-0.0517542,0.514189,-1.55898,-0.0158247,-0.0530688,0.533481,-0.0079145,0.00270726,-0.00793178,-0.00277654,-0.0360817,-0.027019,-3.37535e-06,0,0,0,0,0,0,0,0.023964,-0.0515641,0.514482,-1.55892,0.0228388,1.55567,1.31899,-0.00395857,-0.0023715,-0.00552672,-0.00290089,-0.127358,-0.00464256,-0.000190718,0.309024,-27.6073,-0.836168,26.951,1.11297,3.03948,0.0907442,1.68351,1.74851,2.04189,-1.21797,0.936431,0.218747,0.294558,0.392666,0.17793,-0.0351271,-0.11064,-0.569747,0.0947004,
0.0234715,-0.0517427,0.51416,-1.55899,-0.0159457,-0.0531583,0.533481,-0.00734331,0.00287313,-0.00737141,-0.0022468,-0.0302368,-0.0223952,-9.69686e-06,0,0,0,0,0,0,0,0.023964,-0.0515641,0.514482,-1.55892,0.0228388,1.55567,1.31899,-0.00395857,-0.0023715,-0.00552672,-0.00290089,-0.127358,-0.00464256,-0.000190718,0.309024,-27.6073,-0.836168,26.951,1.11297,3.03948,0.0907442,1.27616,1.79113,2.27261,-1.09195,0.54154,0.354938,0.433789,0.130153,0.304277,0.141725,-0.0206962,-0.51719,0.0965288,
0.0234444,-0.051731,0.514132,-1.559,-0.0160473,-0.0532324,0.533481,-0.00677549,0.00294317,-0.00680997,-0.00179768,-0.0254158,-0.0185165,-1.74649e-05,0,0,0,0,0,0,0,0.023964,-0.0515641,0.514482,-1.55892,0.0228388,1.55567,1.31899,-0.00395857,-0.0023715,-0.00552672,-0.00290089,-0.127358,-0.00464256,-0.000190718,0.309024,-27.6073,-0.836168,26.951,1.11297,3.03948,0.0907442,1.27616,1.79113,2.27261,-1.09195,0.54154,0.354938,0.433789,0.130153,0.304277,0.141725,-0.0206962,-0.51719,0.0965288,
0.0234195,-0.0517192,0.514107,-1.559,-0.0161329,-0.0532935,0.533481,-0.00622544,0.00293969,-0.00626339,-0.00141293,-0.0214032,-0.015263,-2.5797e-05,0,0,0,0,0,0,0,0.023964,-0.0515641,0.514482,-1.55892,0.0228388,1.55567,1.31899,-0.00395857,-0.0023715,-0.00552672,-0.00290089,-0.127358,-0.00464256,-0.000190718,0.309024,-27.6073,-0.836168,26.951,1.11297,3.03948,0.0907442,1.85631,1.68015,1.97999,-1.06292,1.08545,0.137059,0.220614,0.481143,0.0821778,-0.00729239,-0.0133264,-0.50496,0.0996539,
0.0233967,-0.0517077,0.514084,-1.55901,-0.0162051,-0.0533436,0.533481,-0.0057019,0.00288107,-0.00574147,-0.00107999,-0.0180352,-0.0125331,-3.41597e-05,0,0,0,0,0,0,0,0.023964,-0.0515641,0.514482,-1.55892,0.0228388,1.55567,1.31899,-0.00395857,-0.0023715,-0.00552672,-0.00290089,-0.127358,-0.00464256,-0.000190718,0.309024,-27.6073,-0.836168,26.951,1.11297,3.03948,0.0907442,1.48072,1.54213,2.17471,-0.839946,0.72891,0.181569,0.264851,0.245481,0.118193,0.144159,0.0496562,-0.469013,0.101044,
0.0233758,-0.0516966,0.514063,-1.55901,-0.0162658,-0.0533845,0.533481,-0.00520974,0.0027821,-0.00524979,-0.000789298,-0.015186,-0.0102413,-4.22346e-05,0,0,0,0,0,0,0,0.023964,-0.0515641,0.514482,-1.55892,0.0228388,1.55567,1.31899,-0.00395857,-0.0023715,-0.00552672,-0.00290089,-0.127358,-0.00464256,-0.000190718,0.309024,-27.6073,-0.836168,26.951,1.11297,3.03948,0.0907442,1.48072,1.54213,2.17471,-0.839946,0.72891,0.181569,0.264851,0.245481,0.118193,0.144159,0.0496562,-0.469013,0.101044,
0.0216614,-0.0495694,0.512115,-1.55958,-0.173245,-0.227673,0.53181,-0.0334904,0.0207496,-0.0346276,-0.0185882,-1.16007,-1.03392,-0.00661571,0,0,0,0,0,0,0,0.023866,-0.0515278,0.514333,-1.55895,0.0194464,1.55564,1.31898,-0.00600728,-0.000486223,-0.0020337,0.000653082,-0.0992422,-0.00182833,-0.00066521,0.412174,-27.9326,-0.713182,26.9788,0.850216,3.01293,0.110886,1.79534,1.58268,1.97471,-0.892728,1.04276,0.109478,0.192635,0.455449,0.0481159,0.0494991,0.0709514,-0.456239,0.102986,
0.0216375,-0.0504284,0.512008,-1.55926,-0.120477,-0.167296,0.532803,-0.0277201,0.00700376,-0.0282056,-0.0167899,-0.460943,-0.657908,-0.00256593,0,0,0,0,0,0,0,0.023866,-0.0515278,0.514333,-1.55895,0.0194464,1.55564,1.31898,-0.00600728,-0.000486223,-0.0020337,0.000653082,-0.0992422,-0.00182833,-0.00066521,0.412174,-27.9326,-0.713182,26.9788,0.850216,3.01293,0.110886,1.65156,1.74085,2.00104,-0.988482,0.93298,0.223205,0.307026,0.394788,0.163359,0.0676007,0.0917305,-0.454781,0.102085,
0.021523,-0.0504035,0.511892,-1.55933,-0.122178,-0.169771,0.532792,-0.028613,0.00621984,-0.0290946,-0.0181937,-0.425097,-0.618726,-0.00263804,0,0,0,0,0,0,0,0.023866,-0.0515278,0.514333,-1.55895,0.0194464,1.55564,1.31898,-0.00600728,-0.000486223,-0.0020337,0.000653082,-0.0992422,-0.00182833,-0.00066521,0.412174,-27.9326,-0.713182,26.9788,0.850216,3.01293,0.110886,1.65156,1.74085,2.00104,-0.988482,0.93298,0.223205,0.307026,0.394788,0.163359,0.0676007,0.0917305,-0.454781,0.102085,
0.0214044,-0.0503819,0.511771,-1.55941,-0.123717,-0.172059,0.532781,-0.0296645,0.00540276,-0.0301401,-0.0199341,-0.384872,-0.571992,-0.0027413,0,0,0,0,0,0,0,0.023866,-0.0515278,0.514333,-1.55895,0.0194464,1.55564,1.31898,-0.00600728,-0.000486223,-0.0020337,0.000653082,-0.0992422,-0.00182833,-0.00066521,0.412174,-27.9326,-0.713182,26.9788,0.850216,3.01293,0.110886,1.9984,3.58907,2.83861,-2.01437,0.833898,0.956599,1.04234,0.191079,0.915646,0.397332,0.223624,-0.326342,0.111784,
0.0212808,-0.0503636,0.511646,-1.5595,-0.125076,-0.174124,0.53277,-0.0308867,0.00456647,-0.0313537,-0.0220771,-0.339804,-0.516293,-0.00287566,0,0,0,0,0,0,0,0.023866,-0.0515278,0.514333,-1.55895,0.0194464,1.55564,1.31898,-0.00600728,-0.000486223,-0.0020337,0.000653082,-0.0992422,-0.00182833,-0.00066521,0.412174,-27.9326,-0.713182,26.9788,0.850216,3.01293,0.110886,1.9984,3.58907,2.83861,-2.01437,0.833898,0.956599,1.04234,0.191079,0.915646,0.397332,0.223624,-0.326342,0.111784,
0.0211517,-0.0503487,0.511515,-1.5596,-0.126234,-0.175924,0.532758,-0.0322867,0.00372893,-0.0327428,-0.0247065,-0.289453,-0.44995,-0.00293407,0,0,0,0,0,0,0,0.0239114,-0.0514892,0.514252,-1.5586,0.0125611,1.55258,1.31898,0.0228225,-0.00715276,0.00798407,0.0321736,-0.542197,-0.340014,-0.00622608,-1.61908,-27.5835,-2.36357,24.1144,-0.572513,1.26244,0.0907442,3.83253,4.78346,2.43578,-3.06781,2.32549,0.975405,1.04557,1.08728,0.981866,0.031558,0.153954,-0.310775,0.10854,
0.0210163,-0.0503371,0.511378,-1.55971,-0.127168,-0.177407,0.532753,-0.0338585,0.00291154,-0.0343162,-0.0279362,-0.233405,-0.370935,-0.00133043,0,0,0,0,0,0,0,0.0239114,-0.0514892,0.514252,-1.5586,0.0125611,1.55258,1.31898,0.0228225,-0.00715276,0.00798407,0.0321736,-0.542197,-0.340014,-0.00622608,-1.61908,-27.5835,-2.36357,24.1144,-0.572513,1.26244,0.0907442,3.83253,4.78346,2.43578,-3.06781,2.32549,0.975405,1.04557,1.08728,0.981866,0.031558,0.153954,-0.310775,0.10854,
0.020883,-0.0503177,0.511242,-1.55981,-0.127933,-0.178649,0.532748,-0.0333136,0.00483956,-0.0338945,-0.0254133,-0.191342,-0.31039,-0.00115033,0,0,0,0,0,0,0,0.0239114,-0.0514892,0.514252,-1.5586,0.0125611,1.55258,1.31898,0.0228225,-0.00715276,0.00798407,0.0321736,-0.542197,-0.340014,-0.00622608,-1.61908,-27.5835,-2.36357,24.1144,-0.572513,1.26244,0.0907442,1.67998,3.29656,2.94921,-2.19809,0.488873,0.898573,0.941502,-0.0424429,0.913128,0.314845,-0.176253,-0.492377,0.100167,
0.0207554,-0.0502899,0.511112,-1.5599,-0.128567,-0.179694,0.532744,-0.0319067,0.0069597,-0.0325778,-0.0217422,-0.158346,-0.261404,-0.00117769,0,0,0,0,0,0,0,0.0239114,-0.0514892,0.514252,-1.5586,0.0125611,1.55258,1.31898,0.0228225,-0.00715276,0.00798407,0.0321736,-0.542197,-0.340014,-0.00622608,-1.61908,-27.5835,-2.36357,24.1144,-0.572513,1.26244,0.0907442,2.87213,2.01567,3.21876,-1.52692,1.30718,-0.0307978,0.0114808,0.37269,-0.027363,0.157185,-0.486786,-0.697341,0.0940435,
0.0206349,-0.0502553,0.510989,-1.55997,-0.129094,-0.180578,0.532739,-0.0301137,0.00863289,-0.0308447,-0.0181941,-0.131841,-0.220904,-0.00124831,0,0,0,0,0,0,0,0.0239114,-0.0514892,0.514252,-1.5586,0.0125611,1.55258,1.31898,0.0228225,-0.00715276,0.00798407,0.0321736,-0.542197,-0.340014,-0.00622608,-1.61908,-27.5835,-2.36357,24.1144,-0.572513,1.26244,0.0907442,2.87213,2.01567,3.21876,-1.52692,1.30718,-0.0307978,0.0114808,0.37269,-0.027363,0.157185,-0.486786,-0.697341,0.0940435,
0.0205223,-0.0502162,0.510873,-1.56003,-0.129535,-0.181327,0.532733,-0.0281571,0.00977546,-0.0289262,-0.0150592,-0.110227,-0.187141,-0.00132641,0,0,0,0,0,0,0,0.0240694,-0.0517834,0.51433,-1.55806,-0.00743879,1.53318,1.31896,-0.00315124,-0.00278281,0.000648804,-0.00725608,-0.394769,-0.437557,0.00168172,-0.95654,-27.0836,-2.03826,26.6058,0.410763,1.80627,0.0907442,2.43774,0.959695,4.06031,-0.703046,0.830531,-0.396478,-0.359264,0.0290195,-0.411617,0.326885,-0.553757,-0.936052,0.0897639,
0.0204177,-0.0501744,0.510765,-1.56008,-0.129904,-0.181962,0.532728,-0.0261574,0.0104513,-0.0269496,-0.0123533,-0.0924016,-0.1589,-0.00140164,0,0,0,0,0,0,0,0.0240694,-0.0517834,0.51433,-1.55806,-0.00743879,1.53318,1.31896,-0.00315124,-0.00278281,0.000648804,-0.00725608,-0.394769,-0.437557,0.00168172,-0.95654,-27.0836,-2.03826,26.6058,0.410763,1.80627,0.0907442,2.43774,0.959695,4.06031,-0.703046,0.830531,-0.396478,-0.359264,0.0290195,-0.411617,0.326885,-0.553757,-0.936052,0.0897639,
0.0203209,-0.0501314,0.510665,-1.56012,-0.130215,-0.182503,0.532722,-0.0241856,0.010752,-0.0249911,-0.0100251,-0.0775585,-0.135237,-0.00147083,0,0,0,0,0,0,0,0.0240694,-0.0517834,0.51433,-1.55806,-0.00743879,1.53318,1.31896,-0.00315124,-0.00278281,0.000648804,-0.00725608,-0.394769,-0.437557,0.00168172,-0.95654,-27.0836,-2.03826,26.6058,0.410763,1.80627,0.0907442,1.93513,0.461012,3.9413,-0.46968,0.723949,-0.490142,-0.450908,0.088065,-0.510738,0.0959232,-0.537125,-1.19291,0.0885323,
0.0202318,-0.0500884,0.510573,-1.56015,-0.130475,-0.182965,0.532716,-0.0222849,0.0107633,-0.0230972,-0.00801576,-0.0650921,-0.115388,-0.00153316,0,0,0,0,0,0,0,0.0240694,-0.0517834,0.51433,-1.55806,-0.00743879,1.53318,1.31896,-0.00315124,-0.00278281,0.000648804,-0.00725608,-0.394769,-0.437557,0.00168172,-0.95654,-27.0836,-2.03826,26.6058,0.410763,1.80627,0.0907442,1.86277,-0.407003,3.52848,-0.102582,0.947565,-0.869682,-0.8158,0.334258,-0.908257,-0.218853,-0.6433,-1.3989,0.0848501,
0.0201499,-0.0500461,0.510487,-1.56018,-0.130693,-0.18336,0.532709,-0.0204808,0.0105573,-0.021296,-0.00627339,-0.0545397,-0.0987227,-0.00158869,0,0,0,0,0,0,0,0.0240694,-0.0517834,0.51433,-1.55806,-0.00743879,1.53318,1.31896,-0.00315124,-0.00278281,0.000648804,-0.00725608,-0.394769,-0.437557,0.00168172,-0.95654,-27.0836,-2.03826,26.6058,0.410763,1.80627,0.0907442,1.86277,-0.407003,3.52848,-0.102582,0.947565,-0.869682,-0.8158,0.334258,-0.908257,-0.218853,-0.6433,-1.3989,0.0848501,
0.0200747,-0.0500054,0.510409,-1.5602,-0.130875,-0.183698,0.532703,-0.0187872,0.0101928,-0.0196029,-0.00475514,-0.0455434,-0.0847147,-0.00163784,0,0,0,0,0,0,0,0.0240694,-0.0517834,0.51433,-1.55806,-0.00743879,1.53318,1.31896,-0.00315124,-0.00278281,0.000648804,-0.00725608,-0.394769,-0.437557,0.00168172,-0.95654,-27.0836,-2.03826,26.6058,0.410763,1.80627,0.0907442,1.75982,-0.394088,3.15713,-0.250055,1.09386,-0.836354,-0.769934,0.518624,-0.879949,-0.447216,-0.643107,-1.49626,0.0816749,
0.0200059,-0.0499665,0.510337,-1.56021,-0.131027,-0.18399,0.532696,-0.0172103,0.0097166,-0.0180252,-0.0034263,-0.0378241,-0.0729274,-0.00168117,0,0,0,0,0,0,0,0.0239907,-0.0518277,0.514241,-1.5581,-0.0166414,1.52277,1.31896,-0.00485495,-0.00437578,-0.00604182,-0.00205704,-0.270059,-0.290215,-0.00117904,0.00751081,-26.9328,-1.0623,26.6058,0.514218,2.02508,0.11821,1.75982,-0.394088,3.15713,-0.250055,1.09386,-0.836354,-0.769934,0.518624,-0.879949,-0.447216,-0.643107,-1.49626,0.0816749,
0.0199429,-0.0499298,0.510271,-1.56022,-0.131151,-0.184242,0.532689,-0.0157512,0.00916566,-0.0165647,-0.00225872,-0.0311619,-0.0629969,-0.00171925,0,0,0,0,0,0,0,0.0239907,-0.0518277,0.514241,-1.5581,-0.0166414,1.52277,1.31896,-0.00485495,-0.00437578,-0.00604182,-0.00205704,-0.270059,-0.290215,-0.00117904,0.00751081,-26.9328,-1.0623,26.6058,0.514218,2.02508,0.11821,1.82832,0.341795,2.90194,-0.777904,1.34777,-0.523432,-0.449754,0.756584,-0.560141,-0.626901,-0.509578,-1.53913,0.0805806,
0.0198852,-0.0498956,0.51021,-1.56022,-0.131253,-0.184461,0.532682,-0.0144075,0.00856875,-0.0152192,-0.00122941,-0.0253819,-0.0546197,-0.00175268,0,0,0,0,0,0,0,0.0239907,-0.0518277,0.514241,-1.5581,-0.0166414,1.52277,1.31896,-0.00485495,-0.00437578,-0.00604182,-0.00205704,-0.270059,-0.290215,-0.00117904,0.00751081,-26.9328,-1.0623,26.6058,0.514218,2.02508,0.11821,1.82832,0.341795,2.90194,-0.777904,1.34777,-0.523432,-0.449754,0.756584,-0.560141,-0.626901,-0.509578,-1.53913,0.0805806,
0.0198325,-0.0498638,0.510154,-1.56022,-0.131334,-0.184651,0.532675,-0.0131745,0.00794811,-0.0139845,-0.000319411,-0.0203441,-0.047543,-0.00178199,0,0,0,0,0,0,0,0.0239907,-0.0518277,0.514241,-1.5581,-0.0166414,1.52277,1.31896,-0.00485495,-0.00437578,-0.00604182,-0.00205704,-0.270059,-0.290215,-0.00117904,0.00751081,-26.9328,-1.0623,26.6058,0.514218,2.02508,0.11821,2.26709,0.943415,2.86607,-1.20647,1.76528,-0.377763,-0.29373,1.03369,-0.413129,-0.752341,-0.441867,-1.582,0.0794034,
0.0197844,-0.0498345,0.510102,-1.56022,-0.131398,-0.184817,0.532668,-0.0120464,0.0073207,-0.0128549,0.000487045,-0.0159353,-0.0415561,-0.00180769,0,0,0,0,0,0,0,0.0239907,-0.0518277,0.514241,-1.5581,-0.0166414,1.52277,1.31896,-0.00485495,-0.00437578,-0.00604182,-0.00205704,-0.270059,-0.290215,-0.00117904,0.00751081,-26.9328,-1.0623,26.6058,0.514218,2.02508,0.11821,1.66758,0.80398,3.1813,-0.981985,1.2549,-0.278924,-0.192165,0.718716,-0.325827,-0.600915,-0.371758,-1.6132,0.0804685,
0.0197403,-0.0498077,0.510055,-1.56022,-0.131446,-0.184963,0.53266,-0.0110166,0.00669922,-0.0118237,0.0012032,-0.012063,-0.0364834,-0.00183022,0,0,0,0,0,0,0,0.0237893,-0.0517864,0.514006,-1.55808,-0.0246771,1.5155,1.31896,-0.00352982,0.00268141,-0.00627004,0.00317795,-0.234613,-0.183684,0.000529507,0.0551182,-27.6073,-0.986925,26.3043,0.269772,1.81267,0.0779268,1.66758,0.80398,3.1813,-0.981985,1.2549,-0.278924,-0.192165,0.718716,-0.325827,-0.600915,-0.371758,-1.6132,0.0804685,
0.0197,-0.0497833,0.510012,-1.56021,-0.131481,-0.185092,0.532653,-0.0100783,0.006093,-0.0108842,0.00184028,-0.00865127,-0.0321782,-0.00185,0,0,0,0,0,0,0,0.0237893,-0.0517864,0.514006,-1.55808,-0.0246771,1.5155,1.31896,-0.00352982,0.00268141,-0.00627004,0.00317795,-0.234613,-0.183684,0.000529507,0.0551182,-27.6073,-0.986925,26.3043,0.269772,1.81267,0.0779268,1.53282,0.650522,2.97763,-0.909949,1.26086,-0.314201,-0.225065,0.769008,-0.364567,-0.682786,-0.35285,-1.63829,0.0802535,
0.0196631,-0.0497613,0.509972,-1.5602,-0.131503,-0.185206,0.532646,-0.00922453,0.00550869,-0.0100295,0.00240784,-0.00563711,-0.0285182,-0.00186737,0,0,0,0,0,0,0,0.0237893,-0.0517864,0.514006,-1.55808,-0.0246771,1.5155,1.31896,-0.00352982,0.00268141,-0.00627004,0.00317795,-0.234613,-0.183684,0.000529507,0.0551182,-27.6073,-0.986925,26.3043,0.269772,1.81267,0.0779268,1.53282,0.650522,2.97763,-0.909949,1.26086,-0.314201,-0.225065,0.769008,-0.364567,-0.682786,-0.35285,-1.63829,0.0802535,
0.0196293,-0.0497415,0.509935,-1.56019,-0.131515,-0.185307,0.532638,-0.00844859,0.00495083,-0.00925269,0.00291412,-0.00296785,-0.0254015,-0.00188263,0,0,0,0,0,0,0,0.0237893,-0.0517864,0.514006,-1.55808,-0.0246771,1.5155,1.31896,-0.00352982,0.00268141,-0.00627004,0.00317795,-0.234613,-0.183684,0.000529507,0.0551182,-27.6073,-0.986925,26.3043,0.269772,1.81267,0.0779268,1.04775,0.834155,3.20393,-0.814719,0.675218,-0.089084,0.000988856,0.341179,-0.148094,-0.352023,-0.264018,-1.43036,0.082413,
0.0195983,-0.0497238,0.5099,-1.56018,-0.131518,-0.185398,0.53263,-0.00774405,0.00442234,-0.00854746,0.00336622,-0.000599196,-0.0227426,-0.00189608,0,0,0,0,0,0,0,0.0237893,-0.0517864,0.514006,-1.55808,-0.0246771,1.5155,1.31896,-0.00352982,0.00268141,-0.00627004,0.00317795,-0.234613,-0.183684,0.000529507,0.0551182,-27.6073,-0.986925,26.3043,0.269772,1.81267,0.0779268,1.04775,0.834155,3.20393,-0.814719,0.675218,-0.089084,0.000988856,0.341179,-0.148094,-0.352023,-0.264018,-1.43036,0.082413,
0.0195699,-0.0497081,0.509869,-1.56016,-0.131512,-0.18548,0.532623,-0.00710482,0.00392485,-0.00790766,0.00377032,0.00150642,-0.0204702,-0.00190792,0,0,0,0,0,0,0,0.0237893,-0.0517864,0.514006,-1.55808,-0.0246771,1.5155,1.31896,-0.00352982,0.00268141,-0.00627004,0.00317795,-0.234613,-0.183684,0.000529507,0.0551182,-27.6073,-0.986925,26.3043,0.269772,1.81267,0.0779268,0.219014,1.28528,3.5351,-0.676586,-0.27101,0.368318,0.456032,-0.335817,0.297177,0.204874,-0.0142327,-1.0552,0.0790721,
0.0195438,-0.0496942,0.509839,-1.56014,-0.131498,-0.185554,0.532615,-0.00652522,0.00345902,-0.00732756,0.00413183,0.00338101,-0.0185246,-0.00191838,0,0,0,0,0,0,0,0.0236026,-0.0515587,0.513738,-1.55819,-0.0319975,1.50892,1.31894,-0.00863269,0.0125332,-0.00816357,-0.00402234,-0.271854,-0.269964,0.000212448,0.562931,-28.5555,-0.510851,26.9788,1.10656,2.66869,0.138352,0.289868,2.39158,3.2268,-1.19252,-0.234327,0.856815,0.948611,-0.31923,0.788791,0.350069,0.260468,-0.734758,0.0878276,
-0.00631668,-0.0380314,0.482526,-1.57362,-0.176673,-0.232945,0.519859,-0.19875,0.10497,-0.208079,-0.0929083,-1.24064,-1.31597,-0.0559606,0,0,0,0,0,0,0,0.0236026,-0.0515587,0.513738,-1.55819,-0.0319975,1.50892,1.31894,-0.00863269,0.0125332,-0.00816357,-0.00402234,-0.271854,-0.269964,0.000212448,0.562931,-28.5555,-0.510851,26.9788,1.10656,2.66869,0.138352,0.289868,2.39158,3.2268,-1.19252,-0.234327,0.856815,0.948611,-0.31923,0.788791,0.350069,0.260468,-0.734758,0.0878276,
-1.81462e-05,-0.0434919,0.489034,-1.56885,-0.213641,-0.169007,0.527022,-0.177211,0.0472138,-0.183474,-0.0633034,-0.472382,0.237708,-0.017327,0,0,0,0,0,0,0,0.0236026,-0.0515587,0.513738,-1.55819,-0.0319975,1.50892,1.31894,-0.00863269,0.0125332,-0.00816357,-0.00402234,-0.271854,-0.269964,0.000212448,0.562931,-28.5555,-0.510851,26.9788,1.10656,2.66869,0.138352,0.73483,3.00961,3.17827,-1.44618,0.0132102,1.01828,1.11148,-0.218808,0.951187,0.470065,0.400854,-0.52577,0.0898114,
-0.000733404,-0.043311,0.488294,-1.5691,-0.215112,-0.167823,0.526955,-0.178814,0.0452082,-0.185076,-0.0625064,-0.367674,0.295852,-0.0167879,0,0,0,0,0,0,0,0.0236026,-0.0515587,0.513738,-1.55819,-0.0319975,1.50892,1.31894,-0.00863269,0.0125332,-0.00816357,-0.00402234,-0.271854,-0.269964,0.000212448,0.562931,-28.5555,-0.510851,26.9788,1.10656,2.66869,0.138352,0.73483,3.00961,3.17827,-1.44618,0.0132102,1.01828,1.11148,-0.218808,0.951187,0.470065,0.400854,-0.52577,0.0898114,
-0.00145479,-0.0431388,0.487547,-1.56934,-0.21613,-0.166401,0.526889,-0.180346,0.0430684,-0.186597,-0.0617535,-0.254592,0.35563,-0.0163142,0,0,0,0,0,0,0,0.0236026,-0.0515587,0.513738,-1.55819,-0.0319975,1.50892,1.31894,-0.00863269,0.0125332,-0.00816357,-0.00402234,-0.271854,-0.269964,0.000212448,0.562931,-28.5555,-0.510851,26.9788,1.10656,2.66869,0.138352,0.744276,3.79079,3.2951,-1.82865,-0.127913,1.37715,1.46867,-0.358818,1.31808,0.660507,0.507232,-0.340307,0.0884373,
-0.00218177,-0.0429755,0.486795,-1.56959,-0.216662,-0.164734,0.526826,-0.181745,0.0408184,-0.187977,-0.0610162,-0.132988,0.416686,-0.0159182,0,0,0,0,0,0,0,0.023087,-0.0515464,0.513102,-1.55836,-0.0424564,1.49706,1.31881,-0.0232577,0.00428362,-0.0417517,0.00948454,-0.497887,-0.530878,-0.0161893,-3.82489,-26.1116,-4.83519,23.1662,-1.24451,1.26244,0.185044,0.744276,3.79079,3.2951,-1.82865,-0.127913,1.37715,1.46867,-0.358818,1.31808,0.660507,0.507232,-0.340307,0.0884373,
-0.00291326,-0.0428214,0.486039,-1.56983,-0.216676,-0.162821,0.526763,-0.182872,0.0385131,-0.189079,-0.0602307,-0.00339784,0.478268,-0.0156222,0,0,0,0,0,0,0,0.023087,-0.0515464,0.513102,-1.55836,-0.0424564,1.49706,1.31881,-0.0232577,0.00428362,-0.0417517,0.00948454,-0.497887,-0.530878,-0.0161893,-3.82489,-26.1116,-4.83519,23.1662,-1.24451,1.26244,0.185044,0.717117,5.72125,1.80539,-3.52941,0.42723,2.27999,2.35997,0.228696,2.28431,0.0647056,0.620728,-0.279893,0.0753019,
-0.00364707,-0.0426764,0.485281,-1.57006,-0.216146,-0.160665,0.526702,-0.183453,0.0362611,-0.189632,-0.0592682,0.13232,0.538942,-0.0154506,0,0,0,0,0,0,0,0.023087,-0.0515464,0.513102,-1.55836,-0.0424564,1.49706,1.31881,-0.0232577,0.00428362,-0.0417517,0.00948454,-0.497887,-0.530878,-0.0161893,-3.82489,-26.1116,-4.83519,23.1662,-1.24451,1.26244,0.185044,-0.0647472,2.18146,1.53199,-1.42006,-0.0962532,0.901966,0.958986,-0.0576227,0.88224,-0.0368065,0.158271,-0.520864,0.0543049,
-0.00437903,-0.0425394,0.484524,-1.5703,-0.215066,-0.158281,0.52664,-0.18299,0.0342593,-0.189146,-0.0578848,0.269982,0.596147,-0.0154637,0,0,0,0,0,0,0,0.023087,-0.0515464,0.513102,-1.55836,-0.0424564,1.49706,1.31881,-0.0232577,0.00428362,-0.0417517,0.00948454,-0.497887,-0.530878,-0.0161893,-3.82489,-26.1116,-4.83519,23.1662,-1.24451,1.26244,0.185044,-0.0647472,2.18146,1.53199,-1.42006,-0.0962532,0.901966,0.958986,-0.0576227,0.88224,-0.0368065,0.158271,-0.520864,0.0543049,
-0.00510157,-0.042408,0.483777,-1.57052,-0.21346,-0.155698,0.526577,-0.180634,0.0328449,-0.186786,-0.0556432,0.401656,0.645598,-0.0157813,0,0,0,0,0,0,0,0.023087,-0.0515464,0.513102,-1.55836,-0.0424564,1.49706,1.31881,-0.0232577,0.00428362,-0.0417517,0.00948454,-0.497887,-0.530878,-0.0161893,-3.82489,-26.1116,-4.83519,23.1662,-1.24451,1.26244,0.185044,2.36908,0.780017,1.78177,-0.581379,1.35072,-0.384833,-0.318319,0.570228,-0.431863,0.0014108,-0.245622,-0.420036,0.0359888,
-0.00580177,-0.0422777,0.483052,-1.57073,-0.211404,-0.152976,0.52651,-0.175051,0.0325781,-0.181229,-0.0517711,0.514013,0.680569,-0.0166733,0,0,0,0,0,0,0,0.0219294,-0.0521156,0.511724,-1.55982,-0.0589652,1.48625,1.31836,-0.0381857,-0.0337339,-0.0640727,-0.0874308,-0.393287,-0.187649,-0.0124637,-3.54321,-24.4136,-4.41069,27.7008,0.948178,4.33953,0.050461,2.36908,0.780017,1.78177,-0.581379,1.35072,-0.384833,-0.318319,0.570228,-0.431863,0.0014108,-0.245622,-0.420036,0.0359888,
-0.00645887,-0.0421399,0.48237,-1.5709,-0.209056,-0.150213,0.526435,-0.164275,0.0344487,-0.170523,-0.04476,0.586921,0.690846,-0.0187587,0,0,0,0,0,0,0,0.0219294,-0.0521156,0.511724,-1.55982,-0.0589652,1.48625,1.31836,-0.0381857,-0.0337339,-0.0640727,-0.0874308,-0.393287,-0.187649,-0.0124637,-3.54321,-24.4136,-4.41069,27.7008,0.948178,4.33953,0.050461,3.79025,1.32539,2.31244,-0.59429,2.03762,-0.509282,-0.446199,0.779758,-0.561396,0.344093,-0.103351,-0.122417,0.028523,
-0.0070405,-0.0419772,0.481763,-1.57103,-0.206689,-0.147576,0.526345,-0.145407,0.040667,-0.151773,-0.0308117,0.591764,0.659181,-0.0225254,0,0,0,0,0,0,0,0.0219294,-0.0521156,0.511724,-1.55982,-0.0589652,1.48625,1.31836,-0.0381857,-0.0337339,-0.0640727,-0.0874308,-0.393287,-0.187649,-0.0124637,-3.54321,-24.4136,-4.41069,27.7008,0.948178,4.33953,0.050461,3.32679,0.647714,2.16841,-0.150983,1.78168,-0.675896,-0.620588,0.673378,-0.73159,0.310799,-0.112256,-0.177085,0.0151882,
-0.00749429,-0.0417465,0.481284,-1.57102,-0.204751,-0.14539,0.526292,-0.113447,0.05767,-0.119584,0.00199114,0.484433,0.546353,-0.0132315,0,0,0,0,0,0,0,0.0219294,-0.0521156,0.511724,-1.55982,-0.0589652,1.48625,1.31836,-0.0381857,-0.0337339,-0.0640727,-0.0874308,-0.393287,-0.187649,-0.0124637,-3.54321,-24.4136,-4.41069,27.7008,0.948178,4.33953,0.050461,3.32679,0.647714,2.16841,-0.150983,1.78168,-0.675896,-0.620588,0.673378,-0.73159,0.310799,-0.112256,-0.177085,0.0151882,
-0.00786631,-0.041517,0.480891,-1.57099,-0.203077,-0.143475,0.526238,-0.093006,0.0573753,-0.0984211,0.00659879,0.418535,0.478776,-0.0134445,0,0,0,0,0,0,0,0.0219294,-0.0521156,0.511724,-1.55982,-0.0589652,1.48625,1.31836,-0.0381857,-0.0337339,-0.0640727,-0.0874308,-0.393287,-0.187649,-0.0124637,-3.54321,-24.4136,-4.41069,27.7008,0.948178,4.33953,0.050461,3.76261,-1.27753,1.48157,0.818217,2.22859,-1.65086,-1.60048,0.968933,-1.71851,0.0505652,-0.470063,-0.22842,0.0053777,
-0.00818003,-0.0413072,0.480558,-1.57098,-0.201572,-0.141752,0.526182,-0.0784307,0.0524506,-0.0833051,0.00411449,0.376339,0.430704,-0.0138927,0,0,0,0,0,0,0,0.0219294,-0.0521156,0.511724,-1.55982,-0.0589652,1.48625,1.31836,-0.0381857,-0.0337339,-0.0640727,-0.0874308,-0.393287,-0.187649,-0.0124637,-3.54321,-24.4136,-4.41069,27.7008,0.948178,4.33953,0.050461,3.76261,-1.27753,1.48157,0.818217,2.22859,-1.65086,-1.60048,0.968933,-1.71851,0.0505652,-0.470063,-0.22842,0.0053777,
-0.00844987,-0.0411203,0.48027,-1.57097,-0.200175,-0.140179,0.526126,-0.0674582,0.0467202,-0.0719458,0.00056333,0.349116,0.393324,-0.0141718,0,0,0,0,0,0,0,0.0187725,-0.0525595,0.508068,-1.5628,-0.063383,1.48484,1.31816,-0.0906165,0.00518174,-0.0984516,-0.0368811,0.0253207,0.00138314,-0.00126453,-0.452694,-26.9606,-1.36382,27.6254,0.148007,3.51006,0.017502,2.38395,-0.979734,1.21928,0.673695,1.23494,-1.11978,-1.08211,0.435394,-1.17298,0.186846,-0.366498,-0.104272,0.00515224,
-0.00868562,-0.0409552,0.480017,-1.57098,-0.198848,-0.138727,0.526068,-0.0589384,0.0412972,-0.0631521,-0.00252072,0.331842,0.363154,-0.0143504,0,0,0,0,0,0,0,0.0187725,-0.0525595,0.508068,-1.5628,-0.063383,1.48484,1.31816,-0.0906165,0.00518174,-0.0984516,-0.0368811,0.0253207,0.00138314,-0.00126453,-0.452694,-26.9606,-1.36382,27.6254,0.148007,3.51006,0.017502,2.38395,-0.979734,1.21928,0.673695,1.23494,-1.11978,-1.08211,0.435394,-1.17298,0.186846,-0.366498,-0.104272,0.00515224,
-0.00889436,-0.0408093,0.479792,-1.571,-0.197563,-0.137373,0.52601,-0.0521852,0.0364624,-0.0562054,-0.00489042,0.321316,0.338464,-0.0144727,0,0,0,0,0,0,0,0.0187725,-0.0525595,0.508068,-1.5628,-0.063383,1.48484,1.31816,-0.0906165,0.00518174,-0.0984516,-0.0368811,0.0253207,0.00138314,-0.00126453,-0.452694,-26.9606,-1.36382,27.6254,0.148007,3.51006,0.017502,3.34463,0.713897,0.441767,-0.648867,2.28914,-0.598469,-0.558318,1.18345,-0.615759,-0.226974,-0.225134,-0.054483,0.000811167,
-0.00908134,-0.0406803,0.47959,-1.57103,-0.196301,-0.1361,0.525952,-0.0467448,0.0322425,-0.0506282,-0.00662953,0.315379,0.318169,-0.0145603,0,0,0,0,0,0,0,0.0187725,-0.0525595,0.508068,-1.5628,-0.063383,1.48484,1.31816,-0.0906165,0.00518174,-0.0984516,-0.0368811,0.0253207,0.00138314,-0.00126453,-0.452694,-26.9606,-1.36382,27.6254,0.148007,3.51006,0.017502,3.45542,0.496428,0.185678,-0.600516,2.45479,-0.720002,-0.681438,1.31235,-0.734605,-0.339641,-0.28215,-0.0698984,-0.00225351,
-0.00925054,-0.040566,0.479406,-1.57106,-0.195051,-0.134894,0.525894,-0.0422998,0.0285901,-0.0460862,-0.00787831,0.312538,0.30147,-0.014625,0,0,0,0,0,0,0,0.0187725,-0.0525595,0.508068,-1.5628,-0.063383,1.48484,1.31816,-0.0906165,0.00518174,-0.0984516,-0.0368811,0.0253207,0.00138314,-0.00126453,-0.452694,-26.9606,-1.36382,27.6254,0.148007,3.51006,0.017502,3.45542,0.496428,0.185678,-0.600516,2.45479,-0.720002,-0.681438,1.31235,-0.734605,-0.339641,-0.28215,-0.0698984,-0.00225351,
-0.00940502,-0.0404642,0.479236,-1.5711,-0.193804,-0.133743,0.525835,-0.0386209,0.0254403,-0.0423382,-0.00876228,0.311754,0.287733,-0.0146738,0,0,0,0,0,0,0,0.0160208,-0.051891,0.504948,-1.56299,-0.0636721,1.48509,1.31813,-0.0875977,0.0290277,-0.106434,0.0036364,-0.00557127,0.0141872,-0.00429564,0.892215,-28.0834,-0.0863513,25.8798,0.526119,2.8875,-0.0365141,1.40653,0.332003,0.163834,-0.36217,0.993041,-0.236995,-0.210714,0.529321,-0.24934,-0.153918,-0.136031,-0.07156,0.000699774,
-0.00954718,-0.0403733,0.479079,-1.57113,-0.192555,-0.132637,0.525776,-0.0355399,0.0227276,-0.0392078,-0.00937949,0.312299,0.276438,-0.0147115,0,0,0,0,0,0,0,0.0160208,-0.051891,0.504948,-1.56299,-0.0636721,1.48509,1.31813,-0.0875977,0.0290277,-0.106434,0.0036364,-0.00557127,0.0141872,-0.00429564,0.892215,-28.0834,-0.0863513,25.8798,0.526119,2.8875,-0.0365141,1.40653,0.332003,0.163834,-0.36217,0.993041,-0.236995,-0.210714,0.529321,-0.24934,-0.153918,-0.136031,-0.07156,0.000699774,
-0.00967891,-0.0402917,0.478933,-1.57117,-0.1913,-0.131569,0.525717,-0.0329321,0.0203923,-0.0365641,-0.00980314,0.313669,0.267156,-0.0147413,0,0,0,0,0,0,0,0.0160208,-0.051891,0.504948,-1.56299,-0.0636721,1.48509,1.31813,-0.0875977,0.0290277,-0.106434,0.0036364,-0.00557127,0.0141872,-0.00429564,0.892215,-28.0834,-0.0863513,25.8798,0.526119,2.8875,-0.0365141,0.0535392,1.21041,-0.485141,-1.00462,0.346728,0.53697,0.562006,0.338613,0.542843,-0.332442,0.081081,-0.0864769,-0.000945114,
-0.00980173,-0.0402182,0.478796,-1.57121,-0.190038,-0.130531,0.525658,-0.0307035,0.0183812,-0.0343094,-0.010087,0.315512,0.259531,-0.0147653,0,0,0,0,0,0,0,0.0160208,-0.051891,0.504948,-1.56299,-0.0636721,1.48509,1.31813,-0.0875977,0.0290277,-0.106434,0.0036364,-0.00557127,0.0141872,-0.00429564,0.892215,-28.0834,-0.0863513,25.8798,0.526119,2.8875,-0.0365141,-0.920621,1.22217,-0.720973,-1.00987,-0.222662,0.804291,0.829482,0.0932699,0.809766,-0.367037,0.169813,-0.120469,-0.000314434,
-0.00991686,-0.0401516,0.478666,-1.57126,-0.188768,-0.129518,0.525599,-0.0287828,0.016648,-0.0323695,-0.0102701,0.317591,0.253267,-0.0147852,0,0,0,0,0,0,0,0.0160208,-0.051891,0.504948,-1.56299,-0.0636721,1.48509,1.31813,-0.0875977,0.0290277,-0.106434,0.0036364,-0.00557127,0.0141872,-0.00429564,0.892215,-28.0834,-0.0863513,25.8798,0.526119,2.8875,-0.0365141,-0.920621,1.22217,-0.720973,-1.00987,-0.222662,0.804291,0.829482,0.0932699,0.809766,-0.367037,0.169813,-0.120469,-0.000314434,
-0.0100253,-0.040091,0.478544,-1.5713,-0.187489,-0.128525,0.52554,-0.0271155,0.0151525,-0.0306878,-0.0103813,0.319745,0.24812,-0.0148019,0,0,0,0,0,0,0,0.0160208,-0.051891,0.504948,-1.56299,-0.0636721,1.48509,1.31813,-0.0875977,0.0290277,-0.106434,0.0036364,-0.00557127,0.0141872,-0.00429564,0.892215,-28.0834,-0.0863513,25.8798,0.526119,2.8875,-0.0365141,-0.831952,0.352398,-0.54898,-0.371722,-0.248083,0.379208,0.407017,0.0332159,0.364966,-0.280702,0.101687,-0.132251,-0.00029202,
-0.010128,-0.0400356,0.478427,-1.57134,-0.186201,-0.12755,0.525481,-0.0256591,0.0138604,-0.0292204,-0.0104413,0.321866,0.243888,-0.0148163,0,0,0,0,0,0,0,0.0134315,-0.0509486,0.501338,-1.56306,-0.0646618,1.48561,1.3181,-0.0795811,0.0315603,-0.103541,-0.00565067,-0.0187451,0.0183496,0.000963917,0.741459,-29.0791,-0.16173,26.9788,0.452877,2.66869,-0.0429228,-0.831952,0.352398,-0.54898,-0.371722,-0.248083,0.379208,0.407017,0.0332159,0.364966,-0.280702,0.101687,-0.132251,-0.00029202,
-0.0102255,-0.0399846,0.478315,-1.57138,-0.184906,-0.126588,0.525421,-0.0243801,0.0127422,-0.0279329,-0.0104653,0.323888,0.240404,-0.0148288,0,0,0,0,0,0,0,0.0134315,-0.0509486,0.501338,-1.56306,-0.0646618,1.48561,1.3181,-0.0795811,0.0315603,-0.103541,-0.00565067,-0.0187451,0.0183496,0.000963917,0.741459,-29.0791,-0.16173,26.9788,0.452877,2.66869,-0.0429228,-1.1376,0.170205,0.250137,-0.0502003,-0.73113,0.368095,0.400451,-0.351526,0.336654,0.0108183,0.128529,-0.180558,-0.00228267,
-0.0278635,-0.0273344,0.459793,-1.57965,-0.21775,-0.269768,0.514668,-0.329013,0.168249,-0.343656,-0.134776,-1.24309,-1.11293,-0.0709629,0,0,0,0,0,0,0,0.0134315,-0.0509486,0.501338,-1.56306,-0.0646618,1.48561,1.3181,-0.0795811,0.0315603,-0.103541,-0.00565067,-0.0187451,0.0183496,0.000963917,0.741459,-29.0791,-0.16173,26.9788,0.452877,2.66869,-0.0429228,-1.1376,0.170205,0.250137,-0.0502003,-0.73113,0.368095,0.400451,-0.351526,0.336654,0.0108183,0.128529,-0.180558,-0.00228267,
-0.0187738,-0.0382656,0.467764,-1.57422,-0.186979,-0.167181,0.524011,-0.202325,0.0709926,-0.209611,-0.0642053,0.146093,-0.241361,-0.0303777,0,0,0,0,0,0,0,0.0134315,-0.0509486,0.501338,-1.56306,-0.0646618,1.48561,1.3181,-0.0795811,0.0315603,-0.103541,-0.00565067,-0.0187451,0.0183496,0.000963917,0.741459,-29.0791,-0.16173,26.9788,0.452877,2.66869,-0.0429228,-0.605406,0.511502,0.107922,-0.335971,-0.100141,0.366534,0.402899,0.104337,0.339619,-0.258095,0.216428,-0.331824,-0.00268886,
-0.0195855,-0.0379896,0.466924,-1.57447,-0.185997,-0.168036,0.523892,-0.202925,0.0689931,-0.210203,-0.0636482,0.24545,-0.213823,-0.0297581,0,0,0,0,0,0,0,0.0134315,-0.0509486,0.501338,-1.56306,-0.0646618,1.48561,1.3181,-0.0795811,0.0315603,-0.103541,-0.00565067,-0.0187451,0.0183496,0.000963917,0.741459,-29.0791,-0.16173,26.9788,0.452877,2.66869,-0.0429228,-0.605406,0.511502,0.107922,-0.335971,-0.100141,0.366534,0.402899,0.104337,0.339619,-0.258095,0.216428,-0.331824,-0.00268886,
-0.0204,-0.0377223,0.46608,-1.57472,-0.184586,-0.168775,0.523775,-0.203623,0.0668167,-0.210889,-0.0631677,0.352702,-0.184704,-0.0291814,0,0,0,0,0,0,0,0.0107017,-0.0499711,0.498025,-1.56314,-0.0662086,1.48622,1.318,-0.0845982,0.0389369,-0.112945,0.00673813,-0.150516,-0.0774892,-0.00739165,-3.2893,-26.5837,-4.06157,23.3646,-1.53839,1.57464,-0.103348,-0.516417,1.06965,0.21897,-0.711412,-0.0799004,0.602483,0.640389,0.0971466,0.582891,-0.2338,0.233675,-0.315246,-0.004678,
-0.0212176,-0.0374645,0.465233,-1.57497,-0.182713,-0.169389,0.52366,-0.204405,0.0644621,-0.211657,-0.062797,0.468442,-0.153678,-0.0286578,0,0,0,0,0,0,0,0.0107017,-0.0499711,0.498025,-1.56314,-0.0662086,1.48622,1.318,-0.0845982,0.0389369,-0.112945,0.00673813,-0.150516,-0.0774892,-0.00739165,-3.2893,-26.5837,-4.06157,23.3646,-1.53839,1.57464,-0.103348,-2.15902,2.5847,0.107844,-1.75465,-1.27767,1.74923,1.77295,-0.549059,1.76876,-0.11908,0.351558,-0.236838,-0.00639329,
-0.0220385,-0.0372168,0.464383,-1.57523,-0.180341,-0.169871,0.523547,-0.205228,0.0619356,-0.212467,-0.0625773,0.593007,-0.120341,-0.0282037,0,0,0,0,0,0,0,0.0107017,-0.0499711,0.498025,-1.56314,-0.0662086,1.48622,1.318,-0.0845982,0.0389369,-0.112945,0.00673813,-0.150516,-0.0774892,-0.00739165,-3.2893,-26.5837,-4.06157,23.3646,-1.53839,1.57464,-0.103348,-2.15902,2.5847,0.107844,-1.75465,-1.27767,1.74923,1.77295,-0.549059,1.76876,-0.11908,0.351558,-0.236838,-0.00639329,
-0.0228486,-0.0369735,0.463543,-1.57547,-0.177578,-0.170215,0.523436,-0.202521,0.0608241,-0.210054,-0.0614006,0.690781,-0.0861487,-0.0277802,0,0,0,0,0,0,0,0.0107017,-0.0499711,0.498025,-1.56314,-0.0662086,1.48622,1.318,-0.0845982,0.0389369,-0.112945,0.00673813,-0.150516,-0.0774892,-0.00739165,-3.2893,-26.5837,-4.06157,23.3646,-1.53839,1.57464,-0.103348,-0.0903814,1.11617,-0.79229,-1.19321,0.667001,0.52362,0.538582,0.704436,0.54894,-0.794926,0.0579685,-0.450379,-0.0179359,
-0.0236384,-0.0367336,0.462722,-1.57571,-0.174512,-0.170409,0.523326,-0.197461,0.0599721,-0.205201,-0.060706,0.766375,-0.0484326,-0.0275591,0,0,0,0,0,0,0,0.0107017,-0.0499711,0.498025,-1.56314,-0.0662086,1.48622,1.318,-0.0845982,0.0389369,-0.112945,0.00673813,-0.150516,-0.0774892,-0.00739165,-3.2893,-26.5837,-4.06157,23.3646,-1.53839,1.57464,-0.103348,-0.0903814,1.11617,-0.79229,-1.19321,0.667001,0.52362,0.538582,0.704436,0.54894,-0.794926,0.0579685,-0.450379,-0.0179359,
-0.0244019,-0.0364981,0.461928,-1.57596,-0.171211,-0.170432,0.523216,-0.190857,0.0588643,-0.198708,-0.0608792,0.825324,-0.00567162,-0.0275708,0,0,0,0,0,0,0,0.0107017,-0.0499711,0.498025,-1.56314,-0.0662086,1.48622,1.318,-0.0845982,0.0389369,-0.112945,0.00673813,-0.150516,-0.0774892,-0.00739165,-3.2893,-26.5837,-4.06157,23.3646,-1.53839,1.57464,-0.103348,1.51036,0.0735855,0.0236983,-0.484423,1.72083,-0.392031,-0.352373,1.22238,-0.407169,-0.864242,-0.102645,-0.731224,-0.0369102,
-0.0251345,-0.0362688,0.461163,-1.5762,-0.167725,-0.17026,0.523104,-0.183162,0.0573398,-0.191045,-0.061863,0.871486,0.0428262,-0.0278863,0,0,0,0,0,0,0,0.00705768,-0.0497126,0.494057,-1.56363,-0.0687003,1.48386,1.31754,-0.112591,-0.00113219,-0.121888,-0.0231556,0.0327025,-0.0201381,-0.00535843,-3.34088,-27.0598,-4.31151,26.2051,0.752255,1.80627,-0.00996382,1.51036,0.0735855,0.0236983,-0.484423,1.72083,-0.392031,-0.352373,1.22238,-0.407169,-0.864242,-0.102645,-0.731224,-0.0369102,
-0.0258329,-0.0360472,0.460434,-1.57646,-0.164095,-0.169874,0.52299,-0.174595,0.0553926,-0.182435,-0.0634171,0.907538,0.0967222,-0.0286725,0,0,0,0,0,0,0,0.00705768,-0.0497126,0.494057,-1.56363,-0.0687003,1.48386,1.31754,-0.112591,-0.00113219,-0.121888,-0.0231556,0.0327025,-0.0201381,-0.00535843,-3.34088,-27.0598,-4.31151,26.2051,0.752255,1.80627,-0.00996382,1.74753,-1.31528,0.412298,0.533451,1.94406,-1.11595,-1.07533,1.36287,-1.15833,-0.912522,-0.119561,-0.969233,-0.0435053,
-0.0264935,-0.0358345,0.459742,-1.57672,-0.160354,-0.169258,0.522868,-0.165155,0.0531637,-0.17286,-0.0650445,0.935198,0.153797,-0.030285,0,0,0,0,0,0,0,0.00705768,-0.0497126,0.494057,-1.56363,-0.0687003,1.48386,1.31754,-0.112591,-0.00113219,-0.121888,-0.0231556,0.0327025,-0.0201381,-0.00535843,-3.34088,-27.0598,-4.31151,26.2051,0.752255,1.80627,-0.00996382,-0.205055,-1.62298,0.597137,0.815866,0.500907,-0.749308,-0.71549,0.569066,-0.79417,-0.730115,-0.0621585,-1.04821,-0.0477498,
-0.0271118,-0.0356301,0.459094,-1.57698,-0.156533,-0.168424,0.522735,-0.15456,0.051095,-0.162005,-0.0656463,0.955281,0.208625,-0.0333819,0,0,0,0,0,0,0,0.00705768,-0.0497126,0.494057,-1.56363,-0.0687003,1.48386,1.31754,-0.112591,-0.00113219,-0.121888,-0.0231556,0.0327025,-0.0201381,-0.00535843,-3.34088,-27.0598,-4.31151,26.2051,0.752255,1.80627,-0.00996382,-0.205055,-1.62298,0.597137,0.815866,0.500907,-0.749308,-0.71549,0.569066,-0.79417,-0.730115,-0.0621585,-1.04821,-0.0477498,
-0.0276801,-0.0354281,0.458498,-1.57723,-0.152663,-0.167425,0.522582,-0.142085,0.0505028,-0.149095,-0.062392,0.967487,0.249811,-0.0381838,0,0,0,0,0,0,0,0.00705768,-0.0497126,0.494057,-1.56363,-0.0687003,1.48386,1.31754,-0.112591,-0.00113219,-0.121888,-0.0231556,0.0327025,-0.0201381,-0.00535843,-3.34088,-27.0598,-4.31151,26.2051,0.752255,1.80627,-0.00996382,-1.48302,-1.99089,0.0608438,0.980021,-0.164498,-0.582922,-0.554575,0.329495,-0.624396,-0.874277,-0.0166738,-1.12083,-0.0545043,
-0.0281526,-0.0351917,0.457998,-1.57741,-0.149113,-0.166443,0.52247,-0.118119,0.0591188,-0.124859,-0.0436447,0.887436,0.245389,-0.0280789,0,0,0,0,0,0,0,0.00254577,-0.0493323,0.48934,-1.56418,-0.061327,1.48383,1.3175,-0.148456,0.0148043,-0.169899,-0.0114629,0.328115,0.00335851,-0.00063713,-0.984311,-27.9326,-1.9113,25.7092,1.1615,1.95275,-0.0365141,-1.48302,-1.99089,0.0608438,0.980021,-0.164498,-0.582922,-0.554575,0.329495,-0.624396,-0.874277,-0.0166738,-1.12083,-0.0545043,
-0.0285587,-0.0349576,0.457567,-1.57756,-0.145768,-0.165425,0.522358,-0.101523,0.0585128,-0.107797,-0.0389248,0.836195,0.254618,-0.0279706,0,0,0,0,0,0,0,0.00254577,-0.0493323,0.48934,-1.56418,-0.061327,1.48383,1.3175,-0.148456,0.0148043,-0.169899,-0.0114629,0.328115,0.00335851,-0.00063713,-0.984311,-27.9326,-1.9113,25.7092,1.1615,1.95275,-0.0365141,-2.18565,-1.49985,0.0633053,0.749611,-0.610882,-0.173926,-0.153104,0.117314,-0.205303,-0.834806,0.14584,-1.1245,-0.0573299,
-0.0289152,-0.0347369,0.457187,-1.57771,-0.142558,-0.164359,0.522245,-0.0891284,0.0551701,-0.0950639,-0.0377581,0.802559,0.266325,-0.0283221,0,0,0,0,0,0,0,0.00254577,-0.0493323,0.48934,-1.56418,-0.061327,1.48383,1.3175,-0.148456,0.0148043,-0.169899,-0.0114629,0.328115,0.00335851,-0.00063713,-0.984311,-27.9326,-1.9113,25.7092,1.1615,1.95275,-0.0365141,-1.01638,-0.794945,0.130713,0.340096,0.260067,-0.144866,-0.12205,0.599246,-0.169477,-0.911704,0.24475,-1.08881,-0.0585373,
-0.0292332,-0.0345324,0.456846,-1.57786,-0.139436,-0.16325,0.52213,-0.0795125,0.0511424,-0.0852108,-0.0371917,0.780478,0.277397,-0.0285817,0,0,0,0,0,0,0,0.00254577,-0.0493323,0.48934,-1.56418,-0.061327,1.48383,1.3175,-0.148456,0.0148043,-0.169899,-0.0114629,0.328115,0.00335851,-0.00063713,-0.984311,-27.9326,-1.9113,25.7092,1.1615,1.95275,-0.0365141,-1.01638,-0.794945,0.130713,0.340096,0.260067,-0.144866,-0.12205,0.599246,-0.169477,-0.911704,0.24475,-1.08881,-0.0585373,
-0.0295207,-0.034344,0.456536,-1.57801,-0.136371,-0.162101,0.522015,-0.0718732,0.0470947,-0.077408,-0.0365026,0.766235,0.28713,-0.0287664,0,0,0,0,0,0,0,0.00254577,-0.0493323,0.48934,-1.56418,-0.061327,1.48383,1.3175,-0.148456,0.0148043,-0.169899,-0.0114629,0.328115,0.00335851,-0.00063713,-0.984311,-27.9326,-1.9113,25.7092,1.1615,1.95275,-0.0365141,-0.000208851,-0.915235,-0.339424,0.426401,1.20302,-0.458755,-0.43366,1.20418,-0.487183,-1.13105,0.321732,-1.04154,-0.0562082,
-0.0297835,-0.034171,0.456252,-1.57815,-0.133342,-0.160919,0.5219,-0.0656961,0.0432474,-0.0711199,-0.035596,0.757365,0.295508,-0.0289032,0,0,0,0,0,0,0,-0.00193952,-0.0490985,0.484043,-1.56462,-0.0497499,1.48391,1.31745,-0.143971,0.00711262,-0.16404,-0.00045102,0.376742,-0.00384499,-0.00284158,0.384403,-27.6589,-0.562425,25.5069,1.07635,2.60186,-0.0163725,0.0344787,-1.56713,-0.472657,1.0113,1.22055,-0.770498,-0.748916,1.21164,-0.812987,-1.05133,0.395971,-0.935574,-0.0526365,
-0.030026,-0.0340123,0.455988,-1.57829,-0.130333,-0.159708,0.521784,-0.0606265,0.0396717,-0.0659761,-0.0345298,0.752171,0.302685,-0.0290075,0,0,0,0,0,0,0,-0.00193952,-0.0490985,0.484043,-1.56462,-0.0497499,1.48391,1.31745,-0.143971,0.00711262,-0.16404,-0.00045102,0.376742,-0.00384499,-0.00284158,0.384403,-27.6589,-0.562425,25.5069,1.07635,2.60186,-0.0163725,0.0344787,-1.56713,-0.472657,1.0113,1.22055,-0.770498,-0.748916,1.21164,-0.812987,-1.05133,0.395971,-0.935574,-0.0526365,
-0.0302517,-0.0338668,0.455741,-1.57842,-0.127335,-0.158473,0.521667,-0.0564101,0.0363856,-0.061711,-0.0333802,0.749468,0.308834,-0.0290887,0,0,0,0,0,0,0,-0.00193952,-0.0490985,0.484043,-1.56462,-0.0497499,1.48391,1.31745,-0.143971,0.00711262,-0.16404,-0.00045102,0.376742,-0.00384499,-0.00284158,0.384403,-27.6589,-0.562425,25.5069,1.07635,2.60186,-0.0163725,-1.70757,-1.00739,-0.272918,0.779876,-0.205779,-0.0614163,-0.0424016,0.365756,-0.100113,-0.733789,0.513345,-0.830502,-0.053104,
-0.0304631,-0.0337332,0.455509,-1.57855,-0.124341,-0.157217,0.521551,-0.0528604,0.0333855,-0.0581304,-0.0322088,0.748421,0.314112,-0.029153,0,0,0,0,0,0,0,-0.00193952,-0.0490985,0.484043,-1.56462,-0.0497499,1.48391,1.31745,-0.143971,0.00711262,-0.16404,-0.00045102,0.376742,-0.00384499,-0.00284158,0.384403,-27.6589,-0.562425,25.5069,1.07635,2.60186,-0.0163725,-1.70757,-1.00739,-0.272918,0.779876,-0.205779,-0.0614163,-0.0424016,0.365756,-0.100113,-0.733789,0.513345,-0.830502,-0.053104,
-0.0306625,-0.0336106,0.455288,-1.57867,-0.121348,-0.155942,0.521434,-0.0498391,0.0306587,-0.0550902,-0.0310589,0.748443,0.318649,-0.0292048,0,0,0,0,0,0,0,-0.00193952,-0.0490985,0.484043,-1.56462,-0.0497499,1.48391,1.31745,-0.143971,0.00711262,-0.16404,-0.00045102,0.376742,-0.00384499,-0.00284158,0.384403,-27.6589,-0.562425,25.5069,1.07635,2.60186,-0.0163725,-2.05267,0.13717,-0.765944,-0.0677665,-0.306358,0.570425,0.591125,0.377538,0.551887,-0.845942,0.605354,-0.739833,-0.0523699,
-0.0308514,-0.0334978,0.455078,-1.57879,-0.118351,-0.154652,0.521317,-0.0472422,0.0281883,-0.0524827,-0.0299584,0.749126,0.322552,-0.0292471,0,0,0,0,0,0,0,-0.00193952,-0.0490985,0.484043,-1.56462,-0.0497499,1.48391,1.31745,-0.143971,0.00711262,-0.16404,-0.00045102,0.376742,-0.00384499,-0.00284158,0.384403,-27.6589,-0.562425,25.5069,1.07635,2.60186,-0.0163725,-2.05267,0.13717,-0.765944,-0.0677665,-0.306358,0.570425,0.591125,0.377538,0.551887,-0.845942,0.605354,-0.739833,-0.0523699,
-0.0310314,-0.033394,0.454878,-1.57891,-0.11535,-0.153348,0.5212,-0.0449909,0.0259554,-0.0502262,-0.0289241,0.750183,0.325911,-0.0292821,0,0,0,0,0,0,0,-0.00677609,-0.0483867,0.478953,-1.56468,-0.0399655,1.48392,1.31741,-0.139473,0.0205468,-0.1555,0.00110957,0.254867,-0.00295666,-0.00535674,1.24927,-28.4047,0.461134,25.5069,0.97839,2.76757,-0.0163725,-1.45825,0.129164,-0.766469,-0.0194447,0.0127309,0.42378,0.446497,0.499109,0.401434,-0.769481,0.580637,-0.60859,-0.0507039,
-0.0312035,-0.0332982,0.454685,-1.57902,-0.112345,-0.152033,0.521082,-0.0430246,0.0239408,-0.0482585,-0.0279647,0.751419,0.328799,-0.0293114,0,0,0,0,0,0,0,-0.00677609,-0.0483867,0.478953,-1.56468,-0.0399655,1.48392,1.31741,-0.139473,0.0205468,-0.1555,0.00110957,0.254867,-0.00295666,-0.00535674,1.24927,-28.4047,0.461134,25.5069,0.97839,2.76757,-0.0163725,-1.08273,0.359757,-0.261976,-0.00243104,-0.0413679,0.446807,0.468125,0.320771,0.421146,-0.463039,0.592354,-0.449553,-0.0523801,
-0.0313687,-0.0332097,0.454498,-1.57913,-0.109334,-0.150708,0.520965,-0.0412965,0.0221256,-0.0465313,-0.0270835,0.752701,0.331278,-0.0293363,0,0,0,0,0,0,0,-0.00677609,-0.0483867,0.478953,-1.56468,-0.0399655,1.48392,1.31741,-0.139473,0.0205468,-0.1555,0.00110957,0.254867,-0.00295666,-0.00535674,1.24927,-28.4047,0.461134,25.5069,0.97839,2.76757,-0.0163725,-1.08273,0.359757,-0.261976,-0.00243104,-0.0413679,0.446807,0.468125,0.320771,0.421146,-0.463039,0.592354,-0.449553,-0.0523801,
-0.0353299,-0.0331055,0.450703,-1.58846,-0.260308,-0.28886,0.511328,-0.257905,0.100933,-0.267835,-0.143271,-1.22099,-0.812244,-0.0786786,0,0,0,0,0,0,0,-0.00677609,-0.0483867,0.478953,-1.56468,-0.0399655,1.48392,1.31741,-0.139473,0.0205468,-0.1555,0.00110957,0.254867,-0.00295666,-0.00535674,1.24927,-28.4047,0.461134,25.5069,0.97839,2.76757,-0.0163725,-0.529448,0.917515,-0.387488,-0.407555,0.356113,0.57904,0.601204,0.531679,0.562851,-0.504449,0.597731,-0.369864,-0.0515102,
-0.0273566,-0.0459633,0.457408,-1.57989,-0.238831,-0.0475762,0.521219,-0.104171,0.00887595,-0.108689,-0.0731876,-1.07977,0.892925,-0.0416133,0,0,0,0,0,0,0,-0.00677609,-0.0483867,0.478953,-1.56468,-0.0399655,1.48392,1.31741,-0.139473,0.0205468,-0.1555,0.00110957,0.254867,-0.00295666,-0.00535674,1.24927,-28.4047,0.461134,25.5069,0.97839,2.76757,-0.0163725,-0.529448,0.917515,-0.387488,-0.407555,0.356113,0.57904,0.601204,0.531679,0.562851,-0.504449,0.597731,-0.369864,-0.0515102,
-0.0277739,-0.0459311,0.456972,-1.58017,-0.243018,-0.0439376,0.521053,-0.104308,0.00805414,-0.108783,-0.0706872,-1.04688,0.909648,-0.0413624,0,0,0,0,0,0,0,-0.0121153,-0.0476585,0.472809,-1.56517,-0.0295467,1.48389,1.31732,-0.109174,0.0187868,-0.141958,-0.0119113,0.26476,-0.00343652,-0.00231894,1.55078,-28.6824,0.786451,26.1575,1.38122,2.96715,-0.050247,0.181719,0.356103,-0.61068,-0.114663,0.887506,0.147916,0.173186,0.82759,0.124493,-0.591541,0.477117,-0.328478,-0.0545155,
-0.0281936,-0.0459037,0.456535,-1.58045,-0.247031,-0.0402431,0.520889,-0.104942,0.00683804,-0.109354,-0.0684396,-1.00316,0.92362,-0.0411898,0,0,0,0,0,0,0,-0.0121153,-0.0476585,0.472809,-1.56517,-0.0295467,1.48389,1.31732,-0.109174,0.0187868,-0.141958,-0.0119113,0.26476,-0.00343652,-0.00231894,1.55078,-28.6824,0.786451,26.1575,1.38122,2.96715,-0.050247,-1.22749,1.53599,-0.140809,-0.740052,-0.382053,1.05235,1.07484,0.0246414,1.04018,-0.230858,0.621413,-0.230529,-0.0529463,
-0.0286187,-0.0458829,0.456093,-1.58071,-0.250811,-0.0365013,0.520724,-0.106267,0.005212,-0.110594,-0.0664491,-0.944963,0.935438,-0.0411019,0,0,0,0,0,0,0,-0.0121153,-0.0476585,0.472809,-1.56517,-0.0295467,1.48389,1.31732,-0.109174,0.0187868,-0.141958,-0.0119113,0.26476,-0.00343652,-0.00231894,1.55078,-28.6824,0.786451,26.1575,1.38122,2.96715,-0.050247,-1.22749,1.53599,-0.140809,-0.740052,-0.382053,1.05235,1.07484,0.0246414,1.04018,-0.230858,0.621413,-0.230529,-0.0529463,
-0.0290527,-0.0458703,0.455642,-1.58097,-0.254283,-0.0327189,0.52056,-0.108495,0.00315043,-0.112712,-0.0647191,-0.868016,0.945612,-0.0411034,0,0,0,0,0,0,0,-0.0121153,-0.0476585,0.472809,-1.56517,-0.0295467,1.48389,1.31732,-0.109174,0.0187868,-0.141958,-0.0119113,0.26476,-0.00343652,-0.00231894,1.55078,-28.6824,0.786451,26.1575,1.38122,2.96715,-0.050247,-0.789816,0.364513,-1.30114,-0.367384,0.440315,0.397786,0.404246,0.700765,0.402094,-0.817883,0.387125,-0.381318,-0.060659,
-0.0294999,-0.0458677,0.455178,-1.58122,-0.257354,-0.0289008,0.520395,-0.111808,0.000649004,-0.115896,-0.0632288,-0.767875,0.954531,-0.041219,0,0,0,0,0,0,0,-0.0121153,-0.0476585,0.472809,-1.56517,-0.0295467,1.48389,1.31732,-0.109174,0.0187868,-0.141958,-0.0119113,0.26476,-0.00343652,-0.00231894,1.55078,-28.6824,0.786451,26.1575,1.38122,2.96715,-0.050247,-0.789816,0.364513,-1.30114,-0.367384,0.440315,0.397786,0.404246,0.700765,0.402094,-0.817883,0.387125,-0.381318,-0.060659,
-0.029965,-0.0458764,0.454697,-1.58147,-0.259918,-0.0250513,0.520229,-0.116272,-0.00219469,-0.120226,-0.0618372,-0.640804,0.962364,-0.0415669,0,0,0,0,0,0,0,-0.0147281,-0.047064,0.46938,-1.56618,-0.0411284,1.48613,1.31698,-0.0487757,0.0101434,-0.0688962,-0.0582835,-0.720953,0.26916,-0.0135761,-1.05969,-30.0551,-1.73674,27.2287,-1.66657,4.06762,-0.0163725,-0.965355,-1.63797,-0.99382,0.478635,-0.179359,-0.482385,-0.473858,0.141819,-0.488443,-0.603255,-0.429325,-0.376158,-0.0677319,
-0.0304518,-0.0458963,0.454195,-1.58171,-0.261858,-0.0211762,0.520058,-0.121693,-0.00497444,-0.125537,-0.0599768,-0.485111,0.968782,-0.042531,0,0,0,0,0,0,0,-0.0147281,-0.047064,0.46938,-1.56618,-0.0411284,1.48613,1.31698,-0.0487757,0.0101434,-0.0688962,-0.0582835,-0.720953,0.26916,-0.0135761,-1.05969,-30.0551,-1.73674,27.2287,-1.66657,4.06762,-0.0163725,-0.402239,-1.43537,-1.42181,-0.115071,0.171244,-0.500762,-0.499685,0.29678,-0.476038,-0.760296,-0.853658,-0.308164,-0.0724826,
-0.0309611,-0.0459219,0.453671,-1.58193,-0.263072,-0.0172876,0.51988,-0.127342,-0.00637919,-0.13114,-0.0556915,-0.303364,0.972141,-0.0446273,0,0,0,0,0,0,0,-0.0147281,-0.047064,0.46938,-1.56618,-0.0411284,1.48613,1.31698,-0.0487757,0.0101434,-0.0688962,-0.0582835,-0.720953,0.26916,-0.0135761,-1.05969,-30.0551,-1.73674,27.2287,-1.66657,4.06762,-0.0163725,-0.402239,-1.43537,-1.42181,-0.115071,0.171244,-0.500762,-0.499685,0.29678,-0.476038,-0.760296,-0.853658,-0.308164,-0.0724826,
-0.0314739,-0.0459091,0.453144,-1.58203,-0.263527,-0.0137595,0.519726,-0.128181,0.00319157,-0.131671,-0.0251907,-0.11386,0.882035,-0.03857,0,0,0,0,0,0,0,-0.0147281,-0.047064,0.46938,-1.56618,-0.0411284,1.48613,1.31698,-0.0487757,0.0101434,-0.0688962,-0.0582835,-0.720953,0.26916,-0.0135761,-1.05969,-30.0551,-1.73674,27.2287,-1.66657,4.06762,-0.0163725,-0.83189,-1.24293,-1.56505,-0.378136,-0.317803,-0.286249,-0.292067,-0.0523587,-0.24671,-0.617834,-1.02972,-0.140147,-0.076945,
-0.0319802,-0.0458905,0.452621,-1.5821,-0.263382,-0.0104689,0.519575,-0.126573,0.00463689,-0.130844,-0.0153607,0.0361705,0.822634,-0.0377787,0,0,0,0,0,0,0,-0.0147281,-0.047064,0.46938,-1.56618,-0.0411284,1.48613,1.31698,-0.0487757,0.0101434,-0.0688962,-0.0582835,-0.720953,0.26916,-0.0135761,-1.05969,-30.0551,-1.73674,27.2287,-1.66657,4.06762,-0.0163725,-0.83189,-1.24293,-1.56505,-0.378136,-0.317803,-0.286249,-0.292067,-0.0523587,-0.24671,-0.617834,-1.02972,-0.140147,-0.076945,
-0.0324722,-0.0458735,0.452109,-1.58215,-0.262766,-0.0073567,0.519425,-0.123014,0.00425275,-0.127787,-0.012841,0.154025,0.778057,-0.0373916,0,0,0,0,0,0,0,-0.0147281,-0.047064,0.46938,-1.56618,-0.0411284,1.48613,1.31698,-0.0487757,0.0101434,-0.0688962,-0.0582835,-0.720953,0.26916,-0.0135761,-1.05969,-30.0551,-1.73674,27.2287,-1.66657,4.06762,-0.0163725,0.536317,-1.11294,-1.37473,-0.343182,0.121635,-0.50942,-0.510869,-0.0682314,-0.476483,-0.173427,-1.16945,0.363603,-0.0806536,
-0.0329445,-0.0458586,0.451617,-1.5822,-0.261778,-0.00438668,0.519276,-0.118068,0.00374311,-0.123131,-0.0131614,0.247029,0.742506,-0.037126,0,0,0,0,0,0,0,-0.0164999,-0.0471118,0.467065,-1.56875,-0.0655188,1.49989,1.31684,-0.0625673,-0.0111752,-0.0719175,-0.0819436,-0.699417,0.489487,-0.00399056,-1.64288,-28.6308,-2.38738,27.3993,-0.926822,4.20678,-0.137222,2.18291,-2.40622,-2.65801,0.237251,1.66297,-1.49863,-1.49379,0.927052,-1.47731,-0.636056,-1.38472,0.485729,-0.0840862,
-0.0333938,-0.0458446,0.451147,-1.58226,-0.260494,-0.00153297,0.519129,-0.112318,0.00348041,-0.11753,-0.0146801,0.321116,0.713428,-0.036957,0,0,0,0,0,0,0,-0.0164999,-0.0471118,0.467065,-1.56875,-0.0655188,1.49989,1.31684,-0.0625673,-0.0111752,-0.0719175,-0.0819436,-0.699417,0.489487,-0.00399056,-1.64288,-28.6308,-2.38738,27.3993,-0.926822,4.20678,-0.137222,2.18291,-2.40622,-2.65801,0.237251,1.66297,-1.49863,-1.49379,0.927052,-1.47731,-0.636056,-1.38472,0.485729,-0.0840862,
-0.0338186,-0.0458307,0.450701,-1.58233,-0.258971,0.00122463,0.518981,-0.106217,0.00347582,-0.111484,-0.01671,0.38079,0.689398,-0.0368622,0,0,0,0,0,0,0,-0.0164999,-0.0471118,0.467065,-1.56875,-0.0655188,1.49989,1.31684,-0.0625673,-0.0111752,-0.0719175,-0.0819436,-0.699417,0.489487,-0.00399056,-1.64288,-28.6308,-2.38738,27.3993,-0.926822,4.20678,-0.137222,2.24292,-3.41087,-2.8429,0.908545,1.76529,-1.99067,-1.97656,1.01566,-1.99352,-0.680857,-1.4375,0.47559,-0.0904173,
-0.0342189,-0.0458161,0.450279,-1.5824,-0.257253,0.00390242,0.518834,-0.100079,0.00366127,-0.105341,-0.0189216,0.429399,0.669449,-0.0368201,0,0,0,0,0,0,0,-0.0164999,-0.0471118,0.467065,-1.56875,-0.0655188,1.49989,1.31684,-0.0625673,-0.0111752,-0.0719175,-0.0819436,-0.699417,0.489487,-0.00399056,-1.64288,-28.6308,-2.38738,27.3993,-0.926822,4.20678,-0.137222,2.24292,-3.41087,-2.8429,0.908545,1.76529,-1.99067,-1.97656,1.01566,-1.99352,-0.680857,-1.4375,0.47559,-0.0904173,
-0.0345954,-0.0458002,0.449882,-1.58249,-0.255375,0.00651381,0.518687,-0.0941068,0.00396641,-0.0993259,-0.0211404,0.469423,0.652846,-0.0368137,0,0,0,0,0,0,0,-0.0164999,-0.0471118,0.467065,-1.56875,-0.0655188,1.49989,1.31684,-0.0625673,-0.0111752,-0.0719175,-0.0819436,-0.699417,0.489487,-0.00399056,-1.64288,-28.6308,-2.38738,27.3993,-0.926822,4.20678,-0.137222,3.87475,-4.44621,-2.19808,1.86751,2.53056,-2.86513,-2.83933,1.24845,-2.90576,-0.347348,-1.48404,0.667401,-0.0944576,
-0.0349491,-0.0457829,0.449508,-1.58258,-0.253364,0.00906981,0.518539,-0.0884242,0.00433585,-0.0935783,-0.0232699,0.502705,0.639001,-0.0368304,0,0,0,0,0,0,0,-0.0187876,-0.0470559,0.464763,-1.57049,-0.0777228,1.51685,1.31668,-0.0662294,0.00468552,-0.0665528,-0.0432564,-0.176193,0.5181,-0.0032796,-1.15887,-29.456,-2.06206,26.828,-0.224613,3.56316,-0.103348,3.87475,-4.44621,-2.19808,1.86751,2.53056,-2.86513,-2.83933,1.24845,-2.90576,-0.347348,-1.48404,0.667401,-0.0944576,
-0.0352815,-0.045764,0.449155,-1.58268,-0.251242,0.0115796,0.518392,-0.0831004,0.00472992,-0.0881778,-0.0252581,0.530625,0.627435,-0.0368613,0,0,0,0,0,0,0,-0.0187876,-0.0470559,0.464763,-1.57049,-0.0777228,1.51685,1.31668,-0.0662294,0.00468552,-0.0665528,-0.0432564,-0.176193,0.5181,-0.0032796,-1.15887,-29.456,-2.06206,26.828,-0.224613,3.56316,-0.103348,3.94914,-5.35232,-1.90122,2.63248,2.49304,-3.32649,-3.29902,1.19589,-3.38974,-0.222769,-1.45315,0.648009,-0.0964133,
-0.0355941,-0.0457435,0.448823,-1.58279,-0.249025,0.0140506,0.518244,-0.0781676,0.00512176,-0.0831635,-0.0270802,0.554222,0.617753,-0.0369001,0,0,0,0,0,0,0,-0.0187876,-0.0470559,0.464763,-1.57049,-0.0777228,1.51685,1.31668,-0.0662294,0.00468552,-0.0665528,-0.0432564,-0.176193,0.5181,-0.0032796,-1.15887,-29.456,-2.06206,26.828,-0.224613,3.56316,-0.103348,1.14706,-3.42838,-1.72865,1.5861,0.595417,-1.74852,-1.72756,0.224011,-1.7888,-0.0520374,-0.996711,0.580801,-0.0991052,
-0.0358887,-0.0457215,0.448508,-1.5829,-0.246728,0.0164891,0.518097,-0.0736337,0.00549403,-0.0785477,-0.0287282,0.574293,0.609627,-0.0369428,0,0,0,0,0,0,0,-0.0187876,-0.0470559,0.464763,-1.57049,-0.0777228,1.51685,1.31668,-0.0662294,0.00468552,-0.0665528,-0.0432564,-0.176193,0.5181,-0.0032796,-1.15887,-29.456,-2.06206,26.828,-0.224613,3.56316,-0.103348,1.14706,-3.42838,-1.72865,1.5861,0.595417,-1.74852,-1.72756,0.224011,-1.7888,-0.0520374,-0.996711,0.580801,-0.0991052,
-0.0361666,-0.0456982,0.448211,-1.58302,-0.244362,0.0189002,0.517949,-0.069491,0.00583631,-0.0743254,-0.0302044,0.591452,0.602788,-0.0369865,0,0,0,0,0,0,0,-0.0187876,-0.0470559,0.464763,-1.57049,-0.0777228,1.51685,1.31668,-0.0662294,0.00468552,-0.0665528,-0.0432564,-0.176193,0.5181,-0.0032796,-1.15887,-29.456,-2.06206,26.828,-0.224613,3.56316,-0.103348,0.418356,-0.765759,-1.71929,0.0171707,0.2032,-0.287468,-0.267187,0.0597579,-0.296372,-0.0281831,-0.533342,0.644546,-0.10255,
-0.0364295,-0.0456736,0.447929,-1.58315,-0.241937,0.0212883,0.5178,-0.0657223,0.006143,-0.0704814,-0.0315173,0.60618,0.59701,-0.0370293,0,0,0,0,0,0,0,-0.0187876,-0.0470559,0.464763,-1.57049,-0.0777228,1.51685,1.31668,-0.0662294,0.00468552,-0.0665528,-0.0432564,-0.176193,0.5181,-0.0032796,-1.15887,-29.456,-2.06206,26.828,-0.224613,3.56316,-0.103348,0.418356,-0.765759,-1.71929,0.0171707,0.2032,-0.287468,-0.267187,0.0597579,-0.296372,-0.0281831,-0.533342,0.644546,-0.10255,
-0.0366787,-0.0456479,0.447661,-1.58328,-0.239462,0.0236567,0.517652,-0.0623051,0.00641188,-0.0669938,-0.0326786,0.618858,0.592108,-0.0370703,0,0,0,0,0,0,0,-0.0215817,-0.0469472,0.46181,-1.57182,-0.0800105,1.5344,1.31659,-0.105029,-0.00383374,-0.109401,-0.0456171,-0.0328,0.550336,-0.00331215,0.25745,-29.2537,-0.538622,26.8042,0.740353,3.70965,-0.117081,0.406962,-0.112273,-2.15979,-0.332351,0.54276,0.0340727,0.0561421,0.399753,0.0301513,-0.272596,-0.252775,0.593036,-0.107282,
-0.0369156,-0.0456214,0.447406,-1.58342,-0.236943,0.0260084,0.517504,-0.0592143,0.006643,-0.0638381,-0.033702,0.629792,0.587929,-0.0371086,0,0,0,0,0,0,0,-0.0215817,-0.0469472,0.46181,-1.57182,-0.0800105,1.5344,1.31659,-0.105029,-0.00383374,-0.109401,-0.0456171,-0.0328,0.550336,-0.00331215,0.25745,-29.2537,-0.538622,26.8042,0.740353,3.70965,-0.117081,-1.24936,-0.811603,-1.91027,0.321114,-0.421363,0.0540706,0.078289,-0.00279339,0.0283314,-0.311335,-0.0225696,0.282078,-0.108255,
-0.0351893,-0.0357843,0.4491,-1.58321,-0.214458,-0.244129,0.514158,-0.172109,0.0849428,-0.180143,-0.128956,-1.21461,-0.401098,-0.0800612,0,0,0,0,0,0,0,-0.0215817,-0.0469472,0.46181,-1.57182,-0.0800105,1.5344,1.31659,-0.105029,-0.00383374,-0.109401,-0.0456171,-0.0328,0.550336,-0.00331215,0.25745,-29.2537,-0.538622,26.8042,0.740353,3.70965,-0.117081,-1.24936,-0.811603,-1.91027,0.321114,-0.421363,0.0540706,0.078289,-0.00279339,0.0283314,-0.311335,-0.0225696,0.282078,-0.108255,
-0.0372234,-0.0394751,0.44524,-1.58189,-0.208678,-0.067943,0.520847,-0.0934413,0.0573683,-0.0988406,-0.0657532,-0.539621,-0.418573,-0.0503002,0,0,0,0,0,0,0,-0.0215817,-0.0469472,0.46181,-1.57182,-0.0800105,1.5344,1.31659,-0.105029,-0.00383374,-0.109401,-0.0456171,-0.0328,0.550336,-0.00331215,0.25745,-29.2537,-0.538622,26.8042,0.740353,3.70965,-0.117081,-1.196,-0.0601568,-2.305,-0.0222803,0.300818,0.375988,0.408578,0.699302,0.348158,-0.840353,0.466424,-0.0634784,-0.100748,
-0.0375938,-0.0392481,0.444848,-1.58215,-0.2108,-0.0696442,0.520648,-0.0925887,0.056748,-0.0979888,-0.0652184,-0.530397,-0.425317,-0.0497956,0,0,0,0,0,0,0,-0.0215817,-0.0469472,0.46181,-1.57182,-0.0800105,1.5344,1.31659,-0.105029,-0.00383374,-0.109401,-0.0456171,-0.0328,0.550336,-0.00331215,0.25745,-29.2537,-0.538622,26.8042,0.740353,3.70965,-0.117081,-1.196,-0.0601568,-2.305,-0.0222803,0.300818,0.375988,0.408578,0.699302,0.348158,-0.840353,0.466424,-0.0634784,-0.100748,
-0.0379606,-0.039024,0.44446,-1.58241,-0.212886,-0.0713748,0.520451,-0.0917194,0.0560363,-0.0971201,-0.0646486,-0.521389,-0.432644,-0.0493023,0,0,0,0,0,0,0,-0.0245872,-0.0469532,0.458492,-1.57286,-0.081581,1.55409,1.31647,-0.0938163,-0.00972741,-0.118447,-0.027849,-0.138396,0.676638,-0.00617876,1.4278,-28.9324,0.413527,26.5027,3.21319,3.49084,-0.0227812,-3.55721,2.8389,-2.36101,-1.43587,-1.12588,2.36058,2.3939,0.0478839,2.34853,-0.705625,1.31174,0.000343692,-0.102145,
-0.038324,-0.0388031,0.444075,-1.58267,-0.214936,-0.0731369,0.520255,-0.0908348,0.0552277,-0.0962353,-0.0640507,-0.512503,-0.440516,-0.0488195,0,0,0,0,0,0,0,-0.0245872,-0.0469532,0.458492,-1.57286,-0.081581,1.55409,1.31647,-0.0938163,-0.00972741,-0.118447,-0.027849,-0.138396,0.676638,-0.00617876,1.4278,-28.9324,0.413527,26.5027,3.21319,3.49084,-0.0227812,-3.55721,2.8389,-2.36101,-1.43587,-1.12588,2.36058,2.3939,0.0478839,2.34853,-0.705625,1.31174,0.000343692,-0.102145,
-0.0386837,-0.0385858,0.443693,-1.58292,-0.21695,-0.0749323,0.520062,-0.089937,0.0543154,-0.0953365,-0.0634335,-0.503619,-0.448856,-0.0483497,0,0,0,0,0,0,0,-0.0245872,-0.0469532,0.458492,-1.57286,-0.081581,1.55409,1.31647,-0.0938163,-0.00972741,-0.118447,-0.027849,-0.138396,0.676638,-0.00617876,1.4278,-28.9324,0.413527,26.5027,3.21319,3.49084,-0.0227812,-1.43911,4.61548,-3.02763,-2.60153,0.721426,2.763,2.79587,1.17401,2.77882,-1.0808,1.57877,0.143423,-0.100313,
-0.0390399,-0.0383727,0.443316,-1.58317,-0.218928,-0.0767625,0.51987,-0.0890303,0.0532904,-0.0944278,-0.0628092,-0.494583,-0.457539,-0.0478938,0,0,0,0,0,0,0,-0.0245872,-0.0469532,0.458492,-1.57286,-0.081581,1.55409,1.31647,-0.0938163,-0.00972741,-0.118447,-0.027849,-0.138396,0.676638,-0.00617876,1.4278,-28.9324,0.413527,26.5027,3.21319,3.49084,-0.0227812,-0.713502,3.61613,-2.14019,-1.91469,0.843509,2.07198,2.10643,1.06292,2.07037,-0.822306,1.33174,0.0878901,-0.0798427,
-0.0393923,-0.0381641,0.442941,-1.58342,-0.220869,-0.0786279,0.51968,-0.0881218,0.0521416,-0.0935163,-0.0621957,-0.485189,-0.466364,-0.0474555,0,0,0,0,0,0,0,-0.0245872,-0.0469532,0.458492,-1.57286,-0.081581,1.55409,1.31647,-0.0938163,-0.00972741,-0.118447,-0.027849,-0.138396,0.676638,-0.00617876,1.4278,-28.9324,0.413527,26.5027,3.21319,3.49084,-0.0227812,-0.713502,3.61613,-2.14019,-1.91469,0.843509,2.07198,2.10643,1.06292,2.07037,-0.822306,1.33174,0.0878901,-0.0798427,
-0.0397412,-0.0379607,0.442571,-1.58367,-0.22277,-0.080528,0.519492,-0.0872237,0.0508551,-0.0926132,-0.0616181,-0.475167,-0.475025,-0.0470343,0,0,0,0,0,0,0,-0.0282067,-0.0467561,0.453973,-1.57202,-0.106663,1.5624,1.31627,-0.0738776,0.00102531,-0.0999896,0.0334212,-0.633146,0.00806175,-0.00145233,-0.528073,-28.6824,-1.08611,23.6899,-0.914921,0.732351,-0.123489,-1.30432,2.69839,-1.57359,-1.75225,0.392441,1.69365,1.7271,0.803933,1.69934,-0.990303,0.839008,-0.385664,-0.0908559,
-0.0400866,-0.037763,0.442204,-1.58391,-0.224626,-0.0824603,0.519306,-0.0863543,0.0494136,-0.0917367,-0.0611127,-0.46415,-0.483073,-0.0466335,0,0,0,0,0,0,0,-0.0282067,-0.0467561,0.453973,-1.57202,-0.106663,1.5624,1.31627,-0.0738776,0.00102531,-0.0999896,0.0334212,-0.633146,0.00806175,-0.00145233,-0.528073,-28.6824,-1.08611,23.6899,-0.914921,0.732351,-0.123489,-1.30432,2.69839,-1.57359,-1.75225,0.392441,1.69365,1.7271,0.803933,1.69934,-0.990303,0.839008,-0.385664,-0.0908559,
-0.0404288,-0.0375718,0.44184,-1.58415,-0.226433,-0.0844197,0.519121,-0.0855424,0.0477955,-0.0909149,-0.0607314,-0.451638,-0.489848,-0.0462561,0,0,0,0,0,0,0,-0.0282067,-0.0467561,0.453973,-1.57202,-0.106663,1.5624,1.31627,-0.0738776,0.00102531,-0.0999896,0.0334212,-0.633146,0.00806175,-0.00145233,-0.528073,-28.6824,-1.08611,23.6899,-0.914921,0.732351,-0.123489,0.140959,0.414412,-2.01657,-0.932126,1.8084,0.179583,0.202512,1.73862,0.19536,-1.69382,0.151883,-0.888985,-0.100137,
-0.0407681,-0.0373879,0.44148,-1.58439,-0.228181,-0.0863974,0.518937,-0.0848309,0.045974,-0.09019,-0.0605464,-0.436945,-0.494412,-0.0459017,0,0,0,0,0,0,0,-0.0282067,-0.0467561,0.453973,-1.57202,-0.106663,1.5624,1.31627,-0.0738776,0.00102531,-0.0999896,0.0334212,-0.633146,0.00806175,-0.00145233,-0.528073,-28.6824,-1.08611,23.6899,-0.914921,0.732351,-0.123489,-2.78484,0.151152,-0.745522,-0.668306,-0.881763,0.68484,0.696124,0.0277082,0.700803,-1.02221,-0.00195732,-0.971956,-0.106815,
-0.0411053,-0.0372123,0.441121,-1.58464,-0.229857,-0.0883792,0.518755,-0.0842834,0.0439165,-0.0896241,-0.0606567,-0.419128,-0.495449,-0.0455704,0,0,0,0,0,0,0,-0.0282067,-0.0467561,0.453973,-1.57202,-0.106663,1.5624,1.31627,-0.0738776,0.00102531,-0.0999896,0.0334212,-0.633146,0.00806175,-0.00145233,-0.528073,-28.6824,-1.08611,23.6899,-0.914921,0.732351,-0.123489,-2.78484,0.151152,-0.745522,-0.668306,-0.881763,0.68484,0.696124,0.0277082,0.700803,-1.02221,-0.00195732,-0.971956,-0.106815,
-0.0414412,-0.0370459,0.440764,-1.58488,-0.231445,-0.0903438,0.518574,-0.0839905,0.0415845,-0.0893068,-0.0611913,-0.396892,-0.49116,-0.0452599,0,0,0,0,0,0,0,-0.0307952,-0.046533,0.450819,-1.57177,-0.124084,1.56145,1.31623,-0.0894584,0.0200759,-0.100829,-0.00128279,-0.496907,-0.0528055,-8.2777e-05,0.209842,-29.6782,-0.637804,25.5069,-2.19117,0.805594,-0.157364,-2.63596,0.438126,0.00176167,-0.83771,-1.14441,0.770238,0.782571,-0.287287,0.787913,-0.736502,-0.121569,-0.945649,-0.103325,
-0.0417775,-0.0368902,0.440406,-1.58513,-0.232919,-0.0922605,0.518394,-0.0840771,0.0389359,-0.0893615,-0.0623083,-0.368493,-0.479181,-0.0449618,0,0,0,0,0,0,0,-0.0307952,-0.046533,0.450819,-1.57177,-0.124084,1.56145,1.31623,-0.0894584,0.0200759,-0.100829,-0.00128279,-0.496907,-0.0528055,-8.2777e-05,0.209842,-29.6782,-0.637804,25.5069,-2.19117,0.805594,-0.157364,-1.33343,-1.67237,0.940214,0.250588,-0.61457,-0.617656,-0.59405,-0.179806,-0.626567,-0.649875,-0.776413,-1.19375,-0.109445,
-0.0421164,-0.0367465,0.440047,-1.58539,-0.234245,-0.0940868,0.518215,-0.0847074,0.0359311,-0.0899501,-0.0641813,-0.33163,-0.456561,-0.0446676,0,0,0,0,0,0,0,-0.0307952,-0.046533,0.450819,-1.57177,-0.124084,1.56145,1.31623,-0.0894584,0.0200759,-0.100829,-0.00128279,-0.496907,-0.0528055,-8.2777e-05,0.209842,-29.6782,-0.637804,25.5069,-2.19117,0.805594,-0.157364,-1.33343,-1.67237,0.940214,0.250588,-0.61457,-0.617656,-0.59405,-0.179806,-0.626567,-0.649875,-0.776413,-1.19375,-0.109445,
-0.0424607,-0.0366163,0.439682,-1.58566,-0.235379,-0.0957662,0.518038,-0.086079,0.0325445,-0.0912696,-0.0669703,-0.283417,-0.419867,-0.0443571,0,0,0,0,0,0,0,-0.0307952,-0.046533,0.450819,-1.57177,-0.124084,1.56145,1.31623,-0.0894584,0.0200759,-0.100829,-0.00128279,-0.496907,-0.0528055,-8.2777e-05,0.209842,-29.6782,-0.637804,25.5069,-2.19117,0.805594,-0.157364,0.694047,-3.10291,0.338316,0.788304,1.20421,-1.81038,-1.78166,0.964982,-1.8244,-1.24158,-1.15093,-1.44027,-0.112961,
-0.0428143,-0.0365012,0.439307,-1.58594,-0.236261,-0.097228,0.517862,-0.0884023,0.0287818,-0.0935306,-0.0707803,-0.22052,-0.365445,-0.0440059,0,0,0,0,0,0,0,-0.0307952,-0.046533,0.450819,-1.57177,-0.124084,1.56145,1.31623,-0.0894584,0.0200759,-0.100829,-0.00128279,-0.496907,-0.0528055,-8.2777e-05,0.209842,-29.6782,-0.637804,25.5069,-2.19117,0.805594,-0.157364,0.694047,-3.10291,0.338316,0.788304,1.20421,-1.81038,-1.78166,0.964982,-1.8244,-1.24158,-1.15093,-1.44027,-0.112961,
-0.0431817,-0.0364024,0.43892,-1.58624,-0.236819,-0.098387,0.517688,-0.091855,0.0246934,-0.096915,-0.075635,-0.13957,-0.289756,-0.0435712,0,0,0,0,0,0,0,-0.0330358,-0.0463426,0.448236,-1.57169,-0.135994,1.5591,1.3162,-0.0624629,0.00542219,-0.0745155,0.00130594,-0.334824,-0.106981,0.000478188,-0.147213,-28.9324,-0.788561,24.4357,-1.37909,1.21667,-0.130813,1.30493,-3.22385,-0.213476,0.731322,1.88748,-2.00701,-1.97892,1.44105,-2.01517,-1.52083,-1.19384,-1.46104,-0.112601,
-0.0435678,-0.0363209,0.438514,-1.58657,-0.23697,-0.0991452,0.517516,-0.0965313,0.0203646,-0.101525,-0.0815176,-0.0377879,-0.189541,-0.0428742,0,0,0,0,0,0,0,-0.0330358,-0.0463426,0.448236,-1.57169,-0.135994,1.5591,1.3162,-0.0624629,0.00542219,-0.0745155,0.00130594,-0.334824,-0.106981,0.000478188,-0.147213,-28.9324,-0.788561,24.4357,-1.37909,1.21667,-0.130813,0.43412,-3.24271,0.0691596,0.692723,1.09111,-1.83101,-1.80307,0.933377,-1.83788,-1.3475,-1.30319,-1.473,-0.115886,
-0.0439776,-0.0362576,0.438084,-1.58692,-0.236623,-0.0993908,0.517356,-0.102427,0.0158324,-0.107424,-0.088565,0.0868405,-0.0614123,-0.0400608,0,0,0,0,0,0,0,-0.0330358,-0.0463426,0.448236,-1.57169,-0.135994,1.5591,1.3162,-0.0624629,0.00542219,-0.0745155,0.00130594,-0.334824,-0.106981,0.000478188,-0.147213,-28.9324,-0.788561,24.4357,-1.37909,1.21667,-0.130813,0.43412,-3.24271,0.0691596,0.692723,1.09111,-1.83101,-1.80307,0.933377,-1.83788,-1.3475,-1.30319,-1.473,-0.115886,
-0.0443902,-0.0361877,0.43765,-1.58726,-0.235906,-0.099257,0.517198,-0.103164,0.0174871,-0.108469,-0.0844839,0.179236,0.0334641,-0.0395342,0,0,0,0,0,0,0,-0.0330358,-0.0463426,0.448236,-1.57169,-0.135994,1.5591,1.3162,-0.0624629,0.00542219,-0.0745155,0.00130594,-0.334824,-0.106981,0.000478188,-0.147213,-28.9324,-0.788561,24.4357,-1.37909,1.21667,-0.130813,0.226864,-3.05641,0.530872,0.572575,0.698044,-1.69975,-1.67848,0.60712,-1.69817,-1.13896,-1.38491,-1.45034,-0.11749,
-0.0447959,-0.0361068,0.437222,-1.58757,-0.234906,-0.0988216,0.51704,-0.101427,0.0202055,-0.106944,-0.0782974,0.250103,0.10886,-0.0394046,0,0,0,0,0,0,0,-0.0330358,-0.0463426,0.448236,-1.57169,-0.135994,1.5591,1.3162,-0.0624629,0.00542219,-0.0745155,0.00130594,-0.334824,-0.106981,0.000478188,-0.147213,-28.9324,-0.788561,24.4357,-1.37909,1.21667,-0.130813,0.226864,-3.05641,0.530872,0.572575,0.698044,-1.69975,-1.67848,0.60712,-1.69817,-1.13896,-1.38491,-1.45034,-0.11749,
-0.0451894,-0.0360165,0.436806,-1.58786,-0.233683,-0.0981392,0.516883,-0.0983683,0.0225739,-0.104021,-0.0724497,0.305626,0.170578,-0.0393988,0,0,0,0,0,0,0,-0.0330358,-0.0463426,0.448236,-1.57169,-0.135994,1.5591,1.3162,-0.0624629,0.00542219,-0.0745155,0.00130594,-0.334824,-0.106981,0.000478188,-0.147213,-28.9324,-0.788561,24.4357,-1.37909,1.21667,-0.130813,0.763918,-2.14207,0.5602,-0.00377238,1.04037,-1.34897,-1.33076,0.76064,-1.33155,-1.11784,-1.30756,-1.35106,-0.124447,
-0.0455678,-0.0359194,0.436405,-1.58813,-0.232284,-0.0972524,0.516725,-0.0946073,0.0242928,-0.100342,-0.0674531,0.349819,0.221705,-0.0394448,0,0,0,0,0,0,0,-0.0353058,-0.0464113,0.445728,-1.57221,-0.142508,1.55536,1.31615,-0.073706,-0.00600265,-0.0963125,-0.0237222,-0.107806,-0.10201,0.000454071,-0.0718349,-28.2301,-0.788561,25.2332,0.0317347,2.29699,-0.083206,-0.520163,-1.87264,0.106969,-0.112363,0.355093,-0.921507,-0.903686,0.501989,-0.903694,-1.19028,-1.10616,-1.35128,-0.126898,
-0.0459299,-0.0358178,0.43602,-1.58839,-0.230742,-0.0961953,0.516567,-0.0905164,0.0253827,-0.0962982,-0.0632902,0.385465,0.264273,-0.0395144,0,0,0,0,0,0,0,-0.0353058,-0.0464113,0.445728,-1.57221,-0.142508,1.55536,1.31615,-0.073706,-0.00600265,-0.0963125,-0.0237222,-0.107806,-0.10201,0.000454071,-0.0718349,-28.2301,-0.788561,25.2332,0.0317347,2.29699,-0.083206,-0.520163,-1.87264,0.106969,-0.112363,0.355093,-0.921507,-0.903686,0.501989,-0.903694,-1.19028,-1.10616,-1.35128,-0.126898,
-0.0618799,-0.0227672,0.419396,-1.59215,-0.261569,-0.228141,0.508904,-0.253606,0.178506,-0.265963,-0.134649,-1.205,-1.2951,-0.0986845,0,0,0,0,0,0,0,-0.0353058,-0.0464113,0.445728,-1.57221,-0.142508,1.55536,1.31615,-0.073706,-0.00600265,-0.0963125,-0.0237222,-0.107806,-0.10201,0.000454071,-0.0718349,-28.2301,-0.788561,25.2332,0.0317347,2.29699,-0.083206,-1.30028,-2.91854,0.0762044,0.791252,-0.124271,-1.26659,-1.24258,0.302797,-1.28041,-1.13213,-0.959075,-1.39555,-0.125501,
-0.0664432,-0.0323029,0.413128,-1.58668,-0.226174,-0.124266,0.51795,-0.201477,0.0842145,-0.210208,-0.0808706,0.326957,-0.263532,-0.0560193,0,0,0,0,0,0,0,-0.0353058,-0.0464113,0.445728,-1.57221,-0.142508,1.55536,1.31615,-0.073706,-0.00600265,-0.0963125,-0.0237222,-0.107806,-0.10201,0.000454071,-0.0718349,-28.2301,-0.788561,25.2332,0.0317347,2.29699,-0.083206,-1.30028,-2.91854,0.0762044,0.791252,-0.124271,-1.26659,-1.24258,0.302797,-1.28041,-1.13213,-0.959075,-1.39555,-0.125501,
-0.0672491,-0.0319742,0.412287,-1.587,-0.224583,-0.125294,0.517729,-0.201479,0.0821736,-0.210203,-0.0800535,0.397684,-0.25697,-0.0553981,0,0,0,0,0,0,0,-0.0353058,-0.0464113,0.445728,-1.57221,-0.142508,1.55536,1.31615,-0.073706,-0.00600265,-0.0963125,-0.0237222,-0.107806,-0.10201,0.000454071,-0.0718349,-28.2301,-0.788561,25.2332,0.0317347,2.29699,-0.083206,-0.995327,-2.60689,0.70253,1.08507,-0.281144,-1.13427,-1.10311,0.0592498,-1.1734,-0.64889,-0.631455,-1.10842,-0.12818,
-0.0680556,-0.0316541,0.411446,-1.58732,-0.222685,-0.126293,0.51751,-0.201627,0.0800105,-0.210343,-0.0792887,0.474557,-0.249702,-0.0548021,0,0,0,0,0,0,0,-0.0375071,-0.0463054,0.442897,-1.57336,-0.143138,1.5546,1.3161,-0.0741757,-0.00165174,-0.100418,-0.0576033,-0.0171265,-0.0311357,-0.00754696,0.106693,-28.98,-0.812364,26.6772,0.507809,3.03307,-0.0630644,-0.995327,-2.60689,0.70253,1.08507,-0.281144,-1.13427,-1.10311,0.0592498,-1.1734,-0.64889,-0.631455,-1.10842,-0.12818,
-0.0688633,-0.0313433,0.410603,-1.58764,-0.220452,-0.127259,0.517293,-0.201927,0.0777134,-0.210633,-0.0785937,0.558255,-0.241459,-0.0542413,0,0,0,0,0,0,0,-0.0375071,-0.0463054,0.442897,-1.57336,-0.143138,1.5546,1.3161,-0.0741757,-0.00165174,-0.100418,-0.0576033,-0.0171265,-0.0311357,-0.00754696,0.106693,-28.98,-0.812364,26.6772,0.507809,3.03307,-0.0630644,-2.34556,1.24859,1.43742,-0.925984,-1.7454,1.12134,1.14705,-0.982439,1.11702,0.0741935,0.00804369,-0.616281,-0.123384,
-0.0696728,-0.0310422,0.409759,-1.58795,-0.217854,-0.128186,0.517078,-0.20238,0.0752706,-0.211076,-0.077996,0.649437,-0.231888,-0.0537201,0,0,0,0,0,0,0,-0.0375071,-0.0463054,0.442897,-1.57336,-0.143138,1.5546,1.3161,-0.0741757,-0.00165174,-0.100418,-0.0576033,-0.0171265,-0.0311357,-0.00754696,0.106693,-28.98,-0.812364,26.6772,0.507809,3.03307,-0.0630644,-0.267144,2.49357,-0.488963,-1.84736,0.448961,1.36238,1.37005,0.49753,1.40122,-0.602505,0.287247,-0.318433,-0.125383,
-0.0704841,-0.0307512,0.408913,-1.58826,-0.214867,-0.129069,0.516865,-0.202812,0.0727409,-0.211508,-0.0774946,0.746977,-0.220611,-0.0532514,0,0,0,0,0,0,0,-0.0375071,-0.0463054,0.442897,-1.57336,-0.143138,1.5546,1.3161,-0.0741757,-0.00165174,-0.100418,-0.0576033,-0.0171265,-0.0311357,-0.00754696,0.106693,-28.98,-0.812364,26.6772,0.507809,3.03307,-0.0630644,-0.267144,2.49357,-0.488963,-1.84736,0.448961,1.36238,1.37005,0.49753,1.40122,-0.602505,0.287247,-0.318433,-0.125383,
-0.0712856,-0.0304661,0.408076,-1.58856,-0.211581,-0.129903,0.516654,-0.200373,0.0712791,-0.209271,-0.0764584,0.821273,-0.208574,-0.0527258,0,0,0,0,0,0,0,-0.0375071,-0.0463054,0.442897,-1.57336,-0.143138,1.5546,1.3161,-0.0741757,-0.00165174,-0.100418,-0.0576033,-0.0171265,-0.0311357,-0.00754696,0.106693,-28.98,-0.812364,26.6772,0.507809,3.03307,-0.0630644,1.06773,1.72976,-0.0877259,-1.10894,1.17839,0.727264,0.744291,0.800881,0.736238,-0.418094,0.326758,-0.201129,-0.136916,
-0.0720704,-0.0301863,0.407255,-1.58887,-0.208067,-0.130676,0.516444,-0.196195,0.0699546,-0.205225,-0.0759539,0.878509,-0.193225,-0.0523782,0,0,0,0,0,0,0,-0.0375071,-0.0463054,0.442897,-1.57336,-0.143138,1.5546,1.3161,-0.0741757,-0.00165174,-0.100418,-0.0576033,-0.0171265,-0.0311357,-0.00754696,0.106693,-28.98,-0.812364,26.6772,0.507809,3.03307,-0.0630644,1.06773,1.72976,-0.0877259,-1.10894,1.17839,0.727264,0.744291,0.800881,0.736238,-0.418094,0.326758,-0.201129,-0.136916,
-0.0728338,-0.0299125,0.406455,-1.58917,-0.204376,-0.131367,0.516235,-0.190872,0.0684334,-0.199978,-0.0761985,0.922961,-0.172848,-0.0522315,0,0,0,0,0,0,0,-0.0420412,-0.0463292,0.437111,-1.57485,-0.145615,1.53971,1.31566,-0.125195,-0.00249725,-0.148267,-0.0342933,0.104091,-0.389635,-0.00757511,-2.27765,-27.159,-3.13719,25.3085,0.990292,2.65496,-0.123489,2.68428,1.18718,0.152844,-0.507514,2.30777,0.127209,0.150166,1.40855,0.113107,-0.419724,0.468706,-0.175993,-0.14442,
-0.0735729,-0.0296462,0.405679,-1.58948,-0.200545,-0.13195,0.516026,-0.184771,0.0665771,-0.193916,-0.0772237,0.957678,-0.145779,-0.0523316,0,0,0,0,0,0,0,-0.0420412,-0.0463292,0.437111,-1.57485,-0.145615,1.53971,1.31566,-0.125195,-0.00249725,-0.148267,-0.0342933,0.104091,-0.389635,-0.00757511,-2.27765,-27.159,-3.13719,25.3085,0.990292,2.65496,-0.123489,2.68428,1.18718,0.152844,-0.507514,2.30777,0.127209,0.150166,1.40855,0.113107,-0.419724,0.468706,-0.175993,-0.14442,
-0.0742854,-0.029389,0.40493,-1.5898,-0.196605,-0.132391,0.515815,-0.178114,0.0643195,-0.187265,-0.0790462,0.984847,-0.110273,-0.052787,0,0,0,0,0,0,0,-0.0420412,-0.0463292,0.437111,-1.57485,-0.145615,1.53971,1.31566,-0.125195,-0.00249725,-0.148267,-0.0342933,0.104091,-0.389635,-0.00757511,-2.27765,-27.159,-3.13719,25.3085,0.990292,2.65496,-0.123489,1.62911,0.785952,-0.828059,-0.235098,2.05948,0.165993,0.180366,1.51702,0.154403,-0.755192,0.657747,-0.246882,-0.151703,
-0.0749694,-0.0291424,0.40421,-1.59012,-0.192582,-0.13265,0.5156,-0.170995,0.0616412,-0.180116,-0.0816639,1.00599,-0.0647542,-0.0538066,0,0,0,0,0,0,0,-0.0420412,-0.0463292,0.437111,-1.57485,-0.145615,1.53971,1.31566,-0.125195,-0.00249725,-0.148267,-0.0342933,0.104091,-0.389635,-0.00757511,-2.27765,-27.159,-3.13719,25.3085,0.990292,2.65496,-0.123489,-0.286496,1.4622,-1.2102,-0.529718,0.882933,0.911131,0.922328,0.975349,0.9042,-0.730476,0.956514,-0.21902,-0.152107,
