PerkyPenguin/Analysis-on-Approximated-Derivatives/Code_and_Data/PaperData/Real_Robot/Scene_2/contact_change/13/trajectory.csv
Commanded Joint 0 Position,Commanded Joint 1 Position,Commanded Joint 2 Position,Commanded Joint 3 Position,Commanded Joint 4 Position,Commanded Joint 5 Position,Commanded Joint 6 Position,Commanded Joint 0 Velocity,Commanded Joint 1 Velocity,Commanded Joint 2 Velocity,Commanded Joint 3 Velocity,Commanded Joint 4 Velocity,Commanded Joint 5 Velocity,Commanded Joint 6 Velocity,Commanded Joint 0 Torque,Commanded Joint 1 Torque,Commanded Joint 2 Torque,Commanded Joint 3 Torque,Commanded Joint 4 Torque,Commanded Joint 5 Torque,Commanded Joint 6 Torque,Actual Joint 0 Position,Actual Joint 1 Position,Actual Joint 2 Position,Actual Joint 3 Position,Actual Joint 4 Position,Actual Joint 5 Position,Actual Joint 6 Position,Actual Joint 0 Velocity,Actual Joint 1 Velocity,Actual Joint 2 Velocity,Actual Joint 3 Velocity,Actual Joint 4 Velocity,Actual Joint 5 Velocity,Actual Joint 6 Velocity,Actual Joint 0 Torque,Actual Joint 1 Torque,Actual Joint 2 Torque,Actual Joint 3 Torque,Actual Joint 4 Torque,Actual Joint 5 Torque,Actual Joint 6 Torque,EE ext force 0,EE ext force 1,EE ext force 2,EE ext force 3,EE ext force 4,EE ext force 5,joint ext torque 0,joint ext torque 1,joint ext torque 2,joint ext torque 3,joint ext torque 4,joint ext torque 5,joint ext torque 6,
0.0199173,-0.0519629,0.510234,-1.56307,0.0379889,-0.00991602,0.53196,0.0117545,0.0317517,0.0158834,-0.144186,-0.0645301,0.199458,-0.00123924,0,0,0,0,0,0,0,0.0198436,-0.0521145,0.510111,-1.56163,0.0383653,1.5589,1.31738,0.00131025,0.000354792,-0.00034551,-0.00138074,-0.00336937,2.91452e-05,0.0013803,0.0828892,-27.5319,-0.788561,27.0779,1.1679,3.10631,0.0577852,2.36064,1.94839,2.23483,-0.964502,1.279,0.153243,0.171435,0.499022,0.151561,0.231622,0.156625,-0.305918,0.0897069,
0.0199781,-0.0517551,0.510314,-1.56369,0.0376515,-0.00908479,0.531955,0.0152037,0.0519386,0.0200857,-0.154956,-0.0843333,0.207805,-0.00133702,0,0,0,0,0,0,0,0.0198436,-0.0521145,0.510111,-1.56163,0.0383653,1.5589,1.31738,0.00131025,0.000354792,-0.00034551,-0.00138074,-0.00336937,2.91452e-05,0.0013803,0.0828892,-27.5319,-0.788561,27.0779,1.1679,3.10631,0.0577852,2.40672,1.98792,2.23294,-0.992628,1.31528,0.156589,0.17457,0.520232,0.155866,0.225281,0.158857,-0.30545,0.0916075,
0.0198465,-0.0521084,0.510115,-1.56164,0.0383379,-0.0119085,0.531978,6.23876e-05,0.00029944,0.000140819,-0.000359499,-0.00103985,-0.000732973,-9.19371e-06,0,0,0,0,0,0,0,0.0198436,-0.0521145,0.510111,-1.56163,0.0383653,1.5589,1.31738,0.00131025,0.000354792,-0.00034551,-0.00138074,-0.00336937,2.91452e-05,0.0013803,0.0828892,-27.5319,-0.788561,27.0779,1.1679,3.10631,0.0577852,2.50627,1.87137,2.42372,-0.864031,1.29137,0.0738403,0.0936909,0.46152,0.0667994,0.313715,0.140774,-0.284562,0.0925785,
0.0198465,-0.0521074,0.510115,-1.56164,0.0383347,-0.0119114,0.531978,1.96982e-05,0.00024066,9.93334e-05,-0.000293248,-0.000779206,-0.000712153,-6.4823e-06,0,0,0,0,0,0,0,0.0198412,-0.0521319,0.510111,-1.56167,0.0383684,1.55892,1.31737,0.00500943,-0.00623621,0.00190378,-0.0166386,-0.00702847,0.00335823,-0.000670559,0.158268,-27.159,-0.713182,25.6339,1.05804,3.21252,0.104477,2.50627,1.87137,2.42372,-0.864031,1.29137,0.0738403,0.0936909,0.46152,0.0667994,0.313715,0.140774,-0.284562,0.0925785,
0.0198465,-0.0521066,0.510115,-1.56164,0.0383324,-0.0119141,0.531978,-1.00211e-05,0.000187522,7.12882e-05,-0.000240747,-0.000590749,-0.000681734,-4.37015e-06,0,0,0,0,0,0,0,0.0198412,-0.0521319,0.510111,-1.56167,0.0383684,1.55892,1.31737,0.00500943,-0.00623621,0.00190378,-0.0166386,-0.00702847,0.00335823,-0.000670559,0.158268,-27.159,-0.713182,25.6339,1.05804,3.21252,0.104477,1.8625,1.46454,2.10305,-0.622468,0.912418,0.0685285,0.0862862,0.29487,0.0582552,0.287888,0.141631,-0.267546,0.0916262,
0.0198464,-0.0521061,0.510116,-1.56164,0.0383306,-0.0119167,0.531978,-3.02696e-05,0.000139856,5.29447e-05,-0.000197902,-0.000454048,-0.000647737,-2.7878e-06,0,0,0,0,0,0,0,0.0198412,-0.0521319,0.510111,-1.56167,0.0383684,1.55892,1.31737,0.00500943,-0.00623621,0.00190378,-0.0166386,-0.00702847,0.00335823,-0.000670559,0.158268,-27.159,-0.713182,25.6339,1.05804,3.21252,0.104477,1.8625,1.46454,2.10305,-0.622468,0.912418,0.0685285,0.0862862,0.29487,0.0582552,0.287888,0.141631,-0.267546,0.0916262,
0.0198462,-0.0521057,0.510116,-1.56164,0.0383291,-0.0119191,0.531978,-4.36703e-05,9.7125e-05,4.15293e-05,-0.000162322,-0.000354265,-0.000613432,-1.61204e-06,0,0,0,0,0,0,0,0.0198412,-0.0521319,0.510111,-1.56167,0.0383684,1.55892,1.31737,0.00500943,-0.00623621,0.00190378,-0.0166386,-0.00702847,0.00335823,-0.000670559,0.158268,-27.159,-0.713182,25.6339,1.05804,3.21252,0.104477,1.03198,1.55609,1.25246,-0.886104,0.62424,0.342724,0.357439,0.287824,0.347058,0.0299272,0.156813,-0.279071,0.0910768,
0.019846,-0.0521055,0.510116,-1.56164,0.038328,-0.0119215,0.531978,-5.21443e-05,5.87683e-05,3.50269e-05,-0.000132414,-0.000280787,-0.000580635,-7.37558e-07,0,0,0,0,0,0,0,0.0198412,-0.0521319,0.510111,-1.56167,0.0383684,1.55892,1.31737,0.00500943,-0.00623621,0.00190378,-0.0166386,-0.00702847,0.00335823,-0.000670559,0.158268,-27.159,-0.713182,25.6339,1.05804,3.21252,0.104477,1.03198,1.55609,1.25246,-0.886104,0.62424,0.342724,0.357439,0.287824,0.347058,0.0299272,0.156813,-0.279071,0.0910768,
0.0203451,-0.0521773,0.510604,-1.5612,0.0259686,-0.0193907,0.531939,0.00691327,-0.00583986,0.00705358,0.00274725,-0.365902,-0.229253,-0.0010715,0,0,0,0,0,0,0,0.0198412,-0.0521319,0.510111,-1.56167,0.0383684,1.55892,1.31737,0.00500943,-0.00623621,0.00190378,-0.0166386,-0.00702847,0.00335823,-0.000670559,0.158268,-27.159,-0.713182,25.6339,1.05804,3.21252,0.104477,1.98612,2.09972,0.810946,-1.40046,1.49718,0.324304,0.33685,0.849488,0.347404,-0.237034,0.148983,-0.265346,0.0896823,
0.0203921,-0.052206,0.51066,-1.56134,0.0265515,-0.0192235,0.531936,0.00725762,-0.005677,0.00745168,0.00225343,-0.347029,-0.221182,-0.000993983,0,0,0,0,0,0,0,0.0198222,-0.0521926,0.510091,-1.56214,0.0383337,1.55953,1.31737,0.00164122,-0.000590558,-0.000106841,0.00386961,-0.0099928,0.000586633,0.000258343,0.336795,-27.6589,-0.637804,27.2763,0.923458,3.27202,0.0843355,2.57032,1.98486,1.37846,-1.17391,1.67555,0.106825,0.119049,0.829516,0.120807,-0.0289186,0.128725,-0.221046,0.0906029,
0.0204164,-0.0522282,0.510685,-1.56134,0.0251449,-0.0201233,0.531932,0.00609506,-0.00555082,0.00628728,0.00163102,-0.351631,-0.224937,-0.000972041,0,0,0,0,0,0,0,0.0198222,-0.0521926,0.510091,-1.56214,0.0383337,1.55953,1.31737,0.00164122,-0.000590558,-0.000106841,0.00386961,-0.0099928,0.000586633,0.000258343,0.336795,-27.6589,-0.637804,27.2763,0.923458,3.27202,0.0843355,2.57032,1.98486,1.37846,-1.17391,1.67555,0.106825,0.119049,0.829516,0.120807,-0.0289186,0.128725,-0.221046,0.0906029,
0.0204365,-0.0522495,0.510706,-1.56133,0.0237244,-0.0210346,0.531928,0.00501343,-0.00533204,0.00520203,0.00109016,-0.355127,-0.227816,-0.000950136,0,0,0,0,0,0,0,0.0198222,-0.0521926,0.510091,-1.56214,0.0383337,1.55953,1.31737,0.00164122,-0.000590558,-0.000106841,0.00386961,-0.0099928,0.000586633,0.000258343,0.336795,-27.6589,-0.637804,27.2763,0.923458,3.27202,0.0843355,2.59561,2.3135,1.76822,-1.29572,1.55157,0.250408,0.256059,0.697121,0.271353,0.115761,0.163064,-0.208091,0.0909269,
0.0204526,-0.0522697,0.510723,-1.56133,0.0222935,-0.0219544,0.531924,0.00401412,-0.00504857,0.00419811,0.000617832,-0.357723,-0.229966,-0.000928709,0,0,0,0,0,0,0,0.0198222,-0.0521926,0.510091,-1.56214,0.0383337,1.55953,1.31737,0.00164122,-0.000590558,-0.000106841,0.00386961,-0.0099928,0.000586633,0.000258343,0.336795,-27.6589,-0.637804,27.2763,0.923458,3.27202,0.0843355,2.59561,2.3135,1.76822,-1.29572,1.55157,0.250408,0.256059,0.697121,0.271353,0.115761,0.163064,-0.208091,0.0909269,
0.0204649,-0.0522886,0.510736,-1.56133,0.0208552,-0.0228805,0.531921,0.00309578,-0.00472231,0.00327463,0.000203829,-0.35958,-0.231512,-0.000908015,0,0,0,0,0,0,0,0.0198222,-0.0521926,0.510091,-1.56214,0.0383337,1.55953,1.31737,0.00164122,-0.000590558,-0.000106841,0.00386961,-0.0099928,0.000586633,0.000258343,0.336795,-27.6589,-0.637804,27.2763,0.923458,3.27202,0.0843355,2.14895,2.55499,1.56269,-1.55906,1.32517,0.483386,0.475675,0.622909,0.526263,0.0252671,0.154371,-0.253351,0.0916149,
0.0209001,-0.0522607,0.511091,-1.55997,-0.00307306,-0.0542599,0.531448,0.00323459,-0.0101819,0.00234427,0.00112488,-1.13437,-1.15679,-0.0108641,0,0,0,0,0,0,0,0.0199101,-0.0521808,0.510161,-1.56206,0.0360509,1.55943,1.31737,0.0088862,-7.99924e-05,0.00488789,0.00185759,-0.153735,-0.00300369,-0.000201898,-0.551876,-27.7818,-1.33605,26.4551,0.111386,2.86736,0.0779268,2.14895,2.55499,1.56269,-1.55906,1.32517,0.483386,0.475675,0.622909,0.526263,0.0252671,0.154371,-0.253351,0.0916149,
0.0208454,-0.0523473,0.511027,-1.56046,-0.00749319,-0.0496833,0.531504,0.00191779,-0.00953544,0.00113603,0.00118771,-1.14826,-1.04876,-0.00963113,0,0,0,0,0,0,0,0.0199101,-0.0521808,0.510161,-1.56206,0.0360509,1.55943,1.31737,0.0088862,-7.99924e-05,0.00488789,0.00185759,-0.153735,-0.00300369,-0.000201898,-0.551876,-27.7818,-1.33605,26.4551,0.111386,2.86736,0.0779268,1.89709,2.24248,2.10172,-1.28868,0.871231,0.407117,0.387119,0.249148,0.453584,0.270336,0.0449143,-0.249542,0.0901336,
0.0208412,-0.0523779,0.51102,-1.56047,-0.0121481,-0.0539231,0.531466,-0.00103929,-0.00764322,-0.00178988,-0.00211974,-1.16372,-1.05995,-0.00949519,0,0,0,0,0,0,0,0.0199101,-0.0521808,0.510161,-1.56206,0.0360509,1.55943,1.31737,0.0088862,-7.99924e-05,0.00488789,0.00185759,-0.153735,-0.00300369,-0.000201898,-0.551876,-27.7818,-1.33605,26.4551,0.111386,2.86736,0.0779268,2.07149,2.49838,2.24974,-1.5212,0.964692,0.474879,0.447634,0.287565,0.535963,0.245945,-0.00867418,-0.30254,0.08684,
0.0208261,-0.0524004,0.511002,-1.56049,-0.0168545,-0.058193,0.531429,-0.00378461,-0.00563017,-0.00451091,-0.00500839,-1.17661,-1.06747,-0.00936057,0,0,0,0,0,0,0,0.0199101,-0.0521808,0.510161,-1.56206,0.0360509,1.55943,1.31737,0.0088862,-7.99924e-05,0.00488789,0.00185759,-0.153735,-0.00300369,-0.000201898,-0.551876,-27.7818,-1.33605,26.4551,0.111386,2.86736,0.0779268,2.07149,2.49838,2.24974,-1.5212,0.964692,0.474879,0.447634,0.287565,0.535963,0.245945,-0.00867418,-0.30254,0.08684,
0.0208008,-0.0524147,0.510974,-1.56052,-0.021604,-0.0624808,0.531392,-0.0063231,-0.0035713,-0.00703097,-0.00752828,-1.18738,-1.07196,-0.00922764,0,0,0,0,0,0,0,0.0199101,-0.0521808,0.510161,-1.56206,0.0360509,1.55943,1.31737,0.0088862,-7.99924e-05,0.00488789,0.00185759,-0.153735,-0.00300369,-0.000201898,-0.551876,-27.7818,-1.33605,26.4551,0.111386,2.86736,0.0779268,3.86874,3.99544,2.40519,-2.55005,2.20642,0.645855,0.615587,0.942132,0.736893,0.152731,0.0204554,-0.219113,0.0927884,
0.0207662,-0.0524208,0.510936,-1.56056,-0.0263896,-0.0667765,0.531355,-0.00866278,-0.00152228,-0.00935729,-0.00972237,-1.1964,-1.07393,-0.0090966,0,0,0,0,0,0,0,0.0199101,-0.0521808,0.510161,-1.56206,0.0360509,1.55943,1.31737,0.0088862,-7.99924e-05,0.00488789,0.00185759,-0.153735,-0.00300369,-0.000201898,-0.551876,-27.7818,-1.33605,26.4551,0.111386,2.86736,0.0779268,3.86874,3.99544,2.40519,-2.55005,2.20642,0.645855,0.615587,0.942132,0.736893,0.152731,0.0204554,-0.219113,0.0927884,
0.0157438,-0.0513173,0.505584,-1.56365,0.00378109,-0.0490845,0.527718,-0.156286,0.0478124,-0.165887,-0.0781169,-1.012,-1.19572,-0.0919356,0,0,0,0,0,0,0,0.0201516,-0.0522695,0.510457,-1.56173,0.0254969,1.55592,1.31737,0.0213034,-0.00830044,0.0186229,0.0302538,-0.63204,-0.296763,-0.000689607,-1.44055,-27.1352,-2.16124,25.257,-1.2262,1.44829,0.0706026,3.5766,3.49449,2.88667,-2.41965,1.84156,0.476317,0.434811,0.675424,0.580456,0.166819,-0.27317,-0.435147,0.0977612,
0.0157681,-0.0518394,0.505705,-1.5634,-0.0134673,-0.0568076,0.528117,-0.158377,0.0451014,-0.167317,-0.0747179,-1.0608,-1.22557,-0.0823088,0,0,0,0,0,0,0,0.0201516,-0.0522695,0.510457,-1.56173,0.0254969,1.55592,1.31737,0.0213034,-0.00830044,0.0186229,0.0302538,-0.63204,-0.296763,-0.000689607,-1.44055,-27.1352,-2.16124,25.257,-1.2262,1.44829,0.0706026,3.5766,3.49449,2.88667,-2.41965,1.84156,0.476317,0.434811,0.675424,0.580456,0.166819,-0.27317,-0.435147,0.0977612,
0.0151074,-0.0516318,0.505009,-1.56372,-0.0178032,-0.0618018,0.527792,-0.165174,0.0518942,-0.174107,-0.079374,-1.08398,-1.24854,-0.0812574,0,0,0,0,0,0,0,0.0201516,-0.0522695,0.510457,-1.56173,0.0254969,1.55592,1.31737,0.0213034,-0.00830044,0.0186229,0.0302538,-0.63204,-0.296763,-0.000689607,-1.44055,-27.1352,-2.16124,25.257,-1.2262,1.44829,0.0706026,3.38016,2.46144,3.0214,-2.27816,1.78711,0.0297141,-0.017022,0.690355,0.149404,-0.185327,-0.782471,-0.90134,0.098511,
0.0144224,-0.0513987,0.504288,-1.56405,-0.022222,-0.0668722,0.527471,-0.171237,0.0582714,-0.180161,-0.0834801,-1.10471,-1.26761,-0.0802184,0,0,0,0,0,0,0,0.0201516,-0.0522695,0.510457,-1.56173,0.0254969,1.55592,1.31737,0.0213034,-0.00830044,0.0186229,0.0302538,-0.63204,-0.296763,-0.000689607,-1.44055,-27.1352,-2.16124,25.257,-1.2262,1.44829,0.0706026,2.5996,2.85737,3.20642,-2.6106,1.15786,0.428209,0.382387,0.32612,0.557937,-0.123429,-0.829261,-0.965503,0.0904209,
0.0137158,-0.0511419,0.503546,-1.5644,-0.0267148,-0.072006,0.527155,-0.176646,0.0642132,-0.18556,-0.0870792,-1.1232,-1.28343,-0.0791891,0,0,0,0,0,0,0,0.0201516,-0.0522695,0.510457,-1.56173,0.0254969,1.55592,1.31737,0.0213034,-0.00830044,0.0186229,0.0302538,-0.63204,-0.296763,-0.000689607,-1.44055,-27.1352,-2.16124,25.257,-1.2262,1.44829,0.0706026,2.5996,2.85737,3.20642,-2.6106,1.15786,0.428209,0.382387,0.32612,0.557937,-0.123429,-0.829261,-0.965503,0.0904209,
0.01299,-0.050863,0.502784,-1.56476,-0.0312736,-0.0771921,0.526842,-0.18147,0.0697136,-0.190377,-0.0902132,-1.13969,-1.29652,-0.0781674,0,0,0,0,0,0,0,0.020783,-0.0523959,0.5111,-1.5609,0.00300445,1.54426,1.31715,-0.000632824,-0.0144505,0.001388,0.00274871,-0.705372,-0.42286,-0.0236346,-3.82489,-25.9847,-5.00975,24.8087,-0.530399,1.16356,-0.0703886,0.98241,2.62323,4.06252,-2.15471,-0.286152,0.795045,0.771942,-0.586598,0.884381,0.315382,-0.707548,-1.01315,0.0644529,
0.0122469,-0.0505639,0.502006,-1.56514,-0.035891,-0.0824214,0.526533,-0.185768,0.0747759,-0.194671,-0.092922,-1.15435,-1.30732,-0.0771516,0,0,0,0,0,0,0,0.020783,-0.0523959,0.5111,-1.5609,0.00300445,1.54426,1.31715,-0.000632824,-0.0144505,0.001388,0.00274871,-0.705372,-0.42286,-0.0236346,-3.82489,-25.9847,-5.00975,24.8087,-0.530399,1.16356,-0.0703886,0.98241,2.62323,4.06252,-2.15471,-0.286152,0.795045,0.771942,-0.586598,0.884381,0.315382,-0.707548,-1.01315,0.0644529,
0.00975495,-0.0506607,0.499493,-1.56706,-0.0114048,-0.0598974,0.523899,-0.318327,0.106191,-0.331555,-0.155864,-0.991041,-1.21396,-0.157224,0,0,0,0,0,0,0,0.020783,-0.0523959,0.5111,-1.5609,0.00300445,1.54426,1.31715,-0.000632824,-0.0144505,0.001388,0.00274871,-0.705372,-0.42286,-0.0236346,-3.82489,-25.9847,-5.00975,24.8087,-0.530399,1.16356,-0.0703886,2.35411,0.868945,4.44016,-1.05953,0.72798,-0.38626,-0.38427,-0.0397748,-0.346425,0.136161,-0.93412,-1.28526,0.0411787,
0.0104252,-0.050716,0.500226,-1.56597,-0.0361067,-0.0739538,0.52463,-0.309136,0.101823,-0.321295,-0.143112,-1.01054,-1.22795,-0.137253,0,0,0,0,0,0,0,0.020783,-0.0523959,0.5111,-1.5609,0.00300445,1.54426,1.31715,-0.000632824,-0.0144505,0.001388,0.00274871,-0.705372,-0.42286,-0.0236346,-3.82489,-25.9847,-5.00975,24.8087,-0.530399,1.16356,-0.0703886,2.35411,0.868945,4.44016,-1.05953,0.72798,-0.38626,-0.38427,-0.0397748,-0.346425,0.136161,-0.93412,-1.28526,0.0411787,
0.00915348,-0.0502717,0.498906,-1.56656,-0.0402621,-0.0789332,0.524089,-0.317928,0.11108,-0.330123,-0.147208,-1.03884,-1.24485,-0.135315,0,0,0,0,0,0,0,0.020783,-0.0523959,0.5111,-1.5609,0.00300445,1.54426,1.31715,-0.000632824,-0.0144505,0.001388,0.00274871,-0.705372,-0.42286,-0.0236346,-3.82489,-25.9847,-5.00975,24.8087,-0.530399,1.16356,-0.0703886,4.24783,-0.541853,3.92834,-0.433601,2.41853,-1.55827,-1.54943,1.01667,-1.53293,-0.39615,-1.18805,-1.51115,0.0216201,
0.00785073,-0.0497934,0.497554,-1.56716,-0.0445205,-0.0839687,0.523555,-0.325688,0.119553,-0.337914,-0.150762,-1.06461,-1.25887,-0.133393,0,0,0,0,0,0,0,0.0206216,-0.0528022,0.510789,-1.5611,-0.0270012,1.5234,1.31572,-0.0201574,-0.0109609,-0.0370992,-0.0126582,-0.680984,-0.51563,-0.0390155,-6.0545,-24.8103,-6.98546,23.8644,-0.798649,1.05096,-0.110672,2.61956,-0.183375,3.55619,-0.722532,1.43783,-0.918895,-0.915827,0.581912,-0.879531,-0.454464,-1.06565,-1.56472,-0.00548838,
0.00652061,-0.0492843,0.496175,-1.56778,-0.0488724,-0.0890506,0.523029,-0.332531,0.127277,-0.344786,-0.15381,-1.08797,-1.27047,-0.131484,0,0,0,0,0,0,0,0.0206216,-0.0528022,0.510789,-1.5611,-0.0270012,1.5234,1.31572,-0.0201574,-0.0109609,-0.0370992,-0.0126582,-0.680984,-0.51563,-0.0390155,-6.0545,-24.8103,-6.98546,23.8644,-0.798649,1.05096,-0.110672,2.61956,-0.183375,3.55619,-0.722532,1.43783,-0.918895,-0.915827,0.581912,-0.879531,-0.454464,-1.06565,-1.56472,-0.00548838,
0.00516638,-0.0487472,0.494772,-1.5684,-0.0533087,-0.0941708,0.522511,-0.338557,0.134289,-0.350841,-0.156389,-1.10909,-1.28005,-0.129584,0,0,0,0,0,0,0,0.0206216,-0.0528022,0.510789,-1.5611,-0.0270012,1.5234,1.31572,-0.0201574,-0.0109609,-0.0370992,-0.0126582,-0.680984,-0.51563,-0.0390155,-6.0545,-24.8103,-6.98546,23.8644,-0.798649,1.05096,-0.110672,1.10216,-0.132266,2.57985,-0.933185,0.805398,-0.450376,-0.451845,0.458316,-0.397593,-0.774827,-0.93783,-1.65406,-0.0322336,
0.00379097,-0.0481847,0.493347,-1.56904,-0.0578212,-0.0993224,0.522,-0.343852,0.140629,-0.356165,-0.158538,-1.12811,-1.2879,-0.127693,0,0,0,0,0,0,0,0.0206216,-0.0528022,0.510789,-1.5611,-0.0270012,1.5234,1.31572,-0.0201574,-0.0109609,-0.0370992,-0.0126582,-0.680984,-0.51563,-0.0390155,-6.0545,-24.8103,-6.98546,23.8644,-0.798649,1.05096,-0.110672,1.10216,-0.132266,2.57985,-0.933185,0.805398,-0.450376,-0.451845,0.458316,-0.397593,-0.774827,-0.93783,-1.65406,-0.0322336,
0.00546363,-0.0498344,0.495185,-1.56899,-0.0302881,-0.0721028,0.520908,-0.450377,0.151763,-0.464985,-0.211737,-0.926988,-1.19412,-0.209673,0,0,0,0,0,0,0,0.0206216,-0.0528022,0.510789,-1.5611,-0.0270012,1.5234,1.31572,-0.0201574,-0.0109609,-0.0370992,-0.0126582,-0.680984,-0.51563,-0.0390155,-6.0545,-24.8103,-6.98546,23.8644,-0.798649,1.05096,-0.110672,0.742793,-0.600847,2.58071,-0.575007,0.581177,-0.544028,-0.546806,0.349025,-0.500345,-0.758103,-0.910993,-1.69223,-0.0617485,
0.00547461,-0.0501252,0.495104,-1.56846,-0.0615515,-0.0945635,0.520891,-0.43494,0.143611,-0.448151,-0.190087,-0.944332,-1.20046,-0.18027,0,0,0,0,0,0,0,0.0206216,-0.0528022,0.510789,-1.5611,-0.0270012,1.5234,1.31572,-0.0201574,-0.0109609,-0.0370992,-0.0126582,-0.680984,-0.51563,-0.0390155,-6.0545,-24.8103,-6.98546,23.8644,-0.798649,1.05096,-0.110672,0.742793,-0.600847,2.58071,-0.575007,0.581177,-0.544028,-0.546806,0.349025,-0.500345,-0.758103,-0.910993,-1.69223,-0.0617485,
0.00369113,-0.0495051,0.493267,-1.56924,-0.0654702,-0.0994272,0.520182,-0.44587,0.155019,-0.459152,-0.19403,-0.979659,-1.21591,-0.177447,0,0,0,0,0,0,0,0.0190114,-0.0531825,0.50858,-1.56224,-0.0483959,1.50543,1.31401,-0.0668028,-0.0180122,-0.0798525,-0.0451709,-0.70066,-0.627809,-0.0562215,-5.74902,-23.5408,-6.61254,24.1898,-1.02478,1.70739,-0.170181,2.16803,-0.0738953,3.22377,-0.684267,1.31289,-0.674565,-0.673348,0.604506,-0.63758,-0.513961,-0.843187,-1.53425,-0.0879691,
0.00186929,-0.0488436,0.491392,-1.57003,-0.0695183,-0.104342,0.519483,-0.455458,0.165376,-0.468801,-0.197409,-1.01202,-1.22873,-0.174646,0,0,0,0,0,0,0,0.0190114,-0.0531825,0.50858,-1.56224,-0.0483959,1.50543,1.31401,-0.0668028,-0.0180122,-0.0798525,-0.0451709,-0.70066,-0.627809,-0.0562215,-5.74902,-23.5408,-6.61254,24.1898,-1.02478,1.70739,-0.170181,2.96612,0.716674,2.32577,-1.32774,2.16849,-0.490329,-0.491548,1.20094,-0.431467,-0.800953,-0.743344,-1.36819,-0.118829,
1.38625e-05,-0.0481447,0.489483,-1.57083,-0.0736844,-0.109299,0.518796,-0.463858,0.174743,-0.477257,-0.200258,-1.04153,-1.23931,-0.171863,0,0,0,0,0,0,0,0.0190114,-0.0531825,0.50858,-1.56224,-0.0483959,1.50543,1.31401,-0.0668028,-0.0180122,-0.0798525,-0.0451709,-0.70066,-0.627809,-0.0562215,-5.74902,-23.5408,-6.61254,24.1898,-1.02478,1.70739,-0.170181,2.96612,0.716674,2.32577,-1.32774,2.16849,-0.490329,-0.491548,1.20094,-0.431467,-0.800953,-0.743344,-1.36819,-0.118829,
-0.00187094,-0.0474119,0.487545,-1.57164,-0.0779577,-0.114291,0.518119,-0.471202,0.183183,-0.484654,-0.202614,-1.06832,-1.24802,-0.169095,0,0,0,0,0,0,0,0.0190114,-0.0531825,0.50858,-1.56224,-0.0483959,1.50543,1.31401,-0.0668028,-0.0180122,-0.0798525,-0.0451709,-0.70066,-0.627809,-0.0562215,-5.74902,-23.5408,-6.61254,24.1898,-1.02478,1.70739,-0.170181,0.847498,0.351204,1.99004,-0.88697,0.643419,-0.0325345,-0.0478779,0.374039,0.0227723,-0.541563,-0.554054,-1.19208,-0.148024,
-0.00378135,-0.0466489,0.48558,-1.57246,-0.082328,-0.119312,0.517454,-0.477601,0.190757,-0.491106,-0.204513,-1.09257,-1.25514,-0.16634,0,0,0,0,0,0,0,0.0190114,-0.0531825,0.50858,-1.56224,-0.0483959,1.50543,1.31401,-0.0668028,-0.0180122,-0.0798525,-0.0451709,-0.70066,-0.627809,-0.0562215,-5.74902,-23.5408,-6.61254,24.1898,-1.02478,1.70739,-0.170181,0.847498,0.351204,1.99004,-0.88697,0.643419,-0.0325345,-0.0478779,0.374039,0.0227723,-0.541563,-0.554054,-1.19208,-0.148024,
0.000841482,-0.0493505,0.490443,-1.57127,-0.0562369,-0.0927228,0.517308,-0.56613,0.189121,-0.580669,-0.253231,-0.868907,-1.16705,-0.249856,0,0,0,0,0,0,0,0.0154462,-0.0534817,0.504214,-1.56439,-0.0703655,1.48264,1.31154,-0.124199,-0.00166172,-0.167153,-0.0861004,-0.697625,-0.732789,-0.074731,-5.97912,-24.1875,-7.11241,25.0586,-0.963444,2.02508,-0.270889,-0.101434,0.0685572,2.61244,-0.24941,-0.40849,0.129424,0.111548,-0.371654,0.158953,0.022017,-0.357602,-0.963165,-0.173351,
-0.00575055,-0.0487548,0.482486,-1.57417,-0.104747,-0.137683,0.515024,-0.563671,0.195633,-0.576899,-0.232566,-0.939099,-1.18342,-0.21101,0,0,0,0,0,0,0,0.0154462,-0.0534817,0.504214,-1.56439,-0.0703655,1.48264,1.31154,-0.124199,-0.00166172,-0.167153,-0.0861004,-0.697625,-0.732789,-0.074731,-5.97912,-24.1875,-7.11241,25.0586,-0.963444,2.02508,-0.270889,-0.101434,0.0685572,2.61244,-0.24941,-0.40849,0.129424,0.111548,-0.371654,0.158953,0.022017,-0.357602,-0.963165,-0.173351,
-0.00804839,-0.0479258,0.480134,-1.57511,-0.108648,-0.14246,0.514195,-0.574461,0.207242,-0.587787,-0.235513,-0.97526,-1.19425,-0.20736,0,0,0,0,0,0,0,0.0154462,-0.0534817,0.504214,-1.56439,-0.0703655,1.48264,1.31154,-0.124199,-0.00166172,-0.167153,-0.0861004,-0.697625,-0.732789,-0.074731,-5.97912,-24.1875,-7.11241,25.0586,-0.963444,2.02508,-0.270889,1.58539,0.879099,2.53384,-0.725745,0.763134,0.0801425,0.0653893,0.241316,0.117602,-0.00823626,-0.287438,-0.768639,-0.199237,
-0.0103837,-0.0470553,0.477745,-1.57606,-0.112682,-0.147272,0.51338,-0.583827,0.217643,-0.59724,-0.237947,-1.00844,-1.20317,-0.203738,0,0,0,0,0,0,0,0.0154462,-0.0534817,0.504214,-1.56439,-0.0703655,1.48264,1.31154,-0.124199,-0.00166172,-0.167153,-0.0861004,-0.697625,-0.732789,-0.074731,-5.97912,-24.1875,-7.11241,25.0586,-0.963444,2.02508,-0.270889,1.58539,0.879099,2.53384,-0.725745,0.763134,0.0801425,0.0653893,0.241316,0.117602,-0.00823626,-0.287438,-0.768639,-0.199237,
-0.0127514,-0.0461476,0.475324,-1.57702,-0.116837,-0.152114,0.512579,-0.591934,0.226924,-0.605426,-0.239897,-1.03873,-1.21048,-0.200138,0,0,0,0,0,0,0,0.0154462,-0.0534817,0.504214,-1.56439,-0.0703655,1.48264,1.31154,-0.124199,-0.00166172,-0.167153,-0.0861004,-0.697625,-0.732789,-0.074731,-5.97912,-24.1875,-7.11241,25.0586,-0.963444,2.02508,-0.270889,0.756795,1.18077,1.60549,-1.0953,0.536952,0.470422,0.448608,0.293625,0.527989,-0.294359,-0.199937,-0.760943,-0.221588,
-0.0151471,-0.0452069,0.472874,-1.57799,-0.121102,-0.15698,0.511793,-0.598923,0.235169,-0.612489,-0.241393,-1.06625,-1.21641,-0.196559,0,0,0,0,0,0,0,0.0154462,-0.0534817,0.504214,-1.56439,-0.0703655,1.48264,1.31154,-0.124199,-0.00166172,-0.167153,-0.0861004,-0.697625,-0.732789,-0.074731,-5.97912,-24.1875,-7.11241,25.0586,-0.963444,2.02508,-0.270889,0.344141,0.833649,0.72605,-0.929,0.563895,0.447948,0.418827,0.455535,0.509302,-0.522231,-0.109742,-0.706354,-0.240556,
-0.00733514,-0.0489702,0.481296,-1.57565,-0.0966206,-0.131203,0.512693,-0.667471,0.221326,-0.681861,-0.28799,-0.822225,-1.13593,-0.282347,0,0,0,0,0,0,0,0.00985447,-0.0535481,0.497226,-1.56761,-0.0928828,1.45662,1.30894,-0.208321,0.0102419,-0.234877,-0.104331,-0.655397,-0.803504,-0.0817942,-7.04236,-23.6162,-8.06059,24.8602,-1.0614,1.74676,-0.270889,0.344141,0.833649,0.72605,-0.929,0.563895,0.447948,0.418827,0.455535,0.509302,-0.522231,-0.109742,-0.706354,-0.240556,
-0.0133553,-0.0485475,0.473552,-1.57781,-0.121873,-0.158851,0.512028,-0.655657,0.215664,-0.668567,-0.258915,-0.879674,-1.14568,-0.23896,0,0,0,0,0,0,0,0.00985447,-0.0535481,0.497226,-1.56761,-0.0928828,1.45662,1.30894,-0.208321,0.0102419,-0.234877,-0.104331,-0.655397,-0.803504,-0.0817942,-7.04236,-23.6162,-8.06059,24.8602,-1.0614,1.74676,-0.270889,1.01872,1.07866,0.746486,-1.02353,1.04376,0.398967,0.375317,0.709655,0.455896,-0.527267,-0.0472413,-0.644896,-0.256643,
-0.0160295,-0.0476303,0.470825,-1.57886,-0.12556,-0.163479,0.51109,-0.668536,0.229282,-0.681564,-0.262076,-0.92197,-1.15703,-0.234502,0,0,0,0,0,0,0,0.00985447,-0.0535481,0.497226,-1.56761,-0.0928828,1.45662,1.30894,-0.208321,0.0102419,-0.234877,-0.104331,-0.655397,-0.803504,-0.0817942,-7.04236,-23.6162,-8.06059,24.8602,-1.0614,1.74676,-0.270889,1.01872,1.07866,0.746486,-1.02353,1.04376,0.398967,0.375317,0.709655,0.455896,-0.527267,-0.0472413,-0.644896,-0.256643,
-0.0187481,-0.0466647,0.468054,-1.57992,-0.129405,-0.168144,0.51017,-0.679646,0.241417,-0.692771,-0.264683,-0.961054,-1.16638,-0.230085,0,0,0,0,0,0,0,0.00985447,-0.0535481,0.497226,-1.56761,-0.0928828,1.45662,1.30894,-0.208321,0.0102419,-0.234877,-0.104331,-0.655397,-0.803504,-0.0817942,-7.04236,-23.6162,-8.06059,24.8602,-1.0614,1.74676,-0.270889,0.72412,1.3847,1.01456,-1.18211,0.756027,0.623678,0.60329,0.518776,0.680429,-0.436449,-0.0188985,-0.666121,-0.269615,
-0.0215049,-0.045656,0.465245,-1.58099,-0.133392,-0.17284,0.509267,-0.689196,0.25218,-0.702404,-0.266754,-0.996937,-1.17406,-0.225707,0,0,0,0,0,0,0,0.00985447,-0.0535481,0.497226,-1.56761,-0.0928828,1.45662,1.30894,-0.208321,0.0102419,-0.234877,-0.104331,-0.655397,-0.803504,-0.0817942,-7.04236,-23.6162,-8.06059,24.8602,-1.0614,1.74676,-0.270889,0.241374,1.61941,0.201561,-1.60071,0.783326,0.870246,0.845642,0.705536,0.948513,-0.802424,-0.0395188,-0.752433,-0.280946,
-0.0242943,-0.0446093,0.462402,-1.58206,-0.137511,-0.177562,0.508381,-0.697363,0.261674,-0.710646,-0.268315,-1.02971,-1.18031,-0.221364,0,0,0,0,0,0,0,0.00203336,-0.05347,0.488874,-1.57136,-0.112828,1.43265,1.30596,-0.288073,0.00785868,-0.324502,-0.135316,-0.597067,-0.772618,-0.121302,-6.9154,-23.5646,-7.93761,23.9398,-0.793155,1.64055,-0.291031,0.241374,1.61941,0.201561,-1.60071,0.783326,0.870246,0.845642,0.705536,0.948513,-0.802424,-0.0395188,-0.752433,-0.280946,
-0.0271115,-0.0435293,0.459532,-1.58314,-0.141749,-0.182303,0.507513,-0.704297,0.269996,-0.717648,-0.269396,-1.05951,-1.18537,-0.217054,0,0,0,0,0,0,0,0.00203336,-0.05347,0.488874,-1.57136,-0.112828,1.43265,1.30596,-0.288073,0.00785868,-0.324502,-0.135316,-0.597067,-0.772618,-0.121302,-6.9154,-23.5646,-7.93761,23.9398,-0.793155,1.64055,-0.291031,-0.48046,0.43988,-0.218966,-0.862806,0.480788,0.503502,0.473876,0.639726,0.568268,-0.944602,-0.0644438,-0.852389,-0.288403,
-0.0177291,-0.046339,0.470189,-1.58128,-0.124043,-0.162,0.50778,-0.724886,0.2752,-0.716375,-0.321303,-0.879647,-1.13172,-0.299327,0,0,0,0,0,0,0,0.00203336,-0.05347,0.488874,-1.57136,-0.112828,1.43265,1.30596,-0.288073,0.00785868,-0.324502,-0.135316,-0.597067,-0.772618,-0.121302,-6.9154,-23.5646,-7.93761,23.9398,-0.793155,1.64055,-0.291031,-0.48046,0.43988,-0.218966,-0.862806,0.480788,0.503502,0.473876,0.639726,0.568268,-0.944602,-0.0644438,-0.852389,-0.288403,
-0.0272428,-0.0464803,0.46012,-1.5836,-0.145723,-0.1848,0.507483,-0.745399,0.246401,-0.737141,-0.301193,-0.907391,-0.94808,-0.244074,0,0,0,0,0,0,0,0.00203336,-0.05347,0.488874,-1.57136,-0.112828,1.43265,1.30596,-0.288073,0.00785868,-0.324502,-0.135316,-0.597067,-0.772618,-0.121302,-6.9154,-23.5646,-7.93761,23.9398,-0.793155,1.64055,-0.291031,-0.298705,-1.58056,0.340748,0.598822,0.347752,-0.493887,-0.521075,0.446363,-0.471661,-0.713223,-0.258735,-0.90964,-0.287146,
-0.030278,-0.0454504,0.457112,-1.58483,-0.149488,-0.188332,0.506527,-0.758782,0.25749,-0.752029,-0.307538,-0.941356,-0.883,-0.238999,0,0,0,0,0,0,0,0.00203336,-0.05347,0.488874,-1.57136,-0.112828,1.43265,1.30596,-0.288073,0.00785868,-0.324502,-0.135316,-0.597067,-0.772618,-0.121302,-6.9154,-23.5646,-7.93761,23.9398,-0.793155,1.64055,-0.291031,0.265279,-2.15903,0.142781,0.770626,0.815684,-0.897481,-0.917531,0.726806,-0.879974,-0.88939,-0.477654,-0.982064,-0.287549,
-0.0333504,-0.0443797,0.454044,-1.58608,-0.153381,-0.19157,0.505591,-0.76811,0.267675,-0.767079,-0.312435,-0.973221,-0.809576,-0.233909,0,0,0,0,0,0,0,0.00203336,-0.05347,0.488874,-1.57136,-0.112828,1.43265,1.30596,-0.288073,0.00785868,-0.324502,-0.135316,-0.597067,-0.772618,-0.121302,-6.9154,-23.5646,-7.93761,23.9398,-0.793155,1.64055,-0.291031,0.265279,-2.15903,0.142781,0.770626,0.815684,-0.897481,-0.917531,0.726806,-0.879974,-0.88939,-0.477654,-0.982064,-0.287549,
-0.0364533,-0.0432728,0.450921,-1.58734,-0.157391,-0.194484,0.504675,-0.775734,0.276708,-0.780621,-0.31634,-1.00247,-0.728488,-0.228851,0,0,0,0,0,0,0,-0.00778135,-0.0527181,0.47821,-1.57595,-0.131603,1.40998,1.30215,-0.354064,0.0291717,-0.357709,-0.161225,-0.590717,-0.701131,-0.128485,-6.48694,-23.3147,-7.36235,23.6661,-0.829777,1.68084,-0.197647,0.437086,-1.0106,-0.511419,-0.203796,1.26512,-0.400362,-0.416559,1.11305,-0.356276,-1.23476,-0.432018,-1.00802,-0.287297,
-0.0395804,-0.042133,0.44775,-1.58862,-0.161508,-0.197071,0.503779,-0.781765,0.28495,-0.79266,-0.31829,-1.02926,-0.646641,-0.224012,0,0,0,0,0,0,0,-0.00778135,-0.0527181,0.47821,-1.57595,-0.131603,1.40998,1.30215,-0.354064,0.0291717,-0.357709,-0.161225,-0.590717,-0.701131,-0.128485,-6.48694,-23.3147,-7.36235,23.6661,-0.829777,1.68084,-0.197647,0.437086,-1.0106,-0.511419,-0.203796,1.26512,-0.400362,-0.416559,1.11305,-0.356276,-1.23476,-0.432018,-1.00802,-0.287297,
-0.0427341,-0.0409641,0.444548,-1.58989,-0.165725,-0.199325,0.502903,-0.788416,0.29224,-0.800615,-0.319005,-1.05432,-0.563649,-0.219225,0,0,0,0,0,0,0,-0.00778135,-0.0527181,0.47821,-1.57595,-0.131603,1.40998,1.30215,-0.354064,0.0291717,-0.357709,-0.161225,-0.590717,-0.701131,-0.128485,-6.48694,-23.3147,-7.36235,23.6661,-0.829777,1.68084,-0.197647,0.148104,-0.153745,-0.889679,-0.853835,1.25089,0.0726689,0.0540585,1.18731,0.137202,-1.39294,-0.354912,-1.0063,-0.288476,
-0.0270217,-0.0448341,0.460304,-1.58573,-0.145874,-0.185108,0.50428,-0.738842,0.304285,-0.730853,-0.339163,-0.91244,-1.11307,-0.306968,0,0,0,0,0,0,0,-0.00778135,-0.0527181,0.47821,-1.57595,-0.131603,1.40998,1.30215,-0.354064,0.0291717,-0.357709,-0.161225,-0.590717,-0.701131,-0.128485,-6.48694,-23.3147,-7.36235,23.6661,-0.829777,1.68084,-0.197647,0.148104,-0.153745,-0.889679,-0.853835,1.25089,0.0726689,0.0540585,1.18731,0.137202,-1.39294,-0.354912,-1.0063,-0.288476,
-0.0381625,-0.0446403,0.448315,-1.58981,-0.165573,-0.190909,0.50346,-0.759403,0.26341,-0.751536,-0.337333,-0.911526,-0.246132,-0.247665,0,0,0,0,0,0,0,-0.00778135,-0.0527181,0.47821,-1.57595,-0.131603,1.40998,1.30215,-0.354064,0.0291717,-0.357709,-0.161225,-0.590717,-0.701131,-0.128485,-6.48694,-23.3147,-7.36235,23.6661,-0.829777,1.68084,-0.197647,-1.65796,0.157411,-0.831682,-1.09617,-0.0906404,0.650882,0.621571,0.440446,0.73106,-1.25187,-0.369174,-1.02427,-0.290868,
-0.0412525,-0.0435489,0.445255,-1.59118,-0.169334,-0.191446,0.502489,-0.77249,0.272842,-0.764873,-0.340658,-0.940377,-0.13439,-0.242817,0,0,0,0,0,0,0,-0.0201403,-0.0518306,0.465185,-1.58183,-0.148869,1.3918,1.29814,-0.446832,0.0419786,-0.449395,-0.199739,-0.560079,-0.489876,-0.128606,-6.15765,-24.0883,-6.98546,24.3881,-1.68488,2.01867,-0.204056,-1.22872,0.76414,-0.527201,-1.46742,0.0362618,0.841557,0.816198,0.414636,0.926245,-1.1144,-0.396089,-0.935977,-0.285284,
-0.0443863,-0.0424167,0.442151,-1.59252,-0.173205,-0.191633,0.501544,-0.783441,0.28305,-0.776024,-0.336886,-0.96773,-0.0465303,-0.236243,0,0,0,0,0,0,0,-0.0201403,-0.0518306,0.465185,-1.58183,-0.148869,1.3918,1.29814,-0.446832,0.0419786,-0.449395,-0.199739,-0.560079,-0.489876,-0.128606,-6.15765,-24.0883,-6.98546,24.3881,-1.68488,2.01867,-0.204056,-1.22872,0.76414,-0.527201,-1.46742,0.0362618,0.841557,0.816198,0.414636,0.926245,-1.1144,-0.396089,-0.935977,-0.285284,
-0.0475586,-0.041251,0.439008,-1.59385,-0.177174,-0.19153,0.500619,-0.793073,0.291429,-0.785898,-0.3317,-0.992185,0.0257189,-0.231208,0,0,0,0,0,0,0,-0.0201403,-0.0518306,0.465185,-1.58183,-0.148869,1.3918,1.29814,-0.446832,0.0419786,-0.449395,-0.199739,-0.560079,-0.489876,-0.128606,-6.15765,-24.0883,-6.98546,24.3881,-1.68488,2.01867,-0.204056,2.11717,-1.29233,0.129527,0.0651059,2.00603,-0.880747,-0.903599,1.28892,-0.837831,-0.914547,-0.641612,-0.790087,-0.276002,
-0.0507651,-0.0400599,0.435829,-1.59516,-0.181229,-0.191187,0.499714,-0.801645,0.297768,-0.794725,-0.326157,-1.01381,0.0856297,-0.226365,0,0,0,0,0,0,0,-0.0201403,-0.0518306,0.465185,-1.58183,-0.148869,1.3918,1.29814,-0.446832,0.0419786,-0.449395,-0.199739,-0.560079,-0.489876,-0.128606,-6.15765,-24.0883,-6.98546,24.3881,-1.68488,2.01867,-0.204056,2.11717,-1.29233,0.129527,0.0651059,2.00603,-0.880747,-0.903599,1.28892,-0.837831,-0.914547,-0.641612,-0.790087,-0.276002,
-0.0540023,-0.0388512,0.432618,-1.59644,-0.185361,-0.190645,0.498827,-0.809301,0.302174,-0.802642,-0.320622,-1.03286,0.13543,-0.221605,0,0,0,0,0,0,0,-0.0201403,-0.0518306,0.465185,-1.58183,-0.148869,1.3918,1.29814,-0.446832,0.0419786,-0.449395,-0.199739,-0.560079,-0.489876,-0.128606,-6.15765,-24.0883,-6.98546,24.3881,-1.68488,2.01867,-0.204056,2.49529,-1.34706,1.27529,0.380027,1.69383,-0.975192,-0.99178,0.859047,-0.953162,-0.365208,-0.646111,-0.649308,-0.277653,
-0.0378848,-0.0429847,0.448556,-1.59138,-0.165972,-0.201983,0.500334,-0.754882,0.311885,-0.74744,-0.387793,-0.921584,-0.678772,-0.308698,0,0,0,0,0,0,0,-0.0201403,-0.0518306,0.465185,-1.58183,-0.148869,1.3918,1.29814,-0.446832,0.0419786,-0.449395,-0.199739,-0.560079,-0.489876,-0.128606,-6.15765,-24.0883,-6.98546,24.3881,-1.68488,2.01867,-0.204056,0.799541,-0.136978,1.06121,-0.415174,0.462013,0.00629518,-0.0130882,0.176693,0.047795,-0.215131,-0.530701,-0.505281,-0.2755,
-0.0523244,-0.0429426,0.433437,-1.59642,-0.184695,-0.185112,0.499444,-0.773667,0.263016,-0.766248,-0.320671,-0.937484,0.0604042,-0.248841,0,0,0,0,0,0,0,-0.0400827,-0.0496227,0.444594,-1.59233,-0.173987,1.37715,1.29184,-0.492417,0.0717242,-0.513875,-0.26237,-0.584411,-0.147786,-0.146244,-4.81274,-25.6117,-5.58501,25.7806,-1.62354,2.82799,-0.258072,0.799541,-0.136978,1.06121,-0.415174,0.462013,0.00629518,-0.0130882,0.176693,0.047795,-0.215131,-0.530701,-0.505281,-0.2755,
-0.0554615,-0.0418725,0.430329,-1.5977,-0.188548,-0.184779,0.49846,-0.784257,0.267539,-0.777087,-0.319825,-0.963216,0.0832516,-0.245975,0,0,0,0,0,0,0,-0.0400827,-0.0496227,0.444594,-1.59233,-0.173987,1.37715,1.29184,-0.492417,0.0717242,-0.513875,-0.26237,-0.584411,-0.147786,-0.146244,-4.81274,-25.6117,-5.58501,25.7806,-1.62354,2.82799,-0.258072,-1.16612,0.354887,0.845825,-0.709428,-0.932469,0.673563,0.644446,-0.570675,0.727807,-0.0701334,-0.436783,-0.415859,-0.27337,
-0.058633,-0.0407691,0.427185,-1.59894,-0.1925,-0.184387,0.497523,-0.79288,0.275835,-0.785914,-0.309459,-0.988105,0.0979868,-0.234364,0,0,0,0,0,0,0,-0.0400827,-0.0496227,0.444594,-1.59233,-0.173987,1.37715,1.29184,-0.492417,0.0717242,-0.513875,-0.26237,-0.584411,-0.147786,-0.146244,-4.81274,-25.6117,-5.58501,25.7806,-1.62354,2.82799,-0.258072,-1.16612,0.354887,0.845825,-0.709428,-0.932469,0.673563,0.644446,-0.570675,0.727807,-0.0701334,-0.436783,-0.415859,-0.27337,
-0.0618179,-0.0396479,0.423994,-1.60016,-0.196543,-0.183919,0.496606,-0.796239,0.280317,-0.79779,-0.304357,-1.01075,0.117174,-0.229153,0,0,0,0,0,0,0,-0.0400827,-0.0496227,0.444594,-1.59233,-0.173987,1.37715,1.29184,-0.492417,0.0717242,-0.513875,-0.26237,-0.584411,-0.147786,-0.146244,-4.81274,-25.6117,-5.58501,25.7806,-1.62354,2.82799,-0.258072,0.258835,1.56915,0.494747,-1.52519,0.203054,0.98285,0.962624,0.066182,1.04893,-0.235738,-0.328631,-0.282881,-0.269547,
-0.0650148,-0.0385154,0.420767,-1.60136,-0.200674,-0.18337,0.495709,-0.79921,0.283105,-0.80664,-0.300798,-1.03269,0.137221,-0.22443,0,0,0,0,0,0,0,-0.0400827,-0.0496227,0.444594,-1.59233,-0.173987,1.37715,1.29184,-0.492417,0.0717242,-0.513875,-0.26237,-0.584411,-0.147786,-0.146244,-4.81274,-25.6117,-5.58501,25.7806,-1.62354,2.82799,-0.258072,3.57031,0.673505,-0.521779,-1.13076,2.97838,-0.0809642,-0.0956511,1.73621,-0.0201833,-0.821044,-0.458203,-0.247204,-0.269336,
-0.0523118,-0.0429255,0.433483,-1.59643,-0.184743,-0.185113,0.499441,-0.772894,0.264207,-0.76213,-0.321511,-0.941131,0.0604853,-0.248995,0,0,0,0,0,0,0,-0.0557894,-0.0469272,0.428788,-1.59999,-0.192619,1.37541,1.28808,-0.521014,0.0900541,-0.536811,-0.249428,-0.629583,-0.00516886,-0.115827,-4.68579,-27.0082,-5.21208,25.9552,-1.08612,2.80144,-0.224197,3.57031,0.673505,-0.521779,-1.13076,2.97838,-0.0809642,-0.0956511,1.73621,-0.0201833,-0.821044,-0.458203,-0.247204,-0.269336,
-0.088927,-0.0384386,0.395644,-1.6127,-0.232177,-0.186733,0.492112,-0.732854,0.219581,-0.750015,-0.262957,-1.02861,0.296553,-0.204141,0,0,0,0,0,0,0,-0.0557894,-0.0469272,0.428788,-1.59999,-0.192619,1.37541,1.28808,-0.521014,0.0900541,-0.536811,-0.249428,-0.629583,-0.00516886,-0.115827,-4.68579,-27.0082,-5.21208,25.9552,-1.08612,2.80144,-0.224197,3.09608,0.618731,-0.959581,-1.08477,2.72845,0.0321635,0.00820519,1.64,0.0994975,-0.836021,-0.420308,-0.132937,-0.267045,
-0.0918319,-0.0374793,0.392693,-1.61366,-0.236475,-0.185737,0.491364,-0.72623,0.239813,-0.737652,-0.239442,-1.07454,0.248996,-0.186969,0,0,0,0,0,0,0,-0.0557894,-0.0469272,0.428788,-1.59999,-0.192619,1.37541,1.28808,-0.521014,0.0900541,-0.536811,-0.249428,-0.629583,-0.00516886,-0.115827,-4.68579,-27.0082,-5.21208,25.9552,-1.08612,2.80144,-0.224197,3.09608,0.618731,-0.959581,-1.08477,2.72845,0.0321635,0.00820519,1.64,0.0994975,-0.836021,-0.420308,-0.132937,-0.267045,
-0.0947764,-0.0365437,0.389835,-1.61458,-0.240896,-0.184829,0.490612,-0.736121,0.233915,-0.714483,-0.23162,-1.10508,0.227043,-0.188141,0,0,0,0,0,0,0,-0.0557894,-0.0469272,0.428788,-1.59999,-0.192619,1.37541,1.28808,-0.521014,0.0900541,-0.536811,-0.249428,-0.629583,-0.00516886,-0.115827,-4.68579,-27.0082,-5.21208,25.9552,-1.08612,2.80144,-0.224197,1.66439,0.438882,-0.99769,-0.912434,1.67749,0.235426,0.215869,1.0694,0.290755,-0.696897,-0.388792,-0.0970384,-0.264697,
-0.0978184,-0.0357789,0.386838,-1.61532,-0.245097,-0.184018,0.489952,-0.760495,0.191185,-0.749281,-0.184923,-1.05034,0.20288,-0.16488,0,0,0,0,0,0,0,-0.0557894,-0.0469272,0.428788,-1.59999,-0.192619,1.37541,1.28808,-0.521014,0.0900541,-0.536811,-0.249428,-0.629583,-0.00516886,-0.115827,-4.68579,-27.0082,-5.21208,25.9552,-1.08612,2.80144,-0.224197,1.54243,-0.0866138,-1.44731,-0.639841,1.9043,-0.0151549,-0.0277558,1.33875,0.0289507,-0.976908,-0.396908,-0.234047,-0.266849,
-0.100411,-0.0350271,0.383413,-1.61687,-0.249468,-0.182478,0.489386,-0.648058,0.187952,-0.856314,-0.386731,-1.0928,0.384987,-0.141527,0,0,0,0,0,0,0,-0.0726917,-0.0432975,0.411326,-1.60716,-0.213306,1.37671,1.28507,-0.557652,0.125866,-0.580923,-0.221331,-0.714238,0.0985172,-0.076504,-2.68231,-28.857,-3.33556,26.3797,-1.0495,2.39037,-0.190323,1.54243,-0.0866138,-1.44731,-0.639841,1.9043,-0.0151549,-0.0277558,1.33875,0.0289507,-0.976908,-0.396908,-0.234047,-0.266849,
-0.102005,-0.0344571,0.379254,-1.61903,-0.254206,-0.180513,0.488951,-0.398535,0.142495,-1.03976,-0.539133,-1.18451,0.491189,-0.108633,0,0,0,0,0,0,0,-0.0726917,-0.0432975,0.411326,-1.60716,-0.213306,1.37671,1.28507,-0.557652,0.125866,-0.580923,-0.221331,-0.714238,0.0985172,-0.076504,-2.68231,-28.857,-3.33556,26.3797,-1.0495,2.39037,-0.190323,0.74734,1.67167,-1.84565,-1.76919,1.56797,1.00391,0.987563,1.22056,1.07176,-1.09695,-0.174536,-0.197121,-0.265776,
-0.0896746,-0.0369176,0.395245,-1.61462,-0.231517,-0.194431,0.489095,-0.791093,0.262631,-0.786519,-0.323941,-0.969244,0.132072,-0.264016,0,0,0,0,0,0,0,-0.0726917,-0.0432975,0.411326,-1.60716,-0.213306,1.37671,1.28507,-0.557652,0.125866,-0.580923,-0.221331,-0.714238,0.0985172,-0.076504,-2.68231,-28.857,-3.33556,26.3797,-1.0495,2.39037,-0.190323,0.74734,1.67167,-1.84565,-1.76919,1.56797,1.00391,0.987563,1.22056,1.07176,-1.09695,-0.174536,-0.197121,-0.265776,
-0.103486,-0.0357865,0.375418,-1.62241,-0.254162,-0.185955,0.492039,-0.428185,0.366572,-0.968842,-0.156985,-0.899359,-0.0689551,-0.176897,0,0,0,0,0,0,0,-0.0726917,-0.0432975,0.411326,-1.60716,-0.213306,1.37671,1.28507,-0.557652,0.125866,-0.580923,-0.221331,-0.714238,0.0985172,-0.076504,-2.68231,-28.857,-3.33556,26.3797,-1.0495,2.39037,-0.190323,1.69795,-0.517069,-1.61026,-0.358646,2.05181,-0.230795,-0.255951,1.43643,-0.181166,-1.00218,-0.44185,-0.196905,-0.259796,
-0.103888,-0.0348689,0.370843,-1.62457,-0.258669,-0.184908,0.491392,-0.100535,0.229389,-1.1438,-0.538767,-1.12684,0.26164,-0.161697,0,0,0,0,0,0,0,-0.0726917,-0.0432975,0.411326,-1.60716,-0.213306,1.37671,1.28507,-0.557652,0.125866,-0.580923,-0.221331,-0.714238,0.0985172,-0.076504,-2.68231,-28.857,-3.33556,26.3797,-1.0495,2.39037,-0.190323,1.69795,-0.517069,-1.61026,-0.358646,2.05181,-0.230795,-0.255951,1.43643,-0.181166,-1.00218,-0.44185,-0.196905,-0.259796,
-0.10654,-0.0338389,0.368169,-1.62507,-0.262721,-0.185075,0.490996,-0.662967,0.257497,-0.668389,-0.125031,-1.01292,-0.0416465,-0.0990589,0,0,0,0,0,0,0,-0.0726917,-0.0432975,0.411326,-1.60716,-0.213306,1.37671,1.28507,-0.557652,0.125866,-0.580923,-0.221331,-0.714238,0.0985172,-0.076504,-2.68231,-28.857,-3.33556,26.3797,-1.0495,2.39037,-0.190323,1.34686,-0.700032,-0.762614,-0.13436,1.46427,-0.285902,-0.307242,0.979063,-0.247934,-0.684087,-0.471198,-0.241234,-0.254899,
-0.107806,-0.0328566,0.365852,-1.62514,-0.268542,-0.18586,0.490907,-0.316439,0.245576,-0.579306,-0.0167887,-1.45529,-0.196257,-0.0223079,0,0,0,0,0,0,0,-0.0886994,-0.0391671,0.390389,-1.61476,-0.238343,1.38298,1.28302,-0.404598,0.125221,-0.78245,-0.289057,-0.804418,0.307572,-0.0441126,-2.60693,-28.3809,-3.21257,23.7137,-0.85358,1.08391,-0.204056,-4.69946,0.252719,0.13245,-0.570515,-3.11721,1.0806,1.04435,-1.59014,1.12628,-0.0604601,-0.284668,-0.368392,-0.247363,
-0.108798,-0.0319299,0.364792,-1.62466,-0.275686,-0.186946,0.490106,-0.247921,0.231693,-0.264948,0.119897,-1.786,-0.271656,-0.200244,0,0,0,0,0,0,0,-0.0886994,-0.0391671,0.390389,-1.61476,-0.238343,1.38298,1.28302,-0.404598,0.125221,-0.78245,-0.289057,-0.804418,0.307572,-0.0441126,-2.60693,-28.3809,-3.21257,23.7137,-0.85358,1.08391,-0.204056,-4.69946,0.252719,0.13245,-0.570515,-3.11721,1.0806,1.04435,-1.59014,1.12628,-0.0604601,-0.284668,-0.368392,-0.247363,
-0.104838,-0.0344963,0.375603,-1.62421,-0.254766,-0.190044,0.48913,-0.505782,0.405571,-0.934967,-0.204383,-1.01208,-0.148308,-0.234207,0,0,0,0,0,0,0,-0.0886994,-0.0391671,0.390389,-1.61476,-0.238343,1.38298,1.28302,-0.404598,0.125221,-0.78245,-0.289057,-0.804418,0.307572,-0.0441126,-2.60693,-28.3809,-3.21257,23.7137,-0.85358,1.08391,-0.204056,-3.05651,-1.00097,-0.392179,0.123977,-1.68876,0.171417,0.138741,-0.687817,0.20697,-0.405697,-0.434577,-0.430513,-0.246886,
-0.101107,-0.0361625,0.366469,-1.61944,-0.295352,-0.178659,0.488477,0.0564055,-0.301648,-0.909302,-0.815091,-0.864631,0.828562,-0.0898845,0,0,0,0,0,0,0,-0.0886994,-0.0391671,0.390389,-1.61476,-0.238343,1.38298,1.28302,-0.404598,0.125221,-0.78245,-0.289057,-0.804418,0.307572,-0.0441126,-2.60693,-28.3809,-3.21257,23.7137,-0.85358,1.08391,-0.204056,-3.05651,-1.00097,-0.392179,0.123977,-1.68876,0.171417,0.138741,-0.687817,0.20697,-0.405697,-0.434577,-0.430513,-0.246886,
-0.103093,-0.0372011,0.364457,-1.6217,-0.298066,-0.176276,0.486333,-0.49655,-0.259646,-0.502965,-0.565657,-0.678415,0.595789,-0.53605,0,0,0,0,0,0,0,-0.0886994,-0.0391671,0.390389,-1.61476,-0.238343,1.38298,1.28302,-0.404598,0.125221,-0.78245,-0.289057,-0.804418,0.307572,-0.0441126,-2.60693,-28.3809,-3.21257,23.7137,-0.85358,1.08391,-0.204056,1.6316,-4.18573,-2.26007,1.86254,2.53532,-2.14917,-2.16986,2.02774,-2.1399,-1.50311,-0.769484,-0.585569,-0.233114,
-0.105188,-0.0373283,0.362356,-1.62376,-0.300754,-0.173931,0.484659,-0.52372,-0.0317897,-0.525203,-0.515281,-0.671951,0.586084,-0.418362,0,0,0,0,0,0,0,-0.103195,-0.0296023,0.359687,-1.61982,-0.275143,1.39016,1.28191,-0.527405,0.28796,-0.537848,-0.0231394,-0.983921,0.0787317,-0.0268514,3.65741,-30.9755,2.98829,21.0477,-0.292362,1.90606,-0.177505,0.858135,-3.45932,-0.0144763,1.45625,0.929731,-1.68428,-1.65903,0.671347,-1.71585,-0.573606,-0.940517,-0.553932,-0.222012,
-0.107472,-0.0369412,0.360133,-1.62427,-0.303103,-0.172683,0.483216,-0.57099,0.0967711,-0.555637,-0.127259,-0.587218,0.312046,-0.360852,0,0,0,0,0,0,0,-0.103195,-0.0296023,0.359687,-1.61982,-0.275143,1.39016,1.28191,-0.527405,0.28796,-0.537848,-0.0231394,-0.983921,0.0787317,-0.0268514,3.65741,-30.9755,2.98829,21.0477,-0.292362,1.90606,-0.177505,0.858135,-3.45932,-0.0144763,1.45625,0.929731,-1.68428,-1.65903,0.671347,-1.71585,-0.573606,-0.940517,-0.553932,-0.222012,
-0.109895,-0.036316,0.357704,-1.62569,-0.305137,-0.170467,0.482374,-0.605819,0.156303,-0.607343,-0.355844,-0.508599,0.553927,-0.210391,0,0,0,0,0,0,0,-0.103195,-0.0296023,0.359687,-1.61982,-0.275143,1.39016,1.28191,-0.527405,0.28796,-0.537848,-0.0231394,-0.983921,0.0787317,-0.0268514,3.65741,-30.9755,2.98829,21.0477,-0.292362,1.90606,-0.177505,4.22073,0.628376,-2.67094,-1.61697,4.56323,0.077683,0.124877,2.98735,0.0785851,-1.85397,-0.761096,-0.415953,-0.229492,
-0.112899,-0.0355478,0.355713,-1.62667,-0.306811,-0.168685,0.48119,-0.75107,0.19204,-0.497675,-0.243651,-0.418415,0.445662,-0.296138,0,0,0,0,0,0,0,-0.103195,-0.0296023,0.359687,-1.61982,-0.275143,1.39016,1.28191,-0.527405,0.28796,-0.537848,-0.0231394,-0.983921,0.0787317,-0.0268514,3.65741,-30.9755,2.98829,21.0477,-0.292362,1.90606,-0.177505,4.22073,0.628376,-2.67094,-1.61697,4.56323,0.077683,0.124877,2.98735,0.0785851,-1.85397,-0.761096,-0.415953,-0.229492,
-0.103335,-0.0351502,0.365427,-1.62079,-0.295822,-0.18575,0.485685,-0.0314515,-0.263586,-0.890119,-0.847472,-1.03544,0.641466,-0.143907,0,0,0,0,0,0,0,-0.103195,-0.0296023,0.359687,-1.61982,-0.275143,1.39016,1.28191,-0.527405,0.28796,-0.537848,-0.0231394,-0.983921,0.0787317,-0.0268514,3.65741,-30.9755,2.98829,21.0477,-0.292362,1.90606,-0.177505,5.84164,2.36512,-5.08505,-2.90425,6.79509,0.874955,0.913641,4.57785,0.90704,-2.8402,-0.564946,-0.287404,-0.237412,
-0.13485,-0.0197597,0.325084,-1.63872,-0.313015,-0.16053,0.481647,-0.749461,0.276409,-0.764877,-0.323214,-0.687062,0.451236,-0.254738,0,0,0,0,0,0,0,-0.103195,-0.0296023,0.359687,-1.61982,-0.275143,1.39016,1.28191,-0.527405,0.28796,-0.537848,-0.0231394,-0.983921,0.0787317,-0.0268514,3.65741,-30.9755,2.98829,21.0477,-0.292362,1.90606,-0.177505,5.84164,2.36512,-5.08505,-2.90425,6.79509,0.874955,0.913641,4.57785,0.90704,-2.8402,-0.564946,-0.287404,-0.237412,
-0.137842,-0.0186485,0.32203,-1.63998,-0.315686,-0.158694,0.480677,-0.748143,0.277822,-0.763385,-0.314354,-0.66773,0.458876,-0.24246,0,0,0,0,0,0,0,-0.120865,-0.0253759,0.340603,-1.62727,-0.297509,1.40249,1.27598,-0.613766,0.212579,-0.532106,-0.219127,-0.5667,0.472081,-0.240913,-0.40112,-32.8481,-0.736986,25.0864,0.361325,1.20934,-0.190323,-6.56283,2.3829,-0.259303,-2.24023,-4.13841,2.25939,2.29674,-2.11194,2.25012,-0.24459,-0.397677,-0.396778,-0.240746,
-0.140832,-0.0175439,0.31898,-1.64122,-0.318232,-0.156793,0.479723,-0.747441,0.276142,-0.76259,-0.310363,-0.636539,0.475335,-0.238423,0,0,0,0,0,0,0,-0.120865,-0.0253759,0.340603,-1.62727,-0.297509,1.40249,1.27598,-0.613766,0.212579,-0.532106,-0.219127,-0.5667,0.472081,-0.240913,-0.40112,-32.8481,-0.736986,25.0864,0.361325,1.20934,-0.190323,-6.81138,-0.0707154,-0.81174,-0.469094,-4.01587,0.918913,0.977051,-1.79439,0.865327,-0.447038,-0.336727,-0.483495,-0.239327,
-0.143819,-0.0164495,0.315933,-1.64245,-0.320619,-0.154822,0.478784,-0.746591,0.273607,-0.761658,-0.307083,-0.596755,0.492789,-0.2347,0,0,0,0,0,0,0,-0.120865,-0.0253759,0.340603,-1.62727,-0.297509,1.40249,1.27598,-0.613766,0.212579,-0.532106,-0.219127,-0.5667,0.472081,-0.240913,-0.40112,-32.8481,-0.736986,25.0864,0.361325,1.20934,-0.190323,-6.81138,-0.0707154,-0.81174,-0.469094,-4.01587,0.918913,0.977051,-1.79439,0.865327,-0.447038,-0.336727,-0.483495,-0.239327,
-0.146799,-0.0153655,0.312892,-1.64366,-0.322821,-0.152801,0.47786,-0.745152,0.270997,-0.760149,-0.302926,-0.550486,0.50519,-0.231034,0,0,0,0,0,0,0,-0.120865,-0.0253759,0.340603,-1.62727,-0.297509,1.40249,1.27598,-0.613766,0.212579,-0.532106,-0.219127,-0.5667,0.472081,-0.240913,-0.40112,-32.8481,-0.736986,25.0864,0.361325,1.20934,-0.190323,-1.46831,-0.708156,-2.62501,-0.00498623,0.469934,0.0380432,0.0976126,0.919638,-0.0142324,-1.28903,-0.211842,-0.292591,-0.245278,
-0.135453,-0.0194096,0.324671,-1.6402,-0.317016,-0.159367,0.479032,-0.79001,0.290061,-0.804091,-0.360353,-0.794025,0.521564,-0.305904,0,0,0,0,0,0,0,-0.120865,-0.0253759,0.340603,-1.62727,-0.297509,1.40249,1.27598,-0.613766,0.212579,-0.532106,-0.219127,-0.5667,0.472081,-0.240913,-0.40112,-32.8481,-0.736986,25.0864,0.361325,1.20934,-0.190323,-1.46831,-0.708156,-2.62501,-0.00498623,0.469934,0.0380432,0.0976126,0.919638,-0.0142324,-1.28903,-0.211842,-0.292591,-0.245278,
-0.154603,-0.0153753,0.306247,-1.64166,-0.311427,-0.136567,0.477313,-0.734528,0.227766,-0.748294,-0.288268,-0.0422207,0.697292,-0.251666,0,0,0,0,0,0,0,-0.138647,-0.0204054,0.322393,-1.63541,-0.316296,1.41833,1.27005,-0.543042,0.19598,-0.565109,-0.238418,-0.552148,0.517353,-0.156056,-2.47998,-31.4278,-2.7365,25.9552,-0.50568,1.75316,-0.170181,-4.82374,-5.4082,-0.967968,3.2222,-2.69785,-2.18426,-2.14834,-0.884372,-2.25251,-0.424705,-0.490673,-0.441397,-0.236437,
-0.157524,-0.0144606,0.303272,-1.6428,-0.311446,-0.133753,0.476328,-0.730312,0.228662,-0.743971,-0.285848,-0.0048464,0.703356,-0.246244,0,0,0,0,0,0,0,-0.138647,-0.0204054,0.322393,-1.63541,-0.316296,1.41833,1.27005,-0.543042,0.19598,-0.565109,-0.238418,-0.552148,0.517353,-0.156056,-2.47998,-31.4278,-2.7365,25.9552,-0.50568,1.75316,-0.170181,-5.31953,-4.28496,-0.379118,2.65617,-3.29186,-1.62219,-1.58553,-1.32775,-1.68602,-0.166558,-0.304719,-0.406392,-0.230336,
-0.160429,-0.0135486,0.300312,-1.64394,-0.311307,-0.13089,0.475351,-0.726246,0.228021,-0.739805,-0.285274,0.0347876,0.715733,-0.244193,0,0,0,0,0,0,0,-0.138647,-0.0204054,0.322393,-1.63541,-0.316296,1.41833,1.27005,-0.543042,0.19598,-0.565109,-0.238418,-0.552148,0.517353,-0.156056,-2.47998,-31.4278,-2.7365,25.9552,-0.50568,1.75316,-0.170181,-5.31953,-4.28496,-0.379118,2.65617,-3.29186,-1.62219,-1.58553,-1.32775,-1.68602,-0.166558,-0.304719,-0.406392,-0.230336,
-0.163316,-0.0126408,0.297371,-1.64508,-0.311011,-0.127972,0.474398,-0.721808,0.226943,-0.735287,-0.284555,0.0739913,0.729569,-0.238224,0,0,0,0,0,0,0,-0.138647,-0.0204054,0.322393,-1.63541,-0.316296,1.41833,1.27005,-0.543042,0.19598,-0.565109,-0.238418,-0.552148,0.517353,-0.156056,-2.47998,-31.4278,-2.7365,25.9552,-0.50568,1.75316,-0.170181,-1.52418,-1.07218,-0.268762,0.706777,-0.812651,-0.240121,-0.203168,-0.248688,-0.283337,-0.154925,-0.0202202,-0.100447,-0.23129,
-0.166185,-0.0117384,0.294449,-1.64621,-0.310549,-0.125005,0.473445,-0.717134,0.225587,-0.730532,-0.283105,0.115506,0.741825,-0.238267,0,0,0,0,0,0,0,-0.138647,-0.0204054,0.322393,-1.63541,-0.316296,1.41833,1.27005,-0.543042,0.19598,-0.565109,-0.238418,-0.552148,0.517353,-0.156056,-2.47998,-31.4278,-2.7365,25.9552,-0.50568,1.75316,-0.170181,-1.52418,-1.07218,-0.268762,0.706777,-0.812651,-0.240121,-0.203168,-0.248688,-0.283337,-0.154925,-0.0202202,-0.100447,-0.23129,
-0.169031,-0.01084,0.29155,-1.64733,-0.309931,-0.122031,0.472527,-0.71147,0.224618,-0.724814,-0.279491,0.154434,0.743443,-0.22948,0,0,0,0,0,0,0,-0.138647,-0.0204054,0.322393,-1.63541,-0.316296,1.41833,1.27005,-0.543042,0.19598,-0.565109,-0.238418,-0.552148,0.517353,-0.156056,-2.47998,-31.4278,-2.7365,25.9552,-0.50568,1.75316,-0.170181,3.46086,3.95916,-1.5384,-2.48852,3.27793,2.08607,2.13772,1.91629,2.05843,-0.875824,0.411751,0.12751,-0.242316,
-0.156072,-0.014771,0.305085,-1.64301,-0.319908,-0.138315,0.474818,-0.791756,0.248579,-0.80682,-0.321761,-0.221558,0.670068,-0.299948,0,0,0,0,0,0,0,-0.157098,-0.0154213,0.303015,-1.64323,-0.32807,1.43498,1.26577,-0.641164,0.117889,-0.670998,-0.25299,-0.143931,0.569615,-0.133619,-0.0718349,-30.9279,-0.387865,26.7288,0.379635,2.10473,-0.224197,3.46086,3.95916,-1.5384,-2.48852,3.27793,2.08607,2.13772,1.91629,2.05843,-0.875824,0.411751,0.12751,-0.242316,
-0.190683,-0.00685508,0.268731,-1.65621,-0.324311,-0.106925,0.467468,-0.691746,0.188543,-0.703146,-0.28611,0.117295,0.392081,-1.09211,0,0,0,0,0,0,0,-0.157098,-0.0154213,0.303015,-1.64323,-0.32807,1.43498,1.26577,-0.641164,0.117889,-0.670998,-0.25299,-0.143931,0.569615,-0.133619,-0.0718349,-30.9279,-0.387865,26.7288,0.379635,2.10473,-0.224197,7.03222,1.58166,-2.67871,-0.949997,6.32631,0.587008,0.637042,3.86284,0.554139,-1.51634,0.332244,0.0521149,-0.247365,
-0.193291,-0.00595765,0.266066,-1.65707,-0.324795,-0.106716,0.468464,-0.651891,0.224357,-0.666375,-0.214187,-0.121028,0.0522903,0.249053,0,0,0,0,0,0,0,-0.157098,-0.0154213,0.303015,-1.64323,-0.32807,1.43498,1.26577,-0.641164,0.117889,-0.670998,-0.25299,-0.143931,0.569615,-0.133619,-0.0718349,-30.9279,-0.387865,26.7288,0.379635,2.10473,-0.224197,5.9951,-0.847634,-2.59879,0.718573,5.59244,-0.647404,-0.604023,3.61828,-0.686575,-1.45941,0.279688,-0.0671156,-0.246314,
-0.195965,-0.005197,0.263333,-1.6582,-0.324739,-0.105701,0.467427,-0.668512,0.190162,-0.683147,-0.281788,0.013913,0.25363,-0.259317,0,0,0,0,0,0,0,-0.157098,-0.0154213,0.303015,-1.64323,-0.32807,1.43498,1.26577,-0.641164,0.117889,-0.670998,-0.25299,-0.143931,0.569615,-0.133619,-0.0718349,-30.9279,-0.387865,26.7288,0.379635,2.10473,-0.224197,5.9951,-0.847634,-2.59879,0.718573,5.59244,-0.647404,-0.604023,3.61828,-0.686575,-1.45941,0.279688,-0.0671156,-0.246314,
-0.198649,-0.00444865,0.260592,-1.65935,-0.324409,-0.104408,0.466484,-0.670981,0.187089,-0.685395,-0.288055,0.0824964,0.323307,-0.235835,0,0,0,0,0,0,0,-0.157098,-0.0154213,0.303015,-1.64323,-0.32807,1.43498,1.26577,-0.641164,0.117889,-0.670998,-0.25299,-0.143931,0.569615,-0.133619,-0.0718349,-30.9279,-0.387865,26.7288,0.379635,2.10473,-0.224197,1.21399,0.472088,-0.836353,0.196488,1.37795,0.335804,0.376541,1.02085,0.294115,-0.465779,0.568235,0.00302916,-0.242883,
-0.20133,-0.00369986,0.257853,-1.6605,-0.323855,-0.102912,0.465537,-0.670454,0.187197,-0.684712,-0.286881,0.138678,0.374014,-0.236599,0,0,0,0,0,0,0,-0.176871,-0.0105755,0.282072,-1.65008,-0.329694,1.45386,1.26113,-0.63125,0.182419,-0.659099,-0.18561,-0.0716049,0.562353,-0.162551,-0.452694,-33.0226,-0.610033,24.5865,-0.535892,1.4016,-0.163772,1.21399,0.472088,-0.836353,0.196488,1.37795,0.335804,0.376541,1.02085,0.294115,-0.465779,0.568235,0.00302916,-0.242883,
-0.204,-0.00294724,0.255126,-1.66163,-0.323121,-0.101281,0.464605,-0.667522,0.188154,-0.681639,-0.282558,0.183319,0.407872,-0.233112,0,0,0,0,0,0,0,-0.176871,-0.0105755,0.282072,-1.65008,-0.329694,1.45386,1.26113,-0.63125,0.182419,-0.659099,-0.18561,-0.0716049,0.562353,-0.162551,-0.452694,-33.0226,-0.610033,24.5865,-0.535892,1.4016,-0.163772,0.432902,1.37615,-2.42921,-0.407621,1.58495,0.914492,0.948931,1.42615,0.882336,-1.0582,0.654061,0.0303929,-0.239703,
-0.19252,-0.00651655,0.266781,-1.65739,-0.322449,-0.106299,0.46529,-0.746985,0.204888,-0.760544,-0.314599,0.180887,0.41623,-1.09564,0,0,0,0,0,0,0,-0.176871,-0.0105755,0.282072,-1.65008,-0.329694,1.45386,1.26113,-0.63125,0.182419,-0.659099,-0.18561,-0.0716049,0.562353,-0.162551,-0.452694,-33.0226,-0.610033,24.5865,-0.535892,1.4016,-0.163772,0.432902,1.37615,-2.42921,-0.407621,1.58495,0.914492,0.948931,1.42615,0.882336,-1.0582,0.654061,0.0303929,-0.239703,
-0.2094,-0.00247723,0.248791,-1.66298,-0.315432,-0.0896895,0.461111,-0.664504,0.178458,-0.67982,-0.265563,0.491483,0.5506,-0.254032,0,0,0,0,0,0,0,-0.176871,-0.0105755,0.282072,-1.65008,-0.329694,1.45386,1.26113,-0.63125,0.182419,-0.659099,-0.18561,-0.0716049,0.562353,-0.162551,-0.452694,-33.0226,-0.610033,24.5865,-0.535892,1.4016,-0.163772,-1.65022,-1.16172,-3.22766,1.01103,0.715707,-0.402883,-0.380664,1.36112,-0.427543,-1.50312,0.333585,-0.285205,-0.234229,
-0.21203,-0.00176602,0.246101,-1.66403,-0.31334,-0.087534,0.460111,-0.657485,0.177803,-0.672673,-0.262684,0.52318,0.538893,-0.250049,0,0,0,0,0,0,0,-0.176871,-0.0105755,0.282072,-1.65008,-0.329694,1.45386,1.26113,-0.63125,0.182419,-0.659099,-0.18561,-0.0716049,0.562353,-0.162551,-0.452694,-33.0226,-0.610033,24.5865,-0.535892,1.4016,-0.163772,-3.75499,0.716305,-2.94665,-0.294854,-0.742082,0.653466,0.67663,0.488439,0.630222,-1.44245,0.311606,-0.385893,-0.230824,
-0.214634,-0.00106187,0.243437,-1.66508,-0.311114,-0.0854169,0.459124,-0.650958,0.176037,-0.666013,-0.260984,0.55631,0.529271,-0.246632,0,0,0,0,0,0,0,-0.176871,-0.0105755,0.282072,-1.65008,-0.329694,1.45386,1.26113,-0.63125,0.182419,-0.659099,-0.18561,-0.0716049,0.562353,-0.162551,-0.452694,-33.0226,-0.610033,24.5865,-0.535892,1.4016,-0.163772,-3.75499,0.716305,-2.94665,-0.294854,-0.742082,0.653466,0.67663,0.488439,0.630222,-1.44245,0.311606,-0.385893,-0.230824,
-0.21721,-0.000366399,0.2408,-1.66612,-0.308783,-0.0833323,0.458151,-0.644109,0.173868,-0.659013,-0.259728,0.582795,0.52115,-0.243275,0,0,0,0,0,0,0,-0.196999,-0.00439286,0.261132,-1.65504,-0.329516,1.47073,1.25768,-0.647112,0.194139,-0.679651,-0.165791,0.0655578,0.573852,-0.202059,0.919986,-34.1216,0.639662,24.8364,-0.512089,1.95275,-0.270889,-3.72236,2.56446,-2.23483,-1.44859,-1.14356,1.65819,1.68345,-0.0258623,1.634,-1.07688,0.386897,-0.23852,-0.232284,
-0.219758,0.000318903,0.238193,-1.66715,-0.306363,-0.0812703,0.457191,-0.637123,0.171325,-0.651894,-0.258807,0.605089,0.515503,-0.240036,0,0,0,0,0,0,0,-0.196999,-0.00439286,0.261132,-1.65504,-0.329516,1.47073,1.25768,-0.647112,0.194139,-0.679651,-0.165791,0.0655578,0.573852,-0.202059,0.919986,-34.1216,0.639662,24.8364,-0.512089,1.95275,-0.270889,-3.72236,2.56446,-2.23483,-1.44859,-1.14356,1.65819,1.68345,-0.0258623,1.634,-1.07688,0.386897,-0.23852,-0.232284,
-0.227419,0.00216086,0.230313,-1.67101,-0.300601,-0.0779646,0.452353,-0.671695,0.179413,-0.68738,-0.285848,0.643224,0.507809,-0.272689,0,0,0,0,0,0,0,-0.196999,-0.00439286,0.261132,-1.65504,-0.329516,1.47073,1.25768,-0.647112,0.194139,-0.679651,-0.165791,0.0655578,0.573852,-0.202059,0.919986,-34.1216,0.639662,24.8364,-0.512089,1.95275,-0.270889,-1.80858,3.10494,-2.41506,-1.68306,0.274645,1.88152,1.91066,0.722624,1.85308,-1.23609,0.504892,-0.219437,-0.23518,
-0.210901,-0.00228495,0.247217,-1.66411,-0.31491,-0.0902426,0.459121,-0.709472,0.189621,-0.726141,-0.293118,0.500779,0.535501,-0.296294,0,0,0,0,0,0,0,-0.196999,-0.00439286,0.261132,-1.65504,-0.329516,1.47073,1.25768,-0.647112,0.194139,-0.679651,-0.165791,0.0655578,0.573852,-0.202059,0.919986,-34.1216,0.639662,24.8364,-0.512089,1.95275,-0.270889,-0.708162,-2.8997,-1.58836,2.0699,0.667011,-1.47678,-1.46169,1.11992,-1.49002,-0.990239,0.0890362,-0.420084,-0.229953,
-0.228662,0.00289805,0.228705,-1.66754,-0.305044,-0.07226,0.459082,-0.622591,0.150619,-0.637519,-0.257962,0.605824,0.527052,-0.253798,0,0,0,0,0,0,0,-0.196999,-0.00439286,0.261132,-1.65504,-0.329516,1.47073,1.25768,-0.647112,0.194139,-0.679651,-0.165791,0.0655578,0.573852,-0.202059,0.919986,-34.1216,0.639662,24.8364,-0.512089,1.95275,-0.270889,-0.708162,-2.8997,-1.58836,2.0699,0.667011,-1.47678,-1.46169,1.11992,-1.49002,-0.990239,0.0890362,-0.420084,-0.229953,
-0.231114,0.00349399,0.226194,-1.66857,-0.302645,-0.0701811,0.458082,-0.613155,0.148986,-0.627965,-0.255674,0.599549,0.519736,-0.250006,0,0,0,0,0,0,0,-0.216744,0.00114478,0.240332,-1.66118,-0.323088,1.489,1.24867,-0.631587,0.172949,-0.657001,-0.200256,0.326429,0.594339,-0.19841,1.40003,-34.6214,1.36171,26.0068,0.190121,2.04522,-0.143631,1.26005,-2.14339,-1.58963,1.61317,1.9405,-1.05087,-1.02198,1.6828,-1.07727,-0.987866,0.136985,-0.301687,-0.230587,
-0.233532,0.00407973,0.223717,-1.66959,-0.300267,-0.0681145,0.457096,-0.604533,0.146435,-0.61923,-0.254548,0.594631,0.516642,-0.246655,0,0,0,0,0,0,0,-0.216744,0.00114478,0.240332,-1.66118,-0.323088,1.489,1.24867,-0.631587,0.172949,-0.657001,-0.200256,0.326429,0.594339,-0.19841,1.40003,-34.6214,1.36171,26.0068,0.190121,2.04522,-0.143631,1.26005,-2.14339,-1.58963,1.61317,1.9405,-1.05087,-1.02198,1.6828,-1.07727,-0.987866,0.136985,-0.301687,-0.230587,
-0.235918,0.00465434,0.221273,-1.6706,-0.297903,-0.0660589,0.456122,-0.596428,0.143651,-0.611012,-0.253142,0.591036,0.513913,-0.243419,0,0,0,0,0,0,0,-0.216744,0.00114478,0.240332,-1.66118,-0.323088,1.489,1.24867,-0.631587,0.172949,-0.657001,-0.200256,0.326429,0.594339,-0.19841,1.40003,-34.6214,1.36171,26.0068,0.190121,2.04522,-0.143631,1.81188,0.834032,-1.30982,-0.217312,2.17514,0.592311,0.624304,1.54378,0.559598,-0.89204,0.334266,-0.216628,-0.229036,
-0.238272,0.0052181,0.21886,-1.6716,-0.295547,-0.0640317,0.455161,-0.588589,0.140941,-0.603055,-0.250582,0.588883,0.506799,-0.240319,0,0,0,0,0,0,0,-0.216744,0.00114478,0.240332,-1.66118,-0.323088,1.489,1.24867,-0.631587,0.172949,-0.657001,-0.200256,0.326429,0.594339,-0.19841,1.40003,-34.6214,1.36171,26.0068,0.190121,2.04522,-0.143631,1.81188,0.834032,-1.30982,-0.217312,2.17514,0.592311,0.624304,1.54378,0.559598,-0.89204,0.334266,-0.216628,-0.229036,
-0.230267,0.00315391,0.22704,-1.6685,-0.301435,-0.072928,0.456939,-0.668562,0.163553,-0.684562,-0.282252,0.693436,0.506158,-0.295247,0,0,0,0,0,0,0,-0.216744,0.00114478,0.240332,-1.66118,-0.323088,1.489,1.24867,-0.631587,0.172949,-0.657001,-0.200256,0.326429,0.594339,-0.19841,1.40003,-34.6214,1.36171,26.0068,0.190121,2.04522,-0.143631,-0.187107,0.0079573,0.0882091,0.18295,0.171443,0.0958928,0.128654,0.270733,0.0641941,-0.30373,0.172546,-0.295393,-0.224056,
-0.246493,0.00755932,0.209847,-1.67334,-0.294982,-0.0560577,0.45005,-0.579553,0.123294,-0.593558,-0.244731,0.638416,0.440906,-0.256139,0,0,0,0,0,0,0,-0.216744,0.00114478,0.240332,-1.66118,-0.323088,1.489,1.24867,-0.631587,0.172949,-0.657001,-0.200256,0.326429,0.594339,-0.19841,1.40003,-34.6214,1.36171,26.0068,0.190121,2.04522,-0.143631,-0.652216,-1.78167,0.0144447,1.26509,-0.124149,-0.896856,-0.869721,0.252677,-0.918432,-0.302162,0.0310715,-0.328843,-0.216686,
-0.248772,0.00804316,0.207513,-1.67431,-0.292458,-0.0543371,0.44904,-0.569726,0.120961,-0.583663,-0.242393,0.630906,0.430154,-0.252381,0,0,0,0,0,0,0,-0.24384,0.0083256,0.212173,-1.66991,-0.30565,1.51409,1.24299,-0.612857,0.17771,-0.632691,-0.177521,0.431061,0.544564,-0.0947915,2.36408,-36.2679,2.38923,25.5823,-0.261234,1.65429,-0.177505,-0.652216,-1.78167,0.0144447,1.26509,-0.124149,-0.896856,-0.869721,0.252677,-0.918432,-0.302162,0.0310715,-0.328843,-0.216686,
-0.251014,0.00851635,0.205215,-1.67527,-0.289959,-0.0526665,0.448044,-0.560643,0.118298,-0.574506,-0.239972,0.624723,0.417632,-0.249204,0,0,0,0,0,0,0,-0.24384,0.0083256,0.212173,-1.66991,-0.30565,1.51409,1.24299,-0.612857,0.17771,-0.632691,-0.177521,0.431061,0.544564,-0.0947915,2.36408,-36.2679,2.38923,25.5823,-0.261234,1.65429,-0.177505,-0.494213,0.146004,-1.49313,0.153231,0.752084,0.184414,0.21917,0.938236,0.149714,-0.954928,0.18911,-0.329872,-0.2154,
-0.253223,0.00897778,0.202951,-1.67622,-0.287479,-0.0510512,0.447059,-0.552171,0.115356,-0.565959,-0.23753,0.619958,0.40383,-0.246141,0,0,0,0,0,0,0,-0.24384,0.0083256,0.212173,-1.66991,-0.30565,1.51409,1.24299,-0.612857,0.17771,-0.632691,-0.177521,0.431061,0.544564,-0.0947915,2.36408,-36.2679,2.38923,25.5823,-0.261234,1.65429,-0.177505,-0.494213,0.146004,-1.49313,0.153231,0.752084,0.184414,0.21917,0.938236,0.149714,-0.954928,0.18911,-0.329872,-0.2154,
-0.2554,0.00942649,0.200719,-1.67716,-0.285012,-0.0494945,0.446086,-0.544201,0.112179,-0.557915,-0.235107,0.616822,0.389172,-0.243187,0,0,0,0,0,0,0,-0.24384,0.0083256,0.212173,-1.66991,-0.30565,1.51409,1.24299,-0.612857,0.17771,-0.632691,-0.177521,0.431061,0.544564,-0.0947915,2.36408,-36.2679,2.38923,25.5823,-0.261234,1.65429,-0.177505,-1.95085,0.533508,-1.93283,-0.0119816,0.02608,0.333161,0.359943,0.696101,0.306644,-1.14159,0.255909,-0.39284,-0.212897,
-0.257546,0.00986168,0.198518,-1.67809,-0.28255,-0.0479984,0.445125,-0.536634,0.108796,-0.550277,-0.232742,0.615615,0.374039,-0.240393,0,0,0,0,0,0,0,-0.24384,0.0083256,0.212173,-1.66991,-0.30565,1.51409,1.24299,-0.612857,0.17771,-0.632691,-0.177521,0.431061,0.544564,-0.0947915,2.36408,-36.2679,2.38923,25.5823,-0.261234,1.65429,-0.177505,-1.95085,0.533508,-1.93283,-0.0119816,0.02608,0.333161,0.359943,0.696101,0.306644,-1.14159,0.255909,-0.39284,-0.212897,
-0.247888,0.00761552,0.208376,-1.67433,-0.289728,-0.0563989,0.448053,-0.617739,0.130542,-0.63305,-0.269524,0.764541,0.431152,-0.294695,0,0,0,0,0,0,0,-0.263064,0.0143191,0.192094,-1.6749,-0.292272,1.53014,1.2386,-0.576309,0.197342,-0.59217,-0.154216,0.413672,0.467009,-0.167154,1.85627,-37.466,1.83778,25.856,-0.187992,1.65429,-0.190323,-3.68807,-1.39558,-0.930273,1.17841,-1.72388,-0.828768,-0.808237,-0.292518,-0.83732,-0.600735,0.16825,-0.358495,-0.203443,
-0.290083,0.0199564,0.164345,-1.68668,-0.261372,-0.0203824,0.439969,-0.52466,0.0988857,-0.538494,-0.236345,0.660553,0.312792,-0.25679,0,0,0,0,0,0,0,-0.263064,0.0143191,0.192094,-1.6749,-0.292272,1.53014,1.2386,-0.576309,0.197342,-0.59217,-0.154216,0.413672,0.467009,-0.167154,1.85627,-37.466,1.83778,25.856,-0.187992,1.65429,-0.190323,-3.80924,-3.1215,-0.647854,2.19822,-1.99052,-1.80326,-1.78786,-0.387557,-1.79676,-0.428886,0.0347988,-0.336093,-0.19881,
-0.292145,0.0203417,0.162228,-1.68762,-0.25879,-0.0191777,0.438956,-0.515408,0.0963167,-0.529222,-0.233862,0.645436,0.301186,-0.253227,0,0,0,0,0,0,0,-0.263064,0.0143191,0.192094,-1.6749,-0.292272,1.53014,1.2386,-0.576309,0.197342,-0.59217,-0.154216,0.413672,0.467009,-0.167154,1.85627,-37.466,1.83778,25.856,-0.187992,1.65429,-0.190323,-3.80924,-3.1215,-0.647854,2.19822,-1.99052,-1.80326,-1.78786,-0.387557,-1.79676,-0.428886,0.0347988,-0.336093,-0.19881,
-0.294173,0.0207143,0.160145,-1.68855,-0.256265,-0.0179993,0.437955,-0.507003,0.0931432,-0.520789,-0.23269,0.631278,0.294599,-0.250193,0,0,0,0,0,0,0,-0.263064,0.0143191,0.192094,-1.6749,-0.292272,1.53014,1.2386,-0.576309,0.197342,-0.59217,-0.154216,0.413672,0.467009,-0.167154,1.85627,-37.466,1.83778,25.856,-0.187992,1.65429,-0.190323,-1.19691,-0.209479,-1.77331,0.525623,0.33087,-0.0637281,-0.0257435,0.826072,-0.0970376,-0.981973,0.256789,-0.28009,-0.200204,
-0.29617,0.0210734,0.158093,-1.68948,-0.253793,-0.0168288,0.436966,-0.499253,0.089785,-0.513004,-0.232074,0.61796,0.292638,-0.247276,0,0,0,0,0,0,0,-0.263064,0.0143191,0.192094,-1.6749,-0.292272,1.53014,1.2386,-0.576309,0.197342,-0.59217,-0.154216,0.413672,0.467009,-0.167154,1.85627,-37.466,1.83778,25.856,-0.187992,1.65429,-0.190323,-1.19691,-0.209479,-1.77331,0.525623,0.33087,-0.0637281,-0.0257435,0.826072,-0.0970376,-0.981973,0.256789,-0.28009,-0.200204,
-0.298138,0.0214189,0.15607,-1.69041,-0.251371,-0.0156459,0.435988,-0.49203,0.0863744,-0.505739,-0.231825,0.605548,0.295719,-0.244483,0,0,0,0,0,0,0,-0.280874,0.0192236,0.173363,-1.68042,-0.278495,1.54383,1.23318,-0.575282,0.132308,-0.614701,-0.192618,0.460734,0.429187,-0.199566,1.57856,-36.367,1.66322,26.0544,0.299984,2.06536,-0.183914,0.518242,2.11807,-2.08011,-0.796781,1.60097,1.32409,1.36789,1.34684,1.27109,-1.13937,0.463193,-0.205393,-0.201776,
-0.291337,0.0197416,0.163031,-1.68733,-0.250913,-0.021344,0.438112,-0.554831,0.0973465,-0.569513,-0.253055,0.91865,0.281667,-0.292515,0,0,0,0,0,0,0,-0.280874,0.0192236,0.173363,-1.68042,-0.278495,1.54383,1.23318,-0.575282,0.132308,-0.614701,-0.192618,0.460734,0.429187,-0.199566,1.57856,-36.367,1.66322,26.0544,0.299984,2.06536,-0.183914,1.42528,0.366682,-2.74439,0.374756,2.51066,0.430268,0.469649,2.09344,0.389577,-1.407,0.406885,-0.216643,-0.201179,
-0.306559,0.0231469,0.146991,-1.69165,-0.245983,-0.00995894,0.434598,-0.484727,0.0654518,-0.498258,-0.226171,0.72222,0.321213,-0.257408,0,0,0,0,0,0,0,-0.280874,0.0192236,0.173363,-1.68042,-0.278495,1.54383,1.23318,-0.575282,0.132308,-0.614701,-0.192618,0.460734,0.429187,-0.199566,1.57856,-36.367,1.66322,26.0544,0.299984,2.06536,-0.183914,1.42528,0.366682,-2.74439,0.374756,2.51066,0.430268,0.469649,2.09344,0.389577,-1.407,0.406885,-0.216643,-0.201179,
-0.308461,0.0233995,0.145035,-1.69254,-0.243087,-0.00869074,0.433582,-0.475466,0.0631704,-0.489,-0.223259,0.723876,0.31705,-0.253976,0,0,0,0,0,0,0,-0.280874,0.0192236,0.173363,-1.68042,-0.278495,1.54383,1.23318,-0.575282,0.132308,-0.614701,-0.192618,0.460734,0.429187,-0.199566,1.57856,-36.367,1.66322,26.0544,0.299984,2.06536,-0.183914,1.4485,-1.71849,-3.4586,1.71163,2.89062,-0.70908,-0.677686,2.63418,-0.730706,-1.70358,0.290165,-0.274358,-0.196481,
-0.310327,0.0236426,0.143114,-1.69342,-0.240201,-0.00744856,0.432578,-0.466598,0.0607714,-0.48008,-0.22053,0.721424,0.310545,-0.25105,0,0,0,0,0,0,0,-0.280874,0.0192236,0.173363,-1.68042,-0.278495,1.54383,1.23318,-0.575282,0.132308,-0.614701,-0.192618,0.460734,0.429187,-0.199566,1.57856,-36.367,1.66322,26.0544,0.299984,2.06536,-0.183914,1.4485,-1.71849,-3.4586,1.71163,2.89062,-0.70908,-0.677686,2.63418,-0.730706,-1.70358,0.290165,-0.274358,-0.196481,
-0.31216,0.0238758,0.141228,-1.69429,-0.237337,-0.0062397,0.431585,-0.458107,0.0582864,-0.471549,-0.217968,0.716012,0.302216,-0.248237,0,0,0,0,0,0,0,-0.280874,0.0192236,0.173363,-1.68042,-0.278495,1.54383,1.23318,-0.575282,0.132308,-0.614701,-0.192618,0.460734,0.429187,-0.199566,1.57856,-36.367,1.66322,26.0544,0.299984,2.06536,-0.183914,-1.5804,-1.17005,-2.56783,1.28467,0.510647,-0.672054,-0.639228,1.2547,-0.690917,-1.36076,0.260184,-0.375216,-0.192207,
-0.31396,0.0240987,0.139374,-1.69516,-0.234503,-0.00506952,0.430603,-0.449987,0.0557411,-0.463401,-0.215568,0.708596,0.292544,-0.245525,0,0,0,0,0,0,0,-0.298114,0.0230823,0.155514,-1.68604,-0.26381,1.55636,1.22781,-0.563325,0.139419,-0.566147,-0.168411,0.527947,0.383281,-0.172206,1.57856,-37.8667,1.71083,26.6296,0.831906,1.89232,-0.177505,-2.42586,0.0791978,-1.9001,0.575363,-0.372228,-0.0999195,-0.0686642,0.596059,-0.119647,-1.10781,0.415698,-0.389654,-0.189411,
-0.315729,0.0243114,0.137552,-1.69601,-0.231703,-0.00394186,0.429631,-0.442214,0.0531596,-0.455611,-0.213327,0.699992,0.281915,-0.242942,0,0,0,0,0,0,0,-0.298114,0.0230823,0.155514,-1.68604,-0.26381,1.55636,1.22781,-0.563325,0.139419,-0.566147,-0.168411,0.527947,0.383281,-0.172206,1.57856,-37.8667,1.71083,26.6296,0.831906,1.89232,-0.177505,-2.42586,0.0791978,-1.9001,0.575363,-0.372228,-0.0999195,-0.0686642,0.596059,-0.119647,-1.10781,0.415698,-0.389654,-0.189411,
-0.307352,0.0228207,0.146135,-1.69234,-0.236809,-0.0107764,0.432842,-0.501519,0.0602243,-0.515964,-0.243492,0.947183,0.296313,-0.291215,0,0,0,0,0,0,0,-0.298114,0.0230823,0.155514,-1.68604,-0.26381,1.55636,1.22781,-0.563325,0.139419,-0.566147,-0.168411,0.527947,0.383281,-0.172206,1.57856,-37.8667,1.71083,26.6296,0.831906,1.89232,-0.177505,-1.65136,-0.74871,-1.83109,1.10809,0.0350554,-0.488547,-0.46528,0.819098,-0.494344,-1.02402,0.400587,-0.321776,-0.188235,
-0.321494,0.0261306,0.131462,-1.69684,-0.228521,0.000190553,0.429316,-0.429198,0.0414591,-0.443215,-0.214197,0.762869,0.206741,-0.255784,0,0,0,0,0,0,0,-0.298114,0.0230823,0.155514,-1.68604,-0.26381,1.55636,1.22781,-0.563325,0.139419,-0.566147,-0.168411,0.527947,0.383281,-0.172206,1.57856,-37.8667,1.71083,26.6296,0.831906,1.89232,-0.177505,-1.65136,-0.74871,-1.83109,1.10809,0.0350554,-0.488547,-0.46528,0.819098,-0.494344,-1.02402,0.400587,-0.321776,-0.188235,
-0.323175,0.026287,0.129725,-1.69768,-0.225469,0.000969305,0.428306,-0.420372,0.0391189,-0.434439,-0.211621,0.763012,0.194688,-0.252682,0,0,0,0,0,0,0,-0.298114,0.0230823,0.155514,-1.68604,-0.26381,1.55636,1.22781,-0.563325,0.139419,-0.566147,-0.168411,0.527947,0.383281,-0.172206,1.57856,-37.8667,1.71083,26.6296,0.831906,1.89232,-0.177505,-2.51738,-0.494616,-1.18287,0.820947,-0.877707,-0.436433,-0.41033,0.166081,-0.44451,-0.717995,0.331584,-0.290482,-0.187192,
-0.324823,0.0264331,0.128021,-1.69852,-0.222437,0.00170977,0.427306,-0.41195,0.0365065,-0.425965,-0.210058,0.757815,0.185116,-0.249895,0,0,0,0,0,0,0,-0.314599,0.0270449,0.138211,-1.69132,-0.24791,1.56733,1.22254,-0.523806,0.130537,-0.54741,-0.17189,0.540343,0.331066,-0.161884,2.69336,-38.188,2.76216,27.2009,0.654293,2.01867,-0.143631,-2.51738,-0.494616,-1.18287,0.820947,-0.877707,-0.436433,-0.41033,0.166081,-0.44451,-0.717995,0.331584,-0.290482,-0.187192,
-0.326439,0.0265685,0.126349,-1.69936,-0.219443,0.00242133,0.426317,-0.403892,0.0338703,-0.41787,-0.208975,0.748688,0.177892,-0.247217,0,0,0,0,0,0,0,-0.314599,0.0270449,0.138211,-1.69132,-0.24791,1.56733,1.22254,-0.523806,0.130537,-0.54741,-0.17189,0.540343,0.331066,-0.161884,2.69336,-38.188,2.76216,27.2009,0.654293,2.01867,-0.143631,-1.70796,-0.687331,-0.739349,0.877613,-0.574269,-0.475825,-0.447802,0.199291,-0.485786,-0.533019,0.298043,-0.260999,-0.18238,
-0.328023,0.0266937,0.124709,-1.70019,-0.216495,0.00311499,0.425339,-0.396204,0.0312821,-0.410158,-0.208223,0.736794,0.173413,-0.244653,0,0,0,0,0,0,0,-0.314599,0.0270449,0.138211,-1.69132,-0.24791,1.56733,1.22254,-0.523806,0.130537,-0.54741,-0.17189,0.540343,0.331066,-0.161884,2.69336,-38.188,2.76216,27.2009,0.654293,2.01867,-0.143631,0.413137,-0.901518,-1.36504,1.10953,1.06605,-0.345401,-0.310475,1.13866,-0.36576,-0.761253,0.329292,-0.186055,-0.182782,
-0.322545,0.0258867,0.130338,-1.69745,-0.220059,0.000308734,0.427602,-0.457112,0.037949,-0.472139,-0.228442,1.01864,0.20434,-0.288705,0,0,0,0,0,0,0,-0.314599,0.0270449,0.138211,-1.69132,-0.24791,1.56733,1.22254,-0.523806,0.130537,-0.54741,-0.17189,0.540343,0.331066,-0.161884,2.69336,-38.188,2.76216,27.2009,0.654293,2.01867,-0.143631,0.413137,-0.901518,-1.36504,1.10953,1.06605,-0.345401,-0.310475,1.13866,-0.36576,-0.761253,0.329292,-0.186055,-0.182782,
-0.336368,0.029475,0.115749,-1.70192,-0.21115,0.00786912,0.424112,-0.393707,0.0268602,-0.408054,-0.211803,0.776477,0.194835,-0.255476,0,0,0,0,0,0,0,-0.314599,0.0270449,0.138211,-1.69132,-0.24791,1.56733,1.22254,-0.523806,0.130537,-0.54741,-0.17189,0.540343,0.331066,-0.161884,2.69336,-38.188,2.76216,27.2009,0.654293,2.01867,-0.143631,1.27727,-0.589737,-1.65958,0.984307,1.71935,-0.0603884,-0.0244981,1.47965,-0.0858893,-0.846793,0.378211,-0.127893,-0.180286,
-0.337907,0.0295738,0.114153,-1.70276,-0.208064,0.00862361,0.423102,-0.384701,0.0246919,-0.399147,-0.208359,0.771426,0.188622,-0.252543,0,0,0,0,0,0,0,-0.314599,0.0270449,0.138211,-1.69132,-0.24791,1.56733,1.22254,-0.523806,0.130537,-0.54741,-0.17189,0.540343,0.331066,-0.161884,2.69336,-38.188,2.76216,27.2009,0.654293,2.01867,-0.143631,1.27727,-0.589737,-1.65958,0.984307,1.71935,-0.0603884,-0.0244981,1.47965,-0.0858893,-0.846793,0.378211,-0.127893,-0.180286,
-0.339413,0.0296624,0.112589,-1.70358,-0.205006,0.00935618,0.422102,-0.376409,0.0221548,-0.390869,-0.205962,0.764552,0.183143,-0.249942,0,0,0,0,0,0,0,-0.335272,0.0310021,0.116382,-1.69858,-0.224599,1.57791,1.21565,-0.488868,0.0973298,-0.506275,-0.155737,0.58094,0.208191,-0.18493,2.03479,-38.6125,2.1393,26.7288,0.764157,1.97198,-0.183914,-0.525508,-0.0685124,-0.912164,0.486292,0.186609,0.00967551,0.0469994,0.493951,-0.0176072,-0.52578,0.294014,-0.141504,-0.17686,
-0.340887,0.0297407,0.111058,-1.7044,-0.201993,0.0100695,0.421113,-0.36848,0.0195753,-0.382906,-0.204081,0.753169,0.178324,-0.247389,0,0,0,0,0,0,0,-0.335272,0.0310021,0.116382,-1.69858,-0.224599,1.57791,1.21565,-0.488868,0.0973298,-0.506275,-0.155737,0.58094,0.208191,-0.18493,2.03479,-38.6125,2.1393,26.7288,0.764157,1.97198,-0.183914,-1.8967,0.416609,-1.15756,0.200469,-0.550857,0.0959354,0.135461,0.189444,0.0657998,-0.657196,0.282174,-0.201724,-0.178047,
-0.34233,0.0298088,0.109556,-1.70521,-0.199039,0.0107688,0.420133,-0.360907,0.0170233,-0.375314,-0.202602,0.738483,0.174828,-0.244933,0,0,0,0,0,0,0,-0.335272,0.0310021,0.116382,-1.69858,-0.224599,1.57791,1.21565,-0.488868,0.0973298,-0.506275,-0.155737,0.58094,0.208191,-0.18493,2.03479,-38.6125,2.1393,26.7288,0.764157,1.97198,-0.183914,-1.8967,0.416609,-1.15756,0.200469,-0.550857,0.0959354,0.135461,0.189444,0.0657998,-0.657196,0.282174,-0.201724,-0.178047,
-0.343745,0.0298669,0.108084,-1.70601,-0.196153,0.0114627,0.419163,-0.353694,0.0145284,-0.368094,-0.201511,0.721462,0.173478,-0.242601,0,0,0,0,0,0,0,-0.335272,0.0310021,0.116382,-1.69858,-0.224599,1.57791,1.21565,-0.488868,0.0973298,-0.506275,-0.155737,0.58094,0.208191,-0.18493,2.03479,-38.6125,2.1393,26.7288,0.764157,1.97198,-0.183914,-1.86556,-1.80477,-1.95046,1.66629,-0.124176,-1.12121,-1.09599,0.828423,-1.11771,-0.984955,0.194482,-0.24823,-0.176006,
-0.336798,0.0290808,0.115265,-1.70254,-0.205065,0.00776424,0.422498,-0.405676,0.0181289,-0.420793,-0.225383,0.998271,0.189928,-0.286544,0,0,0,0,0,0,0,-0.335272,0.0310021,0.116382,-1.69858,-0.224599,1.57791,1.21565,-0.488868,0.0973298,-0.506275,-0.155737,0.58094,0.208191,-0.18493,2.03479,-38.6125,2.1393,26.7288,0.764157,1.97198,-0.183914,-1.86556,-1.80477,-1.95046,1.66629,-0.124176,-1.12121,-1.09599,0.828423,-1.11771,-0.984955,0.194482,-0.24823,-0.176006,
-0.354725,0.0321716,0.0962368,-1.70884,-0.189266,0.0169002,0.417295,-0.342695,0.00480636,-0.357252,-0.205398,0.706142,0.194359,-0.254532,0,0,0,0,0,0,0,-0.349711,0.033593,0.101368,-1.70326,-0.206659,1.58326,1.21031,-0.458406,0.0727732,-0.46832,-0.152884,0.560719,0.153199,-0.14041,3.42731,-38.6403,3.31361,26.7288,0.727535,2.22375,-0.163772,-1.63774,-1.77158,-2.01873,1.64382,0.0114817,-1.06531,-1.03912,0.884899,-1.06318,-0.969146,0.184846,-0.196955,-0.177928,
-0.35606,0.0321842,0.0948432,-1.70965,-0.186498,0.0176661,0.416288,-0.333736,0.00314738,-0.348406,-0.202051,0.692083,0.191485,-0.251778,0,0,0,0,0,0,0,-0.349711,0.033593,0.101368,-1.70326,-0.206659,1.58326,1.21031,-0.458406,0.0727732,-0.46832,-0.152884,0.560719,0.153199,-0.14041,3.42731,-38.6403,3.31361,26.7288,0.727535,2.22375,-0.163772,-0.703737,0.94309,-2.572,0.131228,0.855931,0.544481,0.583886,1.17708,0.506586,-1.21782,0.355632,-0.16846,-0.177625,
-0.357364,0.0321885,0.0934809,-1.71045,-0.183776,0.0184202,0.415291,-0.325801,0.00108662,-0.340569,-0.199606,0.680331,0.188525,-0.249355,0,0,0,0,0,0,0,-0.349711,0.033593,0.101368,-1.70326,-0.206659,1.58326,1.21031,-0.458406,0.0727732,-0.46832,-0.152884,0.560719,0.153199,-0.14041,3.42731,-38.6403,3.31361,26.7288,0.727535,2.22375,-0.163772,-0.703737,0.94309,-2.572,0.131228,0.855931,0.544481,0.583886,1.17708,0.506586,-1.21782,0.355632,-0.16846,-0.177625,
-0.358639,0.0321841,0.0921465,-1.71124,-0.181092,0.0191621,0.414303,-0.318742,-0.00109875,-0.333594,-0.197602,0.671073,0.185474,-0.246994,0,0,0,0,0,0,0,-0.349711,0.033593,0.101368,-1.70326,-0.206659,1.58326,1.21031,-0.458406,0.0727732,-0.46832,-0.152884,0.560719,0.153199,-0.14041,3.42731,-38.6403,3.31361,26.7288,0.727535,2.22375,-0.163772,-1.10759,0.710345,-2.51394,0.234489,0.573757,0.353954,0.395251,1.04813,0.316488,-1.19296,0.299866,-0.179537,-0.174856,
-0.359888,0.0321709,0.0908371,-1.71202,-0.178434,0.0198929,0.413324,-0.312439,-0.00329799,-0.327364,-0.195901,0.664568,0.182699,-0.24469,0,0,0,0,0,0,0,-0.349711,0.033593,0.101368,-1.70326,-0.206659,1.58326,1.21031,-0.458406,0.0727732,-0.46832,-0.152884,0.560719,0.153199,-0.14041,3.42731,-38.6403,3.31361,26.7288,0.727535,2.22375,-0.163772,-1.10759,0.710345,-2.51394,0.234489,0.573757,0.353954,0.395251,1.04813,0.316488,-1.19296,0.299866,-0.179537,-0.174856,
-0.361115,0.0321491,0.08955,-1.7128,-0.17579,0.0206157,0.412354,-0.306785,-0.00545752,-0.321772,-0.194473,0.661039,0.180707,-0.242461,0,0,0,0,0,0,0,-0.349711,0.033593,0.101368,-1.70326,-0.206659,1.58326,1.21031,-0.458406,0.0727732,-0.46832,-0.152884,0.560719,0.153199,-0.14041,3.42731,-38.6403,3.31361,26.7288,0.727535,2.22375,-0.163772,-1.6435,-0.970664,-2.53699,1.25978,0.23405,-0.651027,-0.613394,1.06405,-0.666646,-1.18071,0.224438,-0.191029,-0.171268,
-0.355468,0.0317715,0.0954193,-1.70941,-0.181635,0.0177236,0.415739,-0.364474,-0.00419277,-0.380067,-0.216778,0.988363,0.208788,-0.284415,0,0,0,0,0,0,0,-0.363797,0.0352367,0.0866416,-1.70854,-0.189019,1.58815,1.20582,-0.425169,0.0351806,-0.421865,-0.171904,0.493745,0.141224,-0.134058,3.35193,-37.9421,3.31361,27.1533,0.667111,2.48925,-0.123489,-1.6435,-0.970664,-2.53699,1.25978,0.23405,-0.651027,-0.613394,1.06405,-0.666646,-1.18071,0.224438,-0.191029,-0.171268,
-0.380967,0.0348841,0.0687369,-1.71833,-0.152679,0.0261422,0.407557,-0.30906,-0.0177846,-0.324092,-0.191381,0.812831,0.159621,-0.253213,0,0,0,0,0,0,0,-0.363797,0.0352367,0.0866416,-1.70854,-0.189019,1.58815,1.20582,-0.425169,0.0351806,-0.421865,-0.171904,0.493745,0.141224,-0.134058,3.35193,-37.9421,3.31361,27.1533,0.667111,2.48925,-0.123489,-0.758657,-2.01556,-2.7373,1.90873,0.861916,-1.07046,-1.03639,1.48561,-1.07656,-1.20959,0.171066,-0.136648,-0.1688,
-0.382172,0.0348088,0.0674718,-1.71909,-0.149457,0.0267447,0.406554,-0.301173,-0.0188147,-0.316274,-0.188476,0.805636,0.150639,-0.250617,0,0,0,0,0,0,0,-0.363797,0.0352367,0.0866416,-1.70854,-0.189019,1.58815,1.20582,-0.425169,0.0351806,-0.421865,-0.171904,0.493745,0.141224,-0.134058,3.35193,-37.9421,3.31361,27.1533,0.667111,2.48925,-0.123489,-0.755155,-2.0124,-2.73671,1.87675,0.883508,-1.06448,-1.02828,1.49672,-1.07378,-1.22119,0.125738,-0.148228,-0.169243,
-0.383348,0.0347276,0.0662348,-1.71983,-0.146261,0.0273142,0.405561,-0.294072,-0.0202874,-0.309241,-0.186571,0.798973,0.142354,-0.248294,0,0,0,0,0,0,0,-0.363797,0.0352367,0.0866416,-1.70854,-0.189019,1.58815,1.20582,-0.425169,0.0351806,-0.421865,-0.171904,0.493745,0.141224,-0.134058,3.35193,-37.9421,3.31361,27.1533,0.667111,2.48925,-0.123489,-0.755155,-2.0124,-2.73671,1.87675,0.883508,-1.06448,-1.02828,1.49672,-1.07378,-1.22119,0.125738,-0.148228,-0.169243,
-0.384498,0.0346401,0.0650247,-1.72057,-0.143105,0.0278527,0.404577,-0.287369,-0.021875,-0.302529,-0.185119,0.789003,0.134634,-0.245986,0,0,0,0,0,0,0,-0.363797,0.0352367,0.0866416,-1.70854,-0.189019,1.58815,1.20582,-0.425169,0.0351806,-0.421865,-0.171904,0.493745,0.141224,-0.134058,3.35193,-37.9421,3.31361,27.1533,0.667111,2.48925,-0.123489,-0.428108,-0.0403389,-2.20021,0.659457,0.764017,0.0454967,0.0947859,1.0807,0.00600815,-0.975954,0.264974,-0.0851341,-0.170232,
-0.385621,0.0345462,0.0638409,-1.72131,-0.140009,0.0283649,0.403602,-0.280836,-0.0234748,-0.295951,-0.184002,0.773916,0.128048,-0.243722,0,0,0,0,0,0,0,-0.376287,0.0358822,0.0737137,-1.7138,-0.17333,1.59168,1.20136,-0.419818,0.0135605,-0.416779,-0.167233,0.566209,0.0941579,-0.16259,2.94727,-37.6167,2.88911,26.8796,1.0086,2.42974,-0.130813,-0.428108,-0.0403389,-2.20021,0.659457,0.764017,0.0454967,0.0947859,1.0807,0.00600815,-0.975954,0.264974,-0.0851341,-0.170232,
-0.379673,0.0345477,0.0700654,-1.71798,-0.151286,0.026477,0.407278,-0.314721,-0.0293814,-0.330543,-0.205233,1.0011,0.196003,-0.286596,0,0,0,0,0,0,0,-0.376287,0.0358822,0.0737137,-1.7138,-0.17333,1.59168,1.20136,-0.419818,0.0135605,-0.416779,-0.167233,0.566209,0.0941579,-0.16259,2.94727,-37.6167,2.88911,26.8796,1.0086,2.42974,-0.130813,0.407426,1.14717,-2.26776,0.0508328,1.26837,0.817451,0.872717,1.21226,0.761126,-0.988094,0.413292,-0.0440233,-0.170636,
-0.390844,0.0348138,0.0585129,-1.72244,-0.138875,0.0266607,0.404144,-0.272073,-0.0367275,-0.286999,-0.19347,0.779549,0.14537,-0.258263,0,0,0,0,0,0,0,-0.376287,0.0358822,0.0737137,-1.7138,-0.17333,1.59168,1.20136,-0.419818,0.0135605,-0.416779,-0.167233,0.566209,0.0941579,-0.16259,2.94727,-37.6167,2.88911,26.8796,1.0086,2.42974,-0.130813,-0.0493319,-0.714242,-2.27804,1.20107,0.972426,-0.271344,-0.227943,1.2779,-0.295081,-0.971329,0.36164,-0.0527918,-0.166174,
-0.391894,0.0346624,0.0574028,-1.72321,-0.135842,0.0272993,0.403115,-0.262466,-0.0378267,-0.277521,-0.192636,0.758231,0.15965,-0.257141,0,0,0,0,0,0,0,-0.376287,0.0358822,0.0737137,-1.7138,-0.17333,1.59168,1.20136,-0.419818,0.0135605,-0.416779,-0.167233,0.566209,0.0941579,-0.16259,2.94727,-37.6167,2.88911,26.8796,1.0086,2.42974,-0.130813,-0.0493319,-0.714242,-2.27804,1.20107,0.972426,-0.271344,-0.227943,1.2779,-0.295081,-0.971329,0.36164,-0.0527918,-0.166174,
-0.392906,0.0345132,0.0563305,-1.72396,-0.132902,0.0279709,0.402111,-0.253087,-0.0373217,-0.26806,-0.188388,0.734905,0.167895,-0.25107,0,0,0,0,0,0,0,-0.376287,0.0358822,0.0737137,-1.7138,-0.17333,1.59168,1.20136,-0.419818,0.0135605,-0.416779,-0.167233,0.566209,0.0941579,-0.16259,2.94727,-37.6167,2.88911,26.8796,1.0086,2.42974,-0.130813,-0.755652,-1.69658,-1.63849,1.6829,0.188136,-0.938089,-0.899361,0.830096,-0.944209,-0.673406,0.321423,-0.0295537,-0.157703,
-0.393885,0.0343627,0.0552915,-1.7247,-0.130052,0.0286642,0.401116,-0.244666,-0.0376188,-0.259768,-0.185256,0.712585,0.173328,-0.248608,0,0,0,0,0,0,0,-0.376287,0.0358822,0.0737137,-1.7138,-0.17333,1.59168,1.20136,-0.419818,0.0135605,-0.416779,-0.167233,0.566209,0.0941579,-0.16259,2.94727,-37.6167,2.88911,26.8796,1.0086,2.42974,-0.130813,-1.11833,-0.965807,-1.38143,1.20809,-0.153286,-0.622675,-0.578401,0.541008,-0.639462,-0.598357,0.347465,-0.0537536,-0.158454,
-0.394834,0.0342093,0.0542819,-1.72543,-0.127286,0.0293692,0.400131,-0.237171,-0.0383332,-0.252387,-0.182686,0.691398,0.176253,-0.246426,0,0,0,0,0,0,0,-0.391195,0.0362598,0.0579379,-1.72011,-0.150332,1.59398,1.19365,-0.36005,0.00522211,-0.370229,-0.15215,0.56512,0.050439,-0.204684,2.76874,-38.0135,2.63917,27.3517,1.29608,2.55608,-0.110672,-1.11833,-0.965807,-1.38143,1.20809,-0.153286,-0.622675,-0.578401,0.541008,-0.639462,-0.598357,0.347465,-0.0537536,-0.158454,
-0.395756,0.0340522,0.0532987,-1.72616,-0.1246,0.0300784,0.399154,-0.230491,-0.0392843,-0.245808,-0.180493,0.671598,0.177294,-0.244291,0,0,0,0,0,0,0,-0.391195,0.0362598,0.0579379,-1.72011,-0.150332,1.59398,1.19365,-0.36005,0.00522211,-0.370229,-0.15215,0.56512,0.050439,-0.204684,2.76874,-38.0135,2.63917,27.3517,1.29608,2.55608,-0.110672,-1.19282,-1.24905,-1.63999,1.49868,-0.0652058,-0.804631,-0.763054,0.723521,-0.813528,-0.741007,0.401571,-0.0981209,-0.159238,
-0.392153,0.0341524,0.0570767,-1.72379,-0.131637,0.0298599,0.401735,-0.274737,-0.0506971,-0.29108,-0.202305,0.996947,0.220311,-0.283959,0,0,0,0,0,0,0,-0.391195,0.0362598,0.0579379,-1.72011,-0.150332,1.59398,1.19365,-0.36005,0.00522211,-0.370229,-0.15215,0.56512,0.050439,-0.204684,2.76874,-38.0135,2.63917,27.3517,1.29608,2.55608,-0.110672,-1.19282,-1.24905,-1.63999,1.49868,-0.0652058,-0.804631,-0.763054,0.723521,-0.813528,-0.741007,0.401571,-0.0981209,-0.159238,
-0.404634,0.034308,0.0437544,-1.72937,-0.11421,0.0319884,0.395515,-0.226546,-0.0522132,-0.242458,-0.181257,0.770951,0.192824,-0.253621,0,0,0,0,0,0,0,-0.391195,0.0362598,0.0579379,-1.72011,-0.150332,1.59398,1.19365,-0.36005,0.00522211,-0.370229,-0.15215,0.56512,0.050439,-0.204684,2.76874,-38.0135,2.63917,27.3517,1.29608,2.55608,-0.110672,-1.46964,-1.47978,-1.56332,1.63946,-0.309919,-0.980402,-0.938694,0.610964,-0.985161,-0.68633,0.41185,-0.0779119,-0.164867,
-0.405509,0.0341009,0.0428163,-1.73007,-0.111172,0.0327226,0.39452,-0.218761,-0.0517947,-0.23452,-0.175739,0.759516,0.183534,-0.248745,0,0,0,0,0,0,0,-0.391195,0.0362598,0.0579379,-1.72011,-0.150332,1.59398,1.19365,-0.36005,0.00522211,-0.370229,-0.15215,0.56512,0.050439,-0.204684,2.76874,-38.0135,2.63917,27.3517,1.29608,2.55608,-0.110672,-1.46964,-1.47978,-1.56332,1.63946,-0.309919,-0.980402,-0.938694,0.610964,-0.985161,-0.68633,0.41185,-0.0779119,-0.164867,
-0.406355,0.033891,0.0419073,-1.73076,-0.108197,0.0334209,0.393534,-0.211462,-0.0524707,-0.227244,-0.172508,0.74378,0.174593,-0.246353,0,0,0,0,0,0,0,-0.402272,0.0362356,0.0463548,-1.72491,-0.133713,1.59542,1.18821,-0.339066,-0.000555297,-0.349122,-0.132859,0.522562,0.038981,-0.143739,2.92347,-37.589,2.83754,27.1533,1.65039,2.57531,-0.143631,-1.1172,0.863044,-1.89527,0.336353,0.0313569,0.33592,0.390343,0.61552,0.296779,-0.839669,0.544106,-0.0734396,-0.178064,
-0.407174,0.0336769,0.0410252,-1.73144,-0.105298,0.0340813,0.392557,-0.204713,-0.0535298,-0.22053,-0.170214,0.724874,0.165085,-0.244173,0,0,0,0,0,0,0,-0.402272,0.0362356,0.0463548,-1.72491,-0.133713,1.59542,1.18821,-0.339066,-0.000555297,-0.349122,-0.132859,0.522562,0.038981,-0.143739,2.92347,-37.589,2.83754,27.1533,1.65039,2.57531,-0.143631,-0.74977,1.49116,-2.06968,0.0249709,0.291914,0.742197,0.802422,0.703413,0.691223,-0.882828,0.609198,-0.0380669,-0.185276,
-0.407968,0.033458,0.0401677,-1.73212,-0.102482,0.0347017,0.391589,-0.198507,-0.0547099,-0.214368,-0.168407,0.703813,0.155108,-0.242042,0,0,0,0,0,0,0,-0.402272,0.0362356,0.0463548,-1.72491,-0.133713,1.59542,1.18821,-0.339066,-0.000555297,-0.349122,-0.132859,0.522562,0.038981,-0.143739,2.92347,-37.589,2.83754,27.1533,1.65039,2.57531,-0.143631,-0.74977,1.49116,-2.06968,0.0249709,0.291914,0.742197,0.802422,0.703413,0.691223,-0.882828,0.609198,-0.0380669,-0.185276,
-0.404475,0.0338459,0.0438903,-1.72984,-0.108966,0.0343965,0.394239,-0.22153,-0.0639605,-0.237835,-0.188393,0.986806,0.248778,-0.278279,0,0,0,0,0,0,0,-0.402272,0.0362356,0.0463548,-1.72491,-0.133713,1.59542,1.18821,-0.339066,-0.000555297,-0.349122,-0.132859,0.522562,0.038981,-0.143739,2.92347,-37.589,2.83754,27.1533,1.65039,2.57531,-0.143631,-1.17816,-0.0245141,-2.25958,0.941112,0.090094,-0.135261,-0.0803163,0.813753,-0.165663,-0.91545,0.527219,-0.0129146,-0.191533,
-0.413988,0.0337176,0.0339103,-1.73366,-0.101512,0.0311762,0.390307,-0.184851,-0.0650143,-0.200798,-0.176433,0.643231,0.149471,-0.249113,0,0,0,0,0,0,0,-0.402272,0.0362356,0.0463548,-1.72491,-0.133713,1.59542,1.18821,-0.339066,-0.000555297,-0.349122,-0.132859,0.522562,0.038981,-0.143739,2.92347,-37.589,2.83754,27.1533,1.65039,2.57531,-0.143631,-1.17816,-0.0245141,-2.25958,0.941112,0.090094,-0.135261,-0.0803163,0.813753,-0.165663,-0.91545,0.527219,-0.0129146,-0.191533,
-0.414699,0.0334589,0.0331357,-1.73436,-0.0989947,0.0318158,0.389327,-0.177716,-0.0646745,-0.193651,-0.173999,0.629391,0.159882,-0.245078,0,0,0,0,0,0,0,-0.411713,0.0360213,0.0359807,-1.72867,-0.117598,1.59611,1.18355,-0.289639,-0.00965702,-0.303704,-0.117673,0.49878,0.00997309,-0.137155,2.41565,-36.6924,2.33766,26.3559,0.91705,2.68151,-0.230606,-1.24726,-1.33354,-2.73897,1.80262,0.226713,-0.827245,-0.778645,1.13269,-0.839004,-1.04814,0.47657,0.0330458,-0.198103,
-0.415383,0.0332008,0.0323884,-1.73504,-0.0965573,0.0324748,0.388356,-0.170895,-0.0645256,-0.18683,-0.171314,0.609356,0.164767,-0.242804,0,0,0,0,0,0,0,-0.411713,0.0360213,0.0359807,-1.72867,-0.117598,1.59611,1.18355,-0.289639,-0.00965702,-0.303704,-0.117673,0.49878,0.00997309,-0.137155,2.41565,-36.6924,2.33766,26.3559,0.91705,2.68151,-0.230606,-1.24726,-1.33354,-2.73897,1.80262,0.226713,-0.827245,-0.778645,1.13269,-0.839004,-1.04814,0.47657,0.0330458,-0.198103,
-0.416041,0.0329423,0.0316666,-1.73572,-0.0942172,0.0331377,0.387393,-0.164494,-0.0646432,-0.180453,-0.168781,0.585011,0.16573,-0.240683,0,0,0,0,0,0,0,-0.411713,0.0360213,0.0359807,-1.72867,-0.117598,1.59611,1.18355,-0.289639,-0.00965702,-0.303704,-0.117673,0.49878,0.00997309,-0.137155,2.41565,-36.6924,2.33766,26.3559,0.91705,2.68151,-0.230606,-1.27551,-1.28615,-2.71935,1.73167,0.178709,-0.796693,-0.744763,1.078,-0.813561,-1.01045,0.440929,0.063623,-0.204577,
-0.416675,0.0326823,0.0309682,-1.73638,-0.0919851,0.0337935,0.386439,-0.158594,-0.0649882,-0.174595,-0.166525,0.558048,0.163931,-0.238591,0,0,0,0,0,0,0,-0.411713,0.0360213,0.0359807,-1.72867,-0.117598,1.59611,1.18355,-0.289639,-0.00965702,-0.303704,-0.117673,0.49878,0.00997309,-0.137155,2.41565,-36.6924,2.33766,26.3559,0.91705,2.68151,-0.230606,-1.80227,-0.450487,-2.70509,1.21521,-0.158214,-0.468167,-0.411914,0.836717,-0.495271,-1.02694,0.447233,0.0427731,-0.211661,
-0.417288,0.0324203,0.0302909,-1.73704,-0.0898645,0.034435,0.385493,-0.153256,-0.0654944,-0.169314,-0.164597,0.530145,0.160373,-0.236511,0,0,0,0,0,0,0,-0.411713,0.0360213,0.0359807,-1.72867,-0.117598,1.59611,1.18355,-0.289639,-0.00965702,-0.303704,-0.117673,0.49878,0.00997309,-0.137155,2.41565,-36.6924,2.33766,26.3559,0.91705,2.68151,-0.230606,-1.80227,-0.450487,-2.70509,1.21521,-0.158214,-0.468167,-0.411914,0.836717,-0.495271,-1.02694,0.447233,0.0427731,-0.211661,
-0.414261,0.0331901,0.0335802,-1.73428,-0.0937997,0.0350277,0.389062,-0.192231,-0.0780056,-0.208955,-0.185367,0.939522,0.238883,-0.273022,0,0,0,0,0,0,0,-0.411713,0.0360213,0.0359807,-1.72867,-0.117598,1.59611,1.18355,-0.289639,-0.00965702,-0.303704,-0.117673,0.49878,0.00997309,-0.137155,2.41565,-36.6924,2.33766,26.3559,0.91705,2.68151,-0.230606,-2.16989,-0.694013,-2.9285,1.3856,-0.286851,-0.675344,-0.621952,0.869323,-0.696841,-1.11382,0.415214,0.0387906,-0.2118,
-0.421758,0.0329461,0.0251687,-1.73732,-0.0875727,0.0337015,0.385855,-0.161835,-0.0746968,-0.178709,-0.171747,0.636759,0.191024,-0.243511,0,0,0,0,0,0,0,-0.420066,0.03566,0.0272084,-1.73216,-0.103323,1.59649,1.17934,-0.25125,-0.0193946,-0.283253,-0.118649,0.433023,0.0177036,-0.138811,3.17737,-36.8153,3.11128,26.2567,0.550839,2.53594,-0.230606,-2.16989,-0.694013,-2.9285,1.3856,-0.286851,-0.675344,-0.621952,0.869323,-0.696841,-1.11382,0.415214,0.0387906,-0.2118,
-0.422395,0.0326498,0.0244636,-1.73799,-0.0848838,0.0344704,0.384889,-0.159193,-0.0740665,-0.176288,-0.168454,0.672213,0.192211,-0.241384,0,0,0,0,0,0,0,-0.420066,0.03566,0.0272084,-1.73216,-0.103323,1.59649,1.17934,-0.25125,-0.0193946,-0.283253,-0.118649,0.433023,0.0177036,-0.138811,3.17737,-36.8153,3.11128,26.2567,0.550839,2.53594,-0.230606,-2.10681,-0.793798,-2.87222,1.37027,-0.274483,-0.703998,-0.653126,0.844127,-0.724477,-1.06491,0.343954,0.0659608,-0.215333,
-0.423018,0.0323544,0.0237733,-1.73866,-0.0821203,0.0352271,0.383933,-0.155729,-0.0738534,-0.172563,-0.165564,0.690874,0.189193,-0.23917,0,0,0,0,0,0,0,-0.420066,0.03566,0.0272084,-1.73216,-0.103323,1.59649,1.17934,-0.25125,-0.0193946,-0.283253,-0.118649,0.433023,0.0177036,-0.138811,3.17737,-36.8153,3.11128,26.2567,0.550839,2.53594,-0.230606,-2.17481,-0.73826,-2.87864,1.33377,-0.275632,-0.69195,-0.63971,0.858352,-0.714924,-1.10557,0.320062,0.0278108,-0.219127,
-0.423624,0.0320585,0.0231002,-1.73931,-0.0793317,0.0359597,0.382984,-0.151638,-0.0739628,-0.168296,-0.16309,0.697154,0.183155,-0.237043,0,0,0,0,0,0,0,-0.420066,0.03566,0.0272084,-1.73216,-0.103323,1.59649,1.17934,-0.25125,-0.0193946,-0.283253,-0.118649,0.433023,0.0177036,-0.138811,3.17737,-36.8153,3.11128,26.2567,0.550839,2.53594,-0.230606,-2.17481,-0.73826,-2.87864,1.33377,-0.275632,-0.69195,-0.63971,0.858352,-0.714924,-1.10557,0.320062,0.0278108,-0.219127,
-0.424213,0.0317613,0.0224449,-1.73995,-0.0765544,0.0366602,0.382044,-0.147254,-0.0743015,-0.163805,-0.161016,0.694338,0.175124,-0.235,0,0,0,0,0,0,0,-0.420066,0.03566,0.0272084,-1.73216,-0.103323,1.59649,1.17934,-0.25125,-0.0193946,-0.283253,-0.118649,0.433023,0.0177036,-0.138811,3.17737,-36.8153,3.11128,26.2567,0.550839,2.53594,-0.230606,-1.78916,0.080282,-2.81195,0.904287,-0.09168,-0.195868,-0.13651,0.84576,-0.232589,-1.09395,0.419896,0.0211551,-0.223482,
-0.424784,0.0314622,0.0218078,-1.74059,-0.0738149,0.0373247,0.381112,-0.142804,-0.0747908,-0.159295,-0.159342,0.684875,0.166109,-0.233031,0,0,0,0,0,0,0,-0.428237,0.0349219,0.0186772,-1.73627,-0.0891935,1.59742,1.1745,-0.241509,-0.0273879,-0.244963,-0.124647,0.447074,0.0355939,-0.153096,2.82032,-36.5694,2.71455,26.2289,1.13128,2.5689,-0.224197,-1.78916,0.080282,-2.81195,0.904287,-0.09168,-0.195868,-0.13651,0.84576,-0.232589,-1.09395,0.419896,0.0211551,-0.223482,
-0.421637,0.0324942,0.0252717,-1.73783,-0.0794379,0.0371381,0.384676,-0.152833,-0.0860989,-0.169861,-0.178373,0.8804,0.269159,-0.266184,0,0,0,0,0,0,0,-0.428237,0.0349219,0.0186772,-1.73627,-0.0891935,1.59742,1.1745,-0.241509,-0.0273879,-0.244963,-0.124647,0.447074,0.0355939,-0.153096,2.82032,-36.5694,2.71455,26.2289,1.13128,2.5689,-0.224197,-2.2727,0.479597,-2.81471,0.701029,-0.428146,-0.108648,-0.0470212,0.658655,-0.147426,-1.09631,0.470584,0.0189695,-0.228,
-0.43649,0.0313924,0.0096531,-1.74466,-0.0565915,0.0347696,0.376992,-0.123861,-0.0831811,-0.140173,-0.167615,0.642135,0.183593,-0.241964,0,0,0,0,0,0,0,-0.428237,0.0349219,0.0186772,-1.73627,-0.0891935,1.59742,1.1745,-0.241509,-0.0273879,-0.244963,-0.124647,0.447074,0.0355939,-0.153096,2.82032,-36.5694,2.71455,26.2289,1.13128,2.5689,-0.224197,-2.2727,0.479597,-2.81471,0.701029,-0.428146,-0.108648,-0.0470212,0.658655,-0.147426,-1.09631,0.470584,0.0189695,-0.228,
-0.436958,0.0310615,0.00912024,-1.74532,-0.0541544,0.0355418,0.376039,-0.116956,-0.0827347,-0.133213,-0.165403,0.609258,0.193053,-0.238091,0,0,0,0,0,0,0,-0.428237,0.0349219,0.0186772,-1.73627,-0.0891935,1.59742,1.1745,-0.241509,-0.0273879,-0.244963,-0.124647,0.447074,0.0355939,-0.153096,2.82032,-36.5694,2.71455,26.2289,1.13128,2.5689,-0.224197,-2.63179,0.0821487,-2.71951,0.928074,-0.682278,-0.404688,-0.346565,0.577649,-0.435122,-1.0755,0.453179,-0.0021201,-0.229952,
-0.437401,0.0307317,0.00861232,-1.74597,-0.0518589,0.0363283,0.375095,-0.110654,-0.0824295,-0.126981,-0.162809,0.573888,0.196627,-0.236046,0,0,0,0,0,0,0,-0.428237,0.0349219,0.0186772,-1.73627,-0.0891935,1.59742,1.1745,-0.241509,-0.0273879,-0.244963,-0.124647,0.447074,0.0355939,-0.153096,2.82032,-36.5694,2.71455,26.2289,1.13128,2.5689,-0.224197,-3.23499,-1.27601,-2.54512,1.65544,-1.05302,-1.23924,-1.18614,0.54119,-1.25322,-1.04955,0.323295,-0.0546664,-0.234252,
-0.437821,0.0304022,0.0081267,-1.74662,-0.0497112,0.0371128,0.374159,-0.105008,-0.0823781,-0.121406,-0.160342,0.536931,0.196116,-0.234133,0,0,0,0,0,0,0,-0.428237,0.0349219,0.0186772,-1.73627,-0.0891935,1.59742,1.1745,-0.241509,-0.0273879,-0.244963,-0.124647,0.447074,0.0355939,-0.153096,2.82032,-36.5694,2.71455,26.2289,1.13128,2.5689,-0.224197,-3.23499,-1.27601,-2.54512,1.65544,-1.05302,-1.23924,-1.18614,0.54119,-1.25322,-1.04955,0.323295,-0.0546664,-0.234252,
-0.438221,0.030072,0.00766078,-1.74725,-0.0477137,0.037884,0.37323,-0.100011,-0.0825491,-0.11648,-0.158175,0.499362,0.192809,-0.232222,0,0,0,0,0,0,0,-0.434745,0.0341874,0.0109773,-1.73992,-0.07508,1.59872,1.17075,-0.194461,-0.0281229,-0.229554,-0.112706,0.4571,0.0600544,-0.10768,2.49103,-36.9661,2.33766,26.4789,1.23474,2.47643,-0.230606,-2.79159,-0.479005,-2.66257,1.26407,-0.745816,-0.733098,-0.673443,0.634541,-0.760534,-1.11045,0.409324,-0.0622253,-0.242339,
-0.435912,0.0312356,0.0102684,-1.74458,-0.0538931,0.0383896,0.376937,-0.128692,-0.095614,-0.145399,-0.176607,0.909672,0.289542,-0.265331,0,0,0,0,0,0,0,-0.434745,0.0341874,0.0109773,-1.73992,-0.07508,1.59872,1.17075,-0.194461,-0.0281229,-0.229554,-0.112706,0.4571,0.0600544,-0.10768,2.49103,-36.9661,2.33766,26.4789,1.23474,2.47643,-0.230606,-2.79159,-0.479005,-2.66257,1.26407,-0.745816,-0.733098,-0.673443,0.634541,-0.760534,-1.11045,0.409324,-0.0622253,-0.242339,
-0.440942,0.0306195,0.00406193,-1.74759,-0.0506759,0.0378306,0.374308,-0.099495,-0.0913638,-0.116351,-0.16447,0.496065,0.230025,-0.240341,0,0,0,0,0,0,0,-0.434745,0.0341874,0.0109773,-1.73992,-0.07508,1.59872,1.17075,-0.194461,-0.0281229,-0.229554,-0.112706,0.4571,0.0600544,-0.10768,2.49103,-36.9661,2.33766,26.4789,1.23474,2.47643,-0.230606,-2.43786,0.485398,-2.25353,0.660762,-0.804721,-0.167644,-0.104064,0.356332,-0.206035,-0.897755,0.527721,-0.00365054,-0.247949,
-0.441326,0.0302501,0.00360942,-1.74824,-0.0486756,0.0387524,0.373357,-0.0960677,-0.0923525,-0.113129,-0.163756,0.50007,0.23045,-0.237829,0,0,0,0,0,0,0,-0.434745,0.0341874,0.0109773,-1.73992,-0.07508,1.59872,1.17075,-0.194461,-0.0281229,-0.229554,-0.112706,0.4571,0.0600544,-0.10768,2.49103,-36.9661,2.33766,26.4789,1.23474,2.47643,-0.230606,-2.12435,0.949365,-2.43252,0.437052,-0.548724,0.147842,0.211895,0.465246,0.104686,-0.964022,0.559722,0.00426584,-0.258032,
-0.441703,0.0298794,0.00316305,-1.74889,-0.0465922,0.0396815,0.372416,-0.0943125,-0.0926693,-0.111592,-0.162916,0.520848,0.232281,-0.23534,0,0,0,0,0,0,0,-0.434745,0.0341874,0.0109773,-1.73992,-0.07508,1.59872,1.17075,-0.194461,-0.0281229,-0.229554,-0.112706,0.4571,0.0600544,-0.10768,2.49103,-36.9661,2.33766,26.4789,1.23474,2.47643,-0.230606,-2.12435,0.949365,-2.43252,0.437052,-0.548724,0.147842,0.211895,0.465246,0.104686,-0.964022,0.559722,0.00426584,-0.258032,
-0.44208,0.0295127,0.00271554,-1.74954,-0.0443412,0.0406077,0.371479,-0.0943268,-0.0916829,-0.111878,-0.160431,0.562748,0.231561,-0.234144,0,0,0,0,0,0,0,-0.44249,0.0330204,0.00276445,-1.74446,-0.0588274,1.60091,1.16672,-0.168569,-0.0297723,-0.180059,-0.106,0.385714,0.0695449,-0.0943222,2.11017,-36.9185,2.01234,26.4313,1.00311,2.66869,-0.270889,-2.21282,0.0592603,-2.37708,0.933638,-0.620975,-0.323418,-0.262448,0.513597,-0.357114,-0.92492,0.501636,0.0176412,-0.264706,
