PerkyPenguin/Analysis-on-Approximated-Derivatives/Code_and_Data/PaperData/Real_Robot/Scene_2/set_interval/7/trajectory.csv
Commanded Joint 0 Position,Commanded Joint 1 Position,Commanded Joint 2 Position,Commanded Joint 3 Position,Commanded Joint 4 Position,Commanded Joint 5 Position,Commanded Joint 6 Position,Commanded Joint 0 Velocity,Commanded Joint 1 Velocity,Commanded Joint 2 Velocity,Commanded Joint 3 Velocity,Commanded Joint 4 Velocity,Commanded Joint 5 Velocity,Commanded Joint 6 Velocity,Commanded Joint 0 Torque,Commanded Joint 1 Torque,Commanded Joint 2 Torque,Commanded Joint 3 Torque,Commanded Joint 4 Torque,Commanded Joint 5 Torque,Commanded Joint 6 Torque,Actual Joint 0 Position,Actual Joint 1 Position,Actual Joint 2 Position,Actual Joint 3 Position,Actual Joint 4 Position,Actual Joint 5 Position,Actual Joint 6 Position,Actual Joint 0 Velocity,Actual Joint 1 Velocity,Actual Joint 2 Velocity,Actual Joint 3 Velocity,Actual Joint 4 Velocity,Actual Joint 5 Velocity,Actual Joint 6 Velocity,Actual Joint 0 Torque,Actual Joint 1 Torque,Actual Joint 2 Torque,Actual Joint 3 Torque,Actual Joint 4 Torque,Actual Joint 5 Torque,Actual Joint 6 Torque,EE ext force 0,EE ext force 1,EE ext force 2,EE ext force 3,EE ext force 4,EE ext force 5,joint ext torque 0,joint ext torque 1,joint ext torque 2,joint ext torque 3,joint ext torque 4,joint ext torque 5,joint ext torque 6,
0.0218088,-0.0554864,0.513047,-1.56868,0.0383098,0.0026491,0.532096,0.0111326,0.0310663,0.0155243,-0.143789,-0.0609107,0.202264,-0.00120445,0,0,0,0,0,0,0,0.0217345,-0.0556327,0.512935,-1.56725,0.0387115,1.57144,1.31751,0.00100015,0.00101835,0.000144025,-0.000369283,0.0133024,0.00306753,-0.00557718,0.233646,-27.4565,-0.812364,27.1255,0.532528,3.06603,0.0907442,2.5086,2.11398,2.24494,-1.10382,1.35301,0.180212,0.190775,0.525933,0.191315,0.238788,0.120667,-0.285633,0.0843104,
0.0218676,-0.0552816,0.513126,-1.5693,0.0379848,0.00348913,0.53209,0.0146897,0.0511996,0.0199078,-0.154748,-0.0812513,0.210006,-0.0013105,0,0,0,0,0,0,0,0.0217345,-0.0556327,0.512935,-1.56725,0.0387115,1.57144,1.31751,0.00100015,0.00101835,0.000144025,-0.000369283,0.0133024,0.00306753,-0.00557718,0.233646,-27.4565,-0.812364,27.1255,0.532528,3.06603,0.0907442,2.30839,2.08139,2.26163,-1.06174,1.2004,0.221947,0.231358,0.439284,0.232571,0.268092,0.135178,-0.282958,0.0850045,
0.0217463,-0.0556219,0.512947,-1.56725,0.038837,0.000667845,0.532107,0.000723313,0.000417647,0.000789569,-4.43542e-05,0.00562801,0.00107589,-4.43805e-06,0,0,0,0,0,0,0,0.0217345,-0.0556327,0.512935,-1.56725,0.0387115,1.57144,1.31751,0.00100015,0.00101835,0.000144025,-0.000369283,0.0133024,0.00306753,-0.00557718,0.233646,-27.4565,-0.812364,27.1255,0.532528,3.06603,0.0907442,2.30839,2.08139,2.26163,-1.06174,1.2004,0.221947,0.231358,0.439284,0.232571,0.268092,0.135178,-0.282958,0.0850045,
0.0217491,-0.0556208,0.51295,-1.56725,0.0388557,0.000671145,0.532107,0.000682731,0.000283786,0.000757023,-4.29449e-05,0.00466106,0.000824963,-6.03833e-06,0,0,0,0,0,0,0,0.0217422,-0.0556594,0.512934,-1.56734,0.0386382,1.57151,1.31751,0.000206646,-0.00479013,-0.00122596,-0.0122479,0.0063619,0.0170072,-0.0024431,0.209842,-26.9844,-0.713182,25.3601,0.813595,3.11272,0.0779268,2.59151,2.03154,2.19154,-1.05333,1.42634,0.117572,0.130484,0.571334,0.125279,0.222659,0.115871,-0.276978,0.0858944,
0.0217516,-0.0556201,0.512953,-1.56725,0.0388712,0.000673613,0.532107,0.000635464,0.000172373,0.000715772,-3.71279e-05,0.00388949,0.000616872,-6.77428e-06,0,0,0,0,0,0,0,0.0217422,-0.0556594,0.512934,-1.56734,0.0386382,1.57151,1.31751,0.000206646,-0.00479013,-0.00122596,-0.0122479,0.0063619,0.0170072,-0.0024431,0.209842,-26.9844,-0.713182,25.3601,0.813595,3.11272,0.0779268,2.59151,2.03154,2.19154,-1.05333,1.42634,0.117572,0.130484,0.571334,0.125279,0.222659,0.115871,-0.276978,0.0858944,
0.0217539,-0.0556198,0.512956,-1.56725,0.0388843,0.000675393,0.532107,0.000585584,8.02912e-05,0.00067045,-2.83222e-05,0.00326779,0.000445,-6.92366e-06,0,0,0,0,0,0,0,0.0217422,-0.0556594,0.512934,-1.56734,0.0386382,1.57151,1.31751,0.000206646,-0.00479013,-0.00122596,-0.0122479,0.0063619,0.0170072,-0.0024431,0.209842,-26.9844,-0.713182,25.3601,0.813595,3.11272,0.0779268,2.06327,1.69261,1.96796,-0.848133,1.10661,0.114249,0.125354,0.425507,0.118804,0.207886,0.115128,-0.271171,0.0839116,
0.0217561,-0.0556198,0.512958,-1.56725,0.0388954,0.000676608,0.532107,0.000535673,4.49622e-06,0.000624042,-1.79323e-05,0.00276226,0.000303796,-6.71414e-06,0,0,0,0,0,0,0,0.0217422,-0.0556594,0.512934,-1.56734,0.0386382,1.57151,1.31751,0.000206646,-0.00479013,-0.00122596,-0.0122479,0.0063619,0.0170072,-0.0024431,0.209842,-26.9844,-0.713182,25.3601,0.813595,3.11272,0.0779268,1.07859,1.49075,1.23066,-0.847715,0.63404,0.300102,0.305771,0.282203,0.313414,0.0484495,0.132339,-0.252828,0.0838616,
0.021758,-0.05562,0.512961,-1.56725,0.0389048,0.000677361,0.532107,0.000487338,-5.77055e-05,0.000578447,-7.00476e-06,0.00234758,0.000188373,-6.29403e-06,0,0,0,0,0,0,0,0.0217422,-0.0556594,0.512934,-1.56734,0.0386382,1.57151,1.31751,0.000206646,-0.00479013,-0.00122596,-0.0122479,0.0063619,0.0170072,-0.0024431,0.209842,-26.9844,-0.713182,25.3601,0.813595,3.11272,0.0779268,1.07859,1.49075,1.23066,-0.847715,0.63404,0.300102,0.305771,0.282203,0.313414,0.0484495,0.132339,-0.252828,0.0838616,
0.0217598,-0.0556204,0.512963,-1.56725,0.0389128,0.000677739,0.532107,0.000441539,-0.000108618,0.000534832,3.76217e-06,0.00200459,9.4437e-05,-5.75993e-06,0,0,0,0,0,0,0,0.0217422,-0.0556594,0.512934,-1.56734,0.0386382,1.57151,1.31751,0.000206646,-0.00479013,-0.00122596,-0.0122479,0.0063619,0.0170072,-0.0024431,0.209842,-26.9844,-0.713182,25.3601,0.813595,3.11272,0.0779268,2.14624,2.13142,0.873763,-1.43289,1.55733,0.287515,0.298324,0.858029,0.315758,-0.207624,0.108358,-0.246473,0.0846942,
0.0217614,-0.055621,0.512965,-1.56725,0.0389196,0.000677812,0.532107,0.000398796,-0.000150184,0.000493864,1.39381e-05,0.00171868,1.82599e-05,-5.17487e-06,0,0,0,0,0,0,0,0.0217315,-0.055699,0.512933,-1.5677,0.0385745,1.57201,1.31751,0.00226141,-0.00264468,0.00160986,0.00271561,-0.01318,-0.00102878,-0.000636674,0.25745,-27.4327,-0.76079,27.3993,1.31439,3.44414,0.104477,2.14624,2.13142,0.873763,-1.43289,1.55733,0.287515,0.298324,0.858029,0.315758,-0.207624,0.108358,-0.246473,0.0846942,
0.0217628,-0.0556218,0.512967,-1.56725,0.0389256,0.000677639,0.532107,0.000359337,-0.000184033,0.000455881,2.32824e-05,0.00147861,-4.33451e-05,-4.57937e-06,0,0,0,0,0,0,0,0.0217315,-0.055699,0.512933,-1.5677,0.0385745,1.57201,1.31751,0.00226141,-0.00264468,0.00160986,0.00271561,-0.01318,-0.00102878,-0.000636674,0.25745,-27.4327,-0.76079,27.3993,1.31439,3.44414,0.104477,2.40005,2.1007,1.50391,-1.21915,1.46848,0.201039,0.211263,0.680181,0.21897,0.0655802,0.121577,-0.189197,0.0863164,
0.0217641,-0.0556226,0.512968,-1.56725,0.0389307,0.000677267,0.532107,0.000323201,-0.000211522,0.000420996,3.16827e-05,0.00127567,-9.30688e-05,-3.99875e-06,0,0,0,0,0,0,0,0.0217315,-0.055699,0.512933,-1.5677,0.0385745,1.57201,1.31751,0.00226141,-0.00264468,0.00160986,0.00271561,-0.01318,-0.00102878,-0.000636674,0.25745,-27.4327,-0.76079,27.3993,1.31439,3.44414,0.104477,2.58777,2.20853,1.65692,-1.24919,1.54089,0.197325,0.191107,0.68945,0.230588,0.118876,0.129787,-0.171706,0.0856255,
0.0217653,-0.0556235,0.51297,-1.56725,0.0389351,0.000676734,0.532107,0.000290305,-0.000233782,0.000389182,3.91111e-05,0.00110308,-0.000133159,-3.44808e-06,0,0,0,0,0,0,0,0.0217315,-0.055699,0.512933,-1.5677,0.0385745,1.57201,1.31751,0.00226141,-0.00264468,0.00160986,0.00271561,-0.01318,-0.00102878,-0.000636674,0.25745,-27.4327,-0.76079,27.3993,1.31439,3.44414,0.104477,2.58777,2.20853,1.65692,-1.24919,1.54089,0.197325,0.191107,0.68945,0.230588,0.118876,0.129787,-0.171706,0.0856255,
0.0217663,-0.0556245,0.512971,-1.56725,0.0389389,0.000676072,0.532107,0.000260492,-0.000251749,0.000360321,4.55927e-05,0.000955464,-0.000165474,-2.93552e-06,0,0,0,0,0,0,0,0.0217315,-0.055699,0.512933,-1.5677,0.0385745,1.57201,1.31751,0.00226141,-0.00264468,0.00160986,0.00271561,-0.01318,-0.00102878,-0.000636674,0.25745,-27.4327,-0.76079,27.3993,1.31439,3.44414,0.104477,2.16812,2.09379,1.49097,-1.23438,1.31335,0.264124,0.252627,0.602078,0.303632,0.061126,0.116268,-0.211051,0.0843571,
0.0217673,-0.0556256,0.512973,-1.56725,0.0389422,0.000675306,0.532107,0.000233565,-0.0002662,0.000334244,5.11843e-05,0.000828586,-0.000191543,-2.4647e-06,0,0,0,0,0,0,0,0.0217443,-0.0556818,0.512937,-1.56763,0.0385925,1.57205,1.31751,0.00224109,-0.00155199,-1.11885e-05,-0.00068228,-0.0113593,-0.00294567,0.000593135,0.134464,-27.6311,-0.812364,26.6296,1.19812,3.12554,0.0641939,2.16812,2.09379,1.49097,-1.23438,1.31335,0.264124,0.252627,0.602078,0.303632,0.061126,0.116268,-0.211051,0.0843571,
0.0217681,-0.0556267,0.512974,-1.56725,0.0389451,0.000674455,0.532107,0.000209306,-0.000277778,0.000310754,5.59599e-05,0.000719038,-0.000212609,-2.0363e-06,0,0,0,0,0,0,0,0.0217443,-0.0556818,0.512937,-1.56763,0.0385925,1.57205,1.31751,0.00224109,-0.00155199,-1.11885e-05,-0.00068228,-0.0113593,-0.00294567,0.000593135,0.134464,-27.6311,-0.812364,26.6296,1.19812,3.12554,0.0641939,1.74537,1.66237,1.88491,-0.807595,0.833213,0.18817,0.178231,0.256609,0.211165,0.282462,0.116047,-0.19662,0.0840208,
0.0217689,-0.0556279,0.512975,-1.56725,0.0389476,0.000673537,0.532107,0.000187492,-0.00028701,0.000289644,6.00007e-05,0.000624075,-0.000229683,-1.64922e-06,0,0,0,0,0,0,0,0.0217443,-0.0556818,0.512937,-1.56763,0.0385925,1.57205,1.31751,0.00224109,-0.00155199,-1.11885e-05,-0.00068228,-0.0113593,-0.00294567,0.000593135,0.134464,-27.6311,-0.812364,26.6296,1.19812,3.12554,0.0641939,1.74537,1.66237,1.88491,-0.807595,0.833213,0.18817,0.178231,0.256609,0.211165,0.282462,0.116047,-0.19662,0.0840208,
0.0217695,-0.0556291,0.512976,-1.56725,0.0389498,0.000672562,0.532107,0.000167905,-0.000294335,0.000270707,6.33894e-05,0.00054146,-0.000243579,-1.30122e-06,0,0,0,0,0,0,0,0.0217443,-0.0556818,0.512937,-1.56763,0.0385925,1.57205,1.31751,0.00224109,-0.00155199,-1.11885e-05,-0.00068228,-0.0113593,-0.00294567,0.000593135,0.134464,-27.6311,-0.812364,26.6296,1.19812,3.12554,0.0641939,1.97008,1.75,1.69881,-0.922168,1.08005,0.163881,0.144627,0.430176,0.200248,0.179012,0.116208,-0.204659,0.0841298,
0.0217701,-0.0556303,0.512977,-1.56725,0.0389516,0.000671543,0.532107,0.000150334,-0.000300112,0.000253742,6.62059e-05,0.00046936,-0.000254949,-9.89534e-07,0,0,0,0,0,0,0,0.0217443,-0.0556818,0.512937,-1.56763,0.0385925,1.57205,1.31751,0.00224109,-0.00155199,-1.11885e-05,-0.00068228,-0.0113593,-0.00294567,0.000593135,0.134464,-27.6311,-0.812364,26.6296,1.19812,3.12554,0.0641939,1.97008,1.75,1.69881,-0.922168,1.08005,0.163881,0.144627,0.430176,0.200248,0.179012,0.116208,-0.204659,0.0841298,
0.0217707,-0.0556315,0.512978,-1.56725,0.0389533,0.000670485,0.532107,0.000134586,-0.000304635,0.00023856,6.8525e-05,0.000406261,-0.000264315,-7.11116e-07,0,0,0,0,0,0,0,0.0217443,-0.0556818,0.512937,-1.56763,0.0385925,1.57205,1.31751,0.00224109,-0.00155199,-1.11885e-05,-0.00068228,-0.0113593,-0.00294567,0.000593135,0.134464,-27.6311,-0.812364,26.6296,1.19812,3.12554,0.0641939,1.87107,1.78269,1.5713,-0.972889,1.05919,0.207609,0.179963,0.442936,0.254079,0.13599,0.123628,-0.207421,0.0830652,
0.0217711,-0.0556327,0.512979,-1.56725,0.0389547,0.000669397,0.532107,0.000120476,-0.000308148,0.000224984,7.04155e-05,0.000350902,-0.000272091,-4.62889e-07,0,0,0,0,0,0,0,0.021739,-0.0556963,0.512935,-1.56765,0.0386205,1.57204,1.3175,-3.22968e-05,-0.00187678,-0.000359552,0.00114333,-0.010058,-0.000131957,-0.00071946,0.209842,-27.4565,-0.788561,26.8518,0.984799,3.18596,0.104477,1.87107,1.78269,1.5713,-0.972889,1.05919,0.207609,0.179963,0.442936,0.254079,0.13599,0.123628,-0.207421,0.0830652,
0.0217716,-0.0556339,0.51298,-1.56725,0.0389559,0.000668283,0.532107,0.000107841,-0.00031085,0.000212851,7.19391e-05,0.000302227,-0.000278607,-2.41869e-07,0,0,0,0,0,0,0,0.021739,-0.0556963,0.512935,-1.56765,0.0386205,1.57204,1.3175,-3.22968e-05,-0.00187678,-0.000359552,0.00114333,-0.010058,-0.000131957,-0.00071946,0.209842,-27.4565,-0.788561,26.8518,0.984799,3.18596,0.104477,1.67743,1.75718,1.73876,-0.897742,0.856003,0.251337,0.231329,0.303015,0.28703,0.221609,0.140661,-0.204669,0.0838575,
0.021772,-0.0556352,0.512981,-1.56725,0.0389569,0.000667146,0.532107,9.65263e-05,-0.000312903,0.000202014,7.31513e-05,0.000259347,-0.000284122,-4.52389e-08,0,0,0,0,0,0,0,0.021739,-0.0556963,0.512935,-1.56765,0.0386205,1.57204,1.3175,-3.22968e-05,-0.00187678,-0.000359552,0.00114333,-0.010058,-0.000131957,-0.00071946,0.209842,-27.4565,-0.788561,26.8518,0.984799,3.18596,0.104477,1.67743,1.75718,1.73876,-0.897742,0.856003,0.251337,0.231329,0.303015,0.28703,0.221609,0.140661,-0.204669,0.0838575,
0.0217723,-0.0556365,0.512981,-1.56725,0.0389578,0.000665991,0.532107,8.63962e-05,-0.000314441,0.000192337,7.41004e-05,0.000221507,-0.000288839,1.29608e-07,0,0,0,0,0,0,0,0.021739,-0.0556963,0.512935,-1.56765,0.0386205,1.57204,1.3175,-3.22968e-05,-0.00187678,-0.000359552,0.00114333,-0.010058,-0.000131957,-0.00071946,0.209842,-27.4565,-0.788561,26.8518,0.984799,3.18596,0.104477,1.94389,1.98517,1.41326,-1.179,1.2001,0.279684,0.278464,0.563388,0.308425,0.0303431,0.122344,-0.238028,0.0838687,
0.0217726,-0.0556377,0.512982,-1.56725,0.0389585,0.000664819,0.532107,7.73262e-05,-0.000315573,0.000183699,7.48291e-05,0.000188065,-0.000292919,2.85054e-07,0,0,0,0,0,0,0,0.021739,-0.0556963,0.512935,-1.56765,0.0386205,1.57204,1.3175,-3.22968e-05,-0.00187678,-0.000359552,0.00114333,-0.010058,-0.000131957,-0.00071946,0.209842,-27.4565,-0.788561,26.8518,0.984799,3.18596,0.104477,1.73765,1.86248,1.50661,-1.06509,0.998183,0.283302,0.291344,0.428889,0.299321,0.0992869,0.115522,-0.229035,0.0827764,
0.0217729,-0.055639,0.512983,-1.56725,0.0389592,0.000663633,0.532107,6.92049e-05,-0.000316386,0.00017599,7.53744e-05,0.000158472,-0.000296486,4.23255e-07,0,0,0,0,0,0,0,0.0217098,-0.0557193,0.512904,-1.56763,0.0386008,1.57203,1.31751,0.00183319,-0.00184268,-4.94836e-05,-0.00102574,-0.0119145,-0.0020656,-7.47049e-05,0.25745,-27.3097,-0.610033,26.7526,1.11847,3.24547,0.0843355,1.73765,1.86248,1.50661,-1.06509,0.998183,0.283302,0.291344,0.428889,0.299321,0.0992869,0.115522,-0.229035,0.0827764,
0.0217731,-0.0556403,0.512984,-1.56725,0.0389597,0.000662434,0.532107,6.19321e-05,-0.000316953,0.000169112,7.5768e-05,0.000132253,-0.000299639,5.46148e-07,0,0,0,0,0,0,0,0.0217098,-0.0557193,0.512904,-1.56763,0.0386008,1.57203,1.31751,0.00183319,-0.00184268,-4.94836e-05,-0.00102574,-0.0119145,-0.0020656,-7.47049e-05,0.25745,-27.3097,-0.610033,26.7526,1.11847,3.24547,0.0843355,1.73264,1.82195,1.77015,-0.941269,0.88227,0.266553,0.269605,0.31206,0.281467,0.22766,0.135786,-0.202676,0.0833574,
0.0220047,-0.055899,0.513208,-1.56699,-0.0163609,-0.0356334,0.531954,-0.00515181,0.000866488,-0.00511111,-0.00241462,-0.340076,-0.226046,-0.000717854,0,0,0,0,0,0,0,0.0217098,-0.0557193,0.512904,-1.56763,0.0386008,1.57203,1.31751,0.00183319,-0.00184268,-4.94836e-05,-0.00102574,-0.0119145,-0.0020656,-7.47049e-05,0.25745,-27.3097,-0.610033,26.7526,1.11847,3.24547,0.0843355,1.73264,1.82195,1.77015,-0.941269,0.88227,0.266553,0.269605,0.31206,0.281467,0.22766,0.135786,-0.202676,0.0833574,
0.02191,-0.0560374,0.513121,-1.5674,-0.00720775,-0.0294073,0.532025,-0.00441192,0.000232157,-0.00429083,-0.00215114,-0.265442,-0.184123,-0.000350522,0,0,0,0,0,0,0,0.0217098,-0.0557193,0.512904,-1.56763,0.0386008,1.57203,1.31751,0.00183319,-0.00184268,-4.94836e-05,-0.00102574,-0.0119145,-0.0020656,-7.47049e-05,0.25745,-27.3097,-0.610033,26.7526,1.11847,3.24547,0.0843355,2.65285,2.01253,1.51006,-1.18436,1.67736,0.091612,0.0873494,0.804287,0.12306,0.0132944,0.103573,-0.223396,0.0831526,
0.0218921,-0.0560364,0.513104,-1.56741,-0.00825563,-0.0301358,0.532023,-0.00446964,0.000252842,-0.00435122,-0.00215585,-0.261968,-0.182121,-0.000346912,0,0,0,0,0,0,0,0.0217098,-0.0557193,0.512904,-1.56763,0.0386008,1.57203,1.31751,0.00183319,-0.00184268,-4.94836e-05,-0.00102574,-0.0119145,-0.0020656,-7.47049e-05,0.25745,-27.3097,-0.610033,26.7526,1.11847,3.24547,0.0843355,2.56712,2.16536,1.53642,-1.27522,1.60663,0.186498,0.168484,0.762605,0.233246,0.0309766,0.123008,-0.217637,0.0820582,
0.021874,-0.0560353,0.513086,-1.56742,-0.00928885,-0.0308558,0.532022,-0.00452596,0.00026658,-0.00441006,-0.00216379,-0.258306,-0.179997,-0.00034412,0,0,0,0,0,0,0,0.0217098,-0.0557193,0.512904,-1.56763,0.0386008,1.57203,1.31751,0.00183319,-0.00184268,-4.94836e-05,-0.00102574,-0.0119145,-0.0020656,-7.47049e-05,0.25745,-27.3097,-0.610033,26.7526,1.11847,3.24547,0.0843355,2.56712,2.16536,1.53642,-1.27522,1.60663,0.186498,0.168484,0.762605,0.233246,0.0309766,0.123008,-0.217637,0.0820582,
0.0218557,-0.0560342,0.513069,-1.56743,-0.0103066,-0.0315667,0.53202,-0.00458225,0.000273844,-0.00446865,-0.00217649,-0.254431,-0.177729,-0.000342267,0,0,0,0,0,0,0,0.0217313,-0.0557452,0.51292,-1.56762,0.0384787,1.57199,1.31751,0.00287,-0.00109109,0.0016251,0.00519211,-0.0451955,-0.00708618,-0.000231029,-0.0440639,-27.3097,-0.887743,26.6058,0.104977,3.09258,0.0843355,2.31815,2.45563,1.74326,-1.45269,1.35441,0.384558,0.350491,0.59468,0.451035,0.105055,0.126207,-0.233706,0.0848804,
0.0218371,-0.0560331,0.51305,-1.56744,-0.0113078,-0.0322679,0.532019,-0.00464004,0.000275095,-0.00452849,-0.00219576,-0.250317,-0.175292,-0.000341379,0,0,0,0,0,0,0,0.0217313,-0.0557452,0.51292,-1.56762,0.0384787,1.57199,1.31751,0.00287,-0.00109109,0.0016251,0.00519211,-0.0451955,-0.00708618,-0.000231029,-0.0440639,-27.3097,-0.887743,26.6058,0.104977,3.09258,0.0843355,2.31815,2.45563,1.74326,-1.45269,1.35441,0.384558,0.350491,0.59468,0.451035,0.105055,0.126207,-0.233706,0.0848804,
0.0218183,-0.0560321,0.513032,-1.56745,-0.0122916,-0.0329585,0.532018,-0.00470111,0.000270822,-0.00459129,-0.0022237,-0.245928,-0.172656,-0.000341655,0,0,0,0,0,0,0,0.0217313,-0.0557452,0.51292,-1.56762,0.0384787,1.57199,1.31751,0.00287,-0.00109109,0.0016251,0.00519211,-0.0451955,-0.00708618,-0.000231029,-0.0440639,-27.3097,-0.887743,26.6058,0.104977,3.09258,0.0843355,2.14708,2.18993,1.85062,-1.38912,1.1656,0.302936,0.248881,0.462775,0.389893,0.106427,-0.0228951,-0.300073,0.0850811,
0.0217992,-0.056031,0.513013,-1.56746,-0.0132564,-0.0336376,0.532016,-0.00476756,0.00026153,-0.00465908,-0.00226284,-0.241223,-0.169783,-0.000343035,0,0,0,0,0,0,0,0.0217313,-0.0557452,0.51292,-1.56762,0.0384787,1.57199,1.31751,0.00287,-0.00109109,0.0016251,0.00519211,-0.0451955,-0.00708618,-0.000231029,-0.0440639,-27.3097,-0.887743,26.6058,0.104977,3.09258,0.0843355,2.14708,2.18993,1.85062,-1.38912,1.1656,0.302936,0.248881,0.462775,0.389893,0.106427,-0.0228951,-0.300073,0.0850811,
0.0217799,-0.05603,0.512994,-1.56746,-0.014201,-0.0343042,0.532015,-0.00484194,0.000247775,-0.00473436,-0.00231613,-0.236152,-0.166628,-0.000345593,0,0,0,0,0,0,0,0.0217313,-0.0557452,0.51292,-1.56762,0.0384787,1.57199,1.31751,0.00287,-0.00109109,0.0016251,0.00519211,-0.0451955,-0.00708618,-0.000231029,-0.0440639,-27.3097,-0.887743,26.6058,0.104977,3.09258,0.0843355,1.4997,2.32377,1.97075,-1.51096,0.625279,0.542942,0.478322,0.139474,0.644216,0.187793,-0.0659329,-0.320165,0.0850353,
0.0217601,-0.0560291,0.512975,-1.56747,-0.0151237,-0.0349567,0.532014,-0.00492742,0.000230166,-0.00482018,-0.00238714,-0.230652,-0.163137,-0.000349334,0,0,0,0,0,0,0,0.0218889,-0.0557606,0.513008,-1.56762,0.0335479,1.57146,1.31751,-0.00060739,9.22946e-06,-0.000837344,-0.0029405,-0.173018,-0.03499,0.00050458,-0.476498,-27.4089,-1.41142,26.951,0.21484,2.93328,0.0706026,2.18306,2.12203,2.14214,-1.38358,1.04037,0.25274,0.191684,0.325727,0.347515,0.193824,-0.143427,-0.322545,0.086094,
0.02174,-0.0560283,0.512956,-1.56748,-0.0160223,-0.0355937,0.532012,-0.00502797,0.000209406,-0.0049204,-0.00248009,-0.224648,-0.159246,-0.000354192,0,0,0,0,0,0,0,0.0218889,-0.0557606,0.513008,-1.56762,0.0335479,1.57146,1.31751,-0.00060739,9.22946e-06,-0.000837344,-0.0029405,-0.173018,-0.03499,0.00050458,-0.476498,-27.4089,-1.41142,26.951,0.21484,2.93328,0.0706026,2.18306,2.12203,2.14214,-1.38358,1.04037,0.25274,0.191684,0.325727,0.347515,0.193824,-0.143427,-0.322545,0.086094,
0.0217194,-0.0560275,0.512935,-1.56749,-0.0168944,-0.0362132,0.532011,-0.00514865,0.000186296,-0.00503993,-0.00260003,-0.218045,-0.154875,-0.000360019,0,0,0,0,0,0,0,0.0218889,-0.0557606,0.513008,-1.56762,0.0335479,1.57146,1.31751,-0.00060739,9.22946e-06,-0.000837344,-0.0029405,-0.173018,-0.03499,0.00050458,-0.476498,-27.4089,-1.41142,26.951,0.21484,2.93328,0.0706026,2.38713,1.96523,2.31291,-1.29753,1.14542,0.121728,0.0634375,0.362173,0.212081,0.195169,-0.199395,-0.373138,0.0848049,
0.0216983,-0.0560269,0.512915,-1.56751,-0.0177373,-0.0368129,0.532009,-0.00529598,0.000161746,-0.00518512,-0.00275299,-0.210723,-0.14993,-0.000366484,0,0,0,0,0,0,0,0.0218889,-0.0557606,0.513008,-1.56762,0.0335479,1.57146,1.31751,-0.00060739,9.22946e-06,-0.000837344,-0.0029405,-0.173018,-0.03499,0.00050458,-0.476498,-27.4089,-1.41142,26.951,0.21484,2.93328,0.0706026,2.38713,1.96523,2.31291,-1.29753,1.14542,0.121728,0.0634375,0.362173,0.212081,0.195169,-0.199395,-0.373138,0.0848049,
0.0216763,-0.0560263,0.512893,-1.56752,-0.0185475,-0.0373901,0.532008,-0.00547847,0.000136805,-0.00536421,-0.00294615,-0.202533,-0.1443,-0.000372924,0,0,0,0,0,0,0,0.0218889,-0.0557606,0.513008,-1.56762,0.0335479,1.57146,1.31751,-0.00060739,9.22946e-06,-0.000837344,-0.0029405,-0.173018,-0.03499,0.00050458,-0.476498,-27.4089,-1.41142,26.951,0.21484,2.93328,0.0706026,2.77594,1.81626,2.36402,-1.25547,1.42732,-0.0587161,-0.116441,0.514769,0.0315657,0.135151,-0.267963,-0.421962,0.0838529,
0.0216535,-0.0560259,0.512871,-1.56753,-0.0193206,-0.0379415,0.532006,-0.00570726,0.00011263,-0.00558808,-0.00318804,-0.193283,-0.137851,-0.000378718,0,0,0,0,0,0,0,0.0218889,-0.0557606,0.513008,-1.56762,0.0335479,1.57146,1.31751,-0.00060739,9.22946e-06,-0.000837344,-0.0029405,-0.173018,-0.03499,0.00050458,-0.476498,-27.4089,-1.41142,26.951,0.21484,2.93328,0.0706026,2.90601,1.56342,2.49971,-1.14138,1.5146,-0.212458,-0.265778,0.558182,-0.127929,0.0944271,-0.342593,-0.512476,0.0811668,
0.0216295,-0.0560255,0.512847,-1.56754,-0.0200515,-0.0384632,0.532005,-0.00599715,9.0399e-05,-0.00587113,-0.00348893,-0.182728,-0.130423,-0.000381963,0,0,0,0,0,0,0,0.0219779,-0.0557765,0.513045,-1.56764,0.0282991,1.57047,1.31751,0.000586257,-0.00124769,-0.000796521,0.000839346,-0.171628,-0.0250908,-4.29634e-05,-0.57568,-27.3335,-1.4868,27.1017,0.397946,2.84722,0.0706026,2.90601,1.56342,2.49971,-1.14138,1.5146,-0.212458,-0.265778,0.558182,-0.127929,0.0944271,-0.342593,-0.512476,0.0811668,
0.021604,-0.0560252,0.512822,-1.56756,-0.0207337,-0.0389505,0.532003,-0.00636794,7.10646e-05,-0.00623267,-0.00386147,-0.170551,-0.121826,-0.000380108,0,0,0,0,0,0,0,0.0219779,-0.0557765,0.513045,-1.56764,0.0282991,1.57047,1.31751,0.000586257,-0.00124769,-0.000796521,0.000839346,-0.171628,-0.0250908,-4.29634e-05,-0.57568,-27.3335,-1.4868,27.1017,0.397946,2.84722,0.0706026,2.6204,1.75992,2.62354,-1.23749,1.30203,-0.0396023,-0.0809954,0.441744,0.0352248,0.129095,-0.296734,-0.543717,0.0798823,
0.0215767,-0.056025,0.512796,-1.56758,-0.021359,-0.0393978,0.532002,-0.00684661,5.4467e-05,-0.00669904,-0.00432256,-0.156334,-0.111833,-0.000367652,0,0,0,0,0,0,0,0.0219779,-0.0557765,0.513045,-1.56764,0.0282991,1.57047,1.31751,0.000586257,-0.00124769,-0.000796521,0.000839346,-0.171628,-0.0250908,-4.29634e-05,-0.57568,-27.3335,-1.4868,27.1017,0.397946,2.84722,0.0706026,2.6204,1.75992,2.62354,-1.23749,1.30203,-0.0396023,-0.0809954,0.441744,0.0352248,0.129095,-0.296734,-0.543717,0.0798823,
0.0215468,-0.0560249,0.512766,-1.5676,-0.0219171,-0.0397985,0.532,-0.00747115,3.65326e-05,-0.00730725,-0.00489925,-0.139519,-0.100159,-0.000332934,0,0,0,0,0,0,0,0.0219779,-0.0557765,0.513045,-1.56764,0.0282991,1.57047,1.31751,0.000586257,-0.00124769,-0.000796521,0.000839346,-0.171628,-0.0250908,-4.29634e-05,-0.57568,-27.3335,-1.4868,27.1017,0.397946,2.84722,0.0706026,2.87831,1.70853,2.7736,-1.19646,1.46152,-0.136809,-0.157354,0.515406,-0.0831143,0.128183,-0.316569,-0.579413,0.0796345,
0.0215136,-0.0560249,0.512734,-1.56762,-0.0223944,-0.0401441,0.531999,-0.00829856,-2.42112e-08,-0.00811278,-0.00564814,-0.119327,-0.0864059,-0.000251979,0,0,0,0,0,0,0,0.0219779,-0.0557765,0.513045,-1.56764,0.0282991,1.57047,1.31751,0.000586257,-0.00124769,-0.000796521,0.000839346,-0.171628,-0.0250908,-4.29634e-05,-0.57568,-27.3335,-1.4868,27.1017,0.397946,2.84722,0.0706026,2.87831,1.70853,2.7736,-1.19646,1.46152,-0.136809,-0.157354,0.515406,-0.0831143,0.128183,-0.316569,-0.579413,0.0796345,
0.0214759,-0.0560253,0.512697,-1.56765,-0.0227728,-0.0404237,0.531999,-0.00942511,-0.00011686,-0.00921016,-0.00672131,-0.0945877,-0.0698873,-0.000148164,0,0,0,0,0,0,0,0.0219095,-0.0557921,0.51299,-1.56763,0.021126,1.57013,1.31751,-0.000538373,-0.00149714,-0.000932519,0.000786228,-0.168603,-0.00372533,-0.000145694,0.134464,-27.3097,-0.93535,26.9272,0.733944,2.85363,0.0779268,2.75103,1.96558,2.84172,-1.34792,1.38002,0.0160794,0.013045,0.478278,0.0565525,0.13422,-0.273129,-0.600577,0.0807853,
0.0214373,-0.0560229,0.512659,-1.56767,-0.0230777,-0.0406542,0.531999,-0.0096457,0.000604653,-0.00952689,-0.00607454,-0.0762292,-0.0576484,-4.73093e-05,0,0,0,0,0,0,0,0.0219095,-0.0557921,0.51299,-1.56763,0.021126,1.57013,1.31751,-0.000538373,-0.00149714,-0.000932519,0.000786228,-0.168603,-0.00372533,-0.000145694,0.134464,-27.3097,-0.93535,26.9272,0.733944,2.85363,0.0779268,2.8841,2.25598,2.70301,-1.53938,1.58014,0.113137,0.121495,0.63645,0.147778,0.0474259,-0.196739,-0.610183,0.0810522,
0.0213994,-0.0560174,0.512621,-1.56769,-0.023326,-0.0408455,0.531999,-0.00946574,0.00137292,-0.00941644,-0.00511506,-0.0620831,-0.047822,-3.49119e-06,0,0,0,0,0,0,0,0.0219095,-0.0557921,0.51299,-1.56763,0.021126,1.57013,1.31751,-0.000538373,-0.00149714,-0.000932519,0.000786228,-0.168603,-0.00372533,-0.000145694,0.134464,-27.3097,-0.93535,26.9272,0.733944,2.85363,0.0779268,2.8841,2.25598,2.70301,-1.53938,1.58014,0.113137,0.121495,0.63645,0.147778,0.0474259,-0.196739,-0.610183,0.0810522,
0.0213631,-0.0560094,0.512585,-1.56771,-0.0235298,-0.0410043,0.531999,-0.00907484,0.00199283,-0.00907227,-0.00421113,-0.05095,-0.0396893,1.33873e-05,0,0,0,0,0,0,0,0.0219095,-0.0557921,0.51299,-1.56763,0.021126,1.57013,1.31751,-0.000538373,-0.00149714,-0.000932519,0.000786228,-0.168603,-0.00372533,-0.000145694,0.134464,-27.3097,-0.93535,26.9272,0.733944,2.85363,0.0779268,2.62457,2.24792,2.80783,-1.46593,1.37168,0.18381,0.201231,0.513092,0.205917,0.110452,-0.146336,-0.611731,0.0814593,
0.0213289,-0.0559997,0.512551,-1.56772,-0.0236981,-0.0411359,0.531999,-0.00857085,0.00243948,-0.00859885,-0.00343586,-0.0420614,-0.0328908,1.77764e-05,0,0,0,0,0,0,0,0.0219095,-0.0557921,0.51299,-1.56763,0.021126,1.57013,1.31751,-0.000538373,-0.00149714,-0.000932519,0.000786228,-0.168603,-0.00372533,-0.000145694,0.134464,-27.3097,-0.93535,26.9272,0.733944,2.85363,0.0779268,2.62457,2.24792,2.80783,-1.46593,1.37168,0.18381,0.201231,0.513092,0.205917,0.110452,-0.146336,-0.611731,0.0814593,
0.0212968,-0.0559888,0.512518,-1.56773,-0.0238376,-0.0412446,0.531999,-0.00801135,0.00273288,-0.00805882,-0.0027846,-0.0348814,-0.027192,1.58546e-05,0,0,0,0,0,0,0,0.0216825,-0.0557842,0.512901,-1.56764,0.016011,1.57013,1.31751,-0.00475101,0.00080884,-0.00260148,-0.00031206,-0.141593,-0.00324117,-0.000745886,0.435978,-27.5597,-0.736986,27.0779,0.813595,2.90673,0.0980684,2.30828,2.17373,2.86945,-1.33314,1.13749,0.24315,0.265941,0.381996,0.254263,0.174548,-0.0783495,-0.60391,0.0804507,
0.020442,-0.0542987,0.511463,-1.56782,-0.149352,-0.193494,0.530509,-0.0286837,0.0223338,-0.0296964,-0.0209209,-1.22188,-1.14226,-0.00731782,0,0,0,0,0,0,0,0.0216825,-0.0557842,0.512901,-1.56764,0.016011,1.57013,1.31751,-0.00475101,0.00080884,-0.00260148,-0.00031206,-0.141593,-0.00324117,-0.000745886,0.435978,-27.5597,-0.736986,27.0779,0.813595,2.90673,0.0980684,2.28618,2.30532,2.83374,-1.38088,1.14736,0.312696,0.340974,0.399395,0.318726,0.177132,-0.0196382,-0.584422,0.0795919,
0.0201626,-0.0546999,0.511291,-1.56766,-0.131352,-0.150006,0.531289,-0.0248381,0.014214,-0.0254257,-0.0124693,-0.720809,-0.87938,-0.00284107,0,0,0,0,0,0,0,0.0216825,-0.0557842,0.512901,-1.56764,0.016011,1.57013,1.31751,-0.00475101,0.00080884,-0.00260148,-0.00031206,-0.141593,-0.00324117,-0.000745886,0.435978,-27.5597,-0.736986,27.0779,0.813595,2.90673,0.0980684,2.28618,2.30532,2.83374,-1.38088,1.14736,0.312696,0.340974,0.399395,0.318726,0.177132,-0.0196382,-0.584422,0.0795919,
0.0200633,-0.0546444,0.511189,-1.56771,-0.134189,-0.1535,0.531277,-0.0248361,0.0138614,-0.0254358,-0.0123365,-0.709082,-0.873568,-0.00277356,0,0,0,0,0,0,0,0.0216825,-0.0557842,0.512901,-1.56764,0.016011,1.57013,1.31751,-0.00475101,0.00080884,-0.00260148,-0.00031206,-0.141593,-0.00324117,-0.000745886,0.435978,-27.5597,-0.736986,27.0779,0.813595,2.90673,0.0980684,2.40994,2.33031,2.85378,-1.34116,1.2397,0.290953,0.32335,0.449881,0.290589,0.193601,0.0296724,-0.562608,0.0798614,
0.0199639,-0.0545905,0.511087,-1.56776,-0.136975,-0.156967,0.531267,-0.0248549,0.0134676,-0.0254662,-0.0122348,-0.696594,-0.866924,-0.00271027,0,0,0,0,0,0,0,0.0216825,-0.0557842,0.512901,-1.56764,0.016011,1.57013,1.31751,-0.00475101,0.00080884,-0.00260148,-0.00031206,-0.141593,-0.00324117,-0.000745886,0.435978,-27.5597,-0.736986,27.0779,0.813595,2.90673,0.0980684,2.40994,2.33031,2.85378,-1.34116,1.2397,0.290953,0.32335,0.449881,0.290589,0.193601,0.0296724,-0.562608,0.0798614,
0.0198643,-0.0545384,0.510985,-1.5678,-0.139708,-0.160405,0.531256,-0.0249009,0.0130312,-0.0255233,-0.0121727,-0.683205,-0.859254,-0.00265146,0,0,0,0,0,0,0,0.0216825,-0.0557842,0.512901,-1.56764,0.016011,1.57013,1.31751,-0.00475101,0.00080884,-0.00260148,-0.00031206,-0.141593,-0.00324117,-0.000745886,0.435978,-27.5597,-0.736986,27.0779,0.813595,2.90673,0.0980684,3.28531,4.08137,3.60903,-2.31419,1.56925,0.835353,0.873459,0.497402,0.850979,0.44973,0.156746,-0.434933,0.0873876,
0.0197643,-0.0544882,0.510883,-1.56785,-0.142383,-0.163806,0.531246,-0.0249815,0.0125503,-0.0256144,-0.0121599,-0.668753,-0.85033,-0.00259812,0,0,0,0,0,0,0,0.0215795,-0.0557905,0.512738,-1.56735,0.00846689,1.56731,1.31751,0.00735326,-0.00596155,0.00157058,0.0318523,-0.522185,-0.312392,0.00100572,-1.11126,-27.282,-1.76055,24.5111,-0.798649,1.46844,0.017502,3.28531,4.08137,3.60903,-2.31419,1.56925,0.835353,0.873459,0.497402,0.850979,0.44973,0.156746,-0.434933,0.0873876,
0.0196639,-0.0544401,0.51078,-1.5679,-0.144995,-0.167165,0.531235,-0.0251055,0.0120227,-0.0257481,-0.0122084,-0.653047,-0.839876,-0.00255006,0,0,0,0,0,0,0,0.0215795,-0.0557905,0.512738,-1.56735,0.00846689,1.56731,1.31751,0.00735326,-0.00596155,0.00157058,0.0318523,-0.522185,-0.312392,0.00100572,-1.11126,-27.282,-1.76055,24.5111,-0.798649,1.46844,0.017502,4.45754,5.10196,3.48513,-3.14222,2.44556,0.95465,0.970623,0.993795,1.01764,0.28248,0.106333,-0.399672,0.0926572,
0.0195628,-0.0543943,0.510676,-1.56795,-0.147539,-0.170476,0.531225,-0.0252832,0.0114461,-0.0259346,-0.0123324,-0.635869,-0.827563,-0.00250921,0,0,0,0,0,0,0,0.0215795,-0.0557905,0.512738,-1.56735,0.00846689,1.56731,1.31751,0.00735326,-0.00596155,0.00157058,0.0318523,-0.522185,-0.312392,0.00100572,-1.11126,-27.282,-1.76055,24.5111,-0.798649,1.46844,0.017502,4.45754,5.10196,3.48513,-3.14222,2.44556,0.95465,0.970623,0.993795,1.01764,0.28248,0.106333,-0.399672,0.0926572,
0.0194607,-0.0543511,0.510571,-1.568,-0.150006,-0.173728,0.531215,-0.0255268,0.0108176,-0.026186,-0.0125487,-0.616964,-0.812997,-0.00247567,0,0,0,0,0,0,0,0.0215795,-0.0557905,0.512738,-1.56735,0.00846689,1.56731,1.31751,0.00735326,-0.00596155,0.00157058,0.0318523,-0.522185,-0.312392,0.00100572,-1.11126,-27.282,-1.76055,24.5111,-0.798649,1.46844,0.017502,2.86956,4.62174,3.62872,-3.00401,1.18706,1.15948,1.13251,0.263604,1.2651,0.379362,-0.114643,-0.524474,0.0957199,
0.0193573,-0.0543105,0.510465,-1.56805,-0.152391,-0.17691,0.531206,-0.0258504,0.0101348,-0.0265163,-0.0128773,-0.596035,-0.795711,-0.00245081,0,0,0,0,0,0,0,0.0215795,-0.0557905,0.512738,-1.56735,0.00846689,1.56731,1.31751,0.00735326,-0.00596155,0.00157058,0.0318523,-0.522185,-0.312392,0.00100572,-1.11126,-27.282,-1.76055,24.5111,-0.798649,1.46844,0.017502,4.30217,3.13939,3.62395,-2.37497,2.2336,0.0552142,0.00714269,0.829318,0.174457,0.0853232,-0.563486,-0.747297,0.0936236,
0.0192522,-0.054273,0.510358,-1.56811,-0.154682,-0.180011,0.531196,-0.0262708,0.0093951,-0.026942,-0.0133422,-0.572741,-0.775147,-0.00243596,0,0,0,0,0,0,0,0.0219571,-0.0558827,0.512981,-1.5661,-0.0122478,1.55036,1.3175,0.00543468,-0.00681387,0.0110242,0.035998,-0.641421,-0.637737,0.000234822,-1.11126,-26.5083,-2.11363,25.2332,-0.908512,1.12328,0.0706026,4.30217,3.13939,3.62395,-2.37497,2.2336,0.0552142,0.00714269,0.829318,0.174457,0.0853232,-0.563486,-0.747297,0.0936236,
0.019145,-0.0542386,0.510248,-1.56816,-0.156868,-0.183014,0.531186,-0.026807,0.00859651,-0.0274821,-0.0139711,-0.546692,-0.750644,-0.00243293,0,0,0,0,0,0,0,0.0219571,-0.0558827,0.512981,-1.5661,-0.0122478,1.55036,1.3175,0.00543468,-0.00681387,0.0110242,0.035998,-0.641421,-0.637737,0.000234822,-1.11126,-26.5083,-2.11363,25.2332,-0.908512,1.12328,0.0706026,3.99037,2.12157,4.2253,-1.74771,1.88331,-0.337837,-0.397843,0.576043,-0.222406,0.143174,-0.754069,-0.991979,0.0889874,
0.019035,-0.0542076,0.510135,-1.56822,-0.158938,-0.185899,0.531176,-0.027481,0.00773789,-0.0281582,-0.0147971,-0.517441,-0.721422,-0.00244292,0,0,0,0,0,0,0,0.0219571,-0.0558827,0.512981,-1.5661,-0.0122478,1.55036,1.3175,0.00543468,-0.00681387,0.0110242,0.035998,-0.641421,-0.637737,0.000234822,-1.11126,-26.5083,-2.11363,25.2332,-0.908512,1.12328,0.0706026,3.61426,2.00074,4.73807,-1.63157,1.63572,-0.306918,-0.371434,0.452026,-0.191035,0.130259,-0.720317,-1.24024,0.0884326,
0.0189218,-0.0541803,0.510019,-1.56828,-0.160876,-0.188646,0.531167,-0.0283173,0.00681941,-0.0289946,-0.0158587,-0.484484,-0.686562,-0.00246835,0,0,0,0,0,0,0,0.0219571,-0.0558827,0.512981,-1.5661,-0.0122478,1.55036,1.3175,0.00543468,-0.00681387,0.0110242,0.035998,-0.641421,-0.637737,0.000234822,-1.11126,-26.5083,-2.11363,25.2332,-0.908512,1.12328,0.0706026,3.61426,2.00074,4.73807,-1.63157,1.63572,-0.306918,-0.371434,0.452026,-0.191035,0.130259,-0.720317,-1.24024,0.0884326,
0.0188044,-0.054157,0.509899,-1.56835,-0.162665,-0.191225,0.531157,-0.029343,0.00584292,-0.0300182,-0.0172017,-0.44726,-0.644984,-0.00251154,0,0,0,0,0,0,0,0.0219571,-0.0558827,0.512981,-1.5661,-0.0122478,1.55036,1.3175,0.00543468,-0.00681387,0.0110242,0.035998,-0.641421,-0.637737,0.000234822,-1.11126,-26.5083,-2.11363,25.2332,-0.908512,1.12328,0.0706026,3.61426,2.00074,4.73807,-1.63157,1.63572,-0.306918,-0.371434,0.452026,-0.191035,0.130259,-0.720317,-1.24024,0.0884326,
0.0186821,-0.0541377,0.509774,-1.56843,-0.164286,-0.193607,0.531146,-0.0305877,0.00481172,-0.0312583,-0.0188826,-0.405151,-0.595418,-0.00257367,0,0,0,0,0,0,0,0.022289,-0.0560956,0.513151,-1.56578,-0.0333829,1.52986,1.31749,0.000505702,-0.00387413,0.0052261,9.30863e-05,-0.606795,-0.616365,-0.000615665,-1.3374,-26.9844,-2.21282,26.0068,-0.597233,1.29632,0.0980684,2.0729,0.32175,4.99897,-0.730082,0.609677,-0.668983,-0.740982,-0.0689943,-0.564286,0.022515,-0.972408,-1.66874,0.0798858,
0.0185537,-0.0541228,0.509643,-1.56851,-0.165716,-0.195753,0.531136,-0.032085,0.00372807,-0.0327481,-0.0209768,-0.357472,-0.536351,-0.00264555,0,0,0,0,0,0,0,0.022289,-0.0560956,0.513151,-1.56578,-0.0333829,1.52986,1.31749,0.000505702,-0.00387413,0.0052261,9.30863e-05,-0.606795,-0.616365,-0.000615665,-1.3374,-26.9844,-2.21282,26.0068,-0.597233,1.29632,0.0980684,2.0729,0.32175,4.99897,-0.730082,0.609677,-0.668983,-0.740982,-0.0689943,-0.564286,0.022515,-0.972408,-1.66874,0.0798858,
0.0184182,-0.0541125,0.509505,-1.56861,-0.166929,-0.197616,0.531125,-0.0338772,0.00258305,-0.0345295,-0.0236034,-0.303442,-0.465927,-0.00261192,0,0,0,0,0,0,0,0.022289,-0.0560956,0.513151,-1.56578,-0.0333829,1.52986,1.31749,0.000505702,-0.00387413,0.0052261,9.30863e-05,-0.606795,-0.616365,-0.000615665,-1.3374,-26.9844,-2.21282,26.0068,-0.597233,1.29632,0.0980684,2.48795,0.706432,4.50557,-1.14136,1.1973,-0.616649,-0.68112,0.387054,-0.504021,-0.297216,-0.931006,-1.74594,0.0767974,
0.0182741,-0.0541072,0.509358,-1.56872,-0.167898,-0.199143,0.531121,-0.0360232,0.00132198,-0.0366841,-0.0270006,-0.242056,-0.381679,-0.00108383,0,0,0,0,0,0,0,0.022289,-0.0560956,0.513151,-1.56578,-0.0333829,1.52986,1.31749,0.000505702,-0.00387413,0.0052261,9.30863e-05,-0.606795,-0.616365,-0.000615665,-1.3374,-26.9844,-2.21282,26.0068,-0.597233,1.29632,0.0980684,2.48795,0.706432,4.50557,-1.14136,1.1973,-0.616649,-0.68112,0.387054,-0.504021,-0.297216,-0.931006,-1.74594,0.0767974,
0.0181313,-0.0540944,0.509212,-1.56881,-0.168682,-0.200412,0.531117,-0.0357016,0.00319074,-0.0365373,-0.0242865,-0.196061,-0.317249,-0.000913103,0,0,0,0,0,0,0,0.022289,-0.0560956,0.513151,-1.56578,-0.0333829,1.52986,1.31749,0.000505702,-0.00387413,0.0052261,9.30863e-05,-0.606795,-0.616365,-0.000615665,-1.3374,-26.9844,-2.21282,26.0068,-0.597233,1.29632,0.0980684,3.81904,1.02049,3.87836,-1.5583,2.53151,-0.853563,-0.887875,1.2859,-0.753149,-0.769058,-0.915012,-1.84354,0.0722638,
0.0179939,-0.0540729,0.509071,-1.56889,-0.169322,-0.201473,0.531113,-0.0343403,0.00538712,-0.0352986,-0.0203765,-0.160116,-0.265179,-0.000946896,0,0,0,0,0,0,0,0.022289,-0.0560956,0.513151,-1.56578,-0.0333829,1.52986,1.31749,0.000505702,-0.00387413,0.0052261,9.30863e-05,-0.606795,-0.616365,-0.000615665,-1.3374,-26.9844,-2.21282,26.0068,-0.597233,1.29632,0.0980684,3.81904,1.02049,3.87836,-1.5583,2.53151,-0.853563,-0.887875,1.2859,-0.753149,-0.769058,-0.915012,-1.84354,0.0722638,
0.017864,-0.0540442,0.508937,-1.56896,-0.169848,-0.202361,0.531109,-0.0324889,0.00718022,-0.0335257,-0.016629,-0.131355,-0.22215,-0.00102498,0,0,0,0,0,0,0,0.0223213,-0.0563101,0.513142,-1.56578,-0.0512359,1.51071,1.3175,0.000706926,-0.013977,-0.00028615,-0.00147169,-0.522418,-0.585457,0.000760934,-0.754208,-26.5083,-1.81212,25.7806,0.343014,1.53435,0.0577852,2.9745,0.481245,4.03382,-1.01856,1.89557,-0.864463,-0.876689,0.923528,-0.804791,-0.610882,-0.803896,-1.84896,0.0689577,
0.0177423,-0.0540103,0.508811,-1.56901,-0.17028,-0.203106,0.531105,-0.0304131,0.00845176,-0.0314974,-0.013348,-0.107986,-0.186285,-0.0011111,0,0,0,0,0,0,0,0.0223213,-0.0563101,0.513142,-1.56578,-0.0512359,1.51071,1.3175,0.000706926,-0.013977,-0.00028615,-0.00147169,-0.522418,-0.585457,0.000760934,-0.754208,-26.5083,-1.81212,25.7806,0.343014,1.53435,0.0577852,2.9745,0.481245,4.03382,-1.01856,1.89557,-0.864463,-0.876689,0.923528,-0.804791,-0.610882,-0.803896,-1.84896,0.0689577,
0.0176293,-0.0539733,0.508693,-1.56906,-0.170635,-0.203732,0.5311,-0.0282605,0.00925226,-0.0293711,-0.010542,-0.088768,-0.156284,-0.00119437,0,0,0,0,0,0,0,0.0223213,-0.0563101,0.513142,-1.56578,-0.0512359,1.51071,1.3175,0.000706926,-0.013977,-0.00028615,-0.00147169,-0.522418,-0.585457,0.000760934,-0.754208,-26.5083,-1.81212,25.7806,0.343014,1.53435,0.0577852,1.58476,0.66498,3.74171,-1.05576,1.03794,-0.390925,-0.389359,0.528506,-0.34598,-0.580166,-0.612103,-1.82726,0.0654562,
0.0175248,-0.0539347,0.508584,-1.56909,-0.170926,-0.204256,0.531095,-0.0261196,0.009668,-0.0272427,-0.00814871,-0.0728016,-0.131145,-0.00127124,0,0,0,0,0,0,0,0.0223213,-0.0563101,0.513142,-1.56578,-0.0512359,1.51071,1.3175,0.000706926,-0.013977,-0.00028615,-0.00147169,-0.522418,-0.585457,0.000760934,-0.754208,-26.5083,-1.81212,25.7806,0.343014,1.53435,0.0577852,0.84657,0.584683,3.55498,-0.933204,0.581447,-0.220362,-0.206056,0.315903,-0.193032,-0.549415,-0.504648,-1.79801,0.0630716,
-0.00605404,-0.0428212,0.48357,-1.58128,-0.160446,-0.197699,0.519359,-0.207467,0.116006,-0.217522,-0.101228,-1.24065,-1.32821,-0.0589405,0,0,0,0,0,0,0,0.0223213,-0.0563101,0.513142,-1.56578,-0.0512359,1.51071,1.3175,0.000706926,-0.013977,-0.00028615,-0.00147169,-0.522418,-0.585457,0.000760934,-0.754208,-26.5083,-1.81212,25.7806,0.343014,1.53435,0.0577852,0.84657,0.584683,3.55498,-0.933204,0.581447,-0.220362,-0.206056,0.315903,-0.193032,-0.549415,-0.504648,-1.79801,0.0630716,
-0.000279569,-0.0479649,0.489437,-1.57653,-0.228259,-0.198247,0.525356,-0.173459,0.0652203,-0.180491,-0.0693314,-0.954691,-0.14187,-0.0226358,0,0,0,0,0,0,0,0.0217873,-0.0563449,0.512668,-1.56608,-0.0696213,1.49,1.3175,-0.0143111,0.00467829,-0.0244272,-0.0164466,-0.376003,-0.461288,-0.000796713,0.25745,-27.758,-0.713182,27.3755,0.690914,2.92687,0.0440523,0.453366,1.00056,3.93145,-0.779452,-0.0221323,0.0894445,0.110324,-0.163093,0.0944842,-0.0521501,-0.260182,-1.46088,0.0696116,
-0.000980087,-0.04771,0.488708,-1.5768,-0.231838,-0.198637,0.525269,-0.17513,0.0637126,-0.182208,-0.0680206,-0.894741,-0.0975079,-0.0217965,0,0,0,0,0,0,0,0.0217873,-0.0563449,0.512668,-1.56608,-0.0696213,1.49,1.3175,-0.0143111,0.00467829,-0.0244272,-0.0164466,-0.376003,-0.461288,-0.000796713,0.25745,-27.758,-0.713182,27.3755,0.690914,2.92687,0.0440523,0.453366,1.00056,3.93145,-0.779452,-0.0221323,0.0894445,0.110324,-0.163093,0.0944842,-0.0521501,-0.260182,-1.46088,0.0696116,
-0.00168684,-0.0474614,0.487973,-1.57707,-0.235158,-0.198845,0.525185,-0.176689,0.0621488,-0.18381,-0.0667444,-0.830054,-0.0519845,-0.0209805,0,0,0,0,0,0,0,0.0217873,-0.0563449,0.512668,-1.56608,-0.0696213,1.49,1.3175,-0.0143111,0.00467829,-0.0244272,-0.0164466,-0.376003,-0.461288,-0.000796713,0.25745,-27.758,-0.713182,27.3755,0.690914,2.92687,0.0440523,0.344759,2.77025,4.04399,-1.54222,-0.356971,0.957651,0.984232,-0.457121,0.966724,0.387598,0.112576,-0.987901,0.0625678,
-0.00239943,-0.0472194,0.487232,-1.57733,-0.2382,-0.198865,0.525104,-0.178146,0.0605113,-0.185305,-0.0655176,-0.760491,-0.00513193,-0.0201919,0,0,0,0,0,0,0,0.0217873,-0.0563449,0.512668,-1.56608,-0.0696213,1.49,1.3175,-0.0143111,0.00467829,-0.0244272,-0.0164466,-0.376003,-0.461288,-0.000796713,0.25745,-27.758,-0.713182,27.3755,0.690914,2.92687,0.0440523,-1.16164,5.93236,2.69576,-3.58612,-1.08192,2.85903,2.88306,-0.658667,2.92329,0.310522,0.653373,-0.533559,0.0483079,
-0.00311749,-0.0469842,0.486485,-1.57759,-0.240943,-0.198692,0.525027,-0.179517,0.0587832,-0.186708,-0.064349,-0.685767,0.0432181,-0.0194288,0,0,0,0,0,0,0,0.0217873,-0.0563449,0.512668,-1.56608,-0.0696213,1.49,1.3175,-0.0143111,0.00467829,-0.0244272,-0.0164466,-0.376003,-0.461288,-0.000796713,0.25745,-27.758,-0.713182,27.3755,0.690914,2.92687,0.0440523,-1.16164,5.93236,2.69576,-3.58612,-1.08192,2.85903,2.88306,-0.658667,2.92329,0.310522,0.653373,-0.533559,0.0483079,
-0.00384079,-0.0467565,0.485733,-1.57784,-0.243365,-0.198319,0.524952,-0.180825,0.0569483,-0.188042,-0.0632449,-0.605476,0.0932346,-0.0186972,0,0,0,0,0,0,0,0.0206092,-0.0563569,0.511316,-1.56673,-0.0932719,1.47081,1.31731,-0.0463252,-0.000484421,-0.0411972,-0.0346259,-0.895531,-0.572483,0.00574013,-2.1745,-25.6117,-3.48631,26.9272,-1.82495,3.35168,-0.130813,-1.06769,4.61739,1.88825,-2.7491,-0.81852,2.26882,2.28191,-0.436617,2.32179,0.165505,0.621969,-0.424891,0.0261393,
-0.00456916,-0.0465365,0.484976,-1.57809,-0.245442,-0.197739,0.52488,-0.182092,0.0549917,-0.189326,-0.0622089,-0.5191,0.145079,-0.0180013,0,0,0,0,0,0,0,0.0206092,-0.0563569,0.511316,-1.56673,-0.0932719,1.47081,1.31731,-0.0463252,-0.000484421,-0.0411972,-0.0346259,-0.895531,-0.572483,0.00574013,-2.1745,-25.6117,-3.48631,26.9272,-1.82495,3.35168,-0.130813,-1.06769,4.61739,1.88825,-2.7491,-0.81852,2.26882,2.28191,-0.436617,2.32179,0.165505,0.621969,-0.424891,0.0261393,
-0.00530252,-0.0463249,0.484213,-1.57833,-0.247146,-0.196943,0.52481,-0.183339,0.0529002,-0.190583,-0.0612437,-0.426039,0.1989,-0.0173443,0,0,0,0,0,0,0,0.0206092,-0.0563569,0.511316,-1.56673,-0.0932719,1.47081,1.31731,-0.0463252,-0.000484421,-0.0411972,-0.0346259,-0.895531,-0.572483,0.00574013,-2.1745,-25.6117,-3.48631,26.9272,-1.82495,3.35168,-0.130813,2.76261,2.14586,1.93237,-1.42034,1.58777,0.127821,0.15983,0.682912,0.136448,0.0496119,-0.105172,-0.331726,0.0170358,
-0.00604085,-0.0461222,0.483446,-1.57857,-0.248448,-0.195924,0.524743,-0.184582,0.0506644,-0.191826,-0.0603497,-0.325652,0.254809,-0.0167298,0,0,0,0,0,0,0,0.0206092,-0.0563569,0.511316,-1.56673,-0.0932719,1.47081,1.31731,-0.0463252,-0.000484421,-0.0411972,-0.0346259,-0.895531,-0.572483,0.00574013,-2.1745,-25.6117,-3.48631,26.9272,-1.82495,3.35168,-0.130813,2.76261,2.14586,1.93237,-1.42034,1.58777,0.127821,0.15983,0.682912,0.136448,0.0496119,-0.105172,-0.331726,0.0170358,
-0.00678413,-0.0459291,0.482674,-1.57881,-0.249318,-0.194673,0.524679,-0.185821,0.0482813,-0.193057,-0.059524,-0.217319,0.312852,-0.0161641,0,0,0,0,0,0,0,0.0206092,-0.0563569,0.511316,-1.56673,-0.0932719,1.47081,1.31731,-0.0463252,-0.000484421,-0.0411972,-0.0346259,-0.895531,-0.572483,0.00574013,-2.1745,-25.6117,-3.48631,26.9272,-1.82495,3.35168,-0.130813,4.70724,1.35238,1.67362,-0.978101,2.82956,-0.724087,-0.698626,1.27275,-0.718491,0.0326495,-0.356031,-0.114173,0.0124962,
-0.00753225,-0.0457461,0.481897,-1.57905,-0.24972,-0.193181,0.524616,-0.18703,0.0457591,-0.194249,-0.0587553,-0.100574,0.37295,-0.015657,0,0,0,0,0,0,0,0.0206092,-0.0563569,0.511316,-1.56673,-0.0932719,1.47081,1.31731,-0.0463252,-0.000484421,-0.0411972,-0.0346259,-0.895531,-0.572483,0.00574013,-2.1745,-25.6117,-3.48631,26.9272,-1.82495,3.35168,-0.130813,4.05747,2.70277,1.36894,-1.75406,2.38408,0.107324,0.123603,1.04948,0.139404,0.144966,-0.109903,0.124368,0.00168139,
-0.0082848,-0.0455736,0.481115,-1.57928,-0.249621,-0.191442,0.524555,-0.188136,0.0431258,-0.19533,-0.0580164,0.0246687,0.434787,-0.0152146,0,0,0,0,0,0,0,0.0191916,-0.0568834,0.509363,-1.56854,-0.117469,1.4551,1.3171,-0.0789977,-0.0197368,-0.0910595,-0.0633062,-0.690047,-0.46323,-0.00267339,-2.07531,-25.338,-3.161,27.2525,-0.542301,4.02093,-0.0429228,4.05747,2.70277,1.36894,-1.75406,2.38408,0.107324,0.123603,1.04948,0.139404,0.144966,-0.109903,0.124368,0.00168139,
-0.00904071,-0.0454118,0.480331,-1.57951,-0.24899,-0.189451,0.524496,-0.18898,0.0404445,-0.196145,-0.0572461,0.157716,0.497631,-0.0148581,0,0,0,0,0,0,0,0.0191916,-0.0568834,0.509363,-1.56854,-0.117469,1.4551,1.3171,-0.0789977,-0.0197368,-0.0910595,-0.0633062,-0.690047,-0.46323,-0.00267339,-2.07531,-25.338,-3.161,27.2525,-0.542301,4.02093,-0.0429228,3.12349,3.06871,1.6101,-1.89902,1.45766,0.573894,0.589523,0.433949,0.607917,0.461459,-0.104102,0.28757,-0.0135324,
-0.00979774,-0.0452604,0.479545,-1.57973,-0.247805,-0.187211,0.524437,-0.189255,0.0378392,-0.19639,-0.0563183,0.296406,0.56002,-0.0146162,0,0,0,0,0,0,0,0.0191916,-0.0568834,0.509363,-1.56854,-0.117469,1.4551,1.3171,-0.0789977,-0.0197368,-0.0910595,-0.0633062,-0.690047,-0.46323,-0.00267339,-2.07531,-25.338,-3.161,27.2525,-0.542301,4.02093,-0.0429228,3.12349,3.06871,1.6101,-1.89902,1.45766,0.573894,0.589523,0.433949,0.607917,0.461459,-0.104102,0.28757,-0.0135324,
-0.0105514,-0.0451183,0.478763,-1.57995,-0.246061,-0.184734,0.524379,-0.18841,0.035534,-0.195524,-0.0549929,0.436019,0.619281,-0.0145516,0,0,0,0,0,0,0,0.0191916,-0.0568834,0.509363,-1.56854,-0.117469,1.4551,1.3171,-0.0789977,-0.0197368,-0.0910595,-0.0633062,-0.690047,-0.46323,-0.00267339,-2.07531,-25.338,-3.161,27.2525,-0.542301,4.02093,-0.0429228,3.7813,0.856569,2.32544,-0.417504,1.4413,-0.583189,-0.570829,0.184156,-0.586521,0.791362,-0.536776,0.294472,-0.0171264,
-0.0112934,-0.0449826,0.477993,-1.58017,-0.24379,-0.182051,0.52432,-0.185513,0.0339105,-0.192627,-0.0528356,0.567751,0.670883,-0.0147823,0,0,0,0,0,0,0,0.0191916,-0.0568834,0.509363,-1.56854,-0.117469,1.4551,1.3171,-0.0789977,-0.0197368,-0.0910595,-0.0633062,-0.690047,-0.46323,-0.00267339,-2.07531,-25.338,-3.161,27.2525,-0.542301,4.02093,-0.0429228,4.07198,0.966674,1.50808,-0.791031,2.02924,-0.601308,-0.585367,0.680874,-0.589834,0.351194,-0.591718,0.196763,-0.0220846,
-0.0120063,-0.0448466,0.477251,-1.58036,-0.241118,-0.179222,0.524258,-0.178207,0.0340194,-0.185457,-0.0488586,0.667964,0.707137,-0.0155762,0,0,0,0,0,0,0,0.0162072,-0.0571617,0.505831,-1.57112,-0.129643,1.44591,1.31703,-0.120458,-0.0144263,-0.141944,-0.0790708,-0.177088,-0.161492,-0.00706274,-1.3136,-25.1872,-2.38738,26.9788,0.788876,3.91472,0.0376436,4.07198,0.966674,1.50808,-0.791031,2.02924,-0.601308,-0.585367,0.680874,-0.589834,0.351194,-0.591718,0.196763,-0.0220846,
-0.012673,-0.0447037,0.476555,-1.58053,-0.238175,-0.176346,0.524188,-0.166679,0.0357108,-0.173868,-0.0423583,0.735668,0.71895,-0.0175777,0,0,0,0,0,0,0,0.0162072,-0.0571617,0.505831,-1.57112,-0.129643,1.44591,1.31703,-0.120458,-0.0144263,-0.141944,-0.0790708,-0.177088,-0.161492,-0.00706274,-1.3136,-25.1872,-2.38738,26.9788,0.788876,3.91472,0.0376436,3.37754,1.19477,0.471122,-1.07148,2.06897,-0.306449,-0.29059,0.954484,-0.28379,-0.0645645,-0.389994,0.123177,-0.0279689,
-0.0132579,-0.0445344,0.475941,-1.58064,-0.235263,-0.173599,0.524103,-0.146233,0.0423228,-0.153557,-0.0286729,0.727927,0.686684,-0.0211794,0,0,0,0,0,0,0,0.0162072,-0.0571617,0.505831,-1.57112,-0.129643,1.44591,1.31703,-0.120458,-0.0144263,-0.141944,-0.0790708,-0.177088,-0.161492,-0.00706274,-1.3136,-25.1872,-2.38738,26.9788,0.788876,3.91472,0.0376436,3.37754,1.19477,0.471122,-1.07148,2.06897,-0.306449,-0.29059,0.954484,-0.28379,-0.0645645,-0.389994,0.123177,-0.0279689,
-0.0137057,-0.0442938,0.475465,-1.58063,-0.232863,-0.171316,0.524052,-0.111942,0.0601481,-0.119078,0.0035964,0.600063,0.570869,-0.0126124,0,0,0,0,0,0,0,0.0162072,-0.0571617,0.505831,-1.57112,-0.129643,1.44591,1.31703,-0.120458,-0.0144263,-0.141944,-0.0790708,-0.177088,-0.161492,-0.00706274,-1.3136,-25.1872,-2.38738,26.9788,0.788876,3.91472,0.0376436,1.85418,-0.209879,0.650553,0.113412,0.973845,-0.552046,-0.539384,0.356084,-0.566106,0.137878,-0.257643,0.0496471,-0.0294272,
-0.0140662,-0.0440533,0.475079,-1.5806,-0.23079,-0.16931,0.524001,-0.0901439,0.0601316,-0.096368,0.00777961,0.518215,0.501545,-0.0128257,0,0,0,0,0,0,0,0.0162072,-0.0571617,0.505831,-1.57112,-0.129643,1.44591,1.31703,-0.120458,-0.0144263,-0.141944,-0.0790708,-0.177088,-0.161492,-0.00706274,-1.3136,-25.1872,-2.38738,26.9788,0.788876,3.91472,0.0376436,1.85418,-0.209879,0.650553,0.113412,0.973845,-0.552046,-0.539384,0.356084,-0.566106,0.137878,-0.257643,0.0496471,-0.0294272,
-0.0143654,-0.0438326,0.474758,-1.58058,-0.228935,-0.1675,0.523948,-0.0747963,0.055179,-0.0803499,0.00497648,0.46375,0.4525,-0.0132517,0,0,0,0,0,0,0,0.0162072,-0.0571617,0.505831,-1.57112,-0.129643,1.44591,1.31703,-0.120458,-0.0144263,-0.141944,-0.0790708,-0.177088,-0.161492,-0.00706274,-1.3136,-25.1872,-2.38738,26.9788,0.788876,3.91472,0.0376436,1.56844,-0.531041,0.802131,0.455844,0.786687,-0.636595,-0.623768,0.261314,-0.66389,0.191705,-0.157967,0.00253473,-0.0295413,
-0.0146192,-0.0436355,0.474484,-1.58057,-0.227227,-0.165841,0.523894,-0.0634468,0.0492721,-0.0685278,0.00123441,0.427038,0.414593,-0.0135146,0,0,0,0,0,0,0,0.0121829,-0.0570149,0.500589,-1.57347,-0.128792,1.4457,1.31699,-0.13748,0.0105953,-0.168306,-0.0675399,0.129538,0.0399171,-0.00332959,-0.0718349,-27.5081,-1.0623,27.4747,1.03973,3.49084,-0.0026396,1.10233,0.30882,0.21835,-0.0672114,0.839195,-0.144423,-0.135155,0.471916,-0.155098,-0.0568678,0.145136,-0.0276071,-0.0281191,
-0.0148385,-0.0434611,0.474246,-1.58058,-0.225618,-0.164305,0.523839,-0.0548122,0.0436093,-0.0595628,-0.00192589,0.402349,0.384151,-0.0136794,0,0,0,0,0,0,0,0.0121829,-0.0570149,0.500589,-1.57347,-0.128792,1.4457,1.31699,-0.13748,0.0105953,-0.168306,-0.0675399,0.129538,0.0399171,-0.00332959,-0.0718349,-27.5081,-1.0623,27.4747,1.03973,3.49084,-0.0026396,1.10233,0.30882,0.21835,-0.0672114,0.839195,-0.144423,-0.135155,0.471916,-0.155098,-0.0568678,0.145136,-0.0276071,-0.0281191,
-0.0150309,-0.043307,0.474035,-1.5806,-0.224074,-0.162868,0.523784,-0.0481141,0.0385151,-0.0526347,-0.00428574,0.385954,0.359339,-0.0137888,0,0,0,0,0,0,0,0.0121829,-0.0570149,0.500589,-1.57347,-0.128792,1.4457,1.31699,-0.13748,0.0105953,-0.168306,-0.0675399,0.129538,0.0399171,-0.00332959,-0.0718349,-27.5081,-1.0623,27.4747,1.03973,3.49084,-0.0026396,0.123541,0.459579,-0.876926,-0.21491,0.723924,0.170082,0.181505,0.683731,0.162568,-0.458813,0.430168,-0.0951228,-0.0266993,
-0.0282744,-0.0331548,0.460067,-1.58808,-0.229303,-0.262881,0.51344,-0.341772,0.176842,-0.357334,-0.140851,-1.23093,-1.17283,-0.075369,0,0,0,0,0,0,0,0.0121829,-0.0570149,0.500589,-1.57347,-0.128792,1.4457,1.31699,-0.13748,0.0105953,-0.168306,-0.0675399,0.129538,0.0399171,-0.00332959,-0.0718349,-27.5081,-1.0623,27.4747,1.03973,3.49084,-0.0026396,0.123541,0.459579,-0.876926,-0.21491,0.723924,0.170082,0.181505,0.683731,0.162568,-0.458813,0.430168,-0.0951228,-0.0266993,
-0.0224628,-0.043504,0.464422,-1.58578,-0.239467,-0.178218,0.52296,-0.198562,0.0704683,-0.206497,-0.0652531,-0.117288,-0.117107,-0.0319451,0,0,0,0,0,0,0,0.0121829,-0.0570149,0.500589,-1.57347,-0.128792,1.4457,1.31699,-0.13748,0.0105953,-0.168306,-0.0675399,0.129538,0.0399171,-0.00332959,-0.0718349,-27.5081,-1.0623,27.4747,1.03973,3.49084,-0.0026396,-0.271742,0.825783,-1.43136,-0.442814,0.789069,0.427673,0.442175,0.881382,0.422773,-0.69462,0.652232,-0.140022,-0.0253617,
-0.0232577,-0.0432285,0.463595,-1.58604,-0.239652,-0.178578,0.522835,-0.198736,0.0688878,-0.206669,-0.0646546,-0.0461388,-0.0899327,-0.0312338,0,0,0,0,0,0,0,0.00775344,-0.0559561,0.495759,-1.574,-0.127744,1.44753,1.31696,-0.145393,0.0395003,-0.14062,0.00525416,-0.00273032,0.056349,-0.00357832,1.63013,-28.0834,0.663466,25.856,0.831906,2.74834,0.0303194,-1.52431,2.2904,-1.26961,-1.32874,-0.0897965,1.41669,1.43706,0.422149,1.42607,-0.597473,0.873639,-0.145749,-0.0237423,
-0.0240537,-0.0429597,0.462767,-1.58629,-0.239531,-0.178823,0.522713,-0.198985,0.0671919,-0.206913,-0.0640713,0.0300953,-0.0613327,-0.0305421,0,0,0,0,0,0,0,0.00775344,-0.0559561,0.495759,-1.574,-0.127744,1.44753,1.31696,-0.145393,0.0395003,-0.14062,0.00525416,-0.00273032,0.056349,-0.00357832,1.63013,-28.0834,0.663466,25.856,0.831906,2.74834,0.0303194,-1.52431,2.2904,-1.26961,-1.32874,-0.0897965,1.41669,1.43706,0.422149,1.42607,-0.597473,0.873639,-0.145749,-0.0237423,
-0.024851,-0.0426982,0.461938,-1.58655,-0.239083,-0.178948,0.522593,-0.199324,0.0653696,-0.207242,-0.063512,0.112055,-0.0311799,-0.0298744,0,0,0,0,0,0,0,0.00775344,-0.0559561,0.495759,-1.574,-0.127744,1.44753,1.31696,-0.145393,0.0395003,-0.14062,0.00525416,-0.00273032,0.056349,-0.00357832,1.63013,-28.0834,0.663466,25.856,0.831906,2.74834,0.0303194,-4.18369,4.94282,-1.16795,-3.01818,-2.03593,3.34119,3.35642,-0.635245,3.3968,-0.358539,1.17798,-0.0505307,-0.0292674,
-0.02565,-0.0424446,0.461108,-1.5868,-0.238281,-0.178945,0.522476,-0.199766,0.0634104,-0.207672,-0.0629879,0.20043,0.000678336,-0.0292339,0,0,0,0,0,0,0,0.00775344,-0.0559561,0.495759,-1.574,-0.127744,1.44753,1.31696,-0.145393,0.0395003,-0.14062,0.00525416,-0.00273032,0.056349,-0.00357832,1.63013,-28.0834,0.663466,25.856,0.831906,2.74834,0.0303194,-4.18369,4.94282,-1.16795,-3.01818,-2.03593,3.34119,3.35642,-0.635245,3.3968,-0.358539,1.17798,-0.0505307,-0.0292674,
-0.0264513,-0.0421994,0.460275,-1.58705,-0.237098,-0.178807,0.522362,-0.200322,0.061305,-0.208212,-0.062514,0.295936,0.0344219,-0.0286265,0,0,0,0,0,0,0,0.00775344,-0.0559561,0.495759,-1.574,-0.127744,1.44753,1.31696,-0.145393,0.0395003,-0.14062,0.00525416,-0.00273032,0.056349,-0.00357832,1.63013,-28.0834,0.663466,25.856,0.831906,2.74834,0.0303194,-1.73881,2.90957,-2.18237,-2.12704,0.131268,1.77154,1.77332,0.7137,1.83008,-1.03713,0.768794,-0.2242,-0.0290542,
-0.0272553,-0.0419632,0.459439,-1.5873,-0.2355,-0.178526,0.52225,-0.200991,0.0590469,-0.208862,-0.0621096,0.399272,0.0702614,-0.0280585,0,0,0,0,0,0,0,0.00775344,-0.0559561,0.495759,-1.574,-0.127744,1.44753,1.31696,-0.145393,0.0395003,-0.14062,0.00525416,-0.00273032,0.056349,-0.00357832,1.63013,-28.0834,0.663466,25.856,0.831906,2.74834,0.0303194,0.23591,1.3035,-1.35955,-1.18475,1.1926,0.522844,0.548982,1.11591,0.537764,-0.970529,0.312409,-0.370964,-0.040237,
-0.0280623,-0.0417367,0.458601,-1.58754,-0.233456,-0.178093,0.52214,-0.201759,0.0566348,-0.209609,-0.0617984,0.511035,0.108433,-0.0275388,0,0,0,0,0,0,0,0.00105893,-0.0546351,0.488499,-1.57462,-0.134603,1.44709,1.31645,-0.149362,0.0137775,-0.188948,-0.0375417,-0.0939149,0.00386877,-0.00344978,-1.79364,-27.3097,-2.7603,25.9076,-0.242924,2.05804,-0.0301054,0.23591,1.3035,-1.35955,-1.18475,1.1926,0.522844,0.548982,1.11591,0.537764,-0.970529,0.312409,-0.370964,-0.040237,
-0.0288726,-0.0415203,0.457759,-1.58779,-0.23093,-0.177496,0.522031,-0.202582,0.0540769,-0.210409,-0.0616078,0.63157,0.149187,-0.0270834,0,0,0,0,0,0,0,0.00105893,-0.0546351,0.488499,-1.57462,-0.134603,1.44709,1.31645,-0.149362,0.0137775,-0.188948,-0.0375417,-0.0939149,0.00386877,-0.00344978,-1.79364,-27.3097,-2.7603,25.9076,-0.242924,2.05804,-0.0301054,0.674742,-0.560442,-0.393998,0.100703,1.05116,-0.452156,-0.422049,0.827405,-0.475611,-0.647213,-0.0304544,-0.462453,-0.0485974,
-0.0296735,-0.041309,0.456926,-1.58803,-0.228015,-0.176732,0.521925,-0.200223,0.0528341,-0.208348,-0.0607713,0.728764,0.190895,-0.0266731,0,0,0,0,0,0,0,0.00105893,-0.0546351,0.488499,-1.57462,-0.134603,1.44709,1.31645,-0.149362,0.0137775,-0.188948,-0.0375417,-0.0939149,0.00386877,-0.00344978,-1.79364,-27.3097,-2.7603,25.9076,-0.242924,2.05804,-0.0301054,0.674742,-0.560442,-0.393998,0.100703,1.05116,-0.452156,-0.422049,0.827405,-0.475611,-0.647213,-0.0304544,-0.462453,-0.0485974,
-0.0304554,-0.0411008,0.456111,-1.58827,-0.224799,-0.175791,0.521819,-0.195468,0.0520484,-0.203826,-0.0603281,0.803868,0.23545,-0.0264274,0,0,0,0,0,0,0,0.00105893,-0.0546351,0.488499,-1.57462,-0.134603,1.44709,1.31645,-0.149362,0.0137775,-0.188948,-0.0375417,-0.0939149,0.00386877,-0.00344978,-1.79364,-27.3097,-2.7603,25.9076,-0.242924,2.05804,-0.0301054,0.519271,-1.5177,-0.320091,0.665632,0.897009,-0.855163,-0.827214,0.725391,-0.889184,-0.642165,-0.189909,-0.541996,-0.0543465,
-0.031212,-0.0408961,0.45532,-1.58852,-0.22135,-0.174655,0.521713,-0.189141,0.0511696,-0.197621,-0.0606124,0.862366,0.283909,-0.02638,0,0,0,0,0,0,0,0.00105893,-0.0546351,0.488499,-1.57462,-0.134603,1.44709,1.31645,-0.149362,0.0137775,-0.188948,-0.0375417,-0.0939149,0.00386877,-0.00344978,-1.79364,-27.3097,-2.7603,25.9076,-0.242924,2.05804,-0.0301054,0.519271,-1.5177,-0.320091,0.665632,0.897009,-0.855163,-0.827214,0.725391,-0.889184,-0.642165,-0.189909,-0.541996,-0.0543465,
-0.0319387,-0.040696,0.454559,-1.58876,-0.217718,-0.17331,0.521607,-0.181684,0.0500241,-0.190195,-0.0614844,0.908069,0.336129,-0.0265866,0,0,0,0,0,0,0,-0.00404428,-0.0537057,0.482626,-1.57569,-0.132763,1.44718,1.31636,-0.169632,0.0316515,-0.184048,-0.0385988,0.172941,0.00429272,-0.00424387,-1.49212,-27.6073,-2.23662,25.7568,0.343014,2.19079,-0.0365141,-0.00720267,-2.32666,0.272727,1.28464,0.237009,-1.10386,-1.07855,0.242376,-1.15362,-0.364576,-0.311407,-0.572178,-0.054625,
-0.0326319,-0.0405016,0.453832,-1.58901,-0.213943,-0.171749,0.521498,-0.173288,0.0486143,-0.181748,-0.0625794,0.943599,0.390476,-0.0272011,0,0,0,0,0,0,0,-0.00404428,-0.0537057,0.482626,-1.57569,-0.132763,1.44718,1.31636,-0.169632,0.0316515,-0.184048,-0.0385988,0.172941,0.00429272,-0.00424387,-1.49212,-27.6073,-2.23662,25.7568,0.343014,2.19079,-0.0365141,-0.210363,-2.02533,0.152528,1.02305,0.163164,-0.913404,-0.898332,0.235956,-0.944921,-0.433716,-0.304735,-0.597752,-0.0559765,
-0.0332875,-0.0403131,0.453144,-1.58927,-0.210061,-0.169977,0.521384,-0.163911,0.0471121,-0.17222,-0.0632223,0.970607,0.442877,-0.0285558,0,0,0,0,0,0,0,-0.00404428,-0.0537057,0.482626,-1.57569,-0.132763,1.44718,1.31636,-0.169632,0.0316515,-0.184048,-0.0385988,0.172941,0.00429272,-0.00424387,-1.49212,-27.6073,-2.23662,25.7568,0.343014,2.19079,-0.0365141,-0.210363,-2.02533,0.152528,1.02305,0.163164,-0.913404,-0.898332,0.235956,-0.944921,-0.433716,-0.304735,-0.597752,-0.0559765,
-0.0339004,-0.0401291,0.452499,-1.58951,-0.206102,-0.168035,0.521259,-0.153213,0.0460204,-0.161241,-0.0620663,0.989826,0.485452,-0.0312853,0,0,0,0,0,0,0,-0.00404428,-0.0537057,0.482626,-1.57569,-0.132763,1.44718,1.31636,-0.169632,0.0316515,-0.184048,-0.0385988,0.172941,0.00429272,-0.00424387,-1.49212,-27.6073,-2.23662,25.7568,0.343014,2.19079,-0.0365141,0.41014,-1.14784,-0.213323,0.299424,0.831047,-0.652313,-0.63552,0.694552,-0.662579,-0.70555,-0.266712,-0.634283,-0.0627973,
-0.0344619,-0.0399419,0.451907,-1.58974,-0.202098,-0.16602,0.521116,-0.140379,0.0467802,-0.147947,-0.0558976,1.00087,0.503681,-0.035678,0,0,0,0,0,0,0,-0.00404428,-0.0537057,0.482626,-1.57569,-0.132763,1.44718,1.31636,-0.169632,0.0316515,-0.184048,-0.0385988,0.172941,0.00429272,-0.00424387,-1.49212,-27.6073,-2.23662,25.7568,0.343014,2.19079,-0.0365141,0.41014,-1.14784,-0.213323,0.299424,0.831047,-0.652313,-0.63552,0.694552,-0.662579,-0.70555,-0.266712,-0.634283,-0.0627973,
-0.0349246,-0.039712,0.451415,-1.58987,-0.198417,-0.164177,0.521011,-0.115693,0.0574883,-0.123061,-0.0329165,0.920216,0.460878,-0.0263615,0,0,0,0,0,0,0,-0.00404428,-0.0537057,0.482626,-1.57569,-0.132763,1.44718,1.31636,-0.169632,0.0316515,-0.184048,-0.0385988,0.172941,0.00429272,-0.00424387,-1.49212,-27.6073,-2.23662,25.7568,0.343014,2.19079,-0.0365141,1.09104,-0.851906,-1.50075,-0.118788,1.98172,-0.681504,-0.662327,1.61514,-0.676104,-1.35041,-0.145721,-0.71602,-0.0650891,
-0.0353208,-0.0394841,0.450991,-1.58998,-0.194941,-0.162408,0.520905,-0.0990467,0.0569611,-0.105875,-0.0279092,0.869179,0.442233,-0.0262901,0,0,0,0,0,0,0,-0.0101382,-0.0531421,0.475984,-1.57684,-0.120667,1.44886,1.31633,-0.177965,0.0167304,-0.215326,-0.0248535,0.44606,0.097629,-0.000781672,0.209842,-27.881,-0.562425,25.2847,0.722042,2.40319,-0.0365141,1.09104,-0.851906,-1.50075,-0.118788,1.98172,-0.681504,-0.662327,1.61514,-0.676104,-1.35041,-0.145721,-0.71602,-0.0650891,
-0.0356679,-0.0392712,0.450618,-1.59009,-0.191597,-0.160679,0.520799,-0.0867784,0.0532243,-0.0932098,-0.0275999,0.835866,0.432226,-0.0266127,0,0,0,0,0,0,0,-0.0101382,-0.0531421,0.475984,-1.57684,-0.120667,1.44886,1.31633,-0.177965,0.0167304,-0.215326,-0.0248535,0.44606,0.097629,-0.000781672,0.209842,-27.881,-0.562425,25.2847,0.722042,2.40319,-0.0365141,-0.354572,-1.86002,-1.34674,0.760676,0.912427,-0.817858,-0.809813,1.03287,-0.830478,-1.15221,-0.0365138,-0.749103,-0.0624673,
-0.0359773,-0.0390761,0.450284,-1.5902,-0.188341,-0.158976,0.520692,-0.0773325,0.0487928,-0.0834835,-0.0281418,0.814032,0.425815,-0.0268398,0,0,0,0,0,0,0,-0.0101382,-0.0531421,0.475984,-1.57684,-0.120667,1.44886,1.31633,-0.177965,0.0167304,-0.215326,-0.0248535,0.44606,0.097629,-0.000781672,0.209842,-27.881,-0.562425,25.2847,0.722042,2.40319,-0.0365141,-1.88307,-1.70505,-1.20204,0.842981,-0.192622,-0.385899,-0.381904,0.43887,-0.402309,-0.975693,0.155674,-0.75564,-0.0644167,
-0.0362567,-0.0388983,0.449981,-1.59032,-0.185141,-0.157291,0.520584,-0.0698661,0.0444506,-0.0758204,-0.0285382,0.799923,0.421257,-0.026996,0,0,0,0,0,0,0,-0.0101382,-0.0531421,0.475984,-1.57684,-0.120667,1.44886,1.31633,-0.177965,0.0167304,-0.215326,-0.0248535,0.44606,0.097629,-0.000781672,0.209842,-27.881,-0.562425,25.2847,0.722042,2.40319,-0.0365141,-1.88307,-1.70505,-1.20204,0.842981,-0.192622,-0.385899,-0.381904,0.43887,-0.402309,-0.975693,0.155674,-0.75564,-0.0644167,
-0.0365122,-0.0387365,0.449702,-1.59043,-0.181977,-0.155619,0.520475,-0.0638531,0.0404307,-0.0696701,-0.0286202,0.791083,0.417865,-0.0271089,0,0,0,0,0,0,0,-0.0101382,-0.0531421,0.475984,-1.57684,-0.120667,1.44886,1.31633,-0.177965,0.0167304,-0.215326,-0.0248535,0.44606,0.097629,-0.000781672,0.209842,-27.881,-0.562425,25.2847,0.722042,2.40319,-0.0365141,-1.70869,-1.37105,-1.59667,0.752347,0.0725091,-0.271715,-0.268765,0.64665,-0.287976,-1.02739,0.35763,-0.628437,-0.0587774,
-0.0367479,-0.0385894,0.449444,-1.59055,-0.178834,-0.153958,0.520366,-0.0589363,0.0367877,-0.0646579,-0.0284335,0.785836,0.415306,-0.0271934,0,0,0,0,0,0,0,-0.0156041,-0.0519764,0.46934,-1.57774,-0.107472,1.45389,1.3163,-0.169039,0.0375065,-0.196032,-0.0138512,0.341922,0.145549,0.000311218,1.88404,-28.4801,1.16334,25.4077,1.08184,3.10631,-0.083206,-1.70869,-1.37105,-1.59667,0.752347,0.0725091,-0.271715,-0.268765,0.64665,-0.287976,-1.02739,0.35763,-0.628437,-0.0587774,
-0.0369673,-0.0384553,0.449202,-1.59066,-0.175702,-0.152305,0.520257,-0.0548615,0.0335172,-0.060517,-0.0280604,0.783016,0.413378,-0.0272584,0,0,0,0,0,0,0,-0.0156041,-0.0519764,0.46934,-1.57774,-0.107472,1.45389,1.3163,-0.169039,0.0375065,-0.196032,-0.0138512,0.341922,0.145549,0.000311218,1.88404,-28.4801,1.16334,25.4077,1.08184,3.10631,-0.083206,-1.47466,-0.124744,-2.01765,0.0389833,0.321249,0.280787,0.281813,0.812457,0.281277,-1.03157,0.591696,-0.399346,-0.0583971,
-0.0428999,-0.0348209,0.443151,-1.59687,-0.293477,-0.295684,0.511671,-0.331444,0.147757,-0.345053,-0.147694,-1.20168,-0.747767,-0.0852258,0,0,0,0,0,0,0,-0.0156041,-0.0519764,0.46934,-1.57774,-0.107472,1.45389,1.3163,-0.169039,0.0375065,-0.196032,-0.0138512,0.341922,0.145549,0.000311218,1.88404,-28.4801,1.16334,25.4077,1.08184,3.10631,-0.083206,-1.30192,0.652369,-2.3776,-0.430001,0.484607,0.629785,0.625328,0.913988,0.645973,-1.03092,0.710128,-0.213628,-0.060235,
-0.0478867,-0.0428916,0.435586,-1.59162,-0.189925,-0.102979,0.520488,-0.173687,0.0413542,-0.181589,-0.0781392,-0.202488,0.453991,-0.0459482,0,0,0,0,0,0,0,-0.0156041,-0.0519764,0.46934,-1.57774,-0.107472,1.45389,1.3163,-0.169039,0.0375065,-0.196032,-0.0138512,0.341922,0.145549,0.000311218,1.88404,-28.4801,1.16334,25.4077,1.08184,3.10631,-0.083206,-1.30192,0.652369,-2.3776,-0.430001,0.484607,0.629785,0.625328,0.913988,0.645973,-1.03092,0.710128,-0.213628,-0.060235,
-0.0485804,-0.0427302,0.434861,-1.59193,-0.190576,-0.101034,0.520307,-0.17343,0.0403563,-0.181326,-0.0779738,-0.162668,0.486464,-0.0452585,0,0,0,0,0,0,0,-0.0156041,-0.0519764,0.46934,-1.57774,-0.107472,1.45389,1.3163,-0.169039,0.0375065,-0.196032,-0.0138512,0.341922,0.145549,0.000311218,1.88404,-28.4801,1.16334,25.4077,1.08184,3.10631,-0.083206,-1.23599,2.02342,-2.82979,-1.40241,0.629981,1.28757,1.28306,1.02609,1.32834,-1.11501,0.804091,-0.0630035,-0.0605896,
-0.0492733,-0.0425728,0.434136,-1.59224,-0.191056,-0.0989508,0.520129,-0.173238,0.0393475,-0.181126,-0.0778497,-0.119954,0.520688,-0.0445899,0,0,0,0,0,0,0,-0.0209427,-0.0508783,0.463644,-1.57821,-0.0991426,1.45652,1.31626,-0.179826,0.0362481,-0.185357,-0.0129625,0.21049,0.0216286,0.00114443,0.868412,-28.2579,-0.0109729,24.2612,-0.194401,1.99853,-0.143631,-1.23599,2.02342,-2.82979,-1.40241,0.629981,1.28757,1.28306,1.02609,1.32834,-1.11501,0.804091,-0.0630035,-0.0605896,
-0.0499658,-0.0424195,0.433412,-1.59255,-0.191351,-0.0967239,0.519953,-0.17312,0.0383217,-0.180997,-0.0777682,-0.0739255,0.556729,-0.043946,0,0,0,0,0,0,0,-0.0209427,-0.0508783,0.463644,-1.57821,-0.0991426,1.45652,1.31626,-0.179826,0.0362481,-0.185357,-0.0129625,0.21049,0.0216286,0.00114443,0.868412,-28.2579,-0.0109729,24.2612,-0.194401,1.99853,-0.143631,-2.95827,4.12703,-2.56262,-2.68735,-0.804174,2.71178,2.70603,0.151533,2.78013,-0.789698,1.00609,0.0952142,-0.0663521,
-0.0506581,-0.0422704,0.432688,-1.59287,-0.191448,-0.0943453,0.519779,-0.173086,0.0372734,-0.180947,-0.0777311,-0.0241036,0.594646,-0.0433312,0,0,0,0,0,0,0,-0.0209427,-0.0508783,0.463644,-1.57821,-0.0991426,1.45652,1.31626,-0.179826,0.0362481,-0.185357,-0.0129625,0.21049,0.0216286,0.00114443,0.868412,-28.2579,-0.0109729,24.2612,-0.194401,1.99853,-0.143631,-2.95827,4.12703,-2.56262,-2.68735,-0.804174,2.71178,2.70603,0.151533,2.78013,-0.789698,1.00609,0.0952142,-0.0663521,
-0.0513507,-0.0421256,0.431964,-1.59318,-0.191328,-0.0918074,0.519608,-0.173143,0.0361974,-0.180986,-0.0777403,0.0300499,0.634488,-0.0427487,0,0,0,0,0,0,0,-0.0209427,-0.0508783,0.463644,-1.57821,-0.0991426,1.45652,1.31626,-0.179826,0.0362481,-0.185357,-0.0129625,0.21049,0.0216286,0.00114443,0.868412,-28.2579,-0.0109729,24.2612,-0.194401,1.99853,-0.143631,-1.85961,0.924273,-2.79775,-0.681701,0.135185,0.918937,0.89533,0.745157,0.960231,-1.04765,0.68613,-0.105014,-0.0743861,
-0.0520439,-0.0419853,0.43124,-1.59349,-0.190971,-0.0891022,0.51944,-0.1733,0.0350897,-0.181121,-0.0777972,0.0891343,0.676284,-0.0422033,0,0,0,0,0,0,0,-0.0209427,-0.0508783,0.463644,-1.57821,-0.0991426,1.45652,1.31626,-0.179826,0.0362481,-0.185357,-0.0129625,0.21049,0.0216286,0.00114443,0.868412,-28.2579,-0.0109729,24.2612,-0.194401,1.99853,-0.143631,-0.225556,-0.844091,-2.38759,0.305442,1.01852,-0.278633,-0.283373,1.09442,-0.273866,-1.00371,0.222966,-0.140661,-0.0854463,
-0.0527382,-0.0418495,0.430515,-1.5938,-0.190356,-0.0862221,0.519273,-0.173564,0.0339471,-0.181358,-0.0779022,0.153805,0.720034,-0.0417038,0,0,0,0,0,0,0,-0.0209427,-0.0508783,0.463644,-1.57821,-0.0991426,1.45652,1.31626,-0.179826,0.0362481,-0.185357,-0.0129625,0.21049,0.0216286,0.00114443,0.868412,-28.2579,-0.0109729,24.2612,-0.194401,1.99853,-0.143631,-0.225556,-0.844091,-2.38759,0.305442,1.01852,-0.278633,-0.283373,1.09442,-0.273866,-1.00371,0.222966,-0.140661,-0.0854463,
-0.0534339,-0.0417184,0.429788,-1.59411,-0.189457,-0.0831594,0.519108,-0.173937,0.032769,-0.181699,-0.0780533,0.224756,0.765684,-0.0412588,0,0,0,0,0,0,0,-0.0259342,-0.0503097,0.45792,-1.5798,-0.102403,1.45873,1.31591,-0.132375,0.00667055,-0.166193,-0.0750726,-0.0771531,0.18036,-0.0135576,-2.12292,-28.6824,-2.7603,26.106,-1.45874,3.47069,0.0577852,0.59384,-2.90889,-2.12361,1.48517,1.15665,-1.4135,-1.42151,0.973244,-1.42886,-0.75324,-0.31738,0.00441071,-0.0846883,
-0.0541312,-0.0415912,0.42906,-1.59442,-0.188247,-0.0799212,0.518944,-0.174309,0.0317922,-0.18203,-0.0775213,0.302476,0.809541,-0.040882,0,0,0,0,0,0,0,-0.0259342,-0.0503097,0.45792,-1.5798,-0.102403,1.45873,1.31591,-0.132375,0.00667055,-0.166193,-0.0750726,-0.0771531,0.18036,-0.0135576,-2.12292,-28.6824,-2.7603,26.106,-1.45874,3.47069,0.0577852,0.59384,-2.90889,-2.12361,1.48517,1.15665,-1.4135,-1.42151,0.973244,-1.42886,-0.75324,-0.31738,0.00441071,-0.0846883,
-0.0548291,-0.0414659,0.428331,-1.59472,-0.186698,-0.0765465,0.518782,-0.17449,0.031326,-0.182157,-0.0750856,0.387292,0.843681,-0.0406045,0,0,0,0,0,0,0,-0.0259342,-0.0503097,0.45792,-1.5798,-0.102403,1.45873,1.31591,-0.132375,0.00667055,-0.166193,-0.0750726,-0.0771531,0.18036,-0.0135576,-2.12292,-28.6824,-2.7603,26.106,-1.45874,3.47069,0.0577852,-0.00990371,-2.26698,-2.25861,1.02575,0.608239,-0.941277,-0.956387,0.619518,-0.938767,-0.610663,-0.33572,0.174118,-0.0856355,
-0.0555277,-0.0413433,0.427602,-1.59501,-0.184777,-0.0730622,0.51862,-0.174654,0.0306464,-0.182272,-0.0723324,0.480214,0.87107,-0.0404308,0,0,0,0,0,0,0,-0.0259342,-0.0503097,0.45792,-1.5798,-0.102403,1.45873,1.31591,-0.132375,0.00667055,-0.166193,-0.0750726,-0.0771531,0.18036,-0.0135576,-2.12292,-28.6824,-2.7603,26.106,-1.45874,3.47069,0.0577852,-0.00990371,-2.26698,-2.25861,1.02575,0.608239,-0.941277,-0.956387,0.619518,-0.938767,-0.610663,-0.33572,0.174118,-0.0856355,
-0.0562269,-0.0412249,0.426872,-1.59529,-0.182451,-0.0694892,0.518459,-0.174787,0.0296178,-0.18236,-0.0697553,0.581423,0.893242,-0.0403643,0,0,0,0,0,0,0,-0.0259342,-0.0503097,0.45792,-1.5798,-0.102403,1.45873,1.31591,-0.132375,0.00667055,-0.166193,-0.0750726,-0.0771531,0.18036,-0.0135576,-2.12292,-28.6824,-2.7603,26.106,-1.45874,3.47069,0.0577852,-0.130568,-1.9561,-2.09657,0.824812,0.383416,-0.748214,-0.763476,0.432419,-0.741332,-0.483309,-0.364374,0.244093,-0.0943962,
-0.0569258,-0.0411117,0.426143,-1.59556,-0.179691,-0.0658446,0.518297,-0.174736,0.0282885,-0.182274,-0.0675199,0.690063,0.911159,-0.0404314,0,0,0,0,0,0,0,-0.0304467,-0.0502363,0.452365,-1.58261,-0.102853,1.46727,1.31583,-0.155695,0.000800766,-0.170008,-0.0987837,0.0215518,0.362421,0.000535872,-1.46435,-28.6824,-2.18505,27.1017,-0.743717,3.91472,-0.0969389,0.41459,-2.38842,-1.73746,1.06586,0.510209,-1.0659,-1.08647,0.380899,-1.0586,-0.320568,-0.559066,0.303303,-0.0972635,
-0.0576108,-0.0409996,0.425427,-1.59582,-0.176598,-0.0621492,0.518135,-0.171247,0.028032,-0.179084,-0.0647684,0.773344,0.923845,-0.0404047,0,0,0,0,0,0,0,-0.0304467,-0.0502363,0.452365,-1.58261,-0.102853,1.46727,1.31583,-0.155695,0.000800766,-0.170008,-0.0987837,0.0215518,0.362421,0.000535872,-1.46435,-28.6824,-2.18505,27.1017,-0.743717,3.91472,-0.0969389,0.41459,-2.38842,-1.73746,1.06586,0.510209,-1.0659,-1.08647,0.380899,-1.0586,-0.320568,-0.559066,0.303303,-0.0972635,
-0.0582727,-0.0408881,0.424733,-1.59607,-0.173251,-0.0584149,0.517972,-0.165473,0.027878,-0.173495,-0.0627584,0.836547,0.933573,-0.0407563,0,0,0,0,0,0,0,-0.0304467,-0.0502363,0.452365,-1.58261,-0.102853,1.46727,1.31583,-0.155695,0.000800766,-0.170008,-0.0987837,0.0215518,0.362421,0.000535872,-1.46435,-28.6824,-2.18505,27.1017,-0.743717,3.91472,-0.0969389,1.32728,-1.33727,-2.04438,0.1807,1.21354,-0.741672,-0.759889,0.762351,-0.70954,-0.470988,-0.638128,0.391551,-0.0986448,
-0.0589048,-0.040778,0.424069,-1.59632,-0.169714,-0.0546497,0.517805,-0.158034,0.0275108,-0.16612,-0.0617057,0.884481,0.941309,-0.0417546,0,0,0,0,0,0,0,-0.0304467,-0.0502363,0.452365,-1.58261,-0.102853,1.46727,1.31583,-0.155695,0.000800766,-0.170008,-0.0987837,0.0215518,0.362421,0.000535872,-1.46435,-28.6824,-2.18505,27.1017,-0.743717,3.91472,-0.0969389,1.32728,-1.33727,-2.04438,0.1807,1.21354,-0.741672,-0.759889,0.762351,-0.70954,-0.470988,-0.638128,0.391551,-0.0986448,
-0.0595015,-0.0406696,0.42344,-1.59656,-0.166032,-0.0508611,0.517629,-0.14916,0.0271179,-0.157202,-0.0611079,0.920298,0.94716,-0.0439712,0,0,0,0,0,0,0,-0.0304467,-0.0502363,0.452365,-1.58261,-0.102853,1.46727,1.31583,-0.155695,0.000800766,-0.170008,-0.0987837,0.0215518,0.362421,0.000535872,-1.46435,-28.6824,-2.18505,27.1017,-0.743717,3.91472,-0.0969389,1.84636,-1.31722,-2.55264,0.156599,1.81905,-0.842376,-0.859902,1.19376,-0.808774,-0.685352,-0.557043,0.416859,-0.102952,
-0.0600561,-0.0405583,0.422854,-1.5968,-0.16225,-0.0470614,0.517438,-0.138655,0.0278146,-0.146543,-0.0589549,0.945649,0.949904,-0.0478325,0,0,0,0,0,0,0,-0.0304467,-0.0502363,0.452365,-1.58261,-0.102853,1.46727,1.31583,-0.155695,0.000800766,-0.170008,-0.0987837,0.0215518,0.362421,0.000535872,-1.46435,-28.6824,-2.18505,27.1017,-0.743717,3.91472,-0.0969389,1.84636,-1.31722,-2.55264,0.156599,1.81905,-0.842376,-0.859902,1.19376,-0.808774,-0.685352,-0.557043,0.416859,-0.102952,
-0.0605385,-0.0403995,0.422341,-1.59692,-0.158552,-0.0436071,0.517283,-0.120608,0.0396921,-0.128089,-0.0311706,0.924438,0.863578,-0.0388495,0,0,0,0,0,0,0,-0.0373561,-0.0501934,0.444699,-1.58634,-0.0943419,1.48625,1.31574,-0.159864,0.00964007,-0.180923,-0.0847381,0.327527,0.522629,-0.00167334,0.360599,-29.5274,-0.463243,27.8,0.97839,3.98156,-0.083206,1.57394,-2.13018,-1.79035,1.12499,1.29284,-1.1878,-1.20552,0.784108,-1.18885,-0.249083,-0.363746,0.50717,-0.105788,
-0.0609715,-0.0402402,0.421879,-1.59702,-0.154876,-0.0403612,0.517128,-0.108228,0.0398258,-0.11544,-0.0254089,0.918906,0.811491,-0.0387682,0,0,0,0,0,0,0,-0.0373561,-0.0501934,0.444699,-1.58634,-0.0943419,1.48625,1.31574,-0.159864,0.00964007,-0.180923,-0.0847381,0.327527,0.522629,-0.00167334,0.360599,-29.5274,-0.463243,27.8,0.97839,3.98156,-0.083206,1.99968,-1.80506,-1.42539,1.15527,1.49663,-1.13114,-1.14475,0.851977,-1.1426,-0.10911,-0.161238,0.555582,-0.107561,
-0.0613662,-0.0400926,0.421457,-1.59713,-0.151196,-0.0372639,0.516971,-0.0986901,0.0369188,-0.105692,-0.0258104,0.920208,0.774304,-0.0390306,0,0,0,0,0,0,0,-0.0373561,-0.0501934,0.444699,-1.58634,-0.0943419,1.48625,1.31574,-0.159864,0.00964007,-0.180923,-0.0847381,0.327527,0.522629,-0.00167334,0.360599,-29.5274,-0.463243,27.8,0.97839,3.98156,-0.083206,1.99968,-1.80506,-1.42539,1.15527,1.49663,-1.13114,-1.14475,0.851977,-1.1426,-0.10911,-0.161238,0.555582,-0.107561,
-0.0617298,-0.0399584,0.421066,-1.59724,-0.147496,-0.0342826,0.516815,-0.0908973,0.0335472,-0.0977358,-0.0276537,0.924779,0.745325,-0.039203,0,0,0,0,0,0,0,-0.0373561,-0.0501934,0.444699,-1.58634,-0.0943419,1.48625,1.31574,-0.159864,0.00964007,-0.180923,-0.0847381,0.327527,0.522629,-0.00167334,0.360599,-29.5274,-0.463243,27.8,0.97839,3.98156,-0.083206,1.37226,-0.806004,-1.5076,0.660791,1.18977,-0.516519,-0.531294,0.748254,-0.519184,-0.125302,0.135547,0.551209,-0.110307,
-0.0620672,-0.0398367,0.420702,-1.59736,-0.143773,-0.0313952,0.516657,-0.0843429,0.0304259,-0.091053,-0.0295941,0.930939,0.721868,-0.0393193,0,0,0,0,0,0,0,-0.0373561,-0.0501934,0.444699,-1.58634,-0.0943419,1.48625,1.31574,-0.159864,0.00964007,-0.180923,-0.0847381,0.327527,0.522629,-0.00167334,0.360599,-29.5274,-0.463243,27.8,0.97839,3.98156,-0.083206,1.37226,-0.806004,-1.5076,0.660791,1.18977,-0.516519,-0.531294,0.748254,-0.519184,-0.125302,0.135547,0.551209,-0.110307,
-0.0623821,-0.0397258,0.42036,-1.59748,-0.140022,-0.0285848,0.5165,-0.0787414,0.0277104,-0.0853496,-0.0312965,0.937783,0.702583,-0.0394057,0,0,0,0,0,0,0,-0.0424077,-0.0497952,0.438717,-1.58861,-0.0825858,1.504,1.31563,-0.168134,0.0266258,-0.178273,-0.0459019,0.36931,0.574245,-0.00588294,1.4516,-30.1027,0.786451,27.55,1.36932,3.6831,-0.177505,-0.336805,-0.246907,-1.57811,0.483324,0.103036,0.10984,0.089464,0.231992,0.110813,-0.0636858,0.431165,0.510551,-0.109916,
-0.0507066,-0.0371951,0.432573,-1.59772,-0.276461,-0.239722,0.512709,-0.188664,0.0847755,-0.197804,-0.123416,-1.19383,-0.309542,-0.0812817,0,0,0,0,0,0,0,-0.0424077,-0.0497952,0.438717,-1.58861,-0.0825858,1.504,1.31563,-0.168134,0.0266258,-0.178273,-0.0459019,0.36931,0.574245,-0.00588294,1.4516,-30.1027,0.786451,27.55,1.36932,3.6831,-0.177505,-0.349199,0.320625,-1.62887,0.273415,0.216582,0.384951,0.363228,0.349123,0.388672,-0.10777,0.675278,0.503122,-0.111999,
-0.0579201,-0.0441192,0.422177,-1.60004,-0.163166,-0.0489175,0.5197,-0.0458077,0.0258038,-0.0509329,-0.068201,-0.607747,0.0285734,-0.0518156,0,0,0,0,0,0,0,-0.0424077,-0.0497952,0.438717,-1.58861,-0.0825858,1.504,1.31563,-0.168134,0.0266258,-0.178273,-0.0459019,0.36931,0.574245,-0.00588294,1.4516,-30.1027,0.786451,27.55,1.36932,3.6831,-0.177505,-0.349199,0.320625,-1.62887,0.273415,0.216582,0.384951,0.363228,0.349123,0.388672,-0.10777,0.675278,0.503122,-0.111999,
-0.0580977,-0.044018,0.421979,-1.60031,-0.165707,-0.0487665,0.519495,-0.0443995,0.025302,-0.0495174,-0.0681771,-0.635211,0.0377549,-0.0513053,0,0,0,0,0,0,0,-0.0424077,-0.0497952,0.438717,-1.58861,-0.0825858,1.504,1.31563,-0.168134,0.0266258,-0.178273,-0.0459019,0.36931,0.574245,-0.00588294,1.4516,-30.1027,0.786451,27.55,1.36932,3.6831,-0.177505,-0.730603,2.13743,-2.05663,-0.894471,0.281038,1.35666,1.33721,0.514835,1.38489,-0.346586,0.984899,0.45466,-0.113884,
-0.0582698,-0.0439188,0.421786,-1.60058,-0.168365,-0.0485763,0.519292,-0.0430174,0.0247959,-0.0481283,-0.0681544,-0.664514,0.0475551,-0.0508018,0,0,0,0,0,0,0,-0.0424077,-0.0497952,0.438717,-1.58861,-0.0825858,1.504,1.31563,-0.168134,0.0266258,-0.178273,-0.0459019,0.36931,0.574245,-0.00588294,1.4516,-30.1027,0.786451,27.55,1.36932,3.6831,-0.177505,-0.730603,2.13743,-2.05663,-0.894471,0.281038,1.35666,1.33721,0.514835,1.38489,-0.346586,0.984899,0.45466,-0.113884,
-0.0584364,-0.0438217,0.421599,-1.60086,-0.171148,-0.0483443,0.519091,-0.0416596,0.0242811,-0.0467633,-0.0681406,-0.695634,0.058003,-0.0503054,0,0,0,0,0,0,0,-0.0424077,-0.0497952,0.438717,-1.58861,-0.0825858,1.504,1.31563,-0.168134,0.0266258,-0.178273,-0.0459019,0.36931,0.574245,-0.00588294,1.4516,-30.1027,0.786451,27.55,1.36932,3.6831,-0.177505,0.319514,3.71043,-2.4743,-1.92699,1.28618,1.91913,1.90542,1.14559,1.96669,-0.610189,1.20102,0.493729,-0.111569,
-0.0585977,-0.0437267,0.421417,-1.60113,-0.174062,-0.0480677,0.518891,-0.0403278,0.0237527,-0.0454236,-0.0681448,-0.728504,0.0691522,-0.0498168,0,0,0,0,0,0,0,-0.0479356,-0.0490538,0.432929,-1.5892,-0.0763384,1.51952,1.31545,-0.149265,0.0100866,-0.14298,-0.00129629,-0.199517,0.245989,-0.00541226,0.967594,-29.2061,0.338148,23.6383,-0.756534,2.3034,-0.0905302,0.319514,3.71043,-2.4743,-1.92699,1.28618,1.91913,1.90542,1.14559,1.96669,-0.610189,1.20102,0.493729,-0.111569,
-0.0587539,-0.0436339,0.421241,-1.6014,-0.177114,-0.0477433,0.518694,-0.0390282,0.0232047,-0.0441148,-0.0681782,-0.762994,0.0810878,-0.0493373,0,0,0,0,0,0,0,-0.0479356,-0.0490538,0.432929,-1.5892,-0.0763384,1.51952,1.31545,-0.149265,0.0100866,-0.14298,-0.00129629,-0.199517,0.245989,-0.00541226,0.967594,-29.2061,0.338148,23.6383,-0.756534,2.3034,-0.0905302,1.58752,2.41263,-2.36042,-1.16929,2.16535,1.01102,0.999899,1.61695,1.0424,-0.717521,0.976149,0.40947,-0.107018,
-0.058905,-0.0435434,0.42107,-1.60167,-0.180309,-0.0473676,0.518499,-0.0377745,0.0226294,-0.0428497,-0.068255,-0.798871,0.0939398,-0.0488668,0,0,0,0,0,0,0,-0.0479356,-0.0490538,0.432929,-1.5892,-0.0763384,1.51952,1.31545,-0.149265,0.0100866,-0.14298,-0.00129629,-0.199517,0.245989,-0.00541226,0.967594,-29.2061,0.338148,23.6383,-0.756534,2.3034,-0.0905302,-0.742317,1.24878,-1.97232,-0.784573,0.473995,0.888628,0.877599,0.702265,0.917048,-0.728093,0.538385,0.012782,-0.108034,
-0.0590513,-0.0434553,0.420903,-1.60195,-0.183652,-0.046936,0.518305,-0.0365911,0.0220165,-0.0416515,-0.0683936,-0.835751,0.107896,-0.0484035,0,0,0,0,0,0,0,-0.0479356,-0.0490538,0.432929,-1.5892,-0.0763384,1.51952,1.31545,-0.149265,0.0100866,-0.14298,-0.00129629,-0.199517,0.245989,-0.00541226,0.967594,-29.2061,0.338148,23.6383,-0.756534,2.3034,-0.0905302,-0.742317,1.24878,-1.97232,-0.784573,0.473995,0.888628,0.877599,0.702265,0.917048,-0.728093,0.538385,0.012782,-0.108034,
-0.0591934,-0.0433699,0.420741,-1.60222,-0.187144,-0.0464431,0.518113,-0.0355184,0.0213521,-0.040559,-0.0686173,-0.873019,0.123222,-0.0479467,0,0,0,0,0,0,0,-0.0479356,-0.0490538,0.432929,-1.5892,-0.0763384,1.51952,1.31545,-0.149265,0.0100866,-0.14298,-0.00129629,-0.199517,0.245989,-0.00541226,0.967594,-29.2061,0.338148,23.6383,-0.756534,2.3034,-0.0905302,-1.40986,-0.197293,-1.74794,-0.36329,-0.0481323,0.279623,0.261149,0.399053,0.317432,-0.866713,-0.0865403,-0.316296,-0.105734,
-0.0593319,-0.0432874,0.420582,-1.6025,-0.190783,-0.045882,0.517923,-0.0346212,0.020617,-0.0396345,-0.0689553,-0.909713,0.140285,-0.0474938,0,0,0,0,0,0,0,-0.0511541,-0.0482438,0.429206,-1.58937,-0.0922616,1.52719,1.31535,-0.0811087,0.022132,-0.107255,-0.00712556,-0.569823,0.247515,-0.00586284,1.57856,-30.1027,0.988783,25.7568,-0.738224,2.57531,-0.150955,-1.40986,-0.197293,-1.74794,-0.36329,-0.0481323,0.279623,0.261149,0.399053,0.317432,-0.866713,-0.0865403,-0.316296,-0.105734,
-0.0594679,-0.0432083,0.420426,-1.60278,-0.194561,-0.0452437,0.517735,-0.0339999,0.0197848,-0.0389749,-0.0694409,-0.944359,0.159565,-0.0470357,0,0,0,0,0,0,0,-0.0511541,-0.0482438,0.429206,-1.58937,-0.0922616,1.52719,1.31535,-0.0811087,0.022132,-0.107255,-0.00712556,-0.569823,0.247515,-0.00586284,1.57856,-30.1027,0.988783,25.7568,-0.738224,2.57531,-0.150955,-1.04474,-0.498735,-1.40776,-0.361233,0.0402938,0.0459799,0.0306977,0.360451,0.0850723,-0.825822,-0.366729,-0.383172,-0.106058,
-0.0596031,-0.043133,0.420271,-1.60306,-0.19846,-0.044517,0.517549,-0.033807,0.01882,-0.0387278,-0.0701079,-0.974728,0.181673,-0.0465585,0,0,0,0,0,0,0,-0.0511541,-0.0482438,0.429206,-1.58937,-0.0922616,1.52719,1.31535,-0.0811087,0.022132,-0.107255,-0.00712556,-0.569823,0.247515,-0.00586284,1.57856,-30.1027,0.988783,25.7568,-0.738224,2.57531,-0.150955,-1.04474,-0.498735,-1.40776,-0.361233,0.0402938,0.0459799,0.0306977,0.360451,0.0850723,-0.825822,-0.366729,-0.383172,-0.106058,
-0.0597402,-0.0430623,0.420115,-1.60334,-0.20245,-0.0436878,0.517365,-0.034268,0.017675,-0.0391118,-0.0709787,-0.997519,0.207307,-0.0460402,0,0,0,0,0,0,0,-0.0511541,-0.0482438,0.429206,-1.58937,-0.0922616,1.52719,1.31535,-0.0811087,0.022132,-0.107255,-0.00712556,-0.569823,0.247515,-0.00586284,1.57856,-30.1027,0.988783,25.7568,-0.738224,2.57531,-0.150955,-0.0916102,-0.835475,-1.06013,-0.347439,0.539408,-0.321815,-0.335337,0.536109,-0.279174,-0.816293,-0.669956,-0.435755,-0.109535,
-0.059883,-0.0429972,0.419953,-1.60363,-0.206481,-0.0427392,0.517183,-0.0357069,0.0162901,-0.0404426,-0.0720409,-1.00794,0.237155,-0.0454429,0,0,0,0,0,0,0,-0.0511541,-0.0482438,0.429206,-1.58937,-0.0922616,1.52719,1.31535,-0.0811087,0.022132,-0.107255,-0.00712556,-0.569823,0.247515,-0.00586284,1.57856,-30.1027,0.988783,25.7568,-0.738224,2.57531,-0.150955,0.039876,-2.0115,-1.39602,-0.0804758,0.83252,-0.958728,-0.970691,0.778089,-0.911257,-1.1783,-1.1664,-0.698982,-0.113865,
-0.0600373,-0.0429388,0.41978,-1.60392,-0.210478,-0.0416525,0.517004,-0.0385714,0.014594,-0.0431573,-0.0732075,-0.999246,0.271676,-0.0447091,0,0,0,0,0,0,0,-0.0511541,-0.0482438,0.429206,-1.58937,-0.0922616,1.52719,1.31535,-0.0811087,0.022132,-0.107255,-0.00712556,-0.569823,0.247515,-0.00586284,1.57856,-30.1027,0.988783,25.7568,-0.738224,2.57531,-0.150955,0.039876,-2.0115,-1.39602,-0.0804758,0.83252,-0.958728,-0.970691,0.778089,-0.911257,-1.1783,-1.1664,-0.698982,-0.113865,
-0.0602111,-0.0428887,0.419589,-1.60422,-0.214328,-0.0404094,0.516829,-0.0434475,0.0125089,-0.0478316,-0.0742663,-0.962365,0.310768,-0.0437566,0,0,0,0,0,0,0,-0.0530863,-0.047573,0.42651,-1.5897,-0.11233,1.5348,1.31527,-0.0497782,0.021354,-0.073432,-0.0110424,-0.657014,0.278239,-0.00146188,0.840641,-30.6264,0.211195,25.6815,-1.28754,2.13769,-0.0703886,-0.611416,-3.08164,-1.50087,0.37817,0.47208,-1.39536,-1.40347,0.639908,-1.35734,-1.32398,-1.43856,-0.899802,-0.110275,
-0.0604153,-0.0428489,0.419368,-1.60452,-0.217871,-0.0389955,0.516659,-0.0510465,0.00995772,-0.0551709,-0.0748431,-0.885813,0.35346,-0.042481,0,0,0,0,0,0,0,-0.0530863,-0.047573,0.42651,-1.5897,-0.11233,1.5348,1.31527,-0.0497782,0.021354,-0.073432,-0.0110424,-0.657014,0.278239,-0.00146188,0.840641,-30.6264,0.211195,25.6815,-1.28754,2.13769,-0.0703886,-0.611416,-3.08164,-1.50087,0.37817,0.47208,-1.39536,-1.40347,0.639908,-1.35734,-1.32398,-1.43856,-0.899802,-0.110275,
-0.0606639,-0.0428214,0.419105,-1.60482,-0.220896,-0.0374042,0.516496,-0.0621499,0.00688092,-0.065961,-0.0744042,-0.756196,0.397849,-0.040791,0,0,0,0,0,0,0,-0.0530863,-0.047573,0.42651,-1.5897,-0.11233,1.5348,1.31527,-0.0497782,0.021354,-0.073432,-0.0110424,-0.657014,0.278239,-0.00146188,0.840641,-30.6264,0.211195,25.6815,-1.28754,2.13769,-0.0703886,-0.0911642,-4.39986,-1.8623,1.11109,0.995542,-2.16986,-2.17231,1.00512,-2.14993,-1.52838,-1.62086,-0.971803,-0.111804,
-0.0609739,-0.0428082,0.418781,-1.6051,-0.223133,-0.0356394,0.51634,-0.0775121,0.00330209,-0.0809742,-0.0722227,-0.559267,0.441193,-0.0388844,0,0,0,0,0,0,0,-0.0530863,-0.047573,0.42651,-1.5897,-0.11233,1.5348,1.31527,-0.0497782,0.021354,-0.073432,-0.0110424,-0.657014,0.278239,-0.00146188,0.840641,-30.6264,0.211195,25.6815,-1.28754,2.13769,-0.0703886,-0.127141,-4.92639,-1.85798,1.34378,0.897464,-2.43178,-2.43323,0.922441,-2.41553,-1.50296,-1.79614,-0.971961,-0.116349,
-0.061365,-0.0428099,0.418377,-1.60537,-0.224256,-0.033724,0.51618,-0.0977779,-0.000427545,-0.100837,-0.0669231,-0.280736,0.478849,-0.0401033,0,0,0,0,0,0,0,-0.0530863,-0.047573,0.42651,-1.5897,-0.11233,1.5348,1.31527,-0.0497782,0.021354,-0.073432,-0.0110424,-0.657014,0.278239,-0.00146188,0.840641,-30.6264,0.211195,25.6815,-1.28754,2.13769,-0.0703886,-0.127141,-4.92639,-1.85798,1.34378,0.897464,-2.43178,-2.43323,0.922441,-2.41553,-1.50296,-1.79614,-0.971961,-0.116349,
-0.0617956,-0.0428082,0.41793,-1.60561,-0.224548,-0.031709,0.516024,-0.107651,0.000432331,-0.111928,-0.0588854,-0.073,0.50374,-0.0390983,0,0,0,0,0,0,0,-0.0539209,-0.0468861,0.42516,-1.59007,-0.135562,1.54502,1.31518,-0.0196532,0.0132723,-0.0249959,-0.0214162,-0.734684,0.337774,-0.000442342,-0.325741,-30.4042,-0.812364,26.2289,-1.15937,2.76757,-0.0905302,0.228852,-4.10139,-1.60792,0.841339,0.963485,-2.09068,-2.096,0.857555,-2.0602,-1.34579,-1.76559,-0.851542,-0.115259,
-0.0622424,-0.042798,0.417462,-1.60582,-0.224211,-0.0296189,0.51587,-0.111685,0.00254864,-0.11681,-0.0521996,0.0842936,0.52252,-0.0383528,0,0,0,0,0,0,0,-0.0539209,-0.0468861,0.42516,-1.59007,-0.135562,1.54502,1.31518,-0.0196532,0.0132723,-0.0249959,-0.0214162,-0.734684,0.337774,-0.000442342,-0.325741,-30.4042,-0.812364,26.2289,-1.15937,2.76757,-0.0905302,0.228852,-4.10139,-1.60792,0.841339,0.963485,-2.09068,-2.096,0.857555,-2.0602,-1.34579,-1.76559,-0.851542,-0.115259,
-0.0626904,-0.0427786,0.416992,-1.60601,-0.223391,-0.0274688,0.515719,-0.112006,0.00485186,-0.117686,-0.0474406,0.204887,0.537532,-0.0378814,0,0,0,0,0,0,0,-0.0539209,-0.0468861,0.42516,-1.59007,-0.135562,1.54502,1.31518,-0.0196532,0.0132723,-0.0249959,-0.0214162,-0.734684,0.337774,-0.000442342,-0.325741,-30.4042,-0.812364,26.2289,-1.15937,2.76757,-0.0905302,0.404678,-2.7308,-1.69937,0.00915158,1.11119,-1.42653,-1.43193,0.926307,-1.37816,-1.33599,-1.58271,-0.739565,-0.121755,
-0.0631303,-0.0427506,0.416528,-1.60618,-0.222197,-0.0252697,0.515568,-0.10998,0.00699286,-0.116012,-0.0443028,0.298439,0.549787,-0.0375947,0,0,0,0,0,0,0,-0.0539209,-0.0468861,0.42516,-1.59007,-0.135562,1.54502,1.31518,-0.0196532,0.0132723,-0.0249959,-0.0214162,-0.734684,0.337774,-0.000442342,-0.325741,-30.4042,-0.812364,26.2289,-1.15937,2.76757,-0.0905302,0.404678,-2.7308,-1.69937,0.00915158,1.11119,-1.42653,-1.43193,0.926307,-1.37816,-1.33599,-1.58271,-0.739565,-0.121755,
-0.0635564,-0.0427151,0.416077,-1.60635,-0.22071,-0.0230303,0.515418,-0.106527,0.00886308,-0.11277,-0.0423555,0.371865,0.559853,-0.0374304,0,0,0,0,0,0,0,-0.0539209,-0.0468861,0.42516,-1.59007,-0.135562,1.54502,1.31518,-0.0196532,0.0132723,-0.0249959,-0.0214162,-0.734684,0.337774,-0.000442342,-0.325741,-30.4042,-0.812364,26.2289,-1.15937,2.76757,-0.0905302,-0.168337,-3.70818,-1.58125,0.870395,0.621101,-1.79052,-1.79791,0.656808,-1.76509,-1.15998,-1.48327,-0.692866,-0.130872,
-0.0679627,-0.0336508,0.411513,-1.60504,-0.254927,-0.206937,0.511929,-0.139398,0.109355,-0.148532,-0.114456,-1.19603,-0.700464,-0.0869313,0,0,0,0,0,0,0,-0.0539209,-0.0468861,0.42516,-1.59007,-0.135562,1.54502,1.31518,-0.0196532,0.0132723,-0.0249959,-0.0214162,-0.734684,0.337774,-0.000442342,-0.325741,-30.4042,-0.812364,26.2289,-1.15937,2.76757,-0.0905302,0.0888504,-4.28761,-0.972736,1.67144,0.412696,-2.10253,-2.10569,0.396836,-2.10914,-0.703002,-1.28747,-0.468228,-0.132956,
-0.0716431,-0.0377713,0.406272,-1.60106,-0.225015,-0.0604841,0.51906,-0.117186,0.067275,-0.124851,-0.0654397,0.130511,-0.20894,-0.0503146,0,0,0,0,0,0,0,-0.055445,-0.0468563,0.422866,-1.59155,-0.153392,1.56006,1.31511,-0.0570463,0.00313058,-0.0645252,-0.038484,-0.108,0.326904,-0.00187399,-0.655026,-30.0789,-1.36382,27.1255,1.0086,3.49724,-0.103348,0.0888504,-4.28761,-0.972736,1.67144,0.412696,-2.10253,-2.10569,0.396836,-2.10914,-0.703002,-1.28747,-0.468228,-0.132956,
-0.0721069,-0.037506,0.405778,-1.60132,-0.224427,-0.0613574,0.51886,-0.115961,0.0663359,-0.123611,-0.0649371,0.146851,-0.218334,-0.049844,0,0,0,0,0,0,0,-0.055445,-0.0468563,0.422866,-1.59155,-0.153392,1.56006,1.31511,-0.0570463,0.00313058,-0.0645252,-0.038484,-0.108,0.326904,-0.00187399,-0.655026,-30.0789,-1.36382,27.1255,1.0086,3.49724,-0.103348,-0.0796786,-3.28779,-0.178619,1.65133,-0.226124,-1.50967,-1.50504,-0.167607,-1.53954,-0.0263729,-0.80041,-0.0684561,-0.134722,
-0.0725663,-0.0372447,0.405288,-1.60157,-0.22377,-0.0622701,0.518663,-0.114856,0.0653203,-0.122491,-0.0644043,0.164268,-0.228172,-0.0493786,0,0,0,0,0,0,0,-0.055445,-0.0468563,0.422866,-1.59155,-0.153392,1.56006,1.31511,-0.0570463,0.00313058,-0.0645252,-0.038484,-0.108,0.326904,-0.00187399,-0.655026,-30.0789,-1.36382,27.1255,1.0086,3.49724,-0.103348,-0.0796786,-3.28779,-0.178619,1.65133,-0.226124,-1.50967,-1.50504,-0.167607,-1.53954,-0.0263729,-0.80041,-0.0684561,-0.134722,
-0.0730218,-0.0369878,0.404802,-1.60183,-0.223038,-0.0632237,0.518467,-0.113865,0.0642241,-0.121487,-0.0638444,0.183011,-0.23841,-0.0489226,0,0,0,0,0,0,0,-0.055445,-0.0468563,0.422866,-1.59155,-0.153392,1.56006,1.31511,-0.0570463,0.00313058,-0.0645252,-0.038484,-0.108,0.326904,-0.00187399,-0.655026,-30.0789,-1.36382,27.1255,1.0086,3.49724,-0.103348,0.584651,-0.880424,-0.199411,0.617625,0.145508,-0.360532,-0.351165,-0.0304664,-0.384321,0.244031,-0.133571,0.36052,-0.131349,
-0.0734737,-0.0367356,0.40432,-1.60208,-0.222225,-0.0642197,0.518273,-0.112984,0.0630411,-0.120593,-0.0632624,0.203353,-0.248983,-0.0484753,0,0,0,0,0,0,0,-0.055445,-0.0468563,0.422866,-1.59155,-0.153392,1.56006,1.31511,-0.0570463,0.00313058,-0.0645252,-0.038484,-0.108,0.326904,-0.00187399,-0.655026,-30.0789,-1.36382,27.1255,1.0086,3.49724,-0.103348,0.584651,-0.880424,-0.199411,0.617625,0.145508,-0.360532,-0.351165,-0.0304664,-0.384321,0.244031,-0.133571,0.36052,-0.131349,
-0.0739226,-0.0364886,0.403841,-1.60233,-0.221322,-0.0652588,0.518081,-0.112212,0.0617637,-0.119808,-0.0626661,0.22559,-0.259793,-0.0480425,0,0,0,0,0,0,0,-0.0576295,-0.0467993,0.420609,-1.59235,-0.159968,1.5627,1.31492,-0.0834089,0.00960985,-0.0886972,-0.0108968,-0.262718,-0.0231607,-0.00715862,0.00751081,-28.5793,-0.788561,26.5543,1.8518,2.39678,-0.130813,0.562548,0.07283,-0.578309,0.141519,0.486545,0.126303,0.131966,0.308406,0.11403,-0.00231764,0.215379,0.294826,-0.138717,
-0.0743688,-0.0362471,0.403364,-1.60258,-0.220322,-0.0663416,0.51789,-0.111547,0.0603822,-0.119131,-0.0620673,0.250047,-0.270687,-0.0476241,0,0,0,0,0,0,0,-0.0576295,-0.0467993,0.420609,-1.59235,-0.159968,1.5627,1.31492,-0.0834089,0.00960985,-0.0886972,-0.0108968,-0.262718,-0.0231607,-0.00715862,0.00751081,-28.5793,-0.788561,26.5543,1.8518,2.39678,-0.130813,0.685765,2.18056,-1.69241,-1.29453,1.52063,1.12793,1.13556,1.2569,1.14983,-0.823242,0.680753,-0.0102186,-0.142909,
-0.0748127,-0.0360115,0.40289,-1.60283,-0.219214,-0.0674673,0.517702,-0.110993,0.058885,-0.118564,-0.0614843,0.277081,-0.281439,-0.0472255,0,0,0,0,0,0,0,-0.0576295,-0.0467993,0.420609,-1.59235,-0.159968,1.5627,1.31492,-0.0834089,0.00960985,-0.0886972,-0.0108968,-0.262718,-0.0231607,-0.00715862,0.00751081,-28.5793,-0.788561,26.5543,1.8518,2.39678,-0.130813,0.685765,2.18056,-1.69241,-1.29453,1.52063,1.12793,1.13556,1.2569,1.14983,-0.823242,0.680753,-0.0102186,-0.142909,
-0.075255,-0.0357825,0.402417,-1.60307,-0.217986,-0.0686342,0.517514,-0.110551,0.0572587,-0.11811,-0.060945,0.30708,-0.291709,-0.0468499,0,0,0,0,0,0,0,-0.0576295,-0.0467993,0.420609,-1.59235,-0.159968,1.5627,1.31492,-0.0834089,0.00960985,-0.0886972,-0.0108968,-0.262718,-0.0231607,-0.00715862,0.00751081,-28.5793,-0.788561,26.5543,1.8518,2.39678,-0.130813,0.800209,3.5545,-2.29466,-2.07362,2.07829,1.79632,1.80409,1.75577,1.83374,-1.18333,1.07801,-0.0773871,-0.143911,
-0.0756959,-0.0355605,0.401946,-1.60331,-0.216624,-0.0698382,0.517328,-0.110229,0.0554881,-0.117775,-0.0604904,0.340458,-0.300998,-0.0465075,0,0,0,0,0,0,0,-0.0576295,-0.0467993,0.420609,-1.59235,-0.159968,1.5627,1.31492,-0.0834089,0.00960985,-0.0886972,-0.0108968,-0.262718,-0.0231607,-0.00715862,0.00751081,-28.5793,-0.788561,26.5543,1.8518,2.39678,-0.130813,0.800209,3.5545,-2.29466,-2.07362,2.07829,1.79632,1.80409,1.75577,1.83374,-1.18333,1.07801,-0.0773871,-0.143911,
-0.076136,-0.0353463,0.401476,-1.60355,-0.215113,-0.0710725,0.517143,-0.11003,0.0535566,-0.117564,-0.0601815,0.377632,-0.308577,-0.0462039,0,0,0,0,0,0,0,-0.0609613,-0.0471176,0.416848,-1.59218,-0.166238,1.56044,1.31488,-0.119862,-0.0123011,-0.122219,0.0010835,-0.107071,-0.0856033,-0.00103745,0.384403,-27.7065,-0.360094,24.7849,1.5158,1.87951,-0.083206,0.0751,3.58165,-2.45814,-2.0877,1.74691,1.93982,1.94921,1.66423,1.97591,-1.30309,1.15452,-0.19431,-0.149772,
-0.0765758,-0.0351405,0.401006,-1.60379,-0.213437,-0.0723261,0.516959,-0.109956,0.0514476,-0.117478,-0.0601049,0.418968,-0.313403,-0.0459529,0,0,0,0,0,0,0,-0.0609613,-0.0471176,0.416848,-1.59218,-0.166238,1.56044,1.31488,-0.119862,-0.0123011,-0.122219,0.0010835,-0.107071,-0.0856033,-0.00103745,0.384403,-27.7065,-0.360094,24.7849,1.5158,1.87951,-0.083206,0.0751,3.58165,-2.45814,-2.0877,1.74691,1.93982,1.94921,1.66423,1.97591,-1.30309,1.15452,-0.19431,-0.149772,
-0.0770158,-0.0349439,0.400536,-1.60404,-0.211579,-0.0735821,0.516776,-0.109997,0.0491477,-0.117507,-0.0603806,0.464686,-0.314008,-0.045775,0,0,0,0,0,0,0,-0.0609613,-0.0471176,0.416848,-1.59218,-0.166238,1.56044,1.31488,-0.119862,-0.0123011,-0.122219,0.0010835,-0.107071,-0.0856033,-0.00103745,0.384403,-27.7065,-0.360094,24.7849,1.5158,1.87951,-0.083206,-0.364256,3.31487,-2.29138,-1.9137,1.56543,1.84504,1.85551,1.63318,1.87639,-1.41708,1.17591,-0.423175,-0.147636,
-0.0774562,-0.0347573,0.400066,-1.60428,-0.20952,-0.0748156,0.516594,-0.110113,0.0466527,-0.117614,-0.061168,0.514646,-0.308386,-0.0456945,0,0,0,0,0,0,0,-0.0609613,-0.0471176,0.416848,-1.59218,-0.166238,1.56044,1.31488,-0.119862,-0.0123011,-0.122219,0.0010835,-0.107071,-0.0856033,-0.00103745,0.384403,-27.7065,-0.360094,24.7849,1.5158,1.87951,-0.083206,-1.88856,3.37249,-1.29826,-1.79545,0.173171,2.11988,2.13047,0.757731,2.14185,-1.05653,1.22573,-0.572393,-0.145491,
-0.0778971,-0.0345814,0.399595,-1.60453,-0.207248,-0.0759913,0.516411,-0.110209,0.0439798,-0.117706,-0.0626639,0.567985,-0.293907,-0.0457539,0,0,0,0,0,0,0,-0.0609613,-0.0471176,0.416848,-1.59218,-0.166238,1.56044,1.31488,-0.119862,-0.0123011,-0.122219,0.0010835,-0.107071,-0.0856033,-0.00103745,0.384403,-27.7065,-0.360094,24.7849,1.5158,1.87951,-0.083206,-1.88856,3.37249,-1.29826,-1.79545,0.173171,2.11988,2.13047,0.757731,2.14185,-1.05653,1.22573,-0.572393,-0.145491,
-0.0783374,-0.0344166,0.399124,-1.60479,-0.204758,-0.0770605,0.516227,-0.11008,0.0411861,-0.117583,-0.0650874,0.622567,-0.267314,-0.0460123,0,0,0,0,0,0,0,-0.0609613,-0.0471176,0.416848,-1.59218,-0.166238,1.56044,1.31488,-0.119862,-0.0123011,-0.122219,0.0010835,-0.107071,-0.0856033,-0.00103745,0.384403,-27.7065,-0.360094,24.7849,1.5158,1.87951,-0.083206,-1.06067,2.89416,-0.815524,-1.45713,0.621406,1.69938,1.70929,0.940513,1.7147,-1.00413,1.14369,-0.656892,-0.147692,
-0.0787749,-0.0342631,0.398657,-1.60507,-0.202061,-0.0779601,0.51604,-0.109366,0.0383922,-0.116889,-0.0686403,0.674302,-0.224898,-0.0465598,0,0,0,0,0,0,0,-0.0647909,-0.0471367,0.412041,-1.59228,-0.166671,1.55771,1.31484,-0.114787,-0.000706568,-0.153591,0.00383759,0.0154561,-0.112965,-0.00104445,0.717655,-28.8292,0.112013,25.733,1.30798,2.22375,-0.0905302,-1.06067,2.89416,-0.815524,-1.45713,0.621406,1.69938,1.70929,0.940513,1.7147,-1.00413,1.14369,-0.656892,-0.147692,
-0.0792049,-0.0341199,0.398197,-1.60536,-0.199194,-0.0786118,0.51585,-0.107509,0.0358041,-0.11507,-0.0734333,0.71672,-0.162928,-0.0475021,0,0,0,0,0,0,0,-0.0647909,-0.0471367,0.412041,-1.59228,-0.166671,1.55771,1.31484,-0.114787,-0.000706568,-0.153591,0.00383759,0.0154561,-0.112965,-0.00104445,0.717655,-28.8292,0.112013,25.733,1.30798,2.22375,-0.0905302,-0.417613,3.31241,-1.2906,-1.85192,1.38537,1.78041,1.78672,1.47153,1.81264,-1.33817,1.1621,-0.741276,-0.148092,
-0.07962,-0.0339849,0.397751,-1.60568,-0.196229,-0.0789254,0.515656,-0.103777,0.0337343,-0.111391,-0.079362,0.741147,-0.0783794,-0.0485712,0,0,0,0,0,0,0,-0.0647909,-0.0471367,0.412041,-1.59228,-0.166671,1.55771,1.31484,-0.114787,-0.000706568,-0.153591,0.00383759,0.0154561,-0.112965,-0.00104445,0.717655,-28.8292,0.112013,25.733,1.30798,2.22375,-0.0905302,-0.417613,3.31241,-1.2906,-1.85192,1.38537,1.78041,1.78672,1.47153,1.81264,-1.33817,1.1621,-0.741276,-0.148092,
-0.080009,-0.0338542,0.397331,-1.60602,-0.193281,-0.0788051,0.515483,-0.0972512,0.0326928,-0.104954,-0.0858535,0.736997,0.0300539,-0.0432779,0,0,0,0,0,0,0,-0.0647909,-0.0471367,0.412041,-1.59228,-0.166671,1.55771,1.31484,-0.114787,-0.000706568,-0.153591,0.00383759,0.0154561,-0.112965,-0.00104445,0.717655,-28.8292,0.112013,25.733,1.30798,2.22375,-0.0905302,-1.34198,3.59761,-0.884701,-2.02169,0.558161,2.08589,2.08678,0.946908,2.12496,-1.14743,1.14815,-0.774807,-0.149951,
-0.0803734,-0.0337172,0.396937,-1.60636,-0.190344,-0.0783511,0.515311,-0.0911051,0.0342495,-0.0986529,-0.0845513,0.734381,0.113497,-0.0430821,0,0,0,0,0,0,0,-0.0647909,-0.0471367,0.412041,-1.59228,-0.166671,1.55771,1.31484,-0.114787,-0.000706568,-0.153591,0.00383759,0.0154561,-0.112965,-0.00104445,0.717655,-28.8292,0.112013,25.733,1.30798,2.22375,-0.0905302,-1.29083,2.10053,0.243685,-1.02175,-0.039387,1.3083,1.30975,0.36696,1.3223,-0.637403,0.815634,-0.750333,-0.149115,
-0.080716,-0.0335739,0.396564,-1.60668,-0.187408,-0.0776277,0.515137,-0.0856392,0.0358185,-0.0930745,-0.0810889,0.733779,0.18087,-0.043275,0,0,0,0,0,0,0,-0.0690449,-0.0470616,0.406653,-1.59248,-0.161512,1.5543,1.31484,-0.127446,0.00232754,-0.160211,-0.0171403,0.314802,-0.0824317,0.00803032,0.717655,-29.6028,0.112013,26.5027,0.135189,2.29699,-0.419205,-1.29083,2.10053,0.243685,-1.02175,-0.039387,1.3083,1.30975,0.36696,1.3223,-0.637403,0.815634,-0.750333,-0.149115,
-0.0810395,-0.0334267,0.396211,-1.60699,-0.184469,-0.0766822,0.514964,-0.0808705,0.0367948,-0.0882273,-0.077222,0.734766,0.236361,-0.0434714,0,0,0,0,0,0,0,-0.0690449,-0.0470616,0.406653,-1.59248,-0.161512,1.5543,1.31484,-0.127446,0.00232754,-0.160211,-0.0171403,0.314802,-0.0824317,0.00803032,0.717655,-29.6028,0.112013,26.5027,0.135189,2.29699,-0.419205,0.0851826,-0.0419577,0.292451,0.191907,0.881493,-0.0338352,-0.027562,0.86364,-0.0447827,-0.74674,0.417947,-0.840809,-0.154948,
