PerkyPenguin/Analysis-on-Approximated-Derivatives/Code_and_Data/PaperData/Real_Robot/Scene_1/set_interval/13/trajectory.csv
Commanded Joint 0 Position,Commanded Joint 1 Position,Commanded Joint 2 Position,Commanded Joint 3 Position,Commanded Joint 4 Position,Commanded Joint 5 Position,Commanded Joint 6 Position,Commanded Joint 0 Velocity,Commanded Joint 1 Velocity,Commanded Joint 2 Velocity,Commanded Joint 3 Velocity,Commanded Joint 4 Velocity,Commanded Joint 5 Velocity,Commanded Joint 6 Velocity,Commanded Joint 0 Torque,Commanded Joint 1 Torque,Commanded Joint 2 Torque,Commanded Joint 3 Torque,Commanded Joint 4 Torque,Commanded Joint 5 Torque,Commanded Joint 6 Torque,Actual Joint 0 Position,Actual Joint 1 Position,Actual Joint 2 Position,Actual Joint 3 Position,Actual Joint 4 Position,Actual Joint 5 Position,Actual Joint 6 Position,Actual Joint 0 Velocity,Actual Joint 1 Velocity,Actual Joint 2 Velocity,Actual Joint 3 Velocity,Actual Joint 4 Velocity,Actual Joint 5 Velocity,Actual Joint 6 Velocity,Actual Joint 0 Torque,Actual Joint 1 Torque,Actual Joint 2 Torque,Actual Joint 3 Torque,Actual Joint 4 Torque,Actual Joint 5 Torque,Actual Joint 6 Torque,EE ext force 0,EE ext force 1,EE ext force 2,EE ext force 3,EE ext force 4,EE ext force 5,joint ext torque 0,joint ext torque 1,joint ext torque 2,joint ext torque 3,joint ext torque 4,joint ext torque 5,joint ext torque 6,
0.0114103,-0.19632,-0.332852,-1.65993,-0.0904117,-0.0920589,-0.384046,-0.00248458,0.018313,-0.0125434,-0.151839,0.000350146,0.199,-0.00215454,0,0,0,0,0,0,0,0.0114275,-0.196355,-0.332747,-1.65839,-0.0903958,1.47675,0.401374,0.00147893,0.00309106,0.00054732,0.000786998,-0.0144586,-0.000446216,0.000256381,-0.171017,-25.8339,1.83778,25.9076,0.672604,2.97356,-0.0566557,-1.54001,0.0614276,-0.626532,0.0323115,-0.639479,-0.190769,-0.104215,-0.132886,-0.270665,-0.353339,-0.130034,-0.306728,-0.0498514,
0.0113954,-0.196173,-0.332914,-1.66057,-0.0904129,-0.091234,-0.384054,-0.00371865,0.0366501,-0.0153959,-0.160792,-0.000305359,0.206232,-0.00204804,0,0,0,0,0,0,0,0.0114275,-0.196355,-0.332747,-1.65839,-0.0903958,1.47675,0.401374,0.00147893,0.00309106,0.00054732,0.000786998,-0.0144586,-0.000446216,0.000256381,-0.171017,-25.8339,1.83778,25.9076,0.672604,2.97356,-0.0566557,-1.54001,0.0614276,-0.626532,0.0323115,-0.639479,-0.190769,-0.104215,-0.132886,-0.270665,-0.353339,-0.130034,-0.306728,-0.0498514,
0.0114307,-0.196326,-0.332742,-1.6584,-0.090523,-0.0940403,-0.384025,-3.00049e-06,0.00138637,1.81182e-05,-0.000568495,-0.00535232,0.000322176,-1.59073e-05,0,0,0,0,0,0,0,0.0114275,-0.196355,-0.332747,-1.65839,-0.0903958,1.47675,0.401374,0.00147893,0.00309106,0.00054732,0.000786998,-0.0144586,-0.000446216,0.000256381,-0.171017,-25.8339,1.83778,25.9076,0.672604,2.97356,-0.0566557,-1.47757,0.0222118,-0.704666,0.0715359,-0.559988,-0.197616,-0.111478,-0.0744523,-0.282255,-0.391648,-0.133627,-0.307836,-0.0495195,
0.0114304,-0.196321,-0.332742,-1.6584,-0.0905401,-0.0940396,-0.384025,-6.19846e-05,0.00118265,-7.52156e-05,-0.000529259,-0.0042897,0.00016981,-9.9438e-06,0,0,0,0,0,0,0,0.0114275,-0.196355,-0.332747,-1.65839,-0.0903958,1.47675,0.401374,0.00147893,0.00309106,0.00054732,0.000786998,-0.0144586,-0.000446216,0.000256381,-0.171017,-25.8339,1.83778,25.9076,0.672604,2.97356,-0.0566557,-1.39001,0.126058,-0.821955,0.0180252,-0.464882,-0.133214,-0.047309,-0.00827043,-0.215369,-0.433036,-0.118121,-0.295217,-0.0508051,
0.01143,-0.196317,-0.332743,-1.6584,-0.090554,-0.0940395,-0.384025,-9.61171e-05,0.00100401,-0.000131646,-0.000480698,-0.00347586,3.23581e-05,-5.69849e-06,0,0,0,0,0,0,0,0.0114205,-0.196446,-0.33275,-1.65853,-0.09035,1.47691,0.40137,7.48422e-05,-0.011015,-0.000668689,-0.0218034,0.00346037,0.0230127,-0.00094993,-0.0440639,-24.5128,1.83778,23.5907,0.331112,3.11913,-0.0227812,-1.39001,0.126058,-0.821955,0.0180252,-0.464882,-0.133214,-0.047309,-0.00827043,-0.215369,-0.433036,-0.118121,-0.295217,-0.0508051,
0.0114296,-0.196314,-0.332744,-1.6584,-0.0905654,-0.0940398,-0.384025,-0.00011347,0.000846461,-0.000163189,-0.000430326,-0.00284648,-8.47425e-05,-2.7506e-06,0,0,0,0,0,0,0,0.0114205,-0.196446,-0.33275,-1.65853,-0.09035,1.47691,0.40137,7.48422e-05,-0.011015,-0.000668689,-0.0218034,0.00346037,0.0230127,-0.00094993,-0.0440639,-24.5128,1.83778,23.5907,0.331112,3.11913,-0.0227812,-2.99871,0.388467,-1.13996,-0.159655,-1.60041,-0.301714,-0.20805,-0.607357,-0.368306,-0.343245,-0.141396,-0.287207,-0.048233,
0.0114291,-0.196311,-0.332744,-1.6584,-0.0905748,-0.0940405,-0.384025,-0.000119788,0.000707518,-0.000178234,-0.000381291,-0.00235469,-0.000181207,-7.39315e-07,0,0,0,0,0,0,0,0.0114205,-0.196446,-0.33275,-1.65853,-0.09035,1.47691,0.40137,7.48422e-05,-0.011015,-0.000668689,-0.0218034,0.00346037,0.0230127,-0.00094993,-0.0440639,-24.5128,1.83778,23.5907,0.331112,3.11913,-0.0227812,-2.99871,0.388467,-1.13996,-0.159655,-1.60041,-0.301714,-0.20805,-0.607357,-0.368306,-0.343245,-0.141396,-0.287207,-0.048233,
0.0114286,-0.196309,-0.332745,-1.65841,-0.0905827,-0.0940416,-0.384025,-0.000119066,0.00058518,-0.000182575,-0.000334979,-0.00196635,-0.000258709,6.10397e-07,0,0,0,0,0,0,0,0.0114205,-0.196446,-0.33275,-1.65853,-0.09035,1.47691,0.40137,7.48422e-05,-0.011015,-0.000668689,-0.0218034,0.00346037,0.0230127,-0.00094993,-0.0440639,-24.5128,1.83778,23.5907,0.331112,3.11913,-0.0227812,-2.36366,0.308483,-1.76465,0.0101342,-0.884221,-0.222146,-0.127437,-0.104326,-0.32016,-0.652331,-0.124716,-0.283968,-0.0490989,
0.0114282,-0.196307,-0.332746,-1.65841,-0.0905893,-0.0940429,-0.384025,-0.000114042,0.000477651,-0.000180184,-0.000291989,-0.00165649,-0.000319602,1.49868e-06,0,0,0,0,0,0,0,0.0114205,-0.196446,-0.33275,-1.65853,-0.09035,1.47691,0.40137,7.48422e-05,-0.011015,-0.000668689,-0.0218034,0.00346037,0.0230127,-0.00094993,-0.0440639,-24.5128,1.83778,23.5907,0.331112,3.11913,-0.0227812,-2.36366,0.308483,-1.76465,0.0101342,-0.884221,-0.222146,-0.127437,-0.104326,-0.32016,-0.652331,-0.124716,-0.283968,-0.0490989,
0.0114277,-0.196305,-0.332746,-1.65841,-0.0905949,-0.0940443,-0.384025,-0.000106562,0.000383271,-0.000173752,-0.000252525,-0.00140676,-0.000366366,2.0681e-06,0,0,0,0,0,0,0,0.0114267,-0.196365,-0.332739,-1.65869,-0.0903688,1.47737,0.401378,-0.00205523,0.00141668,-0.00030373,0.0100862,0.00204667,-0.00173447,0.000609897,-0.119442,-25.6871,1.7624,25.7806,0.495907,3.20519,-0.0703886,-1.1206,-0.0311299,-1.67991,0.254182,0.00652863,-0.154736,-0.0648269,0.371199,-0.276508,-0.731994,-0.116124,-0.239203,-0.0482979,
0.0114273,-0.196304,-0.332747,-1.65841,-0.0905998,-0.0940459,-0.384025,-9.78572e-05,0.000300516,-0.000165087,-0.000216582,-0.00120356,-0.00040136,2.41914e-06,0,0,0,0,0,0,0,0.0114267,-0.196365,-0.332739,-1.65869,-0.0903688,1.47737,0.401378,-0.00205523,0.00141668,-0.00030373,0.0100862,0.00204667,-0.00173447,0.000609897,-0.119442,-25.6871,1.7624,25.7806,0.495907,3.20519,-0.0703886,-1.38919,0.0996334,-1.38978,0.103061,-0.335254,-0.142333,-0.0531078,0.12008,-0.242231,-0.562961,-0.112946,-0.212454,-0.0495173,
0.011427,-0.196303,-0.332748,-1.65841,-0.0906039,-0.0940476,-0.384025,-8.87296e-05,0.000227999,-0.000155383,-0.000184035,-0.00103676,-0.000426717,2.62213e-06,0,0,0,0,0,0,0,0.0114267,-0.196365,-0.332739,-1.65869,-0.0903688,1.47737,0.401378,-0.00205523,0.00141668,-0.00030373,0.0100862,0.00204667,-0.00173447,0.000609897,-0.119442,-25.6871,1.7624,25.7806,0.495907,3.20519,-0.0703886,-1.38919,0.0996334,-1.38978,0.103061,-0.335254,-0.142333,-0.0531078,0.12008,-0.242231,-0.562961,-0.112946,-0.212454,-0.0495173,
0.0114267,-0.196302,-0.332748,-1.65841,-0.0906075,-0.0940494,-0.384025,-7.96883e-05,0.000164471,-0.000145412,-0.000154692,-0.000898719,-0.000444303,2.72606e-06,0,0,0,0,0,0,0,0.0114267,-0.196365,-0.332739,-1.65869,-0.0903688,1.47737,0.401378,-0.00205523,0.00141668,-0.00030373,0.0100862,0.00204667,-0.00173447,0.000609897,-0.119442,-25.6871,1.7624,25.7806,0.495907,3.20519,-0.0703886,-1.19706,0.124395,-1.51775,0.105652,-0.122031,-0.0966666,-0.00207959,0.268867,-0.204483,-0.6508,-0.115945,-0.229062,-0.0491414,
0.0114264,-0.196302,-0.332749,-1.65841,-0.0906106,-0.0940512,-0.384025,-7.10428e-05,0.00010882,-0.000135659,-0.000128328,-0.000783646,-0.000455715,2.76491e-06,0,0,0,0,0,0,0,0.0114267,-0.196365,-0.332739,-1.65869,-0.0903688,1.47737,0.401378,-0.00205523,0.00141668,-0.00030373,0.0100862,0.00204667,-0.00173447,0.000609897,-0.119442,-25.6871,1.7624,25.7806,0.495907,3.20519,-0.0703886,-1.19706,0.124395,-1.51775,0.105652,-0.122031,-0.0966666,-0.00207959,0.268867,-0.204483,-0.6508,-0.115945,-0.229062,-0.0491414,
0.0114261,-0.196302,-0.332749,-1.65841,-0.0906134,-0.0940531,-0.384025,-6.29689e-05,6.00605e-05,-0.000126415,-0.000104702,-0.000687094,-0.000462295,2.7621e-06,0,0,0,0,0,0,0,0.0114267,-0.196365,-0.332739,-1.65869,-0.0903688,1.47737,0.401378,-0.00205523,0.00141668,-0.00030373,0.0100862,0.00204667,-0.00173447,0.000609897,-0.119442,-25.6871,1.7624,25.7806,0.495907,3.20519,-0.0703886,-2.88505,0.349633,-0.996155,-0.160717,-1.61147,-0.297058,-0.185639,-0.657392,-0.37596,-0.256778,-0.138915,-0.24033,-0.0466128,
0.0114259,-0.196302,-0.33275,-1.65841,-0.0906158,-0.0940549,-0.384025,-5.55528e-05,1.73234e-05,-0.000117837,-8.35748e-05,-0.000605619,-0.000465157,2.73366e-06,0,0,0,0,0,0,0,0.0114242,-0.196272,-0.332746,-1.65864,-0.090399,1.47741,0.401378,-0.000165948,0.00333779,0.000216159,0.000158147,-0.000854241,-0.00108131,2.42851e-05,-0.0956386,-26.1592,1.83778,26.1298,0.715634,2.89391,-0.0630644,-2.88505,0.349633,-0.996155,-0.160717,-1.61147,-0.297058,-0.185639,-0.657392,-0.37596,-0.256778,-0.138915,-0.24033,-0.0466128,
0.0114257,-0.196302,-0.33275,-1.65841,-0.090618,-0.0940568,-0.384025,-4.88231e-05,-2.01534e-05,-0.000109999,-6.4713e-05,-0.000536522,-0.000465211,2.69047e-06,0,0,0,0,0,0,0,0.0114242,-0.196272,-0.332746,-1.65864,-0.090399,1.47741,0.401378,-0.000165948,0.00333779,0.000216159,0.000158147,-0.000854241,-0.00108131,2.42851e-05,-0.0956386,-26.1592,1.83778,26.1298,0.715634,2.89391,-0.0630644,-1.55748,0.172709,-1.20476,0.033015,-0.497195,-0.138025,-0.0349345,0.0137887,-0.240656,-0.512235,-0.113122,-0.252365,-0.0501644,
0.0114255,-0.196302,-0.332751,-1.65841,-0.0906199,-0.0940587,-0.384025,-4.27715e-05,-5.30371e-05,-0.000102917,-4.7896e-05,-0.00047767,-0.000463194,2.63983e-06,0,0,0,0,0,0,0,0.0114242,-0.196272,-0.332746,-1.65864,-0.090399,1.47741,0.401378,-0.000165948,0.00333779,0.000216159,0.000158147,-0.000854241,-0.00108131,2.42851e-05,-0.0956386,-26.1592,1.83778,26.1298,0.715634,2.89391,-0.0630644,-1.5307,0.185074,-1.1174,0.0216277,-0.493859,-0.129497,-0.0273226,0.00833159,-0.230109,-0.500156,-0.106903,-0.269957,-0.0491174,
0.0114254,-0.196302,-0.332751,-1.65841,-0.0906216,-0.0940605,-0.384025,-3.73672e-05,-8.19108e-05,-9.65741e-05,-3.29175e-05,-0.000427358,-0.000459698,2.58651e-06,0,0,0,0,0,0,0,0.0114242,-0.196272,-0.332746,-1.65864,-0.090399,1.47741,0.401378,-0.000165948,0.00333779,0.000216159,0.000158147,-0.000854241,-0.00108131,2.42851e-05,-0.0956386,-26.1592,1.83778,26.1298,0.715634,2.89391,-0.0630644,-1.5307,0.185074,-1.1174,0.0216277,-0.493859,-0.129497,-0.0273226,0.00833159,-0.230109,-0.500156,-0.106903,-0.269957,-0.0491174,
0.0114253,-0.196303,-0.332751,-1.65841,-0.0906231,-0.0940623,-0.384025,-3.2567e-05,-0.000107283,-9.09304e-05,-1.95876e-05,-0.000384208,-0.000455187,2.53359e-06,0,0,0,0,0,0,0,0.0114242,-0.196272,-0.332746,-1.65864,-0.090399,1.47741,0.401378,-0.000165948,0.00333779,0.000216159,0.000158147,-0.000854241,-0.00108131,2.42851e-05,-0.0956386,-26.1592,1.83778,26.1298,0.715634,2.89391,-0.0630644,-2.00026,0.141544,-0.898514,-0.00267283,-0.940278,-0.231621,-0.127636,-0.281444,-0.323574,-0.352682,-0.132393,-0.261636,-0.0503705,
0.0114252,-0.196303,-0.332752,-1.65841,-0.0906245,-0.0940641,-0.384025,-2.83217e-05,-0.000129597,-8.59361e-05,-7.73228e-06,-0.000347102,-0.000450029,2.48297e-06,0,0,0,0,0,0,0,0.0114342,-0.196242,-0.332733,-1.6586,-0.0903823,1.47744,0.401372,0.00127112,0.00673349,0.00143594,-0.00158594,-0.0016768,0.000414979,-0.00085626,-0.222592,-26.1354,1.68703,25.7806,0.581051,2.7813,-0.0163725,-2.00026,0.141544,-0.898514,-0.00267283,-0.940278,-0.231621,-0.127636,-0.281444,-0.323574,-0.352682,-0.132393,-0.261636,-0.0503705,
0.0114251,-0.196304,-0.332752,-1.65841,-0.0906258,-0.0940659,-0.384025,-2.45798e-05,-0.000149238,-8.15358e-05,2.80628e-06,-0.000315118,-0.000444504,2.43573e-06,0,0,0,0,0,0,0,0.0114342,-0.196242,-0.332733,-1.6586,-0.0903823,1.47744,0.401372,0.00127112,0.00673349,0.00143594,-0.00158594,-0.0016768,0.000414979,-0.00085626,-0.222592,-26.1354,1.68703,25.7806,0.581051,2.7813,-0.0163725,-2.01203,0.163985,-0.88113,-0.0192912,-0.935246,-0.225593,-0.123674,-0.272223,-0.314191,-0.365045,-0.135298,-0.282234,-0.0492329,
0.011425,-0.196305,-0.332752,-1.65841,-0.0906269,-0.0940677,-0.384025,-2.1291e-05,-0.000166544,-7.7673e-05,1.21709e-05,-0.000287495,-0.000438828,2.39242e-06,0,0,0,0,0,0,0,0.0114342,-0.196242,-0.332733,-1.6586,-0.0903823,1.47744,0.401372,0.00127112,0.00673349,0.00143594,-0.00158594,-0.0016768,0.000414979,-0.00085626,-0.222592,-26.1354,1.68703,25.7806,0.581051,2.7813,-0.0163725,-2.01203,0.163985,-0.88113,-0.0192912,-0.935246,-0.225593,-0.123674,-0.272223,-0.314191,-0.365045,-0.135298,-0.282234,-0.0492329,
0.0114249,-0.196305,-0.332753,-1.65841,-0.090628,-0.0940694,-0.384025,-1.84068e-05,-0.000181806,-7.42929e-05,2.04903e-05,-0.000263599,-0.00043316,2.35325e-06,0,0,0,0,0,0,0,0.0114342,-0.196242,-0.332733,-1.6586,-0.0903823,1.47744,0.401372,0.00127112,0.00673349,0.00143594,-0.00158594,-0.0016768,0.000414979,-0.00085626,-0.222592,-26.1354,1.68703,25.7806,0.581051,2.7813,-0.0163725,-1.77455,0.0782794,-0.868536,0.0494537,-0.753855,-0.224926,-0.134523,-0.169613,-0.311799,-0.392727,-0.130223,-0.284728,-0.0481565,
0.0114248,-0.196306,-0.332753,-1.65841,-0.0906289,-0.0940711,-0.384025,-1.58824e-05,-0.000195282,-7.13434e-05,2.78797e-05,-0.000242896,-0.000427618,2.31818e-06,0,0,0,0,0,0,0,0.0114342,-0.196242,-0.332733,-1.6586,-0.0903823,1.47744,0.401372,0.00127112,0.00673349,0.00143594,-0.00158594,-0.0016768,0.000414979,-0.00085626,-0.222592,-26.1354,1.68703,25.7806,0.581051,2.7813,-0.0163725,-1.47191,0.0396569,-0.91561,0.0883911,-0.514619,-0.190241,-0.107383,-0.0309832,-0.276736,-0.435582,-0.122547,-0.27237,-0.0470768,
0.0114248,-0.196307,-0.332753,-1.65841,-0.0906298,-0.0940728,-0.384025,-1.36764e-05,-0.000207192,-6.87761e-05,3.44427e-05,-0.000224939,-0.000422284,2.28704e-06,0,0,0,0,0,0,0,0.0114342,-0.196242,-0.332733,-1.6586,-0.0903823,1.47744,0.401372,0.00127112,0.00673349,0.00143594,-0.00158594,-0.0016768,0.000414979,-0.00085626,-0.222592,-26.1354,1.68703,25.7806,0.581051,2.7813,-0.0163725,-1.47191,0.0396569,-0.91561,0.0883911,-0.514619,-0.190241,-0.107383,-0.0309832,-0.276736,-0.435582,-0.122547,-0.27237,-0.0470768,
0.0114247,-0.196308,-0.332753,-1.65841,-0.0906307,-0.0940745,-0.384025,-1.17513e-05,-0.00021773,-6.65471e-05,4.02716e-05,-0.000209348,-0.000417213,2.25957e-06,0,0,0,0,0,0,0,0.0114301,-0.196277,-0.332723,-1.65861,-0.0903804,1.47743,0.401373,0.000311684,0.00297065,-0.000302315,-0.00270298,-0.00439482,0.00260331,-0.000771652,-0.119442,-25.5364,1.86159,26.0306,0.575558,2.86095,-0.0163725,-1.20552,-0.0135425,-0.885164,0.131319,-0.308121,-0.169109,-0.0876985,0.0866125,-0.259998,-0.469267,-0.119776,-0.28435,-0.045395,
0.0114247,-0.196309,-0.332754,-1.65841,-0.0906315,-0.0940761,-0.384025,-1.00734e-05,-0.000227068,-6.46162e-05,4.54488e-05,-0.000195798,-0.000412441,2.23548e-06,0,0,0,0,0,0,0,0.0114301,-0.196277,-0.332723,-1.65861,-0.0903804,1.47743,0.401373,0.000311684,0.00297065,-0.000302315,-0.00270298,-0.00439482,0.00260331,-0.000771652,-0.119442,-25.5364,1.86159,26.0306,0.575558,2.86095,-0.0163725,-1.20552,-0.0135425,-0.885164,0.131319,-0.308121,-0.169109,-0.0876985,0.0866125,-0.259998,-0.469267,-0.119776,-0.28435,-0.045395,
0.0113118,-0.196278,-0.332833,-1.65828,-0.0889997,-0.0949702,-0.384024,-0.0111533,0.0053816,-0.00992137,0.00891394,0.164133,-0.104752,0.000335609,0,0,0,0,0,0,0,0.0114301,-0.196277,-0.332723,-1.65861,-0.0903804,1.47743,0.401373,0.000311684,0.00297065,-0.000302315,-0.00270298,-0.00439482,0.00260331,-0.000771652,-0.119442,-25.5364,1.86159,26.0306,0.575558,2.86095,-0.0163725,-1.35335,-0.0650906,-0.676568,0.121287,-0.507785,-0.218972,-0.1372,-0.063566,-0.303538,-0.360382,-0.135967,-0.271123,-0.0452982,
0.011313,-0.196194,-0.332815,-1.65851,-0.0889342,-0.0942735,-0.384025,-0.0111038,0.00595428,-0.0100712,0.00820216,0.16625,-0.103937,0.000336328,0,0,0,0,0,0,0,0.0114301,-0.196277,-0.332723,-1.65861,-0.0903804,1.47743,0.401373,0.000311684,0.00297065,-0.000302315,-0.00270298,-0.00439482,0.00260331,-0.000771652,-0.119442,-25.5364,1.86159,26.0306,0.575558,2.86095,-0.0163725,-1.35335,-0.0650906,-0.676568,0.121287,-0.507785,-0.218972,-0.1372,-0.063566,-0.303538,-0.360382,-0.135967,-0.271123,-0.0452982,
0.0112689,-0.196176,-0.332858,-1.65848,-0.0881431,-0.0947716,-0.384023,-0.0110266,0.004361,-0.0107027,0.00681132,0.197767,-0.124524,0.000466326,0,0,0,0,0,0,0,0.0114301,-0.196277,-0.332723,-1.65861,-0.0903804,1.47743,0.401373,0.000311684,0.00297065,-0.000302315,-0.00270298,-0.00439482,0.00260331,-0.000771652,-0.119442,-25.5364,1.86159,26.0306,0.575558,2.86095,-0.0163725,-0.949703,-0.0571104,-1.02195,0.178017,-0.0675644,-0.144179,-0.0671896,0.241895,-0.23839,-0.541429,-0.123247,-0.273463,-0.0445509,
0.0112272,-0.196164,-0.3329,-1.65846,-0.0872547,-0.0953373,-0.384021,-0.0104421,0.00293136,-0.0105739,0.00544889,0.222108,-0.141411,0.000538257,0,0,0,0,0,0,0,0.0114203,-0.19631,-0.332727,-1.65857,-0.0903608,1.47743,0.401379,0.000208823,0.00256721,-0.0068224,-0.00148334,-0.00137364,0.0040165,0.00017103,-0.0202602,-25.2626,1.91316,25.7806,0.429074,2.91405,-0.0703886,-1.28621,0.0256915,-0.718333,0.0828313,-0.4461,-0.163662,-0.0820672,-0.0241095,-0.247599,-0.385954,-0.108528,-0.273473,-0.0475023,
0.0111889,-0.196157,-0.33294,-1.65844,-0.0862904,-0.0959585,-0.384019,-0.00957071,0.00174947,-0.00997919,0.00426356,0.241066,-0.155309,0.000574941,0,0,0,0,0,0,0,0.0114203,-0.19631,-0.332727,-1.65857,-0.0903608,1.47743,0.401379,0.000208823,0.00256721,-0.0068224,-0.00148334,-0.00137364,0.0040165,0.00017103,-0.0202602,-25.2626,1.91316,25.7806,0.429074,2.91405,-0.0703886,-1.28621,0.0256915,-0.718333,0.0828313,-0.4461,-0.163662,-0.0820672,-0.0241095,-0.247599,-0.385954,-0.108528,-0.273473,-0.0475023,
0.0111547,-0.196154,-0.332976,-1.65843,-0.0852667,-0.0966254,-0.384016,-0.0085515,0.000813648,-0.0091143,0.00326847,0.255931,-0.166719,0.000589257,0,0,0,0,0,0,0,0.0114203,-0.19631,-0.332727,-1.65857,-0.0903608,1.47743,0.401379,0.000208823,0.00256721,-0.0068224,-0.00148334,-0.00137364,0.0040165,0.00017103,-0.0202602,-25.2626,1.91316,25.7806,0.429074,2.91405,-0.0703886,-1.24257,-0.305816,-0.618288,0.328012,-0.458404,-0.303981,-0.216133,-0.0528968,-0.416595,-0.348951,-0.106806,-0.266051,-0.0481796,
0.0111248,-0.196154,-0.333009,-1.65842,-0.0841961,-0.0973295,-0.384014,-0.00747392,9.56791e-05,-0.00810892,0.00244041,0.26765,-0.17604,0.000589199,0,0,0,0,0,0,0,0.0114203,-0.19631,-0.332727,-1.65857,-0.0903608,1.47743,0.401379,0.000208823,0.00256721,-0.0068224,-0.00148334,-0.00137364,0.0040165,0.00017103,-0.0202602,-25.2626,1.91316,25.7806,0.429074,2.91405,-0.0703886,-1.24257,-0.305816,-0.618288,0.328012,-0.458404,-0.303981,-0.216133,-0.0528968,-0.416595,-0.348951,-0.106806,-0.266051,-0.0481796,
0.0110992,-0.196156,-0.333037,-1.65841,-0.0830884,-0.0980639,-0.384012,-0.00639502,-0.000438526,-0.0070483,0.0017508,0.276921,-0.183603,0.000579966,0,0,0,0,0,0,0,0.0114203,-0.19631,-0.332727,-1.65857,-0.0903608,1.47743,0.401379,0.000208823,0.00256721,-0.0068224,-0.00148334,-0.00137364,0.0040165,0.00017103,-0.0202602,-25.2626,1.91316,25.7806,0.429074,2.91405,-0.0703886,-0.945482,-0.351601,-0.615898,0.445509,-0.261164,-0.267899,-0.170674,0.0436074,-0.409235,-0.379465,-0.0196824,-0.261029,-0.0499633,
0.0110778,-0.196159,-0.333061,-1.65841,-0.0819514,-0.0988227,-0.38401,-0.00535035,-0.00082182,-0.0059874,0.00117419,0.284267,-0.189694,0.000565127,0,0,0,0,0,0,0,0.0113727,-0.196265,-0.332776,-1.65856,-0.0887876,1.47737,0.401376,0.00130547,0.00538997,-5.43993e-05,-0.000615367,0.0824982,-0.00339549,0.000601012,0.336795,-25.7109,2.21467,26.1575,0.923458,3.01293,-0.0566557,-0.945482,-0.351601,-0.615898,0.445509,-0.261164,-0.267899,-0.170674,0.0436074,-0.409235,-0.379465,-0.0196824,-0.261029,-0.0499633,
0.0110603,-0.196163,-0.333081,-1.65841,-0.080791,-0.0996009,-0.384007,-0.00436103,-0.00108346,-0.00496059,0.000689837,0.290082,-0.194551,0.000546873,0,0,0,0,0,0,0,0.0113727,-0.196265,-0.332776,-1.65856,-0.0887876,1.47737,0.401376,0.00130547,0.00538997,-5.43993e-05,-0.000615367,0.0824982,-0.00339549,0.000601012,0.336795,-25.7109,2.21467,26.1575,0.923458,3.01293,-0.0566557,-1.26049,-0.432995,-0.368276,0.535607,-0.613745,-0.361336,-0.249068,-0.205803,-0.525305,-0.253208,0.0416019,-0.266452,-0.047331,
0.0110466,-0.196168,-0.333097,-1.65841,-0.0796124,-0.100394,-0.384005,-0.00343855,-0.00124861,-0.00398829,0.000281302,0.294668,-0.198379,0.000526964,0,0,0,0,0,0,0,0.0113727,-0.196265,-0.332776,-1.65856,-0.0887876,1.47737,0.401376,0.00130547,0.00538997,-5.43993e-05,-0.000615367,0.0824982,-0.00339549,0.000601012,0.336795,-25.7109,2.21467,26.1575,0.923458,3.01293,-0.0566557,-0.7982,-0.401306,-0.478191,0.590348,-0.237759,-0.26277,-0.144306,0.0150779,-0.446992,-0.347602,0.109126,-0.263415,-0.0475186,
0.0110362,-0.196174,-0.333109,-1.65841,-0.0784193,-0.1012,-0.384003,-0.00258802,-0.00133842,-0.00308156,-6.44015e-05,0.298254,-0.20135,0.000506442,0,0,0,0,0,0,0,0.0113727,-0.196265,-0.332776,-1.65856,-0.0887876,1.47737,0.401376,0.00130547,0.00538997,-5.43993e-05,-0.000615367,0.0824982,-0.00339549,0.000601012,0.336795,-25.7109,2.21467,26.1575,0.923458,3.01293,-0.0566557,-0.7982,-0.401306,-0.478191,0.590348,-0.237759,-0.26277,-0.144306,0.0150779,-0.446992,-0.347602,0.109126,-0.263415,-0.0475186,
0.011029,-0.196179,-0.333118,-1.65841,-0.0772153,-0.102014,-0.384001,-0.00181037,-0.00137041,-0.00224524,-0.000357586,0.301023,-0.203608,0.000486068,0,0,0,0,0,0,0,0.0113727,-0.196265,-0.332776,-1.65856,-0.0887876,1.47737,0.401376,0.00130547,0.00538997,-5.43993e-05,-0.000615367,0.0824982,-0.00339549,0.000601012,0.336795,-25.7109,2.21467,26.1575,0.923458,3.01293,-0.0566557,-0.733194,-0.119271,-0.425838,0.465371,-0.205224,-0.123963,-0.00446385,0.0262389,-0.305696,-0.366292,0.207448,-0.29661,-0.047317,
0.0110246,-0.196184,-0.333124,-1.65841,-0.0760028,-0.102835,-0.383999,-0.00110391,-0.00135894,-0.00148012,-0.000606485,0.303115,-0.205276,0.000466128,0,0,0,0,0,0,0,0.0113727,-0.196265,-0.332776,-1.65856,-0.0887876,1.47737,0.401376,0.00130547,0.00538997,-5.43993e-05,-0.000615367,0.0824982,-0.00339549,0.000601012,0.336795,-25.7109,2.21467,26.1575,0.923458,3.01293,-0.0566557,-0.733194,-0.119271,-0.425838,0.465371,-0.205224,-0.123963,-0.00446385,0.0262389,-0.305696,-0.366292,0.207448,-0.29661,-0.047317,
0.0110227,-0.19619,-0.333127,-1.65841,-0.0747842,-0.103661,-0.383998,-0.000465323,-0.00131562,-0.000784423,-0.000817757,0.304644,-0.206452,0.00044704,0,0,0,0,0,0,0,0.0113633,-0.196254,-0.332792,-1.65855,-0.0845982,1.47716,0.401378,-0.00169371,0.000703625,-0.000350904,-0.000451446,0.0960086,-0.00681718,0.00117227,0.412174,-25.7863,2.1631,25.9552,1.41784,2.78771,-0.0630644,-1.042,0.0940771,-0.105917,0.319992,-0.564885,-0.0857705,0.0340481,-0.229789,-0.253397,-0.226369,0.273215,-0.316671,-0.0445096,
0.0110232,-0.196195,-0.333128,-1.65842,-0.0735614,-0.10449,-0.383996,0.000109613,-0.00124979,-0.000154847,-0.000996861,0.305699,-0.207223,0.000428918,0,0,0,0,0,0,0,0.0113633,-0.196254,-0.332792,-1.65855,-0.0845982,1.47716,0.401378,-0.00169371,0.000703625,-0.000350904,-0.000451446,0.0960086,-0.00681718,0.00117227,0.412174,-25.7863,2.1631,25.9552,1.41784,2.78771,-0.0630644,-1.042,0.0940771,-0.105917,0.319992,-0.564885,-0.0857705,0.0340481,-0.229789,-0.253397,-0.226369,0.273215,-0.316671,-0.0445096,
0.0110257,-0.196199,-0.333126,-1.65842,-0.072336,-0.105321,-0.383994,0.000625551,-0.00116883,0.000412795,-0.00114828,0.306356,-0.207657,0.000411845,0,0,0,0,0,0,0,0.0113633,-0.196254,-0.332792,-1.65855,-0.0845982,1.47716,0.401378,-0.00169371,0.000703625,-0.000350904,-0.000451446,0.0960086,-0.00681718,0.00117227,0.412174,-25.7863,2.1631,25.9552,1.41784,2.78771,-0.0630644,-0.689376,0.200732,-0.227071,0.341192,-0.239828,0.0259661,0.144251,-0.022693,-0.153937,-0.346545,0.354591,-0.349504,-0.0452867,
0.01103,-0.196204,-0.333122,-1.65843,-0.0711093,-0.106152,-0.383993,0.00108728,-0.00107855,0.000923089,-0.00127577,0.306673,-0.207813,0.000395869,0,0,0,0,0,0,0,0.0113633,-0.196254,-0.332792,-1.65855,-0.0845982,1.47716,0.401378,-0.00169371,0.000703625,-0.000350904,-0.000451446,0.0960086,-0.00681718,0.00117227,0.412174,-25.7863,2.1631,25.9552,1.41784,2.78771,-0.0630644,-0.689376,0.200732,-0.227071,0.341192,-0.239828,0.0259661,0.144251,-0.022693,-0.153937,-0.346545,0.354591,-0.349504,-0.0452867,
0.011036,-0.196208,-0.333117,-1.65843,-0.0698825,-0.106983,-0.383991,0.00149953,-0.000983444,0.00138075,-0.00138245,0.3067,-0.207738,0.00038087,0,0,0,0,0,0,0,0.0113633,-0.196254,-0.332792,-1.65855,-0.0845982,1.47716,0.401378,-0.00169371,0.000703625,-0.000350904,-0.000451446,0.0960086,-0.00681718,0.00117227,0.412174,-25.7863,2.1631,25.9552,1.41784,2.78771,-0.0630644,-0.937728,0.198987,-0.128645,0.374719,-0.45187,-0.019039,0.100165,-0.152478,-0.204972,-0.310265,0.392613,-0.380999,-0.0453866,
0.0110435,-0.196211,-0.33311,-1.65844,-0.0686566,-0.107813,-0.38399,0.00186682,-0.000886945,0.0017904,-0.001471,0.306479,-0.207473,0.000366959,0,0,0,0,0,0,0,0.0114058,-0.19625,-0.332757,-1.65855,-0.0811732,1.47695,0.401373,0.00217343,0.00429174,0.00306884,-0.00271787,0.111585,-0.00484396,-0.00120528,-0.0956386,-25.8339,1.78621,25.9314,1.38122,2.6751,-0.0227812,-0.873334,0.0650568,-0.228206,0.518146,-0.333298,-0.0712316,0.035601,-0.0556671,-0.265029,-0.394131,0.406641,-0.418883,-0.0440844,
0.0110522,-0.196214,-0.333101,-1.65844,-0.0674324,-0.108641,-0.383988,0.00219342,-0.000791628,0.00215647,-0.00154369,0.306045,-0.20705,0.00035395,0,0,0,0,0,0,0,0.0114058,-0.19625,-0.332757,-1.65855,-0.0811732,1.47695,0.401373,0.00217343,0.00429174,0.00306884,-0.00271787,0.111585,-0.00484396,-0.00120528,-0.0956386,-25.8339,1.78621,25.9314,1.38122,2.6751,-0.0227812,-0.873334,0.0650568,-0.228206,0.518146,-0.333298,-0.0712316,0.035601,-0.0556671,-0.265029,-0.394131,0.406641,-0.418883,-0.0440844,
0.0110622,-0.196217,-0.333091,-1.65845,-0.0662107,-0.109467,-0.383987,0.00248332,-0.00069938,0.00248313,-0.00160246,0.305426,-0.206497,0.000341913,0,0,0,0,0,0,0,0.0114058,-0.19625,-0.332757,-1.65855,-0.0811732,1.47695,0.401373,0.00217343,0.00429174,0.00306884,-0.00271787,0.111585,-0.00484396,-0.00120528,-0.0956386,-25.8339,1.78621,25.9314,1.38122,2.6751,-0.0227812,-0.886611,0.1352,-0.133039,0.48751,-0.355333,-0.0437708,0.0474242,-0.0721684,-0.223409,-0.39024,0.438517,-0.452849,-0.0446086,
0.0110731,-0.19622,-0.33308,-1.65846,-0.0649921,-0.11029,-0.383986,0.00274016,-0.000611543,0.00277425,-0.001649,0.304647,-0.205836,0.000330677,0,0,0,0,0,0,0,0.0114058,-0.19625,-0.332757,-1.65855,-0.0811732,1.47695,0.401373,0.00217343,0.00429174,0.00306884,-0.00271787,0.111585,-0.00484396,-0.00120528,-0.0956386,-25.8339,1.78621,25.9314,1.38122,2.6751,-0.0227812,-1.07889,-0.0886903,0.110681,0.599785,-0.586574,-0.180184,-0.0969611,-0.239322,-0.357405,-0.277463,0.411154,-0.452689,-0.0446669,
0.011085,-0.196222,-0.333068,-1.65846,-0.0637772,-0.111111,-0.383984,0.00296731,-0.00052902,0.00303341,-0.00168476,0.30373,-0.205086,0.000320141,0,0,0,0,0,0,0,0.0114058,-0.19625,-0.332757,-1.65855,-0.0811732,1.47695,0.401373,0.00217343,0.00429174,0.00306884,-0.00271787,0.111585,-0.00484396,-0.00120528,-0.0956386,-25.8339,1.78621,25.9314,1.38122,2.6751,-0.0227812,-1.07889,-0.0886903,0.110681,0.599785,-0.586574,-0.180184,-0.0969611,-0.239322,-0.357405,-0.277463,0.411154,-0.452689,-0.0446669,
0.0110977,-0.196224,-0.333055,-1.65847,-0.0625664,-0.111928,-0.383983,0.00316781,-0.00045239,0.00326384,-0.00171103,0.302692,-0.204262,0.000310423,0,0,0,0,0,0,0,0.0114058,-0.19625,-0.332757,-1.65855,-0.0811732,1.47695,0.401373,0.00217343,0.00429174,0.00306884,-0.00271787,0.111585,-0.00484396,-0.00120528,-0.0956386,-25.8339,1.78621,25.9314,1.38122,2.6751,-0.0227812,-0.501066,-0.0840647,0.00918516,0.628564,-0.0812166,-0.0745871,-0.00889432,0.0744315,-0.245584,-0.409451,0.4263,-0.475313,-0.0474382,
0.0111111,-0.196225,-0.333041,-1.65848,-0.0613602,-0.112741,-0.383982,0.00334442,-0.000381962,0.00346852,-0.0017289,0.30155,-0.203376,0.000301312,0,0,0,0,0,0,0,0.0114225,-0.196294,-0.332731,-1.65853,-0.0772271,1.47669,0.401378,-0.000728529,0.00155572,-0.000129393,-0.00157461,0.135974,-0.0184193,0.00136568,-0.147213,-25.3102,1.83778,25.7568,1.05163,2.64214,-0.0630644,-0.501066,-0.0840647,0.00918516,0.628564,-0.0812166,-0.0745871,-0.00889432,0.0744315,-0.245584,-0.409451,0.4263,-0.475313,-0.0474382,
0.0111251,-0.196226,-0.333026,-1.65849,-0.060159,-0.113551,-0.383981,0.00349965,-0.000317848,0.00365011,-0.00173936,0.300317,-0.20244,0.000292783,0,0,0,0,0,0,0,0.0114225,-0.196294,-0.332731,-1.65853,-0.0772271,1.47669,0.401378,-0.000728529,0.00155572,-0.000129393,-0.00157461,0.135974,-0.0184193,0.00136568,-0.147213,-25.3102,1.83778,25.7568,1.05163,2.64214,-0.0630644,-0.736823,-0.0830237,0.136237,0.598527,-0.278121,-0.118007,-0.065576,-0.0427385,-0.270885,-0.361342,0.407808,-0.503492,-0.0473674,
0.01114,-0.196096,-0.332931,-1.65819,-0.0858633,-0.0970982,-0.383994,-0.0265249,0.0110718,-0.0223193,0.0329139,0.518665,-0.419374,0.00332344,0,0,0,0,0,0,0,0.0114225,-0.196294,-0.332731,-1.65853,-0.0772271,1.47669,0.401378,-0.000728529,0.00155572,-0.000129393,-0.00157461,0.135974,-0.0184193,0.00136568,-0.147213,-25.3102,1.83778,25.7568,1.05163,2.64214,-0.0630644,-0.740101,-0.167834,0.00698289,0.669967,-0.198205,-0.1558,-0.10532,0.0379241,-0.314802,-0.438815,0.383503,-0.532112,-0.0482369,
0.0111819,-0.196146,-0.332901,-1.65815,-0.0716611,-0.0977929,-0.38399,-0.0216235,0.00882828,-0.0179439,0.0298665,0.586596,-0.408322,0.00316927,0,0,0,0,0,0,0,0.0114225,-0.196294,-0.332731,-1.65853,-0.0772271,1.47669,0.401378,-0.000728529,0.00155572,-0.000129393,-0.00157461,0.135974,-0.0184193,0.00136568,-0.147213,-25.3102,1.83778,25.7568,1.05163,2.64214,-0.0630644,-0.740101,-0.167834,0.00698289,0.669967,-0.198205,-0.1558,-0.10532,0.0379241,-0.314802,-0.438815,0.383503,-0.532112,-0.0482369,
0.0111016,-0.19613,-0.332973,-1.65806,-0.0689651,-0.0997088,-0.383977,-0.0200667,0.00407045,-0.0178752,0.0237685,0.674009,-0.478976,0.00344395,0,0,0,0,0,0,0,0.0114225,-0.196294,-0.332731,-1.65853,-0.0772271,1.47669,0.401378,-0.000728529,0.00155572,-0.000129393,-0.00157461,0.135974,-0.0184193,0.00136568,-0.147213,-25.3102,1.83778,25.7568,1.05163,2.64214,-0.0630644,-0.855285,-0.360943,0.0529973,0.809368,-0.280607,-0.266064,-0.214597,-0.00705711,-0.43835,-0.430778,0.369965,-0.553926,-0.0450023,
0.0110317,-0.196129,-0.333038,-1.65798,-0.065992,-0.101848,-0.383962,-0.0174851,0.00013384,-0.0162614,0.0179004,0.743284,-0.534761,0.00358626,0,0,0,0,0,0,0,0.0114072,-0.196274,-0.332731,-1.65853,-0.072512,1.47645,0.401376,0.00169181,-0.00140344,0.00189625,0.00134614,0.17245,-0.0112394,-8.77019e-05,-0.0440639,-25.5364,1.81398,26.0306,0.953671,2.68792,-0.050247,-0.855285,-0.360943,0.0529973,0.809368,-0.280607,-0.266064,-0.214597,-0.00705711,-0.43835,-0.430778,0.369965,-0.553926,-0.0450023,
0.0109742,-0.196141,-0.333093,-1.65793,-0.062797,-0.104163,-0.383948,-0.0143728,-0.00283321,-0.013739,0.0127669,0.798747,-0.578846,0.00364974,0,0,0,0,0,0,0,0.0114072,-0.196274,-0.332731,-1.65853,-0.072512,1.47645,0.401376,0.00169181,-0.00140344,0.00189625,0.00134614,0.17245,-0.0112394,-8.77019e-05,-0.0440639,-25.5364,1.81398,26.0306,0.953671,2.68792,-0.050247,-1.01353,-0.573454,0.534637,0.862365,-0.582344,-0.388567,-0.336109,-0.255979,-0.555291,-0.220102,0.330453,-0.540119,-0.0456504,
0.0109301,-0.19616,-0.333136,-1.6579,-0.0594228,-0.106617,-0.383933,-0.0110322,-0.00492436,-0.010725,0.00841287,0.843549,-0.613473,0.00366341,0,0,0,0,0,0,0,0.0114072,-0.196274,-0.332731,-1.65853,-0.072512,1.47645,0.401376,0.00169181,-0.00140344,0.00189625,0.00134614,0.17245,-0.0112394,-8.77019e-05,-0.0440639,-25.5364,1.81398,26.0306,0.953671,2.68792,-0.050247,-0.19549,-0.632041,0.661083,0.931847,0.0143886,-0.26718,-0.215844,0.0678968,-0.445714,-0.29436,0.370816,-0.56034,-0.0464488,
0.0108995,-0.196186,-0.333166,-1.65788,-0.0559027,-0.109179,-0.383918,-0.0076535,-0.0062915,-0.00749329,0.00475559,0.880027,-0.64038,0.00364402,0,0,0,0,0,0,0,0.0114072,-0.196274,-0.332731,-1.65853,-0.072512,1.47645,0.401376,0.00169181,-0.00140344,0.00189625,0.00134614,0.17245,-0.0112394,-8.77019e-05,-0.0440639,-25.5364,1.81398,26.0306,0.953671,2.68792,-0.050247,-0.19549,-0.632041,0.661083,0.931847,0.0143886,-0.26718,-0.215844,0.0678968,-0.445714,-0.29436,0.370816,-0.56034,-0.0464488,
0.010882,-0.196214,-0.333182,-1.65787,-0.0522629,-0.111823,-0.383904,-0.00435547,-0.00708514,-0.00422236,0.00168992,0.909935,-0.660966,0.00360356,0,0,0,0,0,0,0,0.0114072,-0.196274,-0.332731,-1.65853,-0.072512,1.47645,0.401376,0.00169181,-0.00140344,0.00189625,0.00134614,0.17245,-0.0112394,-8.77019e-05,-0.0440639,-25.5364,1.81398,26.0306,0.953671,2.68792,-0.050247,-0.217435,-0.913915,0.96558,1.18848,-0.0800332,-0.391585,-0.316347,-0.0225496,-0.619543,-0.23989,0.432339,-0.619788,-0.0472026,
0.0108772,-0.196244,-0.333187,-1.65788,-0.0485245,-0.114528,-0.38389,-0.00121042,-0.00743691,-0.00102602,-0.00088097,0.934606,-0.676378,0.00354898,0,0,0,0,0,0,0,0.0114072,-0.196274,-0.332731,-1.65853,-0.072512,1.47645,0.401376,0.00169181,-0.00140344,0.00189625,0.00134614,0.17245,-0.0112394,-8.77019e-05,-0.0440639,-25.5364,1.81398,26.0306,0.953671,2.68792,-0.050247,-0.217435,-0.913915,0.96558,1.18848,-0.0800332,-0.391585,-0.316347,-0.0225496,-0.619543,-0.23989,0.432339,-0.619788,-0.0472026,
0.0108842,-0.196273,-0.333178,-1.65789,-0.0447043,-0.117278,-0.383876,0.00174031,-0.00745642,0.00202583,-0.00303908,0.95506,-0.687557,0.00348573,0,0,0,0,0,0,0,0.0112306,-0.196221,-0.33291,-1.65845,-0.0628412,1.47491,0.401376,-0.0101088,-0.00327073,-0.00552871,0.0068518,0.391266,-0.0821199,0.000247456,1.04694,-25.7625,2.68678,25.5823,1.79687,2.15783,-0.0429228,-0.214714,-0.974404,0.926143,1.31033,-0.0260604,-0.414397,-0.319616,0.0281651,-0.678273,-0.312611,0.482007,-0.677005,-0.046163,
0.0109021,-0.196302,-0.333159,-1.65791,-0.0408159,-0.120059,-0.383862,0.00447617,-0.00723256,0.00489292,-0.0048518,0.972089,-0.695281,0.0034177,0,0,0,0,0,0,0,0.0112306,-0.196221,-0.33291,-1.65845,-0.0628412,1.47491,0.401376,-0.0101088,-0.00327073,-0.00552871,0.0068518,0.391266,-0.0821199,0.000247456,1.04694,-25.7625,2.68678,25.5823,1.79687,2.15783,-0.0429228,-0.214714,-0.974404,0.926143,1.31033,-0.0260604,-0.414397,-0.319616,0.0281651,-0.678273,-0.312611,0.482007,-0.677005,-0.046163,
0.01093,-0.19633,-0.333129,-1.65793,-0.0368707,-0.12286,-0.383849,0.00699023,-0.00683627,0.00755503,-0.00637433,0.986309,-0.700186,0.00334697,0,0,0,0,0,0,0,0.0112306,-0.196221,-0.33291,-1.65845,-0.0628412,1.47491,0.401376,-0.0101088,-0.00327073,-0.00552871,0.0068518,0.391266,-0.0821199,0.000247456,1.04694,-25.7625,2.68678,25.5823,1.79687,2.15783,-0.0429228,-0.0818908,-0.579858,1.31741,1.1131,-0.0394004,-0.201962,-0.0853992,-0.0300248,-0.475524,-0.258351,0.632882,-0.756502,-0.0474684,
0.0109672,-0.196355,-0.333089,-1.65797,-0.0328779,-0.125671,-0.383836,0.00928441,-0.00632344,0.0100053,-0.00765181,0.998207,-0.702796,0.00327578,0,0,0,0,0,0,0,0.0112306,-0.196221,-0.33291,-1.65845,-0.0628412,1.47491,0.401376,-0.0101088,-0.00327073,-0.00552871,0.0068518,0.391266,-0.0821199,0.000247456,1.04694,-25.7625,2.68678,25.5823,1.79687,2.15783,-0.0429228,-0.667151,-0.357933,1.69187,0.96922,-0.599432,-0.20082,-0.0714708,-0.395167,-0.470953,-0.102746,0.701146,-0.814627,-0.0452856,
0.0110126,-0.196378,-0.33304,-1.658,-0.0288452,-0.128485,-0.383823,0.0113664,-0.00573752,0.0122454,-0.00872142,1.00817,-0.70354,0.00320518,0,0,0,0,0,0,0,0.0112306,-0.196221,-0.33291,-1.65845,-0.0628412,1.47491,0.401376,-0.0101088,-0.00327073,-0.00552871,0.0068518,0.391266,-0.0821199,0.000247456,1.04694,-25.7625,2.68678,25.5823,1.79687,2.15783,-0.0429228,-0.667151,-0.357933,1.69187,0.96922,-0.599432,-0.20082,-0.0714708,-0.395167,-0.470953,-0.102746,0.701146,-0.814627,-0.0452856,
0.0110656,-0.196398,-0.332983,-1.65804,-0.0247791,-0.131297,-0.38381,0.0132471,-0.00511183,0.0142825,-0.00961382,1.01651,-0.702773,0.00313589,0,0,0,0,0,0,0,0.0108002,-0.196203,-0.333248,-1.65838,-0.0467962,1.47108,0.401376,-0.0144629,-0.0016347,-0.0125784,0.00142532,0.578963,-0.146137,0.00029691,1.27307,-25.9371,2.91292,25.6339,2.23632,1.86577,-0.050247,-0.281532,0.0111523,1.64512,0.837983,-0.261629,0.0417802,0.184639,-0.186513,-0.243233,-0.230664,0.837303,-0.88209,-0.0444998,
0.0111254,-0.196416,-0.332918,-1.65808,-0.0206852,-0.1341,-0.383798,0.0149394,-0.00447158,0.016127,-0.0103546,1.02348,-0.700781,0.0030681,0,0,0,0,0,0,0,0.0108002,-0.196203,-0.333248,-1.65838,-0.0467962,1.47108,0.401376,-0.0144629,-0.0016347,-0.0125784,0.00142532,0.578963,-0.146137,0.00029691,1.27307,-25.9371,2.91292,25.6339,2.23632,1.86577,-0.050247,-0.281532,0.0111523,1.64512,0.837983,-0.261629,0.0417802,0.184639,-0.186513,-0.243233,-0.230664,0.837303,-0.88209,-0.0444998,
0.0111912,-0.196432,-0.332847,-1.65812,-0.0165681,-0.136891,-0.383786,0.0164571,-0.00383549,0.0177914,-0.0109651,1.02929,-0.697803,0.00300265,0,0,0,0,0,0,0,0.0108002,-0.196203,-0.333248,-1.65838,-0.0467962,1.47108,0.401376,-0.0144629,-0.0016347,-0.0125784,0.00142532,0.578963,-0.146137,0.00029691,1.27307,-25.9371,2.91292,25.6339,2.23632,1.86577,-0.050247,-0.526778,0.167229,1.63366,0.827176,-0.383818,0.0752916,0.226302,-0.22787,-0.22513,-0.298835,0.919484,-0.977658,-0.0426131,
0.0112624,-0.196445,-0.33277,-1.65817,-0.0124317,-0.139667,-0.383774,0.0178139,-0.00321713,0.0192886,-0.0114636,1.0341,-0.694032,0.00293934,0,0,0,0,0,0,0,0.0108002,-0.196203,-0.333248,-1.65838,-0.0467962,1.47108,0.401376,-0.0144629,-0.0016347,-0.0125784,0.00142532,0.578963,-0.146137,0.00029691,1.27307,-25.9371,2.91292,25.6339,2.23632,1.86577,-0.050247,-0.526778,0.167229,1.63366,0.827176,-0.383818,0.0752916,0.226302,-0.22787,-0.22513,-0.298835,0.919484,-0.977658,-0.0426131,
0.0113385,-0.196455,-0.332687,-1.65822,-0.00827947,-0.142426,-0.383763,0.0190233,-0.00262604,0.0206318,-0.0118652,1.03805,-0.689626,0.00287829,0,0,0,0,0,0,0,0.0108002,-0.196203,-0.333248,-1.65838,-0.0467962,1.47108,0.401376,-0.0144629,-0.0016347,-0.0125784,0.00142532,0.578963,-0.146137,0.00029691,1.27307,-25.9371,2.91292,25.6339,2.23632,1.86577,-0.050247,-0.755808,0.436865,1.85472,0.627654,-0.624984,0.163272,0.319889,-0.391989,-0.12191,-0.217222,0.955976,-1.00942,-0.04168,
0.0114189,-0.196463,-0.3326,-1.65827,-0.00411436,-0.145164,-0.383751,0.0200984,-0.00206864,0.0218341,-0.0121833,1.04128,-0.684713,0.00281957,0,0,0,0,0,0,0,0.0101018,-0.196258,-0.333617,-1.65833,-0.0200567,1.46242,0.401373,-0.014475,-0.00117551,-0.0031244,-0.000836811,0.65875,-0.227831,-0.000870361,1.34845,-25.3102,2.91292,25.5823,2.08343,1.88592,-0.0163725,-0.187614,0.649354,1.62051,0.571125,-0.0769345,0.367975,0.533028,-0.0337466,0.0682542,-0.414981,1.02136,-1.0531,-0.0419887,
0.0115031,-0.196469,-0.332508,-1.65832,6.10979e-05,-0.147882,-0.38374,0.0210512,-0.00154888,0.0229077,-0.0124291,1.04387,-0.679399,0.00276309,0,0,0,0,0,0,0,0.0101018,-0.196258,-0.333617,-1.65833,-0.0200567,1.46242,0.401373,-0.014475,-0.00117551,-0.0031244,-0.000836811,0.65875,-0.227831,-0.000870361,1.34845,-25.3102,2.91292,25.5823,2.08343,1.88592,-0.0163725,-0.187614,0.649354,1.62051,0.571125,-0.0769345,0.367975,0.533028,-0.0337466,0.0682542,-0.414981,1.02136,-1.0531,-0.0419887,
0.0115907,-0.196474,-0.332413,-1.65837,0.0042447,-0.150577,-0.38373,0.0218933,-0.00106891,0.0238644,-0.0126124,1.0459,-0.673768,0.00270878,0,0,0,0,0,0,0,0.0101018,-0.196258,-0.333617,-1.65833,-0.0200567,1.46242,0.401373,-0.014475,-0.00117551,-0.0031244,-0.000836811,0.65875,-0.227831,-0.000870361,1.34845,-25.3102,2.91292,25.5823,2.08343,1.88592,-0.0163725,-0.367422,0.366717,1.77983,0.749473,-0.25426,0.215397,0.393818,-0.152769,-0.109007,-0.351398,0.99378,-1.06665,-0.0398785,
0.0116813,-0.196476,-0.332314,-1.65842,0.00843453,-0.153249,-0.383719,0.0226351,-0.000629437,0.0247149,-0.0127416,1.04746,-0.667888,0.00265639,0,0,0,0,0,0,0,0.0101018,-0.196258,-0.333617,-1.65833,-0.0200567,1.46242,0.401373,-0.014475,-0.00117551,-0.0031244,-0.000836811,0.65875,-0.227831,-0.000870361,1.34845,-25.3102,2.91292,25.5823,2.08343,1.88592,-0.0163725,-0.367422,0.366717,1.77983,0.749473,-0.25426,0.215397,0.393818,-0.152769,-0.109007,-0.351398,0.99378,-1.06665,-0.0398785,
0.0117744,-0.196477,-0.332212,-1.65847,0.0126289,-0.155896,-0.383708,0.0232863,-0.000230092,0.0254695,-0.0128241,1.0486,-0.661815,0.00260583,0,0,0,0,0,0,0,0.0101018,-0.196258,-0.333617,-1.65833,-0.0200567,1.46242,0.401373,-0.014475,-0.00117551,-0.0031244,-0.000836811,0.65875,-0.227831,-0.000870361,1.34845,-25.3102,2.91292,25.5823,2.08343,1.88592,-0.0163725,-0.139343,0.140064,1.59984,0.902262,0.0294948,0.163203,0.344334,0.0542481,-0.177853,-0.471868,0.932519,-1.08839,-0.0409683,
0.0118698,-0.196477,-0.332108,-1.65852,0.0168264,-0.158518,-0.383698,0.0238559,0.000130184,0.0261373,-0.012866,1.04937,-0.655593,0.00255718,0,0,0,0,0,0,0,0.0101018,-0.196258,-0.333617,-1.65833,-0.0200567,1.46242,0.401373,-0.014475,-0.00117551,-0.0031244,-0.000836811,0.65875,-0.227831,-0.000870361,1.34845,-25.3102,2.91292,25.5823,2.08343,1.88592,-0.0163725,-0.0889889,0.241689,1.4753,0.792048,0.141053,0.224831,0.40032,0.150239,-0.0979528,-0.533727,0.879577,-1.0987,-0.041199,
0.0119672,-0.196475,-0.332001,-1.65857,0.0210257,-0.161115,-0.383688,0.0243519,0.000453054,0.0267267,-0.0128728,1.04982,-0.649259,0.00251014,0,0,0,0,0,0,0,0.0097024,-0.196292,-0.333645,-1.65828,0.00211652,1.45409,0.401374,-0.00859439,-0.00130474,0.000148564,0.00505466,0.743031,-0.285787,-0.000638347,1.07074,-25.0365,2.88911,25.3323,1.41784,2.17156,-0.0301054,-0.0889889,0.241689,1.4753,0.792048,0.141053,0.224831,0.40032,0.150239,-0.0979528,-0.533727,0.879577,-1.0987,-0.041199,
0.0120664,-0.196472,-0.331892,-1.65862,0.0252256,-0.163687,-0.383678,0.0247816,0.000740494,0.0272457,-0.0128491,1.04999,-0.642841,0.00246475,0,0,0,0,0,0,0,0.0097024,-0.196292,-0.333645,-1.65828,0.00211652,1.45409,0.401374,-0.00859439,-0.00130474,0.000148564,0.00505466,0.743031,-0.285787,-0.000638347,1.07074,-25.0365,2.88911,25.3323,1.41784,2.17156,-0.0301054,-0.629423,-0.165262,1.54393,0.940171,-0.291262,-0.0501791,0.114314,-0.101418,-0.360294,-0.409245,0.724099,-1.05858,-0.0403982,
0.0120795,-0.1964,-0.331994,-1.65844,-0.0733149,-0.099723,-0.383874,0.0778002,-0.0157232,0.0881937,0.000593042,0.413962,-0.641697,0.0120549,0,0,0,0,0,0,0,0.0097024,-0.196292,-0.333645,-1.65828,0.00211652,1.45409,0.401374,-0.00859439,-0.00130474,0.000148564,0.00505466,0.743031,-0.285787,-0.000638347,1.07074,-25.0365,2.88911,25.3323,1.41784,2.17156,-0.0301054,-0.629423,-0.165262,1.54393,0.940171,-0.291262,-0.0501791,0.114314,-0.101418,-0.360294,-0.409245,0.724099,-1.05858,-0.0403982,
0.0105458,-0.196528,-0.332773,-1.65833,0.0105801,-0.124222,-0.383868,0.0966183,-0.0251927,0.104585,-0.0119014,0.708868,-0.762511,0.0125214,0,0,0,0,0,0,0,0.0097024,-0.196292,-0.333645,-1.65828,0.00211652,1.45409,0.401374,-0.00859439,-0.00130474,0.000148564,0.00505466,0.743031,-0.285787,-0.000638347,1.07074,-25.0365,2.88911,25.3323,1.41784,2.17156,-0.0301054,-0.402864,-0.424934,1.42207,1.0273,-0.113976,-0.126736,0.0230134,0.00146431,-0.423265,-0.402125,0.61349,-0.973954,-0.0398888,
0.0110106,-0.196637,-0.332261,-1.65841,0.0134908,-0.127686,-0.38382,0.116199,-0.0271544,0.12799,-0.019313,0.727668,-0.865964,0.0118892,0,0,0,0,0,0,0,0.0097024,-0.196292,-0.333645,-1.65828,0.00211652,1.45409,0.401374,-0.00859439,-0.00130474,0.000148564,0.00505466,0.743031,-0.285787,-0.000638347,1.07074,-25.0365,2.88911,25.3323,1.41784,2.17156,-0.0301054,-0.402864,-0.424934,1.42207,1.0273,-0.113976,-0.126736,0.0230134,0.00146431,-0.423265,-0.402125,0.61349,-0.973954,-0.0398888,
0.0115397,-0.196746,-0.331674,-1.65852,0.0164979,-0.131489,-0.383775,0.132275,-0.0272643,0.146883,-0.0263387,0.75177,-0.95082,0.0113686,0,0,0,0,0,0,0,0.00970816,-0.196268,-0.333559,-1.65831,0.0270819,1.44395,0.401373,0.00788668,-0.0139913,0.0145798,0.005914,0.679808,-0.316525,-0.000971792,0.717655,-25.3618,2.86134,25.7092,0.116879,2.73461,-0.0227812,-0.475605,-0.373823,1.19614,0.939747,-0.108236,-0.118071,0.0244883,0.0325183,-0.395119,-0.43151,0.544251,-0.928245,-0.0365142,
0.0121222,-0.19685,-0.331024,-1.65865,0.0196108,-0.135571,-0.383731,0.14562,-0.0260594,0.162327,-0.032825,0.778235,-1.02059,0.0109315,0,0,0,0,0,0,0,0.00970816,-0.196268,-0.333559,-1.65831,0.0270819,1.44395,0.401373,0.00788668,-0.0139913,0.0145798,0.005914,0.679808,-0.316525,-0.000971792,0.717655,-25.3618,2.86134,25.7092,0.116879,2.73461,-0.0227812,-0.837413,-0.337747,1.0157,0.858666,-0.3076,-0.172233,-0.0352876,-0.0454179,-0.429867,-0.443165,0.4636,-0.916374,-0.0273086,
0.0127494,-0.196946,-0.330324,-1.6588,0.0228315,-0.139883,-0.383689,0.156803,-0.0239548,0.175097,-0.0387135,0.805165,-1.07805,0.0105564,0,0,0,0,0,0,0,0.00970816,-0.196268,-0.333559,-1.65831,0.0270819,1.44395,0.401373,0.00788668,-0.0139913,0.0145798,0.005914,0.679808,-0.316525,-0.000971792,0.717655,-25.3618,2.86134,25.7092,0.116879,2.73461,-0.0227812,-0.837413,-0.337747,1.0157,0.858666,-0.3076,-0.172233,-0.0352876,-0.0454179,-0.429867,-0.443165,0.4636,-0.916374,-0.0273086,
0.0134144,-0.197031,-0.329581,-1.65898,0.026157,-0.144385,-0.383648,0.166249,-0.0212641,0.18576,-0.043994,0.831373,-1.12541,0.0102258,0,0,0,0,0,0,0,0.00970816,-0.196268,-0.333559,-1.65831,0.0270819,1.44395,0.401373,0.00788668,-0.0139913,0.0145798,0.005914,0.679808,-0.316525,-0.000971792,0.717655,-25.3618,2.86134,25.7092,0.116879,2.73461,-0.0227812,-0.989952,-1.03461,1.19024,1.07482,-0.497334,-0.516542,-0.401624,-0.182803,-0.745803,-0.265681,0.180968,-0.810794,-0.0221661,
0.0141115,-0.197104,-0.328802,-1.65917,0.0295816,-0.149043,-0.383608,0.174276,-0.0182214,0.194737,-0.0486824,0.856155,-1.16448,0.00992852,0,0,0,0,0,0,0,0.00970816,-0.196268,-0.333559,-1.65831,0.0270819,1.44395,0.401373,0.00788668,-0.0139913,0.0145798,0.005914,0.679808,-0.316525,-0.000971792,0.717655,-25.3618,2.86134,25.7092,0.116879,2.73461,-0.0227812,-0.989952,-1.03461,1.19024,1.07482,-0.497334,-0.516542,-0.401624,-0.182803,-0.745803,-0.265681,0.180968,-0.810794,-0.0221661,
0.014836,-0.197164,-0.327993,-1.65938,0.0330981,-0.15383,-0.38357,0.181127,-0.0149992,0.202344,-0.0528095,0.879128,-1.19671,0.00965685,0,0,0,0,0,0,0,0.00970816,-0.196268,-0.333559,-1.65831,0.0270819,1.44395,0.401373,0.00788668,-0.0139913,0.0145798,0.005914,0.679808,-0.316525,-0.000971792,0.717655,-25.3618,2.86134,25.7092,0.116879,2.73461,-0.0227812,-0.924503,-1.60435,1.37773,1.21182,-0.500934,-0.760659,-0.66569,-0.206438,-0.958069,-0.136702,-0.0866172,-0.734462,-0.017442,
0.015584,-0.197211,-0.327157,-1.65961,0.0366986,-0.158723,-0.383532,0.18699,-0.0117233,0.208821,-0.0564132,0.900121,-1.22328,0.00940353,0,0,0,0,0,0,0,0.0106232,-0.196365,-0.332182,-1.6583,0.045115,1.4326,0.401376,0.041182,-0.00275543,0.0528443,0.00386165,0.587768,-0.438254,0.000292871,1.85627,-25.2864,4.03566,25.0864,1.75384,1.6671,-0.0429228,-0.593585,-1.14945,1.23824,0.883573,-0.144029,-0.489512,-0.420253,0.0435679,-0.63636,-0.272661,-0.0874166,-0.787098,-0.0175772,
0.0163522,-0.197247,-0.3263,-1.65986,0.0403752,-0.163665,-0.383495,0.192043,-0.00908981,0.214465,-0.0614235,0.91914,-1.23562,0.00921291,0,0,0,0,0,0,0,0.0106232,-0.196365,-0.332182,-1.6583,0.045115,1.4326,0.401376,0.041182,-0.00275543,0.0528443,0.00386165,0.587768,-0.438254,0.000292871,1.85627,-25.2864,4.03566,25.0864,1.75384,1.6671,-0.0429228,-0.593585,-1.14945,1.23824,0.883573,-0.144029,-0.489512,-0.420253,0.0435679,-0.63636,-0.272661,-0.0874166,-0.787098,-0.0175772,
0.0171378,-0.197273,-0.325422,-1.66012,0.0441201,-0.168612,-0.383459,0.196417,-0.00653958,0.219294,-0.0664728,0.936223,-1.23673,0.009036,0,0,0,0,0,0,0,0.0106232,-0.196365,-0.332182,-1.6583,0.045115,1.4326,0.401376,0.041182,-0.00275543,0.0528443,0.00386165,0.587768,-0.438254,0.000292871,1.85627,-25.2864,4.03566,25.0864,1.75384,1.6671,-0.0429228,-0.861944,-0.42289,1.46022,0.395337,-0.433059,-0.201663,-0.140556,-0.153098,-0.298811,-0.185656,0.0235997,-0.82856,-0.0179128,
0.0179385,-0.197288,-0.324529,-1.6604,0.0479257,-0.173536,-0.383423,0.200176,-0.00380005,0.223395,-0.0706461,0.951415,-1.23088,0.0088592,0,0,0,0,0,0,0,0.0106232,-0.196365,-0.332182,-1.6583,0.045115,1.4326,0.401376,0.041182,-0.00275543,0.0528443,0.00386165,0.587768,-0.438254,0.000292871,1.85627,-25.2864,4.03566,25.0864,1.75384,1.6671,-0.0429228,-0.861944,-0.42289,1.46022,0.395337,-0.433059,-0.201663,-0.140556,-0.153098,-0.298811,-0.185656,0.0235997,-0.82856,-0.0179128,
0.0187521,-0.197292,-0.323621,-1.6607,0.0517849,-0.178418,-0.383389,0.203384,-0.000945643,0.226884,-0.0738758,0.9648,-1.22042,0.00868185,0,0,0,0,0,0,0,0.0106232,-0.196365,-0.332182,-1.6583,0.045115,1.4326,0.401376,0.041182,-0.00275543,0.0528443,0.00386165,0.587768,-0.438254,0.000292871,1.85627,-25.2864,4.03566,25.0864,1.75384,1.6671,-0.0429228,-1.26048,-0.636243,1.09634,0.57694,-0.517738,-0.352878,-0.283714,-0.107071,-0.475418,-0.350028,-0.0434727,-0.901212,-0.0160101,
0.0195765,-0.197284,-0.322702,-1.66101,0.0556909,-0.183245,-0.383355,0.206108,0.00190173,0.229852,-0.0762965,0.976499,-1.2068,0.00850858,0,0,0,0,0,0,0,0.0122803,-0.196536,-0.33006,-1.65826,0.0643812,1.4165,0.40138,0.0625967,-0.00338415,0.0822727,-0.000772409,0.626442,-0.555753,-0.000147192,2.01099,-24.7865,4.11104,24.6103,1.81518,1.38878,-0.0429228,-1.26048,-0.636243,1.09634,0.57694,-0.517738,-0.352878,-0.283714,-0.107071,-0.475418,-0.350028,-0.0434727,-0.901212,-0.0160101,
0.0204101,-0.197266,-0.321772,-1.66132,0.0596375,-0.188009,-0.383321,0.208406,0.00464483,0.232371,-0.0780649,0.986654,-1.191,0.00833794,0,0,0,0,0,0,0,0.0122803,-0.196536,-0.33006,-1.65826,0.0643812,1.4165,0.40138,0.0625967,-0.00338415,0.0822727,-0.000772409,0.626442,-0.555753,-0.000147192,2.01099,-24.7865,4.11104,24.6103,1.81518,1.38878,-0.0429228,-1.75164,-1.35757,0.823049,1.1051,-0.680322,-0.7402,-0.666799,-0.11021,-0.914826,-0.490008,-0.154379,-0.98473,-0.0165434,
0.0212514,-0.197237,-0.320834,-1.66163,0.0636192,-0.192704,-0.383289,0.210328,0.00722053,0.234497,-0.0793155,0.995416,-1.17369,0.00817188,0,0,0,0,0,0,0,0.0122803,-0.196536,-0.33006,-1.65826,0.0643812,1.4165,0.40138,0.0625967,-0.00338415,0.0822727,-0.000772409,0.626442,-0.555753,-0.000147192,2.01099,-24.7865,4.11104,24.6103,1.81518,1.38878,-0.0429228,-2.00825,-1.04819,0.801187,0.951928,-0.836504,-0.633561,-0.56285,-0.180645,-0.797966,-0.52364,-0.0810321,-1.04655,-0.0157733,
0.0220991,-0.197199,-0.319889,-1.66196,0.0676309,-0.197325,-0.383257,0.211914,0.00959358,0.236274,-0.0801547,1.00293,-1.15535,0.00800964,0,0,0,0,0,0,0,0.0122803,-0.196536,-0.33006,-1.65826,0.0643812,1.4165,0.40138,0.0625967,-0.00338415,0.0822727,-0.000772409,0.626442,-0.555753,-0.000147192,2.01099,-24.7865,4.11104,24.6103,1.81518,1.38878,-0.0429228,-2.00825,-1.04819,0.801187,0.951928,-0.836504,-0.633561,-0.56285,-0.180645,-0.797966,-0.52364,-0.0810321,-1.04655,-0.0157733,
0.0229519,-0.197152,-0.318938,-1.66228,0.0716682,-0.20187,-0.383225,0.213201,0.0117486,0.237742,-0.0806649,1.00933,-1.13631,0.00785154,0,0,0,0,0,0,0,0.0122803,-0.196536,-0.33006,-1.65826,0.0643812,1.4165,0.40138,0.0625967,-0.00338415,0.0822727,-0.000772409,0.626442,-0.555753,-0.000147192,2.01099,-24.7865,4.11104,24.6103,1.81518,1.38878,-0.0429228,-1.70696,-0.349443,0.77917,0.624651,-0.609804,-0.266711,-0.200605,-0.0532588,-0.416131,-0.611681,0.134103,-1.10224,-0.0134274,
0.0238088,-0.197097,-0.317983,-1.6626,0.0757273,-0.206337,-0.383194,0.21422,0.0136834,0.238932,-0.08091,1.01475,-1.11682,0.00769742,0,0,0,0,0,0,0,0.0122803,-0.196536,-0.33006,-1.65826,0.0643812,1.4165,0.40138,0.0625967,-0.00338415,0.0822727,-0.000772409,0.626442,-0.555753,-0.000147192,2.01099,-24.7865,4.11104,24.6103,1.81518,1.38878,-0.0429228,-1.70696,-0.349443,0.77917,0.624651,-0.609804,-0.266711,-0.200605,-0.0532588,-0.416131,-0.611681,0.134103,-1.10224,-0.0134274,
0.0246688,-0.197035,-0.317023,-1.66293,0.0798044,-0.210726,-0.383164,0.214999,0.0154041,0.239873,-0.0809397,1.0193,-1.09707,0.00754741,0,0,0,0,0,0,0,0.014726,-0.196631,-0.326887,-1.65842,0.0849746,1.39775,0.401382,0.0826967,0.00128164,0.112583,-0.00699644,0.60365,-0.60873,-0.000389713,1.98322,-24.7627,3.91267,24.5627,2.40112,1.22307,-0.0301054,-1.71275,0.0672183,0.504346,0.524519,-0.484833,-0.0767968,-0.0167778,0.072876,-0.232521,-0.791108,0.306371,-1.1861,-0.0125853,
0.025531,-0.196968,-0.316061,-1.66325,0.0838967,-0.215034,-0.383135,0.215562,0.016922,0.240591,-0.0807932,1.02307,-1.07718,0.00740041,0,0,0,0,0,0,0,0.014726,-0.196631,-0.326887,-1.65842,0.0849746,1.39775,0.401382,0.0826967,0.00128164,0.112583,-0.00699644,0.60365,-0.60873,-0.000389713,1.98322,-24.7627,3.91267,24.5627,2.40112,1.22307,-0.0301054,-1.71275,0.0672183,0.504346,0.524519,-0.484833,-0.0767968,-0.0167778,0.072876,-0.232521,-0.791108,0.306371,-1.1861,-0.0125853,
0.0263947,-0.196895,-0.315096,-1.66357,0.0880013,-0.219263,-0.383106,0.215932,0.018251,0.241107,-0.0805017,1.02615,-1.05724,0.00725795,0,0,0,0,0,0,0,0.014726,-0.196631,-0.326887,-1.65842,0.0849746,1.39775,0.401382,0.0826967,0.00128164,0.112583,-0.00699644,0.60365,-0.60873,-0.000389713,1.98322,-24.7627,3.91267,24.5627,2.40112,1.22307,-0.0301054,-1.90836,0.550478,0.392167,0.317617,-0.662327,0.0983426,0.156252,-0.039243,-0.0495562,-0.784929,0.47645,-1.16872,-0.0134406,
0.0272593,-0.196817,-0.314131,-1.66389,0.0921159,-0.223413,-0.383077,0.21613,0.0194065,0.241443,-0.0800899,1.02863,-1.03733,0.0071185,0,0,0,0,0,0,0,0.014726,-0.196631,-0.326887,-1.65842,0.0849746,1.39775,0.401382,0.0826967,0.00128164,0.112583,-0.00699644,0.60365,-0.60873,-0.000389713,1.98322,-24.7627,3.91267,24.5627,2.40112,1.22307,-0.0301054,-1.80918,0.733262,0.209821,0.333768,-0.597005,0.180863,0.235779,-0.00855716,0.0187686,-0.824722,0.628318,-1.12912,-0.0139209,
0.028124,-0.196735,-0.313164,-1.66421,0.0962382,-0.227483,-0.383049,0.216173,0.020404,0.241617,-0.0795782,1.03058,-1.0175,0.00698213,0,0,0,0,0,0,0,0.014726,-0.196631,-0.326887,-1.65842,0.0849746,1.39775,0.401382,0.0826967,0.00128164,0.112583,-0.00699644,0.60365,-0.60873,-0.000389713,1.98322,-24.7627,3.91267,24.5627,2.40112,1.22307,-0.0301054,-1.80918,0.733262,0.209821,0.333768,-0.597005,0.180863,0.235779,-0.00855716,0.0187686,-0.824722,0.628318,-1.12912,-0.0139209,
0.0289883,-0.19665,-0.312198,-1.66453,0.100366,-0.231474,-0.383022,0.216077,0.0212586,0.241645,-0.0789833,1.03204,-0.997784,0.00684932,0,0,0,0,0,0,0,0.017687,-0.196609,-0.322944,-1.65861,0.10426,1.37777,0.401376,0.0898209,0.00462004,0.137092,-0.00874648,0.599879,-0.630967,-0.00156882,1.78089,-25.0127,3.51198,24.5627,2.74902,1.5078,-0.0026396,-1.7947,1.08677,-0.203923,0.248229,-0.469553,0.331121,0.392244,0.112495,0.154387,-0.978314,0.766622,-1.13031,-0.0149098,
0.0298517,-0.196562,-0.311231,-1.66484,0.104499,-0.235387,-0.382995,0.215857,0.021985,0.241543,-0.078319,1.03309,-0.978215,0.00671865,0,0,0,0,0,0,0,0.017687,-0.196609,-0.322944,-1.65861,0.10426,1.37777,0.401376,0.0898209,0.00462004,0.137092,-0.00874648,0.599879,-0.630967,-0.00156882,1.78089,-25.0127,3.51198,24.5627,2.74902,1.5078,-0.0026396,-1.7947,1.08677,-0.203923,0.248229,-0.469553,0.331121,0.392244,0.112495,0.154387,-0.978314,0.766622,-1.13031,-0.0149098,
0.0112921,-0.196893,-0.332018,-1.65888,0.00925281,-0.123854,-0.383855,0.178937,-0.0593053,0.192277,-0.0627666,0.571161,-0.732046,0.013636,0,0,0,0,0,0,0,0.017687,-0.196609,-0.322944,-1.65861,0.10426,1.37777,0.401376,0.0898209,0.00462004,0.137092,-0.00874648,0.599879,-0.630967,-0.00156882,1.78089,-25.0127,3.51198,24.5627,2.74902,1.5078,-0.0026396,-1.85554,0.756023,-0.374682,0.564252,-0.555317,0.147816,0.222651,0.0415305,-0.0769184,-0.946737,0.825085,-1.03106,-0.0126366,
0.0200791,-0.19702,-0.32033,-1.65947,0.111151,-0.202582,-0.383864,0.232306,-0.0398034,0.256306,-0.0848931,0.586573,-0.880109,0.0127963,0,0,0,0,0,0,0,0.017687,-0.196609,-0.322944,-1.65861,0.10426,1.37777,0.401376,0.0898209,0.00462004,0.137092,-0.00874648,0.599879,-0.630967,-0.00156882,1.78089,-25.0127,3.51198,24.5627,2.74902,1.5078,-0.0026396,-1.9933,0.881926,-0.600875,0.517398,-0.643876,0.165859,0.235537,-0.00173176,-0.0538401,-0.952824,0.865829,-0.9689,-0.0130767,
0.0211052,-0.197177,-0.319191,-1.65984,0.113609,-0.206381,-0.383815,0.256514,-0.0391985,0.284853,-0.0914178,0.614402,-0.949857,0.0122713,0,0,0,0,0,0,0,0.017687,-0.196609,-0.322944,-1.65861,0.10426,1.37777,0.401376,0.0898209,0.00462004,0.137092,-0.00874648,0.599879,-0.630967,-0.00156882,1.78089,-25.0127,3.51198,24.5627,2.74902,1.5078,-0.0026396,-1.9933,0.881926,-0.600875,0.517398,-0.643876,0.165859,0.235537,-0.00173176,-0.0538401,-0.952824,0.865829,-0.9689,-0.0130767,
0.0222108,-0.197324,-0.317959,-1.66022,0.116198,-0.210416,-0.383768,0.276394,-0.0368465,0.308053,-0.0966266,0.647253,-1.00859,0.0118088,0,0,0,0,0,0,0,0.017687,-0.196609,-0.322944,-1.65861,0.10426,1.37777,0.401376,0.0898209,0.00462004,0.137092,-0.00874648,0.599879,-0.630967,-0.00156882,1.78089,-25.0127,3.51198,24.5627,2.74902,1.5078,-0.0026396,-2.03598,2.11878,-0.708752,-0.364034,-0.681371,0.708815,0.765476,-0.0148134,0.58134,-0.951663,0.955307,-0.957398,-0.0138157,
0.0233823,-0.197458,-0.31665,-1.66063,0.118926,-0.214646,-0.383722,0.292889,-0.0335818,0.327108,-0.101133,0.682055,-1.05762,0.0113912,0,0,0,0,0,0,0,0.0222511,-0.196549,-0.316691,-1.65938,0.128651,1.35075,0.401384,0.127211,-0.00347112,0.144037,-0.0380892,0.426397,-0.542533,-0.000689978,-0.325741,-25.5879,1.66322,26.0822,1.6806,2.64214,-0.0301054,-2.03598,2.11878,-0.708752,-0.364034,-0.681371,0.708815,0.765476,-0.0148134,0.58134,-0.951663,0.955307,-0.957398,-0.0138157,
0.0246092,-0.197579,-0.315278,-1.66105,0.121793,-0.219023,-0.383678,0.306724,-0.0301316,0.342964,-0.105905,0.716829,-1.09432,0.0110316,0,0,0,0,0,0,0,0.0222511,-0.196549,-0.316691,-1.65938,0.128651,1.35075,0.401384,0.127211,-0.00347112,0.144037,-0.0380892,0.426397,-0.542533,-0.000689978,-0.325741,-25.5879,1.66322,26.0822,1.6806,2.64214,-0.0301054,-2.77061,2.21487,-0.279672,-0.592352,-1.50708,0.62475,0.668473,-0.590892,0.550343,-0.580101,0.895953,-0.835488,-0.0123448,
0.0258832,-0.197687,-0.313853,-1.6615,0.124794,-0.223475,-0.383635,0.318484,-0.0270363,0.356355,-0.111932,0.75032,-1.11295,0.0107513,0,0,0,0,0,0,0,0.0222511,-0.196549,-0.316691,-1.65938,0.128651,1.35075,0.401384,0.127211,-0.00347112,0.144037,-0.0380892,0.426397,-0.542533,-0.000689978,-0.325741,-25.5879,1.66322,26.0822,1.6806,2.64214,-0.0301054,-2.77061,2.21487,-0.279672,-0.592352,-1.50708,0.62475,0.668473,-0.590892,0.550343,-0.580101,0.895953,-0.835488,-0.0123448,
0.0271968,-0.197781,-0.312383,-1.66197,0.127922,-0.227966,-0.383593,0.328418,-0.0234252,0.367542,-0.116684,0.781807,-1.12261,0.0104318,0,0,0,0,0,0,0,0.0222511,-0.196549,-0.316691,-1.65938,0.128651,1.35075,0.401384,0.127211,-0.00347112,0.144037,-0.0380892,0.426397,-0.542533,-0.000689978,-0.325741,-25.5879,1.66322,26.0822,1.6806,2.64214,-0.0301054,-2.03426,0.760628,-0.66409,0.255852,-0.824154,0.0916338,0.160773,-0.164041,-0.0670454,-0.69714,0.575571,-0.693954,-0.0107069,
0.0285444,-0.197861,-0.310875,-1.66245,0.131165,-0.232438,-0.383553,0.336894,-0.0200734,0.377067,-0.121756,0.810854,-1.11807,0.0101649,0,0,0,0,0,0,0,0.0222511,-0.196549,-0.316691,-1.65938,0.128651,1.35075,0.401384,0.127211,-0.00347112,0.144037,-0.0380892,0.426397,-0.542533,-0.000689978,-0.325741,-25.5879,1.66322,26.0822,1.6806,2.64214,-0.0301054,-2.03426,0.760628,-0.66409,0.255852,-0.824154,0.0916338,0.160773,-0.164041,-0.0670454,-0.69714,0.575571,-0.693954,-0.0107069,
0.0299208,-0.197928,-0.309334,-1.66296,0.134514,-0.236851,-0.383513,0.344095,-0.016643,0.385117,-0.126123,0.837282,-1.10332,0.00991757,0,0,0,0,0,0,0,0.026815,-0.196765,-0.311068,-1.66058,0.141633,1.33298,0.401381,0.159589,-0.00585992,0.188704,-0.0387378,0.431889,-0.565158,-0.00063456,2.18555,-25.1357,4.11104,24.7372,2.82318,1.83922,-0.0026396,-2.29474,0.563616,-0.824627,0.25843,-0.926426,-0.0151788,0.0513069,-0.178507,-0.156903,-0.717297,0.403533,-0.685061,-0.0129757,
0.0313214,-0.19798,-0.307767,-1.66347,0.137958,-0.241183,-0.383474,0.350145,-0.0130108,0.39187,-0.129198,0.861067,-1.08293,0.0096777,0,0,0,0,0,0,0,0.026815,-0.196765,-0.311068,-1.66058,0.141633,1.33298,0.401381,0.159589,-0.00585992,0.188704,-0.0387378,0.431889,-0.565158,-0.00063456,2.18555,-25.1357,4.11104,24.7372,2.82318,1.83922,-0.0026396,-1.94918,0.582367,-1.01235,0.258483,-0.593427,0.0430925,0.08804,0.0398555,-0.083963,-0.819219,0.40254,-0.67564,-0.0124863,
0.0327421,-0.198017,-0.306177,-1.664,0.141488,-0.24542,-0.383436,0.35518,-0.00933227,0.397508,-0.131125,0.882285,-1.05929,0.00944266,0,0,0,0,0,0,0,0.026815,-0.196765,-0.311068,-1.66058,0.141633,1.33298,0.401381,0.159589,-0.00585992,0.188704,-0.0387378,0.431889,-0.565158,-0.00063456,2.18555,-25.1357,4.11104,24.7372,2.82318,1.83922,-0.0026396,-1.94918,0.582367,-1.01235,0.258483,-0.593427,0.0430925,0.08804,0.0398555,-0.083963,-0.819219,0.40254,-0.67564,-0.0124863,
0.0341794,-0.19804,-0.304568,-1.66453,0.145092,-0.249555,-0.3834,0.359331,-0.0057656,0.402186,-0.132163,0.901077,-1.03378,0.00921778,0,0,0,0,0,0,0,0.026815,-0.196765,-0.311068,-1.66058,0.141633,1.33298,0.401381,0.159589,-0.00585992,0.188704,-0.0387378,0.431889,-0.565158,-0.00063456,2.18555,-25.1357,4.11104,24.7372,2.82318,1.83922,-0.0026396,-2.27545,0.207752,-0.994364,0.458784,-0.824628,-0.161073,-0.111737,-0.0859436,-0.30203,-0.778674,0.310958,-0.673843,-0.0114783,
0.0356302,-0.19805,-0.302944,-1.66506,0.148762,-0.253584,-0.383364,0.362708,-0.00241759,0.406033,-0.132541,0.917616,-1.00725,0.00900142,0,0,0,0,0,0,0,0.026815,-0.196765,-0.311068,-1.66058,0.141633,1.33298,0.401381,0.159589,-0.00585992,0.188704,-0.0387378,0.431889,-0.565158,-0.00063456,2.18555,-25.1357,4.11104,24.7372,2.82318,1.83922,-0.0026396,-2.23067,-0.649693,-1.54067,1.02734,-0.494933,-0.514084,-0.457657,0.218636,-0.711162,-1.03566,0.124242,-0.706698,-0.0124128,
0.0370919,-0.198047,-0.301307,-1.66559,0.152491,-0.257505,-0.383328,0.365409,0.000653069,0.409154,-0.132433,0.932092,-0.980233,0.00879584,0,0,0,0,0,0,0,0.0317888,-0.197003,-0.30487,-1.66187,0.156575,1.3158,0.401382,0.169996,-0.00430606,0.22307,-0.0473589,0.54385,-0.564675,-0.00089516,2.01099,-24.5644,3.93648,24.5111,2.10815,1.46203,-0.0163725,-2.23067,-0.649693,-1.54067,1.02734,-0.494933,-0.514084,-0.457657,0.218636,-0.711162,-1.03566,0.124242,-0.706698,-0.0124128,
0.038562,-0.198033,-0.299661,-1.66611,0.156269,-0.261317,-0.383294,0.367517,0.00342195,0.411639,-0.131962,0.944693,-0.953071,0.0086004,0,0,0,0,0,0,0,0.0317888,-0.197003,-0.30487,-1.66187,0.156575,1.3158,0.401382,0.169996,-0.00430606,0.22307,-0.0473589,0.54385,-0.564675,-0.00089516,2.01099,-24.5644,3.93648,24.5111,2.10815,1.46203,-0.0163725,-2.88616,-0.394811,-1.39945,0.757169,-0.975391,-0.458881,-0.411399,-0.0381634,-0.611516,-0.967676,0.0623919,-0.77841,-0.0137792,
0.0400384,-0.19801,-0.298006,-1.66664,0.160092,-0.265021,-0.38326,0.369103,0.00588709,0.413566,-0.13122,0.955602,-0.925981,0.00841406,0,0,0,0,0,0,0,0.0317888,-0.197003,-0.30487,-1.66187,0.156575,1.3158,0.401382,0.169996,-0.00430606,0.22307,-0.0473589,0.54385,-0.564675,-0.00089516,2.01099,-24.5644,3.93648,24.5111,2.10815,1.46203,-0.0163725,-2.88616,-0.394811,-1.39945,0.757169,-0.975391,-0.458881,-0.411399,-0.0381634,-0.611516,-0.967676,0.0623919,-0.77841,-0.0137792,
0.0415193,-0.197978,-0.296346,-1.66716,0.163952,-0.268618,-0.383227,0.370229,0.00805967,0.415001,-0.130271,0.96499,-0.899103,0.00823622,0,0,0,0,0,0,0,0.0317888,-0.197003,-0.30487,-1.66187,0.156575,1.3158,0.401382,0.169996,-0.00430606,0.22307,-0.0473589,0.54385,-0.564675,-0.00089516,2.01099,-24.5644,3.93648,24.5111,2.10815,1.46203,-0.0163725,-2.85528,0.0683382,-0.960074,0.416209,-1.13041,-0.232342,-0.182414,-0.198214,-0.353857,-0.810627,0.147412,-0.790911,-0.0160785,
0.0430031,-0.197938,-0.294682,-1.66768,0.167844,-0.272108,-0.383195,0.37095,0.00995859,0.416001,-0.129163,0.973018,-0.872522,0.00806727,0,0,0,0,0,0,0,0.0317888,-0.197003,-0.30487,-1.66187,0.156575,1.3158,0.401382,0.169996,-0.00430606,0.22307,-0.0473589,0.54385,-0.564675,-0.00089516,2.01099,-24.5644,3.93648,24.5111,2.10815,1.46203,-0.0163725,-2.46653,0.029056,-0.954083,0.564081,-0.831135,-0.199508,-0.137425,-0.0350952,-0.359562,-0.88387,0.264201,-0.813926,-0.0147085,
0.0444883,-0.197891,-0.293016,-1.66819,0.171763,-0.275493,-0.383164,0.371314,0.0116061,0.416619,-0.12793,0.979829,-0.846292,0.00790462,0,0,0,0,0,0,0,0.0317888,-0.197003,-0.30487,-1.66187,0.156575,1.3158,0.401382,0.169996,-0.00430606,0.22307,-0.0473589,0.54385,-0.564675,-0.00089516,2.01099,-24.5644,3.93648,24.5111,2.10815,1.46203,-0.0163725,-2.46653,0.029056,-0.954083,0.564081,-0.831135,-0.199508,-0.137425,-0.0350952,-0.359562,-0.88387,0.264201,-0.813926,-0.0147085,
0.0459738,-0.197839,-0.291348,-1.6687,0.175705,-0.278775,-0.383133,0.371363,0.0130259,0.416899,-0.126601,0.985556,-0.820446,0.00775073,0,0,0,0,0,0,0,0.0375858,-0.197033,-0.297542,-1.66347,0.17464,1.29892,0.401387,0.208359,-0.00481716,0.245836,-0.0555116,0.576254,-0.525542,0.000269628,2.13398,-24.6636,3.78572,24.3127,2.67578,1.52794,-0.0630644,-2.92431,-0.39101,-1.23491,1.01475,-1.00159,-0.447924,-0.371326,-0.0675127,-0.675667,-1.03269,0.331804,-0.896425,-0.0126255,
0.0474583,-0.197782,-0.289681,-1.6692,0.179667,-0.281955,-0.383102,0.371135,0.0142414,0.416879,-0.125194,0.990319,-0.795001,0.00760242,0,0,0,0,0,0,0,0.0375858,-0.197033,-0.297542,-1.66347,0.17464,1.29892,0.401387,0.208359,-0.00481716,0.245836,-0.0555116,0.576254,-0.525542,0.000269628,2.13398,-24.6636,3.78572,24.3127,2.67578,1.52794,-0.0630644,-2.92431,-0.39101,-1.23491,1.01475,-1.00159,-0.447924,-0.371326,-0.0675127,-0.675667,-1.03269,0.331804,-0.896425,-0.0126255,
0.048941,-0.197721,-0.288014,-1.66969,0.183644,-0.285035,-0.383072,0.370661,0.0152746,0.416597,-0.123728,0.994225,-0.769966,0.00746005,0,0,0,0,0,0,0,0.0375858,-0.197033,-0.297542,-1.66347,0.17464,1.29892,0.401387,0.208359,-0.00481716,0.245836,-0.0555116,0.576254,-0.525542,0.000269628,2.13398,-24.6636,3.78572,24.3127,2.67578,1.52794,-0.0630644,-2.83264,-0.674626,-1.34857,1.34161,-0.914109,-0.58147,-0.49905,-0.0228861,-0.857244,-1.08062,0.431324,-0.876851,-0.0116048,
0.0504209,-0.197657,-0.28635,-1.67018,0.187633,-0.288016,-0.383043,0.369972,0.0161464,0.416082,-0.122213,0.997372,-0.745346,0.00732433,0,0,0,0,0,0,0,0.0375858,-0.197033,-0.297542,-1.66347,0.17464,1.29892,0.401387,0.208359,-0.00481716,0.245836,-0.0555116,0.576254,-0.525542,0.000269628,2.13398,-24.6636,3.78572,24.3127,2.67578,1.52794,-0.0630644,-2.83264,-0.674626,-1.34857,1.34161,-0.914109,-0.58147,-0.49905,-0.0228861,-0.857244,-1.08062,0.431324,-0.876851,-0.0116048,
0.0518972,-0.197589,-0.284689,-1.67066,0.191632,-0.290901,-0.383014,0.369094,0.0168757,0.415362,-0.120662,0.999845,-0.721139,0.00719227,0,0,0,0,0,0,0,0.0375858,-0.197033,-0.297542,-1.66347,0.17464,1.29892,0.401387,0.208359,-0.00481716,0.245836,-0.0555116,0.576254,-0.525542,0.000269628,2.13398,-24.6636,3.78572,24.3127,2.67578,1.52794,-0.0630644,-2.31816,0.720241,-0.989845,0.458768,-0.7487,0.0917109,0.158783,-0.011978,-0.102641,-0.961006,0.706735,-0.85094,-0.0134011,
0.0533694,-0.197519,-0.283031,-1.67114,0.195639,-0.29369,-0.382986,0.368048,0.0174798,0.414462,-0.119083,1.00172,-0.697345,0.00706659,0,0,0,0,0,0,0,0.0447914,-0.196952,-0.288992,-1.66521,0.192888,1.28408,0.401387,0.219321,-3.01273e-05,0.275352,-0.0623229,0.552149,-0.434473,0.000296205,2.08637,-25.4372,3.63893,24.5111,2.96325,1.54168,-0.0566557,-2.26772,1.74263,-0.723671,-0.197475,-0.854545,0.554867,0.621143,-0.121478,0.415108,-0.855896,0.893157,-0.854257,-0.018011,
0.0207028,-0.197328,-0.319679,-1.65996,0.110115,-0.201678,-0.383877,0.301671,-0.0692177,0.331905,-0.134276,0.47869,-0.766737,0.0118385,0,0,0,0,0,0,0,0.0447914,-0.196952,-0.288992,-1.66521,0.192888,1.28408,0.401387,0.219321,-3.01273e-05,0.275352,-0.0623229,0.552149,-0.434473,0.000296205,2.08637,-25.4372,3.63893,24.5111,2.96325,1.54168,-0.0566557,-2.26772,1.74263,-0.723671,-0.197475,-0.854545,0.554867,0.621143,-0.121478,0.415108,-0.855896,0.893157,-0.854257,-0.018011,
0.048746,-0.197367,-0.284602,-1.66671,0.199344,-0.293212,-0.383878,0.364835,-0.0392235,0.407186,-0.138762,0.552966,-0.590514,0.0109454,0,0,0,0,0,0,0,0.0447914,-0.196952,-0.288992,-1.66521,0.192888,1.28408,0.401387,0.219321,-3.01273e-05,0.275352,-0.0623229,0.552149,-0.434473,0.000296205,2.08637,-25.4372,3.63893,24.5111,2.96325,1.54168,-0.0566557,-2.03124,2.18609,-0.878836,-0.405614,-0.628771,0.773311,0.848084,0.0269813,0.632599,-0.946725,1.01803,-0.860332,-0.0183898,
0.0503092,-0.197518,-0.282851,-1.66729,0.201673,-0.295725,-0.383836,0.390783,-0.0377221,0.437795,-0.145108,0.582248,-0.628151,0.0106418,0,0,0,0,0,0,0,0.0447914,-0.196952,-0.288992,-1.66521,0.192888,1.28408,0.401387,0.219321,-3.01273e-05,0.275352,-0.0623229,0.552149,-0.434473,0.000296205,2.08637,-25.4372,3.63893,24.5111,2.96325,1.54168,-0.0566557,-2.03124,2.18609,-0.878836,-0.405614,-0.628771,0.773311,0.848084,0.0269813,0.632599,-0.946725,1.01803,-0.860332,-0.0183898,
0.051957,-0.197657,-0.281,-1.66789,0.204138,-0.298347,-0.383794,0.411957,-0.0346519,0.462581,-0.149802,0.61617,-0.655402,0.0103286,0,0,0,0,0,0,0,0.0447914,-0.196952,-0.288992,-1.66521,0.192888,1.28408,0.401387,0.219321,-3.01273e-05,0.275352,-0.0623229,0.552149,-0.434473,0.000296205,2.08637,-25.4372,3.63893,24.5111,2.96325,1.54168,-0.0566557,-2.50192,2.73925,-0.770827,-0.721856,-1.06993,0.950904,1.03371,-0.251257,0.828195,-0.837136,1.1534,-0.848779,-0.0202272,
0.053675,-0.197782,-0.279069,-1.66851,0.206744,-0.301014,-0.383754,0.429494,-0.031336,0.482944,-0.154788,0.651727,-0.666759,0.0101325,0,0,0,0,0,0,0,0.0447914,-0.196952,-0.288992,-1.66521,0.192888,1.28408,0.401387,0.219321,-3.01273e-05,0.275352,-0.0623229,0.552149,-0.434473,0.000296205,2.08637,-25.4372,3.63893,24.5111,2.96325,1.54168,-0.0566557,-2.16947,2.52929,-0.854249,-0.590006,-0.801467,0.890065,0.948633,-0.0962176,0.775351,-0.872432,1.12726,-0.807392,-0.0180503,
0.0554506,-0.197891,-0.27707,-1.66914,0.209493,-0.303702,-0.383714,0.443898,-0.0271562,0.499571,-0.157886,0.687044,-0.67219,0.00985873,0,0,0,0,0,0,0,0.0546934,-0.1968,-0.277056,-1.66759,0.212744,1.26867,0.401386,0.263346,0.00225144,0.304457,-0.0599802,0.33405,-0.291363,-0.00122407,1.90784,-26.187,3.11128,24.2889,2.19329,1.57464,-0.00996382,-2.16947,2.52929,-0.854249,-0.590006,-0.801467,0.890065,0.948633,-0.0962176,0.775351,-0.872432,1.12726,-0.807392,-0.0180503,
0.0572741,-0.197983,-0.275017,-1.66979,0.212376,-0.306368,-0.383676,0.455882,-0.0231495,0.513334,-0.160965,0.720878,-0.666454,0.00962701,0,0,0,0,0,0,0,0.0546934,-0.1968,-0.277056,-1.66759,0.212744,1.26867,0.401386,0.263346,0.00225144,0.304457,-0.0599802,0.33405,-0.291363,-0.00122407,1.90784,-26.187,3.11128,24.2889,2.19329,1.57464,-0.00996382,-2.723,-0.345061,-1.08407,1.22788,-1.10839,-0.449295,-0.348837,-0.270571,-0.740052,-0.834974,0.679606,-0.700492,-0.0132712,
0.0591373,-0.19806,-0.272918,-1.67044,0.215386,-0.308979,-0.383638,0.465803,-0.0191406,0.524698,-0.163343,0.752517,-0.652825,0.00941868,0,0,0,0,0,0,0,0.0546934,-0.1968,-0.277056,-1.66759,0.212744,1.26867,0.401386,0.263346,0.00225144,0.304457,-0.0599802,0.33405,-0.291363,-0.00122407,1.90784,-26.187,3.11128,24.2889,2.19329,1.57464,-0.00996382,-2.723,-0.345061,-1.08407,1.22788,-1.10839,-0.449295,-0.348837,-0.270571,-0.740052,-0.834974,0.679606,-0.700492,-0.0132712,
0.061033,-0.19812,-0.270782,-1.6711,0.218513,-0.31152,-0.383601,0.473924,-0.0150562,0.534016,-0.164608,0.781608,-0.635185,0.00922413,0,0,0,0,0,0,0,0.0546934,-0.1968,-0.277056,-1.66759,0.212744,1.26867,0.401386,0.263346,0.00225144,0.304457,-0.0599802,0.33405,-0.291363,-0.00122407,1.90784,-26.187,3.11128,24.2889,2.19329,1.57464,-0.00996382,-3.53803,-0.956345,-1.03606,1.52665,-1.73133,-0.78707,-0.671249,-0.631185,-1.09864,-0.709479,0.511799,-0.682417,-0.0146839,
0.062955,-0.198164,-0.268616,-1.67176,0.221745,-0.313982,-0.383565,0.480504,-0.0110505,0.541604,-0.164948,0.80802,-0.615403,0.0090355,0,0,0,0,0,0,0,0.0546934,-0.1968,-0.277056,-1.66759,0.212744,1.26867,0.401386,0.263346,0.00225144,0.304457,-0.0599802,0.33405,-0.291363,-0.00122407,1.90784,-26.187,3.11128,24.2889,2.19329,1.57464,-0.00996382,-3.53803,-0.956345,-1.03606,1.52665,-1.73133,-0.78707,-0.671249,-0.631185,-1.09864,-0.709479,0.511799,-0.682417,-0.0146839,
0.0648981,-0.198194,-0.266425,-1.67242,0.225072,-0.31636,-0.38353,0.485771,-0.00726179,0.547727,-0.164617,0.831757,-0.59447,0.00885982,0,0,0,0,0,0,0,0.0635156,-0.196894,-0.265799,-1.66987,0.225091,1.25986,0.401388,0.279191,-0.0050033,0.336443,-0.0777051,0.409197,-0.233108,-0.000834661,3.1496,-25.211,4.68629,24.4357,2.82867,1.24962,-0.0365141,-2.72288,0.0914969,-1.11471,0.790003,-1.02788,-0.195348,-0.125204,-0.17651,-0.40887,-0.885406,0.593948,-0.755882,-0.0158642,
0.0668577,-0.198209,-0.264214,-1.67307,0.228483,-0.318652,-0.383495,0.489914,-0.00377333,0.552603,-0.163814,0.852913,-0.572946,0.00869347,0,0,0,0,0,0,0,0.0635156,-0.196894,-0.265799,-1.66987,0.225091,1.25986,0.401388,0.279191,-0.0050033,0.336443,-0.0777051,0.409197,-0.233108,-0.000834661,3.1496,-25.211,4.68629,24.4357,2.82867,1.24962,-0.0365141,-2.72288,0.0914969,-1.11471,0.790003,-1.02788,-0.195348,-0.125204,-0.17651,-0.40887,-0.885406,0.593948,-0.755882,-0.0158642,
0.0688301,-0.198211,-0.261989,-1.67372,0.23197,-0.320856,-0.383461,0.493093,-0.000622364,0.556415,-0.162678,0.87163,-0.551161,0.00853788,0,0,0,0,0,0,0,0.0635156,-0.196894,-0.265799,-1.66987,0.225091,1.25986,0.401388,0.279191,-0.0050033,0.336443,-0.0777051,0.409197,-0.233108,-0.000834661,3.1496,-25.211,4.68629,24.4357,2.82867,1.24962,-0.0365141,-2.63046,0.734404,-1.11946,0.209091,-0.908817,0.161732,0.233005,-0.0667786,0.0106874,-0.92544,0.521198,-0.805238,-0.0207609,
0.0708119,-0.198202,-0.259752,-1.67437,0.235522,-0.322973,-0.383427,0.495443,0.00218458,0.559312,-0.161305,0.888078,-0.529315,0.00839302,0,0,0,0,0,0,0,0.0635156,-0.196894,-0.265799,-1.66987,0.225091,1.25986,0.401388,0.279191,-0.0050033,0.336443,-0.0777051,0.409197,-0.233108,-0.000834661,3.1496,-25.211,4.68629,24.4357,2.82867,1.24962,-0.0365141,-2.43878,-0.319949,-1.75677,0.795544,-0.464768,-0.258139,-0.183655,0.294729,-0.454475,-1.18061,0.233021,-0.790896,-0.0180501,
0.0728002,-0.198184,-0.257506,-1.67501,0.239132,-0.325004,-0.383394,0.497076,0.00465946,0.561422,-0.159758,0.902444,-0.507532,0.00825797,0,0,0,0,0,0,0,0.0635156,-0.196894,-0.265799,-1.66987,0.225091,1.25986,0.401388,0.279191,-0.0050033,0.336443,-0.0777051,0.409197,-0.233108,-0.000834661,3.1496,-25.211,4.68629,24.4357,2.82867,1.24962,-0.0365141,-2.43878,-0.319949,-1.75677,0.795544,-0.464768,-0.258139,-0.183655,0.294729,-0.454475,-1.18061,0.233021,-0.790896,-0.0180501,
0.0747925,-0.198156,-0.255254,-1.67564,0.242792,-0.326947,-0.383362,0.498088,0.00682386,0.562851,-0.15808,0.914911,-0.485894,0.00813008,0,0,0,0,0,0,0,0.0635156,-0.196894,-0.265799,-1.66987,0.225091,1.25986,0.401388,0.279191,-0.0050033,0.336443,-0.0777051,0.409197,-0.233108,-0.000834661,3.1496,-25.211,4.68629,24.4357,2.82867,1.24962,-0.0365141,-2.25427,-0.232589,-1.93872,0.694168,-0.197737,-0.167606,-0.102315,0.503298,-0.34667,-1.31393,0.19017,-0.840565,-0.0184297,
0.0767868,-0.198122,-0.253,-1.67626,0.246494,-0.328805,-0.38333,0.498562,0.00870438,0.563691,-0.156302,0.925663,-0.464453,0.00801191,0,0,0,0,0,0,0,0.0732953,-0.196939,-0.254079,-1.67232,0.242057,1.25324,0.401386,0.298485,0.00214419,0.367954,-0.0681764,0.553783,-0.162134,-0.000871227,2.56641,-25.3856,3.96425,24.5627,3.01178,1.36864,-0.00996382,-2.25427,-0.232589,-1.93872,0.694168,-0.197737,-0.167606,-0.102315,0.503298,-0.34667,-1.31393,0.19017,-0.840565,-0.0184297,
0.0787811,-0.19808,-0.250744,-1.67688,0.250234,-0.330578,-0.383298,0.498567,0.0103286,0.564018,-0.154446,0.934872,-0.443248,0.00789838,0,0,0,0,0,0,0,0.0732953,-0.196939,-0.254079,-1.67232,0.242057,1.25324,0.401386,0.298485,0.00214419,0.367954,-0.0681764,0.553783,-0.162134,-0.000871227,2.56641,-25.3856,3.96425,24.5627,3.01178,1.36864,-0.00996382,-2.39162,0.631495,-1.33682,0.107509,-0.546142,0.224662,0.28915,0.222011,0.100933,-1.08579,0.342867,-0.865866,-0.0178609,
0.0807737,-0.198033,-0.248488,-1.67749,0.254005,-0.332267,-0.383267,0.498164,0.0117236,0.563901,-0.152529,0.9427,-0.422308,0.00779352,0,0,0,0,0,0,0,0.0732953,-0.196939,-0.254079,-1.67232,0.242057,1.25324,0.401386,0.298485,0.00214419,0.367954,-0.0681764,0.553783,-0.162134,-0.000871227,2.56641,-25.3856,3.96425,24.5627,3.01178,1.36864,-0.00996382,-2.39162,0.631495,-1.33682,0.107509,-0.546142,0.224662,0.28915,0.222011,0.100933,-1.08579,0.342867,-0.865866,-0.0178609,
0.0827633,-0.197982,-0.246234,-1.67809,0.257802,-0.333874,-0.383236,0.497407,0.0129156,0.563395,-0.150564,0.949297,-0.401654,0.00769331,0,0,0,0,0,0,0,0.0732953,-0.196939,-0.254079,-1.67232,0.242057,1.25324,0.401386,0.298485,0.00214419,0.367954,-0.0681764,0.553783,-0.162134,-0.000871227,2.56641,-25.3856,3.96425,24.5627,3.01178,1.36864,-0.00996382,-1.98151,0.5759,-1.46132,0.213597,-0.19312,0.232313,0.313057,0.428894,0.0741251,-1.17385,0.403174,-0.852338,-0.0189336,
0.0847487,-0.197926,-0.243984,-1.67869,0.261621,-0.335399,-0.383206,0.49634,0.0139279,0.562553,-0.148562,0.954801,-0.381304,0.00759795,0,0,0,0,0,0,0,0.0732953,-0.196939,-0.254079,-1.67232,0.242057,1.25324,0.401386,0.298485,0.00214419,0.367954,-0.0681764,0.553783,-0.162134,-0.000871227,2.56641,-25.3856,3.96425,24.5627,3.01178,1.36864,-0.00996382,-2.32959,-0.710881,-1.76721,1.23079,-0.292748,-0.401785,-0.314798,0.394595,-0.667922,-1.29005,0.392871,-0.860849,-0.0140954,
0.086729,-0.197867,-0.241738,-1.67927,0.265456,-0.336844,-0.383176,0.495062,0.0147661,0.561445,-0.14651,0.958808,-0.361266,0.00750229,0,0,0,0,0,0,0,0.083639,-0.196866,-0.241758,-1.67465,0.260169,1.24963,0.401392,0.334778,0.00257494,0.408325,-0.0698118,0.576183,-0.0887535,-7.45473e-05,1.27307,-26.0838,2.46461,24.5111,3.16467,1.51513,-0.0566557,-2.32959,-0.710881,-1.76721,1.23079,-0.292748,-0.401785,-0.314798,0.394595,-0.667922,-1.29005,0.392871,-0.860849,-0.0140954,
0.0887071,-0.197806,-0.239496,-1.67985,0.269267,-0.33821,-0.383146,0.494528,0.0151854,0.560593,-0.144046,0.952741,-0.341454,0.00729013,0,0,0,0,0,0,0,0.083639,-0.196866,-0.241758,-1.67465,0.260169,1.24963,0.401392,0.334778,0.00257494,0.408325,-0.0698118,0.576183,-0.0887535,-7.45473e-05,1.27307,-26.0838,2.46461,24.5111,3.16467,1.51513,-0.0566557,-2.80643,-1.35706,-1.24064,1.74402,-0.895121,-0.751224,-0.667752,-0.0761559,-1.05833,-1.00997,0.457982,-0.814313,-0.0153066,
0.0906827,-0.197745,-0.237256,-1.68042,0.27303,-0.339498,-0.383118,0.493903,0.0153469,0.559934,-0.141461,0.940672,-0.32197,0.00710679,0,0,0,0,0,0,0,0.083639,-0.196866,-0.241758,-1.67465,0.260169,1.24963,0.401392,0.334778,0.00257494,0.408325,-0.0698118,0.576183,-0.0887535,-7.45473e-05,1.27307,-26.0838,2.46461,24.5111,3.16467,1.51513,-0.0566557,-2.80643,-1.35706,-1.24064,1.74402,-0.895121,-0.751224,-0.667752,-0.0761559,-1.05833,-1.00997,0.457982,-0.814313,-0.0153066,
0.0926549,-0.197683,-0.23502,-1.68097,0.27673,-0.340709,-0.38309,0.493045,0.0153538,0.559205,-0.138875,0.924973,-0.302879,0.00694412,0,0,0,0,0,0,0,0.083639,-0.196866,-0.241758,-1.67465,0.260169,1.24963,0.401392,0.334778,0.00257494,0.408325,-0.0698118,0.576183,-0.0887535,-7.45473e-05,1.27307,-26.0838,2.46461,24.5111,3.16467,1.51513,-0.0566557,-2.29807,0.0419564,-1.43291,0.923508,-0.450226,-0.0902194,-0.00383151,0.225187,-0.348431,-1.15163,0.723159,-0.833703,-0.01767,
0.0946225,-0.197622,-0.232786,-1.68152,0.280358,-0.341846,-0.383063,0.491909,0.0152711,0.558273,-0.13634,0.907067,-0.284216,0.00679879,0,0,0,0,0,0,0,0.083639,-0.196866,-0.241758,-1.67465,0.260169,1.24963,0.401392,0.334778,0.00257494,0.408325,-0.0698118,0.576183,-0.0887535,-7.45473e-05,1.27307,-26.0838,2.46461,24.5111,3.16467,1.51513,-0.0566557,-2.29807,0.0419564,-1.43291,0.923508,-0.450226,-0.0902194,-0.00383151,0.225187,-0.348431,-1.15163,0.723159,-0.833703,-0.01767,
0.0965845,-0.197562,-0.230558,-1.68205,0.283909,-0.34291,-0.383036,0.490492,0.0151377,0.557084,-0.133876,0.887825,-0.265992,0.00666398,0,0,0,0,0,0,0,0.0946372,-0.196626,-0.228337,-1.677,0.277833,1.24838,0.401392,0.364688,0.0119148,0.417694,-0.070994,0.537578,-0.0165259,0.000490471,1.14612,-26.2584,2.21467,24.3127,3.32946,1.30913,-0.0566557,-2.97884,0.758367,-1.1328,0.51781,-1.06619,0.188839,0.275228,-0.150519,-0.0352506,-1.00588,0.903196,-0.880547,-0.0166128,
0.0492357,-0.19768,-0.284084,-1.66728,0.198619,-0.290312,-0.383881,0.418627,-0.0656986,0.466245,-0.187424,0.476656,-0.273565,0.0106437,0,0,0,0,0,0,0,0.0946372,-0.196626,-0.228337,-1.677,0.277833,1.24838,0.401392,0.364688,0.0119148,0.417694,-0.070994,0.537578,-0.0165259,0.000490471,1.14612,-26.2584,2.21467,24.3127,3.32946,1.30913,-0.0566557,-3.03638,0.820522,-1.09321,0.517937,-1.13055,0.212621,0.287968,-0.199673,-0.00539222,-0.97923,0.965955,-0.870254,-0.0176889,
0.100043,-0.196966,-0.222241,-1.67888,0.28442,-0.322512,-0.383894,0.481472,-0.0320186,0.544456,-0.170027,0.567629,-0.0257372,0.00948884,0,0,0,0,0,0,0,0.0946372,-0.196626,-0.228337,-1.677,0.277833,1.24838,0.401392,0.364688,0.0119148,0.417694,-0.070994,0.537578,-0.0165259,0.000490471,1.14612,-26.2584,2.21467,24.3127,3.32946,1.30913,-0.0566557,-3.03638,0.820522,-1.09321,0.517937,-1.13055,0.212621,0.287968,-0.199673,-0.00539222,-0.97923,0.965955,-0.870254,-0.0176889,
0.10206,-0.197086,-0.219956,-1.67958,0.286803,-0.322668,-0.383856,0.504317,-0.030128,0.571385,-0.175207,0.595727,-0.038971,0.00948704,0,0,0,0,0,0,0,0.0946372,-0.196626,-0.228337,-1.677,0.277833,1.24838,0.401392,0.364688,0.0119148,0.417694,-0.070994,0.537578,-0.0165259,0.000490471,1.14612,-26.2584,2.21467,24.3127,3.32946,1.30913,-0.0566557,-2.55044,1.76188,-1.20801,-0.0745214,-0.715742,0.680323,0.757766,0.0771316,0.50024,-1.08467,1.10927,-0.883387,-0.0194008,
0.104151,-0.197192,-0.217584,-1.68029,0.28931,-0.322874,-0.383818,0.522622,-0.0264763,0.592947,-0.177171,0.626756,-0.0513428,0.00936738,0,0,0,0,0,0,0,0.0946372,-0.196626,-0.228337,-1.677,0.277833,1.24838,0.401392,0.364688,0.0119148,0.417694,-0.070994,0.537578,-0.0165259,0.000490471,1.14612,-26.2584,2.21467,24.3127,3.32946,1.30913,-0.0566557,-2.55044,1.76188,-1.20801,-0.0745214,-0.715742,0.680323,0.757766,0.0771316,0.50024,-1.08467,1.10927,-0.883387,-0.0194008,
0.106301,-0.197283,-0.215142,-1.681,0.291944,-0.323097,-0.383781,0.537536,-0.0227014,0.610395,-0.178783,0.658537,-0.0557984,0.00926447,0,0,0,0,0,0,0,0.0946372,-0.196626,-0.228337,-1.677,0.277833,1.24838,0.401392,0.364688,0.0119148,0.417694,-0.070994,0.537578,-0.0165259,0.000490471,1.14612,-26.2584,2.21467,24.3127,3.32946,1.30913,-0.0566557,-1.97402,3.0003,-1.02475,-0.937366,-0.357726,1.2994,1.35424,0.288765,1.21035,-1.07823,1.23651,-0.897423,-0.0219152,
0.1085,-0.197359,-0.212644,-1.68172,0.294703,-0.323314,-0.383745,0.549633,-0.0188816,0.624519,-0.179806,0.689631,-0.0542199,0.00917547,0,0,0,0,0,0,0,0.105672,-0.196495,-0.215433,-1.67934,0.292348,1.24859,0.401391,0.385543,0.000913628,0.425098,-0.0763494,0.351757,0.0219831,0.000979674,-1.38897,-26.4845,-0.538622,23.5669,2.25464,1.14342,-0.050247,-1.97402,3.0003,-1.02475,-0.937366,-0.357726,1.2994,1.35424,0.288765,1.21035,-1.07823,1.23651,-0.897423,-0.0219152,
0.110737,-0.197419,-0.210101,-1.68244,0.29758,-0.323512,-0.383708,0.559341,-0.015021,0.635887,-0.179961,0.719176,-0.0495623,0.00909701,0,0,0,0,0,0,0,0.105672,-0.196495,-0.215433,-1.67934,0.292348,1.24859,0.401391,0.385543,0.000913628,0.425098,-0.0763494,0.351757,0.0219831,0.000979674,-1.38897,-26.4845,-0.538622,23.5669,2.25464,1.14342,-0.050247,-2.91,-0.932073,-1.52557,1.66254,-0.808517,-0.540613,-0.472844,0.00930729,-0.852017,-1.15323,0.756077,-0.841292,-0.014766,
0.113011,-0.197465,-0.207518,-1.68316,0.300517,-0.323684,-0.383673,0.568393,-0.0116365,0.645619,-0.178829,0.734276,-0.0429483,0.00886029,0,0,0,0,0,0,0,0.105672,-0.196495,-0.215433,-1.67934,0.292348,1.24859,0.401391,0.385543,0.000913628,0.425098,-0.0763494,0.351757,0.0219831,0.000979674,-1.38897,-26.4845,-0.538622,23.5669,2.25464,1.14342,-0.050247,-3.06823,-1.36098,-1.72234,1.81765,-0.886535,-0.71497,-0.592782,-0.0252135,-1.07175,-1.15039,0.580912,-0.784186,-0.0145061,
0.115315,-0.1975,-0.204902,-1.68387,0.303471,-0.323824,-0.383638,0.576104,-0.00874217,0.654092,-0.177007,0.738445,-0.0350853,0.00863423,0,0,0,0,0,0,0,0.105672,-0.196495,-0.215433,-1.67934,0.292348,1.24859,0.401391,0.385543,0.000913628,0.425098,-0.0763494,0.351757,0.0219831,0.000979674,-1.38897,-26.4845,-0.538622,23.5669,2.25464,1.14342,-0.050247,-3.06823,-1.36098,-1.72234,1.81765,-0.886535,-0.71497,-0.592782,-0.0252135,-1.07175,-1.15039,0.580912,-0.784186,-0.0145061,
0.117644,-0.197525,-0.202257,-1.68456,0.306413,-0.32393,-0.383605,0.582328,-0.00626037,0.661205,-0.174892,0.735694,-0.0264126,0.00843751,0,0,0,0,0,0,0,0.105672,-0.196495,-0.215433,-1.67934,0.292348,1.24859,0.401391,0.385543,0.000913628,0.425098,-0.0763494,0.351757,0.0219831,0.000979674,-1.38897,-26.4845,-0.538622,23.5669,2.25464,1.14342,-0.050247,-3.18719,0.119776,-1.87945,0.72872,-0.892162,-0.00392175,0.0734385,0.0749539,-0.221256,-1.23023,0.655725,-0.845663,-0.0189604,
0.119993,-0.197542,-0.199589,-1.68526,0.309327,-0.323999,-0.383571,0.587156,-0.00412105,0.666936,-0.172667,0.72845,-0.0171885,0.0082629,0,0,0,0,0,0,0,0.117792,-0.196541,-0.200376,-1.68225,0.304692,1.25053,0.401386,0.379108,0.00893278,0.461821,-0.099464,0.405427,0.0965492,-0.000344528,2.41565,-25.9371,3.61116,23.7375,3.19488,0.997854,-0.00996382,-3.18719,0.119776,-1.87945,0.72872,-0.892162,-0.00392175,0.0734385,0.0749539,-0.221256,-1.23023,0.655725,-0.845663,-0.0189604,
0.122356,-0.197551,-0.196904,-1.68594,0.3122,-0.324029,-0.383539,0.590729,-0.00226777,0.671358,-0.170416,0.718222,-0.00756557,0.00810514,0,0,0,0,0,0,0,0.117792,-0.196541,-0.200376,-1.68225,0.304692,1.25053,0.401386,0.379108,0.00893278,0.461821,-0.099464,0.405427,0.0965492,-0.000344528,2.41565,-25.9371,3.61116,23.7375,3.19488,0.997854,-0.00996382,-3.20243,1.26813,-2.15887,-0.189846,-0.784725,0.5632,0.600513,0.250028,0.470219,-1.34393,0.640224,-0.880614,-0.0195707,
0.124729,-0.197553,-0.194206,-1.68661,0.315024,-0.324019,-0.383507,0.593194,-0.000656305,0.674591,-0.168174,0.705971,0.00236194,0.0079608,0,0,0,0,0,0,0,0.117792,-0.196541,-0.200376,-1.68225,0.304692,1.25053,0.401386,0.379108,0.00893278,0.461821,-0.099464,0.405427,0.0965492,-0.000344528,2.41565,-25.9371,3.61116,23.7375,3.19488,0.997854,-0.00996382,-2.89844,0.200704,-2.65801,0.379704,-0.42789,0.0914494,0.136275,0.47552,-0.0467795,-1.46005,0.380891,-0.767887,-0.0184591,
0.127107,-0.19755,-0.191499,-1.68727,0.317793,-0.323969,-0.383476,0.594694,0.000748083,0.676772,-0.165956,0.692336,0.0125288,0.0078226,0,0,0,0,0,0,0,0.117792,-0.196541,-0.200376,-1.68225,0.304692,1.25053,0.401386,0.379108,0.00893278,0.461821,-0.099464,0.405427,0.0965492,-0.000344528,2.41565,-25.9371,3.61116,23.7375,3.19488,0.997854,-0.00996382,-2.89844,0.200704,-2.65801,0.379704,-0.42789,0.0914494,0.136275,0.47552,-0.0467795,-1.46005,0.380891,-0.767887,-0.0184591,
0.129489,-0.197542,-0.188786,-1.68793,0.320504,-0.323878,-0.383445,0.595361,0.00197406,0.678032,-0.163763,0.677767,0.0228837,0.00769484,0,0,0,0,0,0,0,0.117792,-0.196541,-0.200376,-1.68225,0.304692,1.25053,0.401386,0.379108,0.00893278,0.461821,-0.099464,0.405427,0.0965492,-0.000344528,2.41565,-25.9371,3.61116,23.7375,3.19488,0.997854,-0.00996382,-2.58043,-0.306165,-3.08089,0.606129,-0.0892697,-0.132892,-0.096539,0.697337,-0.276616,-1.56311,0.220721,-0.673051,-0.0175874,
0.13187,-0.19753,-0.186072,-1.68858,0.323155,-0.323744,-0.383415,0.595308,0.00304608,0.678493,-0.161595,0.662626,0.033382,0.00756786,0,0,0,0,0,0,0,0.117792,-0.196541,-0.200376,-1.68225,0.304692,1.25053,0.401386,0.379108,0.00893278,0.461821,-0.099464,0.405427,0.0965492,-0.000344528,2.41565,-25.9371,3.61116,23.7375,3.19488,0.997854,-0.00996382,-2.58043,-0.306165,-3.08089,0.606129,-0.0892697,-0.132892,-0.096539,0.697337,-0.276616,-1.56311,0.220721,-0.673051,-0.0175874,
0.134249,-0.197514,-0.183359,-1.68921,0.325744,-0.323568,-0.383385,0.59463,0.00398708,0.678258,-0.159454,0.647265,0.0439807,0.0074475,0,0,0,0,0,0,0,0.134409,-0.196508,-0.180956,-1.68611,0.324016,1.25429,0.401392,0.414713,-0.00145907,0.497873,-0.0882157,0.468684,0.0861654,0.00069881,2.13398,-26.3854,3.0359,24.3881,2.91473,1.62041,-0.0630644,-2.25285,0.123396,-2.77678,0.299863,-0.0435689,0.0613996,0.100749,0.653646,-0.0563462,-1.40217,0.277661,-0.589467,-0.0149035,
0.136622,-0.197495,-0.18065,-1.68984,0.328272,-0.32335,-0.383356,0.593395,0.00482242,0.677407,-0.157348,0.632142,0.0546331,0.00732876,0,0,0,0,0,0,0,0.134409,-0.196508,-0.180956,-1.68611,0.324016,1.25429,0.401392,0.414713,-0.00145907,0.497873,-0.0882157,0.468684,0.0861654,0.00069881,2.13398,-26.3854,3.0359,24.3881,2.91473,1.62041,-0.0630644,-2.25285,0.123396,-2.77678,0.299863,-0.0435689,0.0613996,0.100749,0.653646,-0.0563462,-1.40217,0.277661,-0.589467,-0.0149035,
0.138989,-0.197473,-0.177946,-1.69046,0.330745,-0.323089,-0.383327,0.591627,0.00558422,0.675988,-0.155302,0.618011,0.0652864,0.00721668,0,0,0,0,0,0,0,0.134409,-0.196508,-0.180956,-1.68611,0.324016,1.25429,0.401392,0.414713,-0.00145907,0.497873,-0.0882157,0.468684,0.0861654,0.00069881,2.13398,-26.3854,3.0359,24.3881,2.91473,1.62041,-0.0630644,-1.83763,-0.869591,-2.54938,1.03056,0.0928168,-0.423659,-0.370971,0.594032,-0.62137,-1.25337,0.261071,-0.455932,-0.0125975,
0.141346,-0.197447,-0.17525,-1.69108,0.333167,-0.322785,-0.383298,0.589315,0.00630416,0.674052,-0.153347,0.605665,0.0758888,0.00721186,0,0,0,0,0,0,0,0.134409,-0.196508,-0.180956,-1.68611,0.324016,1.25429,0.401392,0.414713,-0.00145907,0.497873,-0.0882157,0.468684,0.0861654,0.00069881,2.13398,-26.3854,3.0359,24.3881,2.91473,1.62041,-0.0630644,-1.86508,0.362447,-2.80742,0.193643,0.106032,0.121016,0.170941,0.673323,-0.00357651,-1.29204,0.389808,-0.405012,-0.0155224,
0.143696,-0.19742,-0.172561,-1.69168,0.335513,-0.322439,-0.38327,0.5875,0.00676574,0.672078,-0.150983,0.586528,0.0865277,0.00708382,0,0,0,0,0,0,0,0.134409,-0.196508,-0.180956,-1.68611,0.324016,1.25429,0.401392,0.414713,-0.00145907,0.497873,-0.0882157,0.468684,0.0861654,0.00069881,2.13398,-26.3854,3.0359,24.3881,2.91473,1.62041,-0.0630644,-1.86508,0.362447,-2.80742,0.193643,0.106032,0.121016,0.170941,0.673323,-0.00357651,-1.29204,0.389808,-0.405012,-0.0155224,
0.146038,-0.197392,-0.169881,-1.69228,0.33777,-0.32205,-0.383242,0.585461,0.00704773,0.670099,-0.148573,0.564182,0.0971414,0.00695259,0,0,0,0,0,0,0,0.14876,-0.196257,-0.163806,-1.68865,0.33755,1.25622,0.401389,0.462962,0.0114269,0.520598,-0.0665371,0.370468,0.0503308,-0.000379135,0.285221,-27.1352,1.18715,24.2889,3.07312,1.7138,-0.0365141,-2.50234,-0.799262,-2.67041,1.04202,-0.48233,-0.454312,-0.389728,0.230591,-0.659156,-1.10598,0.354348,-0.318167,-0.0111981,
0.14837,-0.197363,-0.167209,-1.69286,0.339932,-0.32162,-0.383215,0.583137,0.00722145,0.667943,-0.146221,0.540443,0.107655,0.00683396,0,0,0,0,0,0,0,0.14876,-0.196257,-0.163806,-1.68865,0.33755,1.25622,0.401389,0.462962,0.0114269,0.520598,-0.0665371,0.370468,0.0503308,-0.000379135,0.285221,-27.1352,1.18715,24.2889,3.07312,1.7138,-0.0365141,-2.50234,-0.799262,-2.67041,1.04202,-0.48233,-0.454312,-0.389728,0.230591,-0.659156,-1.10598,0.354348,-0.318167,-0.0111981,
0.150692,-0.197334,-0.164547,-1.69344,0.341997,-0.321148,-0.383188,0.580538,0.0073347,0.665542,-0.143949,0.516243,0.11802,0.00672747,0,0,0,0,0,0,0,0.14876,-0.196257,-0.163806,-1.68865,0.33755,1.25622,0.401389,0.462962,0.0114269,0.520598,-0.0665371,0.370468,0.0503308,-0.000379135,0.285221,-27.1352,1.18715,24.2889,3.07312,1.7138,-0.0365141,-2.93364,-0.404518,-2.59257,0.852758,-0.863449,-0.296735,-0.256881,0.00186473,-0.465266,-1.01063,0.488675,-0.293235,-0.0130559,
0.153003,-0.197304,-0.161895,-1.694,0.343965,-0.320635,-0.383161,0.577692,0.00741524,0.662891,-0.141753,0.492059,0.128209,0.00662725,0,0,0,0,0,0,0,0.14876,-0.196257,-0.163806,-1.68865,0.33755,1.25622,0.401389,0.462962,0.0114269,0.520598,-0.0665371,0.370468,0.0503308,-0.000379135,0.285221,-27.1352,1.18715,24.2889,3.07312,1.7138,-0.0365141,-2.94339,2.07109,-2.61738,-0.797747,-0.855572,0.854148,0.87726,0.139428,0.836222,-1.0514,0.771033,-0.341499,-0.0177298,
0.155302,-0.197274,-0.159255,-1.69456,0.345837,-0.320082,-0.383135,0.574639,0.00747821,0.660012,-0.139625,0.468123,0.138209,0.00652697,0,0,0,0,0,0,0,0.14876,-0.196257,-0.163806,-1.68865,0.33755,1.25622,0.401389,0.462962,0.0114269,0.520598,-0.0665371,0.370468,0.0503308,-0.000379135,0.285221,-27.1352,1.18715,24.2889,3.07312,1.7138,-0.0365141,-2.94339,2.07109,-2.61738,-0.797747,-0.855572,0.854148,0.87726,0.139428,0.836222,-1.0514,0.771033,-0.341499,-0.0177298,
0.100493,-0.197175,-0.221794,-1.67913,0.282219,-0.320464,-0.383895,0.528742,-0.0498873,0.595387,-0.188911,0.320548,0.194967,0.00927066,0,0,0,0,0,0,0,0.14876,-0.196257,-0.163806,-1.68865,0.33755,1.25622,0.401389,0.462962,0.0114269,0.520598,-0.0665371,0.370468,0.0503308,-0.000379135,0.285221,-27.1352,1.18715,24.2889,3.07312,1.7138,-0.0365141,-3.14666,1.14131,-2.55843,-0.126622,-1.03877,0.421942,0.455272,-0.0327104,0.337702,-0.984173,0.734828,-0.303261,-0.0164331,
0.155217,-0.196642,-0.156475,-1.69067,0.341284,-0.312251,-0.383899,0.566664,-0.0344954,0.645291,-0.18237,0.292622,0.223465,0.0092815,0,0,0,0,0,0,0,0.162265,-0.195767,-0.14787,-1.69069,0.346843,1.25797,0.40139,0.462391,0.0170421,0.53508,-0.0616542,0.268928,0.0686537,0.000301562,-0.325741,-27.3573,0.286573,24.5111,3.18939,1.58105,-0.0429228,-3.14666,1.14131,-2.55843,-0.126622,-1.03877,0.421942,0.455272,-0.0327104,0.337702,-0.984173,0.734828,-0.303261,-0.0164331,
0.157566,-0.196764,-0.153795,-1.69141,0.34242,-0.311299,-0.383863,0.58717,-0.0306059,0.669918,-0.184543,0.283982,0.237842,0.00905348,0,0,0,0,0,0,0,0.162265,-0.195767,-0.14787,-1.69069,0.346843,1.25797,0.40139,0.462391,0.0170421,0.53508,-0.0616542,0.268928,0.0686537,0.000301562,-0.325741,-27.3573,0.286573,24.5111,3.18939,1.58105,-0.0429228,-2.75754,0.631488,-2.63462,0.250869,-0.707529,0.184314,0.209435,0.130792,0.065381,-1.04238,0.733588,-0.27801,-0.0175515,
0.159979,-0.196868,-0.151038,-1.69215,0.34354,-0.310299,-0.383828,0.603242,-0.0259145,0.689244,-0.184818,0.280149,0.250119,0.00882831,0,0,0,0,0,0,0,0.162265,-0.195767,-0.14787,-1.69069,0.346843,1.25797,0.40139,0.462391,0.0170421,0.53508,-0.0616542,0.268928,0.0686537,0.000301562,-0.325741,-27.3573,0.286573,24.5111,3.18939,1.58105,-0.0429228,-2.75754,0.631488,-2.63462,0.250869,-0.707529,0.184314,0.209435,0.130792,0.065381,-1.04238,0.733588,-0.27801,-0.0175515,
0.162441,-0.196952,-0.148221,-1.69288,0.344665,-0.309258,-0.383793,0.615473,-0.0210305,0.704235,-0.184231,0.281193,0.260278,0.00877038,0,0,0,0,0,0,0,0.162265,-0.195767,-0.14787,-1.69069,0.346843,1.25797,0.40139,0.462391,0.0170421,0.53508,-0.0616542,0.268928,0.0686537,0.000301562,-0.325741,-27.3573,0.286573,24.5111,3.18939,1.58105,-0.0429228,-2.1269,1.72671,-2.50413,-0.508026,-0.28504,0.700618,0.716612,0.405374,0.647579,-1.05854,0.838053,-0.280768,-0.021294,
0.164945,-0.197018,-0.145357,-1.69361,0.345761,-0.308182,-0.383758,0.62592,-0.0165841,0.716241,-0.182554,0.273929,0.268853,0.00858642,0,0,0,0,0,0,0,0.162265,-0.195767,-0.14787,-1.69069,0.346843,1.25797,0.40139,0.462391,0.0170421,0.53508,-0.0616542,0.268928,0.0686537,0.000301562,-0.325741,-27.3573,0.286573,24.5111,3.18939,1.58105,-0.0429228,-2.26359,-0.72714,-2.48561,1.12192,-0.433075,-0.430148,-0.417633,0.160992,-0.61048,-0.965007,0.585306,-0.194348,-0.0199254,
0.167482,-0.197069,-0.142453,-1.69434,0.346804,-0.307077,-0.383725,0.63423,-0.0127024,0.725959,-0.180487,0.260872,0.276248,0.00840247,0,0,0,0,0,0,0,0.177362,-0.195531,-0.129745,-1.69309,0.352544,1.26134,0.401385,0.454156,0.00730596,0.568987,-0.081882,0.104935,0.141735,-0.000528248,3.05042,-27.6073,2.88911,24.4873,3.22601,1.62774,-0.00996382,-2.26359,-0.72714,-2.48561,1.12192,-0.433075,-0.430148,-0.417633,0.160992,-0.61048,-0.965007,0.585306,-0.194348,-0.0199254,
0.170044,-0.197107,-0.139518,-1.69505,0.347784,-0.305946,-0.383692,0.640505,-0.00933915,0.733577,-0.178386,0.244961,0.282742,0.00824052,0,0,0,0,0,0,0,0.177362,-0.195531,-0.129745,-1.69309,0.352544,1.26134,0.401385,0.454156,0.00730596,0.568987,-0.081882,0.104935,0.141735,-0.000528248,3.05042,-27.6073,2.88911,24.4873,3.22601,1.62774,-0.00996382,-2.9048,-0.274999,-2.48495,0.753426,-0.910975,-0.168129,-0.0823782,-0.0660173,-0.365844,-0.914606,0.574037,-0.222068,-0.0186216,
0.172624,-0.197132,-0.136561,-1.69576,0.348695,-0.304792,-0.38366,0.645019,-0.00642056,0.739297,-0.17635,0.227699,0.288566,0.0080953,0,0,0,0,0,0,0,0.177362,-0.195531,-0.129745,-1.69309,0.352544,1.26134,0.401385,0.454156,0.00730596,0.568987,-0.081882,0.104935,0.141735,-0.000528248,3.05042,-27.6073,2.88911,24.4873,3.22601,1.62774,-0.00996382,-2.9048,-0.274999,-2.48495,0.753426,-0.910975,-0.168129,-0.0823782,-0.0660173,-0.365844,-0.914606,0.574037,-0.222068,-0.0186216,
0.175216,-0.197148,-0.133588,-1.69645,0.349534,-0.303616,-0.383628,0.648039,-0.00387892,0.743361,-0.174391,0.209852,0.293907,0.0079623,0,0,0,0,0,0,0,0.177362,-0.195531,-0.129745,-1.69309,0.352544,1.26134,0.401385,0.454156,0.00730596,0.568987,-0.081882,0.104935,0.141735,-0.000528248,3.05042,-27.6073,2.88911,24.4873,3.22601,1.62774,-0.00996382,-2.34157,-0.448945,-3.03359,0.762765,-0.256848,-0.244872,-0.183677,0.3987,-0.427647,-1.18438,0.479376,-0.225341,-0.0194871,
0.177815,-0.197154,-0.130604,-1.69714,0.350301,-0.302421,-0.383596,0.649804,-0.00165882,0.746011,-0.172491,0.19181,0.298918,0.0078416,0,0,0,0,0,0,0,0.177362,-0.195531,-0.129745,-1.69309,0.352544,1.26134,0.401385,0.454156,0.00730596,0.568987,-0.081882,0.104935,0.141735,-0.000528248,3.05042,-27.6073,2.88911,24.4873,3.22601,1.62774,-0.00996382,-2.79683,-0.227154,-3.09795,0.517331,-0.610898,-0.115471,-0.104441,0.230674,-0.217805,-1.13391,0.429391,-0.209173,-0.0185459,
0.180417,-0.197153,-0.127614,-1.69783,0.350997,-0.301206,-0.383565,0.650519,0.000284136,0.747467,-0.170628,0.173773,0.303708,0.00772171,0,0,0,0,0,0,0,0.177362,-0.195531,-0.129745,-1.69309,0.352544,1.26134,0.401385,0.454156,0.00730596,0.568987,-0.081882,0.104935,0.141735,-0.000528248,3.05042,-27.6073,2.88911,24.4873,3.22601,1.62774,-0.00996382,-2.79683,-0.227154,-3.09795,0.517331,-0.610898,-0.115471,-0.104441,0.230674,-0.217805,-1.13391,0.429391,-0.209173,-0.0185459,
0.183019,-0.197145,-0.124622,-1.6985,0.35162,-0.299973,-0.383535,0.650361,0.00198654,0.747925,-0.168784,0.155848,0.308354,0.00761329,0,0,0,0,0,0,0,0.192246,-0.195555,-0.112224,-1.69571,0.354893,1.26715,0.40139,0.487813,-0.000230891,0.572926,-0.0881246,0.0712035,0.206859,-0.00036089,0.919986,-27.0836,1.41328,24.5349,2.49267,1.87951,-0.0429228,-2.35266,0.397218,-3.32188,-0.0710097,-0.278025,0.168544,0.157278,0.484545,0.144883,-1.18606,0.342783,-0.139019,-0.0215613,
0.185616,-0.197131,-0.121632,-1.69917,0.352172,-0.298721,-0.383505,0.649476,0.00347925,0.747549,-0.166945,0.138123,0.312909,0.00750149,0,0,0,0,0,0,0,0.192246,-0.195555,-0.112224,-1.69571,0.354893,1.26715,0.40139,0.487813,-0.000230891,0.572926,-0.0881246,0.0712035,0.206859,-0.00036089,0.919986,-27.0836,1.41328,24.5349,2.49267,1.87951,-0.0429228,-2.35266,0.397218,-3.32188,-0.0710097,-0.278025,0.168544,0.157278,0.484545,0.144883,-1.18606,0.342783,-0.139019,-0.0215613,
0.188208,-0.197112,-0.118646,-1.69983,0.352655,-0.297451,-0.383475,0.647981,0.00479081,0.746472,-0.165107,0.120739,0.317399,0.00739448,0,0,0,0,0,0,0,0.192246,-0.195555,-0.112224,-1.69571,0.354893,1.26715,0.40139,0.487813,-0.000230891,0.572926,-0.0881246,0.0712035,0.206859,-0.00036089,0.919986,-27.0836,1.41328,24.5349,2.49267,1.87951,-0.0429228,-2.39626,0.130768,-3.59431,0.0137735,-0.269925,0.0487261,0.0464853,0.506508,0.0191291,-1.22119,0.240454,-0.076062,-0.0210889,
0.190792,-0.197089,-0.115667,-1.70048,0.353072,-0.296164,-0.383446,0.645954,0.00595314,0.744787,-0.163278,0.104058,0.32183,0.00728125,0,0,0,0,0,0,0,0.192246,-0.195555,-0.112224,-1.69571,0.354893,1.26715,0.40139,0.487813,-0.000230891,0.572926,-0.0881246,0.0712035,0.206859,-0.00036089,0.919986,-27.0836,1.41328,24.5349,2.49267,1.87951,-0.0429228,-2.39626,0.130768,-3.59431,0.0137735,-0.269925,0.0487261,0.0464853,0.506508,0.0191291,-1.22119,0.240454,-0.076062,-0.0210889,
