PerkyPenguin/Analysis-on-Approximated-Derivatives/Code_and_Data/PaperData/Real_Robot/Scene_1/contact_change/9/trajectory.csv
Commanded Joint 0 Position,Commanded Joint 1 Position,Commanded Joint 2 Position,Commanded Joint 3 Position,Commanded Joint 4 Position,Commanded Joint 5 Position,Commanded Joint 6 Position,Commanded Joint 0 Velocity,Commanded Joint 1 Velocity,Commanded Joint 2 Velocity,Commanded Joint 3 Velocity,Commanded Joint 4 Velocity,Commanded Joint 5 Velocity,Commanded Joint 6 Velocity,Commanded Joint 0 Torque,Commanded Joint 1 Torque,Commanded Joint 2 Torque,Commanded Joint 3 Torque,Commanded Joint 4 Torque,Commanded Joint 5 Torque,Commanded Joint 6 Torque,Actual Joint 0 Position,Actual Joint 1 Position,Actual Joint 2 Position,Actual Joint 3 Position,Actual Joint 4 Position,Actual Joint 5 Position,Actual Joint 6 Position,Actual Joint 0 Velocity,Actual Joint 1 Velocity,Actual Joint 2 Velocity,Actual Joint 3 Velocity,Actual Joint 4 Velocity,Actual Joint 5 Velocity,Actual Joint 6 Velocity,Actual Joint 0 Torque,Actual Joint 1 Torque,Actual Joint 2 Torque,Actual Joint 3 Torque,Actual Joint 4 Torque,Actual Joint 5 Torque,Actual Joint 6 Torque,EE ext force 0,EE ext force 1,EE ext force 2,EE ext force 3,EE ext force 4,EE ext force 5,joint ext torque 0,joint ext torque 1,joint ext torque 2,joint ext torque 3,joint ext torque 4,joint ext torque 5,joint ext torque 6,
0.0119427,-0.196315,-0.334574,-1.66054,-0.0937141,-0.0925473,-0.383275,-0.00223373,0.0142519,-0.0121526,-0.149595,0.0083471,0.199224,-0.00214874,0,0,0,0,0,0,0,0.0119606,-0.196278,-0.334478,-1.65905,-0.0938364,1.47627,0.402154,0.00121567,0.00294216,-0.000498555,-0.000552332,-0.00491478,0.000353091,0.000508873,-0.119442,-25.8855,1.86159,25.9314,0.660702,2.95342,-0.0630644,-1.86451,0.165351,-0.830646,-0.025592,-0.820245,-0.207971,-0.0833291,-0.207873,-0.31516,-0.382119,-0.144284,-0.300761,-0.0390644,
0.0119287,-0.196183,-0.334635,-1.66118,-0.0936858,-0.0917209,-0.383283,-0.00351506,0.0330982,-0.0150941,-0.158836,0.00708057,0.206596,-0.0020444,0,0,0,0,0,0,0,0.0119606,-0.196278,-0.334478,-1.65905,-0.0938364,1.47627,0.402154,0.00121567,0.00294216,-0.000498555,-0.000552332,-0.00491478,0.000353091,0.000508873,-0.119442,-25.8855,1.86159,25.9314,0.660702,2.95342,-0.0630644,-1.61444,0.181435,-0.974077,-0.00362322,-0.570524,-0.155418,-0.032678,-0.0416193,-0.267736,-0.472652,-0.131734,-0.306989,-0.0397143,
0.0119631,-0.196247,-0.334476,-1.65906,-0.0938809,-0.094521,-0.383244,9.20304e-05,0.00150244,4.57539e-05,-0.000730484,-0.00194536,-2.50409e-05,-9.56441e-06,0,0,0,0,0,0,0,0.0119606,-0.196278,-0.334478,-1.65905,-0.0938364,1.47627,0.402154,0.00121567,0.00294216,-0.000498555,-0.000552332,-0.00491478,0.000353091,0.000508873,-0.119442,-25.8855,1.86159,25.9314,0.660702,2.95342,-0.0630644,-1.61444,0.181435,-0.974077,-0.00362322,-0.570524,-0.155418,-0.032678,-0.0416193,-0.267736,-0.472652,-0.131734,-0.306989,-0.0397143,
0.0119634,-0.196242,-0.334476,-1.65906,-0.0938873,-0.0945216,-0.383244,7.29126e-05,0.0012888,2.25874e-05,-0.00065086,-0.00157767,-0.000148737,-7.61093e-06,0,0,0,0,0,0,0,0.0119606,-0.196278,-0.334478,-1.65905,-0.0938364,1.47627,0.402154,0.00121567,0.00294216,-0.000498555,-0.000552332,-0.00491478,0.000353091,0.000508873,-0.119442,-25.8855,1.86159,25.9314,0.660702,2.95342,-0.0630644,-1.96438,0.179623,-0.666098,-0.0628535,-0.969489,-0.217853,-0.0931864,-0.323495,-0.318261,-0.297533,-0.142122,-0.289888,-0.0406886,
0.0119636,-0.196237,-0.334476,-1.65907,-0.0938924,-0.0945226,-0.383244,5.94173e-05,0.00110302,7.24973e-06,-0.00057568,-0.00128636,-0.000243072,-6.06556e-06,0,0,0,0,0,0,0,0.0119606,-0.196278,-0.334478,-1.65905,-0.0938364,1.47627,0.402154,0.00121567,0.00294216,-0.000498555,-0.000552332,-0.00491478,0.000353091,0.000508873,-0.119442,-25.8855,1.86159,25.9314,0.660702,2.95342,-0.0630644,-1.8744,0.356161,-1.47192,-0.0678462,-0.603052,-0.118317,0.00185671,0.0127526,-0.228122,-0.611238,-0.128954,-0.292255,-0.0430789,
0.0119638,-0.196234,-0.334476,-1.65907,-0.0938966,-0.0945238,-0.383244,4.9872e-05,0.000940859,-2.7569e-06,-0.000506632,-0.00105406,-0.000312243,-4.86114e-06,0,0,0,0,0,0,0,0.0119606,-0.196278,-0.334478,-1.65905,-0.0938364,1.47627,0.402154,0.00121567,0.00294216,-0.000498555,-0.000552332,-0.00491478,0.000353091,0.000508873,-0.119442,-25.8855,1.86159,25.9314,0.660702,2.95342,-0.0630644,-1.8744,0.356161,-1.47192,-0.0678462,-0.603052,-0.118317,0.00185671,0.0127526,-0.228122,-0.611238,-0.128954,-0.292255,-0.0430789,
0.011964,-0.196231,-0.334476,-1.65907,-0.0939001,-0.0945253,-0.383244,4.305e-05,0.000799075,-9.19219e-06,-0.000443975,-0.000867569,-0.000360853,-3.92086e-06,0,0,0,0,0,0,0,0.0119472,-0.196279,-0.33448,-1.65935,-0.0938008,1.47686,0.402151,-0.00132314,-0.00420931,-0.000989204,-0.000332483,0.00907432,0.00915103,0.00035409,0.0313145,-25.9093,1.88936,26.3559,0.397946,3.22533,-0.0630644,-3.51753,0.667628,-1.40257,-0.325597,-1.92084,-0.270867,-0.143161,-0.756374,-0.352391,-0.365022,-0.132364,-0.27682,-0.0422065,
0.0119641,-0.196228,-0.334476,-1.65907,-0.093903,-0.0945268,-0.383244,3.80827e-05,0.000675014,-1.3275e-05,-0.000387466,-0.000716911,-0.000393088,-3.18042e-06,0,0,0,0,0,0,0,0.0119472,-0.196279,-0.33448,-1.65935,-0.0938008,1.47686,0.402151,-0.00132314,-0.00420931,-0.000989204,-0.000332483,0.00907432,0.00915103,0.00035409,0.0313145,-25.9093,1.88936,26.3559,0.397946,3.22533,-0.0630644,-3.51753,0.667628,-1.40257,-0.325597,-1.92084,-0.270867,-0.143161,-0.756374,-0.352391,-0.365022,-0.132364,-0.27682,-0.0422065,
0.0118384,-0.196197,-0.334571,-1.65893,-0.0923099,-0.095504,-0.383243,-0.0116405,0.00571852,-0.0104341,0.00938529,0.175404,-0.111197,0.000375444,0,0,0,0,0,0,0,0.0119472,-0.196279,-0.33448,-1.65935,-0.0938008,1.47686,0.402151,-0.00132314,-0.00420931,-0.000989204,-0.000332483,0.00907432,0.00915103,0.00035409,0.0313145,-25.9093,1.88936,26.3559,0.397946,3.22533,-0.0630644,-1.76466,0.12153,-2.0475,0.176856,-0.344936,-0.200386,-0.0773546,0.23225,-0.343947,-0.797266,-0.14121,-0.247649,-0.0441649,
0.0118181,-0.196256,-0.334583,-1.65921,-0.0921954,-0.0948425,-0.383246,-0.0119848,0.00158057,-0.0108381,0.0114493,0.179355,-0.105599,0.000396651,0,0,0,0,0,0,0,0.0119472,-0.196279,-0.33448,-1.65935,-0.0938008,1.47686,0.402151,-0.00132314,-0.00420931,-0.000989204,-0.000332483,0.00907432,0.00915103,0.00035409,0.0313145,-25.9093,1.88936,26.3559,0.397946,3.22533,-0.0630644,-1.71525,0.232993,-1.76778,0.066192,-0.437241,-0.141945,-0.0250847,0.124725,-0.266857,-0.677208,-0.113349,-0.226859,-0.044402,
0.0117709,-0.196254,-0.334628,-1.65917,-0.0913527,-0.0953527,-0.383244,-0.0118016,0.000460435,-0.0113669,0.00972335,0.210689,-0.127561,0.00052358,0,0,0,0,0,0,0,0.0119472,-0.196279,-0.33448,-1.65935,-0.0938008,1.47686,0.402151,-0.00132314,-0.00420931,-0.000989204,-0.000332483,0.00907432,0.00915103,0.00035409,0.0313145,-25.9093,1.88936,26.3559,0.397946,3.22533,-0.0630644,-1.71525,0.232993,-1.76778,0.066192,-0.437241,-0.141945,-0.0250847,0.124725,-0.266857,-0.677208,-0.113349,-0.226859,-0.044402,
0.0117264,-0.196257,-0.334673,-1.65914,-0.0904133,-0.0959349,-0.383241,-0.0111225,-0.000557114,-0.0111502,0.00802862,0.234843,-0.145554,0.00059212,0,0,0,0,0,0,0,0.0119402,-0.196251,-0.334482,-1.6593,-0.0937334,1.47689,0.402151,-0.00125305,-0.00172876,-0.00321741,0.00496984,0.016756,-0.008391,0.000907375,0.0828892,-25.9093,1.91316,25.8084,0.843807,2.94701,-0.0703886,-2.07609,0.30811,-1.40798,-0.0556938,-0.872721,-0.173313,-0.0513475,-0.189807,-0.282276,-0.4736,-0.116397,-0.202769,-0.0430903,
0.0116857,-0.196262,-0.334715,-1.65911,-0.0893989,-0.0965763,-0.383239,-0.0101675,-0.00137108,-0.0104802,0.00653686,0.25361,-0.160353,0.000625521,0,0,0,0,0,0,0,0.0119402,-0.196251,-0.334482,-1.6593,-0.0937334,1.47689,0.402151,-0.00125305,-0.00172876,-0.00321741,0.00496984,0.016756,-0.008391,0.000907375,0.0828892,-25.9093,1.91316,25.8084,0.843807,2.94701,-0.0703886,-2.07609,0.30811,-1.40798,-0.0556938,-0.872721,-0.173313,-0.0513475,-0.189807,-0.282276,-0.4736,-0.116397,-0.202769,-0.0430903,
0.0116494,-0.19627,-0.334753,-1.65909,-0.0883258,-0.0972663,-0.383236,-0.00907462,-0.00197575,-0.00955009,0.00526633,0.26828,-0.172495,0.00063685,0,0,0,0,0,0,0,0.0119402,-0.196251,-0.334482,-1.6593,-0.0937334,1.47689,0.402151,-0.00125305,-0.00172876,-0.00321741,0.00496984,0.016756,-0.008391,0.000907375,0.0828892,-25.9093,1.91316,25.8084,0.843807,2.94701,-0.0703886,-1.98822,0.155996,-1.71621,0.124101,-0.667411,-0.224709,-0.100711,-0.0153668,-0.35984,-0.627908,-0.110732,-0.230119,-0.0443783,
0.0116479,-0.196159,-0.334694,-1.65889,-0.0891773,-0.0976799,-0.383216,-0.0271371,0.00658528,-0.0225638,0.0365242,0.525814,-0.422249,0.00330944,0,0,0,0,0,0,0,0.0119402,-0.196251,-0.334482,-1.6593,-0.0937334,1.47689,0.402151,-0.00125305,-0.00172876,-0.00321741,0.00496984,0.016756,-0.008391,0.000907375,0.0828892,-25.9093,1.91316,25.8084,0.843807,2.94701,-0.0703886,-2.481,0.208497,-1.33613,0.0957755,-1.20102,-0.28979,-0.159487,-0.385184,-0.426046,-0.436617,-0.0436869,-0.242742,-0.0438296,
0.0116344,-0.196136,-0.334703,-1.65886,-0.0890555,-0.0975315,-0.383218,-0.027554,0.00620791,-0.0231471,0.0338322,0.529309,-0.405012,0.00317682,0,0,0,0,0,0,0,0.0119402,-0.196251,-0.334482,-1.6593,-0.0937334,1.47689,0.402151,-0.00125305,-0.00172876,-0.00321741,0.00496984,0.016756,-0.008391,0.000907375,0.0828892,-25.9093,1.91316,25.8084,0.843807,2.94701,-0.0703886,-2.481,0.208497,-1.33613,0.0957755,-1.20102,-0.28979,-0.159487,-0.385184,-0.426046,-0.436617,-0.0436869,-0.242742,-0.0438296,
0.0115303,-0.19613,-0.334797,-1.65875,-0.0865417,-0.0994417,-0.383204,-0.0260191,0.00148914,-0.0233994,0.0271318,0.628461,-0.477542,0.00349722,0,0,0,0,0,0,0,0.0119402,-0.196251,-0.334482,-1.6593,-0.0937334,1.47689,0.402151,-0.00125305,-0.00172876,-0.00321741,0.00496984,0.016756,-0.008391,0.000907375,0.0828892,-25.9093,1.91316,25.8084,0.843807,2.94701,-0.0703886,-2.10479,0.13439,-0.879585,0.159264,-1.09632,-0.25638,-0.120725,-0.40667,-0.405155,-0.31758,0.0324073,-0.248071,-0.0435558,
0.0114372,-0.19614,-0.334884,-1.65867,-0.0837139,-0.101581,-0.38319,-0.023284,-0.00240657,-0.0218329,0.0207609,0.706949,-0.534917,0.0036665,0,0,0,0,0,0,0,0.0118815,-0.196136,-0.334546,-1.65921,-0.0915651,1.47685,0.402149,-0.00286917,0.00521225,-9.52402e-05,-0.000985884,0.101688,-0.00529448,-0.000840112,0.487552,-25.9371,2.26228,26.2051,1.61377,2.72179,-0.0163725,-2.10479,0.13439,-0.879585,0.159264,-1.09632,-0.25638,-0.120725,-0.40667,-0.405155,-0.31758,0.0324073,-0.248071,-0.0435558,
0.0113576,-0.196161,-0.334961,-1.65861,-0.080635,-0.103903,-0.383175,-0.0199139,-0.00531984,-0.0191861,0.0152084,0.769727,-0.580302,0.00374524,0,0,0,0,0,0,0,0.0118815,-0.196136,-0.334546,-1.65921,-0.0915651,1.47685,0.402149,-0.00286917,0.00521225,-9.52402e-05,-0.000985884,0.101688,-0.00529448,-0.000840112,0.487552,-25.9371,2.26228,26.2051,1.61377,2.72179,-0.0163725,-1.49254,-0.086437,-0.91474,0.412463,-0.59832,-0.246071,-0.111133,-0.114653,-0.429962,-0.440284,0.10148,-0.281218,-0.0445879,
0.0112925,-0.196191,-0.335025,-1.65857,-0.0773534,-0.106366,-0.38316,-0.0162586,-0.00734159,-0.0159443,0.0105037,0.820401,-0.615956,0.00376639,0,0,0,0,0,0,0,0.0118815,-0.196136,-0.334546,-1.65921,-0.0915651,1.47685,0.402149,-0.00286917,0.00521225,-9.52402e-05,-0.000985884,0.101688,-0.00529448,-0.000840112,0.487552,-25.9371,2.26228,26.2051,1.61377,2.72179,-0.0163725,-1.49254,-0.086437,-0.91474,0.412463,-0.59832,-0.246071,-0.111133,-0.114653,-0.429962,-0.440284,0.10148,-0.281218,-0.0445879,
0.0112424,-0.196225,-0.335074,-1.65854,-0.0739068,-0.108941,-0.383145,-0.012539,-0.00862486,-0.0124273,0.00655131,0.861644,-0.643638,0.00374995,0,0,0,0,0,0,0,0.0118815,-0.196136,-0.334546,-1.65921,-0.0915651,1.47685,0.402149,-0.00286917,0.00521225,-9.52402e-05,-0.000985884,0.101688,-0.00529448,-0.000840112,0.487552,-25.9371,2.26228,26.2051,1.61377,2.72179,-0.0163725,-1.51112,-0.221073,-0.47521,0.555481,-0.764348,-0.309876,-0.169104,-0.276045,-0.516081,-0.317507,0.194741,-0.324758,-0.0453416,
0.0125233,-0.19639,-0.333784,-1.65916,-0.0907147,-0.0994381,-0.383102,0.0712287,-0.0182408,0.0840427,0.0040788,0.356018,-0.635717,0.0120598,0,0,0,0,0,0,0,0.0118815,-0.196136,-0.334546,-1.65921,-0.0915651,1.47685,0.402149,-0.00286917,0.00521225,-9.52402e-05,-0.000985884,0.101688,-0.00529448,-0.000840112,0.487552,-25.9371,2.26228,26.2051,1.61377,2.72179,-0.0163725,-1.13253,0.0157123,0.00786114,0.509911,-0.621084,-0.136506,0.00481619,-0.259311,-0.352942,-0.272723,0.388313,-0.417229,-0.0455781,
0.0125032,-0.196217,-0.333823,-1.65912,-0.0878896,-0.0994716,-0.383101,0.0746337,-0.0141073,0.0866026,0.000254219,0.39971,-0.636069,0.0123275,0,0,0,0,0,0,0,0.0115689,-0.195979,-0.334886,-1.65882,-0.0834671,1.47505,0.402148,-0.0137039,0.00468535,-0.0187831,0.00825275,0.346704,-0.081336,-0.00105326,0.868412,-25.9847,2.53602,25.856,2.18139,2.02508,-0.0026396,-1.13253,0.0157123,0.00786114,0.509911,-0.621084,-0.136506,0.00481619,-0.259311,-0.352942,-0.272723,0.388313,-0.417229,-0.0455781,
0.0128768,-0.196293,-0.333392,-1.65916,-0.0859624,-0.102542,-0.383053,0.0933927,-0.018946,0.107735,-0.00888168,0.48179,-0.767572,0.0119465,0,0,0,0,0,0,0,0.0115689,-0.195979,-0.334886,-1.65882,-0.0834671,1.47505,0.402148,-0.0137039,0.00468535,-0.0187831,0.00825275,0.346704,-0.081336,-0.00105326,0.868412,-25.9847,2.53602,25.856,2.18139,2.02508,-0.0026396,-0.912612,-0.0717414,0.25118,0.761579,-0.455638,-0.138455,0.0105103,-0.170025,-0.404786,-0.358164,0.567884,-0.567608,-0.0438076,
0.0133153,-0.19638,-0.332889,-1.65923,-0.0837397,-0.106042,-0.383007,0.109633,-0.0216951,0.125797,-0.0176108,0.555678,-0.874966,0.0115849,0,0,0,0,0,0,0,0.0115689,-0.195979,-0.334886,-1.65882,-0.0834671,1.47505,0.402148,-0.0137039,0.00468535,-0.0187831,0.00825275,0.346704,-0.081336,-0.00105326,0.868412,-25.9847,2.53602,25.856,2.18139,2.02508,-0.0026396,-0.912612,-0.0717414,0.25118,0.761579,-0.455638,-0.138455,0.0105103,-0.170025,-0.404786,-0.358164,0.567884,-0.567608,-0.0438076,
0.0138103,-0.196471,-0.332323,-1.65933,-0.0812526,-0.109894,-0.382962,0.123737,-0.0227264,0.14133,-0.0255565,0.62177,-0.962951,0.01125,0,0,0,0,0,0,0,0.0115689,-0.195979,-0.334886,-1.65882,-0.0834671,1.47505,0.402148,-0.0137039,0.00468535,-0.0187831,0.00825275,0.346704,-0.081336,-0.00105326,0.868412,-25.9847,2.53602,25.856,2.18139,2.02508,-0.0026396,-1.1128,-0.0515408,0.422431,0.854389,-0.585404,-0.171539,-0.00330278,-0.23555,-0.472811,-0.395135,0.662078,-0.695029,-0.0351963,
0.0143544,-0.19656,-0.331704,-1.65946,-0.0785303,-0.114034,-0.382918,0.136025,-0.02244,0.154758,-0.0326452,0.680588,-1.03513,0.0109388,0,0,0,0,0,0,0,0.0115689,-0.195979,-0.334886,-1.65882,-0.0834671,1.47505,0.402148,-0.0137039,0.00468535,-0.0187831,0.00825275,0.346704,-0.081336,-0.00105326,0.868412,-25.9847,2.53602,25.856,2.18139,2.02508,-0.0026396,-1.34828,0.00699561,0.740391,0.781794,-0.783009,-0.196663,-0.0405413,-0.353421,-0.476724,-0.349986,0.650519,-0.798575,-0.0279753,
0.0149414,-0.196645,-0.331039,-1.65962,-0.0755994,-0.118412,-0.382875,0.146757,-0.0211857,0.166414,-0.0389052,0.732725,-1.09437,0.0106472,0,0,0,0,0,0,0,0.0115689,-0.195979,-0.334886,-1.65882,-0.0834671,1.47505,0.402148,-0.0137039,0.00468535,-0.0187831,0.00825275,0.346704,-0.081336,-0.00105326,0.868412,-25.9847,2.53602,25.856,2.18139,2.02508,-0.0026396,-1.34828,0.00699561,0.740391,0.781794,-0.783009,-0.196663,-0.0405413,-0.353421,-0.476724,-0.349986,0.650519,-0.798575,-0.0279753,
0.0132301,-0.196587,-0.333084,-1.65969,-0.0892307,-0.0992232,-0.383072,0.154988,-0.048949,0.17223,-0.0536047,0.260676,-0.618445,0.0144777,0,0,0,0,0,0,0,0.0114351,-0.196074,-0.334885,-1.65855,-0.0741,1.4715,0.402156,0.00906114,-0.00301568,0.0158987,0.00128452,0.227005,-0.142819,0.000849094,1.32465,-25.0127,3.73811,25.5347,1.21643,1.84655,-0.0301054,-0.672731,0.591384,1.41302,0.195105,-0.471282,0.177153,0.281628,-0.258834,0.00957709,-0.198524,0.625464,-0.819709,-0.0238108,
0.0129092,-0.196611,-0.333291,-1.6591,-0.0706715,-0.105562,-0.383049,0.164064,-0.0542909,0.181559,-0.0592337,0.337629,-0.682484,0.0153188,0,0,0,0,0,0,0,0.0114351,-0.196074,-0.334885,-1.65855,-0.0741,1.4715,0.402156,0.00906114,-0.00301568,0.0158987,0.00128452,0.227005,-0.142819,0.000849094,1.32465,-25.0127,3.73811,25.5347,1.21643,1.84655,-0.0301054,-0.672731,0.591384,1.41302,0.195105,-0.471282,0.177153,0.281628,-0.258834,0.00957709,-0.198524,0.625464,-0.819709,-0.0238108,
0.0136903,-0.196839,-0.332419,-1.65938,-0.0690657,-0.108782,-0.382991,0.195297,-0.0570021,0.21798,-0.0686309,0.40145,-0.805203,0.0144667,0,0,0,0,0,0,0,0.0114351,-0.196074,-0.334885,-1.65855,-0.0741,1.4715,0.402156,0.00906114,-0.00301568,0.0158987,0.00128452,0.227005,-0.142819,0.000849094,1.32465,-25.0127,3.73811,25.5347,1.21643,1.84655,-0.0301054,-0.425619,0.7561,1.34338,0.149397,-0.153303,0.28917,0.371744,-0.021804,0.13578,-0.37019,0.667024,-0.936979,-0.0198038,
0.0145755,-0.197066,-0.331427,-1.65968,-0.0671973,-0.112403,-0.382936,0.221292,-0.0569472,0.247869,-0.0768674,0.467103,-0.905234,0.0137695,0,0,0,0,0,0,0,0.0114351,-0.196074,-0.334885,-1.65855,-0.0741,1.4715,0.402156,0.00906114,-0.00301568,0.0158987,0.00128452,0.227005,-0.142819,0.000849094,1.32465,-25.0127,3.73811,25.5347,1.21643,1.84655,-0.0301054,-0.425619,0.7561,1.34338,0.149397,-0.153303,0.28917,0.371744,-0.021804,0.13578,-0.37019,0.667024,-0.936979,-0.0198038,
0.0155481,-0.197287,-0.330337,-1.66002,-0.0650713,-0.11635,-0.382884,0.243148,-0.0550689,0.272677,-0.0842471,0.531484,-0.986653,0.0131836,0,0,0,0,0,0,0,0.0114351,-0.196074,-0.334885,-1.65855,-0.0741,1.4715,0.402156,0.00906114,-0.00301568,0.0158987,0.00128452,0.227005,-0.142819,0.000849094,1.32465,-25.0127,3.73811,25.5347,1.21643,1.84655,-0.0301054,-0.0583029,1.93175,0.692165,-0.470363,0.486833,0.880214,0.963455,0.498602,0.758246,-0.816715,0.82639,-1.10744,-0.0149815,
0.0165948,-0.197495,-0.329163,-1.66038,-0.0627004,-0.120562,-0.382833,0.261669,-0.0519885,0.293464,-0.0908639,0.592749,-1.0529,0.0126798,0,0,0,0,0,0,0,0.0118383,-0.196405,-0.334148,-1.6585,-0.0662671,1.46433,0.402162,0.0284562,-0.0158822,0.0380097,-0.00942299,0.157925,-0.200639,0.000751915,1.93164,-25.4372,4.2856,25.5069,0.893246,2.29058,-0.0429228,-1.92159,1.02169,1.0297,-0.0331618,-1.03021,0.137126,0.233204,-0.400548,-0.0056167,-0.454283,0.58717,-1.09078,-0.00984842,
0.0177046,-0.197687,-0.327919,-1.66077,-0.0601008,-0.124989,-0.382784,0.277457,-0.048134,0.31102,-0.0967408,0.649884,-1.10682,0.0122411,0,0,0,0,0,0,0,0.0118383,-0.196405,-0.334148,-1.6585,-0.0662671,1.46433,0.402162,0.0284562,-0.0158822,0.0380097,-0.00942299,0.157925,-0.200639,0.000751915,1.93164,-25.4372,4.2856,25.5069,0.893246,2.29058,-0.0429228,-1.92159,1.02169,1.0297,-0.0331618,-1.03021,0.137126,0.233204,-0.400548,-0.0056167,-0.454283,0.58717,-1.09078,-0.00984842,
0.0135951,-0.196889,-0.332595,-1.6596,-0.0719238,-0.105318,-0.383053,0.239889,-0.0792285,0.262293,-0.106436,0.207837,-0.664028,0.0151291,0,0,0,0,0,0,0,0.0118383,-0.196405,-0.334148,-1.6585,-0.0662671,1.46433,0.402162,0.0284562,-0.0158822,0.0380097,-0.00942299,0.157925,-0.200639,0.000751915,1.93164,-25.4372,4.2856,25.5069,0.893246,2.29058,-0.0429228,-1.90379,-0.672565,0.808075,0.976068,-0.870671,-0.620889,-0.516123,-0.253113,-0.843648,-0.509483,0.230427,-1.04306,-0.0059116,
0.0140902,-0.197268,-0.331739,-1.6596,-0.0643947,-0.112947,-0.383023,0.244213,-0.0810346,0.267649,-0.109366,0.195856,-0.69328,0.0166185,0,0,0,0,0,0,0,0.0118383,-0.196405,-0.334148,-1.6585,-0.0662671,1.46433,0.402162,0.0284562,-0.0158822,0.0380097,-0.00942299,0.157925,-0.200639,0.000751915,1.93164,-25.4372,4.2856,25.5069,0.893246,2.29058,-0.0429228,-1.90379,-0.672565,0.808075,0.976068,-0.870671,-0.620889,-0.516123,-0.253113,-0.843648,-0.509483,0.230427,-1.04306,-0.0059116,
0.0152357,-0.197591,-0.330471,-1.66007,-0.0633529,-0.116198,-0.382961,0.286395,-0.0807786,0.317083,-0.119409,0.260458,-0.812822,0.0155063,0,0,0,0,0,0,0,0.0118383,-0.196405,-0.334148,-1.6585,-0.0662671,1.46433,0.402162,0.0284562,-0.0158822,0.0380097,-0.00942299,0.157925,-0.200639,0.000751915,1.93164,-25.4372,4.2856,25.5069,0.893246,2.29058,-0.0429228,-2.00949,-0.770391,1.08173,0.907985,-1.02405,-0.681898,-0.583046,-0.370082,-0.878653,-0.391165,0.124551,-1.03797,-0.00278356,
0.0165206,-0.197901,-0.329041,-1.66058,-0.0620248,-0.119839,-0.382902,0.321211,-0.0774817,0.357339,-0.127822,0.332019,-0.910133,0.0146217,0,0,0,0,0,0,0,0.0118383,-0.196405,-0.334148,-1.6585,-0.0662671,1.46433,0.402162,0.0284562,-0.0158822,0.0380097,-0.00942299,0.157925,-0.200639,0.000751915,1.93164,-25.4372,4.2856,25.5069,0.893246,2.29058,-0.0429228,-2.00949,-0.770391,1.08173,0.907985,-1.02405,-0.681898,-0.583046,-0.370082,-0.878653,-0.391165,0.124551,-1.03797,-0.00278356,
0.0179216,-0.198191,-0.327479,-1.66113,-0.0604035,-0.123795,-0.382846,0.350263,-0.0724184,0.390513,-0.13528,0.405316,-0.988965,0.0139355,0,0,0,0,0,0,0,0.014272,-0.197477,-0.330932,-1.65923,-0.0567844,1.45215,0.402162,0.0805747,-0.0351498,0.0872139,-0.0282801,0.14014,-0.302551,0.000430379,1.78089,-25.4848,4.23799,25.2094,1.19812,2.40319,0.00376909,-1.37254,1.23456,0.166982,-0.279754,-0.203714,0.33325,0.413477,0.246054,0.232605,-0.853158,0.373636,-1.10029,-0.00341575,
0.0194205,-0.198456,-0.325807,-1.66169,-0.0584951,-0.128006,-0.382793,0.374723,-0.0662235,0.418088,-0.141733,0.477115,-1.05289,0.0132807,0,0,0,0,0,0,0,0.014272,-0.197477,-0.330932,-1.65923,-0.0567844,1.45215,0.402162,0.0805747,-0.0351498,0.0872139,-0.0282801,0.14014,-0.302551,0.000430379,1.78089,-25.4848,4.23799,25.2094,1.19812,2.40319,0.00376909,-1.86252,1.6909,-0.388252,-0.563598,-0.397361,0.449618,0.510923,0.218705,0.388488,-0.97558,0.376171,-1.07985,-0.000339443,
0.0146928,-0.197536,-0.331136,-1.66006,-0.0654801,-0.112708,-0.383043,0.310589,-0.105288,0.337545,-0.153377,0.0836582,-0.674956,0.015309,0,0,0,0,0,0,0,0.014272,-0.197477,-0.330932,-1.65923,-0.0567844,1.45215,0.402162,0.0805747,-0.0351498,0.0872139,-0.0282801,0.14014,-0.302551,0.000430379,1.78089,-25.4848,4.23799,25.2094,1.19812,2.40319,0.00376909,-1.86252,1.6909,-0.388252,-0.563598,-0.397361,0.449618,0.510923,0.218705,0.388488,-0.97558,0.376171,-1.07985,-0.000339443,
0.0174509,-0.198657,-0.327543,-1.66087,-0.05565,-0.12572,-0.383018,0.331121,-0.105802,0.360883,-0.157757,0.124153,-0.728133,0.0168219,0,0,0,0,0,0,0,0.014272,-0.197477,-0.330932,-1.65923,-0.0567844,1.45215,0.402162,0.0805747,-0.0351498,0.0872139,-0.0282801,0.14014,-0.302551,0.000430379,1.78089,-25.4848,4.23799,25.2094,1.19812,2.40319,0.00376909,-2.8216,-0.213374,-0.552664,0.561707,-1.09726,-0.568815,-0.48332,-0.171279,-0.725723,-0.806136,0.0021176,-0.9473,0.00431599,
0.0189714,-0.199067,-0.325869,-1.66154,-0.0549009,-0.129075,-0.382955,0.380128,-0.102456,0.418444,-0.168126,0.187276,-0.838793,0.0156689,0,0,0,0,0,0,0,0.014272,-0.197477,-0.330932,-1.65923,-0.0567844,1.45215,0.402162,0.0805747,-0.0351498,0.0872139,-0.0282801,0.14014,-0.302551,0.000430379,1.78089,-25.4848,4.23799,25.2094,1.19812,2.40319,0.00376909,-2.8216,-0.213374,-0.552664,0.561707,-1.09726,-0.568815,-0.48332,-0.171279,-0.725723,-0.806136,0.0021176,-0.9473,0.00431599,
0.0206529,-0.199451,-0.324009,-1.66225,-0.053857,-0.132784,-0.382896,0.420365,-0.0960346,0.465079,-0.176501,0.260992,-0.927167,0.0147034,0,0,0,0,0,0,0,0.0176832,-0.199025,-0.32677,-1.66068,-0.0521491,1.44161,0.40217,0.126349,-0.0594284,0.150308,-0.0648012,0.109795,-0.359624,-0.00115757,1.85627,-25.2626,4.51173,25.2847,1.45446,2.34368,0.0101778,-2.49824,-0.12289,-0.465348,0.374493,-0.964549,-0.464582,-0.367367,-0.144988,-0.6029,-0.699359,-0.0669298,-0.833487,0.00489705,
0.0224675,-0.199806,-0.321995,-1.66299,-0.0525015,-0.136709,-0.382841,0.453651,-0.0887946,0.50334,-0.186608,0.338866,-0.981114,0.0139064,0,0,0,0,0,0,0,0.0176832,-0.199025,-0.32677,-1.66068,-0.0521491,1.44161,0.40217,0.126349,-0.0594284,0.150308,-0.0648012,0.109795,-0.359624,-0.00115757,1.85627,-25.2626,4.51173,25.2847,1.45446,2.34368,0.0101778,-2.0844,1.26673,-0.294617,-0.502182,-0.781961,0.224457,0.287109,-0.0905966,0.183245,-0.670269,0.193502,-0.830779,0.00701833,
0.0243931,-0.20013,-0.319856,-1.66379,-0.0508347,-0.140704,-0.382787,0.4814,-0.0811307,0.534907,-0.198197,0.416696,-0.998945,0.0133125,0,0,0,0,0,0,0,0.0176832,-0.199025,-0.32677,-1.66068,-0.0521491,1.44161,0.40217,0.126349,-0.0594284,0.150308,-0.0648012,0.109795,-0.359624,-0.00115757,1.85627,-25.2626,4.51173,25.2847,1.45446,2.34368,0.0101778,-2.0844,1.26673,-0.294617,-0.502182,-0.781961,0.224457,0.287109,-0.0905966,0.183245,-0.670269,0.193502,-0.830779,0.00701833,
0.0264122,-0.200419,-0.317612,-1.66462,-0.0488685,-0.144696,-0.382736,0.504775,-0.0721782,0.560992,-0.207337,0.491547,-0.997821,0.0127848,0,0,0,0,0,0,0,0.0176832,-0.199025,-0.32677,-1.66068,-0.0521491,1.44161,0.40217,0.126349,-0.0594284,0.150308,-0.0648012,0.109795,-0.359624,-0.00115757,1.85627,-25.2626,4.51173,25.2847,1.45446,2.34368,0.0101778,-2.63455,0.0891743,-0.711278,0.391139,-1.05132,-0.397403,-0.316976,-0.18797,-0.54013,-0.746557,0.103872,-0.808929,0.0105783,
0.018242,-0.198862,-0.327489,-1.66127,-0.0563911,-0.125484,-0.383055,0.405153,-0.123948,0.38092,-0.196784,0.0488006,-0.708285,0.0143304,0,0,0,0,0,0,0,0.0176832,-0.199025,-0.32677,-1.66068,-0.0521491,1.44161,0.40217,0.126349,-0.0594284,0.150308,-0.0648012,0.109795,-0.359624,-0.00115757,1.85627,-25.2626,4.51173,25.2847,1.45446,2.34368,0.0101778,-2.63455,0.0891743,-0.711278,0.391139,-1.05132,-0.397403,-0.316976,-0.18797,-0.54013,-0.746557,0.103872,-0.808929,0.0105783,
0.0219477,-0.200446,-0.32283,-1.66281,-0.0515142,-0.136634,-0.383015,0.423712,-0.122698,0.413797,-0.200562,0.082243,-0.749102,0.0162582,0,0,0,0,0,0,0,0.0176832,-0.199025,-0.32677,-1.66068,-0.0521491,1.44161,0.40217,0.126349,-0.0594284,0.150308,-0.0648012,0.109795,-0.359624,-0.00115757,1.85627,-25.2626,4.51173,25.2847,1.45446,2.34368,0.0101778,-3.56281,-1.01633,-0.801456,1.09292,-1.74724,-1.03534,-0.907934,-0.586013,-1.26981,-0.617678,-0.0701941,-0.751026,0.0109521,
0.0238421,-0.200917,-0.320917,-1.66368,-0.0509276,-0.139932,-0.382955,0.473615,-0.117658,0.478189,-0.215858,0.146647,-0.824554,0.0150793,0,0,0,0,0,0,0,0.0227425,-0.201284,-0.320277,-1.66316,-0.0508839,1.42936,0.402178,0.193834,-0.0787221,0.238795,-0.0847004,0.0861922,-0.429133,0.000342316,4.77222,-24.4136,7.56257,24.5865,2.07153,2.03881,-0.0163725,-3.56281,-1.01633,-0.801456,1.09292,-1.74724,-1.03534,-0.907934,-0.586013,-1.26981,-0.617678,-0.0701941,-0.751026,0.0109521,
0.0258999,-0.201356,-0.318793,-1.6646,-0.0500383,-0.14336,-0.382898,0.51445,-0.109795,0.531029,-0.230362,0.222327,-0.856835,0.0142388,0,0,0,0,0,0,0,0.0227425,-0.201284,-0.320277,-1.66316,-0.0508839,1.42936,0.402178,0.193834,-0.0787221,0.238795,-0.0847004,0.0861922,-0.429133,0.000342316,4.77222,-24.4136,7.56257,24.5865,2.07153,2.03881,-0.0163725,-2.67864,-0.167305,-0.789444,0.527038,-1.10338,-0.505194,-0.410828,-0.229154,-0.667849,-0.70569,0.0520611,-0.741888,0.0093576,
0.0280931,-0.201753,-0.316493,-1.66556,-0.0488302,-0.146823,-0.382844,0.548281,-0.0993218,0.574869,-0.241092,0.302009,-0.865947,0.0135477,0,0,0,0,0,0,0,0.0227425,-0.201284,-0.320277,-1.66316,-0.0508839,1.42936,0.402178,0.193834,-0.0787221,0.238795,-0.0847004,0.0861922,-0.429133,0.000342316,4.77222,-24.4136,7.56257,24.5865,2.07153,2.03881,-0.0163725,-1.04452,3.12318,-0.23918,-1.75136,-0.100116,1.23917,1.2566,0.265558,1.34081,-0.719538,0.457994,-0.784566,0.00354117,
0.030399,-0.202103,-0.314046,-1.66656,-0.0473059,-0.150269,-0.382792,0.576485,-0.08742,0.611807,-0.248424,0.381091,-0.861523,0.0129662,0,0,0,0,0,0,0,0.0227425,-0.201284,-0.320277,-1.66316,-0.0508839,1.42936,0.402178,0.193834,-0.0787221,0.238795,-0.0847004,0.0861922,-0.429133,0.000342316,4.77222,-24.4136,7.56257,24.5865,2.07153,2.03881,-0.0163725,-1.04452,3.12318,-0.23918,-1.75136,-0.100116,1.23917,1.2566,0.265558,1.34081,-0.719538,0.457994,-0.784566,0.00354117,
0.0223946,-0.200576,-0.323025,-1.66316,-0.051718,-0.136399,-0.383071,0.467232,-0.13383,0.397982,-0.234911,0.0617777,-0.729466,0.012368,0,0,0,0,0,0,0,0.0227425,-0.201284,-0.320277,-1.66316,-0.0508839,1.42936,0.402178,0.193834,-0.0787221,0.238795,-0.0847004,0.0861922,-0.429133,0.000342316,4.77222,-24.4136,7.56257,24.5865,2.07153,2.03881,-0.0163725,-1.68423,1.24984,0.126972,-0.499104,-0.69425,0.290142,0.308752,-0.132228,0.286097,-0.508479,0.285708,-0.774407,0.00828557,
0.0280224,-0.202873,-0.31586,-1.66573,-0.0500322,-0.148853,-0.383038,0.505765,-0.134708,0.443207,-0.246184,0.113663,-0.68689,0.0138269,0,0,0,0,0,0,0,0.0297785,-0.204133,-0.313401,-1.66666,-0.0501669,1.41721,0.402192,0.239211,-0.101382,0.271859,-0.120191,0.011505,-0.379618,0.000705062,5.9386,-24.1399,7.96327,24.1144,1.52221,2.27685,-0.0566557,-1.68423,1.24984,0.126972,-0.499104,-0.69425,0.290142,0.308752,-0.132228,0.286097,-0.508479,0.285708,-0.774407,0.00828557,
0.0302416,-0.203376,-0.313859,-1.66678,-0.0493016,-0.151711,-0.382986,0.554798,-0.125711,0.500252,-0.262701,0.182641,-0.714587,0.0129643,0,0,0,0,0,0,0,0.0297785,-0.204133,-0.313401,-1.66666,-0.0501669,1.41721,0.402192,0.239211,-0.101382,0.271859,-0.120191,0.011505,-0.379618,0.000705062,5.9386,-24.1399,7.96327,24.1144,1.52221,2.27685,-0.0566557,-3.26461,-0.548595,-0.476848,0.777585,-1.64053,-0.749259,-0.638366,-0.579366,-0.944032,-0.550083,0.0474598,-0.772746,0.00944819,
0.032625,-0.203829,-0.31167,-1.66787,-0.0482677,-0.154611,-0.382936,0.595855,-0.113306,0.547388,-0.273135,0.258477,-0.724871,0.0123101,0,0,0,0,0,0,0,0.0297785,-0.204133,-0.313401,-1.66666,-0.0501669,1.41721,0.402192,0.239211,-0.101382,0.271859,-0.120191,0.011505,-0.379618,0.000705062,5.9386,-24.1399,7.96327,24.1144,1.52221,2.27685,-0.0566557,-2.68057,0.809333,-0.993879,0.00810001,-0.992828,-0.0412064,0.0483991,-0.115694,-0.171567,-0.866947,0.279093,-0.833249,0.0037839,
0.0351478,-0.204227,-0.309322,-1.66899,-0.0469253,-0.157505,-0.382889,0.630688,-0.0995586,0.586938,-0.279794,0.335594,-0.723675,0.0117881,0,0,0,0,0,0,0,0.0297785,-0.204133,-0.313401,-1.66666,-0.0501669,1.41721,0.402192,0.239211,-0.101382,0.271859,-0.120191,0.011505,-0.379618,0.000705062,5.9386,-24.1399,7.96327,24.1144,1.52221,2.27685,-0.0566557,-2.68057,0.809333,-0.993879,0.00810001,-0.992828,-0.0412064,0.0483991,-0.115694,-0.171567,-0.866947,0.279093,-0.833249,0.0037839,
0.0377899,-0.20457,-0.30684,-1.67013,-0.0452827,-0.160365,-0.382844,0.660542,-0.0856327,0.620543,-0.284009,0.41064,-0.714821,0.0113582,0,0,0,0,0,0,0,0.0297785,-0.204133,-0.313401,-1.66666,-0.0501669,1.41721,0.402192,0.239211,-0.101382,0.271859,-0.120191,0.011505,-0.379618,0.000705062,5.9386,-24.1399,7.96327,24.1144,1.52221,2.27685,-0.0566557,-1.58054,1.75163,-0.288376,-0.645039,-0.459953,0.542526,0.560284,0.0674711,0.528305,-0.719553,0.48588,-0.818501,0.000844034,
0.0405353,-0.204858,-0.304242,-1.67127,-0.043356,-0.163168,-0.3828,0.686335,-0.0721646,0.649384,-0.286565,0.481689,-0.700811,0.0109962,0,0,0,0,0,0,0,0.0384134,-0.207217,-0.304889,-1.67081,-0.0500733,1.40674,0.402201,0.308218,-0.114608,0.259198,-0.155218,0.00576131,-0.291645,0.0011941,4.8476,-24.8103,6.6858,24.4635,1.73553,2.21734,-0.050247,-1.58054,1.75163,-0.288376,-0.645039,-0.459953,0.542526,0.560284,0.0674711,0.528305,-0.719553,0.48588,-0.818501,0.000844034,
0.028019,-0.202953,-0.31585,-1.66602,-0.0500225,-0.14882,-0.383085,0.5055,-0.141294,0.443855,-0.274571,0.11512,-0.691946,0.0104536,0,0,0,0,0,0,0,0.0384134,-0.207217,-0.304889,-1.67081,-0.0500733,1.40674,0.402201,0.308218,-0.114608,0.259198,-0.155218,0.00576131,-0.291645,0.0011941,4.8476,-24.8103,6.6858,24.4635,1.73553,2.21734,-0.050247,-2.18366,0.712289,-0.566504,0.0841862,-0.842736,-0.00299841,0.0779842,-0.134056,-0.136138,-0.705302,0.367533,-0.768582,0.0018568,
0.0441403,-0.208874,-0.299974,-1.67388,-0.0492491,-0.169368,-0.383044,0.535097,-0.133074,0.47666,-0.281138,0.130415,-0.495942,0.0119303,0,0,0,0,0,0,0,0.0384134,-0.207217,-0.304889,-1.67081,-0.0500733,1.40674,0.402201,0.308218,-0.114608,0.259198,-0.155218,0.00576131,-0.291645,0.0011941,4.8476,-24.8103,6.6858,24.4635,1.73553,2.21734,-0.050247,-2.18366,0.712289,-0.566504,0.0841862,-0.842736,-0.00299841,0.0779842,-0.134056,-0.136138,-0.705302,0.367533,-0.768582,0.0018568,
0.0464584,-0.209356,-0.297862,-1.67506,-0.0484191,-0.171466,-0.382999,0.579518,-0.120454,0.528031,-0.292905,0.2075,-0.524331,0.011174,0,0,0,0,0,0,0,0.0384134,-0.207217,-0.304889,-1.67081,-0.0500733,1.40674,0.402201,0.308218,-0.114608,0.259198,-0.155218,0.00576131,-0.291645,0.0011941,4.8476,-24.8103,6.6858,24.4635,1.73553,2.21734,-0.050247,-3.37947,-0.543046,-1.00634,1.00372,-1.63268,-0.733027,-0.593191,-0.553184,-1.00027,-0.67296,0.252596,-0.71374,0.00602296,
0.0489264,-0.209781,-0.295578,-1.67626,-0.0472707,-0.173623,-0.382957,0.617005,-0.106262,0.570936,-0.30039,0.287092,-0.539374,0.0105658,0,0,0,0,0,0,0,0.0384134,-0.207217,-0.304889,-1.67081,-0.0500733,1.40674,0.402201,0.308218,-0.114608,0.259198,-0.155218,0.00576131,-0.291645,0.0011941,4.8476,-24.8103,6.6858,24.4635,1.73553,2.21734,-0.050247,-3.37947,-0.543046,-1.00634,1.00372,-1.63268,-0.733027,-0.593191,-0.553184,-1.00027,-0.67296,0.252596,-0.71374,0.00602296,
0.0515223,-0.210148,-0.293149,-1.67748,-0.0458095,-0.175802,-0.382916,0.648991,-0.0918396,0.607216,-0.305264,0.365317,-0.544611,0.0100527,0,0,0,0,0,0,0,0.0384134,-0.207217,-0.304889,-1.67081,-0.0500733,1.40674,0.402201,0.308218,-0.114608,0.259198,-0.155218,0.00576131,-0.291645,0.0011941,4.8476,-24.8103,6.6858,24.4635,1.73553,2.21734,-0.050247,-2.06753,1.88206,-1.0822,-0.629231,-0.646446,0.549746,0.619536,0.0377384,0.479252,-0.853348,0.543613,-0.711635,0.00140251,
0.0542284,-0.21046,-0.290596,-1.67871,-0.0440499,-0.177972,-0.382878,0.676513,-0.0778733,0.638207,-0.308383,0.439892,-0.542673,0.00959782,0,0,0,0,0,0,0,0.0499358,-0.210696,-0.294953,-1.67581,-0.049408,1.39689,0.402201,0.35089,-0.105931,0.281207,-0.159586,0.00430373,-0.264732,7.32801e-05,0.511356,-24.612,3.0121,25.4593,1.58264,2.32995,-0.0026396,-2.06753,1.88206,-1.0822,-0.629231,-0.646446,0.549746,0.619536,0.0377384,0.479252,-0.853348,0.543613,-0.711635,0.00140251,
0.0419999,-0.208342,-0.30188,-1.67276,-0.0497708,-0.167385,-0.383091,0.481641,-0.14142,0.414247,-0.261526,0.0622043,-0.449839,0.0128963,0,0,0,0,0,0,0,0.0499358,-0.210696,-0.294953,-1.67581,-0.049408,1.39689,0.402201,0.35089,-0.105931,0.281207,-0.159586,0.00430373,-0.264732,7.32801e-05,0.511356,-24.612,3.0121,25.4593,1.58264,2.32995,-0.0026396,-0.54997,3.00778,-0.655015,-1.46057,0.332137,1.26428,1.25134,0.539911,1.33746,-0.85748,0.676673,-0.689673,-0.00219278,
0.0559102,-0.212233,-0.289768,-1.67892,-0.0483512,-0.178149,-0.383028,0.552339,-0.12193,0.495394,-0.279991,0.154054,-0.398596,0.0130924,0,0,0,0,0,0,0,0.0499358,-0.210696,-0.294953,-1.67581,-0.049408,1.39689,0.402201,0.35089,-0.105931,0.281207,-0.159586,0.00430373,-0.264732,7.32801e-05,0.511356,-24.612,3.0121,25.4593,1.58264,2.32995,-0.0026396,-2.31262,-0.427913,-1.3305,0.928114,-0.759406,-0.509213,-0.403625,-0.0416589,-0.752041,-0.836369,0.28529,-0.62462,0.00331835,
0.0582879,-0.212671,-0.287591,-1.68008,-0.0474238,-0.179865,-0.38298,0.594433,-0.109321,0.544123,-0.288225,0.231846,-0.429029,0.0121328,0,0,0,0,0,0,0,0.0499358,-0.210696,-0.294953,-1.67581,-0.049408,1.39689,0.402201,0.35089,-0.105931,0.281207,-0.159586,0.00430373,-0.264732,7.32801e-05,0.511356,-24.612,3.0121,25.4593,1.58264,2.32995,-0.0026396,-2.31262,-0.427913,-1.3305,0.928114,-0.759406,-0.509213,-0.403625,-0.0416589,-0.752041,-0.836369,0.28529,-0.62462,0.00331835,
0.060808,-0.213054,-0.285251,-1.68125,-0.0461804,-0.181659,-0.382934,0.630024,-0.095797,0.58497,-0.29335,0.310853,-0.448626,0.0113481,0,0,0,0,0,0,0,0.0499358,-0.210696,-0.294953,-1.67581,-0.049408,1.39689,0.402201,0.35089,-0.105931,0.281207,-0.159586,0.00430373,-0.264732,7.32801e-05,0.511356,-24.612,3.0121,25.4593,1.58264,2.32995,-0.0026396,-3.32299,0.375725,-1.67603,0.430212,-1.40437,-0.256791,-0.114238,-0.340786,-0.484135,-0.870114,0.378009,-0.651474,-0.000533559,
0.0634497,-0.213383,-0.282773,-1.68244,-0.0446292,-0.183497,-0.382891,0.660427,-0.0823992,0.619585,-0.296735,0.387799,-0.459276,0.0107278,0,0,0,0,0,0,0,0.0630586,-0.214567,-0.28272,-1.68252,-0.0483032,1.38935,0.402215,0.388532,-0.103593,0.351181,-0.196769,0.0112118,-0.166699,0.00311925,-1.00811,-24.7627,1.46089,25.983,1.47277,2.23748,-0.0026396,-3.32299,0.375725,-1.67603,0.430212,-1.40437,-0.256791,-0.114238,-0.340786,-0.484135,-0.870114,0.378009,-0.651474,-0.000533559,
0.0661961,-0.213662,-0.280176,-1.68363,-0.0427862,-0.185348,-0.38285,0.6866,-0.0695964,0.649184,-0.298946,0.460759,-0.462836,0.0102809,0,0,0,0,0,0,0,0.0630586,-0.214567,-0.28272,-1.68252,-0.0483032,1.38935,0.402215,0.388532,-0.103593,0.351181,-0.196769,0.0112118,-0.166699,0.00311925,-1.00811,-24.7627,1.46089,25.983,1.47277,2.23748,-0.0026396,-2.05979,1.56645,-0.94796,-0.422182,-0.694695,0.433477,0.464458,-0.0172191,0.376583,-0.783598,0.561547,-0.681669,-0.00221109,
0.0690332,-0.213892,-0.277478,-1.68483,-0.0406715,-0.187191,-0.382811,0.709269,-0.0576041,0.674686,-0.300261,0.528677,-0.460831,0.00989941,0,0,0,0,0,0,0,0.0630586,-0.214567,-0.28272,-1.68252,-0.0483032,1.38935,0.402215,0.388532,-0.103593,0.351181,-0.196769,0.0112118,-0.166699,0.00311925,-1.00811,-24.7627,1.46089,25.983,1.47277,2.23748,-0.0026396,-2.05979,1.56645,-0.94796,-0.422182,-0.694695,0.433477,0.464458,-0.0172191,0.376583,-0.783598,0.561547,-0.681669,-0.00221109,
0.0537008,-0.211746,-0.291749,-1.6778,-0.0489674,-0.176554,-0.38308,0.501819,-0.131209,0.436498,-0.265098,0.0828727,-0.356374,0.0142958,0,0,0,0,0,0,0,0.0630586,-0.214567,-0.28272,-1.68252,-0.0483032,1.38935,0.402215,0.388532,-0.103593,0.351181,-0.196769,0.0112118,-0.166699,0.00311925,-1.00811,-24.7627,1.46089,25.983,1.47277,2.23748,-0.0026396,-1.92317,-0.0473327,-1.04673,0.623447,-0.491312,-0.268922,-0.211306,0.102242,-0.443129,-0.845854,0.331403,-0.690432,0.00118012,
0.0694478,-0.215906,-0.277059,-1.68568,-0.046835,-0.184703,-0.383011,0.581211,-0.104056,0.527965,-0.277323,0.195512,-0.319779,0.013229,0,0,0,0,0,0,0,0.0630586,-0.214567,-0.28272,-1.68252,-0.0483032,1.38935,0.402215,0.388532,-0.103593,0.351181,-0.196769,0.0112118,-0.166699,0.00311925,-1.00811,-24.7627,1.46089,25.983,1.47277,2.23748,-0.0026396,-1.70247,-0.754449,-1.92569,1.11046,0.00204559,-0.535119,-0.391668,0.494369,-0.83641,-1.15973,0.180393,-0.649258,-0.00270311,
0.0719243,-0.216276,-0.274771,-1.68681,-0.0457349,-0.186117,-0.382962,0.619122,-0.0924184,0.571851,-0.283262,0.275011,-0.353496,0.0122884,0,0,0,0,0,0,0,0.0630586,-0.214567,-0.28272,-1.68252,-0.0483032,1.38935,0.402215,0.388532,-0.103593,0.351181,-0.196769,0.0112118,-0.166699,0.00311925,-1.00811,-24.7627,1.46089,25.983,1.47277,2.23748,-0.0026396,-1.70247,-0.754449,-1.92569,1.11046,0.00204559,-0.535119,-0.391668,0.494369,-0.83641,-1.15973,0.180393,-0.649258,-0.00270311,
0.0745296,-0.216597,-0.272336,-1.68796,-0.0443207,-0.187623,-0.382916,0.651328,-0.080357,0.608835,-0.287107,0.353556,-0.37656,0.0116013,0,0,0,0,0,0,0,0.0757613,-0.217833,-0.270962,-1.68885,-0.0463023,1.38546,0.40222,0.421584,-0.0925959,0.400276,-0.188796,0.123612,-0.120802,0.000629218,2.82032,-23.5646,5.01161,24.9356,2.37732,1.98571,-0.00996382,-1.91174,0.280575,-1.24469,0.396852,-0.407482,-0.0905685,0.0113213,0.183166,-0.28349,-0.91953,0.355909,-0.685687,-0.0031424,
0.0772453,-0.216872,-0.269775,-1.68912,-0.0426057,-0.189186,-0.382872,0.678929,-0.0685601,0.640301,-0.28971,0.428746,-0.390698,0.0110316,0,0,0,0,0,0,0,0.0757613,-0.217833,-0.270962,-1.68885,-0.0463023,1.38546,0.40222,0.421584,-0.0925959,0.400276,-0.188796,0.123612,-0.120802,0.000629218,2.82032,-23.5646,5.01161,24.9356,2.37732,1.98571,-0.00996382,-1.91174,0.280575,-1.24469,0.396852,-0.407482,-0.0905685,0.0113213,0.183166,-0.28349,-0.91953,0.355909,-0.685687,-0.0031424,
0.0800563,-0.217101,-0.267105,-1.69029,-0.0406089,-0.190777,-0.382829,0.702746,-0.0573386,0.667289,-0.29141,0.499214,-0.397591,0.0105522,0,0,0,0,0,0,0,0.0757613,-0.217833,-0.270962,-1.68885,-0.0463023,1.38546,0.40222,0.421584,-0.0925959,0.400276,-0.188796,0.123612,-0.120802,0.000629218,2.82032,-23.5646,5.01161,24.9356,2.37732,1.98571,-0.00996382,-1.051,1.21368,0.804701,-0.413503,-0.559515,0.413739,0.407586,-0.207639,0.4151,-0.231444,0.49659,-0.65684,-0.000220448,
0.0671229,-0.21549,-0.27917,-1.68457,-0.047617,-0.183424,-0.383064,0.535993,-0.113661,0.475324,-0.267006,0.119067,-0.274365,0.0144407,0,0,0,0,0,0,0,0.0757613,-0.217833,-0.270962,-1.68885,-0.0463023,1.38546,0.40222,0.421584,-0.0925959,0.400276,-0.188796,0.123612,-0.120802,0.000629218,2.82032,-23.5646,5.01161,24.9356,2.37732,1.98571,-0.00996382,-1.051,1.21368,0.804701,-0.413503,-0.559515,0.413739,0.407586,-0.207639,0.4151,-0.231444,0.49659,-0.65684,-0.000220448,
0.0825092,-0.219055,-0.264898,-1.69191,-0.0436917,-0.187918,-0.383005,0.607359,-0.0947809,0.557119,-0.268672,0.282138,-0.262391,0.0133263,0,0,0,0,0,0,0,0.0757613,-0.217833,-0.270962,-1.68885,-0.0463023,1.38546,0.40222,0.421584,-0.0925959,0.400276,-0.188796,0.123612,-0.120802,0.000629218,2.82032,-23.5646,5.01161,24.9356,2.37732,1.98571,-0.00996382,-0.297195,0.251683,0.408483,0.162637,0.144093,0.0716393,0.101214,0.218448,-0.013031,-0.397667,0.293325,-0.587598,-0.0016233,
0.0850778,-0.21939,-0.262507,-1.69301,-0.042279,-0.189103,-0.382956,0.642145,-0.0838296,0.597546,-0.274251,0.353191,-0.296208,0.0124408,0,0,0,0,0,0,0,0.0895794,-0.220529,-0.25817,-1.69529,-0.0437435,1.38311,0.402227,0.415725,-0.0741783,0.421416,-0.194203,0.126373,-0.0728045,-0.00185885,4.44294,-24.3144,5.71382,24.9356,1.77856,2.28417,0.017502,-1.53227,-0.986799,-0.61021,1.06549,-0.394067,-0.594588,-0.451975,0.0382741,-0.862606,-0.631635,0.12542,-0.592789,-0.000974053,
0.0877643,-0.21968,-0.259981,-1.69412,-0.0405841,-0.190383,-0.382909,0.671642,-0.0725136,0.631563,-0.27786,0.423713,-0.31997,0.0117295,0,0,0,0,0,0,0,0.0895794,-0.220529,-0.25817,-1.69529,-0.0437435,1.38311,0.402227,0.415725,-0.0741783,0.421416,-0.194203,0.126373,-0.0728045,-0.00185885,4.44294,-24.3144,5.71382,24.9356,1.77856,2.28417,0.017502,-1.53227,-0.986799,-0.61021,1.06549,-0.394067,-0.594588,-0.451975,0.0382741,-0.862606,-0.631635,0.12542,-0.592789,-0.000974053,
0.0905519,-0.219926,-0.257339,-1.69524,-0.0386184,-0.191723,-0.382864,0.696881,-0.0614751,0.66046,-0.280322,0.491423,-0.33513,0.011142,0,0,0,0,0,0,0,0.0895794,-0.220529,-0.25817,-1.69529,-0.0437435,1.38311,0.402227,0.415725,-0.0741783,0.421416,-0.194203,0.126373,-0.0728045,-0.00185885,4.44294,-24.3144,5.71382,24.9356,1.77856,2.28417,0.017502,-1.65543,0.796746,-0.623063,-0.0423141,-0.431262,0.202346,0.302383,0.091931,0.0625328,-0.724795,0.411525,-0.68488,-0.00138439,
0.0934264,-0.22013,-0.254599,-1.69637,-0.0363984,-0.193096,-0.382822,0.718627,-0.0509936,0.685206,-0.281953,0.555004,-0.343216,0.0106471,0,0,0,0,0,0,0,0.0895794,-0.220529,-0.25817,-1.69529,-0.0437435,1.38311,0.402227,0.415725,-0.0741783,0.421416,-0.194203,0.126373,-0.0728045,-0.00185885,4.44294,-24.3144,5.71382,24.9356,1.77856,2.28417,0.017502,-1.65543,0.796746,-0.623063,-0.0423141,-0.431262,0.202346,0.302383,0.091931,0.0625328,-0.724795,0.411525,-0.68488,-0.00138439,
0.0800797,-0.218675,-0.267126,-1.69084,-0.0448203,-0.186869,-0.383059,0.565768,-0.103806,0.508574,-0.258813,0.214328,-0.218025,0.014442,0,0,0,0,0,0,0,0.0895794,-0.220529,-0.25817,-1.69529,-0.0437435,1.38311,0.402227,0.415725,-0.0741783,0.421416,-0.194203,0.126373,-0.0728045,-0.00185885,4.44294,-24.3144,5.71382,24.9356,1.77856,2.28417,0.017502,-1.41053,1.24431,-0.350488,-0.335843,-0.31167,0.423771,0.466588,0.146807,0.356969,-0.694884,0.500473,-0.723719,0.000413537,
0.0964031,-0.221556,-0.25202,-1.69833,-0.0410888,-0.189742,-0.382991,0.613077,-0.080169,0.563244,-0.265202,0.286683,-0.218873,0.0139858,0,0,0,0,0,0,0,0.0895794,-0.220529,-0.25817,-1.69529,-0.0437435,1.38311,0.402227,0.415725,-0.0741783,0.421416,-0.194203,0.126373,-0.0728045,-0.00185885,4.44294,-24.3144,5.71382,24.9356,1.77856,2.28417,0.017502,-2.4211,-0.409039,-0.980318,0.73007,-0.849591,-0.397764,-0.294593,-0.112838,-0.603242,-0.765548,0.231692,-0.687046,0.00340882,
0.098992,-0.221839,-0.249608,-1.69941,-0.039657,-0.190756,-0.382938,0.647214,-0.0709045,0.603083,-0.269894,0.357945,-0.253328,0.0130269,0,0,0,0,0,0,0,0.108919,-0.222888,-0.240126,-1.70245,-0.0388405,1.38193,0.402247,0.481663,-0.0466408,0.445999,-0.157097,0.18573,-0.00971652,0.000738681,1.88404,-24.6874,3.63893,24.2612,1.81518,2.00493,-0.0301054,-2.4211,-0.409039,-0.980318,0.73007,-0.849591,-0.397764,-0.294593,-0.112838,-0.603242,-0.765548,0.231692,-0.687046,0.00340882,
0.101697,-0.222084,-0.247061,-1.7005,-0.0379434,-0.191867,-0.382889,0.676153,-0.0611527,0.636603,-0.272832,0.42841,-0.277735,0.0122485,0,0,0,0,0,0,0,0.108919,-0.222888,-0.240126,-1.70245,-0.0388405,1.38193,0.402247,0.481663,-0.0466408,0.445999,-0.157097,0.18573,-0.00971652,0.000738681,1.88404,-24.6874,3.63893,24.2612,1.81518,2.00493,-0.0301054,-2.6808,-1.26708,-1.73068,1.38179,-0.740067,-0.803814,-0.687426,0.0370321,-1.09572,-1.02148,0.169536,-0.698144,0.0038378,
0.1045,-0.22229,-0.244401,-1.7016,-0.0359597,-0.193041,-0.382843,0.700903,-0.0515291,0.665067,-0.274759,0.495905,-0.293534,0.0116004,0,0,0,0,0,0,0,0.108919,-0.222888,-0.240126,-1.70245,-0.0388405,1.38193,0.402247,0.481663,-0.0466408,0.445999,-0.157097,0.18573,-0.00971652,0.000738681,1.88404,-24.6874,3.63893,24.2612,1.81518,2.00493,-0.0301054,-2.6808,-1.26708,-1.73068,1.38179,-0.740067,-0.803814,-0.687426,0.0370321,-1.09572,-1.02148,0.169536,-0.698144,0.0038378,
0.107389,-0.222459,-0.241643,-1.7027,-0.033723,-0.19425,-0.382799,0.722214,-0.0423121,0.689429,-0.275953,0.559176,-0.302244,0.0110511,0,0,0,0,0,0,0,0.108919,-0.222888,-0.240126,-1.70245,-0.0388405,1.38193,0.402247,0.481663,-0.0466408,0.445999,-0.157097,0.18573,-0.00971652,0.000738681,1.88404,-24.6874,3.63893,24.2612,1.81518,2.00493,-0.0301054,-2.11843,1.5824,-0.936536,-0.529495,-0.605853,0.546839,0.595918,0.0967177,0.49025,-0.856724,0.550601,-0.73944,0.00207152,
0.110352,-0.222594,-0.238801,-1.70381,-0.0312527,-0.195471,-0.382757,0.740663,-0.0336332,0.710423,-0.276534,0.617579,-0.305219,0.0105795,0,0,0,0,0,0,0,0.108919,-0.222888,-0.240126,-1.70245,-0.0388405,1.38193,0.402247,0.481663,-0.0466408,0.445999,-0.157097,0.18573,-0.00971652,0.000738681,1.88404,-24.6874,3.63893,24.2612,1.81518,2.00493,-0.0301054,-2.0828,0.404426,-0.608067,0.21759,-0.690308,0.0157613,0.0624697,-0.04213,-0.100976,-0.720398,0.410413,-0.731362,0.00475469,
0.0939508,-0.221235,-0.254273,-1.69726,-0.0422355,-0.188867,-0.383047,0.572239,-0.0874784,0.515449,-0.25664,0.218223,-0.173849,0.0151856,0,0,0,0,0,0,0,0.123052,-0.224097,-0.226557,-1.70741,-0.0347668,1.38194,0.40225,0.475563,-0.0377282,0.458561,-0.167643,0.152339,-0.00442162,-0.00127445,3.3797,-24.4612,4.46412,24.5111,1.90673,2.06536,0.0239107,-2.0828,0.404426,-0.608067,0.21759,-0.690308,0.0157613,0.0624697,-0.04213,-0.100976,-0.720398,0.410413,-0.731362,0.00475469,
0.130244,-0.224816,-0.219971,-1.71033,-0.0315807,-0.190003,-0.382973,0.638759,-0.0577703,0.594072,-0.257544,0.333666,-0.144621,0.0136463,0,0,0,0,0,0,0,0.123052,-0.224097,-0.226557,-1.70741,-0.0347668,1.38194,0.40225,0.475563,-0.0377282,0.458561,-0.167643,0.152339,-0.00442162,-0.00127445,3.3797,-24.4612,4.46412,24.5111,1.90673,2.06536,0.0239107,-1.89179,0.69425,-1.37996,-0.00975651,-0.251564,0.192289,0.301151,0.341755,0.0371301,-1.02342,0.367706,-0.717349,0.00199436,
0.132921,-0.225019,-0.217452,-1.71138,-0.0299641,-0.190733,-0.382922,0.66932,-0.0507899,0.629699,-0.262901,0.40416,-0.182558,0.0127544,0,0,0,0,0,0,0,0.123052,-0.224097,-0.226557,-1.70741,-0.0347668,1.38194,0.40225,0.475563,-0.0377282,0.458561,-0.167643,0.152339,-0.00442162,-0.00127445,3.3797,-24.4612,4.46412,24.5111,1.90673,2.06536,0.0239107,-1.89179,0.69425,-1.37996,-0.00975651,-0.251564,0.192289,0.301151,0.341755,0.0371301,-1.02342,0.367706,-0.717349,0.00199436,
0.135702,-0.225191,-0.214813,-1.71244,-0.0280741,-0.191575,-0.382874,0.695294,-0.043039,0.659796,-0.266089,0.472507,-0.210513,0.012024,0,0,0,0,0,0,0,0.123052,-0.224097,-0.226557,-1.70741,-0.0347668,1.38194,0.40225,0.475563,-0.0377282,0.458561,-0.167643,0.152339,-0.00442162,-0.00127445,3.3797,-24.4612,4.46412,24.5111,1.90673,2.06536,0.0239107,-2.21871,0.445317,-1.65146,0.24503,-0.346181,0.0627102,0.201555,0.330367,-0.153369,-1.13847,0.416797,-0.769205,0.00392418,
0.138572,-0.225332,-0.212071,-1.71351,-0.0259256,-0.192494,-0.382828,0.717557,-0.0352172,0.685439,-0.268088,0.537113,-0.229689,0.0114113,0,0,0,0,0,0,0,0.123052,-0.224097,-0.226557,-1.70741,-0.0347668,1.38194,0.40225,0.475563,-0.0377282,0.458561,-0.167643,0.152339,-0.00442162,-0.00127445,3.3797,-24.4612,4.46412,24.5111,1.90673,2.06536,0.0239107,-1.88508,-0.419451,-1.59133,0.937362,-0.00526743,-0.334019,-0.248533,0.50302,-0.592131,-1.2457,0.454026,-0.870209,0.00911367,
0.14152,-0.225443,-0.209242,-1.71459,-0.0235372,-0.19346,-0.382785,0.73676,-0.0276343,0.707447,-0.269272,0.597108,-0.241529,0.0108886,0,0,0,0,0,0,0,0.123052,-0.224097,-0.226557,-1.70741,-0.0347668,1.38194,0.40225,0.475563,-0.0377282,0.458561,-0.167643,0.152339,-0.00442162,-0.00127445,3.3797,-24.4612,4.46412,24.5111,1.90673,2.06536,0.0239107,-1.88508,-0.419451,-1.59133,0.937362,-0.00526743,-0.334019,-0.248533,0.50302,-0.592131,-1.2457,0.454026,-0.870209,0.00911367,
0.127689,-0.224585,-0.222347,-1.7093,-0.0329154,-0.189424,-0.383028,0.602321,-0.0622638,0.551516,-0.247284,0.263741,-0.0968557,0.0147378,0,0,0,0,0,0,0,0.138202,-0.225131,-0.212075,-1.71249,-0.0291552,1.38233,0.402263,0.499862,-0.0303031,0.4795,-0.161987,0.15416,0.0195944,-1.27254e-05,1.01917,-25.3856,2.5638,24.9356,0.971981,1.82,0.0376436,-1.78746,-0.405979,-1.26026,0.800951,-0.0831411,-0.306278,-0.228098,0.40852,-0.527074,-1.09598,0.363409,-0.831807,0.0118893,
0.145557,-0.225757,-0.205289,-1.71532,-0.0258022,-0.189243,-0.38296,0.649888,-0.0503159,0.607884,-0.250556,0.350239,-0.111748,0.0137352,0,0,0,0,0,0,0,0.138202,-0.225131,-0.212075,-1.71249,-0.0291552,1.38233,0.402263,0.499862,-0.0303031,0.4795,-0.161987,0.15416,0.0195944,-1.27254e-05,1.01917,-25.3856,2.5638,24.9356,0.971981,1.82,0.0376436,-1.78746,-0.405979,-1.26026,0.800951,-0.0831411,-0.306278,-0.228098,0.40852,-0.527074,-1.09598,0.363409,-0.831807,0.0118893,
0.148272,-0.225932,-0.202723,-1.71635,-0.0241173,-0.189835,-0.382908,0.678754,-0.0438533,0.641455,-0.255809,0.421226,-0.148066,0.0128541,0,0,0,0,0,0,0,0.138202,-0.225131,-0.212075,-1.71249,-0.0291552,1.38233,0.402263,0.499862,-0.0303031,0.4795,-0.161987,0.15416,0.0195944,-1.27254e-05,1.01917,-25.3856,2.5638,24.9356,0.971981,1.82,0.0376436,-2.96919,-0.18508,-1.13257,0.522006,-1.1167,-0.222211,-0.0908867,-0.200445,-0.423717,-0.836944,0.271357,-0.748657,0.00916023,
0.151085,-0.226079,-0.200043,-1.71738,-0.0221606,-0.190535,-0.38286,0.703358,-0.0366537,0.669919,-0.258905,0.489189,-0.174913,0.0121241,0,0,0,0,0,0,0,0.138202,-0.225131,-0.212075,-1.71249,-0.0291552,1.38233,0.402263,0.499862,-0.0303031,0.4795,-0.161987,0.15416,0.0195944,-1.27254e-05,1.01917,-25.3856,2.5638,24.9356,0.971981,1.82,0.0376436,-2.96919,-0.18508,-1.13257,0.522006,-1.1167,-0.222211,-0.0908867,-0.200445,-0.423717,-0.836944,0.271357,-0.748657,0.00916023,
0.153983,-0.226196,-0.197266,-1.71843,-0.019949,-0.191308,-0.382814,0.724495,-0.0293833,0.694244,-0.260818,0.552881,-0.193386,0.0115065,0,0,0,0,0,0,0,0.138202,-0.225131,-0.212075,-1.71249,-0.0291552,1.38233,0.402263,0.499862,-0.0303031,0.4795,-0.161987,0.15416,0.0195944,-1.27254e-05,1.01917,-25.3856,2.5638,24.9356,0.971981,1.82,0.0376436,-2.94105,2.47452,-0.795237,-1.23832,-1.19976,1.02128,1.10207,-0.15773,1.02695,-0.788551,0.604852,-0.784964,0.0048653,
0.156954,-0.226286,-0.194405,-1.71947,-0.0175024,-0.192128,-0.38277,0.742759,-0.0223341,0.715173,-0.261923,0.611663,-0.204845,0.0109755,0,0,0,0,0,0,0,0.154195,-0.22563,-0.196616,-1.71764,-0.0227578,1.38273,0.402279,0.495602,-0.00801521,0.455157,-0.162946,0.152545,0.0284571,0.000723803,0.00751081,-25.7863,1.61165,25.7092,1.12487,1.87951,0.0239107,-2.30647,2.39356,-0.12897,-1.18196,-0.990208,1.00913,1.05217,-0.160051,1.04059,-0.581582,0.635205,-0.755714,0.00740455,
0.159989,-0.226348,-0.191472,-1.72052,-0.0148412,-0.19297,-0.382728,0.758613,-0.0156441,0.733284,-0.262391,0.665293,-0.210564,0.010516,0,0,0,0,0,0,0,0.154195,-0.22563,-0.196616,-1.71764,-0.0227578,1.38273,0.402279,0.495602,-0.00801521,0.455157,-0.162946,0.152545,0.0284571,0.000723803,0.00751081,-25.7863,1.61165,25.7092,1.12487,1.87951,0.0239107,-2.30647,2.39356,-0.12897,-1.18196,-0.990208,1.00913,1.05217,-0.160051,1.04059,-0.581582,0.635205,-0.755714,0.00740455,
0.142957,-0.225556,-0.20772,-1.71432,-0.0272032,-0.188796,-0.383015,0.615601,-0.0543945,0.567956,-0.240452,0.278415,-0.0662246,0.0147959,0,0,0,0,0,0,0,0.154195,-0.22563,-0.196616,-1.71764,-0.0227578,1.38273,0.402279,0.495602,-0.00801521,0.455157,-0.162946,0.152545,0.0284571,0.000723803,0.00751081,-25.7863,1.61165,25.7092,1.12487,1.87951,0.0239107,-2.24593,-1.46289,-0.686121,1.36382,-0.823922,-0.760006,-0.655546,-0.223317,-1.0185,-0.625095,0.182516,-0.637336,0.0121996,
0.161444,-0.226054,-0.189959,-1.72048,-0.0195159,-0.188636,-0.382935,0.642731,-0.0356926,0.599716,-0.249943,0.338044,-0.0917144,0.0144277,0,0,0,0,0,0,0,0.154195,-0.22563,-0.196616,-1.71764,-0.0227578,1.38273,0.402279,0.495602,-0.00801521,0.455157,-0.162946,0.152545,0.0284571,0.000723803,0.00751081,-25.7863,1.61165,25.7092,1.12487,1.87951,0.0239107,-2.24593,-1.46289,-0.686121,1.36382,-0.823922,-0.760006,-0.655546,-0.223317,-1.0185,-0.625095,0.182516,-0.637336,0.0121996,
0.164136,-0.226178,-0.187419,-1.7215,-0.0178848,-0.189141,-0.382881,0.6729,-0.0309901,0.635037,-0.254295,0.407772,-0.126053,0.0134489,0,0,0,0,0,0,0,0.154195,-0.22563,-0.196616,-1.71764,-0.0227578,1.38273,0.402279,0.495602,-0.00801521,0.455157,-0.162946,0.152545,0.0284571,0.000723803,0.00751081,-25.7863,1.61165,25.7092,1.12487,1.87951,0.0239107,-2.3251,-1.67395,-0.97063,1.51578,-0.81087,-0.846593,-0.720055,-0.20342,-1.14073,-0.680762,0.173131,-0.596591,0.0118551,
0.16693,-0.226279,-0.18476,-1.72252,-0.0159837,-0.189746,-0.382831,0.698533,-0.0253122,0.664876,-0.256588,0.475287,-0.151305,0.0126337,0,0,0,0,0,0,0,0.170778,-0.225662,-0.180203,-1.72267,-0.0153271,1.38307,0.402293,0.51924,-0.00185424,0.520461,-0.149453,0.294833,0.0019833,0.000196577,3.25275,-25.9847,4.41255,24.8087,1.8637,1.89965,-0.0301054,-1.78933,0.881531,-1.11944,-0.149519,-0.342408,0.355221,0.450802,0.220589,0.224502,-0.835892,0.498048,-0.595004,0.00753329,
0.169812,-0.226357,-0.181998,-1.72356,-0.0138274,-0.19042,-0.382783,0.720487,-0.0193689,0.690289,-0.257802,0.539068,-0.168489,0.0119449,0,0,0,0,0,0,0,0.170778,-0.225662,-0.180203,-1.72267,-0.0153271,1.38307,0.402293,0.51924,-0.00185424,0.520461,-0.149453,0.294833,0.0019833,0.000196577,3.25275,-25.9847,4.41255,24.8087,1.8637,1.89965,-0.0301054,-1.78933,0.881531,-1.11944,-0.149519,-0.342408,0.355221,0.450802,0.220589,0.224502,-0.835892,0.498048,-0.595004,0.00753329,
0.17277,-0.226411,-0.17915,-1.72459,-0.0114343,-0.191136,-0.382738,0.739403,-0.0134829,0.712083,-0.258306,0.59828,-0.178912,0.0113489,0,0,0,0,0,0,0,0.170778,-0.225662,-0.180203,-1.72267,-0.0153271,1.38307,0.402293,0.51924,-0.00185424,0.520461,-0.149453,0.294833,0.0019833,0.000196577,3.25275,-25.9847,4.41255,24.8087,1.8637,1.89965,-0.0301054,-1.19557,3.0936,-1.50618,-1.69721,0.259665,1.39558,1.41035,0.766901,1.46827,-1.07704,0.678984,-0.586976,0.00369823,
0.158873,-0.225911,-0.192358,-1.71948,-0.0208681,-0.18827,-0.382993,0.606809,-0.037703,0.557532,-0.240788,0.268647,-0.0486985,0.0155851,0,0,0,0,0,0,0,0.170778,-0.225662,-0.180203,-1.72267,-0.0153271,1.38307,0.402293,0.51924,-0.00185424,0.520461,-0.149453,0.294833,0.0019833,0.000196577,3.25275,-25.9847,4.41255,24.8087,1.8637,1.89965,-0.0301054,-1.19557,3.0936,-1.50618,-1.69721,0.259665,1.39558,1.41035,0.766901,1.46827,-1.07704,0.678984,-0.586976,0.00369823,
0.178407,-0.226028,-0.17309,-1.72541,-0.0106906,-0.188271,-0.382929,0.670452,-0.0307938,0.632362,-0.242746,0.442772,-0.0799892,0.013714,0,0,0,0,0,0,0,0.170778,-0.225662,-0.180203,-1.72267,-0.0153271,1.38307,0.402293,0.51924,-0.00185424,0.520461,-0.149453,0.294833,0.0019833,0.000196577,3.25275,-25.9847,4.41255,24.8087,1.8637,1.89965,-0.0301054,-1.51936,0.984181,-1.80962,-0.393077,0.0479469,0.434814,0.501177,0.554098,0.359717,-1.0384,0.355506,-0.501988,0.00626644,
0.181196,-0.226132,-0.170435,-1.7264,-0.0086843,-0.188702,-0.382878,0.697168,-0.025963,0.66367,-0.247257,0.501566,-0.10775,0.0128229,0,0,0,0,0,0,0,0.170778,-0.225662,-0.180203,-1.72267,-0.0153271,1.38307,0.402293,0.51924,-0.00185424,0.520461,-0.149453,0.294833,0.0019833,0.000196577,3.25275,-25.9847,4.41255,24.8087,1.8637,1.89965,-0.0301054,-2.61152,-2.28298,-1.85185,1.83451,-0.821018,-1.076,-0.950115,-0.162357,-1.39183,-0.831019,0.0671243,-0.450748,0.0111428,
0.184075,-0.226213,-0.167675,-1.7274,-0.00644896,-0.189215,-0.38283,0.71983,-0.0202523,0.690095,-0.24956,0.558835,-0.128028,0.0120776,0,0,0,0,0,0,0,0.193083,-0.225474,-0.158612,-1.7289,-0.00495739,1.38334,0.402299,0.533416,0.00684486,0.539889,-0.150571,0.257817,0.0128676,-0.000634023,-0.29797,-27.0598,0.86183,25.3601,1.61377,1.69366,0.0577852,-2.61152,-2.28298,-1.85185,1.83451,-0.821018,-1.076,-0.950115,-0.162357,-1.39183,-0.831019,0.0671243,-0.450748,0.0111428,
0.187032,-0.226271,-0.164825,-1.7284,-0.00399633,-0.18978,-0.382784,0.739208,-0.014372,0.712577,-0.250734,0.613157,-0.141473,0.0114566,0,0,0,0,0,0,0,0.193083,-0.225474,-0.158612,-1.7289,-0.00495739,1.38334,0.402299,0.533416,0.00684486,0.539889,-0.150571,0.257817,0.0128676,-0.000634023,-0.29797,-27.0598,0.86183,25.3601,1.61377,1.69366,0.0577852,-2.34551,0.608015,-1.72262,-0.0528143,-0.594314,0.267404,0.339012,0.151368,0.159645,-0.924801,0.43241,-0.511417,0.0103401,
0.190056,-0.226305,-0.161897,-1.72941,-0.00134142,-0.190377,-0.38274,0.755883,-0.00862715,0.73184,-0.251188,0.663726,-0.149136,0.0109041,0,0,0,0,0,0,0,0.193083,-0.225474,-0.158612,-1.7289,-0.00495739,1.38334,0.402299,0.533416,0.00684486,0.539889,-0.150571,0.257817,0.0128676,-0.000634023,-0.29797,-27.0598,0.86183,25.3601,1.61377,1.69366,0.0577852,-2.34551,0.608015,-1.72262,-0.0528143,-0.594314,0.267404,0.339012,0.151368,0.159645,-0.924801,0.43241,-0.511417,0.0103401,
0.175726,-0.225905,-0.17562,-1.72444,-0.0124616,-0.187952,-0.382984,0.63853,-0.0329607,0.594982,-0.233021,0.384789,-0.0457497,0.0147919,0,0,0,0,0,0,0,0.193083,-0.225474,-0.158612,-1.7289,-0.00495739,1.38334,0.402299,0.533416,0.00684486,0.539889,-0.150571,0.257817,0.0128676,-0.000634023,-0.29797,-27.0598,0.86183,25.3601,1.61377,1.69366,0.0577852,-2.59069,0.408995,-1.46084,0.0498039,-0.886923,0.189014,0.239576,-0.0628101,0.102527,-0.791715,0.396212,-0.504307,0.0120021,
0.200814,-0.225718,-0.151353,-1.7316,-0.000501199,-0.187784,-0.382925,0.67701,-0.0208565,0.642023,-0.238989,0.434663,-0.058452,0.0136751,0,0,0,0,0,0,0,0.193083,-0.225474,-0.158612,-1.7289,-0.00495739,1.38334,0.402299,0.533416,0.00684486,0.539889,-0.150571,0.257817,0.0128676,-0.000634023,-0.29797,-27.0598,0.86183,25.3601,1.61377,1.69366,0.0577852,-2.75852,1.15098,-1.93445,-0.590118,-0.894844,0.579331,0.674754,0.0632262,0.528759,-0.907393,0.336523,-0.441626,0.00637535,
0.203624,-0.225784,-0.148666,-1.73258,0.00148772,-0.188118,-0.382873,0.702466,-0.0166139,0.671694,-0.243128,0.497229,-0.0835292,0.012819,0,0,0,0,0,0,0,0.209628,-0.225437,-0.142393,-1.7338,0.00295752,1.38399,0.402311,0.546782,0.00200049,0.534161,-0.165024,0.332112,0.0101765,-0.00037897,1.83246,-26.4607,2.88911,25.2094,1.67419,1.82,-0.0026396,-2.75852,1.15098,-1.93445,-0.590118,-0.894844,0.579331,0.674754,0.0632262,0.528759,-0.907393,0.336523,-0.441626,0.00637535,
0.206521,-0.22583,-0.145878,-1.73356,0.00371516,-0.188525,-0.382825,0.724172,-0.0115607,0.696896,-0.245129,0.556861,-0.101759,0.012078,0,0,0,0,0,0,0,0.209628,-0.225437,-0.142393,-1.7338,0.00295752,1.38399,0.402311,0.546782,0.00200049,0.534161,-0.165024,0.332112,0.0101765,-0.00037897,1.83246,-26.4607,2.88911,25.2094,1.67419,1.82,-0.0026396,-2.02354,-0.444275,-2.26818,0.476158,-0.181417,-0.169888,-0.0708721,0.408242,-0.343903,-1.10532,0.197318,-0.465264,0.00834676,
0.209484,-0.225856,-0.142999,-1.73454,0.00616891,-0.188979,-0.38278,0.740684,-0.00630085,0.719672,-0.246059,0.613438,-0.113675,0.0113932,0,0,0,0,0,0,0,0.209628,-0.225437,-0.142393,-1.7338,0.00295752,1.38399,0.402311,0.546782,0.00200049,0.534161,-0.165024,0.332112,0.0101765,-0.00037897,1.83246,-26.4607,2.88911,25.2094,1.67419,1.82,-0.0026396,-2.02354,-0.444275,-2.26818,0.476158,-0.181417,-0.169888,-0.0708721,0.408242,-0.343903,-1.10532,0.197318,-0.465264,0.00834676,
0.212493,-0.22586,-0.140038,-1.73553,0.0088356,-0.18946,-0.382737,0.752376,-0.00110657,0.740427,-0.24631,0.666672,-0.120244,0.0107317,0,0,0,0,0,0,0,0.209628,-0.225437,-0.142393,-1.7338,0.00295752,1.38399,0.402311,0.546782,0.00200049,0.534161,-0.165024,0.332112,0.0101765,-0.00037897,1.83246,-26.4607,2.88911,25.2094,1.67419,1.82,-0.0026396,-1.87833,0.172604,-2.13837,0.107149,-0.0383886,0.106874,0.131535,0.536488,0.0194447,-1.15542,0.333501,-0.535363,0.00767711,
0.215539,-0.225845,-0.137004,-1.73651,0.0116985,-0.18995,-0.382696,0.761474,0.0038423,0.758372,-0.24604,0.715716,-0.122427,0.0101757,0,0,0,0,0,0,0,0.209628,-0.225437,-0.142393,-1.7338,0.00295752,1.38399,0.402311,0.546782,0.00200049,0.534161,-0.165024,0.332112,0.0101765,-0.00037897,1.83246,-26.4607,2.88911,25.2094,1.67419,1.82,-0.0026396,-1.77975,0.0738801,-2.16817,0.119144,0.0244448,0.0766673,0.124791,0.568111,-0.0275246,-1.15368,0.282375,-0.512224,0.00820444,
0.198106,-0.225634,-0.153921,-1.73065,-0.00223985,-0.18755,-0.382979,0.646791,-0.0226301,0.60687,-0.229845,0.370816,-0.0275748,0.0146952,0,0,0,0,0,0,0,0.226557,-0.225439,-0.125734,-1.73873,0.0123097,1.38504,0.402322,0.547311,-0.00137056,0.551418,-0.151852,0.325199,0.0187097,-0.0005689,2.41565,-26.433,2.88911,25.2847,1.28967,2.3565,-0.0163725,-1.77975,0.0738801,-2.16817,0.119144,0.0244448,0.0766673,0.124791,0.568111,-0.0275246,-1.15368,0.282375,-0.512224,0.00820444,
0.234392,-0.225692,-0.118335,-1.74136,0.0173849,-0.185913,-0.382903,0.68475,-0.0198984,0.652866,-0.231075,0.478637,-0.0389266,0.0135756,0,0,0,0,0,0,0,0.226557,-0.225439,-0.125734,-1.73873,0.0123097,1.38504,0.402322,0.547311,-0.00137056,0.551418,-0.151852,0.325199,0.0187097,-0.0005689,2.41565,-26.433,2.88911,25.2847,1.28967,2.3565,-0.0163725,-1.15616,-0.601059,-2.66579,0.490847,0.615404,-0.23672,-0.124311,0.903931,-0.43959,-1.32385,0.152632,-0.442735,0.00585363,
0.237222,-0.225751,-0.115603,-1.7423,0.0195273,-0.186152,-0.382853,0.707388,-0.0148639,0.683059,-0.235181,0.535595,-0.0597301,0.0126547,0,0,0,0,0,0,0,0.226557,-0.225439,-0.125734,-1.73873,0.0123097,1.38504,0.402322,0.547311,-0.00137056,0.551418,-0.151852,0.325199,0.0187097,-0.0005689,2.41565,-26.433,2.88911,25.2847,1.28967,2.3565,-0.0163725,-1.15616,-0.601059,-2.66579,0.490847,0.615404,-0.23672,-0.124311,0.903931,-0.43959,-1.32385,0.152632,-0.442735,0.00585363,
0.240118,-0.225789,-0.112764,-1.74325,0.0218933,-0.186451,-0.382806,0.724062,-0.00926274,0.709817,-0.23732,0.591505,-0.0746821,0.0118023,0,0,0,0,0,0,0,0.226557,-0.225439,-0.125734,-1.73873,0.0123097,1.38504,0.402322,0.547311,-0.00137056,0.551418,-0.151852,0.325199,0.0187097,-0.0005689,2.41565,-26.433,2.88911,25.2847,1.28967,2.3565,-0.0163725,-1.72925,1.21934,-2.2103,-0.647036,0.0380389,0.633943,0.723443,0.651399,0.562577,-1.14159,0.416806,-0.450935,0.00186575,
0.243067,-0.225803,-0.109833,-1.7442,0.0244719,-0.186788,-0.382761,0.737258,-0.00368392,0.732663,-0.238401,0.644636,-0.0842139,0.0110907,0,0,0,0,0,0,0,0.226557,-0.225439,-0.125734,-1.73873,0.0123097,1.38504,0.402322,0.547311,-0.00137056,0.551418,-0.151852,0.325199,0.0187097,-0.0005689,2.41565,-26.433,2.88911,25.2847,1.28967,2.3565,-0.0163725,-1.72925,1.21934,-2.2103,-0.647036,0.0380389,0.633943,0.723443,0.651399,0.562577,-1.14159,0.416806,-0.450935,0.00186575,
0.246058,-0.225797,-0.106824,-1.74516,0.0272485,-0.187144,-0.382719,0.747689,0.00163396,0.752217,-0.238789,0.694159,-0.0891283,0.0104799,0,0,0,0,0,0,0,0.226557,-0.225439,-0.125734,-1.73873,0.0123097,1.38504,0.402322,0.547311,-0.00137056,0.551418,-0.151852,0.325199,0.0187097,-0.0005689,2.41565,-26.433,2.88911,25.2847,1.28967,2.3565,-0.0163725,-1.99949,0.129221,-1.19473,0.205854,-0.562711,0.129119,0.161511,0.0393762,0.0394996,-0.699133,0.414666,-0.441451,0.00838497,
0.249081,-0.22577,-0.103748,-1.74611,0.0302072,-0.187505,-0.38268,0.755833,0.00658973,0.769035,-0.238651,0.739666,-0.0902461,0.0099415,0,0,0,0,0,0,0,0.244253,-0.22521,-0.108294,-1.74352,0.0226264,1.38586,0.402334,0.550251,0.00923075,0.547219,-0.148531,0.317108,0.0286652,0.00195747,1.40003,-27.0836,2.01234,24.9118,0.837399,2.37023,-0.0365141,-1.64461,-0.636872,-1.29116,0.613558,-0.386547,-0.219872,-0.156642,0.0556409,-0.362827,-0.642948,0.231018,-0.328436,0.00797452,
0.231653,-0.225612,-0.120947,-1.74043,0.0154704,-0.185757,-0.382958,0.655329,-0.0229565,0.618479,-0.222492,0.422136,-0.0132276,0.0145787,0,0,0,0,0,0,0,0.244253,-0.22521,-0.108294,-1.74352,0.0226264,1.38586,0.402334,0.550251,0.00923075,0.547219,-0.148531,0.317108,0.0286652,0.00195747,1.40003,-27.0836,2.01234,24.9118,0.837399,2.37023,-0.0365141,-1.64461,-0.636872,-1.29116,0.613558,-0.386547,-0.219872,-0.156642,0.0556409,-0.362827,-0.642948,0.231018,-0.328436,0.00797452,
0.252039,-0.225355,-0.100881,-1.7461,0.0276458,-0.184882,-0.38289,0.677162,-0.0117438,0.656303,-0.22745,0.475724,-0.0177018,0.0135608,0,0,0,0,0,0,0,0.244253,-0.22521,-0.108294,-1.74352,0.0226264,1.38586,0.402334,0.550251,0.00923075,0.547219,-0.148531,0.317108,0.0286652,0.00195747,1.40003,-27.0836,2.01234,24.9118,0.837399,2.37023,-0.0365141,-2.1534,-0.514445,-1.30102,0.552751,-0.807443,-0.112251,0.00998696,-0.186477,-0.289605,-0.554312,0.259803,-0.281646,0.00695732,
0.254828,-0.225385,-0.0981311,-1.74703,0.0297824,-0.185028,-0.38284,0.697254,-0.0074087,0.687404,-0.23125,0.534157,-0.0366012,0.0125921,0,0,0,0,0,0,0,0.244253,-0.22521,-0.108294,-1.74352,0.0226264,1.38586,0.402334,0.550251,0.00923075,0.547219,-0.148531,0.317108,0.0286652,0.00195747,1.40003,-27.0836,2.01234,24.9118,0.837399,2.37023,-0.0365141,-2.1534,-0.514445,-1.30102,0.552751,-0.807443,-0.112251,0.00998696,-0.186477,-0.289605,-0.554312,0.259803,-0.281646,0.00695732,
0.257681,-0.225395,-0.0952761,-1.74796,0.0321449,-0.185229,-0.382793,0.713367,-0.00251299,0.713727,-0.233088,0.590623,-0.0501667,0.0117691,0,0,0,0,0,0,0,0.244253,-0.22521,-0.108294,-1.74352,0.0226264,1.38586,0.402334,0.550251,0.00923075,0.547219,-0.148531,0.317108,0.0286652,0.00195747,1.40003,-27.0836,2.01234,24.9118,0.837399,2.37023,-0.0365141,-1.94938,1.8147,-1.45756,-0.926188,-0.511809,0.938632,1.01121,0.214749,0.915193,-0.718036,0.59402,-0.311429,0.00422201,
0.260586,-0.225385,-0.0923316,-1.7489,0.0347206,-0.185464,-0.382749,0.726245,0.00238592,0.736141,-0.233899,0.643935,-0.0587242,0.0110547,0,0,0,0,0,0,0,0.262449,-0.224791,-0.0896286,-1.74851,0.0345703,1.38648,0.402337,0.558918,0.0106478,0.534552,-0.146317,0.310465,0.0233884,-0.000431592,-0.476498,-27.1352,0.238966,25.5585,1.10016,2.25762,0.00376909,-1.94938,1.8147,-1.45756,-0.926188,-0.511809,0.938632,1.01121,0.214749,0.915193,-0.718036,0.59402,-0.311429,0.00422201,
0.263532,-0.225357,-0.0893102,-1.74983,0.0374943,-0.185716,-0.382707,0.736445,0.00705991,0.755341,-0.23405,0.693418,-0.0629876,0.0104279,0,0,0,0,0,0,0,0.262449,-0.224791,-0.0896286,-1.74851,0.0345703,1.38648,0.402337,0.558918,0.0106478,0.534552,-0.146317,0.310465,0.0233884,-0.000431592,-0.476498,-27.1352,0.238966,25.5585,1.10016,2.25762,0.00376909,-1.92466,2.08389,-2.03267,-1.14284,-0.228005,1.05874,1.07991,0.516781,1.08672,-0.978613,0.64457,-0.342708,0.00314321,
0.26651,-0.225312,-0.0862227,-1.75077,0.0404493,-0.18597,-0.382667,0.744407,0.0114122,0.771875,-0.233705,0.738754,-0.0637053,0.00987401,0,0,0,0,0,0,0,0.262449,-0.224791,-0.0896286,-1.74851,0.0345703,1.38648,0.402337,0.558918,0.0106478,0.534552,-0.146317,0.310465,0.0233884,-0.000431592,-0.476498,-27.1352,0.238966,25.5585,1.10016,2.25762,0.00376909,-2.20029,-0.52056,-2.28545,0.481604,-0.409667,-0.0933313,-0.0617842,0.227672,-0.202354,-0.968771,0.307558,-0.321198,0.0067485,
0.24933,-0.225308,-0.103506,-1.74519,0.0257429,-0.184811,-0.382945,0.65195,-0.0140854,0.619444,-0.219146,0.417218,0.00539759,0.0146955,0,0,0,0,0,0,0,0.262449,-0.224791,-0.0896286,-1.74851,0.0345703,1.38648,0.402337,0.558918,0.0106478,0.534552,-0.146317,0.310465,0.0233884,-0.000431592,-0.476498,-27.1352,0.238966,25.5585,1.10016,2.25762,0.00376909,-2.20029,-0.52056,-2.28545,0.481604,-0.409667,-0.0933313,-0.0617842,0.227672,-0.202354,-0.968771,0.307558,-0.321198,0.0067485,
0.270107,-0.2249,-0.0821904,-1.75105,0.0395793,-0.184178,-0.382888,0.665239,-0.00835983,0.658879,-0.222825,0.47544,-0.00607869,0.0135963,0,0,0,0,0,0,0,0.262449,-0.224791,-0.0896286,-1.74851,0.0345703,1.38648,0.402337,0.558918,0.0106478,0.534552,-0.146317,0.310465,0.0233884,-0.000431592,-0.476498,-27.1352,0.238966,25.5585,1.10016,2.25762,0.00376909,-2.18082,-1.84613,-2.28309,1.31109,-0.491709,-0.671038,-0.559768,0.03235,-0.910875,-0.872611,0.115359,-0.252735,0.00726814,
0.272848,-0.224916,-0.0794311,-1.75195,0.0417143,-0.184263,-0.382838,0.685238,-0.00405516,0.689817,-0.226376,0.53375,-0.0213249,0.0126188,0,0,0,0,0,0,0,0.262449,-0.224791,-0.0896286,-1.74851,0.0345703,1.38648,0.402337,0.558918,0.0106478,0.534552,-0.146317,0.310465,0.0233884,-0.000431592,-0.476498,-27.1352,0.238966,25.5585,1.10016,2.25762,0.00376909,-2.18082,-1.84613,-2.28309,1.31109,-0.491709,-0.671038,-0.559768,0.03235,-0.910875,-0.872611,0.115359,-0.252735,0.00726814,
0.275653,-0.224913,-0.0765671,-1.75287,0.0440741,-0.184392,-0.382791,0.701312,0.000711341,0.716008,-0.228024,0.589935,-0.0320663,0.0117701,0,0,0,0,0,0,0,0.284775,-0.223985,-0.066199,-1.75401,0.0488058,1.38755,0.402344,0.538935,0.0121364,0.565551,-0.134422,0.347692,0.0337525,-0.000319774,-0.0202602,-26.6829,0.286573,25.134,1.27136,2.10473,0.00376909,-1.50984,-0.107602,-2.23556,0.23462,0.0492723,0.0583765,0.155979,0.472857,-0.102238,-0.961675,0.378528,-0.253277,0.00298817,
0.27851,-0.224891,-0.0736138,-1.75378,0.0466456,-0.184546,-0.382747,0.714167,0.0054216,0.73832,-0.228677,0.642893,-0.0384758,0.011031,0,0,0,0,0,0,0,0.284775,-0.223985,-0.066199,-1.75401,0.0488058,1.38755,0.402344,0.538935,0.0121364,0.565551,-0.134422,0.347692,0.0337525,-0.000319774,-0.0202602,-26.6829,0.286573,25.134,1.27136,2.10473,0.00376909,-1.90606,3.18004,-2.37045,-1.95358,-0.0593816,1.59462,1.61894,0.807444,1.6881,-1.1282,0.749334,-0.326772,-0.00271106,
0.281408,-0.224852,-0.0705841,-1.75469,0.0494136,-0.18471,-0.382705,0.724354,0.00987075,0.757434,-0.228694,0.691992,-0.0411365,0.0103826,0,0,0,0,0,0,0,0.284775,-0.223985,-0.066199,-1.75401,0.0488058,1.38755,0.402344,0.538935,0.0121364,0.565551,-0.134422,0.347692,0.0337525,-0.000319774,-0.0202602,-26.6829,0.286573,25.134,1.27136,2.10473,0.00376909,-1.90606,3.18004,-2.37045,-1.95358,-0.0593816,1.59462,1.61894,0.807444,1.6881,-1.1282,0.749334,-0.326772,-0.00271106,
0.267446,-0.224866,-0.0848259,-1.75016,0.0376776,-0.184154,-0.382943,0.640363,-0.0108481,0.622113,-0.214905,0.416725,0.0123972,0.0146692,0,0,0,0,0,0,0,0.284775,-0.223985,-0.066199,-1.75401,0.0488058,1.38755,0.402344,0.538935,0.0121364,0.565551,-0.134422,0.347692,0.0337525,-0.000319774,-0.0202602,-26.6829,0.286573,25.134,1.27136,2.10473,0.00376909,-1.51328,-0.540105,-2.57549,0.439399,0.224681,-0.126391,-0.0934242,0.62099,-0.252695,-1.13795,0.339695,-0.308039,0.00250037,
0.292379,-0.224077,-0.0586164,-1.75644,0.0541645,-0.182847,-0.382884,0.659887,-0.00692309,0.66918,-0.215043,0.501596,0.0194846,0.013322,0,0,0,0,0,0,0,0.284775,-0.223985,-0.066199,-1.75401,0.0488058,1.38755,0.402344,0.538935,0.0121364,0.565551,-0.134422,0.347692,0.0337525,-0.000319774,-0.0202602,-26.6829,0.286573,25.134,1.27136,2.10473,0.00376909,-1.51328,-0.540105,-2.57549,0.439399,0.224681,-0.126391,-0.0934242,0.62099,-0.252695,-1.13795,0.339695,-0.308039,0.00250037,
0.295095,-0.224087,-0.0558204,-1.75731,0.0563917,-0.182822,-0.382835,0.679008,-0.00249573,0.699007,-0.218915,0.556803,0.00623626,0.0123569,0,0,0,0,0,0,0,0.302637,-0.223419,-0.0472741,-1.75837,0.0602372,1.389,0.402344,0.562819,0.0159413,0.617448,-0.142237,0.423988,0.043492,-0.000336749,1.07074,-26.6075,1.11177,25.0586,1.6925,1.97198,0.017502,-1.59363,-1.85698,-2.27985,1.25479,-0.0737927,-0.681495,-0.580495,0.246015,-0.914446,-0.906988,0.111975,-0.227527,0.00383331,
0.297872,-0.224078,-0.0529233,-1.7582,0.0588317,-0.182835,-0.382789,0.694339,0.00232311,0.724265,-0.220775,0.61,-0.00322294,0.0115173,0,0,0,0,0,0,0,0.302637,-0.223419,-0.0472741,-1.75837,0.0602372,1.389,0.402344,0.562819,0.0159413,0.617448,-0.142237,0.423988,0.043492,-0.000336749,1.07074,-26.6075,1.11177,25.0586,1.6925,1.97198,0.017502,-1.36514,-0.328861,-2.28915,0.239387,0.153517,-0.0133321,0.0723504,0.539533,-0.153564,-0.986236,0.280613,-0.243875,0.00258606,
0.300698,-0.22405,-0.0499402,-1.75908,0.0614723,-0.18287,-0.382746,0.70656,0.00702043,0.745778,-0.221587,0.66016,-0.00887446,0.0107848,0,0,0,0,0,0,0,0.302637,-0.223419,-0.0472741,-1.75837,0.0602372,1.389,0.402344,0.562819,0.0159413,0.617448,-0.142237,0.423988,0.043492,-0.000336749,1.07074,-26.6075,1.11177,25.0586,1.6925,1.97198,0.017502,-1.36514,-0.328861,-2.28915,0.239387,0.153517,-0.0133321,0.0723504,0.539533,-0.153564,-0.986236,0.280613,-0.243875,0.00258606,
0.303563,-0.224004,-0.0468834,-1.75997,0.0642991,-0.182915,-0.382705,0.716204,0.0114042,0.7642,-0.221734,0.706686,-0.0111731,0.010142,0,0,0,0,0,0,0,0.302637,-0.223419,-0.0472741,-1.75837,0.0602372,1.389,0.402344,0.562819,0.0159413,0.617448,-0.142237,0.423988,0.043492,-0.000336749,1.07074,-26.6075,1.11177,25.0586,1.6925,1.97198,0.017502,-1.58462,2.13714,-2.65418,-1.4291,0.267124,1.1177,1.12287,0.977538,1.18282,-1.24668,0.5748,-0.324042,-0.00165955,
0.289739,-0.22405,-0.0612931,-1.75558,0.0521581,-0.182925,-0.382938,0.636032,-0.00957854,0.633802,-0.206555,0.445942,0.0349278,0.0143958,0,0,0,0,0,0,0,0.302637,-0.223419,-0.0472741,-1.75837,0.0602372,1.389,0.402344,0.562819,0.0159413,0.617448,-0.142237,0.423988,0.043492,-0.000336749,1.07074,-26.6075,1.11177,25.0586,1.6925,1.97198,0.017502,-1.58462,2.13714,-2.65418,-1.4291,0.267124,1.1177,1.12287,0.977538,1.18282,-1.24668,0.5748,-0.324042,-0.00165955,
0.310438,-0.223425,-0.0392676,-1.76079,0.0664543,-0.18124,-0.382898,0.671884,0.000470937,0.699054,-0.212283,0.569113,0.0350038,0.0123202,0,0,0,0,0,0,0,0.302637,-0.223419,-0.0472741,-1.75837,0.0602372,1.389,0.402344,0.562819,0.0159413,0.617448,-0.142237,0.423988,0.043492,-0.000336749,1.07074,-26.6075,1.11177,25.0586,1.6925,1.97198,0.017502,-1.49403,-0.615137,-2.67989,0.353597,0.237977,-0.11257,-0.0592373,0.651341,-0.236806,-1.1573,0.270821,-0.281678,0.00279741,
0.313188,-0.223407,-0.0363686,-1.76165,0.0689303,-0.181141,-0.382852,0.687586,0.00444183,0.724759,-0.215519,0.61902,0.0245823,0.0114727,0,0,0,0,0,0,0,0.320446,-0.222985,-0.0284282,-1.76288,0.0718523,1.39098,0.402351,0.556458,0.0129992,0.623102,-0.13713,0.422965,0.0577093,0.000739129,0.285221,-26.9328,0.163588,25.0586,1.3327,2.29058,-0.0227812,-1.49403,-0.615137,-2.67989,0.353597,0.237977,-0.11257,-0.0592373,0.651341,-0.236806,-1.1573,0.270821,-0.281678,0.00279741,
0.315988,-0.223372,-0.0333822,-1.76252,0.0715967,-0.181072,-0.382809,0.700069,0.00868768,0.746594,-0.216955,0.666581,0.017388,0.0107298,0,0,0,0,0,0,0,0.320446,-0.222985,-0.0284282,-1.76288,0.0718523,1.39098,0.402351,0.556458,0.0129992,0.623102,-0.13713,0.422965,0.0577093,0.000739129,0.285221,-26.9328,0.163588,25.0586,1.3327,2.29058,-0.0227812,-1.46072,-1.06348,-2.86486,0.602693,0.285646,-0.300466,-0.220315,0.651733,-0.4672,-1.18922,0.206345,-0.249559,0.000251774,
0.318828,-0.223321,-0.0303212,-1.76339,0.074441,-0.181018,-0.382768,0.709897,0.0127766,0.765239,-0.217442,0.711074,0.0134475,0.0100781,0,0,0,0,0,0,0,0.320446,-0.222985,-0.0284282,-1.76288,0.0718523,1.39098,0.402351,0.556458,0.0129992,0.623102,-0.13713,0.422965,0.0577093,0.000739129,0.285221,-26.9328,0.163588,25.0586,1.3327,2.29058,-0.0227812,-1.46072,-1.06348,-2.86486,0.602693,0.285646,-0.300466,-0.220315,0.651733,-0.4672,-1.18922,0.206345,-0.249559,0.000251774,
0.321698,-0.223255,-0.0271963,-1.76426,0.0774494,-0.180969,-0.38273,0.717516,0.0165525,0.78124,-0.217321,0.752099,0.0123727,0.00950391,0,0,0,0,0,0,0,0.320446,-0.222985,-0.0284282,-1.76288,0.0718523,1.39098,0.402351,0.556458,0.0129992,0.623102,-0.13713,0.422965,0.0577093,0.000739129,0.285221,-26.9328,0.163588,25.0586,1.3327,2.29058,-0.0227812,-1.14189,0.640682,-2.5813,-0.476023,0.504008,0.408143,0.429381,0.921764,0.37173,-1.18458,0.42524,-0.280859,-0.00224204,
0.324591,-0.223175,-0.0240161,-1.76512,0.0806074,-0.180914,-0.382694,0.723279,0.0199647,0.795036,-0.216749,0.789498,0.0136915,0.00899574,0,0,0,0,0,0,0,0.320446,-0.222985,-0.0284282,-1.76288,0.0718523,1.39098,0.402351,0.556458,0.0129992,0.623102,-0.13713,0.422965,0.0577093,0.000739129,0.285221,-26.9328,0.163588,25.0586,1.3327,2.29058,-0.0227812,-0.994007,0.828843,-2.1831,-0.584792,0.418558,0.478909,0.502624,0.809638,0.457143,-1.00625,0.408396,-0.235973,-0.00288557,
0.30775,-0.223427,-0.0420638,-1.75994,0.0641778,-0.18138,-0.382947,0.652168,-0.00204398,0.668696,-0.204971,0.517959,0.0472516,0.0132577,0,0,0,0,0,0,0,0.337914,-0.222519,-0.009129,-1.76729,0.0836133,1.39322,0.402353,0.53771,0.0151184,0.605519,-0.137193,0.383574,0.0615937,0.000450324,1.93164,-27.1074,1.28633,25.5585,2.01019,2.17797,-0.0301054,-0.994007,0.828843,-2.1831,-0.584792,0.418558,0.478909,0.502624,0.809638,0.457143,-1.00625,0.408396,-0.235973,-0.00288557,
0.345445,-0.222505,-0.00122214,-1.76964,0.0894304,-0.176745,-0.382885,0.650864,0.00256159,0.692342,-0.206066,0.538492,0.0604533,0.0125523,0,0,0,0,0,0,0,0.337914,-0.222519,-0.009129,-1.76729,0.0836133,1.39322,0.402353,0.53771,0.0151184,0.605519,-0.137193,0.383574,0.0615937,0.000450324,1.93164,-27.1074,1.28633,25.5585,2.01019,2.17797,-0.0301054,-0.875908,-0.858826,-2.00691,0.588976,0.356241,-0.277525,-0.204468,0.508145,-0.443225,-0.850796,0.272743,-0.177074,-0.00258036,
0.348116,-0.222478,0.00165531,-1.77048,0.0917931,-0.176539,-0.382838,0.667771,0.00667408,0.719361,-0.209477,0.590662,0.0512725,0.0116532,0,0,0,0,0,0,0,0.337914,-0.222519,-0.009129,-1.76729,0.0836133,1.39322,0.402353,0.53771,0.0151184,0.605519,-0.137193,0.383574,0.0615937,0.000450324,1.93164,-27.1074,1.28633,25.5585,2.01019,2.17797,-0.0301054,-0.875908,-0.858826,-2.00691,0.588976,0.356241,-0.277525,-0.204468,0.508145,-0.443225,-0.850796,0.272743,-0.177074,-0.00258036,
0.350841,-0.222435,0.00462458,-1.77132,0.0943542,-0.17636,-0.382795,0.681299,0.0109289,0.74232,-0.211079,0.640286,0.0447818,0.0108624,0,0,0,0,0,0,0,0.337914,-0.222519,-0.009129,-1.76729,0.0836133,1.39322,0.402353,0.53771,0.0151184,0.605519,-0.137193,0.383574,0.0615937,0.000450324,1.93164,-27.1074,1.28633,25.5585,2.01019,2.17797,-0.0301054,-1.03118,-0.131403,-2.06509,0.188991,0.367083,0.0574274,0.115229,0.618028,-0.0762026,-0.924167,0.471273,-0.221114,-0.00531481,
0.353609,-0.222375,0.00767228,-1.77217,0.0971009,-0.176196,-0.382754,0.692027,0.0149391,0.761924,-0.211704,0.686673,0.0411271,0.0101691,0,0,0,0,0,0,0,0.337914,-0.222519,-0.009129,-1.76729,0.0836133,1.39322,0.402353,0.53771,0.0151184,0.605519,-0.137193,0.383574,0.0615937,0.000450324,1.93164,-27.1074,1.28633,25.5585,2.01019,2.17797,-0.0301054,-1.03118,-0.131403,-2.06509,0.188991,0.367083,0.0574274,0.115229,0.618028,-0.0762026,-0.924167,0.471273,-0.221114,-0.00531481,
0.356411,-0.222301,0.0107873,-1.77301,0.100019,-0.176036,-0.382716,0.700408,0.0185767,0.778752,-0.211696,0.729441,0.0400295,0.00955955,0,0,0,0,0,0,0,0.337914,-0.222519,-0.009129,-1.76729,0.0836133,1.39322,0.402353,0.53771,0.0151184,0.605519,-0.137193,0.383574,0.0615937,0.000450324,1.93164,-27.1074,1.28633,25.5585,2.01019,2.17797,-0.0301054,-1.26013,1.23902,-1.38957,-0.588885,-0.00533887,0.691324,0.702717,0.449819,0.66994,-0.671788,0.655415,-0.211713,-0.00771433,
0.359238,-0.222213,0.0139605,-1.77386,0.103093,-0.175871,-0.382679,0.706741,0.0218103,0.793301,-0.211227,0.768471,0.0411337,0.00904543,0,0,0,0,0,0,0,0.355982,-0.221724,0.0111777,-1.77155,0.0963274,1.39508,0.402351,0.547761,0.0208311,0.587249,-0.128374,0.350526,0.0596704,0.000451864,1.14612,-27.2344,0.838026,25.4077,1.56433,2.13128,0.0239107,-0.796989,0.49759,-1.68501,-0.230981,0.362365,0.299956,0.316014,0.610518,0.244342,-0.769422,0.486403,-0.17446,-0.00584566,
0.345445,-0.222505,-0.00122209,-1.76964,0.0894296,-0.176744,-0.382885,0.65087,0.00256,0.692348,-0.206067,0.538399,0.0604818,0.0125518,0,0,0,0,0,0,0,0.355982,-0.221724,0.0111777,-1.77155,0.0963274,1.39508,0.402351,0.547761,0.0208311,0.587249,-0.128374,0.350526,0.0596704,0.000451864,1.14612,-27.2344,0.838026,25.4077,1.56433,2.13128,0.0239107,-0.796989,0.49759,-1.68501,-0.230981,0.362365,0.299956,0.316014,0.610518,0.244342,-0.769422,0.486403,-0.17446,-0.00584566,
0.363352,-0.221666,0.0190837,-1.77383,0.101921,-0.174757,-0.382889,0.637022,0.00588068,0.692491,-0.201801,0.523051,0.0748183,0.0124974,0,0,0,0,0,0,0,0.355982,-0.221724,0.0111777,-1.77155,0.0963274,1.39508,0.402351,0.547761,0.0208311,0.587249,-0.128374,0.350526,0.0596704,0.000451864,1.14612,-27.2344,0.838026,25.4077,1.56433,2.13128,0.0239107,-1.39676,-0.635379,-1.84868,0.507517,-0.0417236,-0.072822,-0.00503138,0.289548,-0.221998,-0.759156,0.404315,-0.179751,-0.00282598,
0.365968,-0.221627,0.0219618,-1.77465,0.10423,-0.174486,-0.382843,0.654054,0.00975109,0.719529,-0.205212,0.577203,0.0679039,0.0115947,0,0,0,0,0,0,0,0.355982,-0.221724,0.0111777,-1.77155,0.0963274,1.39508,0.402351,0.547761,0.0208311,0.587249,-0.128374,0.350526,0.0596704,0.000451864,1.14612,-27.2344,0.838026,25.4077,1.56433,2.13128,0.0239107,-1.39676,-0.635379,-1.84868,0.507517,-0.0417236,-0.072822,-0.00503138,0.289548,-0.221998,-0.759156,0.404315,-0.179751,-0.00282598,
0.368639,-0.221572,0.024932,-1.77548,0.106743,-0.174233,-0.3828,0.667717,0.0137561,0.742553,-0.206731,0.62833,0.0630163,0.0107935,0,0,0,0,0,0,0,0.355982,-0.221724,0.0111777,-1.77155,0.0963274,1.39508,0.402351,0.547761,0.0208311,0.587249,-0.128374,0.350526,0.0596704,0.000451864,1.14612,-27.2344,0.838026,25.4077,1.56433,2.13128,0.0239107,-1.57198,-0.140443,-1.91435,0.258494,-0.0317797,0.163513,0.217946,0.381204,0.031475,-0.836172,0.586928,-0.230715,-0.00256722,
0.371353,-0.221502,0.0279812,-1.77631,0.109447,-0.173991,-0.382759,0.6785,0.0174994,0.762291,-0.207265,0.675914,0.0605147,0.0101134,0,0,0,0,0,0,0,0.373409,-0.220785,0.0313475,-1.77539,0.109159,1.39707,0.402357,0.538544,0.0226202,0.628281,-0.125969,0.363201,0.0750622,-1.60632e-05,-0.730404,-27.2582,-1.38762,25.7092,1.89483,2.01226,0.0101778,-1.57198,-0.140443,-1.91435,0.258494,-0.0317797,0.163513,0.217946,0.381204,0.031475,-0.836172,0.586928,-0.230715,-0.00256722,
0.374103,-0.221419,0.0310994,-1.77714,0.112306,-0.173751,-0.382721,0.687423,0.0208554,0.779556,-0.206972,0.714724,0.0601927,0.00953857,0,0,0,0,0,0,0,0.373409,-0.220785,0.0313475,-1.77539,0.109159,1.39707,0.402357,0.538544,0.0226202,0.628281,-0.125969,0.363201,0.0750622,-1.60632e-05,-0.730404,-27.2582,-1.38762,25.7092,1.89483,2.01226,0.0101778,-1.61159,2.43462,-2.39964,-1.52981,0.24259,1.267,1.27621,0.99021,1.31218,-1.12525,0.85928,-0.270919,-0.00564647,
0.376894,-0.221324,0.0342699,-1.77796,0.115248,-0.173504,-0.382685,0.697825,0.0237503,0.792621,-0.205762,0.735672,0.0616036,0.00896901,0,0,0,0,0,0,0,0.373409,-0.220785,0.0313475,-1.77539,0.109159,1.39707,0.402357,0.538544,0.0226202,0.628281,-0.125969,0.363201,0.0750622,-1.60632e-05,-0.730404,-27.2582,-1.38762,25.7092,1.89483,2.01226,0.0101778,-1.51648,0.178092,-2.46862,-0.15314,0.19837,0.308344,0.331524,0.68755,0.24332,-1.07303,0.541925,-0.241014,-0.00101774,
0.363353,-0.221666,0.0190842,-1.77383,0.101912,-0.174755,-0.382889,0.63709,0.00586445,0.69255,-0.201808,0.522057,0.0750956,0.0124923,0,0,0,0,0,0,0,0.373409,-0.220785,0.0313475,-1.77539,0.109159,1.39707,0.402357,0.538544,0.0226202,0.628281,-0.125969,0.363201,0.0750622,-1.60632e-05,-0.730404,-27.2582,-1.38762,25.7092,1.89483,2.01226,0.0101778,-1.51648,0.178092,-2.46862,-0.15314,0.19837,0.308344,0.331524,0.68755,0.24332,-1.07303,0.541925,-0.241014,-0.00101774,
0.380799,-0.220694,0.0394796,-1.77763,0.114951,-0.172544,-0.38289,0.636596,0.00870088,0.708001,-0.197265,0.540854,0.095251,0.011901,0,0,0,0,0,0,0,0.373409,-0.220785,0.0313475,-1.77539,0.109159,1.39707,0.402357,0.538544,0.0226202,0.628281,-0.125969,0.363201,0.0750622,-1.60632e-05,-0.730404,-27.2582,-1.38762,25.7092,1.89483,2.01226,0.0101778,-1.28628,-1.53452,-2.31494,0.983112,0.228237,-0.442451,-0.36692,0.42868,-0.645141,-0.964047,0.357916,-0.213061,-6.08251e-05,
0.383406,-0.220644,0.0424109,-1.77843,0.11733,-0.172187,-0.382846,0.651732,0.0123842,0.732828,-0.200519,0.594665,0.0894819,0.0110905,0,0,0,0,0,0,0,0.385344,-0.220228,0.0450568,-1.77782,0.117094,1.39887,0.402364,0.547289,0.0342845,0.64438,-0.105977,0.399443,0.0815117,0.00191613,0.995365,-27.5597,-0.0387439,25.4077,1.81518,1.99853,-0.050247,-1.28628,-1.53452,-2.31494,0.983112,0.228237,-0.442451,-0.36692,0.42868,-0.645141,-0.964047,0.357916,-0.213061,-6.08251e-05,
0.386063,-0.22058,0.0454284,-1.77924,0.119889,-0.171845,-0.382804,0.664321,0.0161447,0.754371,-0.201722,0.639845,0.0853921,0.0103902,0,0,0,0,0,0,0,0.385344,-0.220228,0.0450568,-1.77782,0.117094,1.39887,0.402364,0.547289,0.0342845,0.64438,-0.105977,0.399443,0.0815117,0.00191613,0.995365,-27.5597,-0.0387439,25.4077,1.81518,1.99853,-0.050247,-1.44617,0.308687,-2.25931,-0.196324,0.21195,0.368806,0.438781,0.676972,0.26126,-1.01414,0.595347,-0.249631,-0.0035177,
0.388774,-0.220501,0.0485125,-1.78004,0.122558,-0.171512,-0.382765,0.677822,0.019571,0.771029,-0.201486,0.667137,0.0832133,0.00971022,0,0,0,0,0,0,0,0.385344,-0.220228,0.0450568,-1.77782,0.117094,1.39887,0.402364,0.547289,0.0342845,0.64438,-0.105977,0.399443,0.0815117,0.00191613,0.995365,-27.5597,-0.0387439,25.4077,1.81518,1.99853,-0.050247,-1.1833,1.14893,-2.53495,-0.802312,0.581355,0.657593,0.685495,1.06236,0.619817,-1.19771,0.715122,-0.282803,-0.00634885,
0.391532,-0.220412,0.0516508,-1.78085,0.125293,-0.17118,-0.382729,0.689373,0.0224328,0.784584,-0.200708,0.683821,0.0829605,0.00908537,0,0,0,0,0,0,0,0.385344,-0.220228,0.0450568,-1.77782,0.117094,1.39887,0.402364,0.547289,0.0342845,0.64438,-0.105977,0.399443,0.0815117,0.00191613,0.995365,-27.5597,-0.0387439,25.4077,1.81518,1.99853,-0.050247,-1.1833,1.14893,-2.53495,-0.802312,0.581355,0.657593,0.685495,1.06236,0.619817,-1.19771,0.715122,-0.282803,-0.00634885,
0.397169,-0.220212,0.0580701,-1.78244,0.130409,-0.170384,-0.382665,0.705698,0.0264315,0.804684,-0.198505,0.683289,0.0912596,0.00799568,0,0,0,0,0,0,0,0.385344,-0.220228,0.0450568,-1.77782,0.117094,1.39887,0.402364,0.547289,0.0342845,0.64438,-0.105977,0.399443,0.0815117,0.00191613,0.995365,-27.5597,-0.0387439,25.4077,1.81518,1.99853,-0.050247,-1.469,0.0484013,-2.76528,-0.204438,0.372359,0.28321,0.308217,0.86622,0.219306,-1.2325,0.538671,-0.281502,-0.00671391,
0.380806,-0.220695,0.0394847,-1.77763,0.114861,-0.172523,-0.382891,0.637305,0.00854401,0.708608,-0.19729,0.530512,0.0977605,0.0118491,0,0,0,0,0,0,0,0.385344,-0.220228,0.0450568,-1.77782,0.117094,1.39887,0.402364,0.547289,0.0342845,0.64438,-0.105977,0.399443,0.0815117,0.00191613,0.995365,-27.5597,-0.0387439,25.4077,1.81518,1.99853,-0.050247,-1.469,0.0484013,-2.76528,-0.204438,0.372359,0.28321,0.308217,0.86622,0.219306,-1.2325,0.538671,-0.281502,-0.00671391,
0.392737,-0.220085,0.0533686,-1.77996,0.123188,-0.170473,-0.382891,0.635358,0.0115316,0.721364,-0.191255,0.557085,0.120896,0.011377,0,0,0,0,0,0,0,0.40793,-0.219115,0.0718331,-1.78235,0.13304,1.40267,0.402364,0.546571,0.0311577,0.639365,-0.113903,0.404777,0.0955528,0.000209939,1.30085,-27.032,0.0366345,25.0586,1.5039,1.9793,-0.0227812,-0.567388,-1.94716,-2.21471,1.17572,0.68982,-0.721777,-0.647761,0.594397,-0.948557,-0.975044,0.286707,-0.209833,-0.0039774,
0.39535,-0.220026,0.0563409,-1.78074,0.125535,-0.170009,-0.382848,0.653108,0.0145389,0.743084,-0.194167,0.586704,0.115957,0.0105842,0,0,0,0,0,0,0,0.40793,-0.219115,0.0718331,-1.78235,0.13304,1.40267,0.402364,0.546571,0.0311577,0.639365,-0.113903,0.404777,0.0955528,0.000209939,1.30085,-27.032,0.0366345,25.0586,1.5039,1.9793,-0.0227812,-0.567388,-1.94716,-2.21471,1.17572,0.68982,-0.721777,-0.647761,0.594397,-0.948557,-0.975044,0.286707,-0.209833,-0.0039774,
0.398022,-0.219956,0.0593842,-1.78152,0.127961,-0.16956,-0.382809,0.668193,0.0176234,0.760835,-0.195049,0.606576,0.11213,0.00984428,0,0,0,0,0,0,0,0.40793,-0.219115,0.0718331,-1.78235,0.13304,1.40267,0.402364,0.546571,0.0311577,0.639365,-0.113903,0.404777,0.0955528,0.000209939,1.30085,-27.032,0.0366345,25.0586,1.5039,1.9793,-0.0227812,-1.03179,0.778987,-2.36879,-0.654374,0.550618,0.504872,0.575991,0.978941,0.431822,-1.108,0.576613,-0.252255,-0.00834019,
0.400743,-0.219874,0.0624855,-1.7823,0.130443,-0.16912,-0.382772,0.680287,0.0203667,0.775316,-0.19506,0.620369,0.10998,0.00915627,0,0,0,0,0,0,0,0.40793,-0.219115,0.0718331,-1.78235,0.13304,1.40267,0.402364,0.546571,0.0311577,0.639365,-0.113903,0.404777,0.0955528,0.000209939,1.30085,-27.032,0.0366345,25.0586,1.5039,1.9793,-0.0227812,-1.03179,0.778987,-2.36879,-0.654374,0.550618,0.504872,0.575991,0.978941,0.431822,-1.108,0.576613,-0.252255,-0.00834019,
0.403501,-0.219784,0.0656327,-1.78308,0.13297,-0.168682,-0.382738,0.689469,0.0226837,0.786791,-0.194707,0.631875,0.109503,0.00859882,0,0,0,0,0,0,0,0.40793,-0.219115,0.0718331,-1.78235,0.13304,1.40267,0.402364,0.546571,0.0311577,0.639365,-0.113903,0.404777,0.0955528,0.000209939,1.30085,-27.032,0.0366345,25.0586,1.5039,1.9793,-0.0227812,-1.44607,1.39521,-2.79127,-1.14807,0.486474,0.844672,0.868708,1.16448,0.853016,-1.31366,0.692167,-0.312618,-0.00797029,
0.392792,-0.220094,0.0534068,-1.77996,0.122507,-0.170353,-0.382895,0.640656,0.0104738,0.725879,-0.190897,0.478487,0.134695,0.0109919,0,0,0,0,0,0,0,0.425705,-0.218381,0.0927664,-1.78608,0.145549,1.40662,0.402365,0.529924,0.0232243,0.627207,-0.10581,0.365257,0.130043,0.000282593,-1.05969,-27.282,-2.21282,25.134,1.01501,2.19811,-0.0227812,-0.640504,-0.779896,-2.77752,0.21701,0.902015,-0.219766,-0.206292,1.03167,-0.317542,-1.26313,0.405371,-0.256226,-0.00397105,
0.432944,-0.218293,0.101007,-1.78812,0.150325,-0.162127,-0.382893,0.628103,0.0080501,0.716265,-0.180941,0.407337,0.172252,0.0111206,0,0,0,0,0,0,0,0.425705,-0.218381,0.0927664,-1.78608,0.145549,1.40662,0.402365,0.529924,0.0232243,0.627207,-0.10581,0.365257,0.130043,0.000282593,-1.05969,-27.282,-2.21282,25.134,1.01501,2.19811,-0.0227812,-0.640504,-0.779896,-2.77752,0.21701,0.902015,-0.219766,-0.206292,1.03167,-0.317542,-1.26313,0.405371,-0.256226,-0.00397105,
0.435531,-0.218249,0.103962,-1.78886,0.15198,-0.161452,-0.382852,0.646643,0.0112042,0.738721,-0.184478,0.413755,0.168714,0.0102446,0,0,0,0,0,0,0,0.425705,-0.218381,0.0927664,-1.78608,0.145549,1.40662,0.402365,0.529924,0.0232243,0.627207,-0.10581,0.365257,0.130043,0.000282593,-1.05969,-27.282,-2.21282,25.134,1.01501,2.19811,-0.0227812,-0.709307,-0.838263,-2.80543,0.232777,0.835532,-0.213395,-0.163766,0.992047,-0.339039,-1.25104,0.387739,-0.239293,-0.00484897,
0.438175,-0.218192,0.106988,-1.7896,0.153666,-0.16079,-0.382814,0.66103,0.0142906,0.756585,-0.18632,0.421414,0.165475,0.00951654,0,0,0,0,0,0,0,0.425705,-0.218381,0.0927664,-1.78608,0.145549,1.40662,0.402365,0.529924,0.0232243,0.627207,-0.10581,0.365257,0.130043,0.000282593,-1.05969,-27.282,-2.21282,25.134,1.01501,2.19811,-0.0227812,-0.709307,-0.838263,-2.80543,0.232777,0.835532,-0.213395,-0.163766,0.992047,-0.339039,-1.25104,0.387739,-0.239293,-0.00484897,
0.440864,-0.218123,0.110071,-1.79035,0.155373,-0.160137,-0.382778,0.672414,0.0170484,0.770657,-0.187107,0.426821,0.163179,0.00880622,0,0,0,0,0,0,0,0.425705,-0.218381,0.0927664,-1.78608,0.145549,1.40662,0.402365,0.529924,0.0232243,0.627207,-0.10581,0.365257,0.130043,0.000282593,-1.05969,-27.282,-2.21282,25.134,1.01501,2.19811,-0.0227812,-1.63567,1.11716,-2.53284,-0.968074,0.212471,0.802588,0.845941,0.940745,0.793294,-1.16863,0.646778,-0.286594,-0.008255,
0.443588,-0.218046,0.113197,-1.7911,0.157097,-0.159489,-0.382745,0.680965,0.0193675,0.781623,-0.187334,0.430923,0.162085,0.00825671,0,0,0,0,0,0,0,0.425705,-0.218381,0.0927664,-1.78608,0.145549,1.40662,0.402365,0.529924,0.0232243,0.627207,-0.10581,0.365257,0.130043,0.000282593,-1.05969,-27.282,-2.21282,25.134,1.01501,2.19811,-0.0227812,-1.24767,0.750216,-2.42986,-0.73948,0.417414,0.563049,0.603483,0.963972,0.533155,-1.13299,0.58114,-0.268051,-0.00676037,
0.433163,-0.218313,0.101154,-1.78805,0.147439,-0.161977,-0.382911,0.648502,0.00500472,0.733454,-0.174981,0.0782482,0.189776,0.00963689,0,0,0,0,0,0,0,0.447968,-0.217476,0.119764,-1.79068,0.159111,1.41281,0.402365,0.530071,0.0211079,0.646934,-0.112874,0.232358,0.165346,6.38173e-05,1.98322,-26.909,0.488905,25.3323,1.87652,2.00493,-0.00996382,-1.24767,0.750216,-2.42986,-0.73948,0.417414,0.563049,0.603483,0.963972,0.533155,-1.13299,0.58114,-0.268051,-0.00676037,
0.455417,-0.217381,0.128207,-1.79263,0.159696,-0.155511,-0.38291,0.644584,0.00757282,0.733762,-0.172085,-0.0164094,0.21043,0.00969825,0,0,0,0,0,0,0,0.447968,-0.217476,0.119764,-1.79068,0.159111,1.41281,0.402365,0.530071,0.0211079,0.646934,-0.112874,0.232358,0.165346,6.38173e-05,1.98322,-26.909,0.488905,25.3323,1.87652,2.00493,-0.00996382,0.0450392,-1.26001,-2.2603,0.55179,1.11217,-0.552702,-0.484813,0.930359,-0.72675,-1.04465,0.286081,-0.191539,-0.00188207,
0.458058,-0.217344,0.131225,-1.79333,0.159458,-0.154679,-0.382874,0.660453,0.00942603,0.754636,-0.17615,-0.0594798,0.208093,0.00893269,0,0,0,0,0,0,0,0.447968,-0.217476,0.119764,-1.79068,0.159111,1.41281,0.402365,0.530071,0.0211079,0.646934,-0.112874,0.232358,0.165346,6.38173e-05,1.98322,-26.909,0.488905,25.3323,1.87652,2.00493,-0.00996382,0.0450392,-1.26001,-2.2603,0.55179,1.11217,-0.552702,-0.484813,0.930359,-0.72675,-1.04465,0.286081,-0.191539,-0.00188207,
0.460746,-0.217298,0.134306,-1.79405,0.159093,-0.153859,-0.38284,0.671938,0.0114686,0.770202,-0.178626,-0.0912194,0.204875,0.00835103,0,0,0,0,0,0,0,0.447968,-0.217476,0.119764,-1.79068,0.159111,1.41281,0.402365,0.530071,0.0211079,0.646934,-0.112874,0.232358,0.165346,6.38173e-05,1.98322,-26.909,0.488905,25.3323,1.87652,2.00493,-0.00996382,-0.363316,-0.127277,-2.7076,-0.369813,1.00224,0.00121926,0.0337503,1.1908,-0.0542709,-1.24817,0.349623,-0.2284,-0.0033148,
0.463468,-0.217244,0.137433,-1.79477,0.158618,-0.153053,-0.382809,0.680466,0.0134444,0.781706,-0.179968,-0.118608,0.201693,0.00785881,0,0,0,0,0,0,0,0.447968,-0.217476,0.119764,-1.79068,0.159111,1.41281,0.402365,0.530071,0.0211079,0.646934,-0.112874,0.232358,0.165346,6.38173e-05,1.98322,-26.909,0.488905,25.3323,1.87652,2.00493,-0.00996382,-0.363316,-0.127277,-2.7076,-0.369813,1.00224,0.00121926,0.0337503,1.1908,-0.0542709,-1.24817,0.349623,-0.2284,-0.0033148,
0.466213,-0.217183,0.140593,-1.79549,0.158052,-0.152256,-0.382779,0.686264,0.0151762,0.789993,-0.180718,-0.141558,0.199078,0.00743502,0,0,0,0,0,0,0,0.465544,-0.216793,0.140701,-1.79382,0.164445,1.41821,0.402364,0.552254,0.0222094,0.656165,-0.0984108,0.0217334,0.19291,0.000849988,0.309024,-26.9606,-0.887743,25.7092,0.788876,2.15783,-0.00996382,-1.16417,0.939502,-2.51335,-1.03951,0.430059,0.632763,0.643764,1.05756,0.669303,-1.17242,0.475052,-0.263758,-0.000751658,
0.468973,-0.217117,0.143776,-1.79621,0.157408,-0.151467,-0.382751,0.689866,0.0166481,0.795637,-0.181045,-0.160934,0.197194,0.00702411,0,0,0,0,0,0,0,0.465544,-0.216793,0.140701,-1.79382,0.164445,1.41821,0.402364,0.552254,0.0222094,0.656165,-0.0984108,0.0217334,0.19291,0.000849988,0.309024,-26.9606,-0.887743,25.7092,0.788876,2.15783,-0.00996382,-1.97411,1.25178,-1.91845,-1.159,-0.416616,1.00315,1.02189,0.552065,1.08219,-0.85881,0.427804,-0.236899,0.00075,
0.45556,-0.217513,0.128236,-1.79265,0.154846,-0.154616,-0.382926,0.649652,-0.00726129,0.735312,-0.174698,-0.547994,0.305648,0.00879437,0,0,0,0,0,0,0,0.465544,-0.216793,0.140701,-1.79382,0.164445,1.41821,0.402364,0.552254,0.0222094,0.656165,-0.0984108,0.0217334,0.19291,0.000849988,0.309024,-26.9606,-0.887743,25.7092,0.788876,2.15783,-0.00996382,-1.97411,1.25178,-1.91845,-1.159,-0.416616,1.00315,1.02189,0.552065,1.08219,-0.85881,0.427804,-0.236899,0.00075,
0.473009,-0.21684,0.149147,-1.79573,0.159708,-0.149094,-0.382919,0.634917,-0.00794895,0.725562,-0.172217,-0.53256,0.311199,0.00922959,0,0,0,0,0,0,0,0.465544,-0.216793,0.140701,-1.79382,0.164445,1.41821,0.402364,0.552254,0.0222094,0.656165,-0.0984108,0.0217334,0.19291,0.000849988,0.309024,-26.9606,-0.887743,25.7092,0.788876,2.15783,-0.00996382,0.0153989,-1.15905,-2.0209,0.250124,0.785398,-0.45023,-0.401455,0.757414,-0.532723,-0.916365,-0.0137401,-0.162387,0.00584586,
0.475571,-0.216872,0.152094,-1.79644,0.157238,-0.147824,-0.382883,0.640429,-0.00783724,0.736629,-0.177442,-0.617339,0.317269,0.00881577,0,0,0,0,0,0,0,0.465544,-0.216793,0.140701,-1.79382,0.164445,1.41821,0.402364,0.552254,0.0222094,0.656165,-0.0984108,0.0217334,0.19291,0.000849988,0.309024,-26.9606,-0.887743,25.7092,0.788876,2.15783,-0.00996382,0.0153989,-1.15905,-2.0209,0.250124,0.785398,-0.45023,-0.401455,0.757414,-0.532723,-0.916365,-0.0137401,-0.162387,0.00584586,
0.478141,-0.216899,0.155064,-1.79716,0.154529,-0.146548,-0.382849,0.642501,-0.00679237,0.742627,-0.180584,-0.677437,0.319122,0.00850252,0,0,0,0,0,0,0,0.465544,-0.216793,0.140701,-1.79382,0.164445,1.41821,0.402364,0.552254,0.0222094,0.656165,-0.0984108,0.0217334,0.19291,0.000849988,0.309024,-26.9606,-0.887743,25.7092,0.788876,2.15783,-0.00996382,-0.654145,-0.8128,-2.17484,-0.0667774,0.369367,-0.110019,-0.079491,0.678167,-0.128498,-0.975758,0.000923387,-0.207756,0.00337494,
0.480709,-0.21692,0.158045,-1.79789,0.151648,-0.145273,-0.382817,0.642157,-0.00537017,0.745058,-0.18255,-0.720118,0.318819,0.00806657,0,0,0,0,0,0,0,0.48289,-0.21595,0.161685,-1.79653,0.163575,1.42433,0.402363,0.55844,0.0311439,0.680825,-0.0889834,-0.10935,0.216409,-0.00077959,-0.373349,-27.3097,-1.83592,25.5347,0.532528,2.23107,-0.0026396,-0.654145,-0.8128,-2.17484,-0.0667774,0.369367,-0.110019,-0.079491,0.678167,-0.128498,-0.975758,0.000923387,-0.207756,0.00337494,
0.48327,-0.216936,0.161025,-1.79863,0.148646,-0.144003,-0.382785,0.640128,-0.0038245,0.744995,-0.183734,-0.750563,0.317432,0.00814894,0,0,0,0,0,0,0,0.48289,-0.21595,0.161685,-1.79653,0.163575,1.42433,0.402363,0.55844,0.0311439,0.680825,-0.0889834,-0.10935,0.216409,-0.00077959,-0.373349,-27.3097,-1.83592,25.5347,0.532528,2.23107,-0.0026396,-1.33713,0.0155068,-2.1,-0.624941,-0.11943,0.412295,0.4292,0.579934,0.471815,-0.935135,0.0662095,-0.227997,0.0019968,
0.485817,-0.216945,0.163997,-1.79936,0.145556,-0.142741,-0.382754,0.636925,-0.00228601,0.743189,-0.184345,-0.772373,0.315545,0.00757821,0,0,0,0,0,0,0,0.48289,-0.21595,0.161685,-1.79653,0.163575,1.42433,0.402363,0.55844,0.0311439,0.680825,-0.0889834,-0.10935,0.216409,-0.00077959,-0.373349,-27.3097,-1.83592,25.5347,0.532528,2.23107,-0.0026396,-1.77199,0.211904,-2.4626,-0.962317,-0.424182,0.648102,0.681283,0.571179,0.754428,-1.03526,-0.060552,-0.218856,-0.000520554,
0.472746,-0.216896,0.148861,-1.79577,0.159059,-0.148936,-0.38293,0.605687,-0.0132157,0.692354,-0.174402,-0.629493,0.324469,0.008623,0,0,0,0,0,0,0,0.48289,-0.21595,0.161685,-1.79653,0.163575,1.42433,0.402363,0.55844,0.0311439,0.680825,-0.0889834,-0.10935,0.216409,-0.00077959,-0.373349,-27.3097,-1.83592,25.5347,0.532528,2.23107,-0.0026396,-1.77199,0.211904,-2.4626,-0.962317,-0.424182,0.648102,0.681283,0.571179,0.754428,-1.03526,-0.060552,-0.218856,-0.000520554,
0.490069,-0.215998,0.169906,-1.79845,0.157458,-0.142736,-0.382934,0.598236,-0.0101404,0.691189,-0.174171,-0.652068,0.32827,0.00851624,0,0,0,0,0,0,0,0.48289,-0.21595,0.161685,-1.79653,0.163575,1.42433,0.402363,0.55844,0.0311439,0.680825,-0.0889834,-0.10935,0.216409,-0.00077959,-0.373349,-27.3097,-1.83592,25.5347,0.532528,2.23107,-0.0026396,-0.706206,-0.653371,-2.40375,-0.512885,0.121216,0.0391239,0.116004,0.666622,0.0708567,-1.01376,-0.346561,-0.163194,0.0028715,
0.49244,-0.216043,0.172666,-1.79917,0.154525,-0.141409,-0.382902,0.592655,-0.0112726,0.689906,-0.180033,-0.733171,0.331926,0.00793964,0,0,0,0,0,0,0,0.500604,-0.215274,0.182794,-1.79929,0.155302,1.43203,0.402371,0.574033,0.0206389,0.69229,-0.0904188,-0.34929,0.254409,0.00111868,-1.08349,-26.8099,-2.7365,25.4593,-0.52399,2.37023,-0.0365141,-0.706206,-0.653371,-2.40375,-0.512885,0.121216,0.0391239,0.116004,0.666622,0.0708567,-1.01376,-0.346561,-0.163194,0.0028715,
0.494782,-0.216086,0.175407,-1.79991,0.151376,-0.140081,-0.382869,0.58552,-0.0109371,0.685375,-0.183466,-0.787428,0.33182,0.00837701,0,0,0,0,0,0,0,0.500604,-0.215274,0.182794,-1.79929,0.155302,1.43203,0.402371,0.574033,0.0206389,0.69229,-0.0904188,-0.34929,0.254409,0.00111868,-1.08349,-26.8099,-2.7365,25.4593,-0.52399,2.37023,-0.0365141,0.562348,-1.74342,-2.12387,0.167832,0.723529,-0.723962,-0.635445,0.672973,-0.763247,-0.895643,-0.637931,-0.088942,0.00501751,
