PerkyPenguin/Analysis-on-Approximated-Derivatives/Code_and_Data/PaperData/Real_Robot/Scene_2/contact_change/3/trajectory.csv
Commanded Joint 0 Position,Commanded Joint 1 Position,Commanded Joint 2 Position,Commanded Joint 3 Position,Commanded Joint 4 Position,Commanded Joint 5 Position,Commanded Joint 6 Position,Commanded Joint 0 Velocity,Commanded Joint 1 Velocity,Commanded Joint 2 Velocity,Commanded Joint 3 Velocity,Commanded Joint 4 Velocity,Commanded Joint 5 Velocity,Commanded Joint 6 Velocity,Commanded Joint 0 Torque,Commanded Joint 1 Torque,Commanded Joint 2 Torque,Commanded Joint 3 Torque,Commanded Joint 4 Torque,Commanded Joint 5 Torque,Commanded Joint 6 Torque,Actual Joint 0 Position,Actual Joint 1 Position,Actual Joint 2 Position,Actual Joint 3 Position,Actual Joint 4 Position,Actual Joint 5 Position,Actual Joint 6 Position,Actual Joint 0 Velocity,Actual Joint 1 Velocity,Actual Joint 2 Velocity,Actual Joint 3 Velocity,Actual Joint 4 Velocity,Actual Joint 5 Velocity,Actual Joint 6 Velocity,Actual Joint 0 Torque,Actual Joint 1 Torque,Actual Joint 2 Torque,Actual Joint 3 Torque,Actual Joint 4 Torque,Actual Joint 5 Torque,Actual Joint 6 Torque,EE ext force 0,EE ext force 1,EE ext force 2,EE ext force 3,EE ext force 4,EE ext force 5,joint ext torque 0,joint ext torque 1,joint ext torque 2,joint ext torque 3,joint ext torque 4,joint ext torque 5,joint ext torque 6,
0.0534295,-0.231938,0.419976,-1.84893,0.0790453,0.0898725,0.440791,0.00807716,0.015709,0.0246067,-0.156581,-0.0656608,0.226052,-0.00122465,0,0,0,0,0,0,0,0.053349,-0.231922,0.419765,-1.84737,0.0795946,1.65843,1.2262,-0.000730092,0.00463791,-0.00142624,0.000893186,0.00627698,-0.000945788,-0.000418549,0.209842,-23.7154,-3.33556,27.2287,0.386044,3.06603,0.104477,0.118603,0.544341,0.470323,-0.36592,0.180776,0.0959813,0.0981048,0.151043,0.132225,-0.0921466,0.0489803,-0.265793,0.10156,
0.0534707,-0.231803,0.420096,-1.8496,0.0787121,0.0908101,0.440786,0.0103104,0.0338433,0.0298152,-0.167756,-0.0833111,0.234408,-0.00128371,0,0,0,0,0,0,0,0.053349,-0.231922,0.419765,-1.84737,0.0795946,1.65843,1.2262,-0.000730092,0.00463791,-0.00142624,0.000893186,0.00627698,-0.000945788,-0.000418549,0.209842,-23.7154,-3.33556,27.2287,0.386044,3.06603,0.104477,0.358695,0.543086,0.366714,-0.403395,0.382163,0.0360688,0.0417136,0.274711,0.0781113,-0.15128,0.0313962,-0.26772,0.100996,
0.0533372,-0.231882,0.419753,-1.84738,0.0796477,0.0876311,0.440807,-0.000565871,0.00183329,-0.000546425,-0.000718583,0.00184716,-6.50863e-05,1.41124e-05,0,0,0,0,0,0,0,0.053349,-0.231922,0.419765,-1.84737,0.0795946,1.65843,1.2262,-0.000730092,0.00463791,-0.00142624,0.000893186,0.00627698,-0.000945788,-0.000418549,0.209842,-23.7154,-3.33556,27.2287,0.386044,3.06603,0.104477,0.358695,0.543086,0.366714,-0.403395,0.382163,0.0360688,0.0417136,0.274711,0.0781113,-0.15128,0.0313962,-0.26772,0.100996,
0.0533353,-0.231876,0.419751,-1.84739,0.0796526,0.0876302,0.440807,-0.000481011,0.00154098,-0.000446638,-0.000664,0.00122354,-0.000211241,1.10837e-05,0,0,0,0,0,0,0,0.053349,-0.231922,0.419765,-1.84737,0.0795946,1.65843,1.2262,-0.000730092,0.00463791,-0.00142624,0.000893186,0.00627698,-0.000945788,-0.000418549,0.209842,-23.7154,-3.33556,27.2287,0.386044,3.06603,0.104477,-0.284208,0.404353,0.817522,-0.185445,-0.248901,0.137447,0.133608,-0.151841,0.150615,0.0916321,0.0463584,-0.243048,0.100629,
0.0533336,-0.231871,0.419749,-1.84739,0.0796556,0.0876289,0.440807,-0.000412661,0.00129824,-0.000368892,-0.000600708,0.00075756,-0.000327932,8.43095e-06,0,0,0,0,0,0,0,0.053349,-0.231922,0.419765,-1.84737,0.0795946,1.65843,1.2262,-0.000730092,0.00463791,-0.00142624,0.000893186,0.00627698,-0.000945788,-0.000418549,0.209842,-23.7154,-3.33556,27.2287,0.386044,3.06603,0.104477,0.0550704,0.163157,0.349781,-0.133116,0.137066,-0.0454966,-0.0381768,0.123455,-0.0338944,-0.110253,0.0190272,-0.236744,0.0985092,
0.0533322,-0.231866,0.419748,-1.84739,0.0796573,0.0876273,0.440807,-0.000357266,0.00109398,-0.000307887,-0.000537645,0.00041218,-0.000414052,6.38046e-06,0,0,0,0,0,0,0,0.053349,-0.231922,0.419765,-1.84737,0.0795946,1.65843,1.2262,-0.000730092,0.00463791,-0.00142624,0.000893186,0.00627698,-0.000945788,-0.000418549,0.209842,-23.7154,-3.33556,27.2287,0.386044,3.06603,0.104477,0.0550704,0.163157,0.349781,-0.133116,0.137066,-0.0454966,-0.0381768,0.123455,-0.0338944,-0.110253,0.0190272,-0.236744,0.0985092,
0.053331,-0.231863,0.419747,-1.84739,0.0796579,0.0876254,0.440807,-0.000311877,0.000920994,-0.000259436,-0.000478088,0.000157931,-0.000473418,4.86986e-06,0,0,0,0,0,0,0,0.0533676,-0.232036,0.419781,-1.84774,0.0795408,1.65904,1.22621,-0.00130837,0.00410417,0.000120056,-0.0244271,0.00383213,0.0501103,0.00122278,0.0313145,-22.7394,-3.46251,27.1255,0.740353,3.03948,0.0706026,-0.833703,0.22075,-0.091728,-0.250491,-0.343814,0.200644,0.191119,-0.0576123,0.24482,-0.21161,0.0372329,-0.231348,0.0977111,
0.0533299,-0.23186,0.419746,-1.84739,0.0796578,0.0876233,0.440807,-0.000274212,0.000773969,-0.000220386,-0.000423167,-2.78255e-05,-0.000510904,3.77931e-06,0,0,0,0,0,0,0,0.0533676,-0.232036,0.419781,-1.84774,0.0795408,1.65904,1.22621,-0.00130837,0.00410417,0.000120056,-0.0244271,0.00383213,0.0501103,0.00122278,0.0313145,-22.7394,-3.46251,27.1255,0.740353,3.03948,0.0706026,-0.833703,0.22075,-0.091728,-0.250491,-0.343814,0.200644,0.191119,-0.0576123,0.24482,-0.21161,0.0372329,-0.231348,0.0977111,
0.0537881,-0.23191,0.420152,-1.84696,0.0659876,0.0807696,0.440793,0.00401451,-0.00373967,0.00444657,0.00202036,-0.366435,-0.189509,-0.000636244,0,0,0,0,0,0,0,0.0533676,-0.232036,0.419781,-1.84774,0.0795408,1.65904,1.22621,-0.00130837,0.00410417,0.000120056,-0.0244271,0.00383213,0.0501103,0.00122278,0.0313145,-22.7394,-3.46251,27.1255,0.740353,3.03948,0.0706026,0.387447,0.713958,-0.546574,-0.684897,0.677464,0.104479,0.101378,0.571257,0.200114,-0.45338,0.0456411,-0.217143,0.0983265,
0.0537712,-0.231865,0.420161,-1.84748,0.066548,0.0820469,0.440798,0.00341517,-0.00238918,0.00392253,0.00131398,-0.347319,-0.180539,-0.000583048,0,0,0,0,0,0,0,0.0533676,-0.232036,0.419781,-1.84774,0.0795408,1.65904,1.22621,-0.00130837,0.00410417,0.000120056,-0.0244271,0.00383213,0.0501103,0.00122278,0.0313145,-22.7394,-3.46251,27.1255,0.740353,3.03948,0.0706026,0.387447,0.713958,-0.546574,-0.684897,0.677464,0.104479,0.101378,0.571257,0.200114,-0.45338,0.0456411,-0.217143,0.0983265,
0.0537813,-0.231875,0.420173,-1.84747,0.0651459,0.0813135,0.440796,0.00254726,-0.00241372,0.00303744,0.000775479,-0.350511,-0.183331,-0.000573393,0,0,0,0,0,0,0,0.0533676,-0.232036,0.419781,-1.84774,0.0795408,1.65904,1.22621,-0.00130837,0.00410417,0.000120056,-0.0244271,0.00383213,0.0501103,0.00122278,0.0313145,-22.7394,-3.46251,27.1255,0.740353,3.03948,0.0706026,0.626268,0.618955,-0.0499878,-0.507345,0.62511,0.00547773,0.0137517,0.432875,0.0622248,-0.23113,0.0249599,-0.168354,0.09887,
0.0537884,-0.231884,0.420182,-1.84747,0.0637348,0.0805717,0.440793,0.00175419,-0.00235076,0.00222155,0.000304149,-0.35278,-0.185453,-0.000562784,0,0,0,0,0,0,0,0.0533771,-0.231957,0.419798,-1.84775,0.0795204,1.65923,1.22621,0.00071836,0.00613123,0.00187538,0.000119455,-0.00230062,0.00481048,0.000511141,-0.119442,-23.7392,-3.71245,27.4747,0.800778,3.09258,0.0843355,0.347749,0.667525,0.0589007,-0.511294,0.387552,0.0949375,0.101612,0.287447,0.149607,-0.164303,0.0309487,-0.163983,0.099524,
0.0537925,-0.231893,0.420188,-1.84747,0.0623176,0.0798236,0.440791,0.00103353,-0.00222604,0.00147491,-0.00010908,-0.354296,-0.187022,-0.000551778,0,0,0,0,0,0,0,0.0533771,-0.231957,0.419798,-1.84775,0.0795204,1.65923,1.22621,0.00071836,0.00613123,0.00187538,0.000119455,-0.00230062,0.00481048,0.000511141,-0.119442,-23.7392,-3.71245,27.4747,0.800778,3.09258,0.0843355,0.347749,0.667525,0.0589007,-0.511294,0.387552,0.0949375,0.101612,0.287447,0.149607,-0.164303,0.0309487,-0.163983,0.099524,
0.053794,-0.231901,0.420191,-1.84747,0.0608968,0.0790711,0.440789,0.000381576,-0.00205954,0.00079543,-0.000471642,-0.355196,-0.188132,-0.000540734,0,0,0,0,0,0,0,0.0533771,-0.231957,0.419798,-1.84775,0.0795204,1.65923,1.22621,0.00071836,0.00613123,0.00187538,0.000119455,-0.00230062,0.00481048,0.000511141,-0.119442,-23.7392,-3.71245,27.4747,0.800778,3.09258,0.0843355,0.162409,0.762525,-0.140813,-0.664271,0.322525,0.179611,0.192471,0.29133,0.25447,-0.245155,-0.0100214,-0.181559,0.101539,
0.0537932,-0.231909,0.420192,-1.84748,0.0594745,0.0783157,0.440787,-0.000206123,-0.00186657,0.000179702,-0.000789715,-0.355586,-0.188864,-0.000529878,0,0,0,0,0,0,0,0.0533771,-0.231957,0.419798,-1.84775,0.0795204,1.65923,1.22621,0.00071836,0.00613123,0.00187538,0.000119455,-0.00230062,0.00481048,0.000511141,-0.119442,-23.7392,-3.71245,27.4747,0.800778,3.09258,0.0843355,0.162409,0.762525,-0.140813,-0.664271,0.322525,0.179611,0.192471,0.29133,0.25447,-0.245155,-0.0100214,-0.181559,0.101539,
0.0541653,-0.231885,0.420345,-1.84643,0.0379242,0.0589435,0.440544,-0.0019961,-0.00578665,-0.00335556,0.000167409,-1.14127,-0.806155,-0.0062355,0,0,0,0,0,0,0,0.0533771,-0.231957,0.419798,-1.84775,0.0795204,1.65923,1.22621,0.00071836,0.00613123,0.00187538,0.000119455,-0.00230062,0.00481048,0.000511141,-0.119442,-23.7392,-3.71245,27.4747,0.800778,3.09258,0.0843355,-0.0415005,0.327138,0.151922,-0.425846,0.0308709,0.0421788,0.054124,0.0627844,0.102758,-0.143858,-0.148607,-0.20152,0.101322,
0.0542776,-0.231931,0.420457,-1.84644,0.0378806,0.0616765,0.440574,0.000181291,-0.00659641,-0.00099222,0.000518302,-1.14208,-0.729546,-0.00557197,0,0,0,0,0,0,0,0.0534672,-0.231941,0.419906,-1.84762,0.0761332,1.65916,1.2262,0.00773104,-0.0130979,0.00564955,-0.00836993,-0.161106,-0.0077073,-0.000750208,-0.655026,-23.6162,-4.16075,27.5262,0.324703,3.01293,0.124619,-0.0415005,0.327138,0.151922,-0.425846,0.0308709,0.0421788,0.054124,0.0627844,0.102758,-0.143858,-0.148607,-0.20152,0.101322,
0.0542664,-0.231952,0.420441,-1.84645,0.0332453,0.0587274,0.440552,-0.00278344,-0.0052762,-0.00390818,-0.0023092,-1.15882,-0.737265,-0.00550434,0,0,0,0,0,0,0,0.0534672,-0.231941,0.419906,-1.84762,0.0761332,1.65916,1.2262,0.00773104,-0.0130979,0.00564955,-0.00836993,-0.161106,-0.0077073,-0.000750208,-0.655026,-23.6162,-4.16075,27.5262,0.324703,3.01293,0.124619,0.0615775,0.444913,0.283213,-0.551353,0.068548,0.06336,0.0749933,0.0706815,0.143323,-0.137918,-0.206576,-0.240419,0.101227,
0.0542445,-0.231967,0.420415,-1.84647,0.0285547,0.0557576,0.440531,-0.00549159,-0.00383759,-0.00659846,-0.00477917,-1.17264,-0.742465,-0.00543262,0,0,0,0,0,0,0,0.0534672,-0.231941,0.419906,-1.84762,0.0761332,1.65916,1.2262,0.00773104,-0.0130979,0.00564955,-0.00836993,-0.161106,-0.0077073,-0.000750208,-0.655026,-23.6162,-4.16075,27.5262,0.324703,3.01293,0.124619,0.319731,0.942667,0.510572,-0.848838,0.143594,0.207772,0.234305,0.068481,0.301666,-0.0291646,-0.216322,-0.207169,0.104455,
0.0542126,-0.231977,0.420379,-1.8465,0.0238185,0.0527753,0.440509,-0.00795353,-0.00234685,-0.00906494,-0.00693541,-1.18405,-0.745571,-0.00535868,0,0,0,0,0,0,0,0.0534672,-0.231941,0.419906,-1.84762,0.0761332,1.65916,1.2262,0.00773104,-0.0130979,0.00564955,-0.00836993,-0.161106,-0.0077073,-0.000750208,-0.655026,-23.6162,-4.16075,27.5262,0.324703,3.01293,0.124619,0.319731,0.942667,0.510572,-0.848838,0.143594,0.207772,0.234305,0.068481,0.301666,-0.0291646,-0.216322,-0.207169,0.104455,
0.0541719,-0.23198,0.420333,-1.84653,0.0190446,0.0497875,0.440488,-0.0101829,-0.000852915,-0.0113154,-0.00881529,-1.19348,-0.746938,-0.00528379,0,0,0,0,0,0,0,0.0534672,-0.231941,0.419906,-1.84762,0.0761332,1.65916,1.2262,0.00773104,-0.0130979,0.00564955,-0.00836993,-0.161106,-0.0077073,-0.000750208,-0.655026,-23.6162,-4.16075,27.5262,0.324703,3.01293,0.124619,0.111226,1.43818,0.816488,-1.26127,-0.0617789,0.458954,0.487302,-0.0535216,0.602936,0.0114193,-0.307454,-0.304866,0.108467,
0.0541231,-0.231978,0.42028,-1.84657,0.0142395,0.0468001,0.440467,-0.0121951,0.00060884,-0.0133609,-0.0104509,-1.20127,-0.746862,-0.00520875,0,0,0,0,0,0,0,0.0534672,-0.231941,0.419906,-1.84762,0.0761332,1.65916,1.2262,0.00773104,-0.0130979,0.00564955,-0.00836993,-0.161106,-0.0077073,-0.000750208,-0.655026,-23.6162,-4.16075,27.5262,0.324703,3.01293,0.124619,0.111226,1.43818,0.816488,-1.26127,-0.0617789,0.458954,0.487302,-0.0535216,0.602936,0.0114193,-0.307454,-0.304866,0.108467,
0.0486319,-0.231018,0.414022,-1.84891,0.0440128,0.0455784,0.438114,-0.160147,0.0416614,-0.183347,-0.0706916,-1.05572,-1.22091,-0.0529466,0,0,0,0,0,0,0,0.0542308,-0.231903,0.420516,-1.84677,0.0569005,1.65426,1.22621,0.0391942,0.000874705,0.0228102,0.0282721,-0.691449,-0.202734,0.00128932,-1.15887,-24.0883,-4.36308,26.106,-1.59333,1.89965,0.0577852,0.744086,0.432926,1.0389,-0.969592,0.365931,-0.151369,-0.141285,0.163648,0.0313347,-0.221911,-0.697292,-0.567306,0.110347,
0.0493095,-0.23143,0.414728,-1.84801,0.0122403,0.0378422,0.438363,-0.161104,0.0389981,-0.183994,-0.0663797,-1.09944,-1.23512,-0.0468023,0,0,0,0,0,0,0,0.0542308,-0.231903,0.420516,-1.84677,0.0569005,1.65426,1.22621,0.0391942,0.000874705,0.0228102,0.0282721,-0.691449,-0.202734,0.00128932,-1.15887,-24.0883,-4.36308,26.106,-1.59333,1.89965,0.0577852,0.821962,0.0719819,1.19261,-0.942265,0.395261,-0.339701,-0.344468,0.170887,-0.118179,-0.316187,-0.915156,-0.712245,0.108848,
0.0486436,-0.231253,0.41397,-1.8483,0.00776677,0.0328214,0.438178,-0.166459,0.044285,-0.189475,-0.0708705,-1.11838,-1.25519,-0.0461683,0,0,0,0,0,0,0,0.0542308,-0.231903,0.420516,-1.84677,0.0569005,1.65426,1.22621,0.0391942,0.000874705,0.0228102,0.0282721,-0.691449,-0.202734,0.00128932,-1.15887,-24.0883,-4.36308,26.106,-1.59333,1.89965,0.0577852,0.821962,0.0719819,1.19261,-0.942265,0.395261,-0.339701,-0.344468,0.170887,-0.118179,-0.316187,-0.915156,-0.712245,0.108848,
0.047959,-0.231056,0.413193,-1.8486,0.00322652,0.0277337,0.437996,-0.171147,0.0492012,-0.194262,-0.0748019,-1.13506,-1.27193,-0.0455472,0,0,0,0,0,0,0,0.0542308,-0.231903,0.420516,-1.84677,0.0569005,1.65426,1.22621,0.0391942,0.000874705,0.0228102,0.0282721,-0.691449,-0.202734,0.00128932,-1.15887,-24.0883,-4.36308,26.106,-1.59333,1.89965,0.0577852,-0.287334,0.894742,1.93006,-1.33771,-0.574341,0.282629,0.257689,-0.42325,0.540885,0.00666965,-0.850256,-0.761826,0.100787,
0.0472581,-0.230841,0.4124,-1.84891,-0.0013724,0.0225902,0.437816,-0.175245,0.0537333,-0.198446,-0.0782213,-1.14973,-1.28587,-0.044936,0,0,0,0,0,0,0,0.0542308,-0.231903,0.420516,-1.84677,0.0569005,1.65426,1.22621,0.0391942,0.000874705,0.0228102,0.0282721,-0.691449,-0.202734,0.00128932,-1.15887,-24.0883,-4.36308,26.106,-1.59333,1.89965,0.0577852,-0.287334,0.894742,1.93006,-1.33771,-0.574341,0.282629,0.257689,-0.42325,0.540885,0.00666965,-0.850256,-0.761826,0.100787,
0.0465428,-0.230609,0.411591,-1.84923,-0.00602272,0.0174004,0.437639,-0.178823,0.0578801,-0.202101,-0.0811742,-1.16258,-1.29746,-0.0443325,0,0,0,0,0,0,0,0.054822,-0.232143,0.420736,-1.84627,0.0331592,1.64502,1.22601,1.62455e-05,-0.00608275,-0.00345327,0.0169214,-0.744692,-0.385388,-0.00763622,-4.02722,-21.3945,-7.73528,24.9356,-1.40931,0.957571,-0.050247,0.091533,1.15289,1.8576,-1.61643,-0.131692,0.304684,0.284573,-0.0960313,0.598582,-0.209743,-0.857568,-0.92745,0.0786783,
0.045815,-0.230363,0.41077,-1.84957,-0.0107179,0.0121721,0.437464,-0.181939,0.0616487,-0.205293,-0.0837036,-1.1738,-1.30706,-0.0437351,0,0,0,0,0,0,0,0.054822,-0.232143,0.420736,-1.84627,0.0331592,1.64502,1.22601,1.62455e-05,-0.00608275,-0.00345327,0.0169214,-0.744692,-0.385388,-0.00763622,-4.02722,-21.3945,-7.73528,24.9356,-1.40931,0.957571,-0.050247,0.091533,1.15289,1.8576,-1.61643,-0.131692,0.304684,0.284573,-0.0960313,0.598582,-0.209743,-0.857568,-0.92745,0.0786783,
0.0442908,-0.230708,0.409101,-1.85096,0.017552,0.0395069,0.436072,-0.303954,0.0807834,-0.344315,-0.135088,-1.02881,-1.20465,-0.0909159,0,0,0,0,0,0,0,0.054822,-0.232143,0.420736,-1.84627,0.0331592,1.64502,1.22601,1.62455e-05,-0.00608275,-0.00345327,0.0169214,-0.744692,-0.385388,-0.00763622,-4.02722,-21.3945,-7.73528,24.9356,-1.40931,0.957571,-0.050247,0.858762,-0.969958,2.1892,-0.333143,0.334398,-0.779754,-0.763899,0.0858512,-0.622307,-0.329776,-1.11455,-1.10538,0.0602495,
0.0447785,-0.230886,0.409198,-1.85027,-0.00823131,0.0273327,0.436441,-0.295427,0.0785992,-0.335108,-0.124747,-1.04668,-1.22079,-0.0793288,0,0,0,0,0,0,0,0.054822,-0.232143,0.420736,-1.84627,0.0331592,1.64502,1.22601,1.62455e-05,-0.00608275,-0.00345327,0.0169214,-0.744692,-0.385388,-0.00763622,-4.02722,-21.3945,-7.73528,24.9356,-1.40931,0.957571,-0.050247,2.02358,-1.61139,2.31396,0.036758,1.17393,-1.33846,-1.28883,0.531546,-1.23609,-0.468548,-1.19886,-1.20881,0.048291,
0.0435669,-0.230542,0.407827,-1.85079,-0.0125188,0.0223796,0.436128,-0.302904,0.0860001,-0.342908,-0.129129,-1.07188,-1.2383,-0.0781613,0,0,0,0,0,0,0,0.054822,-0.232143,0.420736,-1.84627,0.0331592,1.64502,1.22601,1.62455e-05,-0.00608275,-0.00345327,0.0169214,-0.744692,-0.385388,-0.00763622,-4.02722,-21.3945,-7.73528,24.9356,-1.40931,0.957571,-0.050247,2.02358,-1.61139,2.31396,0.036758,1.17393,-1.33846,-1.28883,0.531546,-1.23609,-0.468548,-1.19886,-1.20881,0.048291,
0.0423294,-0.230171,0.406428,-1.85132,-0.0168968,0.0173678,0.43582,-0.309375,0.0927298,-0.349647,-0.132923,-1.0945,-1.25294,-0.0770138,0,0,0,0,0,0,0,0.054822,-0.232143,0.420736,-1.84627,0.0331592,1.64502,1.22601,1.62455e-05,-0.00608275,-0.00345327,0.0169214,-0.744692,-0.385388,-0.00763622,-4.02722,-21.3945,-7.73528,24.9356,-1.40931,0.957571,-0.050247,1.63545,-1.59322,2.57058,0.05507,0.986768,-1.23543,-1.17745,0.473391,-1.14784,-0.510403,-1.14343,-1.37938,0.0318599,
0.0410695,-0.229776,0.405006,-1.85187,-0.0213556,0.0123071,0.435516,-0.314964,0.0988155,-0.355467,-0.136176,-1.11469,-1.26517,-0.075882,0,0,0,0,0,0,0,0.054704,-0.232446,0.420428,-1.84607,0.0099154,1.62956,1.2255,-0.010107,-0.0118042,-0.0391006,-0.00790532,-0.737236,-0.523376,-0.027108,-5.41974,-21.0692,-9.26268,24.8364,-0.426029,1.00426,0.0101778,1.63545,-1.59322,2.57058,0.05507,0.986768,-1.23543,-1.17745,0.473391,-1.14784,-0.510403,-1.14343,-1.37938,0.0318599,
0.0397904,-0.229358,0.403564,-1.85242,-0.0258863,0.0072057,0.435217,-0.319777,0.10429,-0.360486,-0.138933,-1.13266,-1.27536,-0.0747626,0,0,0,0,0,0,0,0.054704,-0.232446,0.420428,-1.84607,0.0099154,1.62956,1.2255,-0.010107,-0.0118042,-0.0391006,-0.00790532,-0.737236,-0.523376,-0.027108,-5.41974,-21.0692,-9.26268,24.8364,-0.426029,1.00426,0.0101778,-0.45035,-0.802171,2.55043,-0.391894,-0.252677,-0.389663,-0.380673,-0.0658328,-0.234463,-0.521672,-0.921092,-1.53346,0.0144763,
0.0384948,-0.228922,0.402105,-1.85299,-0.0304806,0.00207042,0.434923,-0.323905,0.109191,-0.364804,-0.141236,-1.14859,-1.28382,-0.0736533,0,0,0,0,0,0,0,0.054704,-0.232446,0.420428,-1.84607,0.0099154,1.62956,1.2255,-0.010107,-0.0118042,-0.0391006,-0.00790532,-0.737236,-0.523376,-0.027108,-5.41974,-21.0692,-9.26268,24.8364,-0.426029,1.00426,0.0101778,-0.262213,-0.431271,2.16359,-0.634517,0.0860223,-0.273504,-0.277917,0.214653,-0.0859991,-0.694526,-0.795256,-1.54691,-0.00368109,
0.0401297,-0.230019,0.404088,-1.85275,-0.00342378,0.0289319,0.434216,-0.427264,0.122296,-0.48096,-0.182325,-0.983059,-1.19042,-0.122076,0,0,0,0,0,0,0,0.054704,-0.232446,0.420428,-1.84607,0.0099154,1.62956,1.2255,-0.010107,-0.0118042,-0.0391006,-0.00790532,-0.737236,-0.523376,-0.027108,-5.41974,-21.0692,-9.26268,24.8364,-0.426029,1.00426,0.0101778,-0.262213,-0.431271,2.16359,-0.634517,0.0860223,-0.273504,-0.277917,0.214653,-0.0859991,-0.694526,-0.795256,-1.54691,-0.00368109,
0.040316,-0.23028,0.404076,-1.85209,-0.0277815,0.0109303,0.43454,-0.411109,0.116333,-0.463859,-0.165358,-0.994842,-1.20451,-0.104973,0,0,0,0,0,0,0,0.054704,-0.232446,0.420428,-1.84607,0.0099154,1.62956,1.2255,-0.010107,-0.0118042,-0.0391006,-0.00790532,-0.737236,-0.523376,-0.027108,-5.41974,-21.0692,-9.26268,24.8364,-0.426029,1.00426,0.0101778,0.932208,-0.286136,1.76699,-0.73072,1.09885,-0.489743,-0.461459,0.834453,-0.320624,-0.907065,-0.711176,-1.52608,-0.0245746,
0.038634,-0.229778,0.402181,-1.85277,-0.0318868,0.00605211,0.434126,-0.420507,0.125404,-0.473771,-0.169555,-1.02632,-1.21956,-0.103274,0,0,0,0,0,0,0,0.0532391,-0.232727,0.417937,-1.84664,-0.0142739,1.61145,1.22458,-0.0631349,-0.0188245,-0.0947761,-0.0142157,-0.784898,-0.608854,-0.0216471,-5.09045,-19.9465,-8.93736,24.7095,-0.517582,1.28899,-0.050247,0.932208,-0.286136,1.76699,-0.73072,1.09885,-0.489743,-0.461459,0.834453,-0.320624,-0.907065,-0.711176,-1.52608,-0.0245746,
0.0369196,-0.229244,0.400252,-1.85346,-0.0361059,0.00112349,0.43372,-0.428589,0.133559,-0.482284,-0.173159,-1.05478,-1.23215,-0.101604,0,0,0,0,0,0,0,0.0532391,-0.232727,0.417937,-1.84664,-0.0142739,1.61145,1.22458,-0.0631349,-0.0188245,-0.0947761,-0.0142157,-0.784898,-0.608854,-0.0216471,-5.09045,-19.9465,-8.93736,24.7095,-0.517582,1.28899,-0.050247,0.642599,0.23839,1.66923,-0.961595,0.994447,-0.18725,-0.158218,0.828972,-0.0137139,-0.903419,-0.538052,-1.50696,-0.0436878,
0.0351774,-0.228682,0.398293,-1.85417,-0.0404265,-0.00382503,0.43332,-0.435558,0.140557,-0.489676,-0.177322,-1.08015,-1.23713,-0.0999431,0,0,0,0,0,0,0,0.0532391,-0.232727,0.417937,-1.84664,-0.0142739,1.61145,1.22458,-0.0631349,-0.0188245,-0.0947761,-0.0142157,-0.784898,-0.608854,-0.0216471,-5.09045,-19.9465,-8.93736,24.7095,-0.517582,1.28899,-0.050247,0.642599,0.23839,1.66923,-0.961595,0.994447,-0.18725,-0.158218,0.828972,-0.0137139,-0.903419,-0.538052,-1.50696,-0.0436878,
0.0334108,-0.228097,0.396308,-1.85491,-0.0448355,-0.00871376,0.432927,-0.441639,0.146033,-0.496239,-0.184117,-1.10224,-1.22218,-0.0982583,0,0,0,0,0,0,0,0.0532391,-0.232727,0.417937,-1.84664,-0.0142739,1.61145,1.22458,-0.0631349,-0.0188245,-0.0947761,-0.0142157,-0.784898,-0.608854,-0.0216471,-5.09045,-19.9465,-8.93736,24.7095,-0.517582,1.28899,-0.050247,-0.227503,-0.0860995,1.80228,-0.547138,0.276298,-0.0924519,-0.0847393,0.382086,0.0315584,-0.679262,-0.419644,-1.39083,-0.063832,
0.0316233,-0.227493,0.394301,-1.85567,-0.0493233,-0.0134896,0.432541,-0.446873,0.151086,-0.501812,-0.190925,-1.12195,-1.19397,-0.0965624,0,0,0,0,0,0,0,0.0532391,-0.232727,0.417937,-1.84664,-0.0142739,1.61145,1.22458,-0.0631349,-0.0188245,-0.0947761,-0.0142157,-0.784898,-0.608854,-0.0216471,-5.09045,-19.9465,-8.93736,24.7095,-0.517582,1.28899,-0.050247,-1.2336,-0.268843,2.37798,-0.0808353,-0.726019,0.0926255,0.0954332,-0.30614,0.130455,-0.216201,-0.264408,-1.21614,-0.0784232,
0.0360066,-0.229574,0.399387,-1.85436,-0.0234147,0.01249,0.432378,-0.532677,0.154278,-0.597412,-0.217627,-0.937791,-1.17514,-0.146468,0,0,0,0,0,0,0,0.0532391,-0.232727,0.417937,-1.84664,-0.0142739,1.61145,1.22458,-0.0631349,-0.0188245,-0.0947761,-0.0142157,-0.784898,-0.608854,-0.0216471,-5.09045,-19.9465,-8.93736,24.7095,-0.517582,1.28899,-0.050247,-1.2336,-0.268843,2.37798,-0.0808353,-0.726019,0.0926255,0.0954332,-0.30614,0.130455,-0.216201,-0.264408,-1.21614,-0.0784232,
0.0344145,-0.229907,0.39668,-1.85411,-0.0506546,-0.00626714,0.432572,-0.51739,0.143071,-0.581907,-0.208476,-0.968613,-1.07924,-0.123716,0,0,0,0,0,0,0,0.0500476,-0.232866,0.413344,-1.84797,-0.0387989,1.59107,1.22398,-0.125683,0.00552246,-0.167344,-0.054964,-0.763697,-0.686158,-0.0142037,-5.37213,-21.0454,-9.40947,25.2847,-0.56702,1.59386,-0.083206,-0.521542,0.272445,2.18277,-0.348297,-0.197904,0.168263,0.19132,-0.00931191,0.203552,-0.218782,-0.148216,-1.09655,-0.0939621,
0.0323032,-0.229294,0.394309,-1.85498,-0.0546643,-0.0104287,0.432086,-0.527809,0.153439,-0.592843,-0.217123,-1.00244,-1.0404,-0.121456,0,0,0,0,0,0,0,0.0500476,-0.232866,0.413344,-1.84797,-0.0387989,1.59107,1.22398,-0.125683,0.00552246,-0.167344,-0.054964,-0.763697,-0.686158,-0.0142037,-5.37213,-21.0454,-9.40947,25.2847,-0.56702,1.59386,-0.083206,-0.521542,0.272445,2.18277,-0.348297,-0.197904,0.168263,0.19132,-0.00931191,0.203552,-0.218782,-0.148216,-1.09655,-0.0939621,
0.0301564,-0.228641,0.391901,-1.85587,-0.058797,-0.0144069,0.431609,-0.536717,0.163083,-0.602137,-0.224314,-1.03316,-0.994543,-0.119248,0,0,0,0,0,0,0,0.0500476,-0.232866,0.413344,-1.84797,-0.0387989,1.59107,1.22398,-0.125683,0.00552246,-0.167344,-0.054964,-0.763697,-0.686158,-0.0142037,-5.37213,-21.0454,-9.40947,25.2847,-0.56702,1.59386,-0.083206,-0.164861,0.226463,1.55569,-0.424256,0.105733,0.101555,0.112837,0.178035,0.167716,-0.322559,-0.201909,-0.932356,-0.109432,
0.0279791,-0.227954,0.38946,-1.85679,-0.0630401,-0.0181823,0.431141,-0.544307,0.17194,-0.610034,-0.230117,-1.06079,-0.943842,-0.117084,0,0,0,0,0,0,0,0.0500476,-0.232866,0.413344,-1.84797,-0.0387989,1.59107,1.22398,-0.125683,0.00552246,-0.167344,-0.054964,-0.763697,-0.686158,-0.0142037,-5.37213,-21.0454,-9.40947,25.2847,-0.56702,1.59386,-0.083206,-0.164861,0.226463,1.55569,-0.424256,0.105733,0.101555,0.112837,0.178035,0.167716,-0.322559,-0.201909,-0.932356,-0.109432,
0.0257762,-0.227234,0.386994,-1.85773,-0.0673819,-0.0217423,0.430681,-0.550744,0.179968,-0.616731,-0.234654,-1.08545,-0.889998,-0.114955,0,0,0,0,0,0,0,0.0500476,-0.232866,0.413344,-1.84797,-0.0387989,1.59107,1.22398,-0.125683,0.00552246,-0.167344,-0.054964,-0.763697,-0.686158,-0.0142037,-5.37213,-21.0454,-9.40947,25.2847,-0.56702,1.59386,-0.083206,-1.0798,0.199663,1.18552,-0.359903,-0.478531,0.329377,0.315503,-0.107071,0.400863,-0.295037,-0.116929,-0.818947,-0.122108,
0.0235515,-0.226485,0.384504,-1.85869,-0.0718112,-0.0250797,0.430229,-0.556163,0.187154,-0.622386,-0.238059,-1.10731,-0.834353,-0.112855,0,0,0,0,0,0,0,0.0445063,-0.232858,0.406435,-1.85027,-0.062333,1.56787,1.22332,-0.2049,0.00428549,-0.251083,-0.0888324,-0.678007,-0.703373,-0.0243308,-5.70141,-20.8431,-9.81017,25.257,-0.670475,2.33727,-0.143631,-0.941564,0.385524,1.16258,-0.342675,-0.444812,0.400266,0.398119,-0.122268,0.441749,-0.177142,-0.0136522,-0.681161,-0.13835,
0.0303261,-0.229023,0.392621,-1.85602,-0.0467255,-0.00539613,0.430446,-0.629838,0.185953,-0.704539,-0.241115,-0.916026,-1.14876,-0.164721,0,0,0,0,0,0,0,0.0445063,-0.232858,0.406435,-1.85027,-0.062333,1.56787,1.22332,-0.2049,0.00428549,-0.251083,-0.0888324,-0.678007,-0.703373,-0.0243308,-5.70141,-20.8431,-9.81017,25.257,-0.670475,2.33727,-0.143631,-0.941564,0.385524,1.16258,-0.342675,-0.444812,0.400266,0.398119,-0.122268,0.441749,-0.177142,-0.0136522,-0.681161,-0.13835,
0.0200828,-0.227765,0.378993,-1.85996,-0.0982322,-0.0446991,0.430603,-0.626055,0.191853,-0.701154,-0.251658,-0.970481,-0.741088,-0.136566,0,0,0,0,0,0,0,0.0445063,-0.232858,0.406435,-1.85027,-0.062333,1.56787,1.22332,-0.2049,0.00428549,-0.251083,-0.0888324,-0.678007,-0.703373,-0.0243308,-5.70141,-20.8431,-9.81017,25.257,-0.670475,2.33727,-0.143631,-0.436433,0.44546,1.29445,-0.355069,-0.235135,0.338124,0.358059,-0.0794101,0.360407,-0.0607873,-0.0599967,-0.581605,-0.154103,
0.0175416,-0.226957,0.37615,-1.86099,-0.102246,-0.0474544,0.430067,-0.635299,0.202036,-0.71095,-0.255639,-1.00345,-0.688827,-0.133949,0,0,0,0,0,0,0,0.0445063,-0.232858,0.406435,-1.85027,-0.062333,1.56787,1.22332,-0.2049,0.00428549,-0.251083,-0.0888324,-0.678007,-0.703373,-0.0243308,-5.70141,-20.8431,-9.81017,25.257,-0.670475,2.33727,-0.143631,-0.436433,0.44546,1.29445,-0.355069,-0.235135,0.338124,0.358059,-0.0794101,0.360407,-0.0607873,-0.0599967,-0.581605,-0.154103,
0.0149694,-0.226113,0.373273,-1.86202,-0.106378,-0.049998,0.429542,-0.643035,0.210991,-0.71916,-0.258586,-1.03306,-0.635906,-0.131374,0,0,0,0,0,0,0,0.0445063,-0.232858,0.406435,-1.85027,-0.062333,1.56787,1.22332,-0.2049,0.00428549,-0.251083,-0.0888324,-0.678007,-0.703373,-0.0243308,-5.70141,-20.8431,-9.81017,25.257,-0.670475,2.33727,-0.143631,-0.669324,0.167868,0.686912,-0.373003,-0.185075,0.288764,0.303515,0.0511334,0.340772,-0.324599,-0.146918,-0.621472,-0.165801,
0.0123717,-0.225238,0.370369,-1.86306,-0.110616,-0.05233,0.429026,-0.649442,0.218786,-0.72599,-0.260628,-1.05948,-0.583006,-0.128833,0,0,0,0,0,0,0,0.0445063,-0.232858,0.406435,-1.85027,-0.062333,1.56787,1.22332,-0.2049,0.00428549,-0.251083,-0.0888324,-0.678007,-0.703373,-0.0243308,-5.70141,-20.8431,-9.81017,25.257,-0.670475,2.33727,-0.143631,-0.655983,-0.108848,-0.12313,-0.393203,0.110353,0.183917,0.16526,0.341742,0.290556,-0.665447,-0.198023,-0.643421,-0.180045,
0.00975296,-0.224336,0.367443,-1.86411,-0.114948,-0.0544524,0.428521,-0.654674,0.225496,-0.731606,-0.261889,-1.08292,-0.530592,-0.126322,0,0,0,0,0,0,0,0.0340886,-0.232532,0.39325,-1.85535,-0.090757,1.54068,1.22235,-0.293835,0.0155524,-0.362286,-0.133182,-0.6312,-0.582748,-0.032138,-6.84002,-20.6209,-10.5124,25.4593,-1.14746,2.50298,-0.204056,-0.655983,-0.108848,-0.12313,-0.393203,0.110353,0.183917,0.16526,0.341742,0.290556,-0.665447,-0.198023,-0.643421,-0.180045,
0.0071175,-0.223411,0.364498,-1.86516,-0.119362,-0.0563682,0.428026,-0.658864,0.231198,-0.736152,-0.262486,-1.10362,-0.478946,-0.123837,0,0,0,0,0,0,0,0.0340886,-0.232532,0.39325,-1.85535,-0.090757,1.54068,1.22235,-0.293835,0.0155524,-0.362286,-0.133182,-0.6312,-0.582748,-0.032138,-6.84002,-20.6209,-10.5124,25.4593,-1.14746,2.50298,-0.204056,-1.87167,0.154079,0.0223168,-0.49874,-0.817791,0.577871,0.53477,-0.184439,0.702792,-0.491409,-0.157439,-0.597072,-0.192861,
0.0155831,-0.226852,0.378875,-1.86149,-0.0960702,-0.0475945,0.428501,-0.730089,0.225756,-0.736906,-0.292226,-0.937398,-0.908951,-0.177265,0,0,0,0,0,0,0,0.0340886,-0.232532,0.39325,-1.85535,-0.090757,1.54068,1.22235,-0.293835,0.0155524,-0.362286,-0.133182,-0.6312,-0.582748,-0.032138,-6.84002,-20.6209,-10.5124,25.4593,-1.14746,2.50298,-0.204056,-1.87167,0.154079,0.0223168,-0.49874,-0.817791,0.577871,0.53477,-0.184439,0.702792,-0.491409,-0.157439,-0.597072,-0.192861,
0.0050349,-0.226001,0.36319,-1.86685,-0.126705,-0.0487219,0.429156,-0.704276,0.221969,-0.760371,-0.273234,-0.961966,-0.143934,-0.144842,0,0,0,0,0,0,0,0.0340886,-0.232532,0.39325,-1.85535,-0.090757,1.54068,1.22235,-0.293835,0.0155524,-0.362286,-0.133182,-0.6312,-0.582748,-0.032138,-6.84002,-20.6209,-10.5124,25.4593,-1.14746,2.50298,-0.204056,-1.76027,0.43723,-0.0696285,-0.762678,-0.707379,0.689495,0.675628,-0.10526,0.824618,-0.543559,-0.213845,-0.602863,-0.20484,
0.0021907,-0.225079,0.3601,-1.86795,-0.130671,-0.0490948,0.428588,-0.711051,0.230512,-0.772658,-0.274801,-0.991531,-0.0932392,-0.141957,0,0,0,0,0,0,0,0.0340886,-0.232532,0.39325,-1.85535,-0.090757,1.54068,1.22235,-0.293835,0.0155524,-0.362286,-0.133182,-0.6312,-0.582748,-0.032138,-6.84002,-20.6209,-10.5124,25.4593,-1.14746,2.50298,-0.204056,-1.76027,0.43723,-0.0696285,-0.762678,-0.707379,0.689495,0.675628,-0.10526,0.824618,-0.543559,-0.213845,-0.602863,-0.20484,
-0.000674618,-0.224128,0.356965,-1.86905,-0.134743,-0.0492707,0.428032,-0.716329,0.237739,-0.783553,-0.275585,-1.01801,-0.0439736,-0.13914,0,0,0,0,0,0,0,0.0235547,-0.231682,0.380924,-1.86006,-0.110982,1.52643,1.2216,-0.353181,0.0280396,-0.415632,-0.164564,-0.650693,-0.371898,-0.03262,-6.12988,-20.5177,-9.51262,24.884,-1.00006,1.89965,-0.150955,-0.561809,-0.860113,-0.570882,-0.137802,0.281064,-0.114417,-0.112529,0.478429,-0.018954,-0.872098,-0.421842,-0.660483,-0.212336,
-0.00355572,-0.223153,0.353792,-1.87016,-0.138909,-0.0492518,0.427486,-0.720276,0.243692,-0.793275,-0.275897,-1.04155,0.00473371,-0.136387,0,0,0,0,0,0,0,0.0235547,-0.231682,0.380924,-1.86006,-0.110982,1.52643,1.2216,-0.353181,0.0280396,-0.415632,-0.164564,-0.650693,-0.371898,-0.03262,-6.12988,-20.5177,-9.51262,24.884,-1.00006,1.89965,-0.150955,0.90346,-1.97528,-0.914608,0.485857,1.35947,-0.889128,-0.881914,1.06247,-0.838082,-1.07221,-0.554148,-0.63789,-0.217429,
-0.00644782,-0.222159,0.350584,-1.87126,-0.143159,-0.049037,0.426951,-0.723025,0.24847,-0.801998,-0.275912,-1.06237,0.0536962,-0.1337,0,0,0,0,0,0,0,0.0235547,-0.231682,0.380924,-1.86006,-0.110982,1.52643,1.2216,-0.353181,0.0280396,-0.415632,-0.164564,-0.650693,-0.371898,-0.03262,-6.12988,-20.5177,-9.51262,24.884,-1.00006,1.89965,-0.150955,0.90346,-1.97528,-0.914608,0.485857,1.35947,-0.889128,-0.881914,1.06247,-0.838082,-1.07221,-0.554148,-0.63789,-0.217429,
-0.00934677,-0.22115,0.347345,-1.87236,-0.147482,-0.048622,0.426427,-0.724738,0.252187,-0.809795,-0.275748,-1.08072,0.103765,-0.131085,0,0,0,0,0,0,0,0.0235547,-0.231682,0.380924,-1.86006,-0.110982,1.52643,1.2216,-0.353181,0.0280396,-0.415632,-0.164564,-0.650693,-0.371898,-0.03262,-6.12988,-20.5177,-9.51262,24.884,-1.00006,1.89965,-0.150955,-1.35179,-0.979632,-0.730496,-0.0746468,-0.232215,0.0142977,0.00438093,0.223444,0.112142,-0.866173,-0.435889,-0.630472,-0.230974,
0.00275668,-0.22471,0.363924,-1.8679,-0.126092,-0.0597809,0.427092,-0.779229,0.262896,-0.746649,-0.315694,-0.947158,-0.389491,-0.185024,0,0,0,0,0,0,0,0.0235547,-0.231682,0.380924,-1.86006,-0.110982,1.52643,1.2216,-0.353181,0.0280396,-0.415632,-0.164564,-0.650693,-0.371898,-0.03262,-6.12988,-20.5177,-9.51262,24.884,-1.00006,1.89965,-0.150955,-1.35179,-0.979632,-0.730496,-0.0746468,-0.232215,0.0142977,0.00438093,0.223444,0.112142,-0.866173,-0.435889,-0.630472,-0.230974,
-0.00863084,-0.224041,0.350097,-1.87253,-0.147616,-0.0426071,0.428091,-0.757701,0.241329,-0.772231,-0.286284,-0.961416,0.385472,-0.150854,0,0,0,0,0,0,0,0.0108939,-0.230333,0.366859,-1.86596,-0.130277,1.52056,1.22066,-0.414281,0.0529413,-0.495932,-0.211403,-0.625653,-0.0551923,-0.0283923,-5.77679,-20.6685,-8.96117,25.2847,-1.89179,2.57531,-0.258072,-2.02691,-0.775484,-0.853835,-0.237122,-0.714275,0.260456,0.245753,-0.034639,0.377946,-0.817516,-0.461997,-0.566379,-0.240092,
-0.0116752,-0.223043,0.346961,-1.87366,-0.151577,-0.040855,0.4275,-0.761094,0.249519,-0.783932,-0.283569,-0.990048,0.438017,-0.147924,0,0,0,0,0,0,0,0.0108939,-0.230333,0.366859,-1.86596,-0.130277,1.52056,1.22066,-0.414281,0.0529413,-0.495932,-0.211403,-0.625653,-0.0551923,-0.0283923,-5.77679,-20.6685,-8.96117,25.2847,-1.89179,2.57531,-0.258072,-1.00374,-0.711612,-0.966608,-0.333937,-0.0372356,0.104771,0.0900634,0.2996,0.243136,-0.843905,-0.534133,-0.487122,-0.246191,
-0.0147261,-0.222019,0.343784,-1.87478,-0.15564,-0.038943,0.426919,-0.762719,0.256047,-0.79429,-0.279594,-1.01579,0.477998,-0.145226,0,0,0,0,0,0,0,0.0108939,-0.230333,0.366859,-1.86596,-0.130277,1.52056,1.22066,-0.414281,0.0529413,-0.495932,-0.211403,-0.625653,-0.0551923,-0.0283923,-5.77679,-20.6685,-8.96117,25.2847,-1.89179,2.57531,-0.258072,-1.00374,-0.711612,-0.966608,-0.333937,-0.0372356,0.104771,0.0900634,0.2996,0.243136,-0.843905,-0.534133,-0.487122,-0.246191,
-0.0177768,-0.220976,0.340569,-1.87588,-0.159795,-0.0369096,0.426348,-0.76268,0.260786,-0.803627,-0.275266,-1.03881,0.508344,-0.142684,0,0,0,0,0,0,0,0.0108939,-0.230333,0.366859,-1.86596,-0.130277,1.52056,1.22066,-0.414281,0.0529413,-0.495932,-0.211403,-0.625653,-0.0551923,-0.0283923,-5.77679,-20.6685,-8.96117,25.2847,-1.89179,2.57531,-0.258072,0.270406,-0.0635657,-1.48831,-0.836425,1.05039,0.163817,0.168997,0.962366,0.348458,-1.08344,-0.512774,-0.451443,-0.254392,
-0.020821,-0.219921,0.337321,-1.87696,-0.164033,-0.0347855,0.425787,-0.76105,0.263839,-0.812143,-0.270954,-1.0594,0.531039,-0.140322,0,0,0,0,0,0,0,0.0108939,-0.230333,0.366859,-1.86596,-0.130277,1.52056,1.22066,-0.414281,0.0529413,-0.495932,-0.211403,-0.625653,-0.0551923,-0.0283923,-5.77679,-20.6685,-8.96117,25.2847,-1.89179,2.57531,-0.258072,0.270406,-0.0635657,-1.48831,-0.836425,1.05039,0.163817,0.168997,0.962366,0.348458,-1.08344,-0.512774,-0.451443,-0.254392,
-0.00885446,-0.222789,0.350389,-1.87367,-0.147768,-0.0528996,0.42607,-0.789969,0.277966,-0.758624,-0.329043,-0.95393,0.14824,-0.190514,0,0,0,0,0,0,0,0.0108939,-0.230333,0.366859,-1.86596,-0.130277,1.52056,1.22066,-0.414281,0.0529413,-0.495932,-0.211403,-0.625653,-0.0551923,-0.0283923,-5.77679,-20.6685,-8.96117,25.2847,-1.89179,2.57531,-0.258072,1.8182,-1.1373,-1.7481,-0.156389,2.09932,-0.567709,-0.56803,1.49192,-0.431353,-1.1643,-0.598688,-0.346373,-0.258812,
-0.022365,-0.221817,0.33454,-1.8786,-0.168132,-0.0337763,0.426755,-0.734118,0.245218,-0.796587,-0.250635,-0.994597,0.425317,-0.160961,0,0,0,0,0,0,0,-0.00444386,-0.228457,0.35068,-1.87255,-0.150486,1.52131,1.21959,-0.483487,0.0823075,-0.519701,-0.206393,-0.616025,0.0785326,-0.0232007,-5.14203,-22.0928,-8.18755,25.7568,-1.89179,2.82799,-0.298355,1.8182,-1.1373,-1.7481,-0.156389,2.09932,-0.567709,-0.56803,1.49192,-0.431353,-1.1643,-0.598688,-0.346373,-0.258812,
-0.0252984,-0.220822,0.331322,-1.87959,-0.172222,-0.0321155,0.426124,-0.733366,0.248903,-0.804529,-0.246479,-1.02261,0.415219,-0.157781,0,0,0,0,0,0,0,-0.00444386,-0.228457,0.35068,-1.87255,-0.150486,1.52131,1.21959,-0.483487,0.0823075,-0.519701,-0.206393,-0.616025,0.0785326,-0.0232007,-5.14203,-22.0928,-8.18755,25.7568,-1.89179,2.82799,-0.298355,-0.690896,-1.0027,-0.199842,0.0969127,-0.396802,-0.0289955,-0.0628228,-0.171693,0.0531059,-0.235823,-0.557995,-0.147766,-0.263463,
-0.0282293,-0.219822,0.328074,-1.88057,-0.176405,-0.0304285,0.425503,-0.732723,0.249782,-0.811974,-0.246932,-1.04572,0.421731,-0.155131,0,0,0,0,0,0,0,-0.00444386,-0.228457,0.35068,-1.87255,-0.150486,1.52131,1.21959,-0.483487,0.0823075,-0.519701,-0.206393,-0.616025,0.0785326,-0.0232007,-5.14203,-22.0928,-8.18755,25.7568,-1.89179,2.82799,-0.298355,-0.568145,-0.404007,0.35705,-0.136882,-0.609648,0.238242,0.234269,-0.424772,0.294632,0.110284,-0.501518,-0.00955399,-0.269466,
-0.0311604,-0.218824,0.324806,-1.88157,-0.180669,-0.0286702,0.424893,-0.73278,0.249645,-0.817023,-0.248666,-1.066,0.439589,-0.15258,0,0,0,0,0,0,0,-0.00444386,-0.228457,0.35068,-1.87255,-0.150486,1.52131,1.21959,-0.483487,0.0823075,-0.519701,-0.206393,-0.616025,0.0785326,-0.0232007,-5.14203,-22.0928,-8.18755,25.7568,-1.89179,2.82799,-0.298355,-0.568145,-0.404007,0.35705,-0.136882,-0.609648,0.238242,0.234269,-0.424772,0.294632,0.110284,-0.501518,-0.00955399,-0.269466,
-0.0340936,-0.217824,0.321533,-1.88256,-0.185011,-0.0268584,0.424292,-0.733278,0.249912,-0.818242,-0.247924,-1.08545,0.45296,-0.150186,0,0,0,0,0,0,0,-0.00444386,-0.228457,0.35068,-1.87255,-0.150486,1.52131,1.21959,-0.483487,0.0823075,-0.519701,-0.206393,-0.616025,0.0785326,-0.0232007,-5.14203,-22.0928,-8.18755,25.7568,-1.89179,2.82799,-0.298355,1.62568,-0.24198,-0.924601,-0.41818,1.40925,-0.0317718,-0.0117203,0.859016,0.06626,-0.480797,-0.487607,0.0101566,-0.276809,
-0.0370231,-0.216825,0.318262,-1.88355,-0.189427,-0.0250032,0.4237,-0.732389,0.249869,-0.817665,-0.246315,-1.10402,0.46378,-0.148063,0,0,0,0,0,0,0,-0.021268,-0.224942,0.333039,-1.87899,-0.171975,1.52603,1.21835,-0.537952,0.11848,-0.58584,-0.189986,-0.685271,0.182032,-0.0476772,-2.86084,-23.8622,-5.73577,26.9788,-1.3855,2.90673,-0.291031,1.62568,-0.24198,-0.924601,-0.41818,1.40925,-0.0317718,-0.0117203,0.859016,0.06626,-0.480797,-0.487607,0.0101566,-0.276809,
-0.0227671,-0.220559,0.334928,-1.87977,-0.168184,-0.0411619,0.42476,-0.79712,0.279899,-0.7673,-0.291531,-0.971529,0.266127,-0.200575,0,0,0,0,0,0,0,-0.021268,-0.224942,0.333039,-1.87899,-0.171975,1.52603,1.21835,-0.537952,0.11848,-0.58584,-0.189986,-0.685271,0.182032,-0.0476772,-2.86084,-23.8622,-5.73577,26.9788,-1.3855,2.90673,-0.291031,0.173091,0.497123,-1.03426,-0.83793,0.451996,0.561908,0.55007,0.375748,0.708736,-0.415135,-0.381094,0.0553536,-0.286544,
-0.0555583,-0.21535,0.298202,-1.89083,-0.213709,-0.0270261,0.424035,-0.724962,0.249985,-0.809518,-0.234753,-1.05079,0.40739,-0.169841,0,0,0,0,0,0,0,-0.021268,-0.224942,0.333039,-1.87899,-0.171975,1.52603,1.21835,-0.537952,0.11848,-0.58584,-0.189986,-0.685271,0.182032,-0.0476772,-2.86084,-23.8622,-5.73577,26.9788,-1.3855,2.90673,-0.291031,0.173091,0.497123,-1.03426,-0.83793,0.451996,0.561908,0.55007,0.375748,0.708736,-0.415135,-0.381094,0.0553536,-0.286544,
-0.05845,-0.21434,0.294973,-1.89174,-0.218014,-0.0255484,0.423368,-0.722932,0.252426,-0.807384,-0.228239,-1.07636,0.369444,-0.166644,0,0,0,0,0,0,0,-0.021268,-0.224942,0.333039,-1.87899,-0.171975,1.52603,1.21835,-0.537952,0.11848,-0.58584,-0.189986,-0.685271,0.182032,-0.0476772,-2.86084,-23.8622,-5.73577,26.9788,-1.3855,2.90673,-0.291031,-1.21201,-2.03351,-1.22136,0.743412,-0.430683,-0.38043,-0.40413,-0.0263573,-0.366562,-0.525986,-0.527061,-0.0443521,-0.287585,
-0.0613347,-0.213334,0.291751,-1.89265,-0.222402,-0.0241472,0.422712,-0.721156,0.251669,-0.80542,-0.2277,-1.09698,0.350297,-0.164081,0,0,0,0,0,0,0,-0.021268,-0.224942,0.333039,-1.87899,-0.171975,1.52603,1.21835,-0.537952,0.11848,-0.58584,-0.189986,-0.685271,0.182032,-0.0476772,-2.86084,-23.8622,-5.73577,26.9788,-1.3855,2.90673,-0.291031,-1.04998,-1.36764,-1.26169,0.326529,-0.244972,-0.112006,-0.103949,0.100515,-0.0885721,-0.570383,-0.477188,-0.0616145,-0.291889,
-0.0642109,-0.212334,0.288538,-1.89357,-0.22686,-0.0227715,0.422065,-0.719057,0.249834,-0.803193,-0.229121,-1.1144,0.34391,-0.161667,0,0,0,0,0,0,0,-0.021268,-0.224942,0.333039,-1.87899,-0.171975,1.52603,1.21835,-0.537952,0.11848,-0.58584,-0.189986,-0.685271,0.182032,-0.0476772,-2.86084,-23.8622,-5.73577,26.9788,-1.3855,2.90673,-0.291031,-1.04998,-1.36764,-1.26169,0.326529,-0.244972,-0.112006,-0.103949,0.100515,-0.0885721,-0.570383,-0.477188,-0.0616145,-0.291889,
-0.0670766,-0.211344,0.285336,-1.8945,-0.231378,-0.0213812,0.421427,-0.716436,0.247628,-0.800447,-0.231068,-1.1295,0.347588,-0.15946,0,0,0,0,0,0,0,-0.0391248,-0.219834,0.313331,-1.88446,-0.19591,1.53522,1.21706,-0.564011,0.155286,-0.5985,-0.155159,-0.713988,0.324397,-0.0427281,-2.02374,-24.0367,-4.71221,24.9118,-1.18958,2.17797,-0.345047,-0.689144,0.436203,-2.40749,-0.921137,0.577808,0.666693,0.668875,0.772624,0.822889,-1.07666,-0.316584,-0.0926704,-0.301434,
-0.0699294,-0.210363,0.282148,-1.89543,-0.235949,-0.0199411,0.420797,-0.713182,0.245249,-0.797037,-0.233071,-1.14286,0.360023,-0.157556,0,0,0,0,0,0,0,-0.0391248,-0.219834,0.313331,-1.88446,-0.19591,1.53522,1.21706,-0.564011,0.155286,-0.5985,-0.155159,-0.713988,0.324397,-0.0427281,-2.02374,-24.0367,-4.71221,24.9118,-1.18958,2.17797,-0.345047,-0.689144,0.436203,-2.40749,-0.921137,0.577808,0.666693,0.668875,0.772624,0.822889,-1.07666,-0.316584,-0.0926704,-0.301434,
-0.0568363,-0.214287,0.298702,-1.89211,-0.213245,-0.0262799,0.422127,-0.788457,0.281688,-0.80335,-0.270499,-1.01832,0.457874,-0.207274,0,0,0,0,0,0,0,-0.0391248,-0.219834,0.313331,-1.88446,-0.19591,1.53522,1.21706,-0.564011,0.155286,-0.5985,-0.155159,-0.713988,0.324397,-0.0427281,-2.02374,-24.0367,-4.71221,24.9118,-1.18958,2.17797,-0.345047,-1.33578,0.642211,-2.81407,-1.12105,0.36826,0.841789,0.814675,0.764783,1.04697,-1.28127,-0.32062,-0.157195,-0.305241,
-0.0720243,-0.210219,0.277854,-1.89566,-0.239046,-0.0125705,0.422349,-0.701798,0.236517,-0.78506,-0.232101,-1.07222,0.578026,-0.179001,0,0,0,0,0,0,0,-0.0391248,-0.219834,0.313331,-1.88446,-0.19591,1.53522,1.21706,-0.564011,0.155286,-0.5985,-0.155159,-0.713988,0.324397,-0.0427281,-2.02374,-24.0367,-4.71221,24.9118,-1.18958,2.17797,-0.345047,-1.33578,0.642211,-2.81407,-1.12105,0.36826,0.841789,0.814675,0.764783,1.04697,-1.28127,-0.32062,-0.157195,-0.305241,
-0.0748131,-0.209265,0.274736,-1.89656,-0.243434,-0.010301,0.421646,-0.697204,0.238451,-0.779648,-0.227228,-1.09701,0.567366,-0.17579,0,0,0,0,0,0,0,-0.0391248,-0.219834,0.313331,-1.88446,-0.19591,1.53522,1.21706,-0.564011,0.155286,-0.5985,-0.155159,-0.713988,0.324397,-0.0427281,-2.02374,-24.0367,-4.71221,24.9118,-1.18958,2.17797,-0.345047,-0.179654,-2.39738,-2.77826,0.690168,1.11039,-0.728585,-0.731945,1.16241,-0.67398,-1.39373,-0.63145,-0.246133,-0.305449,
-0.0775892,-0.208314,0.271634,-1.89747,-0.247864,-0.0080411,0.420952,-0.69403,0.23776,-0.775352,-0.225716,-1.10743,0.564983,-0.17345,0,0,0,0,0,0,0,-0.0570761,-0.214299,0.292831,-1.88907,-0.220967,1.54741,1.21523,-0.548751,0.186498,-0.636277,-0.14569,-0.802065,0.424975,-0.0565823,-2.09912,-25.2626,-4.53765,25.1855,-1.28754,1.83282,-0.278213,-0.733933,-2.78039,-2.39504,0.964478,0.60931,-0.854812,-0.840221,0.855811,-0.847295,-1.25994,-0.675106,-0.284746,-0.309202,
-0.0803599,-0.207372,0.268545,-1.89837,-0.252242,-0.00576747,0.420266,-0.692681,0.235521,-0.772421,-0.2253,-1.09453,0.568406,-0.17139,0,0,0,0,0,0,0,-0.0570761,-0.214299,0.292831,-1.88907,-0.220967,1.54741,1.21523,-0.548751,0.186498,-0.636277,-0.14569,-0.802065,0.424975,-0.0565823,-2.09912,-25.2626,-4.53765,25.1855,-1.28754,1.83282,-0.278213,-0.733933,-2.78039,-2.39504,0.964478,0.60931,-0.854812,-0.840221,0.855811,-0.847295,-1.25994,-0.675106,-0.284746,-0.309202,
-0.0831268,-0.206442,0.265463,-1.89927,-0.2565,-0.00346302,0.419589,-0.69172,0.232598,-0.7704,-0.22502,-1.06445,0.576113,-0.169441,0,0,0,0,0,0,0,-0.0570761,-0.214299,0.292831,-1.88907,-0.220967,1.54741,1.21523,-0.548751,0.186498,-0.636277,-0.14569,-0.802065,0.424975,-0.0565823,-2.09912,-25.2626,-4.53765,25.1855,-1.28754,1.83282,-0.278213,-0.684959,-0.64666,-2.62198,-0.34678,0.793778,0.138257,0.146086,0.981874,0.257882,-1.32054,-0.506822,-0.239472,-0.315035,
-0.0858894,-0.205525,0.262389,-1.90017,-0.260585,-0.00111264,0.418918,-0.690656,0.22931,-0.768627,-0.224648,-1.02134,0.587596,-0.167719,0,0,0,0,0,0,0,-0.0570761,-0.214299,0.292831,-1.88907,-0.220967,1.54741,1.21523,-0.548751,0.186498,-0.636277,-0.14569,-0.802065,0.424975,-0.0565823,-2.09912,-25.2626,-4.53765,25.1855,-1.28754,1.83282,-0.278213,-0.684959,-0.64666,-2.62198,-0.34678,0.793778,0.138257,0.146086,0.981874,0.257882,-1.32054,-0.506822,-0.239472,-0.315035,
-0.0745243,-0.209192,0.278223,-1.89668,-0.238038,-0.0129198,0.420496,-0.753047,0.268637,-0.823402,-0.262452,-1.03654,0.586324,-0.215379,0,0,0,0,0,0,0,-0.0570761,-0.214299,0.292831,-1.88907,-0.220967,1.54741,1.21523,-0.548751,0.186498,-0.636277,-0.14569,-0.802065,0.424975,-0.0565823,-2.09912,-25.2626,-4.53765,25.1855,-1.28754,1.83282,-0.278213,-0.677199,-0.340391,-2.68079,-0.582384,0.836365,0.284762,0.289644,1.00796,0.432133,-1.34759,-0.543663,-0.237118,-0.318059,
-0.0890893,-0.204559,0.257193,-1.89988,-0.262698,0.00656504,0.420105,-0.692547,0.224417,-0.770292,-0.213616,-0.775589,0.653336,-0.188802,0,0,0,0,0,0,0,-0.0570761,-0.214299,0.292831,-1.88907,-0.220967,1.54741,1.21523,-0.548751,0.186498,-0.636277,-0.14569,-0.802065,0.424975,-0.0565823,-2.09912,-25.2626,-4.53765,25.1855,-1.28754,1.83282,-0.278213,-0.727349,-1.75109,-2.52261,0.267989,0.736701,-0.396267,-0.389465,0.951157,-0.315682,-1.32584,-0.689221,-0.288036,-0.312908,
-0.0918438,-0.203662,0.254129,-1.90071,-0.265609,0.00906667,0.419362,-0.688627,0.224448,-0.765948,-0.207986,-0.727694,0.625408,-0.185636,0,0,0,0,0,0,0,-0.081618,-0.206351,0.265206,-1.89528,-0.254264,1.56862,1.21275,-0.577711,0.191434,-0.651549,-0.146335,-0.76757,0.560979,-0.0480037,-0.730404,-27.6589,-2.91106,26.4313,-1.37268,2.21093,-0.217789,-0.727349,-1.75109,-2.52261,0.267989,0.736701,-0.396267,-0.389465,0.951157,-0.315682,-1.32584,-0.689221,-0.288036,-0.312908,
-0.0945833,-0.202772,0.251082,-1.90153,-0.268317,0.0114888,0.418629,-0.684868,0.22252,-0.761902,-0.205781,-0.676935,0.605543,-0.183222,0,0,0,0,0,0,0,-0.081618,-0.206351,0.265206,-1.89528,-0.254264,1.56862,1.21275,-0.577711,0.191434,-0.651549,-0.146335,-0.76757,0.560979,-0.0480037,-0.730404,-27.6589,-2.91106,26.4313,-1.37268,2.21093,-0.217789,-0.824764,-2.59485,-1.68971,0.84952,0.292016,-0.807594,-0.788626,0.564629,-0.796449,-0.972819,-0.77746,-0.27391,-0.310382,
-0.0973073,-0.201892,0.24805,-1.90235,-0.270814,0.0138545,0.417905,-0.681,0.219807,-0.75783,-0.204909,-0.624332,0.59141,-0.180982,0,0,0,0,0,0,0,-0.081618,-0.206351,0.265206,-1.89528,-0.254264,1.56862,1.21275,-0.577711,0.191434,-0.651549,-0.146335,-0.76757,0.560979,-0.0480037,-0.730404,-27.6589,-2.91106,26.4313,-1.37268,2.21093,-0.217789,-0.824764,-2.59485,-1.68971,0.84952,0.292016,-0.807594,-0.788626,0.564629,-0.796449,-0.972819,-0.77746,-0.27391,-0.310382,
-0.100015,-0.201025,0.245036,-1.90317,-0.273095,0.0161845,0.417189,-0.676922,0.216733,-0.753566,-0.204644,-0.570286,0.582501,-0.178953,0,0,0,0,0,0,0,-0.081618,-0.206351,0.265206,-1.89528,-0.254264,1.56862,1.21275,-0.577711,0.191434,-0.651549,-0.146335,-0.76757,0.560979,-0.0480037,-0.730404,-27.6589,-2.91106,26.4313,-1.37268,2.21093,-0.217789,-1.70034,-0.230009,-1.50738,-0.521162,-0.329714,0.387554,0.399156,0.180681,0.49154,-0.834781,-0.56257,-0.212556,-0.313128,
-0.102705,-0.200172,0.24204,-1.90399,-0.275154,0.0185004,0.41648,-0.672581,0.213438,-0.749015,-0.204758,-0.514843,0.578989,-0.17724,0,0,0,0,0,0,0,-0.081618,-0.206351,0.265206,-1.89528,-0.254264,1.56862,1.21275,-0.577711,0.191434,-0.651549,-0.146335,-0.76757,0.560979,-0.0480037,-0.730404,-27.6589,-2.91106,26.4313,-1.37268,2.21093,-0.217789,-1.70034,-0.230009,-1.50738,-0.521162,-0.329714,0.387554,0.399156,0.180681,0.49154,-0.834781,-0.56257,-0.212556,-0.313128,
-0.0914853,-0.203699,0.256904,-1.90086,-0.264551,0.00619339,0.41833,-0.732768,0.254731,-0.815384,-0.242909,-0.992743,0.658908,-0.223312,0,0,0,0,0,0,0,-0.100849,-0.199867,0.243456,-1.89998,-0.275703,1.58798,1.21135,-0.612544,0.201923,-0.69122,-0.135454,-0.560048,0.61563,-0.0369851,-0.274166,-28.0834,-2.23662,26.4313,-0.829777,2.06536,-0.324905,-0.785064,-0.887339,-1.51944,-0.00516898,0.29848,-0.0296387,-0.00675491,0.528541,0.0197352,-0.858616,-0.507383,-0.207835,-0.311713,
-0.13283,-0.190067,0.207647,-1.91004,-0.300134,0.0487667,0.415852,-0.669642,0.213568,-0.749017,-0.207745,-0.317667,0.658591,-0.198292,0,0,0,0,0,0,0,-0.100849,-0.199867,0.243456,-1.89998,-0.275703,1.58798,1.21135,-0.612544,0.201923,-0.69122,-0.135454,-0.560048,0.61563,-0.0369851,-0.274166,-28.0834,-2.23662,26.4313,-0.829777,2.06536,-0.324905,-0.785064,-0.887339,-1.51944,-0.00516898,0.29848,-0.0296387,-0.00675491,0.528541,0.0197352,-0.858616,-0.507383,-0.207835,-0.311713,
-0.135481,-0.189214,0.204681,-1.91086,-0.301273,0.0513292,0.415071,-0.662701,0.213233,-0.741397,-0.203686,-0.284586,0.640617,-0.195168,0,0,0,0,0,0,0,-0.100849,-0.199867,0.243456,-1.89998,-0.275703,1.58798,1.21135,-0.612544,0.201923,-0.69122,-0.135454,-0.560048,0.61563,-0.0369851,-0.274166,-28.0834,-2.23662,26.4313,-0.829777,2.06536,-0.324905,0.0451491,-1.23905,-1.18283,0.331443,0.658221,-0.260735,-0.216341,0.633231,-0.266595,-0.668866,-0.458025,-0.128148,-0.313337,
-0.138106,-0.188368,0.201743,-1.91166,-0.302273,0.0538398,0.4143,-0.656274,0.211431,-0.734429,-0.201904,-0.250072,0.627634,-0.192834,0,0,0,0,0,0,0,-0.100849,-0.199867,0.243456,-1.89998,-0.275703,1.58798,1.21135,-0.612544,0.201923,-0.69122,-0.135454,-0.560048,0.61563,-0.0369851,-0.274166,-28.0834,-2.23662,26.4313,-0.829777,2.06536,-0.324905,-0.495731,-1.84786,-0.904288,0.826871,0.216447,-0.550479,-0.483798,0.406389,-0.632685,-0.58543,-0.395611,-0.178041,-0.310445,
-0.140707,-0.187532,0.198832,-1.91247,-0.303131,0.0563133,0.413537,-0.650138,0.208965,-0.727842,-0.201043,-0.214553,0.618382,-0.190671,0,0,0,0,0,0,0,-0.100849,-0.199867,0.243456,-1.89998,-0.275703,1.58798,1.21135,-0.612544,0.201923,-0.69122,-0.135454,-0.560048,0.61563,-0.0369851,-0.274166,-28.0834,-2.23662,26.4313,-0.829777,2.06536,-0.324905,-0.495731,-1.84786,-0.904288,0.826871,0.216447,-0.550479,-0.483798,0.406389,-0.632685,-0.58543,-0.395611,-0.178041,-0.310445,
-0.143283,-0.186707,0.195946,-1.91327,-0.303844,0.0587565,0.412782,-0.644095,0.20625,-0.721409,-0.200252,-0.178163,0.610796,-0.188704,0,0,0,0,0,0,0,-0.100849,-0.199867,0.243456,-1.89998,-0.275703,1.58798,1.21135,-0.612544,0.201923,-0.69122,-0.135454,-0.560048,0.61563,-0.0369851,-0.274166,-28.0834,-2.23662,26.4313,-0.829777,2.06536,-0.324905,-2.27984,-0.119793,-0.63476,-0.166396,-0.959359,0.345961,0.390184,-0.220935,0.333703,-0.535636,-0.226201,-0.262686,-0.312083,
-0.145834,-0.185892,0.193087,-1.91406,-0.304408,0.0611445,0.412034,-0.637758,0.203761,-0.714773,-0.197952,-0.141052,0.59701,-0.187041,0,0,0,0,0,0,0,-0.120386,-0.193,0.221513,-1.90412,-0.291317,1.60779,1.20993,-0.608598,0.222729,-0.708349,-0.118934,-0.387974,0.676892,-0.0594827,-0.908932,-28.4047,-2.51036,26.2289,-0.316166,2.28417,-0.318497,-2.27984,-0.119793,-0.63476,-0.166396,-0.959359,0.345961,0.390184,-0.220935,0.333703,-0.535636,-0.226201,-0.262686,-0.312083,
-0.134573,-0.189402,0.206045,-1.91062,-0.299358,0.0485461,0.414155,-0.72102,0.235297,-0.804301,-0.223893,-0.256705,0.661372,-0.231012,0,0,0,0,0,0,0,-0.120386,-0.193,0.221513,-1.90412,-0.291317,1.60779,1.20993,-0.608598,0.222729,-0.708349,-0.118934,-0.387974,0.676892,-0.0594827,-0.908932,-28.4047,-2.51036,26.2289,-0.316166,2.28417,-0.318497,-1.63082,-0.22281,-1.24847,-0.0282446,-0.229743,0.240183,0.268393,0.299646,0.236767,-0.818273,-0.131229,-0.281629,-0.314213,
-0.151552,-0.1836,0.186663,-1.91328,-0.291023,0.0680543,0.414035,-0.62694,0.195336,-0.703349,-0.186131,0.210478,0.516282,-0.206569,0,0,0,0,0,0,0,-0.120386,-0.193,0.221513,-1.90412,-0.291317,1.60779,1.20993,-0.608598,0.222729,-0.708349,-0.118934,-0.387974,0.676892,-0.0594827,-0.908932,-28.4047,-2.51036,26.2289,-0.316166,2.28417,-0.318497,0.16053,-0.092518,-1.95781,0.0761363,1.28075,0.211451,0.272156,1.22545,0.175215,-1.11621,0.0704209,-0.24896,-0.314032,
-0.154024,-0.182824,0.183889,-1.91402,-0.290113,0.0700122,0.413221,-0.617972,0.194011,-0.693586,-0.184126,0.227453,0.489479,-0.203578,0,0,0,0,0,0,0,-0.120386,-0.193,0.221513,-1.90412,-0.291317,1.60779,1.20993,-0.608598,0.222729,-0.708349,-0.118934,-0.387974,0.676892,-0.0594827,-0.908932,-28.4047,-2.51036,26.2289,-0.316166,2.28417,-0.318497,0.16053,-0.092518,-1.95781,0.0761363,1.28075,0.211451,0.272156,1.22545,0.175215,-1.11621,0.0704209,-0.24896,-0.314032,
-0.156463,-0.182057,0.18115,-1.91475,-0.289135,0.0718778,0.412415,-0.609742,0.191829,-0.684685,-0.183249,0.244558,0.466404,-0.201353,0,0,0,0,0,0,0,-0.120386,-0.193,0.221513,-1.90412,-0.291317,1.60779,1.20993,-0.608598,0.222729,-0.708349,-0.118934,-0.387974,0.676892,-0.0594827,-0.908932,-28.4047,-2.51036,26.2289,-0.316166,2.28417,-0.318497,0.542427,-0.893272,-2.42794,0.674219,1.74552,-0.196579,-0.10954,1.60597,-0.30013,-1.32824,0.128457,-0.273725,-0.313584,
-0.158871,-0.1813,0.178444,-1.91548,-0.288087,0.073665,0.411618,-0.60207,0.189209,-0.676423,-0.182855,0.261847,0.446783,-0.199316,0,0,0,0,0,0,0,-0.139301,-0.186869,0.200361,-1.90781,-0.299807,1.62881,1.20781,-0.629711,0.209404,-0.70603,-0.106557,-0.226207,0.700299,-0.0762939,0.0551182,-28.5317,-1.463,25.7568,0.148007,2.05163,-0.217789,0.542427,-0.893272,-2.42794,0.674219,1.74552,-0.196579,-0.10954,1.60597,-0.30013,-1.32824,0.128457,-0.273725,-0.313584,
-0.16125,-0.180555,0.175769,-1.91621,-0.286969,0.0753895,0.410828,-0.594843,0.18631,-0.668646,-0.182776,0.279604,0.431136,-0.197497,0,0,0,0,0,0,0,-0.139301,-0.186869,0.200361,-1.90781,-0.299807,1.62881,1.20781,-0.629711,0.209404,-0.70603,-0.106557,-0.226207,0.700299,-0.0762939,0.0551182,-28.5317,-1.463,25.7568,0.148007,2.05163,-0.217789,-0.514462,-0.455787,-2.44824,0.444935,1.05134,0.0509331,0.120655,1.2555,-0.0327898,-1.31997,0.173887,-0.273653,-0.308087,
-0.163602,-0.179822,0.173125,-1.91694,-0.285776,0.077071,0.410044,-0.587977,0.183193,-0.661238,-0.183017,0.29826,0.420378,-0.196003,0,0,0,0,0,0,0,-0.139301,-0.186869,0.200361,-1.90781,-0.299807,1.62881,1.20781,-0.629711,0.209404,-0.70603,-0.106557,-0.226207,0.700299,-0.0762939,0.0551182,-28.5317,-1.463,25.7568,0.148007,2.05163,-0.217789,-0.884678,0.0277267,-2.19297,0.247564,0.740141,0.266624,0.328245,1.06446,0.189579,-1.2501,0.277974,-0.306389,-0.304826,
-0.153038,-0.18312,0.185051,-1.91392,-0.292282,0.0684084,0.412402,-0.67218,0.211847,-0.752325,-0.203108,0.185683,0.534051,-0.238048,0,0,0,0,0,0,0,-0.139301,-0.186869,0.200361,-1.90781,-0.299807,1.62881,1.20781,-0.629711,0.209404,-0.70603,-0.106557,-0.226207,0.700299,-0.0762939,0.0551182,-28.5317,-1.463,25.7568,0.148007,2.05163,-0.217789,-0.884678,0.0277267,-2.19297,0.247564,0.740141,0.266624,0.328245,1.06446,0.189579,-1.2501,0.277974,-0.306389,-0.304826,
-0.169241,-0.178456,0.166868,-1.91626,-0.289859,0.0857492,0.411531,-0.589339,0.169629,-0.66183,-0.185171,0.396319,0.532815,-0.215909,0,0,0,0,0,0,0,-0.139301,-0.186869,0.200361,-1.90781,-0.299807,1.62881,1.20781,-0.629711,0.209404,-0.70603,-0.106557,-0.226207,0.700299,-0.0762939,0.0551182,-28.5317,-1.463,25.7568,0.148007,2.05163,-0.217789,-0.905956,0.608465,-1.66879,0.0360386,0.464112,0.539781,0.613202,0.796887,0.44489,-0.994107,0.41922,-0.247245,-0.30091,
-0.171559,-0.177781,0.164263,-1.91699,-0.288232,0.0878524,0.410679,-0.579385,0.168886,-0.651187,-0.182736,0.406763,0.525789,-0.212945,0,0,0,0,0,0,0,-0.159673,-0.180128,0.177438,-1.91056,-0.300415,1.6496,1.20546,-0.625742,0.209785,-0.711637,-0.0923153,0.034841,0.599594,-0.0795102,1.63013,-30.551,0.536512,26.1575,0.1535,2.09191,-0.190323,-0.905956,0.608465,-1.66879,0.0360386,0.464112,0.539781,0.613202,0.796887,0.44489,-0.994107,0.41922,-0.247245,-0.30091,
-0.17384,-0.177111,0.161698,-1.91771,-0.286568,0.089927,0.409836,-0.570161,0.167357,-0.641326,-0.180997,0.415993,0.518672,-0.210797,0,0,0,0,0,0,0,-0.159673,-0.180128,0.177438,-1.91056,-0.300415,1.6496,1.20546,-0.625742,0.209785,-0.711637,-0.0923153,0.034841,0.599594,-0.0795102,1.63013,-30.551,0.536512,26.1575,0.1535,2.09191,-0.190323,-0.87495,0.861267,-1.61239,-0.103948,0.395706,0.669287,0.723812,0.709944,0.597995,-0.909638,0.429549,-0.178688,-0.292121,
-0.176086,-0.17645,0.159169,-1.91843,-0.28487,0.0919755,0.409001,-0.561553,0.165314,-0.632117,-0.17967,0.424551,0.512107,-0.208837,0,0,0,0,0,0,0,-0.159673,-0.180128,0.177438,-1.91056,-0.300415,1.6496,1.20546,-0.625742,0.209785,-0.711637,-0.0923153,0.034841,0.599594,-0.0795102,1.63013,-30.551,0.536512,26.1575,0.1535,2.09191,-0.190323,-0.87495,0.861267,-1.61239,-0.103948,0.395706,0.669287,0.723812,0.709944,0.597995,-0.909638,0.429549,-0.178688,-0.292121,
-0.1783,-0.175798,0.156676,-1.91915,-0.283138,0.0940033,0.408173,-0.553472,0.162894,-0.623453,-0.178679,0.433039,0.506964,-0.207078,0,0,0,0,0,0,0,-0.159673,-0.180128,0.177438,-1.91056,-0.300415,1.6496,1.20546,-0.625742,0.209785,-0.711637,-0.0923153,0.034841,0.599594,-0.0795102,1.63013,-30.551,0.536512,26.1575,0.1535,2.09191,-0.190323,-2.10124,0.584853,-1.75927,0.0121816,-0.262065,0.495873,0.528527,0.468317,0.436703,-1.06623,0.35432,-0.307346,-0.285006,
-0.180483,-0.175158,0.154215,-1.91986,-0.28137,0.0960198,0.40735,-0.545836,0.160184,-0.615232,-0.178013,0.442093,0.504129,-0.205613,0,0,0,0,0,0,0,-0.159673,-0.180128,0.177438,-1.91056,-0.300415,1.6496,1.20546,-0.625742,0.209785,-0.711637,-0.0923153,0.034841,0.599594,-0.0795102,1.63013,-30.551,0.536512,26.1575,0.1535,2.09191,-0.190323,-2.10124,0.584853,-1.75927,0.0121816,-0.262065,0.495873,0.528527,0.468317,0.436703,-1.06623,0.35432,-0.307346,-0.285006,
-0.17063,-0.17789,0.165383,-1.91666,-0.28832,0.0845344,0.40995,-0.62965,0.188175,-0.705365,-0.198204,0.435645,0.504651,-0.246306,0,0,0,0,0,0,0,-0.159673,-0.180128,0.177438,-1.91056,-0.300415,1.6496,1.20546,-0.625742,0.209785,-0.711637,-0.0923153,0.034841,0.599594,-0.0795102,1.63013,-30.551,0.536512,26.1575,0.1535,2.09191,-0.190323,-1.34245,1.00483,-2.27805,-0.173884,0.45283,0.705992,0.741971,0.915615,0.663969,-1.26922,0.421866,-0.280948,-0.281699,
-0.188099,-0.172194,0.145583,-1.91859,-0.282427,0.104946,0.408798,-0.542416,0.156113,-0.611045,-0.164648,0.496707,0.426289,-0.224251,0,0,0,0,0,0,0,-0.180233,-0.173499,0.154108,-1.91342,-0.297172,1.66921,1.20298,-0.627344,0.191019,-0.689984,-0.102181,0.142854,0.580755,-0.0795335,2.87189,-30.3764,1.86159,26.2567,0.507809,2.27685,-0.318497,-0.697624,1.05013,-1.83288,-0.148913,0.615152,0.734991,0.784789,0.871596,0.672587,-1.02647,0.459548,-0.201866,-0.277657,
-0.190227,-0.171577,0.143185,-1.91924,-0.280438,0.106559,0.407912,-0.531823,0.154103,-0.599597,-0.162737,0.497176,0.403374,-0.221443,0,0,0,0,0,0,0,-0.180233,-0.173499,0.154108,-1.91342,-0.297172,1.66921,1.20298,-0.627344,0.191019,-0.689984,-0.102181,0.142854,0.580755,-0.0795335,2.87189,-30.3764,1.86159,26.2567,0.507809,2.27685,-0.318497,-0.697624,1.05013,-1.83288,-0.148913,0.615152,0.734991,0.784789,0.871596,0.672587,-1.02647,0.459548,-0.201866,-0.277657,
-0.192316,-0.170971,0.140828,-1.91989,-0.278449,0.108094,0.407035,-0.522248,0.151531,-0.589279,-0.161786,0.497167,0.383828,-0.219379,0,0,0,0,0,0,0,-0.180233,-0.173499,0.154108,-1.91342,-0.297172,1.66921,1.20298,-0.627344,0.191019,-0.689984,-0.102181,0.142854,0.580755,-0.0795335,2.87189,-30.3764,1.86159,26.2567,0.507809,2.27685,-0.318497,-1.32136,-0.972215,-1.97547,1.0205,0.332041,-0.315402,-0.266856,0.892711,-0.445039,-1.1708,0.283033,-0.337698,-0.274308,
-0.19437,-0.170376,0.138509,-1.92053,-0.276461,0.109564,0.406165,-0.513502,0.148717,-0.579866,-0.161271,0.496988,0.367418,-0.21749,0,0,0,0,0,0,0,-0.180233,-0.173499,0.154108,-1.91342,-0.297172,1.66921,1.20298,-0.627344,0.191019,-0.689984,-0.102181,0.142854,0.580755,-0.0795335,2.87189,-30.3764,1.86159,26.2567,0.507809,2.27685,-0.318497,-1.32136,-0.972215,-1.97547,1.0205,0.332041,-0.315402,-0.266856,0.892711,-0.445039,-1.1708,0.283033,-0.337698,-0.274308,
-0.196391,-0.169793,0.136224,-1.92118,-0.274473,0.110982,0.405302,-0.505444,0.145778,-0.571188,-0.161052,0.497062,0.354535,-0.215798,0,0,0,0,0,0,0,-0.180233,-0.173499,0.154108,-1.91342,-0.297172,1.66921,1.20298,-0.627344,0.191019,-0.689984,-0.102181,0.142854,0.580755,-0.0795335,2.87189,-30.3764,1.86159,26.2567,0.507809,2.27685,-0.318497,-2.76227,-0.388086,-1.47351,0.599336,-0.808841,-0.0943526,-0.0730589,0.202834,-0.18525,-0.989492,0.246532,-0.3704,-0.266151,
-0.198383,-0.169222,0.133971,-1.92182,-0.272481,0.112366,0.404444,-0.497959,0.142757,-0.563101,-0.161129,0.497879,0.345859,-0.214396,0,0,0,0,0,0,0,-0.198774,-0.167694,0.132993,-1.91635,-0.290221,1.68617,1.19968,-0.569991,0.189136,-0.663857,-0.0917319,0.283448,0.530232,-0.124327,3.1496,-31.1025,2.43684,26.6534,0.123287,2.45629,-0.150955,-1.30487,-0.719508,-1.73686,0.797339,0.202355,-0.212464,-0.18689,0.738193,-0.301057,-1.03624,0.207282,-0.299032,-0.257844,
-0.189441,-0.171841,0.144149,-1.91903,-0.278277,0.103876,0.407264,-0.579258,0.169065,-0.651119,-0.178683,0.597953,0.403505,-0.253612,0,0,0,0,0,0,0,-0.198774,-0.167694,0.132993,-1.91635,-0.290221,1.68617,1.19968,-0.569991,0.189136,-0.663857,-0.0917319,0.283448,0.530232,-0.124327,3.1496,-31.1025,2.43684,26.6534,0.123287,2.45629,-0.150955,-1.30487,-0.719508,-1.73686,0.797339,0.202355,-0.212464,-0.18689,0.738193,-0.301057,-1.03624,0.207282,-0.299032,-0.257844,
-0.224608,-0.16064,0.10388,-1.92389,-0.265988,0.13569,0.402628,-0.492272,0.137713,-0.557453,-0.15951,0.553769,0.355034,-0.232475,0,0,0,0,0,0,0,-0.198774,-0.167694,0.132993,-1.91635,-0.290221,1.68617,1.19968,-0.569991,0.189136,-0.663857,-0.0917319,0.283448,0.530232,-0.124327,3.1496,-31.1025,2.43684,26.6534,0.123287,2.45629,-0.150955,-0.363329,0.55981,-1.94277,0.0628108,0.889178,0.465882,0.496199,1.04085,0.427311,-1.09585,0.286529,-0.243488,-0.251601,
-0.226538,-0.160095,0.101692,-1.92452,-0.263807,0.137054,0.401709,-0.482603,0.136254,-0.546989,-0.157082,0.545327,0.340876,-0.229744,0,0,0,0,0,0,0,-0.198774,-0.167694,0.132993,-1.91635,-0.290221,1.68617,1.19968,-0.569991,0.189136,-0.663857,-0.0917319,0.283448,0.530232,-0.124327,3.1496,-31.1025,2.43684,26.6534,0.123287,2.45629,-0.150955,-0.363329,0.55981,-1.94277,0.0628108,0.889178,0.465882,0.496199,1.04085,0.427311,-1.09585,0.286529,-0.243488,-0.251601,
-0.228434,-0.159558,0.0995419,-1.92514,-0.261657,0.138367,0.400798,-0.47389,0.134211,-0.537595,-0.155539,0.537378,0.328326,-0.22773,0,0,0,0,0,0,0,-0.198774,-0.167694,0.132993,-1.91635,-0.290221,1.68617,1.19968,-0.569991,0.189136,-0.663857,-0.0917319,0.283448,0.530232,-0.124327,3.1496,-31.1025,2.43684,26.6534,0.123287,2.45629,-0.150955,-0.293149,-1.92839,-2.11759,1.52679,1.04116,-0.801447,-0.769756,1.30333,-0.919475,-1.20266,0.10911,-0.331499,-0.238444,
-0.230297,-0.159031,0.0974257,-1.92576,-0.259537,0.139637,0.399894,-0.465956,0.131882,-0.529055,-0.154443,0.529967,0.317399,-0.225871,0,0,0,0,0,0,0,-0.198774,-0.167694,0.132993,-1.91635,-0.290221,1.68617,1.19968,-0.569991,0.189136,-0.663857,-0.0917319,0.283448,0.530232,-0.124327,3.1496,-31.1025,2.43684,26.6534,0.123287,2.45629,-0.150955,-1.02581,-1.17872,-1.91234,1.02308,0.481146,-0.472273,-0.454922,0.942479,-0.550776,-1.12495,0.0908078,-0.333548,-0.234491,
-0.232132,-0.158513,0.0953408,-1.92637,-0.257444,0.140871,0.398997,-0.458666,0.129392,-0.521207,-0.153675,0.52329,0.308603,-0.224182,0,0,0,0,0,0,0,-0.222496,-0.160725,0.106151,-1.92034,-0.276299,1.70515,1.1942,-0.543807,0.165461,-0.627668,-0.0892667,0.371046,0.4191,-0.153077,2.11017,-30.7771,1.38948,26.5305,0.532528,2.48284,-0.204056,-1.02581,-1.17872,-1.91234,1.02308,0.481146,-0.472273,-0.454922,0.942479,-0.550776,-1.12495,0.0908078,-0.333548,-0.234491,
-0.23394,-0.158006,0.0932852,-1.92698,-0.255374,0.142082,0.398106,-0.45191,0.126799,-0.513913,-0.153229,0.517645,0.302649,-0.222743,0,0,0,0,0,0,0,-0.222496,-0.160725,0.106151,-1.92034,-0.276299,1.70515,1.1942,-0.543807,0.165461,-0.627668,-0.0892667,0.371046,0.4191,-0.153077,2.11017,-30.7771,1.38948,26.5305,0.532528,2.48284,-0.204056,-0.896646,-1.22346,-2.20618,1.10729,0.674376,-0.48951,-0.474122,1.10696,-0.569831,-1.22999,0.117532,-0.321119,-0.229282,
-0.225672,-0.160446,0.102767,-1.92401,-0.256033,0.133005,0.401193,-0.516815,0.145764,-0.584375,-0.167441,0.798899,0.287666,-0.259686,0,0,0,0,0,0,0,-0.222496,-0.160725,0.106151,-1.92034,-0.276299,1.70515,1.1942,-0.543807,0.165461,-0.627668,-0.0892667,0.371046,0.4191,-0.153077,2.11017,-30.7771,1.38948,26.5305,0.532528,2.48284,-0.204056,-0.896646,-1.22346,-2.20618,1.10729,0.674376,-0.48951,-0.474122,1.10696,-0.569831,-1.22999,0.117532,-0.321119,-0.229282,
-0.246226,-0.154624,0.0793487,-1.92722,-0.247187,0.149885,0.396855,-0.445009,0.1179,-0.505471,-0.142976,0.670758,0.246124,-0.238725,0,0,0,0,0,0,0,-0.222496,-0.160725,0.106151,-1.92034,-0.276299,1.70515,1.1942,-0.543807,0.165461,-0.627668,-0.0892667,0.371046,0.4191,-0.153077,2.11017,-30.7771,1.38948,26.5305,0.532528,2.48284,-0.204056,-0.236632,0.334109,-2.33767,0.256819,1.13749,0.338983,0.369825,1.26929,0.295174,-1.26723,0.250644,-0.26971,-0.22884,
-0.247968,-0.154159,0.0773664,-1.92778,-0.244517,0.150797,0.39591,-0.435651,0.116438,-0.495579,-0.140538,0.667444,0.228029,-0.236076,0,0,0,0,0,0,0,-0.222496,-0.160725,0.106151,-1.92034,-0.276299,1.70515,1.1942,-0.543807,0.165461,-0.627668,-0.0892667,0.371046,0.4191,-0.153077,2.11017,-30.7771,1.38948,26.5305,0.532528,2.48284,-0.204056,-1.03661,-1.7837,-2.1308,1.49819,0.554304,-0.799107,-0.756701,1.08902,-0.930858,-1.21159,0.119377,-0.346031,-0.223985,
-0.249676,-0.153701,0.0754206,-1.92834,-0.241871,0.151642,0.394974,-0.427037,0.114508,-0.48646,-0.138942,0.661623,0.211069,-0.234081,0,0,0,0,0,0,0,-0.238801,-0.155908,0.0874308,-1.92299,-0.265162,1.71659,1.18991,-0.483665,0.162198,-0.584545,-0.0857554,0.368276,0.32654,-0.118542,0.840641,-31.4278,0.512709,26.3281,0.758663,2.17156,-0.143631,-1.03661,-1.7837,-2.1308,1.49819,0.554304,-0.799107,-0.756701,1.08902,-0.930858,-1.21159,0.119377,-0.346031,-0.223985,
-0.251353,-0.153251,0.0735085,-1.92889,-0.239254,0.152423,0.394045,-0.419078,0.112352,-0.478009,-0.137801,0.654087,0.195431,-0.232253,0,0,0,0,0,0,0,-0.238801,-0.155908,0.0874308,-1.92299,-0.265162,1.71659,1.18991,-0.483665,0.162198,-0.584545,-0.0857554,0.368276,0.32654,-0.118542,0.840641,-31.4278,0.512709,26.3281,0.758663,2.17156,-0.143631,-1.58936,-2.10267,-1.663,1.6874,-0.0437546,-1.01654,-0.993752,0.710938,-1.15374,-0.994822,0.130682,-0.324752,-0.219961,
-0.252999,-0.152811,0.071628,-1.92944,-0.236672,0.153151,0.393123,-0.411699,0.110068,-0.470141,-0.137017,0.645561,0.181796,-0.230601,0,0,0,0,0,0,0,-0.238801,-0.155908,0.0874308,-1.92299,-0.265162,1.71659,1.18991,-0.483665,0.162198,-0.584545,-0.0857554,0.368276,0.32654,-0.118542,0.840641,-31.4278,0.512709,26.3281,0.758663,2.17156,-0.143631,-1.58936,-2.10267,-1.663,1.6874,-0.0437546,-1.01654,-0.993752,0.710938,-1.15374,-0.994822,0.130682,-0.324752,-0.219961,
-0.254619,-0.15238,0.0697768,-1.92998,-0.234125,0.153835,0.392206,-0.40483,0.107701,-0.462776,-0.136612,0.636717,0.171146,-0.229192,0,0,0,0,0,0,0,-0.238801,-0.155908,0.0874308,-1.92299,-0.265162,1.71659,1.18991,-0.483665,0.162198,-0.584545,-0.0857554,0.368276,0.32654,-0.118542,0.840641,-31.4278,0.512709,26.3281,0.758663,2.17156,-0.143631,-1.0343,-0.20708,-1.30721,0.627733,0.088884,-0.0168851,0.012149,0.558747,-0.108647,-0.799451,0.311997,-0.225651,-0.224715,
-0.247196,-0.154637,0.0783238,-1.92744,-0.236228,0.148189,0.395497,-0.465354,0.120287,-0.528277,-0.152152,0.931523,0.205223,-0.264339,0,0,0,0,0,0,0,-0.238801,-0.155908,0.0874308,-1.92299,-0.265162,1.71659,1.18991,-0.483665,0.162198,-0.584545,-0.0857554,0.368276,0.32654,-0.118542,0.840641,-31.4278,0.512709,26.3281,0.758663,2.17156,-0.143631,-1.0343,-0.20708,-1.30721,0.627733,0.088884,-0.0168851,0.012149,0.558747,-0.108647,-0.799451,0.311997,-0.225651,-0.224715,
-0.260326,-0.150597,0.0630569,-1.9295,-0.232193,0.156666,0.392342,-0.399332,0.096225,-0.455413,-0.141889,0.74976,0.206763,-0.243696,0,0,0,0,0,0,0,-0.238801,-0.155908,0.0874308,-1.92299,-0.265162,1.71659,1.18991,-0.483665,0.162198,-0.584545,-0.0857554,0.368276,0.32654,-0.118542,0.840641,-31.4278,0.512709,26.3281,0.758663,2.17156,-0.143631,-1.59897,0.466566,-0.757125,0.212669,-0.588385,0.268569,0.30304,0.0392533,0.178581,-0.523069,0.374264,-0.156069,-0.223586,
-0.261888,-0.150215,0.0612716,-1.93005,-0.229204,0.157501,0.391378,-0.390579,0.0953978,-0.446316,-0.139465,0.747175,0.208564,-0.24115,0,0,0,0,0,0,0,-0.254902,-0.15122,0.06907,-1.92573,-0.251293,1.72567,1.18586,-0.491289,0.147055,-0.567835,-0.0827383,0.443266,0.256961,-0.133447,2.74494,-31.6261,2.31386,26.8042,0.575558,2.5158,-0.217789,-1.71239,0.624081,-1.00561,0.172482,-0.558657,0.329128,0.369667,0.109448,0.234389,-0.632797,0.406512,-0.164156,-0.222003,
-0.263417,-0.149838,0.0595211,-1.9306,-0.226245,0.158327,0.390421,-0.382223,0.0942749,-0.437638,-0.137035,0.739805,0.206602,-0.239189,0,0,0,0,0,0,0,-0.254902,-0.15122,0.06907,-1.92573,-0.251293,1.72567,1.18586,-0.491289,0.147055,-0.567835,-0.0827383,0.443266,0.256961,-0.133447,2.74494,-31.6261,2.31386,26.8042,0.575558,2.5158,-0.217789,-1.71239,0.624081,-1.00561,0.172482,-0.558657,0.329128,0.369667,0.109448,0.234389,-0.632797,0.406512,-0.164156,-0.222003,
-0.264914,-0.149467,0.0578035,-1.93114,-0.223329,0.159137,0.389471,-0.374339,0.0928475,-0.429386,-0.134837,0.728998,0.202423,-0.237392,0,0,0,0,0,0,0,-0.254902,-0.15122,0.06907,-1.92573,-0.251293,1.72567,1.18586,-0.491289,0.147055,-0.567835,-0.0827383,0.443266,0.256961,-0.133447,2.74494,-31.6261,2.31386,26.8042,0.575558,2.5158,-0.217789,-0.996073,-1.27781,-1.54574,1.39076,0.143734,-0.55545,-0.520449,0.712442,-0.699879,-0.845527,0.349262,-0.194552,-0.221356,
-0.266382,-0.149102,0.0561173,-1.93167,-0.220466,0.159926,0.388528,-0.36692,0.0911613,-0.421565,-0.132976,0.715823,0.197336,-0.23576,0,0,0,0,0,0,0,-0.254902,-0.15122,0.06907,-1.92573,-0.251293,1.72567,1.18586,-0.491289,0.147055,-0.567835,-0.0827383,0.443266,0.256961,-0.133447,2.74494,-31.6261,2.31386,26.8042,0.575558,2.5158,-0.217789,-0.996073,-1.27781,-1.54574,1.39076,0.143734,-0.55545,-0.520449,0.712442,-0.699879,-0.845527,0.349262,-0.194552,-0.221356,
-0.267822,-0.148745,0.0544607,-1.9322,-0.217661,0.160696,0.387591,-0.359936,0.0892735,-0.41415,-0.131514,0.701152,0.192558,-0.234347,0,0,0,0,0,0,0,-0.254902,-0.15122,0.06907,-1.92573,-0.251293,1.72567,1.18586,-0.491289,0.147055,-0.567835,-0.0827383,0.443266,0.256961,-0.133447,2.74494,-31.6261,2.31386,26.8042,0.575558,2.5158,-0.217789,-0.478956,-1.7008,-2.20792,1.77899,0.741701,-0.704032,-0.662614,1.19296,-0.869531,-1.10149,0.394356,-0.191605,-0.222576,
-0.261156,-0.150546,0.0621856,-1.92962,-0.222829,0.155092,0.391042,-0.418058,0.0994977,-0.476265,-0.148007,1.00804,0.16731,-0.268204,0,0,0,0,0,0,0,-0.270013,-0.147103,0.0518867,-1.9281,-0.235806,1.73187,1.18156,-0.454489,0.113346,-0.519066,-0.0754112,0.489531,0.165211,-0.127031,3.02265,-32.0268,2.78596,27.1771,0.226742,2.82799,-0.210464,-0.478956,-1.7008,-2.20792,1.77899,0.741701,-0.704032,-0.662614,1.19296,-0.869531,-1.10149,0.394356,-0.191605,-0.222576,
-0.289193,-0.143175,0.0300119,-1.93397,-0.199765,0.170918,0.383801,-0.348952,0.0778839,-0.402272,-0.12248,0.749511,0.178104,-0.247498,0,0,0,0,0,0,0,-0.270013,-0.147103,0.0518867,-1.9281,-0.235806,1.73187,1.18156,-0.454489,0.113346,-0.519066,-0.0754112,0.489531,0.165211,-0.127031,3.02265,-32.0268,2.78596,27.1771,0.226742,2.82799,-0.210464,-0.650252,-0.195576,-1.58057,0.800836,0.272099,0.0383937,0.0874499,0.670805,-0.0899851,-0.777097,0.44276,-0.0879666,-0.224724,
-0.290557,-0.142866,0.0284372,-1.93445,-0.196798,0.171583,0.38282,-0.341163,0.0772701,-0.393697,-0.119754,0.741804,0.16636,-0.245274,0,0,0,0,0,0,0,-0.270013,-0.147103,0.0518867,-1.9281,-0.235806,1.73187,1.18156,-0.454489,0.113346,-0.519066,-0.0754112,0.489531,0.165211,-0.127031,3.02265,-32.0268,2.78596,27.1771,0.226742,2.82799,-0.210464,-0.787427,0.579407,-2.1307,0.392605,0.426592,0.410938,0.456585,0.824122,0.311907,-1.02095,0.460854,-0.101444,-0.224145,
-0.291895,-0.142561,0.0268922,-1.93492,-0.193848,0.172197,0.381846,-0.334397,0.0761523,-0.386241,-0.117612,0.737495,0.153435,-0.243543,0,0,0,0,0,0,0,-0.270013,-0.147103,0.0518867,-1.9281,-0.235806,1.73187,1.18156,-0.454489,0.113346,-0.519066,-0.0754112,0.489531,0.165211,-0.127031,3.02265,-32.0268,2.78596,27.1771,0.226742,2.82799,-0.210464,-0.787427,0.579407,-2.1307,0.392605,0.426592,0.410938,0.456585,0.824122,0.311907,-1.02095,0.460854,-0.101444,-0.224145,
-0.293205,-0.142262,0.0253752,-1.93538,-0.190937,0.172755,0.380879,-0.32764,0.0748038,-0.379244,-0.115851,0.727781,0.139566,-0.241703,0,0,0,0,0,0,0,-0.270013,-0.147103,0.0518867,-1.9281,-0.235806,1.73187,1.18156,-0.454489,0.113346,-0.519066,-0.0754112,0.489531,0.165211,-0.127031,3.02265,-32.0268,2.78596,27.1771,0.226742,2.82799,-0.210464,-1.01637,0.567614,-1.81023,0.39186,0.101185,0.362297,0.393338,0.585322,0.268785,-0.866397,0.487201,-0.0759856,-0.217413,
-0.29449,-0.141969,0.0238851,-1.93584,-0.18808,0.173258,0.379919,-0.321213,0.0732899,-0.372533,-0.114477,0.714232,0.125864,-0.239995,0,0,0,0,0,0,0,-0.270013,-0.147103,0.0518867,-1.9281,-0.235806,1.73187,1.18156,-0.454489,0.113346,-0.519066,-0.0754112,0.489531,0.165211,-0.127031,3.02265,-32.0268,2.78596,27.1771,0.226742,2.82799,-0.210464,-1.01637,0.567614,-1.81023,0.39186,0.101185,0.362297,0.393338,0.585322,0.268785,-0.866397,0.487201,-0.0759856,-0.217413,
-0.295751,-0.141682,0.0224206,-1.93629,-0.185288,0.173713,0.378965,-0.31514,0.071664,-0.366128,-0.113533,0.698046,0.113564,-0.238467,0,0,0,0,0,0,0,-0.28422,-0.143458,0.0353289,-1.93037,-0.219584,1.7361,1.17731,-0.437351,0.108116,-0.502341,-0.0707068,0.544446,0.108425,-0.149468,1.98322,-31.4754,1.86159,27.1255,0.404354,2.86736,-0.197647,-0.581034,-0.46619,-1.86439,0.986155,0.352465,-0.0903245,-0.0599849,0.760629,-0.20728,-0.815664,0.421509,-0.0241877,-0.21433,
-0.290478,-0.142457,0.0289135,-1.93814,-0.217662,0.15625,0.395557,-0.376411,0.0932425,-0.42938,-0.149115,0.929735,0.140116,-0.269541,0,0,0,0,0,0,0,-0.28422,-0.143458,0.0353289,-1.93037,-0.219584,1.7361,1.17731,-0.437351,0.108116,-0.502341,-0.0707068,0.544446,0.108425,-0.149468,1.98322,-31.4754,1.86159,27.1255,0.404354,2.86736,-0.197647,-0.581034,-0.46619,-1.86439,0.986155,0.352465,-0.0903245,-0.0599849,0.760629,-0.20728,-0.815664,0.421509,-0.0241877,-0.21433,
-0.302731,-0.139838,0.0141028,-1.9365,-0.174026,0.175804,0.378434,-0.292545,0.0613607,-0.341601,-0.116791,0.891854,0.238878,-0.246636,0,0,0,0,0,0,0,-0.28422,-0.143458,0.0353289,-1.93037,-0.219584,1.7361,1.17731,-0.437351,0.108116,-0.502341,-0.0707068,0.544446,0.108425,-0.149468,1.98322,-31.4754,1.86159,27.1255,0.404354,2.86736,-0.197647,-0.154759,-2.19086,-2.54769,2.03394,0.912094,-0.87596,-0.830886,1.30043,-1.04448,-1.04314,0.288415,-0.0171619,-0.209248,
-0.303872,-0.139596,0.0127676,-1.93695,-0.170507,0.176744,0.377456,-0.285412,0.0604755,-0.333816,-0.113797,0.879867,0.234886,-0.244509,0,0,0,0,0,0,0,-0.28422,-0.143458,0.0353289,-1.93037,-0.219584,1.7361,1.17731,-0.437351,0.108116,-0.502341,-0.0707068,0.544446,0.108425,-0.149468,1.98322,-31.4754,1.86159,27.1255,0.404354,2.86736,-0.197647,-0.828664,-0.887578,-2.07304,1.17608,0.234509,-0.32901,-0.290153,0.747034,-0.457656,-0.835174,0.317952,0.023851,-0.205286,
-0.304989,-0.139359,0.01146,-1.9374,-0.167025,0.177656,0.376484,-0.279115,0.0592615,-0.326901,-0.111111,0.870553,0.228017,-0.242988,0,0,0,0,0,0,0,-0.28422,-0.143458,0.0353289,-1.93037,-0.219584,1.7361,1.17731,-0.437351,0.108116,-0.502341,-0.0707068,0.544446,0.108425,-0.149468,1.98322,-31.4754,1.86159,27.1255,0.404354,2.86736,-0.197647,-0.828664,-0.887578,-2.07304,1.17608,0.234509,-0.32901,-0.290153,0.747034,-0.457656,-0.835174,0.317952,0.023851,-0.205286,
-0.306083,-0.139128,0.0101771,-1.93783,-0.163568,0.178534,0.375517,-0.273527,0.0578055,-0.320723,-0.108821,0.864045,0.219565,-0.241612,0,0,0,0,0,0,0,-0.297917,-0.140393,0.019617,-1.93254,-0.201096,1.73855,1.17197,-0.4158,0.0856079,-0.462474,-0.0614246,0.575515,0.0521565,-0.140811,3.1258,-31.7253,3.0359,26.7764,0.660702,2.90673,-0.170181,-1.0383,0.23428,-2.09048,0.488326,0.0785258,0.197911,0.236036,0.57399,0.104086,-0.832257,0.337231,0.0526341,-0.207234,
-0.307156,-0.138903,0.00891705,-1.93826,-0.160138,0.179377,0.374556,-0.268265,0.0562064,-0.315009,-0.106979,0.857702,0.210706,-0.240322,0,0,0,0,0,0,0,-0.297917,-0.140393,0.019617,-1.93254,-0.201096,1.73855,1.17197,-0.4158,0.0856079,-0.462474,-0.0614246,0.575515,0.0521565,-0.140811,3.1258,-31.7253,3.0359,26.7764,0.660702,2.90673,-0.170181,-1.0383,0.23428,-2.09048,0.488326,0.0785258,0.197911,0.236036,0.57399,0.104086,-0.832257,0.337231,0.0526341,-0.207234,
-0.308207,-0.138685,0.00767999,-1.93868,-0.156757,0.180187,0.3736,-0.262696,0.0545672,-0.309266,-0.105607,0.845253,0.20253,-0.239094,0,0,0,0,0,0,0,-0.297917,-0.140393,0.019617,-1.93254,-0.201096,1.73855,1.17197,-0.4158,0.0856079,-0.462474,-0.0614246,0.575515,0.0521565,-0.140811,3.1258,-31.7253,3.0359,26.7764,0.660702,2.90673,-0.170181,-1.34162,-1.1906,-2.1785,1.30961,-0.0877775,-0.552322,-0.512883,0.617933,-0.688068,-0.831031,0.246081,0.0597611,-0.2026,
-0.299778,-0.139609,0.0171196,-1.93835,-0.199703,0.187309,0.386383,-0.309049,0.0798187,-0.359074,-0.166755,0.935173,0.757762,-1.19905,0,0,0,0,0,0,0,-0.297917,-0.140393,0.019617,-1.93254,-0.201096,1.73855,1.17197,-0.4158,0.0856079,-0.462474,-0.0614246,0.575515,0.0521565,-0.140811,3.1258,-31.7253,3.0359,26.7764,0.660702,2.90673,-0.170181,-1.34162,-1.1906,-2.1785,1.30961,-0.0877775,-0.552322,-0.512883,0.617933,-0.688068,-0.831031,0.246081,0.0597611,-0.2026,
-0.313497,-0.137495,0.0017013,-1.93834,-0.157081,0.184698,0.351588,-0.253344,0.0492286,-0.300089,-0.0847574,0.935795,0.113936,-0.24179,0,0,0,0,0,0,0,-0.297917,-0.140393,0.019617,-1.93254,-0.201096,1.73855,1.17197,-0.4158,0.0856079,-0.462474,-0.0614246,0.575515,0.0521565,-0.140811,3.1258,-31.7253,3.0359,26.7764,0.660702,2.90673,-0.170181,-0.297459,-1.12016,-2.64212,1.36349,0.737455,-0.355839,-0.311147,1.09944,-0.487316,-0.976994,0.280132,0.0969115,-0.201996,
-0.314481,-0.13731,0.000533973,-1.93868,-0.153428,0.18502,0.350627,-0.245838,0.0462586,-0.291832,-0.0845685,0.913302,0.0805767,-0.240322,0,0,0,0,0,0,0,-0.313632,-0.137193,0.00146093,-1.93513,-0.174776,1.74107,1.16647,-0.363068,0.0616233,-0.414801,-0.0641818,0.65065,0.0891322,-0.215989,2.72113,-31.6777,2.81373,27.1533,0.58746,3.87536,-0.258072,-0.122345,-0.19426,-2.77048,0.8729,0.863242,0.124918,0.165012,1.10984,0.0207996,-1.02004,0.355412,0.120101,-0.201837,
-0.315438,-0.137136,-0.000605082,-1.93901,-0.149853,0.18522,0.349671,-0.239444,0.043683,-0.284764,-0.0843983,0.89383,0.0499994,-0.23892,0,0,0,0,0,0,0,-0.313632,-0.137193,0.00146093,-1.93513,-0.174776,1.74107,1.16647,-0.363068,0.0616233,-0.414801,-0.0641818,0.65065,0.0891322,-0.215989,2.72113,-31.6777,2.81373,27.1533,0.58746,3.87536,-0.258072,-0.122345,-0.19426,-2.77048,0.8729,0.863242,0.124918,0.165012,1.10984,0.0207996,-1.02004,0.355412,0.120101,-0.201837,
-0.316374,-0.13697,-0.00171981,-1.93935,-0.146343,0.18531,0.348721,-0.233981,0.0414142,-0.278683,-0.0843768,0.877428,0.0226047,-0.237588,0,0,0,0,0,0,0,-0.313632,-0.137193,0.00146093,-1.93513,-0.174776,1.74107,1.16647,-0.363068,0.0616233,-0.414801,-0.0641818,0.65065,0.0891322,-0.215989,2.72113,-31.6777,2.81373,27.1533,0.58746,3.87536,-0.258072,-1.17034,-1.6681,-2.62916,1.65322,0.132273,-0.767987,-0.743253,0.839517,-0.902379,-0.929127,0.230746,0.126916,-0.196911,
-0.317291,-0.136812,-0.00281348,-1.93969,-0.142887,0.185307,0.347775,-0.229286,0.0393954,-0.273416,-0.0846276,0.864115,-0.000894539,-0.236354,0,0,0,0,0,0,0,-0.313632,-0.137193,0.00146093,-1.93513,-0.174776,1.74107,1.16647,-0.363068,0.0616233,-0.414801,-0.0641818,0.65065,0.0891322,-0.215989,2.72113,-31.6777,2.81373,27.1533,0.58746,3.87536,-0.258072,-1.17034,-1.6681,-2.62916,1.65322,0.132273,-0.767987,-0.743253,0.839517,-0.902379,-0.929127,0.230746,0.126916,-0.196911,
-0.318192,-0.136662,-0.00388867,-1.94003,-0.139472,0.185229,0.346834,-0.225199,0.0375937,-0.268798,-0.085279,0.853695,-0.019455,-0.235251,0,0,0,0,0,0,0,-0.313632,-0.137193,0.00146093,-1.93513,-0.174776,1.74107,1.16647,-0.363068,0.0616233,-0.414801,-0.0641818,0.65065,0.0891322,-0.215989,2.72113,-31.6777,2.81373,27.1533,0.58746,3.87536,-0.258072,-0.561918,-0.84981,-2.53884,1.19702,0.388204,-0.272737,-0.248105,0.835184,-0.384669,-0.823954,0.31872,0.208863,-0.191391,
-0.31369,-0.137529,0.00127577,-1.93838,-0.156469,0.184614,0.362404,-0.243791,0.041024,-0.288197,-0.0835466,0.901537,0.080432,-0.238231,0,0,0,0,0,0,0,-0.313632,-0.137193,0.00146093,-1.93513,-0.174776,1.74107,1.16647,-0.363068,0.0616233,-0.414801,-0.0641818,0.65065,0.0891322,-0.215989,2.72113,-31.6777,2.81373,27.1533,0.58746,3.87536,-0.258072,-0.561918,-0.84981,-2.53884,1.19702,0.388204,-0.272737,-0.248105,0.835184,-0.384669,-0.823954,0.31872,0.208863,-0.191391,
-0.327468,-0.135162,-0.0147853,-1.93974,-0.131256,0.173752,0.359807,-0.20131,0.0357866,-0.244271,-0.0894959,0.721184,0.0540168,-0.225134,0,0,0,0,0,0,0,-0.32496,-0.135172,-0.0117268,-1.93711,-0.153248,1.7436,1.15459,-0.328778,0.0578769,-0.39605,-0.0465995,0.63471,0.0159782,-0.311278,3.17737,-31.7491,3.31361,27.0264,0.6488,3.11272,-0.110672,0.0708995,0.189132,-2.4322,0.661276,0.715057,0.324675,0.361586,0.886813,0.22573,-0.795439,0.445286,0.210356,-0.186867,
-0.328253,-0.135022,-0.0157387,-1.9401,-0.128493,0.173934,0.35891,-0.196142,0.0350037,-0.238333,-0.0879338,0.690784,0.0454043,-0.224237,0,0,0,0,0,0,0,-0.32496,-0.135172,-0.0117268,-1.93711,-0.153248,1.7436,1.15459,-0.328778,0.0578769,-0.39605,-0.0465995,0.63471,0.0159782,-0.311278,3.17737,-31.7491,3.31361,27.0264,0.6488,3.11272,-0.110672,0.255146,-1.07465,-2.64749,1.39505,0.934373,-0.260783,-0.224534,1.13876,-0.386008,-0.849146,0.349231,0.215347,-0.17959,
-0.32902,-0.134886,-0.0166723,-1.94044,-0.125827,0.174079,0.358017,-0.191873,0.0341099,-0.233414,-0.0866462,0.66652,0.0363443,-0.22337,0,0,0,0,0,0,0,-0.32496,-0.135172,-0.0117268,-1.93711,-0.153248,1.7436,1.15459,-0.328778,0.0578769,-0.39605,-0.0465995,0.63471,0.0159782,-0.311278,3.17737,-31.7491,3.31361,27.0264,0.6488,3.11272,-0.110672,0.255146,-1.07465,-2.64749,1.39505,0.934373,-0.260783,-0.224534,1.13876,-0.386008,-0.849146,0.349231,0.215347,-0.17959,
-0.329774,-0.134753,-0.0175893,-1.94079,-0.123238,0.17419,0.357126,-0.188274,0.0331556,-0.229256,-0.0856933,0.647309,0.0277377,-0.222572,0,0,0,0,0,0,0,-0.32496,-0.135172,-0.0117268,-1.93711,-0.153248,1.7436,1.15459,-0.328778,0.0578769,-0.39605,-0.0465995,0.63471,0.0159782,-0.311278,3.17737,-31.7491,3.31361,27.0264,0.6488,3.11272,-0.110672,-0.458171,-0.808069,-2.46009,1.2008,0.431192,-0.271757,-0.248994,0.855426,-0.381854,-0.819945,0.341425,0.173979,-0.173654,
-0.330514,-0.134625,-0.0184919,-1.94113,-0.12071,0.174272,0.356239,-0.185137,0.0321904,-0.225632,-0.0851188,0.632048,0.0205235,-0.221888,0,0,0,0,0,0,0,-0.32496,-0.135172,-0.0117268,-1.93711,-0.153248,1.7436,1.15459,-0.328778,0.0578769,-0.39605,-0.0465995,0.63471,0.0159782,-0.311278,3.17737,-31.7491,3.31361,27.0264,0.6488,3.11272,-0.110672,-0.458171,-0.808069,-2.46009,1.2008,0.431192,-0.271757,-0.248994,0.855426,-0.381854,-0.819945,0.341425,0.173979,-0.173654,
-0.331242,-0.134499,-0.0193805,-1.94147,-0.118244,0.174334,0.355353,-0.181969,0.0312758,-0.222167,-0.0848993,0.616469,0.015463,-0.221313,0,0,0,0,0,0,0,-0.334059,-0.133692,-0.0229991,-1.93847,-0.135323,1.74364,1.14796,-0.292723,0.0420957,-0.341073,-0.0471527,0.527552,-0.000390661,-0.144337,3.05042,-31.527,3.18666,27.3279,0.502316,2.97356,-0.210464,-0.821674,-0.00356866,-2.02315,0.700353,0.0165299,0.0373171,0.0592986,0.503719,-0.0579425,-0.685168,0.407059,0.150084,-0.172303,
-0.331956,-0.134378,-0.0202545,-1.94181,-0.115856,0.174387,0.35447,-0.178465,0.0304801,-0.218497,-0.0849475,0.59701,0.0131064,-0.220945,0,0,0,0,0,0,0,-0.334059,-0.133692,-0.0229991,-1.93847,-0.135323,1.74364,1.14796,-0.292723,0.0420957,-0.341073,-0.0471527,0.527552,-0.000390661,-0.144337,3.05042,-31.527,3.18666,27.3279,0.502316,2.97356,-0.210464,-0.949437,-0.162587,-1.79162,0.7425,-0.107713,-0.0693815,-0.0407575,0.424766,-0.171693,-0.636959,0.364911,0.10287,-0.176024,
-0.326171,-0.13519,-0.0135469,-1.93979,-0.138159,0.179896,0.366985,-0.191522,0.034573,-0.232453,-0.0821382,0.488576,0.070969,-0.0912777,0,0,0,0,0,0,0,-0.334059,-0.133692,-0.0229991,-1.93847,-0.135323,1.74364,1.14796,-0.292723,0.0420957,-0.341073,-0.0471527,0.527552,-0.000390661,-0.144337,3.05042,-31.527,3.18666,27.3279,0.502316,2.97356,-0.210464,-0.949437,-0.162587,-1.79162,0.7425,-0.107713,-0.0693815,-0.0407575,0.424766,-0.171693,-0.636959,0.364911,0.10287,-0.176024,
-0.345022,-0.132101,-0.0362001,-1.9426,-0.104128,0.172363,0.353074,-0.170022,0.0337973,-0.209964,-0.0798348,0.554944,-0.0858623,-0.196392,0,0,0,0,0,0,0,-0.334059,-0.133692,-0.0229991,-1.93847,-0.135323,1.74364,1.14796,-0.292723,0.0420957,-0.341073,-0.0471527,0.527552,-0.000390661,-0.144337,3.05042,-31.527,3.18666,27.3279,0.502316,2.97356,-0.210464,-0.392614,-0.89328,-2.58422,1.31343,0.663019,-0.323081,-0.295989,1.08767,-0.436297,-1.01706,0.314524,0.0182344,-0.175361,
-0.345686,-0.131966,-0.0370223,-1.94292,-0.101986,0.171967,0.352286,-0.165986,0.0335343,-0.205546,-0.0801501,0.535372,-0.09881,-0.196982,0,0,0,0,0,0,0,-0.334059,-0.133692,-0.0229991,-1.93847,-0.135323,1.74364,1.14796,-0.292723,0.0420957,-0.341073,-0.0471527,0.527552,-0.000390661,-0.144337,3.05042,-31.527,3.18666,27.3279,0.502316,2.97356,-0.210464,-0.392614,-0.89328,-2.58422,1.31343,0.663019,-0.323081,-0.295989,1.08767,-0.436297,-1.01706,0.314524,0.0182344,-0.175361,
-0.346334,-0.131832,-0.037828,-1.94324,-0.0999301,0.17152,0.351581,-0.162046,0.033654,-0.20144,-0.0803957,0.513986,-0.111929,-0.176302,0,0,0,0,0,0,0,-0.334059,-0.133692,-0.0229991,-1.93847,-0.135323,1.74364,1.14796,-0.292723,0.0420957,-0.341073,-0.0471527,0.527552,-0.000390661,-0.144337,3.05042,-31.527,3.18666,27.3279,0.502316,2.97356,-0.210464,-0.827382,-0.612653,-2.54103,1.1329,0.412692,-0.278624,-0.254122,0.960808,-0.383293,-1.05492,0.297791,-0.032336,-0.173494,
-0.34697,-0.131696,-0.0386196,-1.94356,-0.097942,0.171032,0.350912,-0.158926,0.0338543,-0.197884,-0.0812692,0.497031,-0.121794,-0.167268,0,0,0,0,0,0,0,-0.342799,-0.132637,-0.0332917,-1.93998,-0.120352,1.74364,1.14404,-0.243629,0.0317004,-0.297568,-0.0400345,0.384504,0.00324684,-0.0694527,2.64179,-31.6777,2.71455,27.3517,0.416256,2.8875,-0.177505,-0.827382,-0.612653,-2.54103,1.1329,0.412692,-0.278624,-0.254122,0.960808,-0.383293,-1.05492,0.297791,-0.032336,-0.173494,
-0.347596,-0.13156,-0.0393998,-1.9439,-0.0959927,0.170529,0.350249,-0.156637,0.0341118,-0.195069,-0.0829754,0.48732,-0.125924,-0.165697,0,0,0,0,0,0,0,-0.342799,-0.132637,-0.0332917,-1.93998,-0.120352,1.74364,1.14404,-0.243629,0.0317004,-0.297568,-0.0400345,0.384504,0.00324684,-0.0694527,2.64179,-31.6777,2.71455,27.3517,0.416256,2.8875,-0.177505,-1.33781,-0.491246,-1.80392,0.86467,-0.195257,-0.321768,-0.296005,0.472897,-0.418212,-0.762607,0.223791,-0.0280397,-0.173853,
-0.348217,-0.131422,-0.0401719,-1.94424,-0.0940468,0.17004,0.349577,-0.155138,0.0344705,-0.193021,-0.0856061,0.486465,-0.122162,-0.167855,0,0,0,0,0,0,0,-0.342799,-0.132637,-0.0332917,-1.93998,-0.120352,1.74364,1.14404,-0.243629,0.0317004,-0.297568,-0.0400345,0.384504,0.00324684,-0.0694527,2.64179,-31.6777,2.71455,27.3517,0.416256,2.8875,-0.177505,-0.938734,-1.24759,-2.0841,1.34587,0.235343,-0.613324,-0.586639,0.832443,-0.722939,-0.901094,0.160796,-0.0724541,-0.169734,
-0.343075,-0.13225,-0.0341463,-1.9425,-0.124644,0.179625,0.362418,-0.162258,0.0308306,-0.20028,-0.0674987,0.158771,-0.0146578,0.0399922,0,0,0,0,0,0,0,-0.342799,-0.132637,-0.0332917,-1.93998,-0.120352,1.74364,1.14404,-0.243629,0.0317004,-0.297568,-0.0400345,0.384504,0.00324684,-0.0694527,2.64179,-31.6777,2.71455,27.3517,0.416256,2.8875,-0.177505,-0.938734,-1.24759,-2.0841,1.34587,0.235343,-0.613324,-0.586639,0.832443,-0.722939,-0.901094,0.160796,-0.0724541,-0.169734,
-0.351975,-0.131465,-0.0443459,-1.94373,-0.0893298,0.171539,0.332932,-0.17394,0.0346113,-0.210897,-0.0961685,0.925917,0.0346448,-1.1994,0,0,0,0,0,0,0,-0.342799,-0.132637,-0.0332917,-1.93998,-0.120352,1.74364,1.14404,-0.243629,0.0317004,-0.297568,-0.0400345,0.384504,0.00324684,-0.0694527,2.64179,-31.6777,2.71455,27.3517,0.416256,2.8875,-0.177505,-0.907325,-2.2298,-2.12387,1.91757,0.311441,-1.07712,-1.04195,0.979424,-1.21759,-0.920868,0.0958325,-0.0934634,-0.169167,
-0.352593,-0.131314,-0.0451458,-1.94408,-0.0855022,0.171671,0.331648,-0.154545,0.037704,-0.19999,-0.088997,0.956897,0.0330461,-0.320919,0,0,0,0,0,0,0,-0.349695,-0.132072,-0.0416917,-1.94147,-0.108798,1.74355,1.14207,-0.203881,0.0126251,-0.249492,-0.045155,0.346814,-0.0110011,-0.0648049,1.90784,-30.9755,2.03615,27.1771,0.971981,2.95983,-0.197647,-0.907325,-2.2298,-2.12387,1.91757,0.311441,-1.07712,-1.04195,0.979424,-1.21759,-0.920868,0.0958325,-0.0934634,-0.169167,
-0.353172,-0.131159,-0.0458946,-1.94441,-0.0820802,0.171701,0.330814,-0.144652,0.0387997,-0.187194,-0.0828259,0.855511,0.0075276,-0.208607,0,0,0,0,0,0,0,-0.349695,-0.132072,-0.0416917,-1.94147,-0.108798,1.74355,1.14207,-0.203881,0.0126251,-0.249492,-0.045155,0.346814,-0.0110011,-0.0648049,1.90784,-30.9755,2.03615,27.1771,0.971981,2.95983,-0.197647,-0.53715,-1.54536,-2.11124,1.55627,0.526584,-0.678647,-0.642329,1.02155,-0.802739,-0.931507,0.157855,-0.100201,-0.171421,
-0.353721,-0.131005,-0.0466076,-1.94474,-0.078977,0.171663,0.330008,-0.137415,0.0382916,-0.17824,-0.0807384,0.775796,-0.00955804,-0.201441,0,0,0,0,0,0,0,-0.349695,-0.132072,-0.0416917,-1.94147,-0.108798,1.74355,1.14207,-0.203881,0.0126251,-0.249492,-0.045155,0.346814,-0.0110011,-0.0648049,1.90784,-30.9755,2.03615,27.1771,0.971981,2.95983,-0.197647,-0.53715,-1.54536,-2.11124,1.55627,0.526584,-0.678647,-0.642329,1.02155,-0.802739,-0.931507,0.157855,-0.100201,-0.171421,
-0.35425,-0.130856,-0.0472949,-1.94506,-0.0761242,0.171577,0.329203,-0.132243,0.0374248,-0.171826,-0.0802663,0.713191,-0.0213444,-0.201393,0,0,0,0,0,0,0,-0.349695,-0.132072,-0.0416917,-1.94147,-0.108798,1.74355,1.14207,-0.203881,0.0126251,-0.249492,-0.045155,0.346814,-0.0110011,-0.0648049,1.90784,-30.9755,2.03615,27.1771,0.971981,2.95983,-0.197647,-0.703358,-1.81648,-1.90454,1.63378,0.359634,-0.838638,-0.807063,0.913911,-0.959891,-0.847125,0.0955439,-0.101659,-0.172794,
-0.354765,-0.130709,-0.0479641,-1.94538,-0.0734617,0.171464,0.328397,-0.128736,0.0366108,-0.167316,-0.0806324,0.665635,-0.0283249,-0.201485,0,0,0,0,0,0,0,-0.349695,-0.132072,-0.0416917,-1.94147,-0.108798,1.74355,1.14207,-0.203881,0.0126251,-0.249492,-0.045155,0.346814,-0.0110011,-0.0648049,1.90784,-30.9755,2.03615,27.1771,0.971981,2.95983,-0.197647,-0.617373,-1.8253,-1.97643,1.68845,0.442464,-0.827161,-0.803594,0.984274,-0.94437,-0.887884,0.126022,-0.114677,-0.174722,
-0.350239,-0.131323,-0.0424186,-1.94525,-0.144161,0.204484,0.383838,-0.139134,0.0356295,-0.165951,-0.0802924,-1.01091,0.874244,1.20113,0,0,0,0,0,0,0,-0.349695,-0.132072,-0.0416917,-1.94147,-0.108798,1.74355,1.14207,-0.203881,0.0126251,-0.249492,-0.045155,0.346814,-0.0110011,-0.0648049,1.90784,-30.9755,2.03615,27.1771,0.971981,2.95983,-0.197647,-0.617373,-1.8253,-1.97643,1.68845,0.442464,-0.827161,-0.803594,0.984274,-0.94437,-0.887884,0.126022,-0.114677,-0.174722,
-0.354504,-0.131504,-0.0484561,-1.94366,-0.13199,0.180828,0.407578,-0.139121,0.0147391,-0.156046,-0.0387638,-0.285093,0.0257925,-0.126648,0,0,0,0,0,0,0,-0.355571,-0.131804,-0.0495107,-1.9429,-0.0963819,1.74358,1.13538,-0.183655,0.0114931,-0.23758,-0.043666,0.525064,-0.00334579,-0.334503,2.16175,-30.5788,2.11152,27.0779,1.96167,2.78771,-0.110672,-0.94506,-1.72086,-2.04866,1.76962,0.235522,-0.861552,-0.833534,0.9343,-1.00115,-0.951954,0.257613,-0.145838,-0.168973,
-0.355122,-0.131447,-0.0491683,-1.94382,-0.131848,0.180745,0.4067,-0.154337,0.0141745,-0.178053,-0.0418193,0.0356803,-0.0206517,-0.219428,0,0,0,0,0,0,0,-0.355571,-0.131804,-0.0495107,-1.9429,-0.0963819,1.74358,1.13538,-0.183655,0.0114931,-0.23758,-0.043666,0.525064,-0.00334579,-0.334503,2.16175,-30.5788,2.11152,27.0779,1.96167,2.78771,-0.110672,-0.94506,-1.72086,-2.04866,1.76962,0.235522,-0.861552,-0.833534,0.9343,-1.00115,-0.951954,0.257613,-0.145838,-0.168973,
-0.35577,-0.131391,-0.0499295,-1.944,-0.130746,0.180491,0.405808,-0.162126,0.0140104,-0.190304,-0.0444167,0.275495,-0.0635342,-0.222955,0,0,0,0,0,0,0,-0.355571,-0.131804,-0.0495107,-1.9429,-0.0963819,1.74358,1.13538,-0.183655,0.0114931,-0.23758,-0.043666,0.525064,-0.00334579,-0.334503,2.16175,-30.5788,2.11152,27.0779,1.96167,2.78771,-0.110672,-0.385904,-1.17449,-2.34536,1.64729,0.581197,-0.501087,-0.463934,1.10663,-0.652316,-1.01825,0.449928,-0.0900804,-0.160201,
-0.35643,-0.131335,-0.0507141,-1.94419,-0.12892,0.180089,0.404925,-0.164989,0.0140107,-0.196149,-0.0473351,0.456329,-0.10037,-0.220816,0,0,0,0,0,0,0,-0.355571,-0.131804,-0.0495107,-1.9429,-0.0963819,1.74358,1.13538,-0.183655,0.0114931,-0.23758,-0.043666,0.525064,-0.00334579,-0.334503,2.16175,-30.5788,2.11152,27.0779,1.96167,2.78771,-0.110672,-0.385904,-1.17449,-2.34536,1.64729,0.581197,-0.501087,-0.463934,1.10663,-0.652316,-1.01825,0.449928,-0.0900804,-0.160201,
-0.357088,-0.131278,-0.0515052,-1.94439,-0.126545,0.179572,0.40405,-0.16462,0.0141722,-0.197787,-0.0507908,0.593691,-0.129315,-0.218787,0,0,0,0,0,0,0,-0.355571,-0.131804,-0.0495107,-1.9429,-0.0963819,1.74358,1.13538,-0.183655,0.0114931,-0.23758,-0.043666,0.525064,-0.00334579,-0.334503,2.16175,-30.5788,2.11152,27.0779,1.96167,2.78771,-0.110672,0.0145624,0.379318,-2.76085,0.79739,0.940606,0.291827,0.341788,1.20213,0.173064,-1.16587,0.512801,-0.0564375,-0.128987,
-0.357737,-0.13122,-0.0522921,-1.94461,-0.12375,0.178978,0.403181,-0.162219,0.0145279,-0.196719,-0.0548763,0.698864,-0.148597,-0.217194,0,0,0,0,0,0,0,-0.361569,-0.131593,-0.0564158,-1.94413,-0.0856347,1.74385,1.13164,-0.160438,0.00572789,-0.178745,-0.0233192,0.0190578,-0.00046394,0.0687112,0.360599,-31.0787,0.762648,27.5739,-0.322574,2.86095,0.050461,0.0298486,-0.168355,-2.32951,0.836958,0.872867,0.00179773,0.039576,1.0841,-0.0886789,-0.981368,0.281948,-0.0571757,-0.082396,
-0.355607,-0.131167,-0.0496767,-1.94705,-0.0745843,0.156449,0.357681,-0.0905051,0.0052652,-0.125982,-0.0722979,1.0297,-1.11516,-1.20021,0,0,0,0,0,0,0,-0.361569,-0.131593,-0.0564158,-1.94413,-0.0856347,1.74385,1.13164,-0.160438,0.00572789,-0.178745,-0.0233192,0.0190578,-0.00046394,0.0687112,0.360599,-31.0787,0.762648,27.5739,-0.322574,2.86095,0.050461,0.0298486,-0.168355,-2.32951,0.836958,0.872867,0.00179773,0.039576,1.0841,-0.0886789,-0.981368,0.281948,-0.0571757,-0.082396,
-0.368323,-0.131402,-0.0649693,-1.94824,-0.0439491,0.163233,0.315041,-0.0932306,0.0244403,-0.130204,-0.0990142,0.8342,0.136512,-0.194646,0,0,0,0,0,0,0,-0.361569,-0.131593,-0.0564158,-1.94413,-0.0856347,1.74385,1.13164,-0.160438,0.00572789,-0.178745,-0.0233192,0.0190578,-0.00046394,0.0687112,0.360599,-31.0787,0.762648,27.5739,-0.322574,2.86095,0.050461,-0.0893562,-0.592129,-1.68457,0.870181,0.590297,-0.259607,-0.245148,0.819472,-0.323754,-0.719568,0.169993,-0.0593102,-0.0447768,
-0.36868,-0.131298,-0.0654728,-1.94862,-0.0407733,0.163941,0.314261,-0.0890742,0.0260855,-0.125877,-0.095566,0.79395,0.177082,-0.195024,0,0,0,0,0,0,0,-0.361569,-0.131593,-0.0564158,-1.94413,-0.0856347,1.74385,1.13164,-0.160438,0.00572789,-0.178745,-0.0233192,0.0190578,-0.00046394,0.0687112,0.360599,-31.0787,0.762648,27.5739,-0.322574,2.86095,0.050461,-0.0893562,-0.592129,-1.68457,0.870181,0.590297,-0.259607,-0.245148,0.819472,-0.323754,-0.719568,0.169993,-0.0593102,-0.0447768,
-0.369023,-0.131189,-0.0659617,-1.94899,-0.0377491,0.164784,0.313491,-0.085753,0.0271656,-0.122215,-0.0920923,0.756058,0.210753,-0.19254,0,0,0,0,0,0,0,-0.361569,-0.131593,-0.0564158,-1.94413,-0.0856347,1.74385,1.13164,-0.160438,0.00572789,-0.178745,-0.0233192,0.0190578,-0.00046394,0.0687112,0.360599,-31.0787,0.762648,27.5739,-0.322574,2.86095,0.050461,0.207975,-0.0182513,-1.297,0.586237,0.504614,0.0342422,0.0436533,0.614263,-0.0247751,-0.520801,0.35312,-0.00640838,-0.0150975,
-0.369357,-0.131078,-0.0664397,-1.94935,-0.0348481,0.165745,0.312732,-0.0835157,0.0277632,-0.119498,-0.0891041,0.72525,0.240169,-0.189875,0,0,0,0,0,0,0,-0.361569,-0.131593,-0.0564158,-1.94413,-0.0856347,1.74385,1.13164,-0.160438,0.00572789,-0.178745,-0.0233192,0.0190578,-0.00046394,0.0687112,0.360599,-31.0787,0.762648,27.5739,-0.322574,2.86095,0.050461,0.0710915,-1.23882,-1.95218,1.5682,0.650151,-0.571549,-0.534175,1.00024,-0.712433,-0.780254,0.447746,-0.0241489,-0.0165709,
-0.369687,-0.130966,-0.0669117,-1.94969,-0.0320203,0.166813,0.311983,-0.0826359,0.0280695,-0.118002,-0.0867902,0.706952,0.267196,-0.187201,0,0,0,0,0,0,0,-0.367699,-0.131657,-0.0641436,-1.94527,-0.0785847,1.74256,1.12927,-0.140023,-0.00521773,-0.188224,-0.030269,0.392902,-0.0265421,-0.231738,2.43946,-29.829,2.1869,26.2289,1.83349,2.88018,-0.170181,0.0710915,-1.23882,-1.95218,1.5682,0.650151,-0.571549,-0.534175,1.00024,-0.712433,-0.780254,0.447746,-0.0241489,-0.0165709,
-0.370021,-0.130853,-0.0673837,-1.95003,-0.029192,0.167987,0.311244,-0.0833891,0.0282785,-0.118012,-0.0852753,0.707068,0.293452,-0.184689,0,0,0,0,0,0,0,-0.367699,-0.131657,-0.0641436,-1.94527,-0.0785847,1.74256,1.12927,-0.140023,-0.00521773,-0.188224,-0.030269,0.392902,-0.0265421,-0.231738,2.43946,-29.829,2.1869,26.2289,1.83349,2.88018,-0.170181,-1.96823,-1.09161,-1.6311,1.49937,-0.718964,-0.928553,-0.859373,0.350697,-1.12619,-0.77718,0.496778,-0.127825,-0.0477716,
-0.366676,-0.131522,-0.0632392,-1.94845,-0.0703019,0.175367,0.330502,-0.0789625,0.0269253,-0.114941,-0.102357,0.203877,0.497695,0.223011,0,0,0,0,0,0,0,-0.367699,-0.131657,-0.0641436,-1.94527,-0.0785847,1.74256,1.12927,-0.140023,-0.00521773,-0.188224,-0.030269,0.392902,-0.0265421,-0.231738,2.43946,-29.829,2.1869,26.2289,1.83349,2.88018,-0.170181,-1.96823,-1.09161,-1.6311,1.49937,-0.718964,-0.928553,-0.859373,0.350697,-1.12619,-0.77718,0.496778,-0.127825,-0.0477716,
-0.372566,-0.131376,-0.0707649,-1.94902,-0.0538875,0.181987,0.354545,-0.1054,0.0198886,-0.140225,-0.0662035,0.756195,0.213982,-0.185597,0,0,0,0,0,0,0,-0.367699,-0.131657,-0.0641436,-1.94527,-0.0785847,1.74256,1.12927,-0.140023,-0.00521773,-0.188224,-0.030269,0.392902,-0.0265421,-0.231738,2.43946,-29.829,2.1869,26.2289,1.83349,2.88018,-0.170181,-1.95415,-1.68078,-2.01584,1.98388,-0.560955,-1.18153,-1.11158,0.599443,-1.40562,-0.936765,0.530151,-0.142558,-0.0725403,
-0.372978,-0.131297,-0.0713179,-1.94928,-0.0508112,0.182818,0.353805,-0.102779,0.019958,-0.138249,-0.0649989,0.769088,0.207712,-0.184948,0,0,0,0,0,0,0,-0.367699,-0.131657,-0.0641436,-1.94527,-0.0785847,1.74256,1.12927,-0.140023,-0.00521773,-0.188224,-0.030269,0.392902,-0.0265421,-0.231738,2.43946,-29.829,2.1869,26.2289,1.83349,2.88018,-0.170181,-1.81523,-1.73969,-1.92365,2.06831,-0.442149,-1.1643,-1.10298,0.692173,-1.38479,-0.986071,0.554095,-0.228382,-0.0960632,
-0.373377,-0.131217,-0.0718603,-1.94954,-0.0477323,0.183622,0.353068,-0.0997532,0.0197857,-0.135585,-0.0640151,0.769719,0.201178,-0.184343,0,0,0,0,0,0,0,-0.371609,-0.131665,-0.0692553,-1.94645,-0.0640213,1.74361,1.12271,-0.120317,0.00109369,-0.156387,-0.0394811,0.426926,0.0839082,-0.156253,1.70551,-29.8052,2.03615,26.7764,0.770565,3.56316,-0.050247,-1.81523,-1.73969,-1.92365,2.06831,-0.442149,-1.1643,-1.10298,0.692173,-1.38479,-0.986071,0.554095,-0.228382,-0.0960632,
-0.373763,-0.13114,-0.0723909,-1.94979,-0.0446838,0.184406,0.352332,-0.096657,0.0194439,-0.132651,-0.0634404,0.76213,0.195943,-0.183881,0,0,0,0,0,0,0,-0.371609,-0.131665,-0.0692553,-1.94645,-0.0640213,1.74361,1.12271,-0.120317,0.00109369,-0.156387,-0.0394811,0.426926,0.0839082,-0.156253,1.70551,-29.8052,2.03615,26.7764,0.770565,3.56316,-0.050247,-1.17516,-0.331059,-1.65489,1.21246,-0.211387,-0.353209,-0.30571,0.56918,-0.519207,-0.863491,0.639645,-0.19539,-0.111806,
-0.374138,-0.131064,-0.0729099,-1.95004,-0.0416836,0.185181,0.351598,-0.0937684,0.0190223,-0.129763,-0.0634185,0.750041,0.193637,-0.183583,0,0,0,0,0,0,0,-0.371609,-0.131665,-0.0692553,-1.94645,-0.0640213,1.74361,1.12271,-0.120317,0.00109369,-0.156387,-0.0394811,0.426926,0.0839082,-0.156253,1.70551,-29.8052,2.03615,26.7764,0.770565,3.56316,-0.050247,-1.17516,-0.331059,-1.65489,1.21246,-0.211387,-0.353209,-0.30571,0.56918,-0.519207,-0.863491,0.639645,-0.19539,-0.111806,
