PerkyPenguin/Analysis-on-Approximated-Derivatives/Code_and_Data/PaperData/Real_Robot/Scene_1/set_interval/10/trajectory.csv
Commanded Joint 0 Position,Commanded Joint 1 Position,Commanded Joint 2 Position,Commanded Joint 3 Position,Commanded Joint 4 Position,Commanded Joint 5 Position,Commanded Joint 6 Position,Commanded Joint 0 Velocity,Commanded Joint 1 Velocity,Commanded Joint 2 Velocity,Commanded Joint 3 Velocity,Commanded Joint 4 Velocity,Commanded Joint 5 Velocity,Commanded Joint 6 Velocity,Commanded Joint 0 Torque,Commanded Joint 1 Torque,Commanded Joint 2 Torque,Commanded Joint 3 Torque,Commanded Joint 4 Torque,Commanded Joint 5 Torque,Commanded Joint 6 Torque,Actual Joint 0 Position,Actual Joint 1 Position,Actual Joint 2 Position,Actual Joint 3 Position,Actual Joint 4 Position,Actual Joint 5 Position,Actual Joint 6 Position,Actual Joint 0 Velocity,Actual Joint 1 Velocity,Actual Joint 2 Velocity,Actual Joint 3 Velocity,Actual Joint 4 Velocity,Actual Joint 5 Velocity,Actual Joint 6 Velocity,Actual Joint 0 Torque,Actual Joint 1 Torque,Actual Joint 2 Torque,Actual Joint 3 Torque,Actual Joint 4 Torque,Actual Joint 5 Torque,Actual Joint 6 Torque,EE ext force 0,EE ext force 1,EE ext force 2,EE ext force 3,EE ext force 4,EE ext force 5,joint ext torque 0,joint ext torque 1,joint ext torque 2,joint ext torque 3,joint ext torque 4,joint ext torque 5,joint ext torque 6,
0.0112505,-0.199953,-0.333686,-1.6625,-0.0944165,-0.0928236,-0.384084,-0.00228964,0.0149424,-0.0124217,-0.150437,0.00401557,0.200555,-0.00215534,0,0,0,0,0,0,0,0.0112675,-0.19994,-0.333585,-1.66099,-0.0944956,1.47597,0.401341,-9.34928e-05,-0.00123929,-0.00110784,0.000419389,0.000338197,-0.000919693,0.000391237,-0.119442,-25.3856,1.93696,25.9552,0.667111,2.97356,-0.0767973,-1.08807,-0.0287438,-0.47872,0.0990122,-0.343396,-0.15337,-0.0759641,0.0127517,-0.233704,-0.359723,-0.111097,-0.312355,-0.0504126,
0.0112363,-0.199819,-0.333748,-1.66314,-0.0944042,-0.0919926,-0.384093,-0.00355932,0.0335522,-0.0153751,-0.159594,0.00306524,0.207769,-0.00204949,0,0,0,0,0,0,0,0.0112675,-0.19994,-0.333585,-1.66099,-0.0944956,1.47597,0.401341,-9.34928e-05,-0.00123929,-0.00110784,0.000419389,0.000338197,-0.000919693,0.000391237,-0.119442,-25.3856,1.93696,25.9552,0.667111,2.97356,-0.0767973,-0.912338,-0.115338,-0.575246,0.167217,-0.165717,-0.160548,-0.0828527,0.131457,-0.249009,-0.419237,-0.125988,-0.31327,-0.0506444,
0.0112611,-0.199955,-0.333592,-1.66099,-0.0944966,-0.0948349,-0.384057,-0.000314711,-0.000766891,-0.00035668,0.000319175,-0.000237274,-0.000301928,1.29999e-05,0,0,0,0,0,0,0,0.0112675,-0.19994,-0.333585,-1.66099,-0.0944956,1.47597,0.401341,-9.34928e-05,-0.00123929,-0.00110784,0.000419389,0.000338197,-0.000919693,0.000391237,-0.119442,-25.3856,1.93696,25.9552,0.667111,2.97356,-0.0767973,-0.912338,-0.115338,-0.575246,0.167217,-0.165717,-0.160548,-0.0828527,0.131457,-0.249009,-0.419237,-0.125988,-0.31327,-0.0506444,
0.01126,-0.199958,-0.333594,-1.66098,-0.0944977,-0.0948358,-0.384057,-0.000270211,-0.000695362,-0.000310629,0.000294828,-0.000289155,-0.000222116,1.10786e-05,0,0,0,0,0,0,0,0.0112759,-0.199935,-0.333586,-1.661,-0.0945157,1.47597,0.401337,0.00141231,7.44287e-05,-0.000775299,-0.000957955,-0.0133128,7.07224e-05,0.000575295,-0.198788,-25.461,1.93696,26.0068,0.825497,2.94701,-0.0703886,-1.07274,-0.0691445,-0.487577,0.124427,-0.339092,-0.166957,-0.0919878,0.0119685,-0.24732,-0.352821,-0.11425,-0.299674,-0.0522761,
0.0112591,-0.19996,-0.333595,-1.66098,-0.094499,-0.0948365,-0.384057,-0.000232959,-0.000634725,-0.000272754,0.000272496,-0.000318815,-0.00016322,9.53641e-06,0,0,0,0,0,0,0,0.0112759,-0.199935,-0.333586,-1.661,-0.0945157,1.47597,0.401337,0.00141231,7.44287e-05,-0.000775299,-0.000957955,-0.0133128,7.07224e-05,0.000575295,-0.198788,-25.461,1.93696,26.0068,0.825497,2.94701,-0.0703886,-1.07274,-0.0691445,-0.487577,0.124427,-0.339092,-0.166957,-0.0919878,0.0119685,-0.24732,-0.352821,-0.11425,-0.299674,-0.0522761,
0.0112583,-0.199962,-0.333596,-1.66098,-0.0945003,-0.094837,-0.384057,-0.00020154,-0.000583277,-0.000241291,0.000252288,-0.000333118,-0.000121402,8.28742e-06,0,0,0,0,0,0,0,0.0112759,-0.199935,-0.333586,-1.661,-0.0945157,1.47597,0.401337,0.00141231,7.44287e-05,-0.000775299,-0.000957955,-0.0133128,7.07224e-05,0.000575295,-0.198788,-25.461,1.93696,26.0068,0.825497,2.94701,-0.0703886,-2.14324,0.205249,-0.726778,-0.072676,-1.10071,-0.234557,-0.151606,-0.392366,-0.298453,-0.285725,-0.129695,-0.277841,-0.0500194,
0.0112576,-0.199965,-0.333597,-1.66098,-0.0945017,-0.0948373,-0.384057,-0.000174862,-0.00053961,-0.000214924,0.000234125,-0.000336938,-9.32848e-05,7.26779e-06,0,0,0,0,0,0,0,0.0112759,-0.199935,-0.333586,-1.661,-0.0945157,1.47597,0.401337,0.00141231,7.44287e-05,-0.000775299,-0.000957955,-0.0133128,7.07224e-05,0.000575295,-0.198788,-25.461,1.93696,26.0068,0.825497,2.94701,-0.0703886,-2.35962,0.228799,-1.56784,0.042033,-0.950234,-0.259657,-0.171886,-0.171428,-0.351947,-0.584463,-0.127804,-0.289515,-0.050416,
0.011257,-0.199967,-0.333597,-1.66098,-0.094503,-0.0948376,-0.384057,-0.000152078,-0.000502541,-0.000192657,0.000217868,-0.000333734,-7.60023e-05,6.42901e-06,0,0,0,0,0,0,0,0.0112759,-0.199935,-0.333586,-1.661,-0.0945157,1.47597,0.401337,0.00141231,7.44287e-05,-0.000775299,-0.000957955,-0.0133128,7.07224e-05,0.000575295,-0.198788,-25.461,1.93696,26.0068,0.825497,2.94701,-0.0703886,-2.35962,0.228799,-1.56784,0.042033,-0.950234,-0.259657,-0.171886,-0.171428,-0.351947,-0.584463,-0.127804,-0.289515,-0.050416,
0.0112564,-0.199969,-0.333598,-1.66098,-0.0945043,-0.0948379,-0.384057,-0.000132522,-0.000471065,-0.000173728,0.000203352,-0.000325952,-6.71657e-05,5.73407e-06,0,0,0,0,0,0,0,0.0112696,-0.199944,-0.333578,-1.66127,-0.0944339,1.47657,0.40134,-0.00155551,-0.000907257,-0.000410486,0.00985911,0.0134697,-0.00256976,0.000991814,-0.119442,-25.3856,1.83778,25.7806,0.226742,3.32512,-0.0630644,-0.970294,-0.132222,-1.62751,0.332188,0.117845,-0.172741,-0.0893162,0.432301,-0.298157,-0.748732,-0.114787,-0.256624,-0.051199,
0.011256,-0.19997,-0.333599,-1.66098,-0.0945056,-0.0948382,-0.384057,-0.000115668,-0.000444329,-0.000157548,0.000190414,-0.00031532,-6.48098e-05,5.15462e-06,0,0,0,0,0,0,0,0.0112696,-0.199944,-0.333578,-1.66127,-0.0944339,1.47657,0.40134,-0.00155551,-0.000907257,-0.000410486,0.00985911,0.0134697,-0.00256976,0.000991814,-0.119442,-25.3856,1.83778,25.7806,0.226742,3.32512,-0.0630644,-0.970294,-0.132222,-1.62751,0.332188,0.117845,-0.172741,-0.0893162,0.432301,-0.298157,-0.748732,-0.114787,-0.256624,-0.051199,
0.0112556,-0.199972,-0.333599,-1.66098,-0.0945068,-0.0948384,-0.384057,-0.000101091,-0.000421613,-0.000143653,0.000178896,-0.000303051,-6.73342e-05,4.66871e-06,0,0,0,0,0,0,0,0.0112696,-0.199944,-0.333578,-1.66127,-0.0944339,1.47657,0.40134,-0.00155551,-0.000907257,-0.000410486,0.00985911,0.0134697,-0.00256976,0.000991814,-0.119442,-25.3856,1.83778,25.7806,0.226742,3.32512,-0.0630644,-1.11365,-0.0491895,-1.24156,0.195096,-0.1766,-0.161895,-0.0807828,0.186931,-0.263219,-0.54257,-0.114723,-0.212774,-0.0503463,
0.0112552,-0.199974,-0.3336,-1.66098,-0.0945079,-0.0948387,-0.384057,-8.84467e-05,-0.000402304,-0.000131675,0.000168653,-0.000289992,-7.34475e-05,4.25921e-06,0,0,0,0,0,0,0,0.0112696,-0.199944,-0.333578,-1.66127,-0.0944339,1.47657,0.40134,-0.00155551,-0.000907257,-0.000410486,0.00985911,0.0134697,-0.00256976,0.000991814,-0.119442,-25.3856,1.83778,25.7806,0.226742,3.32512,-0.0630644,-1.08224,0.0402359,-1.26767,0.139747,-0.141351,-0.11597,-0.0317571,0.2118,-0.215902,-0.559766,-0.105199,-0.217079,-0.0499398,
0.0112549,-0.199975,-0.3336,-1.66098,-0.0945091,-0.0948391,-0.384057,-7.74521e-05,-0.000385885,-0.000121318,0.000159548,-0.000276729,-8.21168e-05,3.91261e-06,0,0,0,0,0,0,0,0.0112696,-0.199944,-0.333578,-1.66127,-0.0944339,1.47657,0.40134,-0.00155551,-0.000907257,-0.000410486,0.00985911,0.0134697,-0.00256976,0.000991814,-0.119442,-25.3856,1.83778,25.7806,0.226742,3.32512,-0.0630644,-1.08224,0.0402359,-1.26767,0.139747,-0.141351,-0.11597,-0.0317571,0.2118,-0.215902,-0.559766,-0.105199,-0.217079,-0.0499398,
0.0112546,-0.199977,-0.333601,-1.66098,-0.0945101,-0.0948394,-0.384057,-6.78725e-05,-0.000371918,-0.000112339,0.00015146,-0.000263657,-9.25234e-05,3.61812e-06,0,0,0,0,0,0,0,0.0112696,-0.199944,-0.333578,-1.66127,-0.0944339,1.47657,0.40134,-0.00155551,-0.000907257,-0.000410486,0.00985911,0.0134697,-0.00256976,0.000991814,-0.119442,-25.3856,1.83778,25.7806,0.226742,3.32512,-0.0630644,-1.81547,0.195533,-1.19413,-0.00244693,-0.721913,-0.177667,-0.0742818,-0.124855,-0.273849,-0.45309,-0.124547,-0.230242,-0.0470306,
0.0112544,-0.199978,-0.333601,-1.66098,-0.0945111,-0.0948398,-0.384057,-5.95116e-05,-0.000360034,-0.00010454,0.000144278,-0.000251039,-0.000104025,3.3671e-06,0,0,0,0,0,0,0,0.0112566,-0.199894,-0.333586,-1.66121,-0.094495,1.47662,0.40134,-0.00164697,0.000610054,0.000657065,0.00432811,0.00275919,-0.00291108,0.000433651,0.0313145,-25.9609,1.91316,25.8084,0.690914,2.92687,-0.0630644,-1.81547,0.195533,-1.19413,-0.00244693,-0.721913,-0.177667,-0.0742818,-0.124855,-0.273849,-0.45309,-0.124547,-0.230242,-0.0470306,
0.0112542,-0.199979,-0.333602,-1.66098,-0.0945121,-0.0948403,-0.384057,-5.2204e-05,-0.00034992,-9.77548e-05,0.000137903,-0.00023904,-0.000116124,3.1525e-06,0,0,0,0,0,0,0,0.0112566,-0.199894,-0.333586,-1.66121,-0.094495,1.47662,0.40134,-0.00164697,0.000610054,0.000657065,0.00432811,0.00275919,-0.00291108,0.000433651,0.0313145,-25.9609,1.91316,25.8084,0.690914,2.92687,-0.0630644,-1.74283,0.187278,-1.13903,0.00545393,-0.682867,-0.167966,-0.0628257,-0.11017,-0.266885,-0.447239,-0.116324,-0.23594,-0.0474557,
0.011254,-0.199981,-0.333602,-1.66097,-0.094513,-0.0948408,-0.384057,-4.58091e-05,-0.000341312,-9.18439e-05,0.000132246,-0.000227757,-0.000128439,2.96859e-06,0,0,0,0,0,0,0,0.0112566,-0.199894,-0.333586,-1.66121,-0.094495,1.47662,0.40134,-0.00164697,0.000610054,0.000657065,0.00432811,0.00275919,-0.00291108,0.000433651,0.0313145,-25.9609,1.91316,25.8084,0.690914,2.92687,-0.0630644,-1.74283,0.187278,-1.13903,0.00545393,-0.682867,-0.167966,-0.0628257,-0.11017,-0.266885,-0.447239,-0.116324,-0.23594,-0.0474557,
0.0112539,-0.199982,-0.333602,-1.66097,-0.0945138,-0.0948414,-0.384057,-4.02073e-05,-0.000333986,-8.66899e-05,0.000127228,-0.000217241,-0.000140682,2.81062e-06,0,0,0,0,0,0,0,0.0112566,-0.199894,-0.333586,-1.66121,-0.094495,1.47662,0.40134,-0.00164697,0.000610054,0.000657065,0.00432811,0.00275919,-0.00291108,0.000433651,0.0313145,-25.9609,1.91316,25.8084,0.690914,2.92687,-0.0630644,-1.56323,0.248551,-1.04682,-0.0292541,-0.565608,-0.109925,-0.0123035,-0.0520587,-0.200977,-0.45352,-0.0923986,-0.254988,-0.0476512,
0.0112537,-0.199983,-0.333603,-1.66097,-0.0945147,-0.094842,-0.384057,-3.52959e-05,-0.000327754,-8.21929e-05,0.000122777,-0.000207505,-0.000152645,2.67468e-06,0,0,0,0,0,0,0,0.0112566,-0.199894,-0.333586,-1.66121,-0.094495,1.47662,0.40134,-0.00164697,0.000610054,0.000657065,0.00432811,0.00275919,-0.00291108,0.000433651,0.0313145,-25.9609,1.91316,25.8084,0.690914,2.92687,-0.0630644,-1.82315,0.225234,-1.10169,-0.0287806,-0.742113,-0.166925,-0.0660192,-0.142171,-0.257919,-0.439307,-0.120118,-0.252285,-0.0469927,
0.0112536,-0.199985,-0.333603,-1.66097,-0.0945155,-0.0948426,-0.384057,-3.09865e-05,-0.000322454,-7.82672e-05,0.000118831,-0.000198542,-0.000164174,2.5575e-06,0,0,0,0,0,0,0,0.0112702,-0.199904,-0.333578,-1.66118,-0.0944959,1.47664,0.401339,-0.000434184,0.00222853,0.00110024,0.000540539,-0.00313268,0.00191865,0.000210271,-0.119442,-25.7625,1.83778,25.6815,0.715634,2.80144,-0.0566557,-1.82315,0.225234,-1.10169,-0.0287806,-0.742113,-0.166925,-0.0660192,-0.142171,-0.257919,-0.439307,-0.120118,-0.252285,-0.0469927,
0.0112535,-0.199986,-0.333603,-1.66097,-0.0945162,-0.0948433,-0.384057,-2.72028e-05,-0.000317952,-7.48395e-05,0.000115334,-0.000190327,-0.000175167,2.45633e-06,0,0,0,0,0,0,0,0.0112702,-0.199904,-0.333578,-1.66118,-0.0944959,1.47664,0.401339,-0.000434184,0.00222853,0.00110024,0.000540539,-0.00313268,0.00191865,0.000210271,-0.119442,-25.7625,1.83778,25.6815,0.715634,2.80144,-0.0566557,-2.01883,0.224883,-0.995077,-0.0479201,-0.922921,-0.202847,-0.105059,-0.257383,-0.286475,-0.384299,-0.126673,-0.261332,-0.0471994,
0.0112534,-0.199987,-0.333603,-1.66097,-0.094517,-0.0948441,-0.384057,-2.38787e-05,-0.000314133,-7.18462e-05,0.000112236,-0.000182826,-0.000185558,2.36887e-06,0,0,0,0,0,0,0,0.0112702,-0.199904,-0.333578,-1.66118,-0.0944959,1.47664,0.401339,-0.000434184,0.00222853,0.00110024,0.000540539,-0.00313268,0.00191865,0.000210271,-0.119442,-25.7625,1.83778,25.6815,0.715634,2.80144,-0.0566557,-2.01883,0.224883,-0.995077,-0.0479201,-0.922921,-0.202847,-0.105059,-0.257383,-0.286475,-0.384299,-0.126673,-0.261332,-0.0471994,
0.0112533,-0.199989,-0.333604,-1.66097,-0.0945177,-0.0948449,-0.384057,-2.09568e-05,-0.000310898,-6.92326e-05,0.000109492,-0.000175999,-0.000195309,2.29317e-06,0,0,0,0,0,0,0,0.0112702,-0.199904,-0.333578,-1.66118,-0.0944959,1.47664,0.401339,-0.000434184,0.00222853,0.00110024,0.000540539,-0.00313268,0.00191865,0.000210271,-0.119442,-25.7625,1.83778,25.6815,0.715634,2.80144,-0.0566557,-1.97202,0.172006,-0.838837,-0.0285878,-0.927881,-0.221055,-0.134832,-0.277156,-0.294802,-0.3478,-0.128538,-0.276976,-0.0470633,
0.0112532,-0.19999,-0.333604,-1.66097,-0.0945183,-0.0948457,-0.384057,-1.83874e-05,-0.000308164,-6.69512e-05,0.000107063,-0.000169801,-0.000204404,2.22757e-06,0,0,0,0,0,0,0,0.0112702,-0.199904,-0.333578,-1.66118,-0.0944959,1.47664,0.401339,-0.000434184,0.00222853,0.00110024,0.000540539,-0.00313268,0.00191865,0.000210271,-0.119442,-25.7625,1.83778,25.6815,0.715634,2.80144,-0.0566557,-1.97202,0.172006,-0.838837,-0.0285878,-0.927881,-0.221055,-0.134832,-0.277156,-0.294802,-0.3478,-0.128538,-0.276976,-0.0470633,
0.0112532,-0.199991,-0.333604,-1.66097,-0.094519,-0.0948465,-0.384057,-1.61269e-05,-0.000305862,-6.49607e-05,0.000104914,-0.000164187,-0.000212845,2.17068e-06,0,0,0,0,0,0,0,0.0112702,-0.199904,-0.333578,-1.66118,-0.0944959,1.47664,0.401339,-0.000434184,0.00222853,0.00110024,0.000540539,-0.00313268,0.00191865,0.000210271,-0.119442,-25.7625,1.83778,25.6815,0.715634,2.80144,-0.0566557,-1.77702,0.188847,-0.986186,-0.0146922,-0.738716,-0.176983,-0.0989191,-0.152613,-0.248813,-0.412572,-0.116425,-0.262422,-0.0491381,
0.0112531,-0.199992,-0.333605,-1.66097,-0.0945196,-0.0948474,-0.384057,-1.41375e-05,-0.000303931,-6.32249e-05,0.000103015,-0.000159112,-0.000220644,2.1213e-06,0,0,0,0,0,0,0,0.0112745,-0.199923,-0.333567,-1.66116,-0.094497,1.47664,0.401335,0.000177633,1.98159e-05,-0.000220001,-0.000280367,-0.0142181,0.0028138,0.000302804,-0.147213,-25.5126,1.86159,25.8084,0.740353,2.86736,-0.050247,-1.68229,0.19068,-0.953036,-0.00845721,-0.681282,-0.158743,-0.0794651,-0.126885,-0.233435,-0.411954,-0.103113,-0.262548,-0.0494718,
0.0112531,-0.199993,-0.333605,-1.66097,-0.0945203,-0.0948483,-0.384057,-1.2386e-05,-0.000302319,-6.17126e-05,0.000101337,-0.000154532,-0.000227825,2.07839e-06,0,0,0,0,0,0,0,0.0112745,-0.199923,-0.333567,-1.66116,-0.094497,1.47664,0.401335,0.000177633,1.98159e-05,-0.000220001,-0.000280367,-0.0142181,0.0028138,0.000302804,-0.147213,-25.5126,1.86159,25.8084,0.740353,2.86736,-0.050247,-1.68229,0.19068,-0.953036,-0.00845721,-0.681282,-0.158743,-0.0794651,-0.126885,-0.233435,-0.411954,-0.103113,-0.262548,-0.0494718,
0.011253,-0.199995,-0.333605,-1.66097,-0.0945209,-0.0948493,-0.384057,-1.08434e-05,-0.000300983,-6.03964e-05,9.98559e-05,-0.000150405,-0.000234414,2.0411e-06,0,0,0,0,0,0,0,0.0112745,-0.199923,-0.333567,-1.66116,-0.094497,1.47664,0.401335,0.000177633,1.98159e-05,-0.000220001,-0.000280367,-0.0142181,0.0028138,0.000302804,-0.147213,-25.5126,1.86159,25.8084,0.740353,2.86736,-0.050247,-1.73167,0.0615874,-0.890541,0.0565232,-0.736449,-0.225903,-0.134693,-0.166663,-0.313577,-0.381401,-0.133023,-0.260651,-0.047676,
0.0111427,-0.199898,-0.333683,-1.66087,-0.0929844,-0.0957593,-0.384056,-0.0116766,0.00291004,-0.0105388,0.00985197,0.171814,-0.105301,0.000379912,0,0,0,0,0,0,0,0.0112745,-0.199923,-0.333567,-1.66116,-0.094497,1.47664,0.401335,0.000177633,1.98159e-05,-0.000220001,-0.000280367,-0.0142181,0.0028138,0.000302804,-0.147213,-25.5126,1.86159,25.8084,0.740353,2.86736,-0.050247,-1.73167,0.0615874,-0.890541,0.0565232,-0.736449,-0.225903,-0.134693,-0.166663,-0.313577,-0.381401,-0.133023,-0.260651,-0.047676,
0.0111505,-0.199868,-0.333662,-1.66104,-0.0931133,-0.0950538,-0.384062,-0.0117353,0.00389344,-0.01054,0.0094754,0.162726,-0.102353,0.000349683,0,0,0,0,0,0,0,0.0112745,-0.199923,-0.333567,-1.66116,-0.094497,1.47664,0.401335,0.000177633,1.98159e-05,-0.000220001,-0.000280367,-0.0142181,0.0028138,0.000302804,-0.147213,-25.5126,1.86159,25.8084,0.740353,2.86736,-0.050247,-1.51304,0.0129987,-1.03441,0.116827,-0.526404,-0.206006,-0.115504,-0.0298927,-0.302572,-0.450754,-0.127584,-0.24865,-0.0497646,
0.0111039,-0.199858,-0.333707,-1.66101,-0.0923317,-0.0955453,-0.384061,-0.0116607,0.00255079,-0.0112375,0.00791484,0.195392,-0.122875,0.000482858,0,0,0,0,0,0,0,0.011267,-0.199947,-0.333567,-1.66109,-0.0944458,1.47663,0.401337,0.00136894,0.00112968,0.00156861,0.000168116,-0.000771329,0.00520439,-0.000264472,-0.0718349,-25.2864,1.86159,25.856,0.354916,2.95342,-0.0365141,-1.53069,0.11508,-1.07876,0.0615748,-0.513331,-0.162877,-0.0667367,-0.0110567,-0.260855,-0.479648,-0.114637,-0.264087,-0.0495186,
0.0110597,-0.199852,-0.333752,-1.66098,-0.0914493,-0.0961044,-0.384058,-0.0110571,0.00133769,-0.0111323,0.00641303,0.220614,-0.13976,0.000556356,0,0,0,0,0,0,0,0.011267,-0.199947,-0.333567,-1.66109,-0.0944458,1.47663,0.401337,0.00136894,0.00112968,0.00156861,0.000168116,-0.000771329,0.00520439,-0.000264472,-0.0718349,-25.2864,1.86159,25.856,0.354916,2.95342,-0.0365141,-1.53069,0.11508,-1.07876,0.0615748,-0.513331,-0.162877,-0.0667367,-0.0110567,-0.260855,-0.479648,-0.114637,-0.264087,-0.0495186,
0.0110191,-0.199851,-0.333794,-1.66096,-0.0904883,-0.0967192,-0.384056,-0.0101534,0.000343081,-0.0105342,0.00510982,0.240256,-0.153693,0.000593541,0,0,0,0,0,0,0,0.011267,-0.199947,-0.333567,-1.66109,-0.0944458,1.47663,0.401337,0.00136894,0.00112968,0.00156861,0.000168116,-0.000771329,0.00520439,-0.000264472,-0.0718349,-25.2864,1.86159,25.856,0.354916,2.95342,-0.0365141,-1.51911,-0.0831626,-0.833782,0.168798,-0.604483,-0.248268,-0.143895,-0.107096,-0.359384,-0.378616,-0.123869,-0.25168,-0.0503146,
0.0109827,-0.199853,-0.333833,-1.66095,-0.0894656,-0.0973798,-0.384053,-0.00909493,-0.000430082,-0.00964899,0.00401348,0.25566,-0.165161,0.000607546,0,0,0,0,0,0,0,0.011267,-0.199947,-0.333567,-1.66109,-0.0944458,1.47663,0.401337,0.00136894,0.00112968,0.00156861,0.000168116,-0.000771329,0.00520439,-0.000264472,-0.0718349,-25.2864,1.86159,25.856,0.354916,2.95342,-0.0365141,-1.51911,-0.0831626,-0.833782,0.168798,-0.604483,-0.248268,-0.143895,-0.107096,-0.359384,-0.378616,-0.123869,-0.25168,-0.0503146,
0.0109508,-0.199857,-0.333867,-1.66093,-0.0883944,-0.098078,-0.384051,-0.00797498,-0.00100613,-0.00861357,0.00309772,0.267809,-0.174551,0.000606684,0,0,0,0,0,0,0,0.011267,-0.199947,-0.333567,-1.66109,-0.0944458,1.47663,0.401337,0.00136894,0.00112968,0.00156861,0.000168116,-0.000771329,0.00520439,-0.000264472,-0.0718349,-25.2864,1.86159,25.856,0.354916,2.95342,-0.0365141,-1.17106,-0.0938266,-0.655948,0.223963,-0.43217,-0.188755,-0.0764627,-0.0518492,-0.318095,-0.34677,-0.044275,-0.243617,-0.0510067,
0.0109234,-0.199862,-0.333897,-1.66092,-0.0872847,-0.0988068,-0.384049,-0.00685319,-0.00141601,-0.00751781,0.00233164,0.277427,-0.182189,0.000596435,0,0,0,0,0,0,0,0.0112126,-0.199915,-0.33362,-1.66105,-0.0927244,1.47659,0.401336,-0.00128299,-0.000427803,-0.00163281,0.00051147,0.0760932,-0.000288615,-0.00105062,0.384403,-25.6593,2.21467,26.1813,1.10016,2.95983,-0.0301054,-1.25633,-0.320521,-0.423996,0.405526,-0.601815,-0.304511,-0.176681,-0.195374,-0.46532,-0.246919,-0.00542874,-0.24,-0.0503283,
0.0109003,-0.199869,-0.333923,-1.66092,-0.0861444,-0.0995602,-0.384046,-0.00576672,-0.00169001,-0.00641976,0.00168808,0.285057,-0.188355,0.00058035,0,0,0,0,0,0,0,0.0112126,-0.199915,-0.33362,-1.66105,-0.0927244,1.47659,0.401336,-0.00128299,-0.000427803,-0.00163281,0.00051147,0.0760932,-0.000288615,-0.00105062,0.384403,-25.6593,2.21467,26.1813,1.10016,2.95983,-0.0301054,-1.25633,-0.320521,-0.423996,0.405526,-0.601815,-0.304511,-0.176681,-0.195374,-0.46532,-0.246919,-0.00542874,-0.24,-0.0503283,
0.0108814,-0.199876,-0.333944,-1.66091,-0.08498,-0.100333,-0.384044,-0.00473766,-0.00185533,-0.00535576,0.00114489,0.291106,-0.193287,0.000560981,0,0,0,0,0,0,0,0.0112126,-0.199915,-0.33362,-1.66105,-0.0927244,1.47659,0.401336,-0.00128299,-0.000427803,-0.00163281,0.00051147,0.0760932,-0.000288615,-0.00105062,0.384403,-25.6593,2.21467,26.1813,1.10016,2.95983,-0.0301054,-1.01448,-0.427958,-0.458546,0.549381,-0.413192,-0.308042,-0.172478,-0.089026,-0.496924,-0.296211,0.0489349,-0.246173,-0.0504324,
0.0108662,-0.199884,-0.333962,-1.66091,-0.0837965,-0.101122,-0.384042,-0.00377802,-0.00193539,-0.00434747,0.00068451,0.295886,-0.197185,0.000539903,0,0,0,0,0,0,0,0.0112126,-0.199915,-0.33362,-1.66105,-0.0927244,1.47659,0.401336,-0.00128299,-0.000427803,-0.00163281,0.00051147,0.0760932,-0.000288615,-0.00105062,0.384403,-25.6593,2.21467,26.1813,1.10016,2.95983,-0.0301054,-1.01448,-0.427958,-0.458546,0.549381,-0.413192,-0.308042,-0.172478,-0.089026,-0.496924,-0.296211,0.0489349,-0.246173,-0.0504324,
0.0108547,-0.199892,-0.333975,-1.66091,-0.0825979,-0.101923,-0.38404,-0.00289316,-0.0019499,-0.00340667,0.000293028,0.299636,-0.200223,0.000518225,0,0,0,0,0,0,0,0.0112126,-0.199915,-0.33362,-1.66105,-0.0927244,1.47659,0.401336,-0.00128299,-0.000427803,-0.00163281,0.00051147,0.0760932,-0.000288615,-0.00105062,0.384403,-25.6593,2.21467,26.1813,1.10016,2.95983,-0.0301054,-1.06824,-0.310761,-0.360855,0.513049,-0.508476,-0.263982,-0.124046,-0.166733,-0.457765,-0.25702,0.120227,-0.251536,-0.0504936,
0.0108463,-0.1999,-0.333985,-1.66091,-0.0813878,-0.102733,-0.384038,-0.00208408,-0.00191518,-0.00253856,-4.06442e-05,0.302542,-0.202543,0.000496714,0,0,0,0,0,0,0,0.0112126,-0.199915,-0.33362,-1.66105,-0.0927244,1.47659,0.401336,-0.00128299,-0.000427803,-0.00163281,0.00051147,0.0760932,-0.000288615,-0.00105062,0.384403,-25.6593,2.21467,26.1813,1.10016,2.95983,-0.0301054,-1.07244,-0.0627272,-0.3716,0.407658,-0.521804,-0.152595,-0.0107789,-0.178531,-0.345543,-0.271744,0.207499,-0.26521,-0.0503232,
0.0108409,-0.199907,-0.333992,-1.66091,-0.0801688,-0.10355,-0.384036,-0.001349,-0.00184454,-0.00174413,-0.0003254,0.304751,-0.204267,0.000475848,0,0,0,0,0,0,0,0.0112058,-0.199922,-0.333633,-1.66102,-0.0895875,1.47647,0.40134,0.000798401,0.000337662,0.000137544,-0.00126993,0.0997019,-0.0118733,0.000398933,0.360599,-25.5602,2.21467,25.9314,1.52221,2.73461,-0.0703886,-1.07244,-0.0627272,-0.3716,0.407658,-0.521804,-0.152595,-0.0107789,-0.178531,-0.345543,-0.271744,0.207499,-0.26521,-0.0503232,
0.0108382,-0.199914,-0.333996,-1.66091,-0.0789432,-0.104372,-0.384034,-0.000684488,-0.00174871,-0.00102161,-0.000568463,0.306379,-0.205496,0.000455848,0,0,0,0,0,0,0,0.0112058,-0.199922,-0.333633,-1.66102,-0.0895875,1.47647,0.40134,0.000798401,0.000337662,0.000137544,-0.00126993,0.0997019,-0.0118733,0.000398933,0.360599,-25.5602,2.21467,25.9314,1.52221,2.73461,-0.0703886,-0.92223,0.0610395,-0.369584,0.407989,-0.405912,-0.0702882,0.0683306,-0.112906,-0.270506,-0.31831,0.301035,-0.295551,-0.0506006,
0.0108379,-0.199921,-0.333998,-1.66092,-0.0777132,-0.105197,-0.384032,-8.61675e-05,-0.00163622,-0.000367621,-0.000775771,0.30752,-0.206314,0.00043689,0,0,0,0,0,0,0,0.0112058,-0.199922,-0.333633,-1.66102,-0.0895875,1.47647,0.40134,0.000798401,0.000337662,0.000137544,-0.00126993,0.0997019,-0.0118733,0.000398933,0.360599,-25.5602,2.21467,25.9314,1.52221,2.73461,-0.0703886,-0.92223,0.0610395,-0.369584,0.407989,-0.405912,-0.0702882,0.0683306,-0.112906,-0.270506,-0.31831,0.301035,-0.295551,-0.0506006,
0.0108397,-0.199927,-0.333997,-1.66092,-0.0764802,-0.106025,-0.384031,0.00045083,-0.0015138,0.000222133,-0.000952219,0.308249,-0.206791,0.000419092,0,0,0,0,0,0,0,0.0112058,-0.199922,-0.333633,-1.66102,-0.0895875,1.47647,0.40134,0.000798401,0.000337662,0.000137544,-0.00126993,0.0997019,-0.0118733,0.000398933,0.360599,-25.5602,2.21467,25.9314,1.52221,2.73461,-0.0703886,-1.14765,0.128091,-0.235644,0.398557,-0.622417,-0.0831308,0.0566536,-0.254579,-0.28626,-0.266852,0.357326,-0.323291,-0.0479646,
0.0108434,-0.199932,-0.333994,-1.66092,-0.0752456,-0.106853,-0.384029,0.000931458,-0.00138666,0.000752415,-0.00110193,0.308628,-0.206986,0.000402386,0,0,0,0,0,0,0,0.0112058,-0.199922,-0.333633,-1.66102,-0.0895875,1.47647,0.40134,0.000798401,0.000337662,0.000137544,-0.00126993,0.0997019,-0.0118733,0.000398933,0.360599,-25.5602,2.21467,25.9314,1.52221,2.73461,-0.0703886,-0.984875,0.338841,-0.394386,0.328812,-0.417836,0.0407379,0.175984,-0.103897,-0.161393,-0.384828,0.420477,-0.363844,-0.0484674,
0.0108488,-0.199937,-0.333989,-1.66093,-0.0740108,-0.10768,-0.384028,0.00136065,-0.00125877,0.00122808,-0.00122837,0.308709,-0.206947,0.000386829,0,0,0,0,0,0,0,0.0112184,-0.199929,-0.333628,-1.66101,-0.085854,1.47615,0.40134,0.00163984,7.12899e-05,0.00145801,-0.0011612,0.114221,-0.00111965,0.000352081,0.209842,-25.4848,2.1393,25.8084,1.25305,2.7282,-0.0630644,-0.984875,0.338841,-0.394386,0.328812,-0.417836,0.0407379,0.175984,-0.103897,-0.161393,-0.384828,0.420477,-0.363844,-0.0484674,
0.0108558,-0.199942,-0.333982,-1.66093,-0.0727767,-0.108507,-0.384026,0.00174311,-0.00113311,0.00165392,-0.00133446,0.308533,-0.206714,0.000372355,0,0,0,0,0,0,0,0.0112184,-0.199929,-0.333628,-1.66101,-0.085854,1.47615,0.40134,0.00163984,7.12899e-05,0.00145801,-0.0011612,0.114221,-0.00111965,0.000352081,0.209842,-25.4848,2.1393,25.8084,1.25305,2.7282,-0.0630644,-1.21081,0.210461,-0.31722,0.446638,-0.586243,-0.0593975,0.064064,-0.197111,-0.264219,-0.37221,0.437433,-0.407246,-0.0487928,
0.0108641,-0.199946,-0.333974,-1.66094,-0.0715441,-0.109332,-0.384025,0.00208329,-0.00101185,0.00203454,-0.00142274,0.308138,-0.20632,0.000358895,0,0,0,0,0,0,0,0.0112184,-0.199929,-0.333628,-1.66101,-0.085854,1.47615,0.40134,0.00163984,7.12899e-05,0.00145801,-0.0011612,0.114221,-0.00111965,0.000352081,0.209842,-25.4848,2.1393,25.8084,1.25305,2.7282,-0.0630644,-1.21081,0.210461,-0.31722,0.446638,-0.586243,-0.0593975,0.064064,-0.197111,-0.264219,-0.37221,0.437433,-0.407246,-0.0487928,
0.0108737,-0.199949,-0.333965,-1.66095,-0.0703139,-0.110156,-0.384023,0.00238531,-0.000896517,0.00237426,-0.00149537,0.307552,-0.205794,0.00034638,0,0,0,0,0,0,0,0.0112184,-0.199929,-0.333628,-1.66101,-0.085854,1.47615,0.40134,0.00163984,7.12899e-05,0.00145801,-0.0011612,0.114221,-0.00111965,0.000352081,0.209842,-25.4848,2.1393,25.8084,1.25305,2.7282,-0.0630644,-1.14076,0.207644,-0.278768,0.449527,-0.530532,-0.0520704,0.0499447,-0.163319,-0.23929,-0.382887,0.442463,-0.423486,-0.0479458,
0.0108843,-0.199953,-0.333954,-1.66095,-0.0690867,-0.110976,-0.384022,0.00265299,-0.000788131,0.00267711,-0.00155423,0.306801,-0.205157,0.000334751,0,0,0,0,0,0,0,0.0112184,-0.199929,-0.333628,-1.66101,-0.085854,1.47615,0.40134,0.00163984,7.12899e-05,0.00145801,-0.0011612,0.114221,-0.00111965,0.000352081,0.209842,-25.4848,2.1393,25.8084,1.25305,2.7282,-0.0630644,-1.14076,0.207644,-0.278768,0.449527,-0.530532,-0.0520704,0.0499447,-0.163319,-0.23929,-0.382887,0.442463,-0.423486,-0.0479458,
0.0108958,-0.199955,-0.333942,-1.66096,-0.0678631,-0.111794,-0.384021,0.00288982,-0.000687319,0.00294676,-0.00160095,0.305907,-0.204429,0.000323929,0,0,0,0,0,0,0,0.0112184,-0.199929,-0.333628,-1.66101,-0.085854,1.47615,0.40134,0.00163984,7.12899e-05,0.00145801,-0.0011612,0.114221,-0.00111965,0.000352081,0.209842,-25.4848,2.1393,25.8084,1.25305,2.7282,-0.0630644,-0.827567,0.15399,-0.330185,0.522356,-0.250721,-0.0232163,0.057576,0.0130095,-0.204407,-0.464742,0.463057,-0.44697,-0.0479289,
0.0109082,-0.199958,-0.33393,-1.66097,-0.0666435,-0.112608,-0.384019,0.00309895,-0.000594403,0.00318661,-0.00163695,0.304889,-0.203624,0.000313856,0,0,0,0,0,0,0,0.0112478,-0.199933,-0.333593,-1.66099,-0.0817261,1.47594,0.40134,0.000564235,-0.000388265,-0.000688982,0.0064564,0.138151,-0.0158884,0.000194802,-0.0718349,-25.4372,1.91316,25.6577,0.948178,2.6751,-0.0630644,-0.827567,0.15399,-0.330185,0.522356,-0.250721,-0.0232163,0.057576,0.0130095,-0.204407,-0.464742,0.463057,-0.44697,-0.0479289,
0.0109214,-0.19996,-0.333916,-1.66097,-0.0654285,-0.11342,-0.384018,0.00328327,-0.000509474,0.00339973,-0.00166348,0.303763,-0.202757,0.000304489,0,0,0,0,0,0,0,0.0112478,-0.199933,-0.333593,-1.66099,-0.0817261,1.47594,0.40134,0.000564235,-0.000388265,-0.000688982,0.0064564,0.138151,-0.0158884,0.000194802,-0.0718349,-25.4372,1.91316,25.6577,0.948178,2.6751,-0.0630644,-1.01595,0.176487,-0.203573,0.48026,-0.413319,-0.0490017,0.0191848,-0.085621,-0.211933,-0.421071,0.449995,-0.473907,-0.0475847,
0.0109352,-0.199961,-0.333902,-1.66098,-0.0642183,-0.114227,-0.384017,0.00344537,-0.000432446,0.0035889,-0.00168163,0.302542,-0.201837,0.000295682,0,0,0,0,0,0,0,0.0112478,-0.199933,-0.333593,-1.66099,-0.0817261,1.47594,0.40134,0.000564235,-0.000388265,-0.000688982,0.0064564,0.138151,-0.0158884,0.000194802,-0.0718349,-25.4372,1.91316,25.6577,0.948178,2.6751,-0.0630644,-1.25254,0.0724993,-0.141958,0.521742,-0.594249,-0.139212,-0.0787563,-0.187322,-0.29491,-0.384806,0.413237,-0.488776,-0.047346,
0.0109784,-0.199771,-0.333777,-1.66072,-0.0900488,-0.0978618,-0.384031,-0.0270567,0.00888614,-0.0226738,0.034091,0.514425,-0.415952,0.00335627,0,0,0,0,0,0,0,0.0112478,-0.199933,-0.333593,-1.66099,-0.0817261,1.47594,0.40134,0.000564235,-0.000388265,-0.000688982,0.0064564,0.138151,-0.0158884,0.000194802,-0.0718349,-25.4372,1.91316,25.6577,0.948178,2.6751,-0.0630644,-1.25254,0.0724993,-0.141958,0.521742,-0.594249,-0.139212,-0.0787563,-0.187322,-0.29491,-0.384806,0.413237,-0.488776,-0.047346,
0.0110095,-0.199824,-0.333757,-1.66057,-0.0761338,-0.0984583,-0.384029,-0.0214461,0.00576914,-0.0175371,0.0321426,0.588808,-0.400981,0.00319,0,0,0,0,0,0,0,0.0112478,-0.199933,-0.333593,-1.66099,-0.0817261,1.47594,0.40134,0.000564235,-0.000388265,-0.000688982,0.0064564,0.138151,-0.0158884,0.000194802,-0.0718349,-25.4372,1.91316,25.6577,0.948178,2.6751,-0.0630644,-1.21009,-0.0638424,-0.0348778,0.599284,-0.575109,-0.194984,-0.144696,-0.182007,-0.347407,-0.371451,0.394169,-0.508881,-0.0465949,
0.0109298,-0.199818,-0.333827,-1.66047,-0.0734289,-0.100345,-0.384015,-0.0199113,0.00129037,-0.0175499,0.0256994,0.676248,-0.47176,0.00346174,0,0,0,0,0,0,0,0.0112586,-0.199926,-0.333581,-1.661,-0.0769344,1.47563,0.401337,0.000718554,-0.000411681,0.000790078,0.000468893,0.158958,-0.0114062,-0.000923867,-0.119442,-25.5364,1.91316,25.9314,0.764157,2.79412,-0.0365141,-1.21009,-0.0638424,-0.0348778,0.599284,-0.575109,-0.194984,-0.144696,-0.182007,-0.347407,-0.371451,0.394169,-0.508881,-0.0465949,
0.0108604,-0.199828,-0.333891,-1.66039,-0.0704467,-0.102456,-0.384,-0.0173565,-0.00236694,-0.0160046,0.0195884,0.745537,-0.527767,0.00360228,0,0,0,0,0,0,0,0.0112586,-0.199926,-0.333581,-1.661,-0.0769344,1.47563,0.401337,0.000718554,-0.000411681,0.000790078,0.000468893,0.158958,-0.0114062,-0.000923867,-0.119442,-25.5364,1.91316,25.9314,0.764157,2.79412,-0.0365141,-1.17699,0.0245562,0.0573723,0.498137,-0.556675,-0.148712,-0.106479,-0.173259,-0.280987,-0.359833,0.370702,-0.527888,-0.0479498,
0.0108033,-0.199848,-0.333946,-1.66033,-0.0672427,-0.104745,-0.383986,-0.0142708,-0.00507653,-0.0135393,0.0142595,0.800996,-0.572098,0.00366477,0,0,0,0,0,0,0,0.0112586,-0.199926,-0.333581,-1.661,-0.0769344,1.47563,0.401337,0.000718554,-0.000411681,0.000790078,0.000468893,0.158958,-0.0114062,-0.000923867,-0.119442,-25.5364,1.91316,25.9314,0.764157,2.79412,-0.0365141,-0.731574,-0.467582,0.329818,0.81128,-0.296618,-0.287543,-0.251843,-0.0627517,-0.441357,-0.321699,0.338025,-0.53165,-0.0512305,
0.0107595,-0.199876,-0.333988,-1.66029,-0.0638596,-0.107173,-0.383971,-0.0109556,-0.00693659,-0.0105731,0.00973812,0.845782,-0.60697,0.00367778,0,0,0,0,0,0,0,0.0112586,-0.199926,-0.333581,-1.661,-0.0769344,1.47563,0.401337,0.000718554,-0.000411681,0.000790078,0.000468893,0.158958,-0.0114062,-0.000923867,-0.119442,-25.5364,1.91316,25.9314,0.764157,2.79412,-0.0365141,-0.731574,-0.467582,0.329818,0.81128,-0.296618,-0.287543,-0.251843,-0.0627517,-0.441357,-0.321699,0.338025,-0.53165,-0.0512305,
0.0107291,-0.199908,-0.334017,-1.66027,-0.0603307,-0.109709,-0.383956,-0.00760025,-0.00809819,-0.00738186,0.0059338,0.882233,-0.634109,0.0036582,0,0,0,0,0,0,0,0.0112586,-0.199926,-0.333581,-1.661,-0.0769344,1.47563,0.401337,0.000718554,-0.000411681,0.000790078,0.000468893,0.158958,-0.0114062,-0.000923867,-0.119442,-25.5364,1.91316,25.9314,0.764157,2.79412,-0.0365141,-0.642022,-0.88886,0.819038,1.09459,-0.386216,-0.456791,-0.402522,-0.184967,-0.651119,-0.18254,0.353007,-0.560384,-0.0513962,
0.0107118,-0.199943,-0.334034,-1.66026,-0.0566822,-0.112329,-0.383942,-0.00432362,-0.00870953,-0.00414537,0.00273782,0.912108,-0.654911,0.00361731,0,0,0,0,0,0,0,0.0112586,-0.199926,-0.333581,-1.661,-0.0769344,1.47563,0.401337,0.000718554,-0.000411681,0.000790078,0.000468893,0.158958,-0.0114062,-0.000923867,-0.119442,-25.5364,1.91316,25.9314,0.764157,2.79412,-0.0365141,-0.642022,-0.88886,0.819038,1.09459,-0.386216,-0.456791,-0.402522,-0.184967,-0.651119,-0.18254,0.353007,-0.560384,-0.0513962,
0.010707,-0.199979,-0.334038,-1.66026,-0.0529353,-0.115011,-0.383928,-0.00119803,-0.00889981,-0.000978529,5.10742e-05,0.93674,-0.670519,0.00356272,0,0,0,0,0,0,0,0.0111323,-0.199901,-0.33368,-1.66092,-0.0690858,1.4745,0.401335,-0.00478875,-0.00129123,-0.00678573,0.00517747,0.358631,-0.0672844,-6.68414e-05,1.07074,-25.8101,2.68678,25.733,1.76025,2.2503,-0.0227812,-0.460429,-1.06805,0.975151,1.26668,-0.290499,-0.501534,-0.426514,-0.152335,-0.734855,-0.177121,0.397894,-0.589412,-0.0501357,
0.010714,-0.200014,-0.33403,-1.66027,-0.0491066,-0.117738,-0.383914,0.00173517,-0.00877624,0.00204786,-0.00221009,0.957154,-0.681876,0.00349983,0,0,0,0,0,0,0,0.0111323,-0.199901,-0.33368,-1.66092,-0.0690858,1.4745,0.401335,-0.00478875,-0.00129123,-0.00678573,0.00517747,0.358631,-0.0672844,-6.68414e-05,1.07074,-25.8101,2.68678,25.733,1.76025,2.2503,-0.0227812,-0.282086,-0.554407,1.1643,1.03656,-0.149995,-0.228573,-0.121535,-0.0726861,-0.482816,-0.253667,0.562037,-0.719836,-0.0502192,
0.0107318,-0.200047,-0.33401,-1.66029,-0.0452101,-0.120497,-0.3839,0.00445523,-0.00842563,0.00489296,-0.00411456,0.974139,-0.689757,0.00343156,0,0,0,0,0,0,0,0.0111323,-0.199901,-0.33368,-1.66092,-0.0690858,1.4745,0.401335,-0.00478875,-0.00129123,-0.00678573,0.00517747,0.358631,-0.0672844,-6.68414e-05,1.07074,-25.8101,2.68678,25.733,1.76025,2.2503,-0.0227812,-0.282086,-0.554407,1.1643,1.03656,-0.149995,-0.228573,-0.121535,-0.0726861,-0.482816,-0.253667,0.562037,-0.719836,-0.0502192,
0.0107596,-0.200079,-0.33398,-1.66031,-0.0412568,-0.123277,-0.383887,0.00695512,-0.00791705,0.00753605,-0.00571878,0.988316,-0.6948,0.00336135,0,0,0,0,0,0,0,0.0111323,-0.199901,-0.33368,-1.66092,-0.0690858,1.4745,0.401335,-0.00478875,-0.00129123,-0.00678573,0.00517747,0.358631,-0.0672844,-6.68414e-05,1.07074,-25.8101,2.68678,25.733,1.76025,2.2503,-0.0227812,-0.487755,-0.447614,1.53806,0.956741,-0.435698,-0.210859,-0.0890151,-0.290349,-0.468849,-0.117789,0.612915,-0.749592,-0.0499851,
0.0107965,-0.200108,-0.33394,-1.66034,-0.0372561,-0.126067,-0.383873,0.00923671,-0.00730472,0.00996979,-0.00706903,1.00017,-0.697529,0.00329014,0,0,0,0,0,0,0,0.0111323,-0.199901,-0.33368,-1.66092,-0.0690858,1.4745,0.401335,-0.00478875,-0.00129123,-0.00678573,0.00517747,0.358631,-0.0672844,-6.68414e-05,1.07074,-25.8101,2.68678,25.733,1.76025,2.2503,-0.0227812,-0.487755,-0.447614,1.53806,0.956741,-0.435698,-0.210859,-0.0890151,-0.290349,-0.468849,-0.117789,0.612915,-0.749592,-0.0499851,
0.0108418,-0.200135,-0.333891,-1.66037,-0.0332158,-0.12886,-0.38386,0.0113075,-0.00663059,0.0121956,-0.00820345,1.01009,-0.698375,0.00321964,0,0,0,0,0,0,0,0.0105852,-0.199909,-0.334055,-1.66071,-0.0484066,1.46968,0.401334,-0.0227001,0.000520583,-0.00959078,0.00311876,0.596441,-0.158334,-0.0011221,1.24927,-25.7109,2.91292,25.6577,2.12646,1.95275,-0.0163725,-0.369013,-0.0539568,1.45881,0.781025,-0.282353,-0.00680983,0.127655,-0.176849,-0.270845,-0.22615,0.716535,-0.817956,-0.0485788,
0.0108945,-0.200159,-0.333835,-1.66041,-0.0291422,-0.131651,-0.383848,0.0131783,-0.00592673,0.0142203,-0.0091537,1.01839,-0.697692,0.0031503,0,0,0,0,0,0,0,0.0105852,-0.199909,-0.334055,-1.66071,-0.0484066,1.46968,0.401334,-0.0227001,0.000520583,-0.00959078,0.00311876,0.596441,-0.158334,-0.0011221,1.24927,-25.7109,2.91292,25.6577,2.12646,1.95275,-0.0163725,-0.369013,-0.0539568,1.45881,0.781025,-0.282353,-0.00680983,0.127655,-0.176849,-0.270845,-0.22615,0.716535,-0.817956,-0.0485788,
0.0109539,-0.200179,-0.33377,-1.66045,-0.0250409,-0.134434,-0.383836,0.0148619,-0.00521715,0.0160542,-0.00994611,1.02532,-0.695769,0.00308255,0,0,0,0,0,0,0,0.0105852,-0.199909,-0.334055,-1.66071,-0.0484066,1.46968,0.401334,-0.0227001,0.000520583,-0.00959078,0.00311876,0.596441,-0.158334,-0.0011221,1.24927,-25.7109,2.91292,25.6577,2.12646,1.95275,-0.0163725,-0.51897,0.259085,1.42667,0.66023,-0.345046,0.113059,0.259856,-0.190156,-0.160461,-0.294113,0.814871,-0.895906,-0.0462112,
0.0110194,-0.200198,-0.333699,-1.66049,-0.0209166,-0.137205,-0.383823,0.0163718,-0.00451955,0.0177095,-0.0106027,1.03109,-0.692844,0.00301725,0,0,0,0,0,0,0,0.0105852,-0.199909,-0.334055,-1.66071,-0.0484066,1.46968,0.401334,-0.0227001,0.000520583,-0.00959078,0.00311876,0.596441,-0.158334,-0.0011221,1.24927,-25.7109,2.91292,25.6577,2.12646,1.95275,-0.0163725,-0.78466,0.323184,1.49517,0.685094,-0.551316,0.101266,0.267137,-0.309658,-0.197012,-0.286559,0.88404,-0.947217,-0.0438801,
0.0110903,-0.200213,-0.333623,-1.66053,-0.0167731,-0.139962,-0.383812,0.0177219,-0.00384655,0.0191989,-0.0111422,1.03587,-0.689112,0.00295419,0,0,0,0,0,0,0,0.0105852,-0.199909,-0.334055,-1.66071,-0.0484066,1.46968,0.401334,-0.0227001,0.000520583,-0.00959078,0.00311876,0.596441,-0.158334,-0.0011221,1.24927,-25.7109,2.91292,25.6577,2.12646,1.95275,-0.0163725,-0.78466,0.323184,1.49517,0.685094,-0.551316,0.101266,0.267137,-0.309658,-0.197012,-0.286559,0.88404,-0.947217,-0.0438801,
0.011166,-0.200226,-0.333541,-1.66058,-0.0126139,-0.142701,-0.3838,0.0189256,-0.0032069,0.0205356,-0.0115804,1.03979,-0.684732,0.00289319,0,0,0,0,0,0,0,0.0100794,-0.199931,-0.334278,-1.66057,-0.0286438,1.46339,0.401334,-0.013276,-0.000445651,-0.00285157,-4.24096e-05,0.635721,-0.208797,-0.000668057,1.30085,-25.4372,3.0121,25.4831,2.0047,1.99853,-0.00996382,-0.884504,0.380967,1.42564,0.735178,-0.557024,0.116605,0.292463,-0.283366,-0.204166,-0.370754,0.948124,-1.0182,-0.0428451,
0.011246,-0.200236,-0.333454,-1.66063,-0.00844202,-0.14542,-0.383789,0.0199956,-0.00260624,0.0217324,-0.0119308,1.04298,-0.679837,0.00283449,0,0,0,0,0,0,0,0.0100794,-0.199931,-0.334278,-1.66057,-0.0286438,1.46339,0.401334,-0.013276,-0.000445651,-0.00285157,-4.24096e-05,0.635721,-0.208797,-0.000668057,1.30085,-25.4372,3.0121,25.4831,2.0047,1.99853,-0.00996382,-0.884504,0.380967,1.42564,0.735178,-0.557024,0.116605,0.292463,-0.283366,-0.204166,-0.370754,0.948124,-1.0182,-0.0428451,
0.0113298,-0.200244,-0.333362,-1.66068,-0.00425986,-0.148118,-0.383778,0.0209443,-0.00204792,0.0228016,-0.012205,1.04554,-0.674532,0.00277799,0,0,0,0,0,0,0,0.0100794,-0.199931,-0.334278,-1.66057,-0.0286438,1.46339,0.401334,-0.013276,-0.000445651,-0.00285157,-4.24096e-05,0.635721,-0.208797,-0.000668057,1.30085,-25.4372,3.0121,25.4831,2.0047,1.99853,-0.00996382,-0.87116,0.407186,1.57832,0.722162,-0.602019,0.135884,0.325388,-0.333575,-0.195985,-0.325835,0.974951,-1.02851,-0.0394269,
0.0114169,-0.200251,-0.333267,-1.66073,-6.96604e-05,-0.150794,-0.383767,0.0217828,-0.00153348,0.0237547,-0.0124132,1.04755,-0.668904,0.00272375,0,0,0,0,0,0,0,0.0100794,-0.199931,-0.334278,-1.66057,-0.0286438,1.46339,0.401334,-0.013276,-0.000445651,-0.00285157,-4.24096e-05,0.635721,-0.208797,-0.000668057,1.30085,-25.4372,3.0121,25.4831,2.0047,1.99853,-0.00996382,-0.505998,0.625218,1.31216,0.614888,-0.192568,0.307,0.503043,-0.0457474,-0.0273764,-0.502126,0.989377,-1.06329,-0.0402252,
0.011507,-0.200255,-0.333169,-1.66078,0.00412666,-0.153446,-0.383756,0.0225217,-0.00106318,0.0246025,-0.012564,1.04908,-0.663025,0.00267131,0,0,0,0,0,0,0,0.0100794,-0.199931,-0.334278,-1.66057,-0.0286438,1.46339,0.401334,-0.013276,-0.000445651,-0.00285157,-4.24096e-05,0.635721,-0.208797,-0.000668057,1.30085,-25.4372,3.0121,25.4831,2.0047,1.99853,-0.00996382,-0.505998,0.625218,1.31216,0.614888,-0.192568,0.307,0.503043,-0.0457474,-0.0273764,-0.502126,0.989377,-1.06329,-0.0402252,
0.0115997,-0.200257,-0.333068,-1.66083,0.00832743,-0.156074,-0.383746,0.0231706,-0.000636268,0.025355,-0.0126651,1.05019,-0.65695,0.00262078,0,0,0,0,0,0,0,0.0100794,-0.199931,-0.334278,-1.66057,-0.0286438,1.46339,0.401334,-0.013276,-0.000445651,-0.00285157,-4.24096e-05,0.635721,-0.208797,-0.000668057,1.30085,-25.4372,3.0121,25.4831,2.0047,1.99853,-0.00996382,-0.5983,0.323331,1.25203,0.810496,-0.192696,0.161219,0.35124,-0.0154547,-0.18403,-0.548537,0.926952,-1.09376,-0.0389294,
0.0116946,-0.200258,-0.332963,-1.66088,0.0125312,-0.158677,-0.383735,0.0237383,-0.00025131,0.0260213,-0.0127231,1.05094,-0.650727,0.00257221,0,0,0,0,0,0,0,0.0096053,-0.199952,-0.334311,-1.66044,-0.00663975,1.45524,0.40134,-0.0145078,-0.00312554,-0.00110821,0.00590782,0.735169,-0.273388,0.00113616,1.34845,-25.211,3.0121,25.1578,1.61377,2.23107,-0.0630644,-0.5983,0.323331,1.25203,0.810496,-0.192696,0.161219,0.35124,-0.0154547,-0.18403,-0.548537,0.926952,-1.09376,-0.0389294,
0.0117916,-0.200258,-0.332857,-1.66093,0.0167367,-0.161254,-0.383725,0.0242328,9.36568e-05,0.0266099,-0.0127437,1.05137,-0.644392,0.00252519,0,0,0,0,0,0,0,0.0096053,-0.199952,-0.334311,-1.66044,-0.00663975,1.45524,0.40134,-0.0145078,-0.00312554,-0.00110821,0.00590782,0.735169,-0.273388,0.00113616,1.34845,-25.211,3.0121,25.1578,1.61377,2.23107,-0.0630644,-0.898905,0.269677,1.34988,0.741533,-0.469898,0.0898569,0.280096,-0.191721,-0.236631,-0.438936,0.838276,-1.0559,-0.038852,
0.0119112,-0.200075,-0.332847,-1.66086,-0.077792,-0.100414,-0.383913,0.0783447,-0.0184785,0.0890751,0.00302744,0.415773,-0.637179,0.0120835,0,0,0,0,0,0,0,0.0096053,-0.199952,-0.334311,-1.66044,-0.00663975,1.45524,0.40134,-0.0145078,-0.00312554,-0.00110821,0.00590782,0.735169,-0.273388,0.00113616,1.34845,-25.211,3.0121,25.1578,1.61377,2.23107,-0.0630644,-0.898905,0.269677,1.34988,0.741533,-0.469898,0.0898569,0.280096,-0.191721,-0.236631,-0.438936,0.838276,-1.0559,-0.038852,
0.0104242,-0.200205,-0.333467,-1.66048,0.00174177,-0.12299,-0.3839,0.0949525,-0.0264531,0.102795,-0.0106424,0.702976,-0.757827,0.0126228,0,0,0,0,0,0,0,0.0096053,-0.199952,-0.334311,-1.66044,-0.00663975,1.45524,0.40134,-0.0145078,-0.00312554,-0.00110821,0.00590782,0.735169,-0.273388,0.00113616,1.34845,-25.211,3.0121,25.1578,1.61377,2.23107,-0.0630644,-0.916778,0.175152,1.28022,0.712709,-0.448621,0.0472953,0.214998,-0.162341,-0.247412,-0.437728,0.732311,-1.02894,-0.0382227,
0.0108833,-0.200318,-0.33296,-1.66056,0.0046328,-0.12644,-0.383852,0.114772,-0.0282832,0.126568,-0.0182091,0.722757,-0.862573,0.0119767,0,0,0,0,0,0,0,0.0096053,-0.199952,-0.334311,-1.66044,-0.00663975,1.45524,0.40134,-0.0145078,-0.00312554,-0.00110821,0.00590782,0.735169,-0.273388,0.00113616,1.34845,-25.211,3.0121,25.1578,1.61377,2.23107,-0.0630644,-0.916778,0.175152,1.28022,0.712709,-0.448621,0.0472953,0.214998,-0.162341,-0.247412,-0.437728,0.732311,-1.02894,-0.0382227,
0.0114074,-0.200431,-0.332377,-1.66066,0.00762399,-0.130234,-0.383807,0.13104,-0.0282613,0.145745,-0.0253911,0.747798,-0.948419,0.0114471,0,0,0,0,0,0,0,0.009518,-0.199935,-0.334253,-1.66047,0.0184826,1.44536,0.401341,0.00647748,-0.0028124,0.00853934,0.00484202,0.699904,-0.317093,0.000850663,0.94379,-25.461,3.13905,25.9076,0.281674,2.77489,-0.0767973,-0.948442,-0.0964312,1.4775,0.761537,-0.58159,-0.0807514,0.0637448,-0.282768,-0.344991,-0.287103,0.620586,-0.951171,-0.0366196,
0.0119856,-0.200539,-0.331732,-1.66079,0.0107245,-0.134309,-0.383763,0.144542,-0.0269252,0.161412,-0.0320255,0.775135,-1.01895,0.0110026,0,0,0,0,0,0,0,0.009518,-0.199935,-0.334253,-1.66047,0.0184826,1.44536,0.401341,0.00647748,-0.0028124,0.00853934,0.00484202,0.699904,-0.317093,0.000850663,0.94379,-25.461,3.13905,25.9076,0.281674,2.77489,-0.0767973,-1.29616,-0.305888,1.26535,0.84629,-0.769312,-0.241502,-0.103182,-0.354474,-0.500204,-0.295041,0.513087,-0.918363,-0.0300269,
0.012609,-0.200638,-0.331034,-1.66094,0.013936,-0.138617,-0.38372,0.155856,-0.024692,0.174358,-0.0380506,0.80286,-1.07701,0.010621,0,0,0,0,0,0,0,0.009518,-0.199935,-0.334253,-1.66047,0.0184826,1.44536,0.401341,0.00647748,-0.0028124,0.00853934,0.00484202,0.699904,-0.317093,0.000850663,0.94379,-25.461,3.13905,25.9076,0.281674,2.77489,-0.0767973,-1.29616,-0.305888,1.26535,0.84629,-0.769312,-0.241502,-0.103182,-0.354474,-0.500204,-0.295041,0.513087,-0.918363,-0.0300269,
0.0132707,-0.200725,-0.330294,-1.66111,0.0172551,-0.143117,-0.383679,0.165411,-0.0218771,0.185165,-0.0434553,0.829783,-1.12484,0.0102856,0,0,0,0,0,0,0,0.009518,-0.199935,-0.334253,-1.66047,0.0184826,1.44536,0.401341,0.00647748,-0.0028124,0.00853934,0.00484202,0.699904,-0.317093,0.000850663,0.94379,-25.461,3.13905,25.9076,0.281674,2.77489,-0.0767973,-1.00213,-0.465257,1.26133,0.774418,-0.533136,-0.261621,-0.147278,-0.213407,-0.475308,-0.278289,0.329739,-0.862084,-0.0275863,
0.0139648,-0.2008,-0.329517,-1.6613,0.0206759,-0.147774,-0.383639,0.173531,-0.018716,0.194259,-0.0482562,0.855202,-1.16428,0.00998512,0,0,0,0,0,0,0,0.009518,-0.199935,-0.334253,-1.66047,0.0184826,1.44536,0.401341,0.00647748,-0.0028124,0.00853934,0.00484202,0.699904,-0.317093,0.000850663,0.94379,-25.461,3.13905,25.9076,0.281674,2.77489,-0.0767973,-1.00213,-0.465257,1.26133,0.774418,-0.533136,-0.261621,-0.147278,-0.213407,-0.475308,-0.278289,0.329739,-0.862084,-0.0275863,
0.0146867,-0.200862,-0.328709,-1.66151,0.0241909,-0.152561,-0.3836,0.180462,-0.0153822,0.201964,-0.0524846,0.878738,-1.1968,0.00970913,0,0,0,0,0,0,0,0.009518,-0.199935,-0.334253,-1.66047,0.0184826,1.44536,0.401341,0.00647748,-0.0028124,0.00853934,0.00484202,0.699904,-0.317093,0.000850663,0.94379,-25.461,3.13905,25.9076,0.281674,2.77489,-0.0767973,-1.17195,-1.09722,1.47717,0.933712,-0.745826,-0.574845,-0.483739,-0.36753,-0.752337,-0.0877842,0.0459498,-0.762556,-0.0248208,
0.0154322,-0.20091,-0.327875,-1.66174,0.0277918,-0.157455,-0.383562,0.186395,-0.0120019,0.208524,-0.0561792,0.900227,-1.22359,0.00945294,0,0,0,0,0,0,0,0.0102577,-0.199982,-0.333031,-1.66044,0.036843,1.43426,0.401338,0.0317257,-0.00118918,0.0455805,0.000204367,0.600864,-0.423214,0.00067071,1.98322,-25.1872,4.26179,25.0864,1.56433,1.5078,-0.050247,-1.11004,-0.946019,1.16234,0.81452,-0.501472,-0.487714,-0.41556,-0.142025,-0.637606,-0.27323,-0.0198411,-0.825859,-0.0231772,
0.0161982,-0.200947,-0.327018,-1.66199,0.0314706,-0.162396,-0.383525,0.191499,-0.00933349,0.214244,-0.0614741,0.919695,-1.23509,0.00926451,0,0,0,0,0,0,0,0.0102577,-0.199982,-0.333031,-1.66044,0.036843,1.43426,0.401338,0.0317257,-0.00118918,0.0455805,0.000204367,0.600864,-0.423214,0.00067071,1.98322,-25.1872,4.26179,25.0864,1.56433,1.5078,-0.050247,-1.11004,-0.946019,1.16234,0.81452,-0.501472,-0.487714,-0.41556,-0.142025,-0.637606,-0.27323,-0.0198411,-0.825859,-0.0231772,
0.0169819,-0.200974,-0.326141,-1.66225,0.0352193,-0.167339,-0.383489,0.195914,-0.00667236,0.219118,-0.0666022,0.937176,-1.23578,0.00908328,0,0,0,0,0,0,0,0.0102577,-0.199982,-0.333031,-1.66044,0.036843,1.43426,0.401338,0.0317257,-0.00118918,0.0455805,0.000204367,0.600864,-0.423214,0.00067071,1.98322,-25.1872,4.26179,25.0864,1.56433,1.5078,-0.050247,-1.11567,-0.37767,1.13166,0.419028,-0.477612,-0.226208,-0.169141,-0.113317,-0.327715,-0.308294,0.0230971,-0.860456,-0.0237327,
0.0177807,-0.200989,-0.325248,-1.66254,0.0390301,-0.172258,-0.383453,0.199706,-0.00381849,0.223255,-0.0708032,0.952713,-1.22972,0.00890237,0,0,0,0,0,0,0,0.0102577,-0.199982,-0.333031,-1.66044,0.036843,1.43426,0.401338,0.0317257,-0.00118918,0.0455805,0.000204367,0.600864,-0.423214,0.00067071,1.98322,-25.1872,4.26179,25.0864,1.56433,1.5078,-0.050247,-1.11567,-0.37767,1.13166,0.419028,-0.477612,-0.226208,-0.169141,-0.113317,-0.327715,-0.308294,0.0230971,-0.860456,-0.0237327,
0.0185925,-0.200992,-0.324341,-1.66283,0.0428957,-0.177134,-0.383419,0.202943,-0.000863151,0.226775,-0.0740511,0.966396,-1.21914,0.00872313,0,0,0,0,0,0,0,0.0102577,-0.199982,-0.333031,-1.66044,0.036843,1.43426,0.401338,0.0317257,-0.00118918,0.0455805,0.000204367,0.600864,-0.423214,0.00067071,1.98322,-25.1872,4.26179,25.0864,1.56433,1.5078,-0.050247,-1.75688,-0.634534,1.13525,0.546986,-0.940122,-0.441003,-0.377477,-0.363387,-0.551472,-0.244716,-0.0593587,-0.871493,-0.0242029,
0.0194153,-0.200984,-0.323422,-1.66314,0.0468091,-0.181956,-0.383384,0.205694,0.00206996,0.229772,-0.0764908,0.97835,-1.20548,0.00854736,0,0,0,0,0,0,0,0.0118324,-0.200104,-0.330931,-1.66043,0.0561606,1.41813,0.401339,0.0549941,0.00149767,0.0751079,-0.00338429,0.61956,-0.559927,0.00124552,2.0586,-24.9373,4.23799,24.884,1.81518,1.30913,-0.0566557,-1.75688,-0.634534,1.13525,0.546986,-0.940122,-0.441003,-0.377477,-0.363387,-0.551472,-0.244716,-0.0593587,-0.871493,-0.0242029,
0.0202473,-0.200964,-0.322493,-1.66345,0.050764,-0.186715,-0.383351,0.208018,0.00488555,0.232318,-0.0782806,0.988725,-1.18966,0.00837507,0,0,0,0,0,0,0,0.0118324,-0.200104,-0.330931,-1.66043,0.0561606,1.41813,0.401339,0.0549941,0.00149767,0.0751079,-0.00338429,0.61956,-0.559927,0.00124552,2.0586,-24.9373,4.23799,24.884,1.81518,1.30913,-0.0566557,-1.96521,-0.936362,0.808882,0.826118,-0.849269,-0.590968,-0.525274,-0.205687,-0.735872,-0.469879,-0.105364,-0.994654,-0.0231469,
0.0210872,-0.200934,-0.321555,-1.66377,0.0547547,-0.191404,-0.383318,0.209963,0.0075232,0.234469,-0.0795535,0.997676,-1.17236,0.00820749,0,0,0,0,0,0,0,0.0118324,-0.200104,-0.330931,-1.66043,0.0561606,1.41813,0.401339,0.0549941,0.00149767,0.0751079,-0.00338429,0.61956,-0.559927,0.00124552,2.0586,-24.9373,4.23799,24.884,1.81518,1.30913,-0.0566557,-2.38319,-0.903047,0.884502,0.844695,-1.14821,-0.633418,-0.566665,-0.366311,-0.783769,-0.459106,-0.0678129,-1.06269,-0.0207457,
0.0219335,-0.200895,-0.32061,-1.66409,0.0587761,-0.19602,-0.383286,0.211573,0.00994981,0.236271,-0.080415,1.00535,-1.15404,0.00804324,0,0,0,0,0,0,0,0.0118324,-0.200104,-0.330931,-1.66043,0.0561606,1.41813,0.401339,0.0549941,0.00149767,0.0751079,-0.00338429,0.61956,-0.559927,0.00124552,2.0586,-24.9373,4.23799,24.884,1.81518,1.30913,-0.0566557,-2.38319,-0.903047,0.884502,0.844695,-1.14821,-0.633418,-0.566665,-0.366311,-0.783769,-0.459106,-0.0678129,-1.06269,-0.0207457,
0.022785,-0.200846,-0.319659,-1.66441,0.0628237,-0.200561,-0.383254,0.212881,0.0121513,0.237762,-0.0809473,1.0119,-1.13504,0.00788388,0,0,0,0,0,0,0,0.0118324,-0.200104,-0.330931,-1.66043,0.0561606,1.41813,0.401339,0.0549941,0.00149767,0.0751079,-0.00338429,0.61956,-0.559927,0.00124552,2.0586,-24.9373,4.23799,24.884,1.81518,1.30913,-0.0566557,-2.21189,-0.255268,0.686001,0.539669,-0.948526,-0.308867,-0.241885,-0.223035,-0.448475,-0.593835,0.102363,-1.11387,-0.0212619,
0.0236407,-0.200789,-0.318703,-1.66474,0.0668935,-0.205023,-0.383223,0.213921,0.014127,0.238975,-0.0812134,1.01744,-1.1156,0.00772833,0,0,0,0,0,0,0,0.0118324,-0.200104,-0.330931,-1.66043,0.0561606,1.41813,0.401339,0.0549941,0.00149767,0.0751079,-0.00338429,0.61956,-0.559927,0.00124552,2.0586,-24.9373,4.23799,24.884,1.81518,1.30913,-0.0566557,-2.21189,-0.255268,0.686001,0.539669,-0.948526,-0.308867,-0.241885,-0.223035,-0.448475,-0.593835,0.102363,-1.11387,-0.0212619,
0.0244996,-0.200726,-0.317743,-1.66506,0.0709818,-0.209407,-0.383193,0.214719,0.015884,0.239937,-0.0812628,1.02209,-1.0959,0.00757651,0,0,0,0,0,0,0,0.0141986,-0.200142,-0.327879,-1.66058,0.0770124,1.39926,0.401342,0.0901969,0.00152694,0.108106,-0.0087423,0.614754,-0.601776,0.000363936,1.78089,-24.7389,3.83729,24.5111,2.23632,1.13061,-0.0429228,-2.25102,-0.112792,0.41483,0.627227,-0.836323,-0.245283,-0.180791,-0.100084,-0.411023,-0.777367,0.243588,-1.20181,-0.0197339,
0.0253608,-0.200656,-0.31678,-1.66539,0.0750856,-0.213711,-0.383163,0.215301,0.0174343,0.240676,-0.0811347,1.02595,-1.07606,0.00742862,0,0,0,0,0,0,0,0.0141986,-0.200142,-0.327879,-1.66058,0.0770124,1.39926,0.401342,0.0901969,0.00152694,0.108106,-0.0087423,0.614754,-0.601776,0.000363936,1.78089,-24.7389,3.83729,24.5111,2.23632,1.13061,-0.0429228,-2.25102,-0.112792,0.41483,0.627227,-0.836323,-0.245283,-0.180791,-0.100084,-0.411023,-0.777367,0.243588,-1.20181,-0.0197339,
0.0262235,-0.200581,-0.315815,-1.66571,0.0792021,-0.217936,-0.383134,0.215689,0.0187925,0.241211,-0.08086,1.02912,-1.05619,0.00728494,0,0,0,0,0,0,0,0.0141986,-0.200142,-0.327879,-1.66058,0.0770124,1.39926,0.401342,0.0901969,0.00152694,0.108106,-0.0087423,0.614754,-0.601776,0.000363936,1.78089,-24.7389,3.83729,24.5111,2.23632,1.13061,-0.0429228,-2.35088,0.288642,0.471408,0.416675,-0.97936,-0.0850325,-0.0272598,-0.208813,-0.232547,-0.730163,0.367333,-1.19407,-0.0191384,
0.0270871,-0.200501,-0.314849,-1.66603,0.0833288,-0.222081,-0.383106,0.215903,0.0199744,0.241566,-0.0804639,1.03167,-1.03634,0.00714456,0,0,0,0,0,0,0,0.0141986,-0.200142,-0.327879,-1.66058,0.0770124,1.39926,0.401342,0.0901969,0.00152694,0.108106,-0.0087423,0.614754,-0.601776,0.000363936,1.78089,-24.7389,3.83729,24.5111,2.23632,1.13061,-0.0429228,-1.56662,0.877884,0.388956,0.147705,-0.503897,0.285064,0.338781,0.00636285,0.147094,-0.745164,0.592574,-1.09247,-0.0203155,
0.027951,-0.200417,-0.313882,-1.66635,0.0874635,-0.226147,-0.383078,0.215961,0.0209959,0.241757,-0.0799669,1.03368,-1.01658,0.00700787,0,0,0,0,0,0,0,0.0141986,-0.200142,-0.327879,-1.66058,0.0770124,1.39926,0.401342,0.0901969,0.00152694,0.108106,-0.0087423,0.614754,-0.601776,0.000363936,1.78089,-24.7389,3.83729,24.5111,2.23632,1.13061,-0.0429228,-1.56662,0.877884,0.388956,0.147705,-0.503897,0.285064,0.338781,0.00636285,0.147094,-0.745164,0.592574,-1.09247,-0.0203155,
0.0288145,-0.20033,-0.312915,-1.66667,0.0916043,-0.230135,-0.38305,0.215879,0.0218725,0.241802,-0.0793855,1.0352,-0.996938,0.00687331,0,0,0,0,0,0,0,0.0182521,-0.200124,-0.322421,-1.66107,0.103033,1.37194,0.401344,0.0950307,-0.00015356,0.144079,-0.0178968,0.597333,-0.646223,0.000716764,1.85627,-24.9135,3.58735,24.5865,2.62725,2.10473,-0.0630644,-1.6523,0.73257,0.300329,0.39507,-0.572905,0.194234,0.25072,-0.0382164,0.0165369,-0.768936,0.717746,-1.08692,-0.0187059,
0.0111723,-0.200571,-0.33271,-1.66103,0.00041067,-0.122632,-0.383887,0.177388,-0.0607218,0.190578,-0.0618815,0.564967,-0.728423,0.0137612,0,0,0,0,0,0,0,0.0182521,-0.200124,-0.322421,-1.66107,0.103033,1.37194,0.401344,0.0950307,-0.00015356,0.144079,-0.0178968,0.597333,-0.646223,0.000716764,1.85627,-24.9135,3.58735,24.5865,2.62725,2.10473,-0.0630644,-1.6523,0.73257,0.300329,0.39507,-0.572905,0.194234,0.25072,-0.0382164,0.0165369,-0.768936,0.717746,-1.08692,-0.0187059,
0.0206896,-0.20054,-0.319751,-1.66197,0.109949,-0.208584,-0.383896,0.235433,-0.0393748,0.260257,-0.086803,0.590024,-0.892362,0.0127702,0,0,0,0,0,0,0,0.0182521,-0.200124,-0.322421,-1.66107,0.103033,1.37194,0.401344,0.0950307,-0.00015356,0.144079,-0.0178968,0.597333,-0.646223,0.000716764,1.85627,-24.9135,3.58735,24.5865,2.62725,2.10473,-0.0630644,-1.73344,0.905906,0.225006,0.340042,-0.68759,0.243546,0.303878,-0.126861,0.0615184,-0.727301,0.808234,-1.02752,-0.019223,
0.0217264,-0.200694,-0.318598,-1.66234,0.112423,-0.212424,-0.383847,0.259196,-0.0384257,0.288348,-0.0931082,0.618466,-0.959879,0.0122639,0,0,0,0,0,0,0,0.0182521,-0.200124,-0.322421,-1.66107,0.103033,1.37194,0.401344,0.0950307,-0.00015356,0.144079,-0.0178968,0.597333,-0.646223,0.000716764,1.85627,-24.9135,3.58735,24.5865,2.62725,2.10473,-0.0630644,-1.73344,0.905906,0.225006,0.340042,-0.68759,0.243546,0.303878,-0.126861,0.0615184,-0.727301,0.808234,-1.02752,-0.019223,
0.0228413,-0.200837,-0.317353,-1.66273,0.115029,-0.21649,-0.383799,0.27872,-0.0358663,0.311183,-0.0982065,0.651597,-1.01666,0.0118129,0,0,0,0,0,0,0,0.0182521,-0.200124,-0.322421,-1.66107,0.103033,1.37194,0.401344,0.0950307,-0.00015356,0.144079,-0.0178968,0.597333,-0.646223,0.000716764,1.85627,-24.9135,3.58735,24.5865,2.62725,2.10473,-0.0630644,-1.49353,0.930618,-0.235689,0.448917,-0.422853,0.266983,0.331072,0.0546868,0.0571976,-0.854673,0.895432,-0.950297,-0.0187252,
0.0240209,-0.200967,-0.316034,-1.66315,0.117775,-0.220746,-0.383754,0.294918,-0.0324711,0.329937,-0.102636,0.686462,-1.06403,0.0114018,0,0,0,0,0,0,0,0.0182521,-0.200124,-0.322421,-1.66107,0.103033,1.37194,0.401344,0.0950307,-0.00015356,0.144079,-0.0178968,0.597333,-0.646223,0.000716764,1.85627,-24.9135,3.58735,24.5865,2.62725,2.10473,-0.0630644,-2.0197,1.92892,-0.275807,-0.285198,-0.846814,0.62355,0.680911,-0.186007,0.492972,-0.777022,0.949106,-0.93992,-0.0169045,
0.0252549,-0.201082,-0.314651,-1.66357,0.120659,-0.225148,-0.38371,0.308488,-0.0288622,0.345518,-0.107116,0.72116,-1.1005,0.0110421,0,0,0,0,0,0,0,0.0217354,-0.200087,-0.317792,-1.66184,0.119151,1.35284,0.401338,0.124047,0.00355482,0.159068,-0.0285434,0.396208,-0.565178,-0.000678067,0.793033,-25.6593,2.53602,24.884,1.8518,2.20452,-0.00996382,-2.0197,1.92892,-0.275807,-0.285198,-0.846814,0.62355,0.680911,-0.186007,0.492972,-0.777022,0.949106,-0.93992,-0.0169045,
0.026535,-0.201185,-0.313217,-1.66403,0.123677,-0.229623,-0.383667,0.320024,-0.0257362,0.358691,-0.113055,0.754487,-1.11865,0.0107649,0,0,0,0,0,0,0,0.0217354,-0.200087,-0.317792,-1.66184,0.119151,1.35284,0.401338,0.124047,0.00355482,0.159068,-0.0285434,0.396208,-0.565178,-0.000678067,0.793033,-25.6593,2.53602,24.884,1.8518,2.20452,-0.00996382,-1.97105,0.626845,-0.440645,0.45624,-0.787635,0.0459461,0.104545,-0.150469,-0.135382,-0.729547,0.673029,-0.800725,-0.0151779,
0.0278541,-0.201274,-0.311738,-1.6645,0.12682,-0.234135,-0.383625,0.329769,-0.022125,0.369688,-0.11774,0.785758,-1.12794,0.0104422,0,0,0,0,0,0,0,0.0217354,-0.200087,-0.317792,-1.66184,0.119151,1.35284,0.401338,0.124047,0.00355482,0.159068,-0.0285434,0.396208,-0.565178,-0.000678067,0.793033,-25.6593,2.53602,24.884,1.8518,2.20452,-0.00996382,-1.97105,0.626845,-0.440645,0.45624,-0.787635,0.0459461,0.104545,-0.150469,-0.135382,-0.729547,0.673029,-0.800725,-0.0151779,
0.0292064,-0.201349,-0.310222,-1.66499,0.130079,-0.238623,-0.383584,0.338093,-0.0188693,0.379065,-0.122962,0.814558,-1.12203,0.0101833,0,0,0,0,0,0,0,0.0217354,-0.200087,-0.317792,-1.66184,0.119151,1.35284,0.401338,0.124047,0.00355482,0.159068,-0.0285434,0.396208,-0.565178,-0.000678067,0.793033,-25.6593,2.53602,24.884,1.8518,2.20452,-0.00996382,-2.2604,0.254066,-0.280114,0.515422,-1.15231,-0.166008,-0.0849034,-0.419716,-0.348179,-0.499522,0.492756,-0.659581,-0.0138196,
0.0305871,-0.201411,-0.308674,-1.6655,0.133442,-0.243048,-0.383544,0.345154,-0.0154654,0.386972,-0.1273,0.840726,-1.10638,0.00993578,0,0,0,0,0,0,0,0.0217354,-0.200087,-0.317792,-1.66184,0.119151,1.35284,0.401338,0.124047,0.00355482,0.159068,-0.0285434,0.396208,-0.565178,-0.000678067,0.793033,-25.6593,2.53602,24.884,1.8518,2.20452,-0.00996382,-2.2604,0.254066,-0.280114,0.515422,-1.15231,-0.166008,-0.0849034,-0.419716,-0.348179,-0.499522,0.492756,-0.659581,-0.0138196,
0.0319914,-0.201459,-0.307099,-1.66602,0.136899,-0.24739,-0.383506,0.351077,-0.0118533,0.393596,-0.130309,0.864247,-1.08533,0.00969375,0,0,0,0,0,0,0,0.0265214,-0.200274,-0.311845,-1.66302,0.13303,1.33305,0.40134,0.153271,-0.00785465,0.183847,-0.0369384,0.427949,-0.606386,-0.00121819,2.87189,-25.0603,4.88862,24.761,2.7005,1.67351,-0.00996382,-1.94687,1.00125,-0.626067,0.0140259,-0.766441,0.220968,0.27526,-0.13101,0.102738,-0.682013,0.534295,-0.690675,-0.016291,
0.0334154,-0.201491,-0.305503,-1.66655,0.140439,-0.251634,-0.383468,0.355998,-0.0082016,0.399119,-0.132169,0.885207,-1.06117,0.00945738,0,0,0,0,0,0,0,0.0265214,-0.200274,-0.311845,-1.66302,0.13303,1.33305,0.40134,0.153271,-0.00785465,0.183847,-0.0369384,0.427949,-0.606386,-0.00121819,2.87189,-25.0603,4.88862,24.761,2.7005,1.67351,-0.00996382,-1.76998,1.56504,-0.8082,-0.387073,-0.531925,0.511314,0.553626,0.050646,0.438786,-0.798321,0.549357,-0.729775,-0.0175624,
0.0348555,-0.20151,-0.303888,-1.66708,0.144054,-0.255775,-0.383431,0.360047,-0.00466821,0.403696,-0.13315,0.903749,-1.03523,0.00923056,0,0,0,0,0,0,0,0.0265214,-0.200274,-0.311845,-1.66302,0.13303,1.33305,0.40134,0.153271,-0.00785465,0.183847,-0.0369384,0.427949,-0.606386,-0.00121819,2.87189,-25.0603,4.88862,24.761,2.7005,1.67351,-0.00996382,-1.76998,1.56504,-0.8082,-0.387073,-0.531925,0.511314,0.553626,0.050646,0.438786,-0.798321,0.549357,-0.729775,-0.0175624,
0.0363089,-0.201515,-0.302258,-1.66761,0.147735,-0.259809,-0.383395,0.363333,-0.00135758,0.407452,-0.13348,0.920052,-1.00834,0.00901293,0,0,0,0,0,0,0,0.0265214,-0.200274,-0.311845,-1.66302,0.13303,1.33305,0.40134,0.153271,-0.00785465,0.183847,-0.0369384,0.427949,-0.606386,-0.00121819,2.87189,-25.0603,4.88862,24.761,2.7005,1.67351,-0.00996382,-2.61569,0.483125,-0.840865,0.204255,-1.13169,-0.0778651,-0.0266392,-0.274942,-0.190104,-0.688845,0.288337,-0.69121,-0.0168947,
0.0377727,-0.201509,-0.300616,-1.66815,0.151472,-0.263733,-0.383359,0.365953,0.00167417,0.410492,-0.133329,0.934306,-0.98102,0.0088065,0,0,0,0,0,0,0,0.0265214,-0.200274,-0.311845,-1.66302,0.13303,1.33305,0.40134,0.153271,-0.00785465,0.183847,-0.0369384,0.427949,-0.606386,-0.00121819,2.87189,-25.0603,4.88862,24.761,2.7005,1.67351,-0.00996382,-2.61569,0.483125,-0.840865,0.204255,-1.13169,-0.0778651,-0.0266392,-0.274942,-0.190104,-0.688845,0.288337,-0.69121,-0.0168947,
0.0392446,-0.201491,-0.298965,-1.66868,0.155259,-0.267547,-0.383325,0.367989,0.0044044,0.412905,-0.132823,0.9467,-0.953597,0.00860846,0,0,0,0,0,0,0,0.0317022,-0.200375,-0.305251,-1.66435,0.149992,1.31394,0.401341,0.167662,-0.00196504,0.235454,-0.0447959,0.608354,-0.589667,0.000182412,2.43946,-24.8381,4.36098,24.5349,2.72522,1.36223,-0.0301054,-2.7994,-0.567535,-1.45395,0.935162,-0.914549,-0.543446,-0.485783,-0.00951779,-0.728668,-0.984064,0.0925832,-0.760798,-0.0171987,
0.0407227,-0.201464,-0.297306,-1.66921,0.159088,-0.271252,-0.383291,0.36951,0.00683182,0.414767,-0.13205,0.957417,-0.926283,0.00842119,0,0,0,0,0,0,0,0.0317022,-0.200375,-0.305251,-1.66435,0.149992,1.31394,0.401341,0.167662,-0.00196504,0.235454,-0.0447959,0.608354,-0.589667,0.000182412,2.43946,-24.8381,4.36098,24.5349,2.72522,1.36223,-0.0301054,-2.98831,0.157858,-0.946189,0.448733,-1.20988,-0.22452,-0.167332,-0.235104,-0.365805,-0.844992,0.231718,-0.846748,-0.0175267,
0.042205,-0.201428,-0.295641,-1.66973,0.162955,-0.274849,-0.383258,0.370579,0.0089687,0.416143,-0.131075,0.966629,-0.899209,0.00824199,0,0,0,0,0,0,0,0.0317022,-0.200375,-0.305251,-1.66435,0.149992,1.31394,0.401341,0.167662,-0.00196504,0.235454,-0.0447959,0.608354,-0.589667,0.000182412,2.43946,-24.8381,4.36098,24.5349,2.72522,1.36223,-0.0301054,-2.98831,0.157858,-0.946189,0.448733,-1.20988,-0.22452,-0.167332,-0.235104,-0.365805,-0.844992,0.231718,-0.846748,-0.0175267,
0.04369,-0.201385,-0.293973,-1.67025,0.166853,-0.278339,-0.383226,0.371248,0.0108343,0.417093,-0.129944,0.974493,-0.872459,0.00807047,0,0,0,0,0,0,0,0.0317022,-0.200375,-0.305251,-1.66435,0.149992,1.31394,0.401341,0.167662,-0.00196504,0.235454,-0.0447959,0.608354,-0.589667,0.000182412,2.43946,-24.8381,4.36098,24.5349,2.72522,1.36223,-0.0301054,-3.23025,0.159496,-0.472964,0.432437,-1.61409,-0.256607,-0.186786,-0.559902,-0.402581,-0.611593,0.288243,-0.81594,-0.01524,
0.0451763,-0.201335,-0.292302,-1.67077,0.170777,-0.281723,-0.383194,0.371567,0.0124511,0.417665,-0.128691,0.981154,-0.846082,0.00790703,0,0,0,0,0,0,0,0.0317022,-0.200375,-0.305251,-1.66435,0.149992,1.31394,0.401341,0.167662,-0.00196504,0.235454,-0.0447959,0.608354,-0.589667,0.000182412,2.43946,-24.8381,4.36098,24.5349,2.72522,1.36223,-0.0301054,-3.23025,0.159496,-0.472964,0.432437,-1.61409,-0.256607,-0.186786,-0.559902,-0.402581,-0.611593,0.288243,-0.81594,-0.01524,
0.0466626,-0.201279,-0.29063,-1.67128,0.174724,-0.285004,-0.383163,0.371575,0.013843,0.417903,-0.127344,0.986745,-0.820107,0.00775062,0,0,0,0,0,0,0,0.0317022,-0.200375,-0.305251,-1.66435,0.149992,1.31394,0.401341,0.167662,-0.00196504,0.235454,-0.0447959,0.608354,-0.589667,0.000182412,2.43946,-24.8381,4.36098,24.5349,2.72522,1.36223,-0.0301054,-2.90871,-0.179383,-1.20869,0.81343,-1.02735,-0.359038,-0.283609,-0.0918999,-0.563884,-0.990562,0.300649,-0.870996,-0.0144765,
0.0481478,-0.201219,-0.288959,-1.67178,0.17869,-0.288182,-0.383133,0.371311,0.0150331,0.417848,-0.125923,0.991383,-0.794549,0.00760025,0,0,0,0,0,0,0,0.0380474,-0.200366,-0.297037,-1.66608,0.169978,1.29529,0.401344,0.218735,0.00200531,0.252594,-0.0531155,0.6164,-0.524948,0.000113627,2.18555,-24.9135,3.91267,24.6619,2.98156,1.57464,-0.0301054,-2.90871,-0.179383,-1.20869,0.81343,-1.02735,-0.359038,-0.283609,-0.0918999,-0.563884,-0.990562,0.300649,-0.870996,-0.0144765,
0.049631,-0.201155,-0.287289,-1.67228,0.182671,-0.29126,-0.383103,0.370806,0.0160437,0.417533,-0.124444,0.995176,-0.769415,0.00745773,0,0,0,0,0,0,0,0.0380474,-0.200366,-0.297037,-1.66608,0.169978,1.29529,0.401344,0.218735,0.00200531,0.252594,-0.0531155,0.6164,-0.524948,0.000113627,2.18555,-24.9135,3.91267,24.6619,2.98156,1.57464,-0.0301054,-2.92692,-0.0512144,-1.05734,0.820256,-1.10929,-0.312723,-0.244157,-0.170898,-0.52184,-0.948994,0.43139,-0.884419,-0.0133614,
0.0511114,-0.201088,-0.285621,-1.67277,0.186663,-0.294238,-0.383074,0.370089,0.0168954,0.41699,-0.12292,0.998219,-0.744708,0.00731899,0,0,0,0,0,0,0,0.0380474,-0.200366,-0.297037,-1.66608,0.169978,1.29529,0.401344,0.218735,0.00200531,0.252594,-0.0531155,0.6164,-0.524948,0.000113627,2.18555,-24.9135,3.91267,24.6619,2.98156,1.57464,-0.0301054,-2.40036,0.175084,-0.773689,0.761891,-0.892287,-0.164843,-0.0981285,-0.13195,-0.379078,-0.855557,0.605769,-0.830595,-0.0132243,
0.0525881,-0.201017,-0.283956,-1.67325,0.190666,-0.29712,-0.383045,0.369186,0.017607,0.416245,-0.12136,1.0006,-0.720424,0.00718705,0,0,0,0,0,0,0,0.0380474,-0.200366,-0.297037,-1.66608,0.169978,1.29529,0.401344,0.218735,0.00200531,0.252594,-0.0531155,0.6164,-0.524948,0.000113627,2.18555,-24.9135,3.91267,24.6619,2.98156,1.57464,-0.0301054,-2.40036,0.175084,-0.773689,0.761891,-0.892287,-0.164843,-0.0981285,-0.13195,-0.379078,-0.855557,0.605769,-0.830595,-0.0132243,
0.0540606,-0.200944,-0.282295,-1.67373,0.194675,-0.299906,-0.383017,0.36812,0.0181956,0.415323,-0.119774,1.00239,-0.696561,0.00705848,0,0,0,0,0,0,0,0.0380474,-0.200366,-0.297037,-1.66608,0.169978,1.29529,0.401344,0.218735,0.00200531,0.252594,-0.0531155,0.6164,-0.524948,0.000113627,2.18555,-24.9135,3.91267,24.6619,2.98156,1.57464,-0.0301054,-1.62418,1.24743,-0.655404,0.119677,-0.404789,0.402205,0.463511,0.107898,0.235691,-0.876324,0.83428,-0.817385,-0.0168373,
0.0555283,-0.20087,-0.280638,-1.67421,0.19869,-0.302599,-0.382989,0.36691,0.0186765,0.414245,-0.118168,1.00367,-0.673114,0.00693494,0,0,0,0,0,0,0,0.0453656,-0.200343,-0.288177,-1.66796,0.188915,1.27976,0.401342,0.2201,0.000940433,0.291256,-0.0596569,0.603003,-0.474973,-0.0003805,2.13398,-25.1119,3.63893,24.6103,3.14636,1.68725,-0.0365141,-1.62418,1.24743,-0.655404,0.119677,-0.404789,0.402205,0.463511,0.107898,0.235691,-0.876324,0.83428,-0.817385,-0.0168373,
0.0213123,-0.200858,-0.3191,-1.66249,0.108922,-0.207407,-0.383909,0.304592,-0.0692875,0.335736,-0.13805,0.483047,-0.750408,0.0117742,0,0,0,0,0,0,0,0.0453656,-0.200343,-0.288177,-1.66796,0.188915,1.27976,0.401342,0.2201,0.000940433,0.291256,-0.0596569,0.603003,-0.474973,-0.0003805,2.13398,-25.1119,3.63893,24.6103,3.14636,1.68725,-0.0365141,-1.60399,1.68634,-0.777309,-0.106409,-0.352559,0.595377,0.668234,0.155204,0.430739,-0.932427,0.939956,-0.827956,-0.0187263,
0.0494047,-0.200771,-0.283684,-1.66949,0.195829,-0.297644,-0.383926,0.371214,-0.0400672,0.414936,-0.141098,0.586359,-0.590015,0.0107342,0,0,0,0,0,0,0,0.0453656,-0.200343,-0.288177,-1.66796,0.188915,1.27976,0.401342,0.2201,0.000940433,0.291256,-0.0596569,0.603003,-0.474973,-0.0003805,2.13398,-25.1119,3.63893,24.6103,3.14636,1.68725,-0.0365141,-1.60399,1.68634,-0.777309,-0.106409,-0.352559,0.595377,0.668234,0.155204,0.430739,-0.932427,0.939956,-0.827956,-0.0187263,
0.0509902,-0.200924,-0.281904,-1.67008,0.198276,-0.300128,-0.383884,0.396374,-0.0382018,0.444787,-0.147041,0.611725,-0.620978,0.0104448,0,0,0,0,0,0,0,0.0453656,-0.200343,-0.288177,-1.66796,0.188915,1.27976,0.401342,0.2201,0.000940433,0.291256,-0.0596569,0.603003,-0.474973,-0.0003805,2.13398,-25.1119,3.63893,24.6103,3.14636,1.68725,-0.0365141,-1.44358,1.77005,-0.916388,-0.0921848,-0.200938,0.638531,0.718466,0.249638,0.457695,-0.987076,1.01203,-0.806159,-0.0188749,
0.0526573,-0.201063,-0.280029,-1.67068,0.200845,-0.302705,-0.383843,0.416782,-0.0347459,0.46882,-0.151102,0.642235,-0.644239,0.0101413,0,0,0,0,0,0,0,0.0453656,-0.200343,-0.288177,-1.66796,0.188915,1.27976,0.401342,0.2201,0.000940433,0.291256,-0.0596569,0.603003,-0.474973,-0.0003805,2.13398,-25.1119,3.63893,24.6103,3.14636,1.68725,-0.0365141,-1.50451,2.83191,-0.765682,-0.831355,-0.352138,1.10072,1.16821,0.138633,0.998424,-0.892717,1.13509,-0.79137,-0.0195545,
0.0543918,-0.201188,-0.278075,-1.6713,0.203544,-0.305315,-0.383804,0.433623,-0.0312138,0.48849,-0.155693,0.674797,-0.65235,0.00996424,0,0,0,0,0,0,0,0.0453656,-0.200343,-0.288177,-1.66796,0.188915,1.27976,0.401342,0.2201,0.000940433,0.291256,-0.0596569,0.603003,-0.474973,-0.0003805,2.13398,-25.1119,3.63893,24.6103,3.14636,1.68725,-0.0365141,-1.50451,2.83191,-0.765682,-0.831355,-0.352138,1.10072,1.16821,0.138633,0.998424,-0.892717,1.13509,-0.79137,-0.0195545,
0.0561814,-0.201295,-0.276057,-1.67194,0.206374,-0.307937,-0.383765,0.447394,-0.0268837,0.504472,-0.15845,0.70747,-0.655462,0.00969459,0,0,0,0,0,0,0,0.052705,-0.200308,-0.279168,-1.6698,0.205761,1.26721,0.401345,0.259452,0.000283474,0.28156,-0.0644491,0.419073,-0.338218,0.000153962,-1.15887,-25.6117,0.461134,24.884,1.63208,2.07177,-0.0630644,-2.42543,1.80222,-0.484847,-0.230633,-1.17935,0.533832,0.591925,-0.39503,0.405226,-0.632084,0.972894,-0.726625,-0.0184915,
0.0580167,-0.201387,-0.273987,-1.67258,0.209329,-0.310524,-0.383727,0.458829,-0.0228747,0.517668,-0.16147,0.738956,-0.646952,0.00948467,0,0,0,0,0,0,0,0.052705,-0.200308,-0.279168,-1.6698,0.205761,1.26721,0.401345,0.259452,0.000283474,0.28156,-0.0644491,0.419073,-0.338218,0.000153962,-1.15887,-25.6117,0.461134,24.884,1.63208,2.07177,-0.0630644,-2.42543,1.80222,-0.484847,-0.230633,-1.17935,0.533832,0.591925,-0.39503,0.405226,-0.632084,0.972894,-0.726625,-0.0184915,
0.0598897,-0.201462,-0.271873,-1.67324,0.212403,-0.31305,-0.38369,0.468243,-0.0188299,0.528506,-0.163677,0.768509,-0.631401,0.0092916,0,0,0,0,0,0,0,0.052705,-0.200308,-0.279168,-1.6698,0.205761,1.26721,0.401345,0.259452,0.000283474,0.28156,-0.0644491,0.419073,-0.338218,0.000153962,-1.15887,-25.6117,0.461134,24.884,1.63208,2.07177,-0.0630644,-2.72002,-0.290552,-0.988969,1.10364,-1.15949,-0.412348,-0.304567,-0.317747,-0.691661,-0.768051,0.615015,-0.675387,-0.0154857,
0.0617933,-0.201521,-0.269723,-1.6739,0.215586,-0.315499,-0.383653,0.475906,-0.0147271,0.537345,-0.164779,0.795748,-0.612366,0.00910835,0,0,0,0,0,0,0,0.052705,-0.200308,-0.279168,-1.6698,0.205761,1.26721,0.401345,0.259452,0.000283474,0.28156,-0.0644491,0.419073,-0.338218,0.000153962,-1.15887,-25.6117,0.461134,24.884,1.63208,2.07177,-0.0630644,-2.85621,-0.426202,-1.10358,1.12414,-1.19312,-0.466534,-0.364221,-0.306773,-0.735135,-0.79969,0.523969,-0.681293,-0.0140189,
0.0637216,-0.201564,-0.267545,-1.67456,0.218869,-0.317866,-0.383617,0.482077,-0.0107254,0.544502,-0.164987,0.820511,-0.591558,0.00893212,0,0,0,0,0,0,0,0.052705,-0.200308,-0.279168,-1.6698,0.205761,1.26721,0.401345,0.259452,0.000283474,0.28156,-0.0644491,0.419073,-0.338218,0.000153962,-1.15887,-25.6117,0.461134,24.884,1.63208,2.07177,-0.0630644,-2.85621,-0.426202,-1.10358,1.12414,-1.19312,-0.466534,-0.364221,-0.306773,-0.735135,-0.79969,0.523969,-0.681293,-0.0140189,
0.0656695,-0.201592,-0.265344,-1.67522,0.22224,-0.320145,-0.383582,0.486978,-0.0069576,0.550239,-0.164553,0.842783,-0.569876,0.00876648,0,0,0,0,0,0,0,0.0609807,-0.200341,-0.268524,-1.67183,0.21807,1.25789,0.401348,0.269233,-0.000463736,0.351644,-0.0633529,0.407644,-0.267147,0.000568004,2.01099,-25.3618,3.66273,24.4635,2.95135,1.38238,-0.0630644,-2.56736,-0.294104,-1.60655,1.02559,-0.723561,-0.354729,-0.277359,0.0683726,-0.597967,-1.06243,0.481406,-0.727063,-0.0158186,
0.0676327,-0.201606,-0.263125,-1.67587,0.22569,-0.322336,-0.383548,0.490797,-0.0035012,0.554771,-0.163672,0.862634,-0.547817,0.00860984,0,0,0,0,0,0,0,0.0609807,-0.200341,-0.268524,-1.67183,0.21807,1.25789,0.401348,0.269233,-0.000463736,0.351644,-0.0633529,0.407644,-0.267147,0.000568004,2.01099,-25.3618,3.66273,24.4635,2.95135,1.38238,-0.0630644,-2.56736,-0.294104,-1.60655,1.02559,-0.723561,-0.354729,-0.277359,0.0683726,-0.597967,-1.06243,0.481406,-0.727063,-0.0158186,
0.0696075,-0.201607,-0.260892,-1.67652,0.229211,-0.324439,-0.383514,0.493689,-0.000388239,0.558277,-0.162477,0.880191,-0.525666,0.00846479,0,0,0,0,0,0,0,0.0609807,-0.200341,-0.268524,-1.67183,0.21807,1.25789,0.401348,0.269233,-0.000463736,0.351644,-0.0633529,0.407644,-0.267147,0.000568004,2.01099,-25.3618,3.66273,24.4635,2.95135,1.38238,-0.0630644,-2.69532,0.142275,-1.53687,0.565842,-0.814176,-0.120426,-0.0412406,0.0378164,-0.30704,-1.03227,0.381416,-0.754964,-0.0154998,
0.0715906,-0.201598,-0.258648,-1.67716,0.232793,-0.326454,-0.383481,0.495785,0.00237833,0.560903,-0.16106,0.895609,-0.503588,0.00832691,0,0,0,0,0,0,0,0.0609807,-0.200341,-0.268524,-1.67183,0.21807,1.25789,0.401348,0.269233,-0.000463736,0.351644,-0.0633529,0.407644,-0.267147,0.000568004,2.01099,-25.3618,3.66273,24.4635,2.95135,1.38238,-0.0630644,-2.69532,0.142275,-1.53687,0.565842,-0.814176,-0.120426,-0.0412406,0.0378164,-0.30704,-1.03227,0.381416,-0.754964,-0.0154998,
0.0735794,-0.201578,-0.256397,-1.6778,0.23643,-0.32838,-0.383448,0.497194,0.00481233,0.562773,-0.15948,0.90906,-0.48168,0.00819989,0,0,0,0,0,0,0,0.0609807,-0.200341,-0.268524,-1.67183,0.21807,1.25789,0.401348,0.269233,-0.000463736,0.351644,-0.0633529,0.407644,-0.267147,0.000568004,2.01099,-25.3618,3.66273,24.4635,2.95135,1.38238,-0.0630644,-2.72537,0.0339617,-1.71361,0.51074,-0.748163,-0.135704,-0.0637622,0.118408,-0.298743,-1.08628,0.239049,-0.752854,-0.0150716,
0.0755714,-0.201551,-0.254141,-1.67843,0.240112,-0.33022,-0.383416,0.49801,0.00693747,0.563991,-0.157779,0.920716,-0.460002,0.00808049,0,0,0,0,0,0,0,0.0609807,-0.200341,-0.268524,-1.67183,0.21807,1.25789,0.401348,0.269233,-0.000463736,0.351644,-0.0633529,0.407644,-0.267147,0.000568004,2.01099,-25.3618,3.66273,24.4635,2.95135,1.38238,-0.0630644,-2.72537,0.0339617,-1.71361,0.51074,-0.748163,-0.135704,-0.0637622,0.118408,-0.298743,-1.08628,0.239049,-0.752854,-0.0150716,
0.0775647,-0.201516,-0.251883,-1.67906,0.243835,-0.331975,-0.383384,0.498311,0.00878116,0.564644,-0.155986,0.930749,-0.438592,0.00796745,0,0,0,0,0,0,0,0.0741791,-0.200372,-0.25246,-1.67497,0.24071,1.24877,0.401346,0.305484,0.000796115,0.382148,-0.0795983,0.567298,-0.144281,0.000189933,2.61798,-25.1119,4.08723,24.5349,2.96325,1.32287,-0.0429228,-2.67684,-0.27556,-1.8412,0.708111,-0.606581,-0.243502,-0.174113,0.23509,-0.422643,-1.18306,0.188208,-0.792941,-0.0145732,
0.0795574,-0.201474,-0.249624,-1.67967,0.247593,-0.333645,-0.383352,0.498166,0.0103716,0.564809,-0.15412,0.939322,-0.417473,0.00786148,0,0,0,0,0,0,0,0.0741791,-0.200372,-0.25246,-1.67497,0.24071,1.24877,0.401346,0.305484,0.000796115,0.382148,-0.0795983,0.567298,-0.144281,0.000189933,2.61798,-25.1119,4.08723,24.5349,2.96325,1.32287,-0.0429228,-2.37504,0.599597,-1.51257,0.101754,-0.509314,0.201394,0.271784,0.253814,0.0746778,-1.10316,0.306925,-0.814918,-0.0173768,
0.0815479,-0.201427,-0.247365,-1.68028,0.251379,-0.335231,-0.383321,0.497633,0.0117367,0.564549,-0.152199,0.946588,-0.396665,0.00776126,0,0,0,0,0,0,0,0.0741791,-0.200372,-0.25246,-1.67497,0.24071,1.24877,0.401346,0.305484,0.000796115,0.382148,-0.0795983,0.567298,-0.144281,0.000189933,2.61798,-25.1119,4.08723,24.5349,2.96325,1.32287,-0.0429228,-2.37504,0.599597,-1.51257,0.101754,-0.509314,0.201394,0.271784,0.253814,0.0746778,-1.10316,0.306925,-0.814918,-0.0173768,
0.0835349,-0.201375,-0.24511,-1.68088,0.25519,-0.336736,-0.383291,0.496762,0.0129022,0.56392,-0.150234,0.952689,-0.376178,0.00766485,0,0,0,0,0,0,0,0.0741791,-0.200372,-0.25246,-1.67497,0.24071,1.24877,0.401346,0.305484,0.000796115,0.382148,-0.0795983,0.567298,-0.144281,0.000189933,2.61798,-25.1119,4.08723,24.5349,2.96325,1.32287,-0.0429228,-2.21787,-0.0871669,-1.69589,0.674076,-0.325634,-0.114862,-0.0307507,0.35518,-0.31707,-1.18035,0.336498,-0.783528,-0.0149185,
0.0855173,-0.20132,-0.242858,-1.68148,0.259021,-0.33816,-0.38326,0.495597,0.0138919,0.562969,-0.148235,0.957756,-0.356024,0.00757671,0,0,0,0,0,0,0,0.0741791,-0.200372,-0.25246,-1.67497,0.24071,1.24877,0.401346,0.305484,0.000796115,0.382148,-0.0795983,0.567298,-0.144281,0.000189933,2.61798,-25.1119,4.08723,24.5349,2.96325,1.32287,-0.0429228,-2.21787,-0.0871669,-1.69589,0.674076,-0.325634,-0.114862,-0.0307507,0.35518,-0.31707,-1.18035,0.336498,-0.783528,-0.0149185,
0.087494,-0.201261,-0.240611,-1.68206,0.262869,-0.339505,-0.38323,0.494176,0.0147272,0.561739,-0.146213,0.961906,-0.336212,0.00748955,0,0,0,0,0,0,0,0.0847564,-0.200315,-0.23961,-1.6775,0.25926,1.24534,0.401343,0.335915,0.00337125,0.426078,-0.0833305,0.585126,-0.0864697,-0.000366984,1.27307,-25.7347,2.43684,24.3604,3.11615,1.35583,-0.0163725,-2.33235,-1.3542,-1.67159,1.68113,-0.386439,-0.715404,-0.630496,0.281243,-1.02191,-1.19104,0.360538,-0.785239,-0.0141883,
0.0894682,-0.2012,-0.238368,-1.68264,0.266693,-0.340771,-0.383201,0.493532,0.0151501,0.560764,-0.143778,0.956107,-0.316643,0.0072854,0,0,0,0,0,0,0,0.0847564,-0.200315,-0.23961,-1.6775,0.25926,1.24534,0.401343,0.335915,0.00337125,0.426078,-0.0833305,0.585126,-0.0864697,-0.000366984,1.27307,-25.7347,2.43684,24.3604,3.11615,1.35583,-0.0163725,-2.34724,-1.01228,-1.21762,1.51754,-0.583256,-0.566345,-0.485625,0.0905807,-0.859256,-1.02643,0.509818,-0.790074,-0.0136081,
0.0914395,-0.201139,-0.236128,-1.6832,0.270469,-0.341961,-0.383173,0.492844,0.0153102,0.56001,-0.141211,0.944108,-0.29741,0.00710064,0,0,0,0,0,0,0,0.0847564,-0.200315,-0.23961,-1.6775,0.25926,1.24534,0.401343,0.335915,0.00337125,0.426078,-0.0833305,0.585126,-0.0864697,-0.000366984,1.27307,-25.7347,2.43684,24.3604,3.11615,1.35583,-0.0163725,-2.34724,-1.01228,-1.21762,1.51754,-0.583256,-0.566345,-0.485625,0.0905807,-0.859256,-1.02643,0.509818,-0.790074,-0.0136081,
0.0934073,-0.201078,-0.233891,-1.68376,0.274183,-0.343075,-0.383145,0.491939,0.0153136,0.559217,-0.138638,0.928369,-0.278576,0.00693868,0,0,0,0,0,0,0,0.0847564,-0.200315,-0.23961,-1.6775,0.25926,1.24534,0.401343,0.335915,0.00337125,0.426078,-0.0833305,0.585126,-0.0864697,-0.000366984,1.27307,-25.7347,2.43684,24.3604,3.11615,1.35583,-0.0163725,-1.94028,0.767715,-1.07851,0.382941,-0.352826,0.271784,0.351176,0.229775,0.0685292,-1.02754,0.785364,-0.814497,-0.0185858,
0.0953704,-0.201017,-0.231658,-1.6843,0.277824,-0.344116,-0.383118,0.490768,0.0152269,0.558239,-0.136115,0.910365,-0.260176,0.00679326,0,0,0,0,0,0,0,0.0847564,-0.200315,-0.23961,-1.6775,0.25926,1.24534,0.401343,0.335915,0.00337125,0.426078,-0.0833305,0.585126,-0.0864697,-0.000366984,1.27307,-25.7347,2.43684,24.3604,3.11615,1.35583,-0.0163725,-1.94028,0.767715,-1.07851,0.382941,-0.352826,0.271784,0.351176,0.229775,0.0685292,-1.02754,0.785364,-0.814497,-0.0185858,
0.0973277,-0.200957,-0.22943,-1.68484,0.281388,-0.345085,-0.383091,0.489324,0.0150901,0.557018,-0.133664,0.890997,-0.242218,0.00665785,0,0,0,0,0,0,0,0.0955344,-0.200249,-0.226249,-1.68023,0.276742,1.24425,0.401343,0.369536,0.00428841,0.42676,-0.0866965,0.541092,-0.00869144,3.05961e-06,1.30085,-26.1354,2.33766,24.4357,3.24432,1.24962,-0.0365141,-2.26565,0.369172,-0.950871,0.752013,-0.603837,0.0645653,0.138321,0.0633196,-0.173918,-0.992337,0.855572,-0.849729,-0.0162548,
0.0498949,-0.201085,-0.283165,-1.67007,0.195106,-0.294617,-0.383927,0.424952,-0.0663489,0.473971,-0.190014,0.510338,-0.260957,0.0105769,0,0,0,0,0,0,0,0.0955344,-0.200249,-0.226249,-1.68023,0.276742,1.24425,0.401343,0.369536,0.00428841,0.42676,-0.0866965,0.541092,-0.00869144,3.05961e-06,1.30085,-26.1354,2.33766,24.4357,3.24432,1.24962,-0.0365141,-2.04521,1.1113,-1.0112,0.274489,-0.394626,0.429773,0.500144,0.218099,0.22985,-1.06417,0.960482,-0.880785,-0.0185669,
0.100987,-0.200602,-0.220087,-1.68216,0.283393,-0.326465,-0.383942,0.484412,-0.0316781,0.549004,-0.171961,0.573587,-0.00752589,0.00954043,0,0,0,0,0,0,0,0.0955344,-0.200249,-0.226249,-1.68023,0.276742,1.24425,0.401343,0.369536,0.00428841,0.42676,-0.0866965,0.541092,-0.00869144,3.05961e-06,1.30085,-26.1354,2.33766,24.4357,3.24432,1.24962,-0.0365141,-2.04521,1.1113,-1.0112,0.274489,-0.394626,0.429773,0.500144,0.218099,0.22985,-1.06417,0.960482,-0.880785,-0.0185669,
0.103013,-0.200719,-0.217786,-1.68286,0.2858,-0.326539,-0.383904,0.506534,-0.0292864,0.575206,-0.176237,0.601877,-0.0183637,0.00954194,0,0,0,0,0,0,0,0.0955344,-0.200249,-0.226249,-1.68023,0.276742,1.24425,0.401343,0.369536,0.00428841,0.42676,-0.0866965,0.541092,-0.00869144,3.05961e-06,1.30085,-26.1354,2.33766,24.4357,3.24432,1.24962,-0.0365141,-1.52909,2.14778,-1.01573,-0.391667,0.0074502,0.944656,1.01135,0.477459,0.795617,-1.14045,1.11171,-0.905464,-0.0222369,
0.10511,-0.20082,-0.215402,-1.68357,0.288331,-0.326656,-0.383866,0.524226,-0.025356,0.596142,-0.177593,0.632839,-0.0293798,0.00939782,0,0,0,0,0,0,0,0.0955344,-0.200249,-0.226249,-1.68023,0.276742,1.24425,0.401343,0.369536,0.00428841,0.42676,-0.0866965,0.541092,-0.00869144,3.05961e-06,1.30085,-26.1354,2.33766,24.4357,3.24432,1.24962,-0.0365141,-1.52909,2.14778,-1.01573,-0.391667,0.0074502,0.944656,1.01135,0.477459,0.795617,-1.14045,1.11171,-0.905464,-0.0222369,
0.107265,-0.200906,-0.212949,-1.68429,0.290989,-0.326785,-0.383829,0.538652,-0.0215376,0.613077,-0.179008,0.664367,-0.0320289,0.00929559,0,0,0,0,0,0,0,0.0955344,-0.200249,-0.226249,-1.68023,0.276742,1.24425,0.401343,0.369536,0.00428841,0.42676,-0.0866965,0.541092,-0.00869144,3.05961e-06,1.30085,-26.1354,2.33766,24.4357,3.24432,1.24962,-0.0365141,-1.70533,2.44155,-0.870191,-0.592169,-0.156753,1.07968,1.12301,0.383125,0.969776,-1.09225,1.15905,-0.934833,-0.0207126,
0.109466,-0.200977,-0.210442,-1.68501,0.293769,-0.326902,-0.383792,0.550316,-0.0176848,0.626756,-0.179794,0.695088,-0.0294479,0.00920547,0,0,0,0,0,0,0,0.106737,-0.200225,-0.213029,-1.68289,0.291618,1.24449,0.401343,0.384652,-0.000529156,0.431631,-0.0804724,0.351401,0.0335867,-0.00144545,-1.00811,-26.2862,-0.33629,23.2892,2.3645,0.997854,-0.0163725,-1.70533,2.44155,-0.870191,-0.592169,-0.156753,1.07968,1.12301,0.383125,0.969776,-1.09225,1.15905,-0.934833,-0.0207126,
0.111704,-0.201032,-0.207891,-1.68573,0.296666,-0.326999,-0.383756,0.559649,-0.0138295,0.637737,-0.179759,0.724193,-0.024248,0.00912179,0,0,0,0,0,0,0,0.106737,-0.200225,-0.213029,-1.68289,0.291618,1.24449,0.401343,0.384652,-0.000529156,0.431631,-0.0804724,0.351401,0.0335867,-0.00144545,-1.00811,-26.2862,-0.33629,23.2892,2.3645,0.997854,-0.0163725,-2.83883,-1.05952,-1.27522,1.72568,-0.806742,-0.567401,-0.50604,-0.0158891,-0.880929,-1.10862,0.73744,-0.886486,-0.0158407,
0.113978,-0.201074,-0.205303,-1.68644,0.299622,-0.327069,-0.38372,0.56837,-0.0104744,0.647124,-0.178492,0.738947,-0.0173891,0.00888205,0,0,0,0,0,0,0,0.106737,-0.200225,-0.213029,-1.68289,0.291618,1.24449,0.401343,0.384652,-0.000529156,0.431631,-0.0804724,0.351401,0.0335867,-0.00144545,-1.00811,-26.2862,-0.33629,23.2892,2.3645,0.997854,-0.0163725,-3.21924,-1.56258,-1.47999,1.94059,-1.05238,-0.787777,-0.670419,-0.147079,-1.15148,-1.08506,0.561875,-0.83013,-0.0167251,
0.116281,-0.201105,-0.202682,-1.68715,0.302594,-0.327107,-0.383686,0.575776,-0.00762186,0.655284,-0.176585,0.742966,-0.00948232,0.0086529,0,0,0,0,0,0,0,0.106737,-0.200225,-0.213029,-1.68289,0.291618,1.24449,0.401343,0.384652,-0.000529156,0.431631,-0.0804724,0.351401,0.0335867,-0.00144545,-1.00811,-26.2862,-0.33629,23.2892,2.3645,0.997854,-0.0163725,-3.21924,-1.56258,-1.47999,1.94059,-1.05238,-0.787777,-0.670419,-0.147079,-1.15148,-1.08506,0.561875,-0.83013,-0.0167251,
0.118608,-0.201126,-0.200033,-1.68785,0.305554,-0.32711,-0.383652,0.581731,-0.00519003,0.66212,-0.174416,0.740162,-0.00090251,0.008453,0,0,0,0,0,0,0,0.106737,-0.200225,-0.213029,-1.68289,0.291618,1.24449,0.401343,0.384652,-0.000529156,0.431631,-0.0804724,0.351401,0.0335867,-0.00144545,-1.00811,-26.2862,-0.33629,23.2892,2.3645,0.997854,-0.0163725,-2.88363,-0.511265,-1.88992,1.14175,-0.63344,-0.269531,-0.195531,0.207322,-0.524979,-1.27869,0.581965,-0.850037,-0.0180146,
0.120953,-0.201138,-0.197363,-1.68853,0.308486,-0.327078,-0.383619,0.586328,-0.00310467,0.667609,-0.172157,0.73291,0.00813257,0.00827911,0,0,0,0,0,0,0,0.11844,-0.200248,-0.198121,-1.68575,0.303907,1.24644,0.401339,0.390746,0.00267232,0.461257,-0.0920884,0.40633,0.0895486,-0.00137697,2.46723,-26.0085,3.56355,24.1898,3.36059,0.971304,-0.0163725,-2.88363,-0.511265,-1.88992,1.14175,-0.63344,-0.269531,-0.195531,0.207322,-0.524979,-1.27869,0.581965,-0.850037,-0.0180146,
0.123312,-0.201143,-0.194676,-1.68921,0.311377,-0.327008,-0.383586,0.589704,-0.0013064,0.671823,-0.169886,0.722688,0.0174984,0.00811798,0,0,0,0,0,0,0,0.11844,-0.200248,-0.198121,-1.68575,0.303907,1.24644,0.401339,0.390746,0.00267232,0.461257,-0.0920884,0.40633,0.0895486,-0.00137697,2.46723,-26.0085,3.56355,24.1898,3.36059,0.971304,-0.0163725,-3.12285,1.16915,-1.65584,-0.120315,-0.914547,0.535855,0.565246,0.0905418,0.44538,-1.17232,0.66136,-0.890647,-0.0227437,
0.12568,-0.201142,-0.191976,-1.68988,0.314218,-0.326899,-0.383554,0.592003,0.000250553,0.674881,-0.167634,0.710445,0.0271206,0.00797135,0,0,0,0,0,0,0,0.11844,-0.200248,-0.198121,-1.68575,0.303907,1.24644,0.401339,0.390746,0.00267232,0.461257,-0.0920884,0.40633,0.0895486,-0.00137697,2.46723,-26.0085,3.56355,24.1898,3.36059,0.971304,-0.0163725,-2.43959,0.52906,-2.10243,0.155533,-0.328763,0.265338,0.297584,0.436817,0.156356,-1.27538,0.443032,-0.746257,-0.0216879,
0.128054,-0.201136,-0.189268,-1.69055,0.317006,-0.326752,-0.383523,0.593365,0.00160291,0.676915,-0.165411,0.696811,0.0369458,0.00783455,0,0,0,0,0,0,0,0.11844,-0.200248,-0.198121,-1.68575,0.303907,1.24644,0.401339,0.390746,0.00267232,0.461257,-0.0920884,0.40633,0.0895486,-0.00137697,2.46723,-26.0085,3.56355,24.1898,3.36059,0.971304,-0.0163725,-2.43959,0.52906,-2.10243,0.155533,-0.328763,0.265338,0.297584,0.436817,0.156356,-1.27538,0.443032,-0.746257,-0.0216879,
0.130429,-0.201125,-0.186556,-1.6912,0.319735,-0.326564,-0.383492,0.593918,0.00277988,0.678053,-0.163218,0.682232,0.0469336,0.00770296,0,0,0,0,0,0,0,0.11844,-0.200248,-0.198121,-1.68575,0.303907,1.24644,0.401339,0.390746,0.00267232,0.461257,-0.0920884,0.40633,0.0895486,-0.00137697,2.46723,-26.0085,3.56355,24.1898,3.36059,0.971304,-0.0163725,-2.26528,-0.127487,-2.5914,0.482203,-0.0723638,-0.0351173,-0.00214876,0.618052,-0.165236,-1.38779,0.260823,-0.650182,-0.0184753,
0.132804,-0.201109,-0.183843,-1.69184,0.322403,-0.326336,-0.383462,0.593773,0.00380637,0.678415,-0.161053,0.667064,0.0570458,0.00757735,0,0,0,0,0,0,0,0.11844,-0.200248,-0.198121,-1.68575,0.303907,1.24644,0.401339,0.390746,0.00267232,0.461257,-0.0920884,0.40633,0.0895486,-0.00137697,2.46723,-26.0085,3.56355,24.1898,3.36059,0.971304,-0.0163725,-2.26528,-0.127487,-2.5914,0.482203,-0.0723638,-0.0351173,-0.00214876,0.618052,-0.165236,-1.38779,0.260823,-0.650182,-0.0184753,
0.135176,-0.201091,-0.18113,-1.69248,0.32501,-0.326067,-0.383432,0.593023,0.00470565,0.678101,-0.158917,0.65165,0.0672435,0.0074563,0,0,0,0,0,0,0,0.135242,-0.200186,-0.178401,-1.68949,0.32333,1.2503,0.401345,0.422437,0.000856383,0.493197,-0.0840709,0.463993,0.0884824,0.000145407,1.30085,-26.6829,2.26228,24.5627,2.90191,1.70739,-0.0630644,-2.0049,0.0781066,-2.37045,0.32381,-0.0331948,0.0584397,0.0933612,0.580669,-0.0570103,-1.25908,0.286809,-0.574487,-0.0188911,
0.137543,-0.201069,-0.178421,-1.69311,0.327555,-0.325757,-0.383403,0.591734,0.005502,0.67719,-0.156818,0.636423,0.077487,0.0073336,0,0,0,0,0,0,0,0.135242,-0.200186,-0.178401,-1.68949,0.32333,1.2503,0.401345,0.422437,0.000856383,0.493197,-0.0840709,0.463993,0.0884824,0.000145407,1.30085,-26.6829,2.26228,24.5627,2.90191,1.70739,-0.0630644,-1.63794,-0.991331,-2.1527,1.11208,0.0542457,-0.471109,-0.437032,0.484304,-0.659852,-1.09079,0.26738,-0.422731,-0.0183884,
0.139903,-0.201044,-0.175719,-1.69373,0.330044,-0.325406,-0.383374,0.589936,0.00622634,0.675728,-0.154777,0.622091,0.0877268,0.00721903,0,0,0,0,0,0,0,0.135242,-0.200186,-0.178401,-1.68949,0.32333,1.2503,0.401345,0.422437,0.000856383,0.493197,-0.0840709,0.463993,0.0884824,0.000145407,1.30085,-26.6829,2.26228,24.5627,2.90191,1.70739,-0.0630644,-1.63794,-0.991331,-2.1527,1.11208,0.0542457,-0.471109,-0.437032,0.484304,-0.659852,-1.09079,0.26738,-0.422731,-0.0183884,
0.142253,-0.201016,-0.173024,-1.69434,0.332484,-0.325014,-0.383345,0.587548,0.0069249,0.673742,-0.152856,0.610018,0.0979046,0.0072137,0,0,0,0,0,0,0,0.135242,-0.200186,-0.178401,-1.68949,0.32333,1.2503,0.401345,0.422437,0.000856383,0.493197,-0.0840709,0.463993,0.0884824,0.000145407,1.30085,-26.6829,2.26228,24.5627,2.90191,1.70739,-0.0630644,-2.26353,0.0812466,-2.08412,0.39242,-0.523104,-0.00541845,0.0418377,0.166583,-0.133499,-0.937876,0.393835,-0.369977,-0.0215398,
0.144596,-0.200987,-0.170337,-1.69494,0.334849,-0.324582,-0.383317,0.58568,0.00737517,0.671708,-0.150524,0.591245,0.108113,0.00709414,0,0,0,0,0,0,0,0.135242,-0.200186,-0.178401,-1.68949,0.32333,1.2503,0.401345,0.422437,0.000856383,0.493197,-0.0840709,0.463993,0.0884824,0.000145407,1.30085,-26.6829,2.26228,24.5627,2.90191,1.70739,-0.0630644,-2.26353,0.0812466,-2.08412,0.39242,-0.523104,-0.00541845,0.0418377,0.166583,-0.133499,-0.937876,0.393835,-0.369977,-0.0215398,
0.14693,-0.200956,-0.167658,-1.69553,0.337125,-0.324109,-0.383289,0.583626,0.00764436,0.669692,-0.148131,0.56906,0.1183,0.00696002,0,0,0,0,0,0,0,0.14974,-0.199928,-0.161017,-1.69214,0.337023,1.25288,0.401343,0.45535,0.0125045,0.537487,-0.0724516,0.381252,0.0778075,-0.000300856,0.66608,-26.9328,1.41328,24.3604,3.18298,1.68084,-0.0227812,-2.76991,-1.15487,-2.08603,1.28,-0.949839,-0.607537,-0.557245,-0.161694,-0.812006,-0.822742,0.335095,-0.288452,-0.0172177,
0.149256,-0.200925,-0.164988,-1.69611,0.339306,-0.323595,-0.383262,0.581297,0.00780446,0.667518,-0.145793,0.545373,0.128391,0.00684103,0,0,0,0,0,0,0,0.14974,-0.199928,-0.161017,-1.69214,0.337023,1.25288,0.401343,0.45535,0.0125045,0.537487,-0.0724516,0.381252,0.0778075,-0.000300856,0.66608,-26.9328,1.41328,24.3604,3.18298,1.68084,-0.0227812,-2.76991,-1.15487,-2.08603,1.28,-0.949839,-0.607537,-0.557245,-0.161694,-0.812006,-0.822742,0.335095,-0.288452,-0.0172177,
0.15157,-0.200893,-0.162327,-1.69669,0.341391,-0.323042,-0.383235,0.578698,0.00790463,0.665113,-0.143535,0.521169,0.138337,0.00673384,0,0,0,0,0,0,0,0.14974,-0.199928,-0.161017,-1.69214,0.337023,1.25288,0.401343,0.45535,0.0125045,0.537487,-0.0724516,0.381252,0.0778075,-0.000300856,0.66608,-26.9328,1.41328,24.3604,3.18298,1.68084,-0.0227812,-2.33419,-0.0124571,-2.26297,0.548293,-0.581407,-0.0998745,-0.0713756,0.109677,-0.233493,-0.910673,0.499193,-0.260115,-0.0184838,
0.153874,-0.200861,-0.159678,-1.69725,0.343379,-0.322449,-0.383208,0.575858,0.00797349,0.662466,-0.141356,0.496948,0.148111,0.00663079,0,0,0,0,0,0,0,0.14974,-0.199928,-0.161017,-1.69214,0.337023,1.25288,0.401343,0.45535,0.0125045,0.537487,-0.0724516,0.381252,0.0778075,-0.000300856,0.66608,-26.9328,1.41328,24.3604,3.18298,1.68084,-0.0227812,-2.25045,1.60708,-2.35503,-0.505119,-0.464913,0.646744,0.674348,0.275547,0.596684,-0.985957,0.711327,-0.29613,-0.0202934,
0.156165,-0.200829,-0.157039,-1.69781,0.345271,-0.321818,-0.383182,0.572812,0.0080269,0.659594,-0.139246,0.47296,0.157699,0.00653299,0,0,0,0,0,0,0,0.14974,-0.199928,-0.161017,-1.69214,0.337023,1.25288,0.401343,0.45535,0.0125045,0.537487,-0.0724516,0.381252,0.0778075,-0.000300856,0.66608,-26.9328,1.41328,24.3604,3.18298,1.68084,-0.0227812,-2.25045,1.60708,-2.35503,-0.505119,-0.464913,0.646744,0.674348,0.275547,0.596684,-0.985957,0.711327,-0.29613,-0.0202934,
0.101437,-0.200811,-0.21964,-1.68241,0.281158,-0.324352,-0.383944,0.531574,-0.0494336,0.59986,-0.190503,0.32282,0.219606,0.00925105,0,0,0,0,0,0,0,0.14974,-0.199928,-0.161017,-1.69214,0.337023,1.25288,0.401343,0.45535,0.0125045,0.537487,-0.0724516,0.381252,0.0778075,-0.000300856,0.66608,-26.9328,1.41328,24.3604,3.18298,1.68084,-0.0227812,-2.14865,0.989269,-2.42621,-0.0512234,-0.380087,0.346534,0.368358,0.285305,0.257076,-0.986103,0.699564,-0.24397,-0.0200089,
0.156229,-0.200282,-0.153629,-1.69418,0.340826,-0.315227,-0.383945,0.568613,-0.0317239,0.649074,-0.182454,0.297305,0.254196,0.00923279,0,0,0,0,0,0,0,0.163601,-0.199585,-0.144324,-1.6943,0.346822,1.2557,0.401345,0.44587,0.0149571,0.545156,-0.0647279,0.269366,0.0906646,0.00108979,0.285221,-27.1828,0.687269,24.5627,3.31756,1.46844,-0.0566557,-2.14865,0.989269,-2.42621,-0.0512234,-0.380087,0.346534,0.368358,0.285305,0.257076,-0.986103,0.699564,-0.24397,-0.0200089,
0.158583,-0.200394,-0.150937,-1.69491,0.341977,-0.31415,-0.383909,0.588408,-0.0279722,0.67299,-0.184304,0.287755,0.269225,0.0090093,0,0,0,0,0,0,0,0.163601,-0.199585,-0.144324,-1.6943,0.346822,1.2557,0.401345,0.44587,0.0149571,0.545156,-0.0647279,0.269366,0.0906646,0.00108979,0.285221,-27.1828,0.687269,24.5627,3.31756,1.46844,-0.0566557,-2.07349,0.657076,-2.51579,0.209931,-0.245466,0.201448,0.229932,0.36638,0.0758578,-1.05709,0.718781,-0.264019,-0.0194831,
0.160998,-0.200487,-0.14817,-1.69565,0.343109,-0.313025,-0.383874,0.603847,-0.0234225,0.691685,-0.184287,0.2831,0.281453,0.00879233,0,0,0,0,0,0,0,0.163601,-0.199585,-0.144324,-1.6943,0.346822,1.2557,0.401345,0.44587,0.0149571,0.545156,-0.0647279,0.269366,0.0906646,0.00108979,0.285221,-27.1828,0.687269,24.5627,3.31756,1.46844,-0.0566557,-2.07349,0.657076,-2.51579,0.209931,-0.245466,0.201448,0.229932,0.36638,0.0758578,-1.05709,0.718781,-0.264019,-0.0194831,
0.163461,-0.200562,-0.145346,-1.69638,0.344243,-0.31186,-0.383839,0.615532,-0.0187039,0.706124,-0.183491,0.283376,0.291226,0.00873684,0,0,0,0,0,0,0,0.163601,-0.199585,-0.144324,-1.6943,0.346822,1.2557,0.401345,0.44587,0.0149571,0.545156,-0.0647279,0.269366,0.0906646,0.00108979,0.285221,-27.1828,0.687269,24.5627,3.31756,1.46844,-0.0566557,-1.70931,1.02543,-2.61137,-0.0414837,0.0934539,0.37541,0.393357,0.600704,0.272386,-1.15109,0.770599,-0.280847,-0.0201512,
0.165963,-0.20062,-0.142475,-1.69711,0.345345,-0.310663,-0.383805,0.625506,-0.0144302,0.717639,-0.181677,0.275497,0.299242,0.00855753,0,0,0,0,0,0,0,0.163601,-0.199585,-0.144324,-1.6943,0.346822,1.2557,0.401345,0.44587,0.0149571,0.545156,-0.0647279,0.269366,0.0906646,0.00108979,0.285221,-27.1828,0.687269,24.5627,3.31756,1.46844,-0.0566557,-1.75095,0.1117,-3.01803,0.51043,0.233076,-0.0367749,-0.0324052,0.706998,-0.173828,-1.29625,0.636496,-0.273657,-0.0197003,
0.168496,-0.200663,-0.139567,-1.69783,0.346393,-0.309439,-0.383772,0.633396,-0.0107168,0.726924,-0.179531,0.262058,0.305992,0.00837772,0,0,0,0,0,0,0,0.177867,-0.199442,-0.127142,-1.69632,0.352352,1.25949,0.401344,0.457532,0.00208136,0.562614,-0.0759355,0.115669,0.168514,0.000225669,2.84412,-27.0836,2.63917,23.9636,2.99987,1.50139,-0.0566557,-1.75095,0.1117,-3.01803,0.51043,0.233076,-0.0367749,-0.0324052,0.706998,-0.173828,-1.29625,0.636496,-0.273657,-0.0197003,
0.171053,-0.200693,-0.136631,-1.69854,0.347377,-0.308192,-0.383739,0.639311,-0.00751347,0.734165,-0.177386,0.245892,0.311809,0.00821584,0,0,0,0,0,0,0,0.177867,-0.199442,-0.127142,-1.69632,0.352352,1.25949,0.401344,0.457532,0.00208136,0.562614,-0.0759355,0.115669,0.168514,0.000225669,2.84412,-27.0836,2.63917,23.9636,2.99987,1.50139,-0.0566557,-2.92579,0.156245,-2.8828,0.411118,-0.711839,0.0590087,0.149919,0.171641,-0.118562,-1.12826,0.584231,-0.293449,-0.0190501,
0.173627,-0.200712,-0.133672,-1.69924,0.348291,-0.306924,-0.383706,0.64352,-0.00474331,0.739561,-0.175328,0.228447,0.316948,0.00807742,0,0,0,0,0,0,0,0.177867,-0.199442,-0.127142,-1.69632,0.352352,1.25949,0.401344,0.457532,0.00208136,0.562614,-0.0759355,0.115669,0.168514,0.000225669,2.84412,-27.0836,2.63917,23.9636,2.99987,1.50139,-0.0566557,-2.92579,0.156245,-2.8828,0.411118,-0.711839,0.0590087,0.149919,0.171641,-0.118562,-1.12826,0.584231,-0.293449,-0.0190501,
0.176213,-0.200721,-0.130699,-1.69993,0.349132,-0.305637,-0.383675,0.646284,-0.00233721,0.743351,-0.173359,0.210461,0.321614,0.00794565,0,0,0,0,0,0,0,0.177867,-0.199442,-0.127142,-1.69632,0.352352,1.25949,0.401344,0.457532,0.00208136,0.562614,-0.0759355,0.115669,0.168514,0.000225669,2.84412,-27.0836,2.63917,23.9636,2.99987,1.50139,-0.0566557,-2.79774,-0.709057,-2.96325,0.9408,-0.60113,-0.332943,-0.280072,0.191523,-0.519884,-1.14038,0.469686,-0.260102,-0.017079,
0.178804,-0.200722,-0.127716,-1.70062,0.349902,-0.304333,-0.383643,0.647836,-0.000239892,0.745771,-0.171459,0.192309,0.325964,0.00782408,0,0,0,0,0,0,0,0.177867,-0.199442,-0.127142,-1.69632,0.352352,1.25949,0.401344,0.457532,0.00208136,0.562614,-0.0759355,0.115669,0.168514,0.000225669,2.84412,-27.0836,2.63917,23.9636,2.99987,1.50139,-0.0566557,-2.79774,-0.709057,-2.96325,0.9408,-0.60113,-0.332943,-0.280072,0.191523,-0.519884,-1.14038,0.469686,-0.260102,-0.017079,
0.181397,-0.200716,-0.124728,-1.7013,0.350598,-0.303013,-0.383612,0.648376,0.00159349,0.747038,-0.169602,0.174183,0.330112,0.00771063,0,0,0,0,0,0,0,0.194111,-0.199458,-0.107625,-1.69891,0.354982,1.26695,0.40134,0.478956,0.000165478,0.578103,-0.0823702,0.0726289,0.239477,-0.000732338,1.30085,-26.8852,1.7624,24.761,2.63366,1.93261,-0.00996382,-2.73358,-0.773932,-3.16074,0.883185,-0.50742,-0.3513,-0.345294,0.275483,-0.485214,-1.19022,0.388878,-0.23522,-0.0188625,
0.18399,-0.200703,-0.121738,-1.70197,0.351223,-0.301676,-0.383582,0.648075,0.00319859,0.747338,-0.167768,0.156185,0.334135,0.00759938,0,0,0,0,0,0,0,0.194111,-0.199458,-0.107625,-1.69891,0.354982,1.26695,0.40134,0.478956,0.000165478,0.578103,-0.0823702,0.0726289,0.239477,-0.000732338,1.30085,-26.8852,1.7624,24.761,2.63366,1.93261,-0.00996382,-2.4199,0.738303,-3.03509,-0.280891,-0.417878,0.350948,0.350691,0.387858,0.336608,-1.10089,0.399933,-0.173621,-0.0218928,
0.186578,-0.200684,-0.118751,-1.70263,0.351777,-0.300324,-0.383552,0.647075,0.00460542,0.746835,-0.165943,0.138391,0.338085,0.00749086,0,0,0,0,0,0,0,0.194111,-0.199458,-0.107625,-1.69891,0.354982,1.26695,0.40134,0.478956,0.000165478,0.578103,-0.0823702,0.0726289,0.239477,-0.000732338,1.30085,-26.8852,1.7624,24.761,2.63366,1.93261,-0.00996382,-2.4199,0.738303,-3.03509,-0.280891,-0.417878,0.350948,0.350691,0.387858,0.336608,-1.10089,0.399933,-0.173621,-0.0218928,
0.18916,-0.200661,-0.115768,-1.70329,0.35226,-0.298956,-0.383523,0.64549,0.00584161,0.745656,-0.16412,0.12093,0.341988,0.007388,0,0,0,0,0,0,0,0.194111,-0.199458,-0.107625,-1.69891,0.354982,1.26695,0.40134,0.478956,0.000165478,0.578103,-0.0823702,0.0726289,0.239477,-0.000732338,1.30085,-26.8852,1.7624,24.761,2.63366,1.93261,-0.00996382,-2.10677,0.392658,-3.48479,-0.133562,-0.0613913,0.169339,0.183381,0.627793,0.129643,-1.24376,0.303134,-0.107533,-0.0199155,
0.191734,-0.200633,-0.112793,-1.70394,0.352677,-0.297573,-0.383493,0.643397,0.0069366,0.743896,-0.162308,0.104123,0.34585,0.00727414,0,0,0,0,0,0,0,0.194111,-0.199458,-0.107625,-1.69891,0.354982,1.26695,0.40134,0.478956,0.000165478,0.578103,-0.0823702,0.0726289,0.239477,-0.000732338,1.30085,-26.8852,1.7624,24.761,2.63366,1.93261,-0.00996382,-2.10677,0.392658,-3.48479,-0.133562,-0.0613913,0.169339,0.183381,0.627793,0.129643,-1.24376,0.303134,-0.107533,-0.0199155,
0.194297,-0.200602,-0.109827,-1.70458,0.353032,-0.296174,-0.383465,0.640811,0.00793083,0.741587,-0.160547,0.0888435,0.349646,0.0070789,0,0,0,0,0,0,0,0.194111,-0.199458,-0.107625,-1.69891,0.354982,1.26695,0.40134,0.478956,0.000165478,0.578103,-0.0823702,0.0726289,0.239477,-0.000732338,1.30085,-26.8852,1.7624,24.761,2.63366,1.93261,-0.00996382,-2.22713,1.90643,-3.70034,-1.19226,-0.0801666,0.872783,0.881602,0.763154,0.929398,-1.31612,0.437097,-0.111825,-0.0242824,
0.196847,-0.200566,-0.106872,-1.70522,0.353342,-0.294761,-0.383437,0.637505,0.00889095,0.73873,-0.158979,0.0774831,0.35332,0.00708899,0,0,0,0,0,0,0,0.209121,-0.19947,-0.0897671,-1.70115,0.356192,1.27465,0.401342,0.487682,0.000202478,0.578379,-0.071414,0.00149658,0.255936,-8.62434e-05,1.1977,-26.7107,1.36171,24.4873,2.64557,1.96557,-0.0365141,-1.63211,-0.279926,-3.418,0.326039,0.199342,-0.175248,-0.147559,0.676351,-0.271111,-1.1794,0.264641,-0.00672015,-0.0192254,
