PerkyPenguin/Analysis-on-Approximated-Derivatives/Code_and_Data/PaperData/Real_Robot/Scene_1/set_interval/14/trajectory.csv
Commanded Joint 0 Position,Commanded Joint 1 Position,Commanded Joint 2 Position,Commanded Joint 3 Position,Commanded Joint 4 Position,Commanded Joint 5 Position,Commanded Joint 6 Position,Commanded Joint 0 Velocity,Commanded Joint 1 Velocity,Commanded Joint 2 Velocity,Commanded Joint 3 Velocity,Commanded Joint 4 Velocity,Commanded Joint 5 Velocity,Commanded Joint 6 Velocity,Commanded Joint 0 Torque,Commanded Joint 1 Torque,Commanded Joint 2 Torque,Commanded Joint 3 Torque,Commanded Joint 4 Torque,Commanded Joint 5 Torque,Commanded Joint 6 Torque,Actual Joint 0 Position,Actual Joint 1 Position,Actual Joint 2 Position,Actual Joint 3 Position,Actual Joint 4 Position,Actual Joint 5 Position,Actual Joint 6 Position,Actual Joint 0 Velocity,Actual Joint 1 Velocity,Actual Joint 2 Velocity,Actual Joint 3 Velocity,Actual Joint 4 Velocity,Actual Joint 5 Velocity,Actual Joint 6 Velocity,Actual Joint 0 Torque,Actual Joint 1 Torque,Actual Joint 2 Torque,Actual Joint 3 Torque,Actual Joint 4 Torque,Actual Joint 5 Torque,Actual Joint 6 Torque,EE ext force 0,EE ext force 1,EE ext force 2,EE ext force 3,EE ext force 4,EE ext force 5,joint ext torque 0,joint ext torque 1,joint ext torque 2,joint ext torque 3,joint ext torque 4,joint ext torque 5,joint ext torque 6,
0.0119413,-0.201568,-0.335006,-1.65972,-0.0926998,-0.091687,-0.383342,-0.00158323,0.0164747,-0.011812,-0.151203,0.00371022,0.199504,-0.00217772,0,0,0,0,0,0,0,0.0119381,-0.201586,-0.334924,-1.6582,-0.0927214,1.47711,0.402073,-0.000810706,0.00020821,-0.000674593,0.000508357,0.00114282,-0.000117093,-0.000354179,-0.0718349,-25.4848,1.93696,25.9076,0.617672,2.98638,-0.0163725,-1.32349,-0.0447954,-0.57788,0.100174,-0.489597,-0.209967,-0.106645,-0.0568955,-0.309988,-0.359738,-0.143813,-0.307891,-0.039226,
0.0119296,-0.201429,-0.335066,-1.66036,-0.0926886,-0.0908617,-0.38335,-0.00293675,0.0347538,-0.014874,-0.160284,0.00279482,0.206325,-0.00206767,0,0,0,0,0,0,0,0.0119381,-0.201586,-0.334924,-1.6582,-0.0927214,1.47711,0.402073,-0.000810706,0.00020821,-0.000674593,0.000508357,0.00114282,-0.000117093,-0.000354179,-0.0718349,-25.4848,1.93696,25.9076,0.617672,2.98638,-0.0163725,-1.20911,-0.0916731,-0.611483,0.130899,-0.386572,-0.212027,-0.107165,0.00775569,-0.316452,-0.384982,-0.15507,-0.305939,-0.0374854,
0.0119325,-0.201587,-0.334931,-1.6582,-0.0927194,-0.0936824,-0.383325,-0.000238698,-0.000166009,-0.000313053,5.73219e-05,-0.0001797,6.70515e-05,1.07836e-05,0,0,0,0,0,0,0,0.0119381,-0.201586,-0.334924,-1.6582,-0.0927214,1.47711,0.402073,-0.000810706,0.00020821,-0.000674593,0.000508357,0.00114282,-0.000117093,-0.000354179,-0.0718349,-25.4848,1.93696,25.9076,0.617672,2.98638,-0.0163725,-1.20911,-0.0916731,-0.611483,0.130899,-0.386572,-0.212027,-0.107165,0.00775569,-0.316452,-0.384982,-0.15507,-0.305939,-0.0374854,
0.0119317,-0.201588,-0.334932,-1.6582,-0.0927205,-0.0936823,-0.383325,-0.000193725,-0.000181438,-0.000260195,5.9952e-05,-0.000263862,2.70754e-05,8.56954e-06,0,0,0,0,0,0,0,0.0119361,-0.201673,-0.334929,-1.65831,-0.0926736,1.47722,0.402078,0.000507768,-0.00954013,-0.00108471,-0.0172726,0.00285269,0.0245573,0.00202618,-0.0440639,-24.2629,1.91316,23.7653,0.27618,3.03307,-0.0630644,-0.911319,-0.0387676,-0.793766,0.122924,-0.10604,-0.136184,-0.0348769,0.189235,-0.241547,-0.474076,-0.142013,-0.290112,-0.0358424,
0.0119311,-0.201589,-0.334933,-1.6582,-0.0927217,-0.0936823,-0.383325,-0.000158731,-0.00019349,-0.000219867,6.37677e-05,-0.000311502,-7.99895e-06,6.99201e-06,0,0,0,0,0,0,0,0.0119361,-0.201673,-0.334929,-1.65831,-0.0926736,1.47722,0.402078,0.000507768,-0.00954013,-0.00108471,-0.0172726,0.00285269,0.0245573,0.00202618,-0.0440639,-24.2629,1.91316,23.7653,0.27618,3.03307,-0.0630644,-0.911319,-0.0387676,-0.793766,0.122924,-0.10604,-0.136184,-0.0348769,0.189235,-0.241547,-0.474076,-0.142013,-0.290112,-0.0358424,
0.0119306,-0.20159,-0.334934,-1.6582,-0.092723,-0.0936824,-0.383325,-0.000131097,-0.000203701,-0.00018871,6.73143e-05,-0.000335072,-3.84655e-05,5.83935e-06,0,0,0,0,0,0,0,0.0119361,-0.201673,-0.334929,-1.65831,-0.0926736,1.47722,0.402078,0.000507768,-0.00954013,-0.00108471,-0.0172726,0.00285269,0.0245573,0.00202618,-0.0440639,-24.2629,1.91316,23.7653,0.27618,3.03307,-0.0630644,-2.35209,0.398276,-1.08962,-0.177093,-1.13263,-0.195036,-0.0891084,-0.355805,-0.270928,-0.388166,-0.143024,-0.277689,-0.0369889,
0.0119301,-0.20159,-0.334935,-1.6582,-0.0927244,-0.0936827,-0.383325,-0.000109004,-0.000212741,-0.000164354,7.02973e-05,-0.000342981,-6.52132e-05,4.98207e-06,0,0,0,0,0,0,0,0.0119361,-0.201673,-0.334929,-1.65831,-0.0926736,1.47722,0.402078,0.000507768,-0.00954013,-0.00108471,-0.0172726,0.00285269,0.0245573,0.00202618,-0.0440639,-24.2629,1.91316,23.7653,0.27618,3.03307,-0.0630644,-2.35209,0.398276,-1.08962,-0.177093,-1.13263,-0.195036,-0.0891084,-0.355805,-0.270928,-0.388166,-0.143024,-0.277689,-0.0369889,
0.0119298,-0.201591,-0.334935,-1.6582,-0.0927258,-0.0936831,-0.383325,-9.11468e-05,-0.000220932,-0.000145102,7.27511e-05,-0.000340931,-8.90592e-05,4.33625e-06,0,0,0,0,0,0,0,0.0119361,-0.201673,-0.334929,-1.65831,-0.0926736,1.47722,0.402078,0.000507768,-0.00954013,-0.00108471,-0.0172726,0.00285269,0.0245573,0.00202618,-0.0440639,-24.2629,1.91316,23.7653,0.27618,3.03307,-0.0630644,-2.26976,0.237715,-1.53752,0.00296014,-0.920906,-0.24831,-0.139962,-0.173163,-0.350866,-0.547642,-0.150938,-0.258354,-0.0392227,
0.0119295,-0.201592,-0.334936,-1.6582,-0.0927271,-0.0936835,-0.383325,-7.65744e-05,-0.000228449,-0.000129725,7.47786e-05,-0.000332782,-0.000110617,3.84472e-06,0,0,0,0,0,0,0,0.0119361,-0.201673,-0.334929,-1.65831,-0.0926736,1.47722,0.402078,0.000507768,-0.00954013,-0.00108471,-0.0172726,0.00285269,0.0245573,0.00202618,-0.0440639,-24.2629,1.91316,23.7653,0.27618,3.03307,-0.0630644,-0.603362,-0.241485,-1.80125,0.41708,0.453609,-0.166966,-0.0648451,0.643725,-0.318828,-0.83886,-0.141902,-0.238688,-0.0371888,
0.0119292,-0.201593,-0.334936,-1.6582,-0.0927284,-0.093684,-0.383325,-6.45801e-05,-0.000235396,-0.000117325,7.64775e-05,-0.000321131,-0.000130315,3.46727e-06,0,0,0,0,0,0,0,0.0119451,-0.201624,-0.334917,-1.65849,-0.0926709,1.4777,0.402074,0.000208705,-0.000381039,-0.000191188,0.00509,0.00585363,-0.00070266,-0.00030988,-0.171017,-25.0881,1.83778,25.7806,0.251461,3.29125,-0.0163725,-0.603362,-0.241485,-1.80125,0.41708,0.453609,-0.166966,-0.0648451,0.643725,-0.318828,-0.83886,-0.141902,-0.238688,-0.0371888,
0.011929,-0.201594,-0.334937,-1.6582,-0.0927296,-0.0936846,-0.383325,-5.4633e-05,-0.000241839,-0.00010724,7.79242e-05,-0.000307708,-0.000148443,3.17511e-06,0,0,0,0,0,0,0,0.0119451,-0.201624,-0.334917,-1.65849,-0.0926709,1.4777,0.402074,0.000208705,-0.000381039,-0.000191188,0.00509,0.00585363,-0.00070266,-0.00030988,-0.171017,-25.0881,1.83778,25.7806,0.251461,3.29125,-0.0163725,-1.32615,-0.00400221,-1.1891,0.127005,-0.36798,-0.190855,-0.0856576,0.0650865,-0.301176,-0.481725,-0.143699,-0.202231,-0.036059,
0.0119288,-0.201595,-0.334937,-1.6582,-0.0927308,-0.0936853,-0.383325,-4.63298e-05,-0.000247824,-9.89734e-05,7.91751e-05,-0.000293646,-0.000165201,2.94733e-06,0,0,0,0,0,0,0,0.0119451,-0.201624,-0.334917,-1.65849,-0.0926709,1.4777,0.402074,0.000208705,-0.000381039,-0.000191188,0.00509,0.00585363,-0.00070266,-0.00030988,-0.171017,-25.0881,1.83778,25.7806,0.251461,3.29125,-0.0163725,-1.32615,-0.00400221,-1.1891,0.127005,-0.36798,-0.190855,-0.0856576,0.0650865,-0.301176,-0.481725,-0.143699,-0.202231,-0.036059,
0.0119286,-0.201596,-0.334937,-1.6582,-0.0927319,-0.093686,-0.383325,-3.93598e-05,-0.000253386,-9.21539e-05,8.02708e-05,-0.000279671,-0.000180723,2.76861e-06,0,0,0,0,0,0,0,0.0119451,-0.201624,-0.334917,-1.65849,-0.0926709,1.4777,0.402074,0.000208705,-0.000381039,-0.000191188,0.00509,0.00585363,-0.00070266,-0.00030988,-0.171017,-25.0881,1.83778,25.7806,0.251461,3.29125,-0.0163725,-0.749452,-0.0106546,-1.63997,0.210692,0.269216,-0.0849292,0.0269162,0.508847,-0.22042,-0.747075,-0.140089,-0.226744,-0.0402789,
0.0119285,-0.201597,-0.334938,-1.6582,-0.092733,-0.0936868,-0.383325,-3.34812e-05,-0.000258554,-8.64965e-05,8.12408e-05,-0.000266231,-0.00019511,2.62758e-06,0,0,0,0,0,0,0,0.0119451,-0.201624,-0.334917,-1.65849,-0.0926709,1.4777,0.402074,0.000208705,-0.000381039,-0.000191188,0.00509,0.00585363,-0.00070266,-0.00030988,-0.171017,-25.0881,1.83778,25.7806,0.251461,3.29125,-0.0163725,-0.749452,-0.0106546,-1.63997,0.210692,0.269216,-0.0849292,0.0269162,0.508847,-0.22042,-0.747075,-0.140089,-0.226744,-0.0402789,
0.0119284,-0.201598,-0.334938,-1.6582,-0.092734,-0.0936876,-0.383325,-2.85034e-05,-0.000263351,-8.17821e-05,8.21065e-05,-0.000253587,-0.000208438,2.51577e-06,0,0,0,0,0,0,0,0.0119335,-0.201535,-0.334926,-1.65843,-0.0927155,1.47776,0.402073,-4.69228e-05,-0.0014224,0.000733527,-0.000256873,0.00210074,0.000876478,-0.000189171,-0.0202602,-25.9371,1.96077,25.7568,0.60577,2.97356,-0.0163725,-1.88501,0.215746,-1.2973,-0.0191272,-0.729175,-0.185156,-0.0570664,-0.110652,-0.299934,-0.486381,-0.149659,-0.238223,-0.0403481,
0.0119283,-0.201599,-0.334938,-1.6582,-0.092735,-0.0936885,-0.383325,-2.42744e-05,-0.000267801,-7.78394e-05,8.28841e-05,-0.000241874,-0.00022077,2.42678e-06,0,0,0,0,0,0,0,0.0119335,-0.201535,-0.334926,-1.65843,-0.0927155,1.47776,0.402073,-4.69228e-05,-0.0014224,0.000733527,-0.000256873,0.00210074,0.000876478,-0.000189171,-0.0202602,-25.9371,1.96077,25.7568,0.60577,2.97356,-0.0163725,-1.56494,0.102239,-1.24282,0.0656358,-0.501327,-0.181173,-0.0516063,0.00993715,-0.30697,-0.506725,-0.145416,-0.238133,-0.0378385,
0.0119282,-0.2016,-0.334939,-1.65819,-0.0927359,-0.0936894,-0.383325,-2.0672e-05,-0.000271925,-7.45334e-05,8.3586e-05,-0.000231144,-0.000232162,2.35575e-06,0,0,0,0,0,0,0,0.0119335,-0.201535,-0.334926,-1.65843,-0.0927155,1.47776,0.402073,-4.69228e-05,-0.0014224,0.000733527,-0.000256873,0.00210074,0.000876478,-0.000189171,-0.0202602,-25.9371,1.96077,25.7568,0.60577,2.97356,-0.0163725,-1.56494,0.102239,-1.24282,0.0656358,-0.501327,-0.181173,-0.0516063,0.00993715,-0.30697,-0.506725,-0.145416,-0.238133,-0.0378385,
0.0119281,-0.201601,-0.334939,-1.65819,-0.0927368,-0.0936904,-0.383325,-1.75967e-05,-0.000275745,-7.17561e-05,8.42221e-05,-0.000221397,-0.000242666,2.29894e-06,0,0,0,0,0,0,0,0.0119335,-0.201535,-0.334926,-1.65843,-0.0927155,1.47776,0.402073,-4.69228e-05,-0.0014224,0.000733527,-0.000256873,0.00210074,0.000876478,-0.000189171,-0.0202602,-25.9371,1.96077,25.7568,0.60577,2.97356,-0.0163725,-1.48399,0.102998,-1.22488,0.0828328,-0.424628,-0.16761,-0.0433151,0.0598159,-0.292873,-0.535586,-0.1314,-0.263735,-0.0379718,
0.0119281,-0.201603,-0.334939,-1.65819,-0.0927376,-0.0936914,-0.383325,-1.49668e-05,-0.00027928,-6.94207e-05,8.48003e-05,-0.000212598,-0.000252333,2.25348e-06,0,0,0,0,0,0,0,0.0119335,-0.201535,-0.334926,-1.65843,-0.0927155,1.47776,0.402073,-4.69228e-05,-0.0014224,0.000733527,-0.000256873,0.00210074,0.000876478,-0.000189171,-0.0202602,-25.9371,1.96077,25.7568,0.60577,2.97356,-0.0163725,-1.48399,0.102998,-1.22488,0.0828328,-0.424628,-0.16761,-0.0433151,0.0598159,-0.292873,-0.535586,-0.1314,-0.263735,-0.0379718,
0.011928,-0.201604,-0.334939,-1.65819,-0.0927385,-0.0936924,-0.383325,-1.27147e-05,-0.000282551,-6.74563e-05,8.53273e-05,-0.000204695,-0.000261211,2.21709e-06,0,0,0,0,0,0,0,0.0119335,-0.201535,-0.334926,-1.65843,-0.0927155,1.47776,0.402073,-4.69228e-05,-0.0014224,0.000733527,-0.000256873,0.00210074,0.000876478,-0.000189171,-0.0202602,-25.9371,1.96077,25.7568,0.60577,2.97356,-0.0163725,-1.8134,0.167482,-1.12812,-0.000280485,-0.7193,-0.194068,-0.0706342,-0.124393,-0.305259,-0.449932,-0.147668,-0.255476,-0.0418237,
0.011928,-0.201605,-0.33494,-1.65819,-0.0927392,-0.0936935,-0.383325,-1.07842e-05,-0.000285576,-6.58047e-05,8.58087e-05,-0.000197622,-0.000269349,2.18802e-06,0,0,0,0,0,0,0,0.0119451,-0.201536,-0.334912,-1.65841,-0.0927142,1.47778,0.402077,0.000800663,0.00546773,0.00201693,0.00144863,-0.000955876,0.00528183,0.00119031,-0.171017,-25.7347,1.7624,25.6815,0.599362,2.80785,-0.0566557,-1.94415,0.0971377,-1.18421,0.058609,-0.774165,-0.251485,-0.131561,-0.135871,-0.36566,-0.478792,-0.160781,-0.279447,-0.0405525,
0.0119279,-0.201606,-0.33494,-1.65819,-0.09274,-0.0936946,-0.383325,-9.12809e-06,-0.000288375,-6.44178e-05,8.62496e-05,-0.000191313,-0.000276795,2.16483e-06,0,0,0,0,0,0,0,0.0119451,-0.201536,-0.334912,-1.65841,-0.0927142,1.47778,0.402077,0.000800663,0.00546773,0.00201693,0.00144863,-0.000955876,0.00528183,0.00119031,-0.171017,-25.7347,1.7624,25.6815,0.599362,2.80785,-0.0566557,-1.94415,0.0971377,-1.18421,0.058609,-0.774165,-0.251485,-0.131561,-0.135871,-0.36566,-0.478792,-0.160781,-0.279447,-0.0405525,
0.0119279,-0.201607,-0.33494,-1.65819,-0.0927407,-0.0936958,-0.383325,-7.70652e-06,-0.000290965,-6.32556e-05,8.66543e-05,-0.000185697,-0.000283595,2.14643e-06,0,0,0,0,0,0,0,0.0119451,-0.201536,-0.334912,-1.65841,-0.0927142,1.47778,0.402077,0.000800663,0.00546773,0.00201693,0.00144863,-0.000955876,0.00528183,0.00119031,-0.171017,-25.7347,1.7624,25.6815,0.599362,2.80785,-0.0566557,-1.76945,0.0537419,-0.965989,0.0625101,-0.715479,-0.244347,-0.133507,-0.134622,-0.348888,-0.422599,-0.157369,-0.282587,-0.0378658,
0.0119279,-0.201608,-0.33494,-1.65819,-0.0927415,-0.0936969,-0.383325,-6.48588e-06,-0.000293362,-6.22844e-05,8.70267e-05,-0.000180708,-0.000289796,2.13189e-06,0,0,0,0,0,0,0,0.0119451,-0.201536,-0.334912,-1.65841,-0.0927142,1.47778,0.402077,0.000800663,0.00546773,0.00201693,0.00144863,-0.000955876,0.00528183,0.00119031,-0.171017,-25.7347,1.7624,25.6815,0.599362,2.80785,-0.0566557,-1.76945,0.0537419,-0.965989,0.0625101,-0.715479,-0.244347,-0.133507,-0.134622,-0.348888,-0.422599,-0.157369,-0.282587,-0.0378658,
0.0119279,-0.20161,-0.334941,-1.65819,-0.0927422,-0.0936981,-0.383325,-5.43756e-06,-0.000295584,-6.14759e-05,8.73702e-05,-0.000176284,-0.000295441,2.12049e-06,0,0,0,0,0,0,0,0.0119451,-0.201536,-0.334912,-1.65841,-0.0927142,1.47778,0.402077,0.000800663,0.00546773,0.00201693,0.00144863,-0.000955876,0.00528183,0.00119031,-0.171017,-25.7347,1.7624,25.6815,0.599362,2.80785,-0.0566557,-1.44839,0.0806655,-1.01723,0.0556099,-0.46633,-0.172662,-0.0704088,0.00814232,-0.272111,-0.464877,-0.142128,-0.265316,-0.04062,
0.0119279,-0.201611,-0.334941,-1.65819,-0.0927429,-0.0936993,-0.383325,-4.53718e-06,-0.000297645,-6.08063e-05,8.7688e-05,-0.000172364,-0.000300573,2.11165e-06,0,0,0,0,0,0,0,0.0119478,-0.201573,-0.334905,-1.65841,-0.0927161,1.47778,0.402076,-0.000631158,0.00282404,-0.000250438,-0.000968897,-0.0055681,0.00382927,0.00029026,-0.119442,-25.2626,1.86159,25.8322,0.63049,2.8875,-0.050247,-1.44839,0.0806655,-1.01723,0.0556099,-0.46633,-0.172662,-0.0704088,0.00814232,-0.272111,-0.464877,-0.142128,-0.265316,-0.04062,
0.0119278,-0.201612,-0.334941,-1.65819,-0.0927435,-0.0937005,-0.383325,-3.76392e-06,-0.000299559,-6.02551e-05,8.79829e-05,-0.000168895,-0.000305232,2.10487e-06,0,0,0,0,0,0,0,0.0119478,-0.201573,-0.334905,-1.65841,-0.0927161,1.47778,0.402076,-0.000631158,0.00282404,-0.000250438,-0.000968897,-0.0055681,0.00382927,0.00029026,-0.119442,-25.2626,1.86159,25.8322,0.63049,2.8875,-0.050247,-1.06785,0.00689292,-1.05344,0.132472,-0.151324,-0.137453,-0.0368661,0.19591,-0.247157,-0.535827,-0.129873,-0.274522,-0.0411307,
0.011814,-0.201534,-0.335021,-1.65808,-0.091217,-0.0945865,-0.383324,-0.011569,0.00355309,-0.0104742,0.00931217,0.170801,-0.10232,0.000378873,0,0,0,0,0,0,0,0.0119478,-0.201573,-0.334905,-1.65841,-0.0927161,1.47778,0.402076,-0.000631158,0.00282404,-0.000250438,-0.000968897,-0.0055681,0.00382927,0.00029026,-0.119442,-25.2626,1.86159,25.8322,0.63049,2.8875,-0.050247,-1.36552,-0.0675294,-0.687873,0.113377,-0.521009,-0.227712,-0.118455,-0.0747583,-0.333443,-0.352231,-0.152794,-0.264376,-0.0370367,
0.0118265,-0.201497,-0.335,-1.65831,-0.0912824,-0.0938781,-0.383321,-0.0113828,0.00535155,-0.0103303,0.00843983,0.165314,-0.0996777,0.000350975,0,0,0,0,0,0,0,0.0119478,-0.201573,-0.334905,-1.65841,-0.0927161,1.47778,0.402076,-0.000631158,0.00282404,-0.000250438,-0.000968897,-0.0055681,0.00382927,0.00029026,-0.119442,-25.2626,1.86159,25.8322,0.63049,2.8875,-0.050247,-1.36552,-0.0675294,-0.687873,0.113377,-0.521009,-0.227712,-0.118455,-0.0747583,-0.333443,-0.352231,-0.152794,-0.264376,-0.0370367,
0.0117815,-0.201482,-0.335044,-1.65828,-0.0904947,-0.0943578,-0.383319,-0.011261,0.00380697,-0.0109412,0.00700082,0.196924,-0.119926,0.0004792,0,0,0,0,0,0,0,0.0119478,-0.201573,-0.334905,-1.65841,-0.0927161,1.47778,0.402076,-0.000631158,0.00282404,-0.000250438,-0.000968897,-0.0055681,0.00382927,0.00029026,-0.119442,-25.2626,1.86159,25.8322,0.63049,2.8875,-0.050247,-0.914857,-0.127145,-0.938088,0.20606,-0.0820125,-0.172964,-0.0665685,0.213495,-0.292649,-0.501417,-0.142204,-0.263214,-0.0376089,
0.0117389,-0.201472,-0.335087,-1.65826,-0.0896094,-0.0949041,-0.383317,-0.0106397,0.00242854,-0.010789,0.00561767,0.221347,-0.136567,0.00055011,0,0,0,0,0,0,0,0.0119478,-0.201573,-0.334905,-1.65841,-0.0927161,1.47778,0.402076,-0.000631158,0.00282404,-0.000250438,-0.000968897,-0.0055681,0.00382927,0.00029026,-0.119442,-25.2626,1.86159,25.8322,0.63049,2.8875,-0.050247,-0.914857,-0.127145,-0.938088,0.20606,-0.0820125,-0.172964,-0.0665685,0.213495,-0.292649,-0.501417,-0.142204,-0.263214,-0.0376089,
0.0117,-0.201467,-0.335128,-1.65824,-0.0886478,-0.0955052,-0.383314,-0.0097373,0.00129372,-0.0101703,0.00442144,0.240377,-0.150277,0.000585903,0,0,0,0,0,0,0,0.0119413,-0.201626,-0.334909,-1.65837,-0.0926839,1.47777,0.402079,0.00126331,0.0025342,6.99737e-05,0.00451659,-0.00537581,0.00444125,8.3098e-05,-0.0718349,-24.8619,1.91316,25.8084,0.507809,3.00652,-0.0630644,-0.989391,-0.0488912,-0.845668,0.161664,-0.179038,-0.14715,-0.0408494,0.141527,-0.263388,-0.461859,-0.110908,-0.267933,-0.0416587,
0.0116652,-0.201465,-0.335165,-1.65822,-0.0876266,-0.0961514,-0.383312,-0.00869187,0.000399452,-0.0092822,0.00341909,0.255309,-0.161543,0.000599378,0,0,0,0,0,0,0,0.0119413,-0.201626,-0.334909,-1.65837,-0.0926839,1.47777,0.402079,0.00126331,0.0025342,6.99737e-05,0.00451659,-0.00537581,0.00444125,8.3098e-05,-0.0718349,-24.8619,1.91316,25.8084,0.507809,3.00652,-0.0630644,-0.999259,-0.377286,-0.556771,0.368158,-0.311017,-0.295368,-0.181368,0.01113,-0.434109,-0.336497,-0.114741,-0.249207,-0.0415993,
0.0116348,-0.201466,-0.335198,-1.65821,-0.0865583,-0.0968344,-0.38331,-0.0075921,-0.000282252,-0.00825513,0.00258522,0.267088,-0.170751,0.000598587,0,0,0,0,0,0,0,0.0119413,-0.201626,-0.334909,-1.65837,-0.0926839,1.47777,0.402079,0.00126331,0.0025342,6.99737e-05,0.00451659,-0.00537581,0.00444125,8.3098e-05,-0.0718349,-24.8619,1.91316,25.8084,0.507809,3.00652,-0.0630644,-0.999259,-0.377286,-0.556771,0.368158,-0.311017,-0.295368,-0.181368,0.01113,-0.434109,-0.336497,-0.114741,-0.249207,-0.0415993,
0.0116089,-0.20147,-0.335227,-1.65821,-0.0854526,-0.0975473,-0.383307,-0.00649439,-0.00078486,-0.00717471,0.00189045,0.276415,-0.178228,0.000588578,0,0,0,0,0,0,0,0.0119413,-0.201626,-0.334909,-1.65837,-0.0926839,1.47777,0.402079,0.00126331,0.0025342,6.99737e-05,0.00451659,-0.00537581,0.00444125,8.3098e-05,-0.0718349,-24.8619,1.91316,25.8084,0.507809,3.00652,-0.0630644,-0.752973,-0.373911,-0.622309,0.474863,-0.120972,-0.250251,-0.125604,0.117147,-0.420643,-0.397937,-0.0140645,-0.256534,-0.0383398,
0.0115871,-0.201474,-0.335251,-1.6582,-0.0843174,-0.0982843,-0.383305,-0.00543377,-0.00114056,-0.00609603,0.001309,0.283812,-0.184253,0.000572991,0,0,0,0,0,0,0,0.0119413,-0.201626,-0.334909,-1.65837,-0.0926839,1.47777,0.402079,0.00126331,0.0025342,6.99737e-05,0.00451659,-0.00537581,0.00444125,8.3098e-05,-0.0718349,-24.8619,1.91316,25.8084,0.507809,3.00652,-0.0630644,-0.752973,-0.373911,-0.622309,0.474863,-0.120972,-0.250251,-0.125604,0.117147,-0.420643,-0.397937,-0.0140645,-0.256534,-0.0383398,
0.0115694,-0.20148,-0.335271,-1.6582,-0.0831587,-0.0990405,-0.383303,-0.0044309,-0.00137805,-0.0050534,0.000820032,0.289674,-0.189061,0.000554206,0,0,0,0,0,0,0,0.0118684,-0.201557,-0.334974,-1.65834,-0.0901022,1.47773,0.402082,-0.00498287,-0.00119115,-0.0016198,-0.000519122,0.0963919,-0.00414395,0.000831199,0.511356,-25.6117,2.28609,26.0822,1.05804,2.98638,-0.0767973,-1.17706,-0.355731,-0.204433,0.457664,-0.633073,-0.312958,-0.171624,-0.254778,-0.492996,-0.18079,0.0479977,-0.248984,-0.0407146,
0.0115554,-0.201486,-0.335287,-1.6582,-0.0819815,-0.099812,-0.383301,-0.00349689,-0.00152197,-0.00406713,0.000407043,0.294301,-0.192854,0.000533811,0,0,0,0,0,0,0,0.0118684,-0.201557,-0.334974,-1.65834,-0.0901022,1.47773,0.402082,-0.00498287,-0.00119115,-0.0016198,-0.000519122,0.0963919,-0.00414395,0.000831199,0.511356,-25.6117,2.28609,26.0822,1.05804,2.98638,-0.0767973,-1.17706,-0.355731,-0.204433,0.457664,-0.633073,-0.312958,-0.171624,-0.254778,-0.492996,-0.18079,0.0479977,-0.248984,-0.0407146,
0.0115449,-0.201492,-0.3353,-1.6582,-0.0807898,-0.100595,-0.383299,-0.00263653,-0.00159306,-0.0031481,5.70374e-05,0.297926,-0.1958,0.000512818,0,0,0,0,0,0,0,0.0118684,-0.201557,-0.334974,-1.65834,-0.0901022,1.47773,0.402082,-0.00498287,-0.00119115,-0.0016198,-0.000519122,0.0963919,-0.00414395,0.000831199,0.511356,-25.6117,2.28609,26.0822,1.05804,2.98638,-0.0767973,-0.649267,-0.341843,-0.472782,0.563883,-0.130932,-0.206386,-0.0568914,0.0697559,-0.418266,-0.363749,0.123293,-0.266044,-0.0441441,
0.0115375,-0.201498,-0.335309,-1.6582,-0.0795868,-0.101387,-0.383297,-0.00185047,-0.00160849,-0.002301,-0.000240289,0.300729,-0.198043,0.000491982,0,0,0,0,0,0,0,0.0118684,-0.201557,-0.334974,-1.65834,-0.0901022,1.47773,0.402082,-0.00498287,-0.00119115,-0.0016198,-0.000519122,0.0963919,-0.00414395,0.000831199,0.511356,-25.6117,2.28609,26.0822,1.05804,2.98638,-0.0767973,-0.579373,-0.244591,-0.461456,0.578177,-0.0850988,-0.153761,-0.00561328,0.091839,-0.374955,-0.391424,0.212207,-0.290994,-0.0401869,
0.0115329,-0.201505,-0.335315,-1.6582,-0.0783754,-0.102186,-0.383295,-0.00113681,-0.00158232,-0.00152642,-0.000493182,0.302852,-0.199703,0.000471718,0,0,0,0,0,0,0,0.0118684,-0.201557,-0.334974,-1.65834,-0.0901022,1.47773,0.402082,-0.00498287,-0.00119115,-0.0016198,-0.000519122,0.0963919,-0.00414395,0.000831199,0.511356,-25.6117,2.28609,26.0822,1.05804,2.98638,-0.0767973,-0.579373,-0.244591,-0.461456,0.578177,-0.0850988,-0.153761,-0.00561328,0.091839,-0.374955,-0.391424,0.212207,-0.290994,-0.0401869,
0.011531,-0.201511,-0.335319,-1.6582,-0.0771578,-0.10299,-0.383293,-0.000492024,-0.00152591,-0.000822454,-0.000708301,0.304409,-0.200878,0.000452314,0,0,0,0,0,0,0,0.0118684,-0.201557,-0.334974,-1.65834,-0.0901022,1.47773,0.402082,-0.00498287,-0.00119115,-0.0016198,-0.000519122,0.0963919,-0.00414395,0.000831199,0.511356,-25.6117,2.28609,26.0822,1.05804,2.98638,-0.0767973,-0.822505,-0.0730669,-0.325697,0.489033,-0.31052,-0.125231,0.0228419,-0.0522317,-0.340104,-0.341839,0.269488,-0.324752,-0.0353473,
0.0115313,-0.201517,-0.335319,-1.65821,-0.0759358,-0.103796,-0.383291,8.82472e-05,-0.00144838,-0.000185636,-0.000891094,0.305489,-0.201652,0.000433895,0,0,0,0,0,0,0,0.0118722,-0.201572,-0.334981,-1.65833,-0.0865912,1.47758,0.40208,-0.0011017,0.000688528,-0.00104023,-0.00103841,0.108218,-0.00702246,0.000126483,0.412174,-25.4094,2.28609,25.856,1.49749,2.72179,-0.0429228,-0.822505,-0.0730669,-0.325697,0.489033,-0.31052,-0.125231,0.0228419,-0.0522317,-0.340104,-0.341839,0.269488,-0.324752,-0.0353473,
0.0115337,-0.201522,-0.335318,-1.65821,-0.0747112,-0.104605,-0.383289,0.000608781,-0.00135694,0.000388353,-0.00104605,0.306168,-0.202095,0.000416613,0,0,0,0,0,0,0,0.0118722,-0.201572,-0.334981,-1.65833,-0.0865912,1.47758,0.40208,-0.0011017,0.000688528,-0.00104023,-0.00103841,0.108218,-0.00702246,0.000126483,0.412174,-25.4094,2.28609,25.856,1.49749,2.72179,-0.0429228,-0.53088,0.13746,-0.27727,0.421884,-0.0922457,0.0224828,0.161848,0.0694704,-0.188859,-0.399061,0.369446,-0.36562,-0.0372123,
0.011538,-0.201527,-0.335314,-1.65821,-0.0734851,-0.105414,-0.383288,0.00107449,-0.00125723,0.00090421,-0.0011769,0.306504,-0.202262,0.00040037,0,0,0,0,0,0,0,0.0118722,-0.201572,-0.334981,-1.65833,-0.0865912,1.47758,0.40208,-0.0011017,0.000688528,-0.00104023,-0.00103841,0.108218,-0.00702246,0.000126483,0.412174,-25.4094,2.28609,25.856,1.49749,2.72179,-0.0429228,-0.53088,0.13746,-0.27727,0.421884,-0.0922457,0.0224828,0.161848,0.0694704,-0.188859,-0.399061,0.369446,-0.36562,-0.0372123,
0.011544,-0.201532,-0.335309,-1.65822,-0.072259,-0.106223,-0.383286,0.00149017,-0.0011536,0.00136674,-0.00128681,0.306549,-0.202202,0.000385234,0,0,0,0,0,0,0,0.0118722,-0.201572,-0.334981,-1.65833,-0.0865912,1.47758,0.40208,-0.0011017,0.000688528,-0.00104023,-0.00103841,0.108218,-0.00702246,0.000126483,0.412174,-25.4094,2.28609,25.856,1.49749,2.72179,-0.0429228,-0.989631,0.288863,7.81801e-05,0.316309,-0.542021,0.00822197,0.144882,-0.226713,-0.188803,-0.262671,0.418185,-0.391726,-0.0375786,
0.0115515,-0.201536,-0.335302,-1.65823,-0.0710336,-0.10703,-0.383285,0.00186043,-0.00104939,0.00178067,-0.00137845,0.306343,-0.201955,0.000371193,0,0,0,0,0,0,0,0.0118722,-0.201572,-0.334981,-1.65833,-0.0865912,1.47758,0.40208,-0.0011017,0.000688528,-0.00104023,-0.00103841,0.108218,-0.00702246,0.000126483,0.412174,-25.4094,2.28609,25.856,1.49749,2.72179,-0.0429228,-0.981904,0.153035,-0.050414,0.44077,-0.49708,-0.0564023,0.0687631,-0.184515,-0.258301,-0.306175,0.422564,-0.41464,-0.0340901,
0.0115602,-0.20154,-0.335293,-1.65823,-0.0698099,-0.107837,-0.383283,0.00218961,-0.000947069,0.00215051,-0.00145409,0.305922,-0.201552,0.000358026,0,0,0,0,0,0,0,0.0119108,-0.201565,-0.334946,-1.65833,-0.0829402,1.47742,0.402074,0.00175458,0.00459022,0.00148767,-0.00190874,0.11631,-0.00208767,-0.000270418,-0.0440639,-25.5126,1.91316,25.9076,1.46728,2.68151,-0.0301054,-0.981904,0.153035,-0.050414,0.44077,-0.49708,-0.0564023,0.0687631,-0.184515,-0.258301,-0.306175,0.422564,-0.41464,-0.0340901,
0.0115701,-0.201543,-0.335283,-1.65824,-0.0685886,-0.108641,-0.383282,0.00248174,-0.000848429,0.00248048,-0.00151567,0.305315,-0.201021,0.000345812,0,0,0,0,0,0,0,0.0119108,-0.201565,-0.334946,-1.65833,-0.0829402,1.47742,0.402074,0.00175458,0.00459022,0.00148767,-0.00190874,0.11631,-0.00208767,-0.000270418,-0.0440639,-25.5126,1.91316,25.9076,1.46728,2.68151,-0.0301054,-0.709803,0.158704,-0.171681,0.503781,-0.204917,-0.0069518,0.102156,0.0173677,-0.209769,-0.434387,0.461244,-0.463783,-0.034486,
0.0115811,-0.201546,-0.335272,-1.65824,-0.0673704,-0.109442,-0.383281,0.00274052,-0.00075474,0.00277451,-0.00156491,0.304547,-0.200383,0.000334517,0,0,0,0,0,0,0,0.0119108,-0.201565,-0.334946,-1.65833,-0.0829402,1.47742,0.402074,0.00175458,0.00459022,0.00148767,-0.00190874,0.11631,-0.00208767,-0.000270418,-0.0440639,-25.5126,1.91316,25.9076,1.46728,2.68151,-0.0301054,-0.709803,0.158704,-0.171681,0.503781,-0.204917,-0.0069518,0.102156,0.0173677,-0.209769,-0.434387,0.461244,-0.463783,-0.034486,
0.011593,-0.201549,-0.33526,-1.65825,-0.0661559,-0.110241,-0.383279,0.00296934,-0.000666846,0.00303623,-0.00160326,0.303639,-0.199657,0.000323891,0,0,0,0,0,0,0,0.0119108,-0.201565,-0.334946,-1.65833,-0.0829402,1.47742,0.402074,0.00175458,0.00459022,0.00148767,-0.00190874,0.11631,-0.00208767,-0.000270418,-0.0440639,-25.5126,1.91316,25.9076,1.46728,2.68151,-0.0301054,-0.875235,-0.0725525,-0.0664292,0.648,-0.340834,-0.139899,-0.0452457,-0.0632889,-0.341033,-0.400295,0.432553,-0.48728,-0.0373438,
0.0116057,-0.201551,-0.335247,-1.65826,-0.0649454,-0.111036,-0.383278,0.00317129,-0.000585257,0.00326892,-0.00163199,0.302609,-0.198859,0.000314035,0,0,0,0,0,0,0,0.0119108,-0.201565,-0.334946,-1.65833,-0.0829402,1.47742,0.402074,0.00175458,0.00459022,0.00148767,-0.00190874,0.11631,-0.00208767,-0.000270418,-0.0440639,-25.5126,1.91316,25.9076,1.46728,2.68151,-0.0301054,-0.326152,-0.0774346,-0.234279,0.685089,0.160976,-0.045406,0.0332986,0.256344,-0.242866,-0.545707,0.440473,-0.501103,-0.0374845,
0.0116555,-0.201394,-0.335113,-1.65798,-0.0882154,-0.0967918,-0.38329,-0.0265297,0.0108654,-0.0221441,0.0341995,0.517254,-0.425127,0.00329864,0,0,0,0,0,0,0,0.0119384,-0.201606,-0.334916,-1.65832,-0.0788419,1.47731,0.402075,0.000650409,-0.00106981,-0.000690948,-0.000799173,0.133634,0.000911557,0.000725159,-0.198788,-25.0127,1.86159,25.7568,1.00311,2.70165,-0.0365141,-0.326152,-0.0774346,-0.234279,0.685089,0.160976,-0.045406,0.0332986,0.256344,-0.242866,-0.545707,0.440473,-0.501103,-0.0374845,
0.0116999,-0.201474,-0.33508,-1.65791,-0.073293,-0.0970793,-0.383294,-0.0213918,0.00776404,-0.0174458,0.0324007,0.585321,-0.404921,0.00312296,0,0,0,0,0,0,0,0.0119384,-0.201606,-0.334916,-1.65832,-0.0788419,1.47731,0.402075,0.000650409,-0.00106981,-0.000690948,-0.000799173,0.133634,0.000911557,0.000725159,-0.198788,-25.0127,1.86159,25.7568,1.00311,2.70165,-0.0365141,-0.585482,-0.114256,-0.0151763,0.656153,-0.10522,-0.11233,-0.0464397,0.0778743,-0.289004,-0.439399,0.413078,-0.508469,-0.0352548,
0.0116209,-0.201461,-0.33515,-1.65781,-0.0706016,-0.0989936,-0.38328,-0.0197594,0.00308619,-0.0173287,0.0260386,0.672841,-0.478559,0.00340287,0,0,0,0,0,0,0,0.0119384,-0.201606,-0.334916,-1.65832,-0.0788419,1.47731,0.402075,0.000650409,-0.00106981,-0.000690948,-0.000799173,0.133634,0.000911557,0.000725159,-0.198788,-25.0127,1.86159,25.7568,1.00311,2.70165,-0.0365141,-0.585482,-0.114256,-0.0151763,0.656153,-0.10522,-0.11233,-0.0464397,0.0778743,-0.289004,-0.439399,0.413078,-0.508469,-0.0352548,
0.0115524,-0.201464,-0.335212,-1.65773,-0.0676327,-0.101141,-0.383266,-0.0171198,-0.000771791,-0.0156777,0.019891,0.742229,-0.536794,0.00354793,0,0,0,0,0,0,0,0.0119384,-0.201606,-0.334916,-1.65832,-0.0788419,1.47731,0.402075,0.000650409,-0.00106981,-0.000690948,-0.000799173,0.133634,0.000911557,0.000725159,-0.198788,-25.0127,1.86159,25.7568,1.00311,2.70165,-0.0365141,-0.705374,-0.275811,0.0610228,0.727846,-0.195319,-0.203993,-0.142434,0.0277905,-0.378489,-0.414011,0.362214,-0.524446,-0.0380573,
0.0114966,-0.201479,-0.335265,-1.65767,-0.0644415,-0.103472,-0.383252,-0.0139653,-0.00365067,-0.0131282,0.0144948,0.797808,-0.582916,0.00361308,0,0,0,0,0,0,0,0.0119384,-0.201606,-0.334916,-1.65832,-0.0788419,1.47731,0.402075,0.000650409,-0.00106981,-0.000690948,-0.000799173,0.133634,0.000911557,0.000725159,-0.198788,-25.0127,1.86159,25.7568,1.00311,2.70165,-0.0365141,-0.705374,-0.275811,0.0610228,0.727846,-0.195319,-0.203993,-0.142434,0.0277905,-0.378489,-0.414011,0.362214,-0.524446,-0.0380573,
0.0114542,-0.201502,-0.335305,-1.65763,-0.0610706,-0.105949,-0.383237,-0.0105952,-0.00564452,-0.0100953,0.00990339,0.842723,-0.61925,0.00362759,0,0,0,0,0,0,0,0.0119384,-0.201606,-0.334916,-1.65832,-0.0788419,1.47731,0.402075,0.000650409,-0.00106981,-0.000690948,-0.000799173,0.133634,0.000911557,0.000725159,-0.198788,-25.0127,1.86159,25.7568,1.00311,2.70165,-0.0365141,-0.209589,-0.772057,0.0567895,1.11303,0.218483,-0.336202,-0.270049,0.273632,-0.556384,-0.505994,0.348364,-0.548289,-0.038362,
0.0114254,-0.201529,-0.335333,-1.6576,-0.0575533,-0.10854,-0.383223,-0.00719631,-0.0069085,-0.00685091,0.0060344,0.879307,-0.647593,0.00360942,0,0,0,0,0,0,0,0.0118673,-0.201552,-0.334964,-1.65818,-0.0726623,1.47668,0.402082,-0.00486145,-3.63468e-06,-0.00346442,0.00957364,0.276879,-0.0508697,0.00111218,0.487552,-25.6117,2.23848,26.1813,1.57074,2.45629,-0.0566557,-0.209589,-0.772057,0.0567895,1.11303,0.218483,-0.336202,-0.270049,0.273632,-0.556384,-0.505994,0.348364,-0.548289,-0.038362,
0.0114098,-0.20156,-0.335347,-1.65759,-0.0539161,-0.111217,-0.383208,-0.00388483,-0.00759657,-0.00357182,0.00278083,0.909312,-0.669392,0.00356947,0,0,0,0,0,0,0,0.0118673,-0.201552,-0.334964,-1.65818,-0.0726623,1.47668,0.402082,-0.00486145,-3.63468e-06,-0.00346442,0.00957364,0.276879,-0.0508697,0.00111218,0.487552,-25.6117,2.23848,26.1813,1.57074,2.45629,-0.0566557,-0.0718541,-1.15042,0.931523,1.34044,0.0126642,-0.472745,-0.381796,0.0191007,-0.730891,-0.227826,0.400412,-0.575272,-0.0404827,
0.0114069,-0.201591,-0.335348,-1.65759,-0.0501798,-0.113961,-0.383194,-0.000731146,-0.00784321,-0.000370563,4.34054e-05,0.934068,-0.685832,0.00351588,0,0,0,0,0,0,0,0.0118673,-0.201552,-0.334964,-1.65818,-0.0726623,1.47668,0.402082,-0.00486145,-3.63468e-06,-0.00346442,0.00957364,0.276879,-0.0508697,0.00111218,0.487552,-25.6117,2.23848,26.1813,1.57074,2.45629,-0.0566557,-0.0718541,-1.15042,0.931523,1.34044,0.0126642,-0.472745,-0.381796,0.0191007,-0.730891,-0.227826,0.400412,-0.575272,-0.0404827,
0.0114158,-0.201622,-0.335338,-1.6576,-0.0463614,-0.116752,-0.383181,0.00222489,-0.00776018,0.0026839,-0.0022622,0.954598,-0.697886,0.00345344,0,0,0,0,0,0,0,0.0118673,-0.201552,-0.334964,-1.65818,-0.0726623,1.47668,0.402082,-0.00486145,-3.63468e-06,-0.00346442,0.00957364,0.276879,-0.0508697,0.00111218,0.487552,-25.6117,2.23848,26.1813,1.57074,2.45629,-0.0566557,-0.451379,-1.01328,1.2678,1.28697,-0.355491,-0.470978,-0.349246,-0.224612,-0.753023,-0.134928,0.477838,-0.656479,-0.0401046,
0.0114357,-0.201652,-0.335316,-1.65762,-0.0424747,-0.119578,-0.383167,0.00496369,-0.00743792,0.00555207,-0.00420566,0.971691,-0.706353,0.00338607,0,0,0,0,0,0,0,0.0118673,-0.201552,-0.334964,-1.65818,-0.0726623,1.47668,0.402082,-0.00486145,-3.63468e-06,-0.00346442,0.00957364,0.276879,-0.0508697,0.00111218,0.487552,-25.6117,2.23848,26.1813,1.57074,2.45629,-0.0566557,-0.0115392,-0.57263,1.25236,1.07823,0.0356936,-0.186003,-0.049499,0.0198675,-0.474422,-0.273946,0.592359,-0.739177,-0.041306,
0.0114656,-0.20168,-0.335283,-1.65764,-0.0385308,-0.122425,-0.383154,0.00747899,-0.00694839,0.00821426,-0.00584412,0.985965,-0.711891,0.003316,0,0,0,0,0,0,0,0.0114987,-0.201554,-0.335278,-1.658,-0.057547,1.47357,0.402077,-0.0149857,-0.000900791,-0.01313,0.00562842,0.540916,-0.124616,2.84012e-05,1.04694,-25.3856,2.76216,25.5585,1.8637,2.04522,-0.00996382,-0.0115392,-0.57263,1.25236,1.07823,0.0356936,-0.186003,-0.049499,0.0198675,-0.474422,-0.273946,0.592359,-0.739177,-0.041306,
0.0115047,-0.201705,-0.33524,-1.65767,-0.0345392,-0.125285,-0.383141,0.00977341,-0.00634815,0.0106638,-0.00722459,0.997908,-0.715041,0.00324547,0,0,0,0,0,0,0,0.0114987,-0.201554,-0.335278,-1.658,-0.057547,1.47357,0.402077,-0.0149857,-0.000900791,-0.01313,0.00562842,0.540916,-0.124616,2.84012e-05,1.04694,-25.3856,2.76216,25.5585,1.8637,2.04522,-0.00996382,-0.643971,-0.348407,1.68644,0.921632,-0.574776,-0.193711,-0.0424338,-0.379989,-0.477238,-0.0968372,0.656186,-0.804921,-0.0377686,
0.0115521,-0.201728,-0.335188,-1.65771,-0.0305075,-0.12815,-0.383128,0.0118548,-0.0056809,0.0129028,-0.00838566,1.00791,-0.716245,0.0031748,0,0,0,0,0,0,0,0.0114987,-0.201554,-0.335278,-1.658,-0.057547,1.47357,0.402077,-0.0149857,-0.000900791,-0.01313,0.00562842,0.540916,-0.124616,2.84012e-05,1.04694,-25.3856,2.76216,25.5585,1.8637,2.04522,-0.00996382,-0.643971,-0.348407,1.68644,0.921632,-0.574776,-0.193711,-0.0424338,-0.379989,-0.477238,-0.0968372,0.656186,-0.804921,-0.0377686,
0.011607,-0.201748,-0.335129,-1.65774,-0.0264424,-0.131014,-0.383116,0.0137343,-0.00498011,0.0149385,-0.00935948,1.01628,-0.715868,0.00310593,0,0,0,0,0,0,0,0.0114987,-0.201554,-0.335278,-1.658,-0.057547,1.47357,0.402077,-0.0149857,-0.000900791,-0.01313,0.00562842,0.540916,-0.124616,2.84012e-05,1.04694,-25.3856,2.76216,25.5585,1.8637,2.04522,-0.00996382,-0.229503,-0.10282,1.64912,0.871039,-0.219501,-0.00191157,0.161075,-0.163782,-0.305889,-0.220713,0.779687,-0.86594,-0.03708,
0.0116687,-0.201765,-0.335062,-1.65778,-0.0223493,-0.133871,-0.383104,0.0154251,-0.0042709,0.0167816,-0.0101726,1.02328,-0.714207,0.00303815,0,0,0,0,0,0,0,0.0114987,-0.201554,-0.335278,-1.658,-0.057547,1.47357,0.402077,-0.0149857,-0.000900791,-0.01313,0.00562842,0.540916,-0.124616,2.84012e-05,1.04694,-25.3856,2.76216,25.5585,1.8637,2.04522,-0.00996382,-0.246486,-0.065089,1.42172,1.02051,-0.0876266,0.0213535,0.199689,-0.0289037,-0.328581,-0.407678,0.894558,-0.970666,-0.0365385,
0.0117365,-0.201779,-0.334988,-1.65783,-0.0182329,-0.136717,-0.383092,0.0169409,-0.00357175,0.0184445,-0.0108474,1.0291,-0.711508,0.00297295,0,0,0,0,0,0,0,0.0114987,-0.201554,-0.335278,-1.658,-0.057547,1.47357,0.402077,-0.0149857,-0.000900791,-0.01313,0.00562842,0.540916,-0.124616,2.84012e-05,1.04694,-25.3856,2.76216,25.5585,1.8637,2.04522,-0.00996382,-0.246486,-0.065089,1.42172,1.02051,-0.0876266,0.0213535,0.199689,-0.0289037,-0.328581,-0.407678,0.894558,-0.970666,-0.0365385,
0.0118097,-0.201791,-0.334908,-1.65787,-0.0140971,-0.139549,-0.38308,0.0182957,-0.0028959,0.0199403,-0.0114025,1.03393,-0.707974,0.00290975,0,0,0,0,0,0,0,0.0109332,-0.201586,-0.335595,-1.6579,-0.0384332,1.46807,0.402079,-0.0117482,-0.00278836,-0.00895101,0.010036,0.617224,-0.198101,-0.000428856,1.24927,-25.1119,2.86134,25.257,1.8518,2.01226,-0.0301054,-0.587494,0.0890301,1.55507,0.925432,-0.366057,0.0364367,0.226596,-0.194031,-0.31463,-0.362997,0.924635,-1.01941,-0.0348458,
0.0118877,-0.2018,-0.334823,-1.65792,-0.00994552,-0.142364,-0.383069,0.0195032,-0.00225252,0.0212822,-0.0118537,1.0379,-0.703771,0.00284862,0,0,0,0,0,0,0,0.0109332,-0.201586,-0.335595,-1.6579,-0.0384332,1.46807,0.402079,-0.0117482,-0.00278836,-0.00895101,0.010036,0.617224,-0.198101,-0.000428856,1.24927,-25.1119,2.86134,25.257,1.8518,2.01226,-0.0301054,-0.587494,0.0890301,1.55507,0.925432,-0.366057,0.0364367,0.226596,-0.194031,-0.31463,-0.362997,0.924635,-1.01941,-0.0348458,
0.01197,-0.201806,-0.334733,-1.65797,-0.00578096,-0.14516,-0.383057,0.0205762,-0.00164766,0.0224833,-0.0122145,1.04114,-0.699037,0.00279018,0,0,0,0,0,0,0,0.0109332,-0.201586,-0.335595,-1.6579,-0.0384332,1.46807,0.402079,-0.0117482,-0.00278836,-0.00895101,0.010036,0.617224,-0.198101,-0.000428856,1.24927,-25.1119,2.86134,25.257,1.8518,2.01226,-0.0301054,-0.113835,0.259056,1.62228,0.829,-0.0214349,0.204242,0.399418,-0.00697169,-0.146978,-0.410638,0.970894,-1.03496,-0.0343468,
0.0120561,-0.201811,-0.334639,-1.65802,-0.00160602,-0.147935,-0.383046,0.021527,-0.00108492,0.0235558,-0.0124967,1.04374,-0.693884,0.00273373,0,0,0,0,0,0,0,0.0109332,-0.201586,-0.335595,-1.6579,-0.0384332,1.46807,0.402079,-0.0117482,-0.00278836,-0.00895101,0.010036,0.617224,-0.198101,-0.000428856,1.24927,-25.1119,2.86134,25.257,1.8518,2.01226,-0.0301054,-0.36936,0.216438,1.77334,0.857911,-0.260172,0.146198,0.346923,-0.161045,-0.21125,-0.34417,0.982042,-1.05527,-0.0329012,
0.0121456,-0.201813,-0.334541,-1.65807,0.00257709,-0.150689,-0.383036,0.0223671,-0.000566214,0.0245115,-0.0127107,1.04578,-0.688403,0.00267945,0,0,0,0,0,0,0,0.0109332,-0.201586,-0.335595,-1.6579,-0.0384332,1.46807,0.402079,-0.0117482,-0.00278836,-0.00895101,0.010036,0.617224,-0.198101,-0.000428856,1.24927,-25.1119,2.86134,25.257,1.8518,2.01226,-0.0301054,-0.36936,0.216438,1.77334,0.857911,-0.260172,0.146198,0.346923,-0.161045,-0.21125,-0.34417,0.982042,-1.05527,-0.0329012,
0.012238,-0.201813,-0.334439,-1.65812,0.00676645,-0.15342,-0.383025,0.0231068,-9.20757e-05,0.025361,-0.0128659,1.04734,-0.682665,0.00262723,0,0,0,0,0,0,0,0.0104903,-0.20162,-0.335756,-1.65785,-0.0180073,1.46088,0.402078,-0.0113193,-0.00555763,-0.00905443,0.00232859,0.673298,-0.254935,-0.000473377,1.4278,-24.7865,2.98829,25.2847,2.05963,1.89965,-0.0227812,0.0524903,0.374782,1.48118,0.780096,0.207882,0.300269,0.503748,0.166657,-0.0581561,-0.536077,0.97582,-1.08775,-0.0335704,
0.012333,-0.201812,-0.334335,-1.65817,0.0109604,-0.156127,-0.383015,0.0237559,0.000338008,0.0261146,-0.0129705,1.04848,-0.676726,0.00257667,0,0,0,0,0,0,0,0.0104903,-0.20162,-0.335756,-1.65785,-0.0180073,1.46088,0.402078,-0.0113193,-0.00555763,-0.00905443,0.00232859,0.673298,-0.254935,-0.000473377,1.4278,-24.7865,2.98829,25.2847,2.05963,1.89965,-0.0227812,0.0524903,0.374782,1.48118,0.780096,0.207882,0.300269,0.503748,0.166657,-0.0581561,-0.536077,0.97582,-1.08775,-0.0335704,
0.0124303,-0.201809,-0.334228,-1.65822,0.0151574,-0.158809,-0.383005,0.0243232,0.000725388,0.0267814,-0.0130314,1.04926,-0.670634,0.00252817,0,0,0,0,0,0,0,0.0104903,-0.20162,-0.335756,-1.65785,-0.0180073,1.46088,0.402078,-0.0113193,-0.00555763,-0.00905443,0.00232859,0.673298,-0.254935,-0.000473377,1.4278,-24.7865,2.98829,25.2847,2.05963,1.89965,-0.0227812,0.21735,0.159084,1.43993,0.895455,0.370226,0.239464,0.444588,0.273676,-0.128093,-0.573985,0.91319,-1.08621,-0.0326221,
0.0125296,-0.201805,-0.334118,-1.65828,0.0193563,-0.161467,-0.382995,0.0248167,0.00107195,0.0273697,-0.0130548,1.04971,-0.664423,0.00248121,0,0,0,0,0,0,0,0.0104903,-0.20162,-0.335756,-1.65785,-0.0180073,1.46088,0.402078,-0.0113193,-0.00555763,-0.00905443,0.00232859,0.673298,-0.254935,-0.000473377,1.4278,-24.7865,2.98829,25.2847,2.05963,1.89965,-0.0227812,0.21735,0.159084,1.43993,0.895455,0.370226,0.239464,0.444588,0.273676,-0.128093,-0.573985,0.91319,-1.08621,-0.0326221,
0.0126306,-0.201799,-0.334007,-1.65833,0.0235558,-0.164099,-0.382985,0.025244,0.00138,0.0278874,-0.0130456,1.04989,-0.658123,0.00243558,0,0,0,0,0,0,0,0.0104903,-0.20162,-0.335756,-1.65785,-0.0180073,1.46088,0.402078,-0.0113193,-0.00555763,-0.00905443,0.00232859,0.673298,-0.254935,-0.000473377,1.4278,-24.7865,2.98829,25.2847,2.05963,1.89965,-0.0227812,-0.245872,-0.139713,1.64692,0.9577,-0.0735949,0.0281577,0.234195,-0.0155803,-0.327888,-0.391935,0.780807,-1.03332,-0.0325203,
0.0125993,-0.201732,-0.334171,-1.65821,-0.0749508,-0.0989559,-0.383177,0.0780876,-0.0171457,0.0889935,0.00201459,0.412412,-0.632324,0.0120843,0,0,0,0,0,0,0,0.010277,-0.20162,-0.335801,-1.65784,0.0128749,1.44841,0.40208,0.00149417,0.00292259,-0.000891339,-0.00298337,0.80706,-0.3319,-0.000236897,0.967594,-25.0881,2.91292,25.6815,1.5094,2.29058,-0.0429228,-0.190262,-0.141965,1.40174,0.894137,0.0604124,0.0382305,0.220281,0.102256,-0.285118,-0.459306,0.688527,-1.00197,-0.0329498,
0.0111826,-0.201807,-0.334871,-1.65797,0.0218406,-0.130282,-0.383162,0.101628,-0.0212596,0.109852,-0.0173601,0.741883,-0.788102,0.0124803,0,0,0,0,0,0,0,0.010277,-0.20162,-0.335801,-1.65784,0.0128749,1.44841,0.40208,0.00149417,0.00292259,-0.000891339,-0.00298337,0.80706,-0.3319,-0.000236897,0.967594,-25.0881,2.91292,25.6815,1.5094,2.29058,-0.0429228,-0.190262,-0.141965,1.40174,0.894137,0.0604124,0.0382305,0.220281,0.102256,-0.285118,-0.459306,0.688527,-1.00197,-0.0329498,
0.0116664,-0.2019,-0.334338,-1.65807,0.024858,-0.13383,-0.383115,0.120957,-0.0233132,0.133266,-0.0241235,0.754348,-0.887014,0.0118368,0,0,0,0,0,0,0,0.010277,-0.20162,-0.335801,-1.65784,0.0128749,1.44841,0.40208,0.00149417,0.00292259,-0.000891339,-0.00298337,0.80706,-0.3319,-0.000236897,0.967594,-25.0881,2.91292,25.6815,1.5094,2.29058,-0.0429228,-0.585647,-0.348263,1.61155,0.889649,-0.363305,-0.124359,0.0439419,-0.188121,-0.417724,-0.255165,0.574883,-0.920898,-0.0321175,
0.0122133,-0.201994,-0.33373,-1.65819,0.0279516,-0.137702,-0.383069,0.136725,-0.0235257,0.15203,-0.0306136,0.7734,-0.96812,0.0113088,0,0,0,0,0,0,0,0.010277,-0.20162,-0.335801,-1.65784,0.0128749,1.44841,0.40208,0.00149417,0.00292259,-0.000891339,-0.00298337,0.80706,-0.3319,-0.000236897,0.967594,-25.0881,2.91292,25.6815,1.5094,2.29058,-0.0429228,-0.585647,-0.348263,1.61155,0.889649,-0.363305,-0.124359,0.0439419,-0.188121,-0.417724,-0.255165,0.574883,-0.920898,-0.0321175,
0.0128123,-0.202084,-0.33306,-1.65834,0.0311347,-0.141841,-0.383026,0.149738,-0.0224369,0.167263,-0.036653,0.795785,-1.03479,0.0108693,0,0,0,0,0,0,0,0.010277,-0.20162,-0.335801,-1.65784,0.0128749,1.44841,0.40208,0.00149417,0.00292259,-0.000891339,-0.00298337,0.80706,-0.3319,-0.000236897,0.967594,-25.0881,2.91292,25.6815,1.5094,2.29058,-0.0429228,-0.08303,-0.190358,1.0748,0.792799,0.222182,0.0283701,0.183859,0.231264,-0.249275,-0.496139,0.528137,-0.902422,-0.0255765,
0.0134546,-0.202166,-0.332341,-1.6585,0.0344122,-0.1462,-0.382984,0.160584,-0.0204608,0.179777,-0.0421638,0.819376,-1.08969,0.0104931,0,0,0,0,0,0,0,0.010277,-0.20162,-0.335801,-1.65784,0.0128749,1.44841,0.40208,0.00149417,0.00292259,-0.000891339,-0.00298337,0.80706,-0.3319,-0.000236897,0.967594,-25.0881,2.91292,25.6815,1.5094,2.29058,-0.0429228,-0.649564,-0.704933,1.15379,0.964538,-0.232228,-0.306,-0.171427,-0.0330726,-0.558976,-0.34755,0.315828,-0.844025,-0.0205632,
0.0141334,-0.202237,-0.331581,-1.65869,0.0377835,-0.15074,-0.382943,0.169699,-0.0179088,0.190165,-0.0471222,0.842821,-1.13495,0.0101639,0,0,0,0,0,0,0,0.0107488,-0.201649,-0.335103,-1.65786,0.0348877,1.43714,0.402082,0.0258807,-0.011691,0.042743,-0.00300392,0.626264,-0.394537,-0.00027262,1.75708,-24.9135,4.18641,25.3601,0.709225,1.98571,-0.0163725,-0.649564,-0.704933,1.15379,0.964538,-0.232228,-0.306,-0.171427,-0.0330726,-0.558976,-0.34755,0.315828,-0.844025,-0.0205632,
0.014843,-0.202297,-0.330785,-1.6589,0.0412447,-0.155429,-0.382904,0.177408,-0.0150117,0.198863,-0.0515332,0.865291,-1.17227,0.00986917,0,0,0,0,0,0,0,0.0107488,-0.201649,-0.335103,-1.65786,0.0348877,1.43714,0.402082,0.0258807,-0.011691,0.042743,-0.00300392,0.626264,-0.394537,-0.00027262,1.75708,-24.9135,4.18641,25.3601,0.709225,1.98571,-0.0163725,-0.793538,-1.71815,1.23542,1.40212,-0.342226,-0.784167,-0.671412,-0.0947912,-1.029,-0.233029,-0.0196622,-0.760279,-0.0173082,
0.0155789,-0.202345,-0.32996,-1.65912,0.0447899,-0.160241,-0.382865,0.183961,-0.0119392,0.206196,-0.0554194,0.886312,-1.20306,0.00959978,0,0,0,0,0,0,0,0.0107488,-0.201649,-0.335103,-1.65786,0.0348877,1.43714,0.402082,0.0258807,-0.011691,0.042743,-0.00300392,0.626264,-0.394537,-0.00027262,1.75708,-24.9135,4.18641,25.3601,0.709225,1.98571,-0.0163725,-0.793538,-1.71815,1.23542,1.40212,-0.342226,-0.784167,-0.671412,-0.0947912,-1.029,-0.233029,-0.0196622,-0.760279,-0.0173082,
0.016337,-0.20238,-0.329111,-1.65936,0.0484125,-0.165155,-0.382828,0.189545,-0.00881418,0.21241,-0.0588127,0.905643,-1.22843,0.00934987,0,0,0,0,0,0,0,0.0107488,-0.201649,-0.335103,-1.65786,0.0348877,1.43714,0.402082,0.0258807,-0.011691,0.042743,-0.00300392,0.626264,-0.394537,-0.00027262,1.75708,-24.9135,4.18641,25.3601,0.709225,1.98571,-0.0163725,-1.02968,-1.39411,1.23117,1.11767,-0.478592,-0.674558,-0.591016,-0.148886,-0.86153,-0.236002,-0.0566121,-0.796451,-0.0158431,
0.0171144,-0.202405,-0.32824,-1.65961,0.0521053,-0.170131,-0.382791,0.194334,-0.00605649,0.21776,-0.0627718,0.923212,-1.24415,0.00914139,0,0,0,0,0,0,0,0.0107488,-0.201649,-0.335103,-1.65786,0.0348877,1.43714,0.402082,0.0258807,-0.011691,0.042743,-0.00300392,0.626264,-0.394537,-0.00027262,1.75708,-24.9135,4.18641,25.3601,0.709225,1.98571,-0.0163725,-1.02968,-1.39411,1.23117,1.11767,-0.478592,-0.674558,-0.591016,-0.148886,-0.86153,-0.236002,-0.0566121,-0.796451,-0.0158431,
0.0179083,-0.20242,-0.32735,-1.65988,0.0558615,-0.175118,-0.382756,0.198475,-0.00374173,0.222395,-0.0676506,0.939037,-1.24668,0.00897327,0,0,0,0,0,0,0,0.0121138,-0.201754,-0.333256,-1.65783,0.055249,1.42182,0.402086,0.048833,-0.00417873,0.059729,0.00317445,0.639743,-0.534611,0.00044171,2.41565,-24.4136,4.58711,24.761,1.21643,1.73394,-0.050247,-0.885252,-0.632907,1.33258,0.605217,-0.407426,-0.308845,-0.24438,-0.121826,-0.435482,-0.23466,0.0460869,-0.828813,-0.0104951,
0.0187164,-0.202425,-0.326445,-1.66017,0.0596741,-0.180084,-0.38272,0.202038,-0.0012811,0.226317,-0.0718617,0.95315,-1.24141,0.00880238,0,0,0,0,0,0,0,0.0121138,-0.201754,-0.333256,-1.65783,0.055249,1.42182,0.402086,0.048833,-0.00417873,0.059729,0.00317445,0.639743,-0.534611,0.00044171,2.41565,-24.4136,4.58711,24.761,1.21643,1.73394,-0.050247,-1.00446,-0.872316,1.00849,0.789682,-0.303029,-0.423134,-0.355275,0.0205301,-0.571421,-0.402575,-0.0275136,-0.886316,-0.0100204,
0.0195367,-0.202419,-0.325526,-1.66047,0.0635365,-0.185008,-0.382686,0.20507,0.00132827,0.229636,-0.075151,0.965608,-1.23109,0.00863132,0,0,0,0,0,0,0,0.0121138,-0.201754,-0.333256,-1.65783,0.055249,1.42182,0.402086,0.048833,-0.00417873,0.059729,0.00317445,0.639743,-0.534611,0.00044171,2.41565,-24.4136,4.58711,24.761,1.21643,1.73394,-0.050247,-1.00446,-0.872316,1.00849,0.789682,-0.303029,-0.423134,-0.355275,0.0205301,-0.571421,-0.402575,-0.0275136,-0.886316,-0.0100204,
0.0203672,-0.202404,-0.324597,-1.66078,0.0674425,-0.189878,-0.382652,0.207632,0.00397398,0.232444,-0.0776106,0.976506,-1.21737,0.00846163,0,0,0,0,0,0,0,0.0121138,-0.201754,-0.333256,-1.65783,0.055249,1.42182,0.402086,0.048833,-0.00417873,0.059729,0.00317445,0.639743,-0.534611,0.00044171,2.41565,-24.4136,4.58711,24.761,1.21643,1.73394,-0.050247,-1.25419,-0.893399,0.739545,0.849592,-0.283905,-0.456287,-0.389697,0.121839,-0.613547,-0.583488,-0.0579709,-0.997377,-0.00875033,
0.0212064,-0.202377,-0.323657,-1.66109,0.0713864,-0.194683,-0.382619,0.209781,0.00655256,0.234814,-0.0793922,0.985965,-1.20133,0.00829422,0,0,0,0,0,0,0,0.0121138,-0.201754,-0.333256,-1.65783,0.055249,1.42182,0.402086,0.048833,-0.00417873,0.059729,0.00317445,0.639743,-0.534611,0.00044171,2.41565,-24.4136,4.58711,24.761,1.21643,1.73394,-0.050247,-1.25419,-0.893399,0.739545,0.849592,-0.283905,-0.456287,-0.389697,0.121839,-0.613547,-0.583488,-0.0579709,-0.997377,-0.00875033,
0.0220526,-0.202341,-0.32271,-1.66142,0.0753629,-0.199418,-0.382586,0.211565,0.00899213,0.236801,-0.080636,0.994115,-1.18369,0.00813008,0,0,0,0,0,0,0,0.0121138,-0.201754,-0.333256,-1.65783,0.055249,1.42182,0.402086,0.048833,-0.00417873,0.059729,0.00317445,0.639743,-0.534611,0.00044171,2.41565,-24.4136,4.58711,24.761,1.21643,1.73394,-0.050247,-1.98791,-0.780954,0.980883,0.808463,-0.920188,-0.519365,-0.450569,-0.270706,-0.675475,-0.449736,0.0135418,-1.0446,-0.00828565,
0.0229047,-0.202296,-0.321756,-1.66174,0.0793672,-0.204078,-0.382554,0.213025,0.0112505,0.238451,-0.0814541,1.00109,-1.16498,0.00797039,0,0,0,0,0,0,0,0.0143131,-0.201855,-0.330308,-1.65793,0.0772542,1.40231,0.402086,0.0751917,-0.00494811,0.0988636,-0.00517299,0.658525,-0.603119,-0.0013168,2.11017,-24.4136,4.16261,24.3881,2.12005,1.32287,-0.00996382,-1.98791,-0.780954,0.980883,0.808463,-0.920188,-0.519365,-0.450569,-0.270706,-0.675475,-0.449736,0.0135418,-1.0446,-0.00828565,
0.0237615,-0.202243,-0.320797,-1.66207,0.0833953,-0.20866,-0.382523,0.214196,0.013307,0.239801,-0.0819339,1.00702,-1.14556,0.00781365,0,0,0,0,0,0,0,0.0143131,-0.201855,-0.330308,-1.65793,0.0772542,1.40231,0.402086,0.0751917,-0.00494811,0.0988636,-0.00517299,0.658525,-0.603119,-0.0013168,2.11017,-24.4136,4.16261,24.3881,2.12005,1.32287,-0.00996382,-1.75761,-0.685201,0.581754,0.932313,-0.558724,-0.431318,-0.364113,0.011331,-0.619629,-0.702442,0.13844,-1.12063,-0.00693739,
0.024622,-0.202182,-0.319834,-1.6624,0.0874434,-0.213163,-0.382493,0.215109,0.0151556,0.240883,-0.082143,1.01202,-1.12568,0.0076615,0,0,0,0,0,0,0,0.0143131,-0.201855,-0.330308,-1.65793,0.0772542,1.40231,0.402086,0.0751917,-0.00494811,0.0988636,-0.00517299,0.658525,-0.603119,-0.0013168,2.11017,-24.4136,4.16261,24.3881,2.12005,1.32287,-0.00996382,-1.75761,-0.685201,0.581754,0.932313,-0.558724,-0.431318,-0.364113,0.011331,-0.619629,-0.702442,0.13844,-1.12063,-0.00693739,
0.0254851,-0.202115,-0.318867,-1.66273,0.0915081,-0.217585,-0.382462,0.215791,0.0167997,0.241725,-0.0821336,1.01619,-1.10555,0.00751265,0,0,0,0,0,0,0,0.0143131,-0.201855,-0.330308,-1.65793,0.0772542,1.40231,0.402086,0.0751917,-0.00494811,0.0988636,-0.00517299,0.658525,-0.603119,-0.0013168,2.11017,-24.4136,4.16261,24.3881,2.12005,1.32287,-0.00996382,-1.60289,-0.282144,0.227178,0.844936,-0.271151,-0.220215,-0.161293,0.246416,-0.415848,-0.937584,0.300591,-1.21078,-0.00589024,
0.0263502,-0.202042,-0.317897,-1.66306,0.0955866,-0.221926,-0.382433,0.216265,0.0182484,0.242353,-0.0819473,1.01962,-1.08529,0.00736715,0,0,0,0,0,0,0,0.0143131,-0.201855,-0.330308,-1.65793,0.0772542,1.40231,0.402086,0.0751917,-0.00494811,0.0988636,-0.00517299,0.658525,-0.603119,-0.0013168,2.11017,-24.4136,4.16261,24.3881,2.12005,1.32287,-0.00996382,-1.50795,0.405642,0.467816,0.42952,-0.391188,0.0928166,0.142699,0.0976845,-0.0639242,-0.79816,0.489206,-1.16126,-0.00691388,
0.0272164,-0.201964,-0.316926,-1.66338,0.0996762,-0.226186,-0.382404,0.216554,0.0195147,0.242786,-0.0816161,1.02241,-1.065,0.00722531,0,0,0,0,0,0,0,0.0172817,-0.201907,-0.326467,-1.65819,0.098221,1.38119,0.402088,0.0853676,0.000639517,0.125899,-0.0132117,0.631795,-0.644681,0.00053704,1.72931,-24.4612,3.63893,24.4873,2.76733,1.48125,-0.0227812,-1.50795,0.405642,0.467816,0.42952,-0.391188,0.0928166,0.142699,0.0976845,-0.0639242,-0.79816,0.489206,-1.16126,-0.00691388,
0.0280831,-0.201882,-0.315954,-1.66371,0.103775,-0.230365,-0.382376,0.216677,0.0206125,0.243047,-0.0811657,1.02463,-1.04475,0.00708707,0,0,0,0,0,0,0,0.0172817,-0.201907,-0.326467,-1.65819,0.098221,1.38119,0.402088,0.0853676,0.000639517,0.125899,-0.0132117,0.631795,-0.644681,0.00053704,1.72931,-24.4612,3.63893,24.4873,2.76733,1.48125,-0.0227812,-1.24001,0.526189,0.189952,0.487825,-0.128028,0.17827,0.225788,0.269542,0.00155806,-0.919625,0.61278,-1.14604,-0.00524696,
0.0289497,-0.201796,-0.314981,-1.66403,0.10788,-0.234463,-0.382348,0.216652,0.0215567,0.243151,-0.0806175,1.02634,-1.0246,0.006951,0,0,0,0,0,0,0,0.0172817,-0.201907,-0.326467,-1.65819,0.098221,1.38119,0.402088,0.0853676,0.000639517,0.125899,-0.0132117,0.631795,-0.644681,0.00053704,1.72931,-24.4612,3.63893,24.4873,2.76733,1.48125,-0.0227812,-1.24001,0.526189,0.189952,0.487825,-0.128028,0.17827,0.225788,0.269542,0.00155806,-0.919625,0.61278,-1.14604,-0.00524696,
0.0119306,-0.202169,-0.33411,-1.65851,0.0205157,-0.129901,-0.383151,0.184068,-0.0550442,0.198145,-0.0676331,0.604531,-0.756274,0.0134135,0,0,0,0,0,0,0,0.0172817,-0.201907,-0.326467,-1.65819,0.098221,1.38119,0.402088,0.0853676,0.000639517,0.125899,-0.0132117,0.631795,-0.644681,0.00053704,1.72931,-24.4612,3.63893,24.4873,2.76733,1.48125,-0.0227812,-1.53197,0.963924,0.19106,0.27598,-0.41173,0.317322,0.371989,0.0831668,0.145665,-0.862286,0.755636,-1.13061,-0.006873,
0.0196268,-0.202347,-0.323906,-1.65906,0.105299,-0.199324,-0.383151,0.229354,-0.0417777,0.253571,-0.0853317,0.596745,-0.892313,0.0128294,0,0,0,0,0,0,0,0.0172817,-0.201907,-0.326467,-1.65819,0.098221,1.38119,0.402088,0.0853676,0.000639517,0.125899,-0.0132117,0.631795,-0.644681,0.00053704,1.72931,-24.4612,3.63893,24.4873,2.76733,1.48125,-0.0227812,-1.53197,0.963924,0.19106,0.27598,-0.41173,0.317322,0.371989,0.0831668,0.145665,-0.862286,0.755636,-1.13061,-0.006873,
0.0206435,-0.20251,-0.322773,-1.65943,0.107785,-0.203168,-0.383102,0.254183,-0.0408106,0.283131,-0.0916047,0.62143,-0.960904,0.0122659,0,0,0,0,0,0,0,0.0172817,-0.201907,-0.326467,-1.65819,0.098221,1.38119,0.402088,0.0853676,0.000639517,0.125899,-0.0132117,0.631795,-0.644681,0.00053704,1.72931,-24.4612,3.63893,24.4873,2.76733,1.48125,-0.0227812,-1.48883,0.998263,-0.0299887,0.336351,-0.450313,0.307714,0.37458,0.027132,0.11166,-0.81484,0.852335,-0.991425,-0.00684809,
0.0217415,-0.202662,-0.321545,-1.65982,0.110394,-0.207242,-0.383055,0.274501,-0.0381152,0.307047,-0.0966861,0.65219,-1.01857,0.0117757,0,0,0,0,0,0,0,0.0204643,-0.201847,-0.321796,-1.65867,0.118692,1.35905,0.402087,0.105034,0.00207811,0.143611,-0.0204462,0.590677,-0.677127,0.000269286,1.4516,-25.1872,3.18666,24.4873,2.50549,2.01226,-0.0163725,-0.819714,1.95038,-0.720018,-0.22141,0.280617,0.822617,0.884685,0.539888,0.666184,-1.12641,0.959495,-0.981714,-0.00504184,
0.0229067,-0.202801,-0.320239,-1.66022,0.113136,-0.211509,-0.383009,0.291305,-0.0345248,0.326609,-0.101132,0.685616,-1.06665,0.0113386,0,0,0,0,0,0,0,0.0204643,-0.201847,-0.321796,-1.65867,0.118692,1.35905,0.402087,0.105034,0.00207811,0.143611,-0.0204462,0.590677,-0.677127,0.000269286,1.4516,-25.1872,3.18666,24.4873,2.50549,2.01226,-0.0163725,-0.819714,1.95038,-0.720018,-0.22141,0.280617,0.822617,0.884685,0.539888,0.666184,-1.12641,0.959495,-0.981714,-0.00504184,
0.0241286,-0.202926,-0.318867,-1.66065,0.116014,-0.21588,-0.382965,0.305475,-0.031432,0.342991,-0.107776,0.719472,-1.09281,0.0110183,0,0,0,0,0,0,0,0.0204643,-0.201847,-0.321796,-1.65867,0.118692,1.35905,0.402087,0.105034,0.00207811,0.143611,-0.0204462,0.590677,-0.677127,0.000269286,1.4516,-25.1872,3.18666,24.4873,2.50549,2.01226,-0.0163725,-2.25098,1.07907,-0.357629,0.210144,-1.01195,0.194883,0.247068,-0.279014,0.0345439,-0.7191,0.778678,-0.864916,-0.00111243,
0.0253983,-0.203038,-0.31744,-1.66111,0.119024,-0.220301,-0.382922,0.317427,-0.0279213,0.356633,-0.113882,0.75238,-1.1053,0.0107167,0,0,0,0,0,0,0,0.0204643,-0.201847,-0.321796,-1.65867,0.118692,1.35905,0.402087,0.105034,0.00207811,0.143611,-0.0204462,0.590677,-0.677127,0.000269286,1.4516,-25.1872,3.18666,24.4873,2.50549,2.01226,-0.0163725,-2.25098,1.07907,-0.357629,0.210144,-1.01195,0.194883,0.247068,-0.279014,0.0345439,-0.7191,0.778678,-0.864916,-0.00111243,
0.0267082,-0.203133,-0.315968,-1.66158,0.122158,-0.224743,-0.382881,0.327466,-0.0238516,0.36799,-0.11845,0.783487,-1.11042,0.010404,0,0,0,0,0,0,0,0.0204643,-0.201847,-0.321796,-1.65867,0.118692,1.35905,0.402087,0.105034,0.00207811,0.143611,-0.0204462,0.590677,-0.677127,0.000269286,1.4516,-25.1872,3.18666,24.4873,2.50549,2.01226,-0.0163725,-1.54111,0.443021,-0.624701,0.475655,-0.486443,0.00990726,0.0770218,0.00688241,-0.171442,-0.711622,0.556414,-0.660714,-0.00126609,
0.0280519,-0.203212,-0.314458,-1.66207,0.125407,-0.229171,-0.38284,0.335938,-0.0197725,0.377544,-0.122409,0.812302,-1.10693,0.0101024,0,0,0,0,0,0,0,0.0247241,-0.202104,-0.316525,-1.65974,0.132483,1.3402,0.402089,0.147039,-0.00969899,0.175333,-0.0385993,0.402407,-0.590684,-0.000101258,2.23713,-24.9135,4.33717,24.884,2.5476,1.64055,0.00376909,-1.54111,0.443021,-0.624701,0.475655,-0.486443,0.00990726,0.0770218,0.00688241,-0.171442,-0.711622,0.556414,-0.660714,-0.00126609,
0.0294245,-0.203277,-0.312915,-1.66258,0.128761,-0.233539,-0.382801,0.343142,-0.0160459,0.385659,-0.12651,0.838587,-1.09212,0.0098529,0,0,0,0,0,0,0,0.0247241,-0.202104,-0.316525,-1.65974,0.132483,1.3402,0.402089,0.147039,-0.00969899,0.175333,-0.0385993,0.402407,-0.590684,-0.000101258,2.23713,-24.9135,4.33717,24.884,2.5476,1.64055,0.00376909,-1.29842,0.567218,-1.01539,0.379403,-0.130733,0.104173,0.160427,0.282857,-0.0603978,-0.890656,0.506663,-0.667504,0.000931444,
0.0308213,-0.203326,-0.311346,-1.6631,0.13221,-0.237825,-0.382762,0.349201,-0.0122409,0.392456,-0.129546,0.862295,-1.07139,0.00961023,0,0,0,0,0,0,0,0.0247241,-0.202104,-0.316525,-1.65974,0.132483,1.3402,0.402089,0.147039,-0.00969899,0.175333,-0.0385993,0.402407,-0.590684,-0.000101258,2.23713,-24.9135,4.33717,24.884,2.5476,1.64055,0.00376909,-1.41041,1.19396,-0.653101,-0.160516,-0.398098,0.370851,0.409592,0.0621838,0.28307,-0.691396,0.528704,-0.631178,-0.00309219,
0.0322383,-0.203359,-0.309753,-1.66362,0.135744,-0.242014,-0.382725,0.354243,-0.00842854,0.398123,-0.131486,0.883479,-1.0474,0.00937636,0,0,0,0,0,0,0,0.0247241,-0.202104,-0.316525,-1.65974,0.132483,1.3402,0.402089,0.147039,-0.00969899,0.175333,-0.0385993,0.402407,-0.590684,-0.000101258,2.23713,-24.9135,4.33717,24.884,2.5476,1.64055,0.00376909,-1.41041,1.19396,-0.653101,-0.160516,-0.398098,0.370851,0.409592,0.0621838,0.28307,-0.691396,0.528704,-0.631178,-0.00309219,
0.0336719,-0.203378,-0.308142,-1.66415,0.139353,-0.246101,-0.382688,0.358393,-0.00474555,0.402818,-0.132545,0.902262,-1.02159,0.00915191,0,0,0,0,0,0,0,0.0247241,-0.202104,-0.316525,-1.65974,0.132483,1.3402,0.402089,0.147039,-0.00969899,0.175333,-0.0385993,0.402407,-0.590684,-0.000101258,2.23713,-24.9135,4.33717,24.884,2.5476,1.64055,0.00376909,-1.55323,0.545889,-0.811812,0.175807,-0.449454,0.069154,0.10927,0.0543482,-0.0378164,-0.685145,0.345695,-0.572425,-0.00382318,
0.0351189,-0.203383,-0.306515,-1.66468,0.143029,-0.25008,-0.382653,0.361768,-0.00129355,0.406674,-0.132942,0.918807,-0.994836,0.00893701,0,0,0,0,0,0,0,0.029859,-0.202556,-0.310383,-1.66129,0.146822,1.32108,0.402091,0.170024,-0.0164893,0.205255,-0.06023,0.519617,-0.600697,-0.000169603,2.23713,-24.5366,4.2856,24.7372,2.25464,1.5078,-0.00996382,-1.55323,0.545889,-0.811812,0.175807,-0.449454,0.069154,0.10927,0.0543482,-0.0378164,-0.685145,0.345695,-0.572425,-0.00382318,
0.0365768,-0.203376,-0.304876,-1.66521,0.146762,-0.253951,-0.382618,0.364464,0.00186947,0.4098,-0.13285,0.933297,-0.967657,0.00873213,0,0,0,0,0,0,0,0.029859,-0.202556,-0.310383,-1.66129,0.146822,1.32108,0.402091,0.170024,-0.0164893,0.205255,-0.06023,0.519617,-0.600697,-0.000169603,2.23713,-24.5366,4.2856,24.7372,2.25464,1.5078,-0.00996382,-2.35921,-0.464144,-1.05034,0.82677,-0.845134,-0.468554,-0.425272,-0.083468,-0.629508,-0.774364,0.143827,-0.652304,-0.00205155,
0.0380431,-0.203357,-0.303227,-1.66574,0.150546,-0.257712,-0.382583,0.366566,0.00472022,0.412288,-0.132393,0.945916,-0.940394,0.00853899,0,0,0,0,0,0,0,0.029859,-0.202556,-0.310383,-1.66129,0.146822,1.32108,0.402091,0.170024,-0.0164893,0.205255,-0.06023,0.519617,-0.600697,-0.000169603,2.23713,-24.5366,4.2856,24.7372,2.25464,1.5078,-0.00996382,-2.35921,-0.464144,-1.05034,0.82677,-0.845134,-0.468554,-0.425272,-0.083468,-0.629508,-0.774364,0.143827,-0.652304,-0.00205155,
0.0395156,-0.203328,-0.30157,-1.66627,0.154373,-0.261365,-0.38255,0.368145,0.00725726,0.414215,-0.131664,0.956844,-0.913254,0.0083536,0,0,0,0,0,0,0,0.029859,-0.202556,-0.310383,-1.66129,0.146822,1.32108,0.402091,0.170024,-0.0164893,0.205255,-0.06023,0.519617,-0.600697,-0.000169603,2.23713,-24.5366,4.2856,24.7372,2.25464,1.5078,-0.00996382,-2.7626,-0.730279,-1.17581,1.02826,-1.01594,-0.619531,-0.567782,-0.125264,-0.806699,-0.860807,0.0999153,-0.735701,-0.00286421,
0.0409927,-0.20329,-0.299907,-1.66679,0.158238,-0.264911,-0.382517,0.369265,0.00949302,0.415649,-0.130727,0.966251,-0.886368,0.00817861,0,0,0,0,0,0,0,0.029859,-0.202556,-0.310383,-1.66129,0.146822,1.32108,0.402091,0.170024,-0.0164893,0.205255,-0.06023,0.519617,-0.600697,-0.000169603,2.23713,-24.5366,4.2856,24.7372,2.25464,1.5078,-0.00996382,-2.36443,-0.248799,-0.967502,0.720628,-0.790951,-0.341328,-0.286232,-0.0295111,-0.508272,-0.846266,0.2017,-0.758403,-0.000486911,
0.0424726,-0.203244,-0.298241,-1.66731,0.162135,-0.26835,-0.382485,0.36998,0.0114472,0.416649,-0.129631,0.974297,-0.859817,0.00801131,0,0,0,0,0,0,0,0.029859,-0.202556,-0.310383,-1.66129,0.146822,1.32108,0.402091,0.170024,-0.0164893,0.205255,-0.06023,0.519617,-0.600697,-0.000169603,2.23713,-24.5366,4.2856,24.7372,2.25464,1.5078,-0.00996382,-2.36443,-0.248799,-0.967502,0.720628,-0.790951,-0.341328,-0.286232,-0.0295111,-0.508272,-0.846266,0.2017,-0.758403,-0.000486911,
0.043954,-0.203192,-0.296572,-1.66783,0.16606,-0.271685,-0.382454,0.370339,0.013143,0.417265,-0.12841,0.981126,-0.833645,0.00785184,0,0,0,0,0,0,0,0.0353468,-0.202908,-0.30304,-1.66309,0.164622,1.30336,0.402099,0.186833,-0.00969988,0.240479,-0.0637688,0.589172,-0.534375,9.36732e-05,2.66956,-24.2867,4.46412,24.6381,2.46246,1.7138,-0.0429228,-2.2899,0.0928039,-0.750486,0.499269,-0.805685,-0.162789,-0.101426,-0.0668709,-0.316793,-0.798727,0.277546,-0.78866,-0.00403602,
0.0454355,-0.203133,-0.294902,-1.66833,0.170007,-0.274916,-0.382423,0.370382,0.014605,0.417543,-0.127091,0.986871,-0.80788,0.00769969,0,0,0,0,0,0,0,0.0353468,-0.202908,-0.30304,-1.66309,0.164622,1.30336,0.402099,0.186833,-0.00969988,0.240479,-0.0637688,0.589172,-0.534375,9.36732e-05,2.66956,-24.2867,4.46412,24.6381,2.46246,1.7138,-0.0429228,-2.2899,0.0928039,-0.750486,0.499269,-0.805685,-0.162789,-0.101426,-0.0668709,-0.316793,-0.798727,0.277546,-0.78866,-0.00403602,
0.0469161,-0.20307,-0.293231,-1.66884,0.173974,-0.278046,-0.382393,0.370149,0.0158573,0.417523,-0.125696,0.99165,-0.782534,0.00755483,0,0,0,0,0,0,0,0.0353468,-0.202908,-0.30304,-1.66309,0.164622,1.30336,0.402099,0.186833,-0.00969988,0.240479,-0.0637688,0.589172,-0.534375,9.36732e-05,2.66956,-24.2867,4.46412,24.6381,2.46246,1.7138,-0.0429228,-2.01964,-0.0927055,-1.23078,0.781555,-0.35502,-0.20649,-0.142738,0.283676,-0.408438,-1.08842,0.341493,-0.857844,-0.00324704,
0.0483948,-0.203002,-0.291563,-1.66933,0.177956,-0.281077,-0.382363,0.369671,0.0169226,0.41724,-0.12424,0.995572,-0.757612,0.00741427,0,0,0,0,0,0,0,0.0353468,-0.202908,-0.30304,-1.66309,0.164622,1.30336,0.402099,0.186833,-0.00969988,0.240479,-0.0637688,0.589172,-0.534375,9.36732e-05,2.66956,-24.2867,4.46412,24.6381,2.46246,1.7138,-0.0429228,-2.37561,-0.151001,-0.727207,0.926611,-0.849735,-0.299806,-0.238686,-0.0992377,-0.520126,-0.865226,0.50852,-0.855006,0.000408419,
0.0498707,-0.202931,-0.289896,-1.66983,0.181951,-0.284009,-0.382334,0.368979,0.0178227,0.416724,-0.122736,0.998733,-0.733116,0.00728238,0,0,0,0,0,0,0,0.0353468,-0.202908,-0.30304,-1.66309,0.164622,1.30336,0.402099,0.186833,-0.00969988,0.240479,-0.0637688,0.589172,-0.534375,9.36732e-05,2.66956,-24.2867,4.46412,24.6381,2.46246,1.7138,-0.0429228,-2.37561,-0.151001,-0.727207,0.926611,-0.849735,-0.299806,-0.238686,-0.0992377,-0.520126,-0.865226,0.50852,-0.855006,0.000408419,
0.0513431,-0.202857,-0.288232,-1.67031,0.185956,-0.286845,-0.382305,0.368097,0.0185766,0.416004,-0.121194,1.00122,-0.709043,0.00715317,0,0,0,0,0,0,0,0.0448343,-0.203034,-0.291751,-1.66568,0.18956,1.28298,0.402096,0.221233,0.00366955,0.282307,-0.0542225,0.566177,-0.427693,-8.31151e-05,1.88404,-24.8381,3.36122,24.6857,3.48877,1.6076,-0.00996382,-1.99048,0.315332,-0.782257,0.713795,-0.601743,-0.0621778,-0.000376828,0.0207111,-0.277281,-0.890723,0.672712,-0.814925,-0.00253011,
0.0528113,-0.20278,-0.286571,-1.67079,0.189968,-0.289587,-0.382277,0.36705,0.0192022,0.415104,-0.119624,1.00311,-0.685389,0.00703031,0,0,0,0,0,0,0,0.0448343,-0.203034,-0.291751,-1.66568,0.18956,1.28298,0.402096,0.221233,0.00366955,0.282307,-0.0542225,0.566177,-0.427693,-8.31151e-05,1.88404,-24.8381,3.36122,24.6857,3.48877,1.6076,-0.00996382,-1.99048,0.315332,-0.782257,0.713795,-0.601743,-0.0621778,-0.000376828,0.0207111,-0.277281,-0.890723,0.672712,-0.814925,-0.00253011,
0.0202571,-0.202649,-0.323248,-1.65955,0.104249,-0.198569,-0.383164,0.299354,-0.070728,0.329931,-0.134334,0.487533,-0.795134,0.0118989,0,0,0,0,0,0,0,0.0448343,-0.203034,-0.291751,-1.66568,0.18956,1.28298,0.402096,0.221233,0.00366955,0.282307,-0.0542225,0.566177,-0.427693,-8.31151e-05,1.88404,-24.8381,3.36122,24.6857,3.48877,1.6076,-0.00996382,-1.34295,0.936186,-1.03902,0.405637,-0.0252912,0.286282,0.356519,0.383524,0.0739127,-1.06986,0.82695,-0.825272,-0.00252267,
0.0488316,-0.203431,-0.287297,-1.66714,0.196145,-0.294351,-0.383172,0.36808,-0.0378366,0.412266,-0.137042,0.562737,-0.599205,0.0107648,0,0,0,0,0,0,0,0.0448343,-0.203034,-0.291751,-1.66568,0.18956,1.28298,0.402096,0.221233,0.00366955,0.282307,-0.0542225,0.566177,-0.427693,-8.31151e-05,1.88404,-24.8381,3.36122,24.6857,3.48877,1.6076,-0.00996382,-1.34295,0.936186,-1.03902,0.405637,-0.0252912,0.286282,0.356519,0.383524,0.0739127,-1.06986,0.82695,-0.825272,-0.00252267,
0.0504062,-0.203575,-0.285526,-1.66772,0.19851,-0.296922,-0.38313,0.393652,-0.0361049,0.442612,-0.143664,0.59124,-0.642811,0.0104309,0,0,0,0,0,0,0,0.0448343,-0.203034,-0.291751,-1.66568,0.18956,1.28298,0.402096,0.221233,0.00366955,0.282307,-0.0542225,0.566177,-0.427693,-8.31151e-05,1.88404,-24.8381,3.36122,24.6857,3.48877,1.6076,-0.00996382,-1.77369,1.57361,-0.591129,-0.0293117,-0.576324,0.50972,0.591615,-0.0151876,0.331443,-0.823857,0.95459,-0.804956,-0.0033024,
0.052065,-0.203709,-0.283657,-1.66832,0.201008,-0.299584,-0.383089,0.414699,-0.0335437,0.46735,-0.150459,0.624407,-0.665647,0.0101944,0,0,0,0,0,0,0,0.0448343,-0.203034,-0.291751,-1.66568,0.18956,1.28298,0.402096,0.221233,0.00366955,0.282307,-0.0542225,0.566177,-0.427693,-8.31151e-05,1.88404,-24.8381,3.36122,24.6857,3.48877,1.6076,-0.00996382,-1.04241,3.44547,-0.859633,-1.26517,0.0160999,1.42769,1.50426,0.363946,1.35427,-0.969819,1.17588,-0.793717,-0.00993484,
0.0537931,-0.203829,-0.281707,-1.66894,0.203645,-0.302287,-0.383049,0.432014,-0.0299885,0.487538,-0.155891,0.659289,-0.675697,0.00998924,0,0,0,0,0,0,0,0.0520454,-0.203039,-0.283001,-1.6674,0.20561,1.27114,0.402094,0.256042,0.000346623,0.275329,-0.0597223,0.371208,-0.306175,-0.000584228,-1.5675,-25.7347,0.0128308,25.3323,2.06512,1.84655,0.0101778,-1.04241,3.44547,-0.859633,-1.26517,0.0160999,1.42769,1.50426,0.363946,1.35427,-0.969819,1.17588,-0.793717,-0.00993484,
0.0555779,-0.203931,-0.279691,-1.66958,0.206421,-0.305007,-0.38301,0.4462,-0.025564,0.503997,-0.159322,0.693999,-0.679853,0.00976463,0,0,0,0,0,0,0,0.0520454,-0.203039,-0.283001,-1.6674,0.20561,1.27114,0.402094,0.256042,0.000346623,0.275329,-0.0597223,0.371208,-0.306175,-0.000584228,-1.5675,-25.7347,0.0128308,25.3323,2.06512,1.84655,0.0101778,-1.71743,1.56585,-0.62009,-0.0157079,-0.597633,0.489475,0.547726,-0.0567568,0.329314,-0.756873,0.988108,-0.712794,-0.00336599,
0.0574094,-0.204015,-0.277621,-1.67023,0.209331,-0.307717,-0.382972,0.457878,-0.0209578,0.517492,-0.16175,0.727318,-0.677606,0.00951103,0,0,0,0,0,0,0,0.0520454,-0.203039,-0.283001,-1.6674,0.20561,1.27114,0.402094,0.256042,0.000346623,0.275329,-0.0597223,0.371208,-0.306175,-0.000584228,-1.5675,-25.7347,0.0128308,25.3323,2.06512,1.84655,0.0101778,-1.71743,1.56585,-0.62009,-0.0157079,-0.597633,0.489475,0.547726,-0.0567568,0.329314,-0.756873,0.988108,-0.712794,-0.00336599,
0.0592797,-0.204082,-0.275506,-1.67088,0.212364,-0.310381,-0.382935,0.467574,-0.0167253,0.528659,-0.164189,0.758492,-0.665865,0.00931035,0,0,0,0,0,0,0,0.0520454,-0.203039,-0.283001,-1.6674,0.20561,1.27114,0.402094,0.256042,0.000346623,0.275329,-0.0597223,0.371208,-0.306175,-0.000584228,-1.5675,-25.7347,0.0128308,25.3323,2.06512,1.84655,0.0101778,-2.15023,-0.598958,-1.05336,1.35658,-0.742775,-0.513283,-0.399414,-0.0995537,-0.830605,-0.815667,0.618917,-0.625679,-0.00140121,
0.0611817,-0.204132,-0.273355,-1.67155,0.215513,-0.312978,-0.382899,0.475515,-0.0125103,0.537809,-0.16566,0.787154,-0.649427,0.00911844,0,0,0,0,0,0,0,0.0520454,-0.203039,-0.283001,-1.6674,0.20561,1.27114,0.402094,0.256042,0.000346623,0.275329,-0.0597223,0.371208,-0.306175,-0.000584228,-1.5675,-25.7347,0.0128308,25.3323,2.06512,1.84655,0.0101778,-2.15023,-0.598958,-1.05336,1.35658,-0.742775,-0.513283,-0.399414,-0.0995537,-0.830605,-0.815667,0.618917,-0.625679,-0.00140121,
0.0631095,-0.204166,-0.271174,-1.67221,0.218766,-0.3155,-0.382863,0.481942,-0.0083946,0.545251,-0.166207,0.813169,-0.630485,0.00893609,0,0,0,0,0,0,0,0.0605581,-0.203156,-0.272356,-1.6695,0.217193,1.26155,0.402099,0.270148,-0.00510728,0.347528,-0.0701652,0.375889,-0.279807,0.000243884,1.95942,-25.0127,3.68654,24.3604,2.89642,1.22948,-0.00996382,-2.14757,-0.0898204,-1.1305,0.945123,-0.706325,-0.267493,-0.166717,-0.0521059,-0.530671,-0.840303,0.609331,-0.633329,-0.00364803,
0.0650578,-0.204184,-0.268969,-1.67288,0.222112,-0.317941,-0.382828,0.487074,-0.00450202,0.551246,-0.166052,0.83654,-0.610162,0.0087638,0,0,0,0,0,0,0,0.0605581,-0.203156,-0.272356,-1.6695,0.217193,1.26155,0.402099,0.270148,-0.00510728,0.347528,-0.0701652,0.375889,-0.279807,0.000243884,1.95942,-25.0127,3.68654,24.3604,2.89642,1.22948,-0.00996382,-2.50625,0.164131,-0.732531,0.688081,-1.08126,-0.162809,-0.0992862,-0.296533,-0.358722,-0.695642,0.596158,-0.689432,-0.00303183,
0.0670222,-0.204187,-0.266745,-1.67354,0.225541,-0.320297,-0.382793,0.491099,-0.000914577,0.556008,-0.165393,0.857356,-0.589085,0.00860094,0,0,0,0,0,0,0,0.0605581,-0.203156,-0.272356,-1.6695,0.217193,1.26155,0.402099,0.270148,-0.00510728,0.347528,-0.0701652,0.375889,-0.279807,0.000243884,1.95942,-25.0127,3.68654,24.3604,2.89642,1.22948,-0.00996382,-2.50625,0.164131,-0.732531,0.688081,-1.08126,-0.162809,-0.0992862,-0.296533,-0.358722,-0.695642,0.596158,-0.689432,-0.00303183,
0.0689989,-0.204178,-0.264506,-1.6742,0.229044,-0.322568,-0.38276,0.494174,0.00232868,0.55972,-0.164377,0.875761,-0.567623,0.00844647,0,0,0,0,0,0,0,0.0605581,-0.203156,-0.272356,-1.6695,0.217193,1.26155,0.402099,0.270148,-0.00510728,0.347528,-0.0701652,0.375889,-0.279807,0.000243884,1.95942,-25.0127,3.68654,24.3604,2.89642,1.22948,-0.00996382,-2.34923,0.0926474,-0.888009,0.606251,-0.844817,-0.124439,-0.0509545,-0.108719,-0.310511,-0.795775,0.446444,-0.721857,-0.00797242,
0.0709846,-0.204157,-0.262256,-1.67485,0.232612,-0.324752,-0.382726,0.496432,0.0052204,0.562528,-0.163102,0.891923,-0.546004,0.00830493,0,0,0,0,0,0,0,0.0605581,-0.203156,-0.272356,-1.6695,0.217193,1.26155,0.402099,0.270148,-0.00510728,0.347528,-0.0701652,0.375889,-0.279807,0.000243884,1.95942,-25.0127,3.68654,24.3604,2.89642,1.22948,-0.00996382,-2.34923,0.0926474,-0.888009,0.606251,-0.844817,-0.124439,-0.0509545,-0.108719,-0.310511,-0.795775,0.446444,-0.721857,-0.00797242,
0.0729766,-0.204126,-0.259998,-1.67549,0.236236,-0.326849,-0.382694,0.497984,0.00777167,0.564559,-0.161637,0.906027,-0.524371,0.00816924,0,0,0,0,0,0,0,0.0605581,-0.203156,-0.272356,-1.6695,0.217193,1.26155,0.402099,0.270148,-0.00510728,0.347528,-0.0701652,0.375889,-0.279807,0.000243884,1.95942,-25.0127,3.68654,24.3604,2.89642,1.22948,-0.00996382,-1.78844,-0.867943,-1.49522,1.22485,-0.106467,-0.469659,-0.394467,0.419182,-0.717714,-1.12273,0.255031,-0.744055,-0.00598476,
0.0749723,-0.204086,-0.257734,-1.67613,0.239909,-0.32886,-0.382662,0.498923,0.0100045,0.565917,-0.160027,0.918255,-0.502821,0.00804383,0,0,0,0,0,0,0,0.0696609,-0.203303,-0.261471,-1.67193,0.231917,1.25401,0.402102,0.302673,-0.00893257,0.362865,-0.0732494,0.534503,-0.207613,-0.000324873,2.87189,-24.6358,4.53554,24.3881,2.55401,1.40893,-0.0365141,-2.0795,-0.235748,-1.51664,0.738508,-0.248548,-0.167742,-0.0856544,0.390528,-0.371835,-1.17106,0.261616,-0.835304,-0.00979813,
0.0769696,-0.204038,-0.255467,-1.67677,0.243624,-0.330786,-0.38263,0.499332,0.0119453,0.566693,-0.158305,0.928789,-0.481418,0.00792472,0,0,0,0,0,0,0,0.0696609,-0.203303,-0.261471,-1.67193,0.231917,1.25401,0.402102,0.302673,-0.00893257,0.362865,-0.0732494,0.534503,-0.207613,-0.000324873,2.87189,-24.6358,4.53554,24.3881,2.55401,1.40893,-0.0365141,-2.0795,-0.235748,-1.51664,0.738508,-0.248548,-0.167742,-0.0856544,0.390528,-0.371835,-1.17106,0.261616,-0.835304,-0.00979813,
0.0789667,-0.203984,-0.253199,-1.67739,0.247376,-0.332627,-0.382599,0.49928,0.0136225,0.566965,-0.156496,0.9378,-0.460211,0.00781258,0,0,0,0,0,0,0,0.0696609,-0.203303,-0.261471,-1.67193,0.231917,1.25401,0.402102,0.302673,-0.00893257,0.362865,-0.0732494,0.534503,-0.207613,-0.000324873,2.87189,-24.6358,4.53554,24.3881,2.55401,1.40893,-0.0365141,-1.95454,0.155421,-1.32781,0.455229,-0.198721,0.0427394,0.11423,0.40872,-0.126324,-1.14601,0.310048,-0.874017,-0.0105325,
0.080962,-0.203924,-0.250932,-1.67801,0.251157,-0.334384,-0.382568,0.498825,0.0150636,0.566796,-0.154618,0.945448,-0.439234,0.00770673,0,0,0,0,0,0,0,0.0696609,-0.203303,-0.261471,-1.67193,0.231917,1.25401,0.402102,0.302673,-0.00893257,0.362865,-0.0732494,0.534503,-0.207613,-0.000324873,2.87189,-24.6358,4.53554,24.3881,2.55401,1.40893,-0.0365141,-1.95454,0.155421,-1.32781,0.455229,-0.198721,0.0427394,0.11423,0.40872,-0.126324,-1.14601,0.310048,-0.874017,-0.0105325,
0.0829541,-0.203858,-0.248667,-1.67862,0.254965,-0.336058,-0.382537,0.498021,0.0162951,0.566245,-0.152685,0.951882,-0.418518,0.00760778,0,0,0,0,0,0,0,0.0696609,-0.203303,-0.261471,-1.67193,0.231917,1.25401,0.402102,0.302673,-0.00893257,0.362865,-0.0732494,0.534503,-0.207613,-0.000324873,2.87189,-24.6358,4.53554,24.3881,2.55401,1.40893,-0.0365141,-1.66316,0.84133,-1.11667,-0.00999701,-0.0762113,0.384423,0.451525,0.451199,0.258889,-1.093,0.413158,-0.874502,-0.0100156,
0.0849417,-0.203789,-0.246406,-1.67923,0.258794,-0.33765,-0.382507,0.496912,0.0173411,0.565361,-0.15071,0.957237,-0.398082,0.00751017,0,0,0,0,0,0,0,0.0792184,-0.203314,-0.249684,-1.67426,0.249433,1.24919,0.402104,0.315072,0.000647625,0.37446,-0.0699759,0.582857,-0.126293,0.000255047,2.92347,-24.9373,4.01185,23.9874,3.14636,1.36864,-0.050247,-2.01709,-0.0142678,-1.36328,0.712337,-0.224484,-0.0504682,0.0413546,0.382594,-0.275359,-1.17383,0.444685,-0.878708,-0.00756827,
0.0869239,-0.203716,-0.244149,-1.67982,0.26264,-0.339162,-0.382478,0.495539,0.0182241,0.564187,-0.148701,0.961636,-0.377946,0.0074216,0,0,0,0,0,0,0,0.0792184,-0.203314,-0.249684,-1.67426,0.249433,1.24919,0.402104,0.315072,0.000647625,0.37446,-0.0699759,0.582857,-0.126293,0.000255047,2.92347,-24.9373,4.01185,23.9874,3.14636,1.36864,-0.050247,-2.01709,-0.0142678,-1.36328,0.712337,-0.224484,-0.0504682,0.0413546,0.382594,-0.275359,-1.17383,0.444685,-0.878708,-0.00756827,
0.0888996,-0.20364,-0.241898,-1.68041,0.266501,-0.340595,-0.382448,0.493934,0.0189636,0.562761,-0.146667,0.96519,-0.358124,0.00733403,0,0,0,0,0,0,0,0.0792184,-0.203314,-0.249684,-1.67426,0.249433,1.24919,0.402104,0.315072,0.000647625,0.37446,-0.0699759,0.582857,-0.126293,0.000255047,2.92347,-24.9373,4.01185,23.9874,3.14636,1.36864,-0.050247,-1.87056,-1.27822,-1.31706,1.7287,-0.119324,-0.639742,-0.556321,0.38547,-0.966237,-1.17906,0.484463,-0.850243,-0.00346649,
0.0908719,-0.203563,-0.239652,-1.68098,0.270339,-0.341949,-0.38242,0.493062,0.0193173,0.561576,-0.144247,0.9595,-0.338529,0.0071363,0,0,0,0,0,0,0,0.0792184,-0.203314,-0.249684,-1.67426,0.249433,1.24919,0.402104,0.315072,0.000647625,0.37446,-0.0699759,0.582857,-0.126293,0.000255047,2.92347,-24.9373,4.01185,23.9874,3.14636,1.36864,-0.050247,-1.87056,-1.27822,-1.31706,1.7287,-0.119324,-0.639742,-0.556321,0.38547,-0.966237,-1.17906,0.484463,-0.850243,-0.00346649,
0.0928407,-0.203485,-0.237409,-1.68155,0.274129,-0.343226,-0.382392,0.492206,0.0194102,0.560632,-0.141679,0.94755,-0.319249,0.00695235,0,0,0,0,0,0,0,0.0792184,-0.203314,-0.249684,-1.67426,0.249433,1.24919,0.402104,0.315072,0.000647625,0.37446,-0.0699759,0.582857,-0.126293,0.000255047,2.92347,-24.9373,4.01185,23.9874,3.14636,1.36864,-0.050247,-2.01294,-0.351735,-1.19641,1.14537,-0.308057,-0.240434,-0.166295,0.265192,-0.509746,-1.10441,0.648995,-0.845012,-0.00669076,
0.0948053,-0.203408,-0.235171,-1.68211,0.277857,-0.344427,-0.382365,0.49116,0.0193489,0.559679,-0.139101,0.931837,-0.300354,0.00679223,0,0,0,0,0,0,0,0.0792184,-0.203314,-0.249684,-1.67426,0.249433,1.24919,0.402104,0.315072,0.000647625,0.37446,-0.0699759,0.582857,-0.126293,0.000255047,2.92347,-24.9373,4.01185,23.9874,3.14636,1.36864,-0.050247,-2.01294,-0.351735,-1.19641,1.14537,-0.308057,-0.240434,-0.166295,0.265192,-0.509746,-1.10441,0.648995,-0.845012,-0.00669076,
0.0493241,-0.203748,-0.286776,-1.66773,0.195417,-0.291394,-0.383174,0.42209,-0.0647387,0.471633,-0.186706,0.486142,-0.275381,0.010595,0,0,0,0,0,0,0,0.0900479,-0.203201,-0.236284,-1.67664,0.267788,1.24656,0.4021,0.33559,0.00810585,0.42426,-0.0753149,0.567144,-0.0454008,0.000975895,2.46723,-25.9609,3.33742,24.0628,3.65356,1.15624,-0.0429228,-2.35846,0.534837,-1.32861,0.634691,-0.525006,0.126181,0.222798,0.178472,-0.12472,-1.13268,0.826918,-0.865742,-0.00688224,
0.0953948,-0.203577,-0.230242,-1.67854,0.274514,-0.324639,-0.383181,0.478336,-0.0348812,0.541813,-0.17226,0.574739,-0.0464108,0.00969041,0,0,0,0,0,0,0,0.0900479,-0.203201,-0.236284,-1.67664,0.267788,1.24656,0.4021,0.33559,0.00810585,0.42426,-0.0753149,0.567144,-0.0454008,0.000975895,2.46723,-25.9609,3.33742,24.0628,3.65356,1.15624,-0.0429228,-2.33145,0.55618,-1.05854,0.677457,-0.609573,0.13863,0.230709,0.0777766,-0.117085,-1.03716,0.91599,-0.861957,-0.00860687,
0.0974032,-0.203707,-0.227962,-1.67925,0.276916,-0.324858,-0.383143,0.502082,-0.0324247,0.570085,-0.17739,0.600467,-0.0548526,0.00959172,0,0,0,0,0,0,0,0.0900479,-0.203201,-0.236284,-1.67664,0.267788,1.24656,0.4021,0.33559,0.00810585,0.42426,-0.0753149,0.567144,-0.0454008,0.000975895,2.46723,-25.9609,3.33742,24.0628,3.65356,1.15624,-0.0429228,-2.33145,0.55618,-1.05854,0.677457,-0.609573,0.13863,0.230709,0.0777766,-0.117085,-1.03716,0.91599,-0.861957,-0.00860687,
0.0994874,-0.20382,-0.225591,-1.67997,0.279436,-0.325108,-0.383105,0.521057,-0.0282821,0.592645,-0.179502,0.630052,-0.0623906,0.00950281,0,0,0,0,0,0,0,0.0900479,-0.203201,-0.236284,-1.67664,0.267788,1.24656,0.4021,0.33559,0.00810585,0.42426,-0.0753149,0.567144,-0.0454008,0.000975895,2.46723,-25.9609,3.33742,24.0628,3.65356,1.15624,-0.0429228,-2.07161,2.25529,-0.885847,-0.476438,-0.504552,0.935352,1.01206,0.152811,0.79321,-0.997339,1.11479,-0.877122,-0.0109373,
0.101633,-0.203915,-0.223148,-1.68069,0.28208,-0.325376,-0.383068,0.536317,-0.0236385,0.610716,-0.180343,0.661039,-0.0671976,0.00934374,0,0,0,0,0,0,0,0.0900479,-0.203201,-0.236284,-1.67664,0.267788,1.24656,0.4021,0.33559,0.00810585,0.42426,-0.0753149,0.567144,-0.0454008,0.000975895,2.46723,-25.9609,3.33742,24.0628,3.65356,1.15624,-0.0429228,-2.07161,2.25529,-0.885847,-0.476438,-0.504552,0.935352,1.01206,0.152811,0.79321,-0.997339,1.11479,-0.877122,-0.0109373,
0.103828,-0.203992,-0.220647,-1.68141,0.284847,-0.325636,-0.383031,0.548714,-0.0193151,0.625313,-0.1813,0.691751,-0.0648516,0.00923429,0,0,0,0,0,0,0,0.105015,-0.203164,-0.218387,-1.68015,0.288501,1.24613,0.402098,0.372116,-0.00315209,0.438862,-0.0879795,0.374493,0.0117118,-0.00096185,1.72931,-25.7109,2.53602,23.6145,2.37732,1.22307,-0.0227812,-1.60812,3.13703,-0.894737,-1.11844,-0.166653,1.37248,1.41955,0.3721,1.31222,-1.03199,1.17774,-0.866109,-0.00986406,
0.106062,-0.204052,-0.218099,-1.68214,0.287732,-0.325872,-0.382994,0.558655,-0.015053,0.637037,-0.181545,0.721157,-0.0591588,0.00913302,0,0,0,0,0,0,0,0.105015,-0.203164,-0.218387,-1.68015,0.288501,1.24613,0.402098,0.372116,-0.00315209,0.438862,-0.0879795,0.374493,0.0117118,-0.00096185,1.72931,-25.7109,2.53602,23.6145,2.37732,1.22307,-0.0227812,-2.7708,-1.2548,-1.17036,1.82109,-0.90349,-0.688878,-0.592044,-0.136995,-1.03718,-0.969178,0.67464,-0.778122,-0.00169685,
0.108332,-0.204097,-0.215512,-1.68286,0.290695,-0.326079,-0.382958,0.567417,-0.0111848,0.646806,-0.180748,0.740687,-0.0515559,0.00893782,0,0,0,0,0,0,0,0.105015,-0.203164,-0.218387,-1.68015,0.288501,1.24613,0.402098,0.372116,-0.00315209,0.438862,-0.0879795,0.374493,0.0117118,-0.00096185,1.72931,-25.7109,2.53602,23.6145,2.37732,1.22307,-0.0227812,-2.7708,-1.2548,-1.17036,1.82109,-0.90349,-0.688878,-0.592044,-0.136995,-1.03718,-0.969178,0.67464,-0.778122,-0.00169685,
0.110633,-0.204128,-0.21289,-1.68358,0.293685,-0.32625,-0.382924,0.575208,-0.00788802,0.655281,-0.179095,0.747577,-0.0427398,0.00869051,0,0,0,0,0,0,0,0.105015,-0.203164,-0.218387,-1.68015,0.288501,1.24613,0.402098,0.372116,-0.00315209,0.438862,-0.0879795,0.374493,0.0117118,-0.00096185,1.72931,-25.7109,2.53602,23.6145,2.37732,1.22307,-0.0227812,-2.54364,-1.7565,-1.61834,2.11567,-0.572207,-0.900479,-0.77765,0.0964353,-1.29781,-1.12318,0.564238,-0.730827,0.000309624,
0.112959,-0.204149,-0.21024,-1.68429,0.296671,-0.326382,-0.38289,0.581551,-0.0050664,0.662483,-0.17707,0.746555,-0.0331791,0.00847722,0,0,0,0,0,0,0,0.105015,-0.203164,-0.218387,-1.68015,0.288501,1.24613,0.402098,0.372116,-0.00315209,0.438862,-0.0879795,0.374493,0.0117118,-0.00096185,1.72931,-25.7109,2.53602,23.6145,2.37732,1.22307,-0.0227812,-2.54364,-1.7565,-1.61834,2.11567,-0.572207,-0.900479,-0.77765,0.0964353,-1.29781,-1.12318,0.564238,-0.730827,0.000309624,
0.115305,-0.204159,-0.207567,-1.68499,0.299633,-0.326475,-0.382856,0.586502,-0.00263768,0.66834,-0.174895,0.740434,-0.0231417,0.00828681,0,0,0,0,0,0,0,0.116767,-0.203268,-0.203553,-1.68306,0.300257,1.24754,0.4021,0.385211,-0.0011008,0.466608,-0.103257,0.406947,0.0722858,-0.000589431,2.72113,-25.4094,3.78572,23.7375,2.7124,1.24962,-0.00996382,-2.60613,0.171435,-1.65841,0.71256,-0.584923,0.0160709,0.0867826,0.188743,-0.20386,-1.16798,0.685482,-0.801407,-0.00634485,
0.117666,-0.204161,-0.204876,-1.68568,0.302557,-0.326526,-0.382824,0.590187,-0.000535614,0.672897,-0.172674,0.730946,-0.0127854,0.00812112,0,0,0,0,0,0,0,0.116767,-0.203268,-0.203553,-1.68306,0.300257,1.24754,0.4021,0.385211,-0.0011008,0.466608,-0.103257,0.406947,0.0722858,-0.000589431,2.72113,-25.4094,3.78572,23.7375,2.7124,1.24962,-0.00996382,-2.78518,0.942519,-1.75833,0.029646,-0.686402,0.403183,0.451607,0.196121,0.28058,-1.17807,0.619302,-0.817122,-0.00895263,
0.120037,-0.204156,-0.202171,-1.68636,0.305434,-0.326535,-0.382792,0.592751,0.00129064,0.676258,-0.170451,0.719182,-0.00220057,0.00796496,0,0,0,0,0,0,0,0.116767,-0.203268,-0.203553,-1.68306,0.300257,1.24754,0.4021,0.385211,-0.0011008,0.466608,-0.103257,0.406947,0.0722858,-0.000589431,2.72113,-25.4094,3.78572,23.7375,2.7124,1.24962,-0.00996382,-2.78518,0.942519,-1.75833,0.029646,-0.686402,0.403183,0.451607,0.196121,0.28058,-1.17807,0.619302,-0.817122,-0.00895263,
0.122414,-0.204145,-0.199456,-1.68703,0.308257,-0.326501,-0.382761,0.594336,0.00288124,0.678552,-0.168244,0.705849,0.00855221,0.00782251,0,0,0,0,0,0,0,0.116767,-0.203268,-0.203553,-1.68306,0.300257,1.24754,0.4021,0.385211,-0.0011008,0.466608,-0.103257,0.406947,0.0722858,-0.000589431,2.72113,-25.4094,3.78572,23.7375,2.7124,1.24962,-0.00996382,-2.44149,1.22733,-2.18336,-0.307322,-0.293801,0.572599,0.618067,0.500841,0.490221,-1.32719,0.504766,-0.778832,-0.0120369,
0.124794,-0.204128,-0.196737,-1.6877,0.311023,-0.326423,-0.38273,0.595076,0.00426802,0.679911,-0.166058,0.691432,0.0194284,0.00768699,0,0,0,0,0,0,0,0.116767,-0.203268,-0.203553,-1.68306,0.300257,1.24754,0.4021,0.385211,-0.0011008,0.466608,-0.103257,0.406947,0.0722858,-0.000589431,2.72113,-25.4094,3.78572,23.7375,2.7124,1.24962,-0.00996382,-2.44149,1.22733,-2.18336,-0.307322,-0.293801,0.572599,0.618067,0.500841,0.490221,-1.32719,0.504766,-0.778832,-0.0120369,
0.127175,-0.204106,-0.194015,-1.68835,0.313728,-0.326301,-0.3827,0.595088,0.00547764,0.680459,-0.163892,0.676281,0.0303903,0.00755746,0,0,0,0,0,0,0,0.116767,-0.203268,-0.203553,-1.68306,0.300257,1.24754,0.4021,0.385211,-0.0011008,0.466608,-0.103257,0.406947,0.0722858,-0.000589431,2.72113,-25.4094,3.78572,23.7375,2.7124,1.24962,-0.00996382,-2.00594,-0.410795,-2.53002,0.753196,0.149828,-0.164752,-0.105982,0.729834,-0.354358,-1.44499,0.292343,-0.696053,-0.00623877,
0.129553,-0.20408,-0.191294,-1.689,0.316371,-0.326136,-0.38267,0.594475,0.00653325,0.680307,-0.161745,0.660688,0.0414045,0.00743179,0,0,0,0,0,0,0,0.129214,-0.203261,-0.188758,-1.68608,0.314835,1.25017,0.402106,0.412746,0.00171631,0.490014,-0.0834605,0.46328,0.0872865,0.000529816,2.03479,-25.9371,3.08748,24.2612,2.89642,1.35583,-0.0566557,-1.56808,-0.61166,-2.61157,0.848829,0.4539,-0.251964,-0.198622,0.880139,-0.445733,-1.45065,0.248591,-0.617352,-0.00765355,
0.131926,-0.20405,-0.188575,-1.68964,0.31895,-0.325926,-0.382641,0.59332,0.00745713,0.679548,-0.159618,0.64495,0.0524351,0.00731349,0,0,0,0,0,0,0,0.129214,-0.203261,-0.188758,-1.68608,0.314835,1.25017,0.402106,0.412746,0.00171631,0.490014,-0.0834605,0.46328,0.0872865,0.000529816,2.03479,-25.9371,3.08748,24.2612,2.89642,1.35583,-0.0566557,-1.56808,-0.61166,-2.61157,0.848829,0.4539,-0.251964,-0.198622,0.880139,-0.445733,-1.45065,0.248591,-0.617352,-0.00765355,
0.134293,-0.204017,-0.185862,-1.69027,0.321468,-0.325672,-0.382612,0.591684,0.00827278,0.678254,-0.15752,0.629462,0.0634472,0.00719007,0,0,0,0,0,0,0,0.129214,-0.203261,-0.188758,-1.68608,0.314835,1.25017,0.402106,0.412746,0.00171631,0.490014,-0.0834605,0.46328,0.0872865,0.000529816,2.03479,-25.9371,3.08748,24.2612,2.89642,1.35583,-0.0566557,-1.67915,-0.341375,-2.47301,0.649163,0.236071,-0.151063,-0.101569,0.712565,-0.31779,-1.30782,0.283538,-0.537262,-0.00610131,
0.136651,-0.203981,-0.183157,-1.69089,0.323928,-0.325375,-0.382584,0.589589,0.00901083,0.676465,-0.155472,0.614885,0.0743964,0.00707572,0,0,0,0,0,0,0,0.129214,-0.203261,-0.188758,-1.68608,0.314835,1.25017,0.402106,0.412746,0.00171631,0.490014,-0.0834605,0.46328,0.0872865,0.000529816,2.03479,-25.9371,3.08748,24.2612,2.89642,1.35583,-0.0566557,-1.67915,-0.341375,-2.47301,0.649163,0.236071,-0.151063,-0.101569,0.712565,-0.31779,-1.30782,0.283538,-0.537262,-0.00610131,
0.138999,-0.203942,-0.18046,-1.6915,0.326338,-0.325034,-0.382556,0.586956,0.00971658,0.674198,-0.153534,0.602515,0.0852297,0.00706369,0,0,0,0,0,0,0,0.129214,-0.203261,-0.188758,-1.68608,0.314835,1.25017,0.402106,0.412746,0.00171631,0.490014,-0.0834605,0.46328,0.0872865,0.000529816,2.03479,-25.9371,3.08748,24.2612,2.89642,1.35583,-0.0566557,-1.91202,-0.413891,-2.31435,0.735538,-0.0713381,-0.21466,-0.157825,0.473324,-0.39257,-1.15261,0.331693,-0.458709,-0.0062617,
0.141338,-0.203901,-0.177772,-1.69211,0.328674,-0.32465,-0.382528,0.584817,0.0101798,0.6719,-0.151225,0.584077,0.0960373,0.00694942,0,0,0,0,0,0,0,0.142461,-0.203118,-0.172831,-1.68867,0.328518,1.25267,0.402101,0.413166,0.00798756,0.518801,-0.0807962,0.397729,0.0833189,0.000109416,1.83246,-27.032,2.48842,24.7372,3.45214,1.54168,-0.0163725,-1.91202,-0.413891,-2.31435,0.735538,-0.0713381,-0.21466,-0.157825,0.473324,-0.39257,-1.15261,0.331693,-0.458709,-0.0062617,
0.143668,-0.203859,-0.175094,-1.6927,0.330923,-0.324222,-0.382501,0.582563,0.0104571,0.66965,-0.148836,0.562131,0.106774,0.00681508,0,0,0,0,0,0,0,0.142461,-0.203118,-0.172831,-1.68867,0.328518,1.25267,0.402101,0.413166,0.00798756,0.518801,-0.0807962,0.397729,0.0833189,0.000109416,1.83246,-27.032,2.48842,24.7372,3.45214,1.54168,-0.0163725,-2.11119,0.468937,-2.21892,0.188235,-0.313379,0.161633,0.216669,0.333448,0.032581,-1.05233,0.485968,-0.414036,-0.00536592,
0.145988,-0.203817,-0.172424,-1.69329,0.333077,-0.323753,-0.382474,0.580067,0.0106209,0.667285,-0.146491,0.53864,0.117374,0.00669732,0,0,0,0,0,0,0,0.142461,-0.203118,-0.172831,-1.68867,0.328518,1.25267,0.402101,0.413166,0.00798756,0.518801,-0.0807962,0.397729,0.0833189,0.000109416,1.83246,-27.032,2.48842,24.7372,3.45214,1.54168,-0.0163725,-2.32809,0.0184042,-2.24568,0.538821,-0.514499,-0.0739445,-0.0346644,0.174394,-0.220991,-0.981245,0.501047,-0.343645,-0.00552037,
0.148298,-0.203774,-0.169766,-1.69387,0.335136,-0.323242,-0.382447,0.577327,0.0107207,0.664717,-0.144222,0.514611,0.127791,0.00658548,0,0,0,0,0,0,0,0.142461,-0.203118,-0.172831,-1.68867,0.328518,1.25267,0.402101,0.413166,0.00798756,0.518801,-0.0807962,0.397729,0.0833189,0.000109416,1.83246,-27.032,2.48842,24.7372,3.45214,1.54168,-0.0163725,-2.32809,0.0184042,-2.24568,0.538821,-0.514499,-0.0739445,-0.0346644,0.174394,-0.220991,-0.981245,0.501047,-0.343645,-0.00552037,
0.150595,-0.203731,-0.167118,-1.69443,0.337098,-0.32269,-0.382421,0.574366,0.0107861,0.661929,-0.142029,0.490556,0.138004,0.0064861,0,0,0,0,0,0,0,0.142461,-0.203118,-0.172831,-1.68867,0.328518,1.25267,0.402101,0.413166,0.00798756,0.518801,-0.0807962,0.397729,0.0833189,0.000109416,1.83246,-27.032,2.48842,24.7372,3.45214,1.54168,-0.0163725,-2.50987,1.15141,-2.48315,-0.221335,-0.593822,0.429812,0.454043,0.213239,0.361884,-1.02706,0.631705,-0.322304,-0.00759421,
0.0958289,-0.20378,-0.229803,-1.67881,0.27268,-0.322579,-0.383182,0.524462,-0.0517272,0.591845,-0.193253,0.36768,0.174239,0.00949996,0,0,0,0,0,0,0,0.142461,-0.203118,-0.172831,-1.68867,0.328518,1.25267,0.402101,0.413166,0.00798756,0.518801,-0.0807962,0.397729,0.0833189,0.000109416,1.83246,-27.032,2.48842,24.7372,3.45214,1.54168,-0.0163725,-2.50987,1.15141,-2.48315,-0.221335,-0.593822,0.429812,0.454043,0.213239,0.361884,-1.02706,0.631705,-0.322304,-0.00759421,
0.148737,-0.203499,-0.165684,-1.69075,0.332557,-0.315538,-0.383179,0.554964,-0.0334158,0.633337,-0.185715,0.320109,0.242837,0.00977239,0,0,0,0,0,0,0,0.161467,-0.202571,-0.150482,-1.69173,0.342403,1.25609,0.402105,0.451339,0.0134632,0.544542,-0.0703707,0.277731,0.0811095,5.79651e-05,-0.0718349,-26.8099,0.512709,24.3604,2.8598,1.77331,-0.050247,-2.91369,1.52696,-2.15371,-0.40597,-1.04252,0.600632,0.635217,-0.0886938,0.541986,-0.848403,0.754138,-0.30728,-0.00833513,
0.151048,-0.203614,-0.163041,-1.69149,0.333811,-0.314532,-0.383141,0.57765,-0.0289488,0.66074,-0.18683,0.313444,0.251521,0.00944145,0,0,0,0,0,0,0,0.161467,-0.202571,-0.150482,-1.69173,0.342403,1.25609,0.402105,0.451339,0.0134632,0.544542,-0.0703707,0.277731,0.0811095,5.79651e-05,-0.0718349,-26.8099,0.512709,24.3604,2.8598,1.77331,-0.050247,-2.17516,0.868263,-2.187,0.0830833,-0.483101,0.283647,0.306063,0.176044,0.178057,-0.903376,0.743055,-0.252344,-0.009204,
0.15343,-0.203711,-0.160311,-1.69224,0.335056,-0.313492,-0.383105,0.595641,-0.0240576,0.682403,-0.186911,0.311183,0.260118,0.0091636,0,0,0,0,0,0,0,0.161467,-0.202571,-0.150482,-1.69173,0.342403,1.25609,0.402105,0.451339,0.0134632,0.544542,-0.0703707,0.277731,0.0811095,5.79651e-05,-0.0718349,-26.8099,0.512709,24.3604,2.8598,1.77331,-0.050247,-2.17516,0.868263,-2.187,0.0830833,-0.483101,0.283647,0.306063,0.176044,0.178057,-0.903376,0.743055,-0.252344,-0.009204,
0.155868,-0.203787,-0.157514,-1.69299,0.336308,-0.312421,-0.383069,0.609567,-0.0190525,0.699385,-0.186314,0.31299,0.267548,0.00900374,0,0,0,0,0,0,0,0.161467,-0.202571,-0.150482,-1.69173,0.342403,1.25609,0.402105,0.451339,0.0134632,0.544542,-0.0703707,0.277731,0.0811095,5.79651e-05,-0.0718349,-26.8099,0.512709,24.3604,2.8598,1.77331,-0.050247,-1.47712,1.84843,-2.34819,-0.607087,0.0954666,0.722111,0.706141,0.57817,0.70017,-1.02404,0.830146,-0.236086,-0.0102805,
0.158352,-0.203844,-0.154662,-1.69373,0.33755,-0.311326,-0.383033,0.620963,-0.0143826,0.712871,-0.184953,0.310657,0.2739,0.00883573,0,0,0,0,0,0,0,0.161467,-0.202571,-0.150482,-1.69173,0.342403,1.25609,0.402105,0.451339,0.0134632,0.544542,-0.0703707,0.277731,0.0811095,5.79651e-05,-0.0718349,-26.8099,0.512709,24.3604,2.8598,1.77331,-0.050247,-1.47712,1.84843,-2.34819,-0.607087,0.0954666,0.722111,0.706141,0.57817,0.70017,-1.02404,0.830146,-0.236086,-0.0102805,
0.160874,-0.203886,-0.151767,-1.69446,0.338753,-0.310208,-0.382999,0.630386,-0.0102886,0.723811,-0.183023,0.300709,0.279482,0.00861603,0,0,0,0,0,0,0,0.175978,-0.202477,-0.132832,-1.69415,0.34809,1.25952,0.402103,0.464954,-0.00213039,0.56565,-0.0849508,0.122576,0.140394,6.21245e-05,1.80469,-27.1352,1.83778,24.2374,2.93304,1.91887,-0.0365141,-2.13169,-1.8875,-2.49464,1.91261,-0.336717,-0.975721,-0.954406,0.143003,-1.23982,-0.967435,0.463997,-0.176238,-0.00672638,
0.163424,-0.203912,-0.148837,-1.69518,0.339901,-0.30907,-0.382965,0.637643,-0.00673142,0.73254,-0.180996,0.286889,0.284499,0.00842512,0,0,0,0,0,0,0,0.175978,-0.202477,-0.132832,-1.69415,0.34809,1.25952,0.402103,0.464954,-0.00213039,0.56565,-0.0849508,0.122576,0.140394,6.21245e-05,1.80469,-27.1352,1.83778,24.2374,2.93304,1.91887,-0.0365141,-2.13169,-1.8875,-2.49464,1.91261,-0.336717,-0.975721,-0.954406,0.143003,-1.23982,-0.967435,0.463997,-0.176238,-0.00672638,
0.165996,-0.203927,-0.14588,-1.6959,0.340985,-0.307913,-0.382932,0.643003,-0.0036362,0.739243,-0.179013,0.271102,0.28912,0.00824936,0,0,0,0,0,0,0,0.175978,-0.202477,-0.132832,-1.69415,0.34809,1.25952,0.402103,0.464954,-0.00213039,0.56565,-0.0849508,0.122576,0.140394,6.21245e-05,1.80469,-27.1352,1.83778,24.2374,2.93304,1.91887,-0.0365141,-2.5646,-1.11598,-2.66371,1.3361,-0.593229,-0.58418,-0.504717,0.0815099,-0.838906,-1.0007,0.498047,-0.200456,-0.0076481,
0.168583,-0.203931,-0.142903,-1.69661,0.342002,-0.306739,-0.3829,0.646744,-0.000932519,0.744158,-0.177099,0.254332,0.293483,0.00809936,0,0,0,0,0,0,0,0.175978,-0.202477,-0.132832,-1.69415,0.34809,1.25952,0.402103,0.464954,-0.00213039,0.56565,-0.0849508,0.122576,0.140394,6.21245e-05,1.80469,-27.1352,1.83778,24.2374,2.93304,1.91887,-0.0365141,-2.5646,-1.11598,-2.66371,1.3361,-0.593229,-0.58418,-0.504717,0.0815099,-0.838906,-1.0007,0.498047,-0.200456,-0.0076481,
0.17118,-0.203925,-0.139913,-1.69731,0.342951,-0.305549,-0.382868,0.64912,0.00143655,0.747536,-0.175241,0.23709,0.2977,0.00795468,0,0,0,0,0,0,0,0.175978,-0.202477,-0.132832,-1.69415,0.34809,1.25952,0.402103,0.464954,-0.00213039,0.56565,-0.0849508,0.122576,0.140394,6.21245e-05,1.80469,-27.1352,1.83778,24.2374,2.93304,1.91887,-0.0365141,-2.59848,0.0181903,-2.73912,0.512462,-0.574783,-0.0395056,0.000510663,0.189111,-0.185084,-1.05054,0.57914,-0.235806,-0.0106456,
0.173781,-0.203911,-0.136915,-1.698,0.343829,-0.304341,-0.382837,0.650352,0.00351679,0.74961,-0.173417,0.219644,0.301851,0.00782302,0,0,0,0,0,0,0,0.175978,-0.202477,-0.132832,-1.69415,0.34809,1.25952,0.402103,0.464954,-0.00213039,0.56565,-0.0849508,0.122576,0.140394,6.21245e-05,1.80469,-27.1352,1.83778,24.2374,2.93304,1.91887,-0.0365141,-2.73632,0.561851,-2.77738,-0.0145963,-0.700973,0.247871,0.240553,0.17439,0.207928,-1.02703,0.497704,-0.230053,-0.0121804,
0.176384,-0.20389,-0.133912,-1.69869,0.344638,-0.303117,-0.382806,0.650629,0.00534478,0.75059,-0.17161,0.20214,0.305988,0.00769735,0,0,0,0,0,0,0,0.191576,-0.202532,-0.114202,-1.69702,0.35086,1.26616,0.402103,0.474492,0.000519961,0.57447,-0.0857521,0.0849211,0.215528,0.000635552,0.66608,-26.433,1.23872,24.5111,2.48077,2.03148,-0.0301054,-2.73632,0.561851,-2.77738,-0.0145963,-0.700973,0.247871,0.240553,0.17439,0.207928,-1.02703,0.497704,-0.230053,-0.0121804,
0.178984,-0.203862,-0.13091,-1.69937,0.345376,-0.301877,-0.382775,0.650112,0.00695115,0.750655,-0.169804,0.184662,0.310139,0.0075776,0,0,0,0,0,0,0,0.191576,-0.202532,-0.114202,-1.69702,0.35086,1.26616,0.402103,0.474492,0.000519961,0.57447,-0.0857521,0.0849211,0.215528,0.000635552,0.66608,-26.433,1.23872,24.5111,2.48077,2.03148,-0.0301054,-1.89473,-0.0322081,-3.39085,0.216228,0.107094,-0.0552097,-0.0710944,0.684727,-0.109057,-1.27131,0.295451,-0.149727,-0.00907696,
0.18158,-0.203828,-0.12791,-1.70004,0.346046,-0.300619,-0.382746,0.648933,0.00836219,0.749957,-0.16799,0.167288,0.314318,0.00745747,0,0,0,0,0,0,0,0.191576,-0.202532,-0.114202,-1.69702,0.35086,1.26616,0.402103,0.474492,0.000519961,0.57447,-0.0857521,0.0849211,0.215528,0.000635552,0.66608,-26.433,1.23872,24.5111,2.48077,2.03148,-0.0301054,-1.89473,-0.0322081,-3.39085,0.216228,0.107094,-0.0552097,-0.0710944,0.684727,-0.109057,-1.27131,0.295451,-0.149727,-0.00907696,
0.184169,-0.20379,-0.124915,-1.7007,0.346646,-0.299345,-0.382716,0.647201,0.00960307,0.748619,-0.166166,0.150144,0.318524,0.00734942,0,0,0,0,0,0,0,0.191576,-0.202532,-0.114202,-1.69702,0.35086,1.26616,0.402103,0.474492,0.000519961,0.57447,-0.0857521,0.0849211,0.215528,0.000635552,0.66608,-26.433,1.23872,24.5111,2.48077,2.03148,-0.0301054,-1.50664,0.136498,-3.4904,0.0728574,0.404371,0.00250139,-0.00510119,0.864799,-0.0501647,-1.31176,0.299182,-0.106238,-0.00988168,
0.186749,-0.203747,-0.121928,-1.70136,0.34718,-0.298054,-0.382687,0.644986,0.0107012,0.746727,-0.164341,0.133543,0.322742,0.00722755,0,0,0,0,0,0,0,0.191576,-0.202532,-0.114202,-1.69702,0.35086,1.26616,0.402103,0.474492,0.000519961,0.57447,-0.0857521,0.0849211,0.215528,0.000635552,0.66608,-26.433,1.23872,24.5111,2.48077,2.03148,-0.0301054,-1.50664,0.136498,-3.4904,0.0728574,0.404371,0.00250139,-0.00510119,0.864799,-0.0501647,-1.31176,0.299182,-0.106238,-0.00988168,
0.189318,-0.2037,-0.118951,-1.70201,0.347654,-0.296747,-0.382659,0.642303,0.0116958,0.744315,-0.162557,0.118327,0.326934,0.00703174,0,0,0,0,0,0,0,0.207046,-0.202524,-0.095673,-1.69945,0.352366,1.27347,0.402105,0.474914,-0.000995366,0.573248,-0.0765832,0.00694658,0.240135,0.000730689,0.590702,-26.5361,0.838026,24.5111,2.8836,1.98571,-0.050247,-1.55741,1.0689,-3.24894,-0.570851,0.243013,0.440024,0.449738,0.7899,0.434284,-1.19736,0.380392,-0.0899377,-0.00946731,
0.191874,-0.20365,-0.115986,-1.70266,0.348081,-0.295422,-0.382631,0.638935,0.0126523,0.741377,-0.160947,0.106779,0.331033,0.00702498,0,0,0,0,0,0,0,0.207046,-0.202524,-0.095673,-1.69945,0.352366,1.27347,0.402105,0.474914,-0.000995366,0.573248,-0.0765832,0.00694658,0.240135,0.000730689,0.590702,-26.5361,0.838026,24.5111,2.8836,1.98571,-0.050247,-1.25154,0.738817,-3.55739,-0.388102,0.582639,0.269145,0.278767,1.00726,0.241611,-1.32652,0.335954,-0.0644449,-0.0101736,
0.194417,-0.203596,-0.113032,-1.70329,0.348444,-0.294082,-0.382603,0.635969,0.0134233,0.738301,-0.158947,0.0907249,0.335105,0.00695806,0,0,0,0,0,0,0,0.207046,-0.202524,-0.095673,-1.69945,0.352366,1.27347,0.402105,0.474914,-0.000995366,0.573248,-0.0765832,0.00694658,0.240135,0.000730689,0.590702,-26.5361,0.838026,24.5111,2.8836,1.98571,-0.050247,-1.25154,0.738817,-3.55739,-0.388102,0.582639,0.269145,0.278767,1.00726,0.241611,-1.32652,0.335954,-0.0644449,-0.0101736,
0.196949,-0.20354,-0.110092,-1.70392,0.348733,-0.292725,-0.382576,0.632854,0.0140208,0.735208,-0.156878,0.0724334,0.339169,0.0068476,0,0,0,0,0,0,0,0.207046,-0.202524,-0.095673,-1.69945,0.352366,1.27347,0.402105,0.474914,-0.000995366,0.573248,-0.0765832,0.00694658,0.240135,0.000730689,0.590702,-26.5361,0.838026,24.5111,2.8836,1.98571,-0.050247,-1.3699,-0.965597,-3.39279,0.807257,0.406245,-0.507773,-0.486971,0.737387,-0.647079,-1.20636,0.221843,-0.0146901,-0.00756049,
0.199467,-0.203482,-0.107164,-1.70454,0.348947,-0.291353,-0.382549,0.629502,0.0144977,0.731975,-0.154859,0.0535099,0.343181,0.00674789,0,0,0,0,0,0,0,0.207046,-0.202524,-0.095673,-1.69945,0.352366,1.27347,0.402105,0.474914,-0.000995366,0.573248,-0.0765832,0.00694658,0.240135,0.000730689,0.590702,-26.5361,0.838026,24.5111,2.8836,1.98571,-0.050247,-1.3699,-0.965597,-3.39279,0.807257,0.406245,-0.507773,-0.486971,0.737387,-0.647079,-1.20636,0.221843,-0.0146901,-0.00756049,
0.201971,-0.203422,-0.104249,-1.70515,0.349086,-0.289964,-0.382522,0.625938,0.0148964,0.728549,-0.152904,0.0346609,0.347106,0.00664465,0,0,0,0,0,0,0,0.207046,-0.202524,-0.095673,-1.69945,0.352366,1.27347,0.402105,0.474914,-0.000995366,0.573248,-0.0765832,0.00694658,0.240135,0.000730689,0.590702,-26.5361,0.838026,24.5111,2.8836,1.98571,-0.050247,-1.70098,-0.916312,-3.2646,0.814578,0.124144,-0.459566,-0.44016,0.561723,-0.596174,-1.1374,0.279864,-0.02821,-0.00630694,
