PerkyPenguin/Analysis-on-Approximated-Derivatives/Code_and_Data/PaperData/Real_Robot/Scene_2/contact_change/9/trajectory.csv
Commanded Joint 0 Position,Commanded Joint 1 Position,Commanded Joint 2 Position,Commanded Joint 3 Position,Commanded Joint 4 Position,Commanded Joint 5 Position,Commanded Joint 6 Position,Commanded Joint 0 Velocity,Commanded Joint 1 Velocity,Commanded Joint 2 Velocity,Commanded Joint 3 Velocity,Commanded Joint 4 Velocity,Commanded Joint 5 Velocity,Commanded Joint 6 Velocity,Commanded Joint 0 Torque,Commanded Joint 1 Torque,Commanded Joint 2 Torque,Commanded Joint 3 Torque,Commanded Joint 4 Torque,Commanded Joint 5 Torque,Commanded Joint 6 Torque,Actual Joint 0 Position,Actual Joint 1 Position,Actual Joint 2 Position,Actual Joint 3 Position,Actual Joint 4 Position,Actual Joint 5 Position,Actual Joint 6 Position,Actual Joint 0 Velocity,Actual Joint 1 Velocity,Actual Joint 2 Velocity,Actual Joint 3 Velocity,Actual Joint 4 Velocity,Actual Joint 5 Velocity,Actual Joint 6 Velocity,Actual Joint 0 Torque,Actual Joint 1 Torque,Actual Joint 2 Torque,Actual Joint 3 Torque,Actual Joint 4 Torque,Actual Joint 5 Torque,Actual Joint 6 Torque,EE ext force 0,EE ext force 1,EE ext force 2,EE ext force 3,EE ext force 4,EE ext force 5,joint ext torque 0,joint ext torque 1,joint ext torque 2,joint ext torque 3,joint ext torque 4,joint ext torque 5,joint ext torque 6,
0.0210386,-0.0522651,0.511538,-1.56196,0.0372667,-0.0105371,0.532846,0.0114625,0.0309924,0.0155915,-0.143488,-0.0645222,0.200582,-0.00122822,0,0,0,0,0,0,0,0.0209576,-0.0524098,0.511426,-1.56054,0.0376338,1.55826,1.31825,-0.00100682,-2.99835e-05,0.00104782,-0.000650292,-0.0075176,-0.000596551,-0.00120674,0.233646,-27.4327,-0.812364,27.0264,1.17981,3.11913,0.11821,2.43699,2.10809,2.23111,-1.04842,1.35305,0.200631,0.223154,0.548724,0.196414,0.222908,0.195125,-0.297233,0.0906678,
0.0210985,-0.0520602,0.511618,-1.56258,0.0369291,-0.00970199,0.53284,0.0149746,0.0512145,0.0198703,-0.154395,-0.0844049,0.208769,-0.00132574,0,0,0,0,0,0,0,0.0209576,-0.0524098,0.511426,-1.56054,0.0376338,1.55826,1.31825,-0.00100682,-2.99835e-05,0.00104782,-0.000650292,-0.0075176,-0.000596551,-0.00120674,0.233646,-27.4327,-0.812364,27.0264,1.17981,3.11913,0.11821,2.43699,2.10809,2.23111,-1.04842,1.35305,0.200631,0.223154,0.548724,0.196414,0.222908,0.195125,-0.297233,0.0906678,
0.0209538,-0.0524092,0.511423,-1.56054,0.0375644,-0.0125426,0.532853,-0.000301101,3.82604e-05,-0.000235554,-0.000193475,-0.00300796,-0.000611641,-4.43085e-06,0,0,0,0,0,0,0,0.0209576,-0.0524098,0.511426,-1.56054,0.0376338,1.55826,1.31825,-0.00100682,-2.99835e-05,0.00104782,-0.000650292,-0.0075176,-0.000596551,-0.00120674,0.233646,-27.4327,-0.812364,27.0264,1.17981,3.11913,0.11821,2.54446,2.10531,2.22038,-1.05516,1.43319,0.168135,0.19275,0.593335,0.162281,0.209964,0.186599,-0.295929,0.091423,
0.0209526,-0.0524091,0.511422,-1.56054,0.0375546,-0.0125449,0.532853,-0.000311857,3.01445e-05,-0.000244262,-0.000149055,-0.00245209,-0.000562604,-1.72722e-06,0,0,0,0,0,0,0,0.0209576,-0.0524098,0.511426,-1.56054,0.0376338,1.55826,1.31825,-0.00100682,-2.99835e-05,0.00104782,-0.000650292,-0.0075176,-0.000596551,-0.00120674,0.233646,-27.4327,-0.812364,27.0264,1.17981,3.11913,0.11821,2.54446,2.10531,2.22038,-1.05516,1.43319,0.168135,0.19275,0.593335,0.162281,0.209964,0.186599,-0.295929,0.091423,
0.0209513,-0.052409,0.511421,-1.56054,0.0375465,-0.0125469,0.532853,-0.000310945,1.94631e-05,-0.000240803,-0.000115128,-0.0020201,-0.000515068,9.54362e-08,0,0,0,0,0,0,0,0.0209576,-0.0524098,0.511426,-1.56054,0.0376338,1.55826,1.31825,-0.00100682,-2.99835e-05,0.00104782,-0.000650292,-0.0075176,-0.000596551,-0.00120674,0.233646,-27.4327,-0.812364,27.0264,1.17981,3.11913,0.11821,2.35518,1.74782,2.32715,-0.750585,1.19706,0.0568143,0.0848098,0.416594,0.0383795,0.33348,0.166361,-0.24617,0.0918324,
0.0209501,-0.052409,0.51142,-1.56054,0.0375398,-0.0125488,0.532853,-0.000302452,6.92483e-06,-0.000229548,-8.86786e-05,-0.00168057,-0.000471796,1.31089e-06,0,0,0,0,0,0,0,0.020968,-0.0525285,0.511424,-1.56093,0.0376246,1.55864,1.31825,0.00234117,-0.0182408,-0.00314329,-0.0427027,-0.0117194,0.0411508,-0.00101355,0.134464,-25.9847,-0.736986,25.011,1.13128,2.95342,0.11821,2.35518,1.74782,2.32715,-0.750585,1.19706,0.0568143,0.0848098,0.416594,0.0383795,0.33348,0.166361,-0.24617,0.0918324,
0.0209489,-0.052409,0.511419,-1.56054,0.0375342,-0.0125506,0.532853,-0.000289243,-6.91093e-06,-0.000213539,-6.76612e-05,-0.00141057,-0.000433986,2.10339e-06,0,0,0,0,0,0,0,0.020968,-0.0525285,0.511424,-1.56093,0.0376246,1.55864,1.31825,0.00234117,-0.0182408,-0.00314329,-0.0427027,-0.0117194,0.0411508,-0.00101355,0.134464,-25.9847,-0.736986,25.011,1.13128,2.95342,0.11821,1.24066,1.492,1.57785,-0.719263,0.665322,0.253037,0.277664,0.256992,0.240682,0.15153,0.194292,-0.262075,0.0924829,
0.0209478,-0.0524091,0.511419,-1.56054,0.0375294,-0.0125522,0.532853,-0.000273298,-2.15807e-05,-0.000194867,-5.06491e-05,-0.00119329,-0.000401933,2.60333e-06,0,0,0,0,0,0,0,0.020968,-0.0525285,0.511424,-1.56093,0.0376246,1.55864,1.31825,0.00234117,-0.0182408,-0.00314329,-0.0427027,-0.0117194,0.0411508,-0.00101355,0.134464,-25.9847,-0.736986,25.011,1.13128,2.95342,0.11821,2.04707,2.04978,1.06843,-1.27389,1.45869,0.278558,0.298649,0.789336,0.289084,-0.1401,0.17891,-0.260372,0.0931312,
0.0214708,-0.0525043,0.511931,-1.5601,0.0236326,-0.0210189,0.532809,0.00566146,-0.00576112,0.00580114,0.00209074,-0.372502,-0.235177,-0.00105447,0,0,0,0,0,0,0,0.020968,-0.0525285,0.511424,-1.56093,0.0376246,1.55864,1.31825,0.00234117,-0.0182408,-0.00314329,-0.0427027,-0.0117194,0.0411508,-0.00101355,0.134464,-25.9847,-0.736986,25.011,1.13128,2.95342,0.11821,2.04707,2.04978,1.06843,-1.27389,1.45869,0.278558,0.298649,0.789336,0.289084,-0.1401,0.17891,-0.260372,0.0931312,
0.0215041,-0.0526125,0.511961,-1.56065,0.0241564,-0.0202159,0.532815,0.00553619,-0.00522532,0.00573602,0.00158276,-0.352962,-0.224838,-0.000962531,0,0,0,0,0,0,0,0.020968,-0.0525285,0.511424,-1.56093,0.0376246,1.55864,1.31825,0.00234117,-0.0182408,-0.00314329,-0.0427027,-0.0117194,0.0411508,-0.00101355,0.134464,-25.9847,-0.736986,25.011,1.13128,2.95342,0.11821,2.739,2.17209,1.3219,-1.3002,1.84821,0.138609,0.159048,0.948109,0.148037,-0.0799401,0.164124,-0.224727,0.0937856,
0.0215221,-0.0526327,0.51198,-1.56064,0.0227316,-0.0211274,0.532811,0.00450512,-0.00503683,0.00470089,0.00104078,-0.356202,-0.22788,-0.000940447,0,0,0,0,0,0,0,0.0209618,-0.0525047,0.511421,-1.56113,0.0376299,1.55894,1.31825,0.00477806,0.00065024,0.00218941,-0.000629856,-0.00221688,0.00172689,-0.000838239,0.0828892,-27.5835,-0.788561,27.2763,0.886837,3.25829,0.0980684,2.739,2.17209,1.3219,-1.3002,1.84821,0.138609,0.159048,0.948109,0.148037,-0.0799401,0.164124,-0.224727,0.0937856,
0.0215363,-0.0526518,0.511995,-1.56064,0.0212972,-0.0220481,0.532807,0.0035535,-0.00477973,0.00374444,0.000566836,-0.358579,-0.230163,-0.000919015,0,0,0,0,0,0,0,0.0209618,-0.0525047,0.511421,-1.56113,0.0376299,1.55894,1.31825,0.00477806,0.00065024,0.00218941,-0.000629856,-0.00221688,0.00172689,-0.000838239,0.0828892,-27.5835,-0.788561,27.2763,0.886837,3.25829,0.0980684,2.89921,2.27839,1.66446,-1.27254,1.82678,0.142465,0.158402,0.871832,0.153125,0.0545913,0.181484,-0.200114,0.0937718,
0.021547,-0.0526697,0.512006,-1.56064,0.0198563,-0.0229754,0.532804,0.00267959,-0.0044766,0.00286535,0.000151123,-0.360247,-0.231817,-0.000898426,0,0,0,0,0,0,0,0.0209618,-0.0525047,0.511421,-1.56113,0.0376299,1.55894,1.31825,0.00477806,0.00065024,0.00218941,-0.000629856,-0.00221688,0.00172689,-0.000838239,0.0828892,-27.5835,-0.788561,27.2763,0.886837,3.25829,0.0980684,2.66881,2.72569,1.60879,-1.6438,1.69313,0.409157,0.415963,0.819458,0.439729,0.00966337,0.177041,-0.227377,0.0943001,
0.0215546,-0.0526863,0.512015,-1.56064,0.0184109,-0.0239072,0.5328,0.00188015,-0.00414499,0.00206061,-0.000214234,-0.361329,-0.232949,-0.000878766,0,0,0,0,0,0,0,0.0209618,-0.0525047,0.511421,-1.56113,0.0376299,1.55894,1.31825,0.00477806,0.00065024,0.00218941,-0.000629856,-0.00221688,0.00172689,-0.000838239,0.0828892,-27.5835,-0.788561,27.2763,0.886837,3.25829,0.0980684,2.66881,2.72569,1.60879,-1.6438,1.69313,0.409157,0.415963,0.819458,0.439729,0.00966337,0.177041,-0.227377,0.0943001,
0.0215592,-0.0527015,0.51202,-1.56064,0.0169633,-0.0248418,0.532797,0.00115107,-0.0037984,0.00132625,-0.000535636,-0.361922,-0.233649,-0.000860053,0,0,0,0,0,0,0,0.0209618,-0.0525047,0.511421,-1.56113,0.0376299,1.55894,1.31825,0.00477806,0.00065024,0.00218941,-0.000629856,-0.00221688,0.00172689,-0.000838239,0.0828892,-27.5835,-0.788561,27.2763,0.886837,3.25829,0.0980684,2.23496,2.35171,1.91814,-1.38961,1.21455,0.35543,0.348798,0.482315,0.392483,0.16096,0.0728571,-0.250445,0.0941372,
0.0219886,-0.052642,0.512364,-1.55928,-0.00406466,-0.0545322,0.532328,0.00265437,-0.0097549,0.0016989,0.000930523,-1.13581,-1.16221,-0.0108977,0,0,0,0,0,0,0,0.0209618,-0.0525047,0.511421,-1.56113,0.0376299,1.55894,1.31825,0.00477806,0.00065024,0.00218941,-0.000629856,-0.00221688,0.00172689,-0.000838239,0.0828892,-27.5835,-0.788561,27.2763,0.886837,3.25829,0.0980684,2.23496,2.35171,1.91814,-1.38961,1.21455,0.35543,0.348798,0.482315,0.392483,0.16096,0.0728571,-0.250445,0.0941372,
0.0220709,-0.0526253,0.512453,-1.5595,-0.0037697,-0.0503747,0.532386,0.0049627,-0.0101085,0.00417576,0.00123855,-1.13547,-1.05603,-0.00970615,0,0,0,0,0,0,0,0.0210749,-0.0525092,0.511525,-1.5611,0.0342646,1.55889,1.31825,0.00331683,-0.00149906,0.0057545,-0.00937034,-0.157226,-0.00655909,-0.0018313,-0.730404,-27.5597,-1.61376,26.9788,-0.023197,2.72179,0.11821,2.41515,2.02872,2.16851,-1.24924,1.24213,0.152315,0.137271,0.448905,0.19588,0.181273,-0.0757473,-0.321402,0.0924893,
0.0220778,-0.0526584,0.512456,-1.55951,-0.00838103,-0.0546448,0.532348,0.00174113,-0.00827454,0.000985695,-0.0020806,-1.15283,-1.06752,-0.00956903,0,0,0,0,0,0,0,0.0210749,-0.0525092,0.511525,-1.5611,0.0342646,1.55889,1.31825,0.00331683,-0.00149906,0.0057545,-0.00937034,-0.157226,-0.00655909,-0.0018313,-0.730404,-27.5597,-1.61376,26.9788,-0.023197,2.72179,0.11821,2.41515,2.02872,2.16851,-1.24924,1.24213,0.152315,0.137271,0.448905,0.19588,0.181273,-0.0757473,-0.321402,0.0924893,
0.0220728,-0.0526836,0.512449,-1.55953,-0.0130503,-0.058946,0.53231,-0.00125288,-0.00629503,-0.00198438,-0.00497667,-1.16733,-1.07531,-0.0094326,0,0,0,0,0,0,0,0.0210749,-0.0525092,0.511525,-1.5611,0.0342646,1.55889,1.31825,0.00331683,-0.00149906,0.0057545,-0.00937034,-0.157226,-0.00655909,-0.0018313,-0.730404,-27.5597,-1.61376,26.9788,-0.023197,2.72179,0.11821,2.62592,2.35285,2.18988,-1.54066,1.38595,0.238426,0.222378,0.526794,0.292579,0.135468,-0.122985,-0.341199,0.0913912,
0.0220567,-0.0527006,0.51243,-1.55956,-0.0177682,-0.0632662,0.532273,-0.00402269,-0.00425045,-0.00473646,-0.00750167,-1.17946,-1.08003,-0.00929752,0,0,0,0,0,0,0,0.0210749,-0.0525092,0.511525,-1.5611,0.0342646,1.55889,1.31825,0.00331683,-0.00149906,0.0057545,-0.00937034,-0.157226,-0.00655909,-0.0018313,-0.730404,-27.5597,-1.61376,26.9788,-0.023197,2.72179,0.11821,2.62592,2.35285,2.18988,-1.54066,1.38595,0.238426,0.222378,0.526794,0.292579,0.135468,-0.122985,-0.341199,0.0913912,
0.0220304,-0.0527094,0.5124,-1.55959,-0.0225268,-0.067595,0.532236,-0.00657584,-0.00220091,-0.0072771,-0.00969984,-1.18965,-1.0822,-0.00916416,0,0,0,0,0,0,0,0.0210749,-0.0525092,0.511525,-1.5611,0.0342646,1.55889,1.31825,0.00331683,-0.00149906,0.0057545,-0.00937034,-0.157226,-0.00655909,-0.0018313,-0.730404,-27.5597,-1.61376,26.9788,-0.023197,2.72179,0.11821,3.97912,3.93006,2.75967,-2.58625,2.13254,0.559927,0.538334,0.834727,0.646403,0.212108,-0.140567,-0.282092,0.100974,
0.0163281,-0.0514161,0.506335,-1.56309,0.00331837,-0.0544458,0.528214,-0.160453,0.0530289,-0.16997,-0.0846898,-1.0304,-1.22492,-0.0914204,0,0,0,0,0,0,0,0.0214549,-0.0525498,0.511913,-1.56056,0.0211937,1.55402,1.31825,0.0210174,0.000688375,0.0228972,0.0338075,-0.646933,-0.302348,0.000222489,-1.3374,-27.5319,-2.06206,25.4077,-1.99616,0.798269,0.0641939,3.97912,3.93006,2.75967,-2.58625,2.13254,0.559927,0.538334,0.834727,0.646403,0.212108,-0.140567,-0.282092,0.100974,
0.0164418,-0.0518351,0.506502,-1.56264,-0.0222446,-0.0637131,0.528698,-0.164228,0.0517875,-0.173092,-0.0803894,-1.08405,-1.24907,-0.080723,0,0,0,0,0,0,0,0.0214549,-0.0525498,0.511913,-1.56056,0.0211937,1.55402,1.31825,0.0210174,0.000688375,0.0228972,0.0338075,-0.646933,-0.302348,0.000222489,-1.3374,-27.5319,-2.06206,25.4077,-1.99616,0.798269,0.0641939,3.84541,3.20484,3.08943,-2.52655,2.03812,0.242734,0.217098,0.788657,0.342563,-0.0212921,-0.564654,-0.683843,0.100165,
0.0157609,-0.0516031,0.505786,-1.56298,-0.0266628,-0.0687855,0.528379,-0.170233,0.0580074,-0.179092,-0.0843876,-1.10456,-1.26811,-0.0796772,0,0,0,0,0,0,0,0.0214549,-0.0525498,0.511913,-1.56056,0.0211937,1.55402,1.31825,0.0210174,0.000688375,0.0228972,0.0338075,-0.646933,-0.302348,0.000222489,-1.3374,-27.5319,-2.06206,25.4077,-1.99616,0.798269,0.0641939,3.84541,3.20484,3.08943,-2.52655,2.03812,0.242734,0.217098,0.788657,0.342563,-0.0212921,-0.564654,-0.683843,0.100165,
0.0150585,-0.0513479,0.505048,-1.56333,-0.0311542,-0.0739211,0.528064,-0.175589,0.0638088,-0.184441,-0.0878887,-1.12286,-1.2839,-0.0786412,0,0,0,0,0,0,0,0.0214549,-0.0525498,0.511913,-1.56056,0.0211937,1.55402,1.31825,0.0210174,0.000688375,0.0228972,0.0338075,-0.646933,-0.302348,0.000222489,-1.3374,-27.5319,-2.06206,25.4077,-1.99616,0.798269,0.0641939,3.18255,2.87254,3.08527,-2.72447,1.62558,0.260862,0.231073,0.604263,0.380856,-0.248951,-0.905867,-0.986994,0.0940343,
0.014337,-0.0510711,0.504291,-1.56369,-0.0357109,-0.079109,0.527754,-0.180363,0.0691836,-0.189211,-0.0909335,-1.13916,-1.29696,-0.0776127,0,0,0,0,0,0,0,0.0214549,-0.0525498,0.511913,-1.56056,0.0211937,1.55402,1.31825,0.0210174,0.000688375,0.0228972,0.0338075,-0.646933,-0.302348,0.000222489,-1.3374,-27.5319,-2.06206,25.4077,-1.99616,0.798269,0.0641939,2.30862,3.38942,3.7996,-2.85588,0.738866,0.75205,0.731655,0.00837235,0.861891,0.0905211,-0.800644,-0.976982,0.080567,
0.0135986,-0.0507746,0.503518,-1.56407,-0.0403255,-0.0843399,0.527448,-0.184615,0.0741332,-0.193461,-0.0935609,-1.15366,-1.30773,-0.0765903,0,0,0,0,0,0,0,0.0214549,-0.0525498,0.511913,-1.56056,0.0211937,1.55402,1.31825,0.0210174,0.000688375,0.0228972,0.0338075,-0.646933,-0.302348,0.000222489,-1.3374,-27.5319,-2.06206,25.4077,-1.99616,0.798269,0.0641939,2.30862,3.38942,3.7996,-2.85588,0.738866,0.75205,0.731655,0.00837235,0.861891,0.0905211,-0.800644,-0.976982,0.080567,
0.0110333,-0.0507673,0.500926,-1.56594,-0.0157771,-0.0617731,0.524782,-0.319091,0.108926,-0.332375,-0.156461,-0.989897,-1.21352,-0.157127,0,0,0,0,0,0,0,0.0219285,-0.0527142,0.512415,-1.55987,-0.00127979,1.5416,1.31788,-0.00223099,-0.00523162,-0.0091202,-0.00356811,-0.738462,-0.462267,-0.0335754,-3.67016,-25.461,-4.88677,24.9118,-0.951542,0.918204,-0.083206,1.42056,2.51786,4.6661,-2.02852,-0.127586,0.61827,0.621942,-0.573708,0.678171,0.407574,-0.766604,-1.1105,0.0564888,
0.0113616,-0.0507195,0.50133,-1.56513,-0.0410227,-0.0772863,0.525367,-0.312007,0.106788,-0.324271,-0.145071,-1.01568,-1.232,-0.137006,0,0,0,0,0,0,0,0.0219285,-0.0527142,0.512415,-1.55987,-0.00127979,1.5416,1.31788,-0.00223099,-0.00523162,-0.0091202,-0.00356811,-0.738462,-0.462267,-0.0335754,-3.67016,-25.461,-4.88677,24.9118,-0.951542,0.918204,-0.083206,1.42056,2.51786,4.6661,-2.02852,-0.127586,0.61827,0.621942,-0.573708,0.678171,0.407574,-0.766604,-1.1105,0.0564888,
0.0100792,-0.0502563,0.499998,-1.56573,-0.0451957,-0.0822789,0.524827,-0.32061,0.115795,-0.332918,-0.148952,-1.04325,-1.24813,-0.135058,0,0,0,0,0,0,0,0.0219285,-0.0527142,0.512415,-1.55987,-0.00127979,1.5416,1.31788,-0.00223099,-0.00523162,-0.0091202,-0.00356811,-0.738462,-0.462267,-0.0335754,-3.67016,-25.461,-4.88677,24.9118,-0.951542,0.918204,-0.083206,3.81255,0.867063,4.17013,-1.26907,1.97331,-0.801536,-0.778816,0.725994,-0.770572,-0.216549,-1.0479,-1.39701,0.0308235,
0.00876638,-0.0497602,0.498636,-1.56634,-0.0494691,-0.0873249,0.524294,-0.328196,0.124033,-0.340542,-0.152313,-1.06836,-1.2615,-0.133126,0,0,0,0,0,0,0,0.0219285,-0.0527142,0.512415,-1.55987,-0.00127979,1.5416,1.31788,-0.00223099,-0.00523162,-0.0091202,-0.00356811,-0.738462,-0.462267,-0.0335754,-3.67016,-25.461,-4.88677,24.9118,-0.951542,0.918204,-0.083206,3.73589,0.181283,3.46646,-1.03496,2.2698,-1.07684,-1.05461,1.04786,-1.04571,-0.581116,-1.10666,-1.53453,0.00480676,
0.00742686,-0.049234,0.497247,-1.56696,-0.0538336,-0.092415,0.52377,-0.33488,0.131536,-0.347262,-0.155187,-1.09114,-1.27255,-0.131207,0,0,0,0,0,0,0,0.0219285,-0.0527142,0.512415,-1.55987,-0.00127979,1.5416,1.31788,-0.00223099,-0.00523162,-0.0091202,-0.00356811,-0.738462,-0.462267,-0.0335754,-3.67016,-25.461,-4.88677,24.9118,-0.951542,0.918204,-0.083206,3.73589,0.181283,3.46646,-1.03496,2.2698,-1.07684,-1.05461,1.04786,-1.04571,-0.581116,-1.10666,-1.53453,0.00480676,
0.00606382,-0.0486807,0.495834,-1.56759,-0.0582806,-0.0975416,0.523252,-0.34076,0.138341,-0.353178,-0.15761,-1.11173,-1.28164,-0.129297,0,0,0,0,0,0,0,0.0218177,-0.0530877,0.512164,-1.56008,-0.0246284,1.52518,1.31654,-0.0201464,-0.00627898,-0.0376139,-0.0144326,-0.688733,-0.505519,-0.051122,-6.45916,-24.5128,-7.48534,24.039,-0.95795,0.971304,-0.110672,0.804726,-0.125352,3.18034,-0.736731,0.306414,-0.368815,-0.360285,0.0555566,-0.335158,-0.451228,-0.909246,-1.58485,-0.0260348,
0.00468014,-0.0481027,0.494401,-1.56823,-0.0628017,-0.102698,0.522743,-0.345921,0.144489,-0.358375,-0.159617,-1.13029,-1.28909,-0.127396,0,0,0,0,0,0,0,0.0218177,-0.0530877,0.512164,-1.56008,-0.0246284,1.52518,1.31654,-0.0201464,-0.00627898,-0.0376139,-0.0144326,-0.688733,-0.505519,-0.051122,-6.45916,-24.5128,-7.48534,24.039,-0.95795,0.971304,-0.110672,0.804726,-0.125352,3.18034,-0.736731,0.306414,-0.368815,-0.360285,0.0555566,-0.335158,-0.451228,-0.909246,-1.58485,-0.0260348,
0.00639064,-0.0498461,0.496282,-1.56817,-0.0352072,-0.0754041,0.521634,-0.453437,0.156593,-0.468103,-0.213923,-0.932295,-1.19764,-0.209664,0,0,0,0,0,0,0,0.0218177,-0.0530877,0.512164,-1.56008,-0.0246284,1.52518,1.31654,-0.0201464,-0.00627898,-0.0376139,-0.0144326,-0.688733,-0.505519,-0.051122,-6.45916,-24.5128,-7.48534,24.039,-0.95795,0.971304,-0.110672,0.945783,0.0509849,3.00512,-0.842749,0.559059,-0.304149,-0.295521,0.261839,-0.268406,-0.570623,-0.808297,-1.61566,-0.0579458,
0.0066247,-0.0502918,0.496433,-1.56747,-0.0592943,-0.0927137,0.521711,-0.435842,0.145294,-0.449104,-0.190422,-0.945698,-1.20154,-0.180134,0,0,0,0,0,0,0,0.0218177,-0.0530877,0.512164,-1.56008,-0.0246284,1.52518,1.31654,-0.0201464,-0.00627898,-0.0376139,-0.0144326,-0.688733,-0.505519,-0.051122,-6.45916,-24.5128,-7.48534,24.039,-0.95795,0.971304,-0.110672,1.87569,-0.319955,3.29653,-0.552972,1.12074,-0.711442,-0.698904,0.509903,-0.687741,-0.535274,-0.878318,-1.62082,-0.0884949,
0.00483771,-0.0496653,0.494593,-1.56825,-0.0632183,-0.097582,0.521002,-0.446748,0.156647,-0.460085,-0.194348,-0.980991,-1.21707,-0.177298,0,0,0,0,0,0,0,0.0218177,-0.0530877,0.512164,-1.56008,-0.0246284,1.52518,1.31654,-0.0201464,-0.00627898,-0.0376139,-0.0144326,-0.688733,-0.505519,-0.051122,-6.45916,-24.5128,-7.48534,24.039,-0.95795,0.971304,-0.110672,1.87569,-0.319955,3.29653,-0.552972,1.12074,-0.711442,-0.698904,0.509903,-0.687741,-0.535274,-0.878318,-1.62082,-0.0884949,
0.00301246,-0.0489974,0.492714,-1.56904,-0.0672716,-0.102502,0.520304,-0.456313,0.166956,-0.469715,-0.197714,-1.01332,-1.22994,-0.174484,0,0,0,0,0,0,0,0.0194981,-0.05364,0.509156,-1.56178,-0.0526854,1.50135,1.31455,-0.0822464,-0.0258438,-0.110772,-0.0571678,-0.651199,-0.647744,-0.0599105,-7.16931,-22.8902,-8.0844,23.9636,-0.572513,1.97198,-0.197647,3.38364,0.167141,3.04584,-0.88491,2.24909,-0.87521,-0.868976,1.13896,-0.836412,-0.65216,-0.849972,-1.4788,-0.116412,
0.00115369,-0.0482923,0.490801,-1.56984,-0.0714428,-0.107464,0.519617,-0.464693,0.176282,-0.478153,-0.200551,-1.04281,-1.24056,-0.171689,0,0,0,0,0,0,0,0.0194981,-0.05364,0.509156,-1.56178,-0.0526854,1.50135,1.31455,-0.0822464,-0.0258438,-0.110772,-0.0571678,-0.651199,-0.647744,-0.0599105,-7.16931,-22.8902,-8.0844,23.9636,-0.572513,1.97198,-0.197647,3.38364,0.167141,3.04584,-0.88491,2.24909,-0.87521,-0.868976,1.13896,-0.836412,-0.65216,-0.849972,-1.4788,-0.116412,
-0.000734384,-0.0475536,0.488859,-1.57066,-0.0757211,-0.112461,0.518941,-0.472018,0.184685,-0.485534,-0.202897,-1.06958,-1.24929,-0.168908,0,0,0,0,0,0,0,0.0194981,-0.05364,0.509156,-1.56178,-0.0526854,1.50135,1.31455,-0.0822464,-0.0258438,-0.110772,-0.0571678,-0.651199,-0.647744,-0.0599105,-7.16931,-22.8902,-8.0844,23.9636,-0.572513,1.97198,-0.197647,3.11078,0.605631,2.12901,-1.19725,2.34019,-0.558929,-0.564768,1.32288,-0.500339,-0.827158,-0.669288,-1.30956,-0.141289,
-0.00264799,-0.0467847,0.486891,-1.57148,-0.0800964,-0.117487,0.518277,-0.478401,0.192227,-0.491971,-0.204787,-1.09382,-1.25642,-0.166141,0,0,0,0,0,0,0,0.0194981,-0.05364,0.509156,-1.56178,-0.0526854,1.50135,1.31455,-0.0822464,-0.0258438,-0.110772,-0.0571678,-0.651199,-0.647744,-0.0599105,-7.16931,-22.8902,-8.0844,23.9636,-0.572513,1.97198,-0.197647,3.11078,0.605631,2.12901,-1.19725,2.34019,-0.558929,-0.564768,1.32288,-0.500339,-0.827158,-0.669288,-1.30956,-0.141289,
0.00197072,-0.0495021,0.491751,-1.57029,-0.0539456,-0.0908752,0.518118,-0.56764,0.191335,-0.582241,-0.253666,-0.869741,-1.16803,-0.249914,0,0,0,0,0,0,0,0.0194981,-0.05364,0.509156,-1.56178,-0.0526854,1.50135,1.31455,-0.0822464,-0.0258438,-0.110772,-0.0571678,-0.651199,-0.647744,-0.0599105,-7.16931,-22.8902,-8.0844,23.9636,-0.572513,1.97198,-0.197647,1.27116,0.205123,2.00145,-0.664153,0.975747,-0.19399,-0.207067,0.562396,-0.1498,-0.530717,-0.45143,-1.15181,-0.173504,
-0.000614576,-0.0499275,0.488529,-1.57102,-0.0847514,-0.117635,0.518017,-0.552287,0.182394,-0.565306,-0.226537,-0.910458,-1.18159,-0.211043,0,0,0,0,0,0,0,0.0194981,-0.05364,0.509156,-1.56178,-0.0526854,1.50135,1.31455,-0.0822464,-0.0258438,-0.110772,-0.0571678,-0.651199,-0.647744,-0.0599105,-7.16931,-22.8902,-8.0844,23.9636,-0.572513,1.97198,-0.197647,0.311791,0.508663,2.61256,-0.518527,-0.0801408,0.239523,0.227256,-0.178629,0.27014,-0.0172388,-0.293162,-0.941248,-0.198852,
-0.00287151,-0.0491468,0.48622,-1.57194,-0.088551,-0.122412,0.517187,-0.564234,0.19517,-0.577347,-0.230153,-0.949897,-1.19428,-0.207371,0,0,0,0,0,0,0,0.0154308,-0.053932,0.504468,-1.56418,-0.0741972,1.47877,1.31201,-0.134699,-0.000519828,-0.176873,-0.0883695,-0.692683,-0.752566,-0.0681649,-6.12988,-23.64,-7.18779,24.5111,-1.2143,1.8731,-0.250748,0.311791,0.508663,2.61256,-0.518527,-0.0801408,0.239523,0.227256,-0.178629,0.27014,-0.0172388,-0.293162,-0.941248,-0.198852,
-0.0051701,-0.0483202,0.483868,-1.57287,-0.0924955,-0.127231,0.516372,-0.574646,0.206658,-0.587842,-0.233202,-0.986125,-1.20477,-0.203728,0,0,0,0,0,0,0,0.0154308,-0.053932,0.504468,-1.56418,-0.0741972,1.47877,1.31201,-0.134699,-0.000519828,-0.176873,-0.0883695,-0.692683,-0.752566,-0.0681649,-6.12988,-23.64,-7.18779,24.5111,-1.2143,1.8731,-0.250748,1.30264,0.95629,1.85602,-0.979468,0.871709,0.211564,0.197654,0.447258,0.260003,-0.314151,-0.289422,-0.836429,-0.221543,
-0.0075049,-0.0474524,0.48148,-1.57382,-0.0965725,-0.132085,0.515572,-0.583702,0.216948,-0.596971,-0.235715,-1.01923,-1.2134,-0.200109,0,0,0,0,0,0,0,0.0154308,-0.053932,0.504468,-1.56418,-0.0741972,1.47877,1.31201,-0.134699,-0.000519828,-0.176873,-0.0883695,-0.692683,-0.752566,-0.0681649,-6.12988,-23.64,-7.18779,24.5111,-1.2143,1.8731,-0.250748,1.30264,0.95629,1.85602,-0.979468,0.871709,0.211564,0.197654,0.447258,0.260003,-0.314151,-0.289422,-0.836429,-0.221543,
-0.0098711,-0.0465479,0.479061,-1.57477,-0.10077,-0.136967,0.514786,-0.591549,0.226126,-0.604889,-0.237727,-1.04936,-1.22046,-0.196513,0,0,0,0,0,0,0,0.0154308,-0.053932,0.504468,-1.56418,-0.0741972,1.47877,1.31201,-0.134699,-0.000519828,-0.176873,-0.0883695,-0.692683,-0.752566,-0.0681649,-6.12988,-23.64,-7.18779,24.5111,-1.2143,1.8731,-0.250748,0.216787,0.615429,1.15953,-0.803325,0.341258,0.370531,0.344079,0.275821,0.427062,-0.4402,-0.208845,-0.81122,-0.239059,
-0.0122644,-0.0456108,0.476614,-1.57572,-0.105077,-0.141872,0.514014,-0.598319,0.234275,-0.611725,-0.239272,-1.07668,-1.22618,-0.192937,0,0,0,0,0,0,0,0.0154308,-0.053932,0.504468,-1.56418,-0.0741972,1.47877,1.31201,-0.134699,-0.000519828,-0.176873,-0.0883695,-0.692683,-0.752566,-0.0681649,-6.12988,-23.64,-7.18779,24.5111,-1.2143,1.8731,-0.250748,0.10782,0.65434,1.05263,-0.731087,0.256528,0.436848,0.408998,0.225297,0.490059,-0.371144,-0.120745,-0.707601,-0.252927,
-0.00500741,-0.0491552,0.484595,-1.57372,-0.0799931,-0.115783,0.514521,-0.673367,0.225631,-0.687707,-0.287243,-0.837663,-1.14823,-0.278863,0,0,0,0,0,0,0,0.00968896,-0.0539431,0.49741,-1.56745,-0.0942081,1.4548,1.30928,-0.225172,0.000728504,-0.252079,-0.115025,-0.641643,-0.780822,-0.0858885,-6.45916,-23.9137,-7.48534,24.8602,-1.09803,1.75316,-0.284622,0.10782,0.65434,1.05263,-0.731087,0.256528,0.436848,0.408998,0.225297,0.490059,-0.371144,-0.120745,-0.707601,-0.252927,
-0.0164878,-0.0479651,0.470714,-1.57858,-0.127217,-0.165085,0.511601,-0.671514,0.230793,-0.684493,-0.260202,-0.928044,-1.15459,-0.231056,0,0,0,0,0,0,0,0.00968896,-0.0539431,0.49741,-1.56745,-0.0942081,1.4548,1.30928,-0.225172,0.000728504,-0.252079,-0.115025,-0.641643,-0.780822,-0.0858885,-6.45916,-23.9137,-7.48534,24.8602,-1.09803,1.75316,-0.284622,1.22823,0.896489,1.00525,-0.899801,1.08864,0.268514,0.248817,0.684116,0.318861,-0.464465,-0.117024,-0.668338,-0.267519,
-0.0192172,-0.0469937,0.467932,-1.57963,-0.131084,-0.169742,0.510695,-0.682347,0.242837,-0.695421,-0.262871,-0.966572,-1.16417,-0.22665,0,0,0,0,0,0,0,0.00968896,-0.0539431,0.49741,-1.56745,-0.0942081,1.4548,1.30928,-0.225172,0.000728504,-0.252079,-0.115025,-0.641643,-0.780822,-0.0858885,-6.45916,-23.9137,-7.48534,24.8602,-1.09803,1.75316,-0.284622,1.22823,0.896489,1.00525,-0.899801,1.08864,0.268514,0.248817,0.684116,0.318861,-0.464465,-0.117024,-0.668338,-0.267519,
-0.0219838,-0.0459797,0.465113,-1.58069,-0.135091,-0.17443,0.509806,-0.691642,0.253503,-0.704798,-0.264984,-1.00194,-1.17205,-0.222283,0,0,0,0,0,0,0,0.00968896,-0.0539431,0.49741,-1.56745,-0.0942081,1.4548,1.30928,-0.225172,0.000728504,-0.252079,-0.115025,-0.641643,-0.780822,-0.0858885,-6.45916,-23.9137,-7.48534,24.8602,-1.09803,1.75316,-0.284622,0.409245,1.34678,0.527721,-1.32437,0.728881,0.697226,0.679768,0.596981,0.759383,-0.637892,-0.0631065,-0.710901,-0.274756,
-0.024782,-0.0449281,0.462261,-1.58176,-0.139228,-0.179144,0.508934,-0.699571,0.262896,-0.712799,-0.266568,-1.03424,-1.17852,-0.217953,0,0,0,0,0,0,0,0.00968896,-0.0539431,0.49741,-1.56745,-0.0942081,1.4548,1.30928,-0.225172,0.000728504,-0.252079,-0.115025,-0.641643,-0.780822,-0.0858885,-6.45916,-23.9137,-7.48534,24.8602,-1.09803,1.75316,-0.284622,0.409245,1.34678,0.527721,-1.32437,0.728881,0.697226,0.679768,0.596981,0.759383,-0.637892,-0.0631065,-0.710901,-0.274756,
-0.0276071,-0.0438437,0.459383,-1.58283,-0.143483,-0.183879,0.508079,-0.706276,0.271116,-0.719573,-0.267651,-1.06363,-1.18377,-0.213657,0,0,0,0,0,0,0,0.00968896,-0.0539431,0.49741,-1.56745,-0.0942081,1.4548,1.30928,-0.225172,0.000728504,-0.252079,-0.115025,-0.641643,-0.780822,-0.0858885,-6.45916,-23.9137,-7.48534,24.8602,-1.09803,1.75316,-0.284622,0.0673,1.38318,-0.266901,-1.53203,0.855282,0.809447,0.790804,0.834383,0.882764,-0.975528,-0.0377783,-0.773461,-0.282725,
-0.0304547,-0.0427307,0.456482,-1.5839,-0.147844,-0.188632,0.507242,-0.711883,0.278256,-0.725243,-0.268266,-1.09027,-1.18801,-0.209395,0,0,0,0,0,0,0,0.000825928,-0.0537973,0.488,-1.57158,-0.114464,1.43026,1.3064,-0.297708,0.0109676,-0.341019,-0.134755,-0.603317,-0.735396,-0.11509,-7.39941,-23.4377,-8.36211,23.912,-0.951542,1.34942,-0.304764,-0.359463,-0.0211811,-0.0741454,-0.507576,0.516172,0.252606,0.230048,0.634366,0.30046,-0.895617,-0.0888191,-0.869247,-0.288132,
-0.0181669,-0.0467279,0.470096,-1.58108,-0.125725,-0.163587,0.508274,-0.727307,0.275335,-0.718757,-0.321009,-0.886053,-1.12927,-0.296236,0,0,0,0,0,0,0,0.000825928,-0.0537973,0.488,-1.57158,-0.114464,1.43026,1.3064,-0.297708,0.0109676,-0.341019,-0.134755,-0.603317,-0.735396,-0.11509,-7.39941,-23.4377,-8.36211,23.912,-0.951542,1.34942,-0.304764,-0.359463,-0.0211811,-0.0741454,-0.507576,0.516172,0.252606,0.230048,0.634366,0.30046,-0.895617,-0.0888191,-0.869247,-0.288132,
-0.0287153,-0.0467145,0.458977,-1.58371,-0.147869,-0.186879,0.508076,-0.748019,0.24602,-0.739767,-0.299305,-0.914383,-0.965971,-0.240917,0,0,0,0,0,0,0,0.000825928,-0.0537973,0.488,-1.57158,-0.114464,1.43026,1.3064,-0.297708,0.0109676,-0.341019,-0.134755,-0.603317,-0.735396,-0.11509,-7.39941,-23.4377,-8.36211,23.912,-0.951542,1.34942,-0.304764,0.391553,-1.91457,0.263366,0.744584,0.884505,-0.820963,-0.837752,0.753805,-0.809902,-0.824156,-0.348237,-0.943928,-0.288942,
-0.0317546,-0.045687,0.455956,-1.58493,-0.151661,-0.190488,0.507133,-0.75984,0.256874,-0.755295,-0.30574,-0.948171,-0.902355,-0.235882,0,0,0,0,0,0,0,0.000825928,-0.0537973,0.488,-1.57158,-0.114464,1.43026,1.3064,-0.297708,0.0109676,-0.341019,-0.134755,-0.603317,-0.735396,-0.11509,-7.39941,-23.4377,-8.36211,23.912,-0.951542,1.34942,-0.304764,0.391553,-1.91457,0.263366,0.744584,0.884505,-0.820963,-0.837752,0.753805,-0.809902,-0.824156,-0.348237,-0.943928,-0.288942,
-0.0348291,-0.0446196,0.452876,-1.58617,-0.155581,-0.193816,0.506209,-0.768616,0.266849,-0.770062,-0.310452,-0.979791,-0.83185,-0.230938,0,0,0,0,0,0,0,0.000825928,-0.0537973,0.488,-1.57158,-0.114464,1.43026,1.3064,-0.297708,0.0109676,-0.341019,-0.134755,-0.603317,-0.735396,-0.11509,-7.39941,-23.4377,-8.36211,23.912,-0.951542,1.34942,-0.304764,1.13731,-1.92646,-0.00874431,0.536675,1.52448,-1.00028,-1.0123,1.14415,-0.9817,-1.04209,-0.508746,-0.98832,-0.289457,
-0.0379318,-0.0435168,0.449743,-1.58743,-0.159616,-0.196837,0.505304,-0.775669,0.275689,-0.783365,-0.313954,-1.00881,-0.755302,-0.226093,0,0,0,0,0,0,0,-0.009878,-0.0529026,0.476688,-1.57653,-0.134588,1.40727,1.30268,-0.380127,0.0227941,-0.374691,-0.17658,-0.586361,-0.663101,-0.140467,-5.77679,-23.2909,-6.68791,23.4161,-0.683292,1.49499,-0.26448,1.13731,-1.92646,-0.00874431,0.536675,1.52448,-1.00028,-1.0123,1.14415,-0.9817,-1.04209,-0.508746,-0.98832,-0.289457,
-0.0410598,-0.0423832,0.446566,-1.58869,-0.163758,-0.19953,0.504419,-0.782002,0.283406,-0.794258,-0.316452,-1.03549,-0.6734,-0.221321,0,0,0,0,0,0,0,-0.009878,-0.0529026,0.476688,-1.57653,-0.134588,1.40727,1.30268,-0.380127,0.0227941,-0.374691,-0.17658,-0.586361,-0.663101,-0.140467,-5.77679,-23.2909,-6.68791,23.4161,-0.683292,1.49499,-0.26448,0.915659,-1.12915,-0.403526,-0.0998952,1.58883,-0.575909,-0.589443,1.27708,-0.537127,-1.24288,-0.441399,-1.02015,-0.289616,
-0.0442146,-0.0412226,0.443361,-1.58997,-0.168,-0.201876,0.503553,-0.788719,0.290137,-0.801194,-0.318057,-1.06057,-0.586509,-0.216601,0,0,0,0,0,0,0,-0.009878,-0.0529026,0.476688,-1.57653,-0.134588,1.40727,1.30268,-0.380127,0.0227941,-0.374691,-0.17658,-0.586361,-0.663101,-0.140467,-5.77679,-23.2909,-6.68791,23.4161,-0.683292,1.49499,-0.26448,-0.0253618,-0.0142559,-0.745415,-0.884856,1.09514,0.171295,0.14856,1.08723,0.238985,-1.33485,-0.307423,-1.01178,-0.290627,
-0.0284898,-0.0449934,0.459164,-1.58585,-0.148019,-0.186861,0.504855,-0.741368,0.30652,-0.733384,-0.337643,-0.919202,-1.10827,-0.304169,0,0,0,0,0,0,0,-0.009878,-0.0529026,0.476688,-1.57653,-0.134588,1.40727,1.30268,-0.380127,0.0227941,-0.374691,-0.17658,-0.586361,-0.663101,-0.140467,-5.77679,-23.2909,-6.68791,23.4161,-0.683292,1.49499,-0.26448,-0.0253618,-0.0142559,-0.745415,-0.884856,1.09514,0.171295,0.14856,1.08723,0.238985,-1.33485,-0.307423,-1.01178,-0.290627,
-0.0406473,-0.0447147,0.446398,-1.5904,-0.16915,-0.192341,0.504098,-0.763461,0.265025,-0.755582,-0.336683,-0.919501,-0.178508,-0.244432,0,0,0,0,0,0,0,-0.009878,-0.0529026,0.476688,-1.57653,-0.134588,1.40727,1.30268,-0.380127,0.0227941,-0.374691,-0.17658,-0.586361,-0.663101,-0.140467,-5.77679,-23.2909,-6.68791,23.4161,-0.683292,1.49499,-0.26448,-1.8998,0.968006,-0.63828,-1.5723,-0.283616,1.07481,1.05148,0.32081,1.15938,-1.20012,-0.264313,-1.03174,-0.293997,
-0.0437486,-0.0436096,0.443328,-1.59173,-0.172945,-0.192722,0.503141,-0.775336,0.276281,-0.767683,-0.333502,-0.948678,-0.0952494,-0.239287,0,0,0,0,0,0,0,-0.009878,-0.0529026,0.476688,-1.57653,-0.134588,1.40727,1.30268,-0.380127,0.0227941,-0.374691,-0.17658,-0.586361,-0.663101,-0.140467,-5.77679,-23.2909,-6.68791,23.4161,-0.683292,1.49499,-0.26448,-1.8998,0.968006,-0.63828,-1.5723,-0.283616,1.07481,1.05148,0.32081,1.15938,-1.20012,-0.264313,-1.03174,-0.293997,
-0.0468921,-0.042468,0.440214,-1.59305,-0.176844,-0.192822,0.502203,-0.785864,0.285419,-0.778454,-0.32929,-0.974813,-0.0251364,-0.234353,0,0,0,0,0,0,0,-0.0229588,-0.0518749,0.463118,-1.58257,-0.152809,1.38962,1.29867,-0.457969,0.0480686,-0.46369,-0.210826,-0.581137,-0.478237,-0.128378,-6.33221,-23.9891,-7.2354,24.7095,-1.57502,2.01867,-0.177505,-0.214946,-0.240472,0.0434796,-0.668132,0.523138,0.120037,0.0963107,0.573408,0.180915,-0.946568,-0.478788,-0.94332,-0.285332,
-0.0500731,-0.0412984,0.437061,-1.59435,-0.180836,-0.192685,0.501285,-0.795259,0.292396,-0.788105,-0.324771,-0.998041,0.0343646,-0.229511,0,0,0,0,0,0,0,-0.0229588,-0.0518749,0.463118,-1.58257,-0.152809,1.38962,1.29867,-0.457969,0.0480686,-0.46369,-0.210826,-0.581137,-0.478237,-0.128378,-6.33221,-23.9891,-7.2354,24.7095,-1.57502,2.01867,-0.177505,3.33691,-1.7331,0.278137,0.349031,2.85907,-1.36427,-1.38238,1.73886,-1.3312,-0.98553,-0.712365,-0.832827,-0.280422,
-0.0532878,-0.040109,0.433874,-1.59563,-0.18491,-0.192344,0.500386,-0.803664,0.297354,-0.796771,-0.320236,-1.01861,0.0850715,-0.224742,0,0,0,0,0,0,0,-0.0229588,-0.0518749,0.463118,-1.58257,-0.152809,1.38962,1.29867,-0.457969,0.0480686,-0.46369,-0.210826,-0.581137,-0.478237,-0.128378,-6.33221,-23.9891,-7.2354,24.7095,-1.57502,2.01867,-0.177505,3.33691,-1.7331,0.278137,0.349031,2.85907,-1.36427,-1.38238,1.73886,-1.3312,-0.98553,-0.712365,-0.832827,-0.280422,
-0.0403738,-0.0430783,0.446635,-1.59204,-0.169543,-0.202846,0.500962,-0.75904,0.313249,-0.751575,-0.388774,-0.929204,-0.58365,-0.305659,0,0,0,0,0,0,0,-0.0229588,-0.0518749,0.463118,-1.58257,-0.152809,1.38962,1.29867,-0.457969,0.0480686,-0.46369,-0.210826,-0.581137,-0.478237,-0.128378,-6.33221,-23.9891,-7.2354,24.7095,-1.57502,2.01867,-0.177505,1.02944,-0.0944807,1.44403,-0.421127,0.614363,-0.0567634,-0.0723595,0.253753,-0.0187451,-0.238319,-0.51868,-0.656319,-0.282538,
-0.0554458,-0.0428545,0.431066,-1.59722,-0.189326,-0.18729,0.500052,-0.775484,0.268195,-0.768031,-0.30728,-0.948471,0.0293259,-0.243316,0,0,0,0,0,0,0,-0.0229588,-0.0518749,0.463118,-1.58257,-0.152809,1.38962,1.29867,-0.457969,0.0480686,-0.46369,-0.210826,-0.581137,-0.478237,-0.128378,-6.33221,-23.9891,-7.2354,24.7095,-1.57502,2.01867,-0.177505,1.02944,-0.0944807,1.44403,-0.421127,0.614363,-0.0567634,-0.0723595,0.253753,-0.0187451,-0.238319,-0.51868,-0.656319,-0.282538,
-0.0585887,-0.0417595,0.427951,-1.59843,-0.193217,-0.187106,0.4991,-0.785708,0.273749,-0.7786,-0.304621,-0.972776,0.0461784,-0.238053,0,0,0,0,0,0,0,-0.0435179,-0.0492773,0.442091,-1.59326,-0.178435,1.37677,1.29236,-0.499989,0.0940524,-0.524156,-0.264391,-0.610827,-0.110604,-0.159488,-4.1026,-25.8617,-4.83519,25.6577,-1.54389,2.10473,-0.217789,-0.282326,-0.201848,1.2152,-0.315735,-0.383631,0.202302,0.17888,-0.30651,0.242499,-0.0683939,-0.500638,-0.507864,-0.278209,
-0.0617634,-0.0406528,0.424792,-1.59966,-0.197195,-0.186792,0.498167,-0.793676,0.27668,-0.789683,-0.305523,-0.994487,0.0784383,-0.233209,0,0,0,0,0,0,0,-0.0435179,-0.0492773,0.442091,-1.59326,-0.178435,1.37677,1.29236,-0.499989,0.0940524,-0.524156,-0.264391,-0.610827,-0.110604,-0.159488,-4.1026,-25.8617,-4.83519,25.6577,-1.54389,2.10473,-0.217789,-0.282326,-0.201848,1.2152,-0.315735,-0.383631,0.202302,0.17888,-0.30651,0.242499,-0.0683939,-0.500638,-0.507864,-0.278209,
-0.0649486,-0.0395347,0.421584,-1.60088,-0.20126,-0.186351,0.497253,-0.796316,0.27952,-0.802069,-0.304828,-1.01618,0.110248,-0.228423,0,0,0,0,0,0,0,-0.0435179,-0.0492773,0.442091,-1.59326,-0.178435,1.37677,1.29236,-0.499989,0.0940524,-0.524156,-0.264391,-0.610827,-0.110604,-0.159488,-4.1026,-25.8617,-4.83519,25.6577,-1.54389,2.10473,-0.217789,-0.329759,0.997973,0.792423,-1.16919,-0.286563,0.81206,0.791757,-0.217974,0.870025,-0.168654,-0.412366,-0.399095,-0.27426,
-0.0681492,-0.038406,0.41835,-1.60209,-0.205415,-0.185794,0.496359,-0.800151,0.282186,-0.808434,-0.302671,-1.03866,0.139119,-0.223711,0,0,0,0,0,0,0,-0.0435179,-0.0492773,0.442091,-1.59326,-0.178435,1.37677,1.29236,-0.499989,0.0940524,-0.524156,-0.264391,-0.610827,-0.110604,-0.159488,-4.1026,-25.8617,-4.83519,25.6577,-1.54389,2.10473,-0.217789,-0.329759,0.997973,0.792423,-1.16919,-0.286563,0.81206,0.791757,-0.217974,0.870025,-0.168654,-0.412366,-0.399095,-0.27426,
-0.0713608,-0.0372693,0.415105,-1.60329,-0.20966,-0.185128,0.495482,-0.802889,0.284164,-0.811402,-0.300176,-1.06146,0.166618,-0.219124,0,0,0,0,0,0,0,-0.0435179,-0.0492773,0.442091,-1.59326,-0.178435,1.37677,1.29236,-0.499989,0.0940524,-0.524156,-0.264391,-0.610827,-0.110604,-0.159488,-4.1026,-25.8617,-4.83519,25.6577,-1.54389,2.10473,-0.217789,1.80558,1.04538,-0.107994,-1.32803,1.59843,0.426684,0.410226,0.941739,0.490123,-0.61246,-0.413748,-0.323644,-0.268513,
-0.0551808,-0.0412932,0.431296,-1.59879,-0.189873,-0.202937,0.496991,-0.772811,0.316332,-0.765709,-0.365884,-0.960393,-0.325906,-0.302901,0,0,0,0,0,0,0,-0.0435179,-0.0492773,0.442091,-1.59326,-0.178435,1.37677,1.29236,-0.499989,0.0940524,-0.524156,-0.264391,-0.610827,-0.110604,-0.159488,-4.1026,-25.8617,-4.83519,25.6577,-1.54389,2.10473,-0.217789,3.52737,-0.101392,-0.932066,-0.653116,3.03196,-0.418824,-0.44434,1.81198,-0.357502,-0.880684,-0.518443,-0.180891,-0.260553,
-0.0770957,-0.039413,0.408847,-1.60794,-0.216599,-0.193272,0.493819,-0.777018,0.266474,-0.784553,-0.300465,-0.972844,0.132734,-0.242796,0,0,0,0,0,0,0,-0.0607209,-0.0462639,0.424749,-1.60129,-0.198619,1.37546,1.28823,-0.553237,0.102485,-0.558684,-0.250048,-0.6759,0.0137808,-0.107958,-3.34088,-26.433,-4.18456,24.3881,-1.33057,2.2503,-0.23793,3.52737,-0.101392,-0.932066,-0.653116,3.03196,-0.418824,-0.44434,1.81198,-0.357502,-0.880684,-0.518443,-0.180891,-0.260553,
-0.0802221,-0.0383274,0.405689,-1.60912,-0.220606,-0.192759,0.492868,-0.781589,0.271402,-0.789633,-0.295502,-1.00181,0.12809,-0.237665,0,0,0,0,0,0,0,-0.0607209,-0.0462639,0.424749,-1.60129,-0.198619,1.37546,1.28823,-0.553237,0.102485,-0.558684,-0.250048,-0.6759,0.0137808,-0.107958,-3.34088,-26.433,-4.18456,24.3881,-1.33057,2.2503,-0.23793,2.19435,0.617404,-1.10568,-1.08407,2.10159,0.223419,0.205629,1.30956,0.283144,-0.782982,-0.412548,-0.0929211,-0.259476,
-0.0833635,-0.0372337,0.402515,-1.6103,-0.224717,-0.192204,0.491936,-0.785354,0.273423,-0.793545,-0.295133,-1.02776,0.138884,-0.233013,0,0,0,0,0,0,0,-0.0607209,-0.0462639,0.424749,-1.60129,-0.198619,1.37546,1.28823,-0.553237,0.102485,-0.558684,-0.250048,-0.6759,0.0137808,-0.107958,-3.34088,-26.433,-4.18456,24.3881,-1.33057,2.2503,-0.23793,2.19435,0.617404,-1.10568,-1.08407,2.10159,0.223419,0.205629,1.30956,0.283144,-0.782982,-0.412548,-0.0929211,-0.259476,
-0.0865149,-0.0361365,0.39933,-1.61148,-0.228924,-0.191562,0.491022,-0.787843,0.2743,-0.796148,-0.296016,-1.05163,0.160482,-0.228481,0,0,0,0,0,0,0,-0.0607209,-0.0462639,0.424749,-1.60129,-0.198619,1.37546,1.28823,-0.553237,0.102485,-0.558684,-0.250048,-0.6759,0.0137808,-0.107958,-3.34088,-26.433,-4.18456,24.3881,-1.33057,2.2503,-0.23793,1.42188,-0.173083,-0.93042,-0.530104,1.52217,-0.036307,-0.0527142,1.0031,0.00765132,-0.709703,-0.453709,-0.178202,-0.254555,
-0.0896709,-0.0350383,0.39614,-1.61267,-0.233219,-0.190799,0.490126,-0.789008,0.274556,-0.797414,-0.297098,-1.07373,0.19077,-0.224093,0,0,0,0,0,0,0,-0.0607209,-0.0462639,0.424749,-1.60129,-0.198619,1.37546,1.28823,-0.553237,0.102485,-0.558684,-0.250048,-0.6759,0.0137808,-0.107958,-3.34088,-26.433,-4.18456,24.3881,-1.33057,2.2503,-0.23793,1.05719,1.55756,-1.82279,-1.76323,1.77843,0.889891,0.881233,1.32522,0.952968,-1.13043,-0.25123,-0.220049,-0.257518,
-0.0769305,-0.038067,0.409041,-1.6097,-0.216977,-0.201583,0.490913,-0.785159,0.307962,-0.778946,-0.357068,-0.973056,-0.0390956,-0.299669,0,0,0,0,0,0,0,-0.0787332,-0.0421818,0.406249,-1.60862,-0.220825,1.37663,1.2847,-0.564266,0.140009,-0.595667,-0.214498,-0.720741,0.0710743,-0.117602,-4.22955,-29.0553,-4.83519,25.9552,-1.09253,2.10473,-0.23793,1.05719,1.55756,-1.82279,-1.76323,1.77843,0.889891,0.881233,1.32522,0.952968,-1.13043,-0.25123,-0.220049,-0.257518,
-0.113769,-0.0320707,0.371313,-1.62298,-0.262304,-0.183905,0.486256,-0.780919,0.262319,-0.791367,-0.29719,-1.02072,0.32519,-0.242673,0,0,0,0,0,0,0,-0.0787332,-0.0421818,0.406249,-1.60862,-0.220825,1.37663,1.2847,-0.564266,0.140009,-0.595667,-0.214498,-0.720741,0.0710743,-0.117602,-4.22955,-29.0553,-4.83519,25.9552,-1.09253,2.10473,-0.23793,0.735996,-0.336097,-1.50531,-0.407538,1.39048,-0.0133951,-0.0368098,1.09763,0.0329927,-0.953457,-0.347825,-0.259491,-0.253534,
-0.116889,-0.0310042,0.368152,-1.62415,-0.266499,-0.182595,0.485305,-0.779989,0.266627,-0.79036,-0.293211,-1.04882,0.327473,-0.237725,0,0,0,0,0,0,0,-0.0787332,-0.0421818,0.406249,-1.60862,-0.220825,1.37663,1.2847,-0.564266,0.140009,-0.595667,-0.214498,-0.720741,0.0710743,-0.117602,-4.22955,-29.0553,-4.83519,25.9552,-1.09253,2.10473,-0.23793,0.735996,-0.336097,-1.50531,-0.407538,1.39048,-0.0133951,-0.0368098,1.09763,0.0329927,-0.953457,-0.347825,-0.259491,-0.253534,
-0.120004,-0.0299312,0.364995,-1.62532,-0.270787,-0.181237,0.484372,-0.77898,0.268232,-0.789298,-0.292614,-1.07199,0.339578,-0.233361,0,0,0,0,0,0,0,-0.0787332,-0.0421818,0.406249,-1.60862,-0.220825,1.37663,1.2847,-0.564266,0.140009,-0.595667,-0.214498,-0.720741,0.0710743,-0.117602,-4.22955,-29.0553,-4.83519,25.9552,-1.09253,2.10473,-0.23793,-0.859087,0.474899,-0.351761,-0.777866,-0.166045,0.615346,0.599967,0.0635584,0.653286,-0.482388,-0.272337,-0.325287,-0.252465,
-0.123114,-0.0288569,0.361843,-1.62649,-0.275154,-0.179801,0.483455,-0.777506,0.268583,-0.787788,-0.292941,-1.09172,0.358792,-0.229119,0,0,0,0,0,0,0,-0.0787332,-0.0421818,0.406249,-1.60862,-0.220825,1.37663,1.2847,-0.564266,0.140009,-0.595667,-0.214498,-0.720741,0.0710743,-0.117602,-4.22955,-29.0553,-4.83519,25.9552,-1.09253,2.10473,-0.23793,-1.15132,-0.0789251,0.21348,-0.36883,-0.52366,0.334957,0.332355,-0.177471,0.350376,-0.348584,-0.321213,-0.4525,-0.252316,
-0.126216,-0.0277843,0.358701,-1.62767,-0.27959,-0.178264,0.482555,-0.775413,0.26816,-0.785675,-0.293481,-1.10882,0.384393,-0.225007,0,0,0,0,0,0,0,-0.0966752,-0.0369974,0.387621,-1.61551,-0.243952,1.38154,1.28119,-0.599574,0.177678,-0.620401,-0.227041,-0.77354,0.228952,-0.129756,-3.64636,-29.2299,-4.11315,25.7092,-1.18958,1.90606,-0.130813,-1.15132,-0.0789251,0.21348,-0.36883,-0.52366,0.334957,0.332355,-0.177471,0.350376,-0.348584,-0.321213,-0.4525,-0.252316,
-0.113807,-0.0308989,0.371437,-1.62461,-0.262422,-0.186442,0.483518,-0.801927,0.296127,-0.797499,-0.345911,-0.995838,0.293535,-0.296702,0,0,0,0,0,0,0,-0.0966752,-0.0369974,0.387621,-1.61551,-0.243952,1.38154,1.28119,-0.599574,0.177678,-0.620401,-0.227041,-0.77354,0.228952,-0.129756,-3.64636,-29.2299,-4.11315,25.7092,-1.18958,1.90606,-0.130813,-1.371,1.81695,-0.719988,-1.70504,-0.151171,1.31816,1.31615,0.191418,1.35702,-0.789866,-0.136867,-0.47988,-0.253378,
-0.132108,-0.0265647,0.352022,-1.62993,-0.286113,-0.168167,0.482818,-0.774509,0.251826,-0.785549,-0.293139,-0.924368,0.542319,-0.242671,0,0,0,0,0,0,0,-0.0966752,-0.0369974,0.387621,-1.61551,-0.243952,1.38154,1.28119,-0.599574,0.177678,-0.620401,-0.227041,-0.77354,0.228952,-0.129756,-3.64636,-29.2299,-4.11315,25.7092,-1.18958,1.90606,-0.130813,-1.371,1.81695,-0.719988,-1.70504,-0.151171,1.31816,1.31615,0.191418,1.35702,-0.789866,-0.136867,-0.47988,-0.253378,
-0.135206,-0.0255515,0.348881,-1.63109,-0.289664,-0.165946,0.481866,-0.774357,0.25328,-0.78527,-0.289633,-0.887612,0.555223,-0.237862,0,0,0,0,0,0,0,-0.0966752,-0.0369974,0.387621,-1.61551,-0.243952,1.38154,1.28119,-0.599574,0.177678,-0.620401,-0.227041,-0.77354,0.228952,-0.129756,-3.64636,-29.2299,-4.11315,25.7092,-1.18958,1.90606,-0.130813,-0.0234898,-1.37808,-1.44706,0.215576,1.08548,-0.496692,-0.502083,1.06016,-0.48104,-1.13969,-0.46644,-0.556504,-0.248467,
-0.138302,-0.0245384,0.345741,-1.63224,-0.293029,-0.163673,0.480932,-0.774124,0.253278,-0.784951,-0.286993,-0.841267,0.568137,-0.233679,0,0,0,0,0,0,0,-0.0966752,-0.0369974,0.387621,-1.61551,-0.243952,1.38154,1.28119,-0.599574,0.177678,-0.620401,-0.227041,-0.77354,0.228952,-0.129756,-3.64636,-29.2299,-4.11315,25.7092,-1.18958,1.90606,-0.130813,-0.0234898,-1.37808,-1.44706,0.215576,1.08548,-0.496692,-0.502083,1.06016,-0.48104,-1.13969,-0.46644,-0.556504,-0.248467,
-0.141395,-0.0235274,0.342605,-1.63338,-0.296181,-0.161371,0.480013,-0.773314,0.252758,-0.78408,-0.283549,-0.788135,0.575606,-0.229642,0,0,0,0,0,0,0,-0.0966752,-0.0369974,0.387621,-1.61551,-0.243952,1.38154,1.28119,-0.599574,0.177678,-0.620401,-0.227041,-0.77354,0.228952,-0.129756,-3.64636,-29.2299,-4.11315,25.7092,-1.18958,1.90606,-0.130813,-0.398306,-1.80349,-1.55295,0.435026,0.876503,-0.66486,-0.658248,0.983414,-0.664233,-1.17532,-0.552373,-0.585866,-0.2473,
-0.144483,-0.0225211,0.339475,-1.63449,-0.2991,-0.159054,0.47911,-0.771857,0.251579,-0.782583,-0.2799,-0.729646,0.57911,-0.225741,0,0,0,0,0,0,0,-0.116768,-0.0307811,0.367021,-1.62256,-0.269551,1.39299,1.27596,-0.61694,0.188162,-0.631723,-0.219158,-0.725928,0.436432,-0.177017,-2.24987,-30.0789,-2.7365,25.4077,-0.8783,2.12487,-0.224197,-0.398306,-1.80349,-1.55295,0.435026,0.876503,-0.66486,-0.658248,0.983414,-0.664233,-1.17532,-0.552373,-0.585866,-0.2473,
-0.147562,-0.0215221,0.336353,-1.6356,-0.301767,-0.156736,0.478222,-0.769704,0.249745,-0.780408,-0.276291,-0.666735,0.579688,-0.222015,0,0,0,0,0,0,0,-0.116768,-0.0307811,0.367021,-1.62256,-0.269551,1.39299,1.27596,-0.61694,0.188162,-0.631723,-0.219158,-0.725928,0.436432,-0.177017,-2.24987,-30.0789,-2.7365,25.4077,-0.8783,2.12487,-0.224197,-0.15366,-0.776909,-1.78348,-0.177571,1.11027,-0.151233,-0.136681,1.09988,-0.150714,-1.20609,-0.429736,-0.471286,-0.249964,
-0.132518,-0.0257152,0.351933,-1.63157,-0.28667,-0.17071,0.480175,-0.800723,0.277923,-0.812891,-0.339579,-1.00412,0.5012,-0.294911,0,0,0,0,0,0,0,-0.116768,-0.0307811,0.367021,-1.62256,-0.269551,1.39299,1.27596,-0.61694,0.188162,-0.631723,-0.219158,-0.725928,0.436432,-0.177017,-2.24987,-30.0789,-2.7365,25.4077,-0.8783,2.12487,-0.224197,0.0398355,0.320323,-2.32025,-0.882046,1.39137,0.445219,0.460202,1.2671,0.453953,-1.30378,-0.335116,-0.300694,-0.253085,
-0.151921,-0.0209301,0.331322,-1.6365,-0.299561,-0.149302,0.477611,-0.761555,0.228113,-0.773497,-0.279382,-0.402635,0.607266,-0.243593,0,0,0,0,0,0,0,-0.116768,-0.0307811,0.367021,-1.62256,-0.269551,1.39299,1.27596,-0.61694,0.188162,-0.631723,-0.219158,-0.725928,0.436432,-0.177017,-2.24987,-30.0789,-2.7365,25.4077,-0.8783,2.12487,-0.224197,0.0398355,0.320323,-2.32025,-0.882046,1.39137,0.445219,0.460202,1.2671,0.453953,-1.30378,-0.335116,-0.300694,-0.253085,
-0.15495,-0.0200118,0.328246,-1.6376,-0.301004,-0.146895,0.476654,-0.757178,0.229587,-0.76898,-0.275319,-0.360763,0.601622,-0.239064,0,0,0,0,0,0,0,-0.116768,-0.0307811,0.367021,-1.62256,-0.269551,1.39299,1.27596,-0.61694,0.188162,-0.631723,-0.219158,-0.725928,0.436432,-0.177017,-2.24987,-30.0789,-2.7365,25.4077,-0.8783,2.12487,-0.224197,0.11864,-2.54746,-2.41321,0.934669,1.39032,-1.04225,-1.04131,1.3503,-1.04222,-1.26058,-0.603022,-0.305167,-0.244289,
-0.157961,-0.0190934,0.325189,-1.63869,-0.302271,-0.144519,0.475714,-0.752727,0.229606,-0.76441,-0.272293,-0.316786,0.594104,-0.235142,0,0,0,0,0,0,0,-0.136255,-0.0247172,0.34657,-1.62915,-0.289868,1.40827,1.27078,-0.630164,0.210416,-0.64803,-0.208845,-0.556172,0.540412,-0.15531,-1.69445,-31.4754,-1.96288,24.6103,-1.37909,1.76049,-0.177505,0.11864,-2.54746,-2.41321,0.934669,1.39032,-1.04225,-1.04131,1.3503,-1.04222,-1.26058,-0.603022,-0.305167,-0.244289,
-0.160953,-0.0181785,0.32215,-1.63977,-0.303356,-0.142181,0.474788,-0.74806,0.228708,-0.759637,-0.269571,-0.271238,0.584509,-0.23134,0,0,0,0,0,0,0,-0.136255,-0.0247172,0.34657,-1.62915,-0.289868,1.40827,1.27078,-0.630164,0.210416,-0.64803,-0.208845,-0.556172,0.540412,-0.15531,-1.69445,-31.4754,-1.96288,24.6103,-1.37909,1.76049,-0.177505,-0.280791,-2.20837,-2.38974,0.733447,1.04058,-0.808721,-0.801214,1.12283,-0.813585,-1.16118,-0.592026,-0.224004,-0.237896,
-0.163925,-0.0172701,0.319132,-1.64083,-0.304253,-0.139888,0.473878,-0.743113,0.227118,-0.754601,-0.266947,-0.224251,0.573148,-0.227653,0,0,0,0,0,0,0,-0.136255,-0.0247172,0.34657,-1.62915,-0.289868,1.40827,1.27078,-0.630164,0.210416,-0.64803,-0.208845,-0.556172,0.540412,-0.15531,-1.69445,-31.4754,-1.96288,24.6103,-1.37909,1.76049,-0.177505,-0.0602327,-0.280455,-2.39527,-0.386036,1.12014,0.207259,0.225402,1.05652,0.201487,-1.05876,-0.374799,-0.0386761,-0.239382,
-0.166877,-0.0163703,0.316135,-1.64189,-0.304955,-0.137646,0.472981,-0.737857,0.224941,-0.749274,-0.26439,-0.175697,0.560468,-0.224124,0,0,0,0,0,0,0,-0.136255,-0.0247172,0.34657,-1.62915,-0.289868,1.40827,1.27078,-0.630164,0.210416,-0.64803,-0.208845,-0.556172,0.540412,-0.15531,-1.69445,-31.4754,-1.96288,24.6103,-1.37909,1.76049,-0.177505,-0.0602327,-0.280455,-2.39527,-0.386036,1.12014,0.207259,0.225402,1.05652,0.201487,-1.05876,-0.374799,-0.0386761,-0.239382,
-0.152938,-0.0201437,0.330781,-1.63803,-0.306918,-0.151318,0.475081,-0.807723,0.253038,-0.821193,-0.319966,-0.651435,0.581042,-0.29283,0,0,0,0,0,0,0,-0.136255,-0.0247172,0.34657,-1.62915,-0.289868,1.40827,1.27078,-0.630164,0.210416,-0.64803,-0.208845,-0.556172,0.540412,-0.15531,-1.69445,-31.4754,-1.96288,24.6103,-1.37909,1.76049,-0.177505,-1.22425,0.470677,-1.67913,-0.650283,-0.0498633,0.684439,0.70102,0.277109,0.677091,-0.66077,-0.185352,0.0284947,-0.238258,
-0.170908,-0.0151617,0.311323,-1.64262,-0.30021,-0.134384,0.472461,-0.728028,0.210942,-0.74071,-0.270706,-0.00926818,0.517213,-0.244883,0,0,0,0,0,0,0,-0.136255,-0.0247172,0.34657,-1.62915,-0.289868,1.40827,1.27078,-0.630164,0.210416,-0.64803,-0.208845,-0.556172,0.540412,-0.15531,-1.69445,-31.4754,-1.96288,24.6103,-1.37909,1.76049,-0.177505,-1.22425,0.470677,-1.67913,-0.650283,-0.0498633,0.684439,0.70102,0.277109,0.677091,-0.66077,-0.185352,0.0284947,-0.238258,
-0.173793,-0.0143183,0.308387,-1.6437,-0.300156,-0.132351,0.471499,-0.721353,0.210841,-0.733883,-0.268555,0.013545,0.508232,-0.240599,0,0,0,0,0,0,0,-0.163469,-0.0163978,0.318523,-1.63805,-0.306109,1.43143,1.26519,-0.665812,0.207047,-0.67925,-0.205385,-0.247971,0.586066,-0.118195,0.0313145,-33.0226,-0.312487,26.4551,-0.109257,2.08459,-0.210464,-0.739291,-1.84984,-1.66598,0.942116,0.300543,-0.628771,-0.620569,0.593033,-0.641169,-0.685506,-0.249404,-0.0484852,-0.238142,
-0.176653,-0.0134807,0.305477,-1.64477,-0.300005,-0.130334,0.470551,-0.715073,0.20941,-0.727469,-0.26784,0.0379114,0.504368,-0.236887,0,0,0,0,0,0,0,-0.163469,-0.0163978,0.318523,-1.63805,-0.306109,1.43143,1.26519,-0.665812,0.207047,-0.67925,-0.205385,-0.247971,0.586066,-0.118195,0.0313145,-33.0226,-0.312487,26.4551,-0.109257,2.08459,-0.210464,0.0725849,-1.35101,-0.976491,0.772972,0.537891,-0.459248,-0.437967,0.561404,-0.483602,-0.425655,-0.125791,0.000134298,-0.238394,
-0.179489,-0.0126516,0.302592,-1.64584,-0.29975,-0.128313,0.469618,-0.708996,0.207259,-0.721272,-0.267632,0.0636001,0.505279,-0.233304,0,0,0,0,0,0,0,-0.163469,-0.0163978,0.318523,-1.63805,-0.306109,1.43143,1.26519,-0.665812,0.207047,-0.67925,-0.205385,-0.247971,0.586066,-0.118195,0.0313145,-33.0226,-0.312487,26.4551,-0.109257,2.08459,-0.210464,0.0725849,-1.35101,-0.976491,0.772972,0.537891,-0.459248,-0.437967,0.561404,-0.483602,-0.425655,-0.125791,0.000134298,-0.238394,
-0.182301,-0.0118332,0.299731,-1.64691,-0.299387,-0.126267,0.468698,-0.703026,0.204607,-0.715199,-0.267703,0.0907329,0.51154,-0.229858,0,0,0,0,0,0,0,-0.163469,-0.0163978,0.318523,-1.63805,-0.306109,1.43143,1.26519,-0.665812,0.207047,-0.67925,-0.205385,-0.247971,0.586066,-0.118195,0.0313145,-33.0226,-0.312487,26.4551,-0.109257,2.08459,-0.210464,0.71586,-0.0777335,-0.800379,0.0179218,1.03307,0.130892,0.15782,0.780948,0.106065,-0.503688,0.0171827,-0.0794357,-0.241393,
-0.169294,-0.0155311,0.313127,-1.64289,-0.309855,-0.137013,0.471204,-0.788248,0.227588,-0.802598,-0.313475,-0.27634,0.532223,-0.303784,0,0,0,0,0,0,0,-0.163469,-0.0163978,0.318523,-1.63805,-0.306109,1.43143,1.26519,-0.665812,0.207047,-0.67925,-0.205385,-0.247971,0.586066,-0.118195,0.0313145,-33.0226,-0.312487,26.4551,-0.109257,2.08459,-0.210464,0.71586,-0.0777335,-0.800379,0.0179218,1.03307,0.130892,0.15782,0.780948,0.106065,-0.503688,0.0171827,-0.0794357,-0.241393,
-0.194737,-0.00808972,0.286655,-1.65039,-0.306515,-0.113075,0.467665,-0.709505,0.192652,-0.722892,-0.280336,0.150295,0.579017,-0.260138,0,0,0,0,0,0,0,-0.185065,-0.00959462,0.295981,-1.64456,-0.311083,1.45054,1.26089,-0.668018,0.210636,-0.70021,-0.183595,-0.0567541,0.621362,-0.132742,0.360599,-34.3477,0.361952,25.6061,0.361325,1.48858,-0.177505,-0.175024,0.604188,-0.724565,-0.27051,0.575925,0.468897,0.500918,0.610852,0.438985,-0.613077,0.221588,-0.262769,-0.241149,
-0.197546,-0.0073212,0.283791,-1.6515,-0.305842,-0.110795,0.466625,-0.702264,0.192131,-0.715837,-0.277819,0.168254,0.570043,-0.259886,0,0,0,0,0,0,0,-0.185065,-0.00959462,0.295981,-1.64456,-0.311083,1.45054,1.26089,-0.668018,0.210636,-0.70021,-0.183595,-0.0567541,0.621362,-0.132742,0.360599,-34.3477,0.361952,25.6061,0.361325,1.48858,-0.177505,-0.175024,0.604188,-0.724565,-0.27051,0.575925,0.468897,0.500918,0.610852,0.438985,-0.613077,0.221588,-0.262769,-0.241149,
-0.200317,-0.00654717,0.280967,-1.65258,-0.305124,-0.108563,0.465634,-0.692738,0.193507,-0.706008,-0.271275,0.179666,0.558109,-0.2478,0,0,0,0,0,0,0,-0.185065,-0.00959462,0.295981,-1.64456,-0.311083,1.45054,1.26089,-0.668018,0.210636,-0.70021,-0.183595,-0.0567541,0.621362,-0.132742,0.360599,-34.3477,0.361952,25.6061,0.361325,1.48858,-0.177505,-0.590562,0.167945,-1.18032,0.127234,0.565465,0.220331,0.244388,0.783402,0.19608,-0.826673,0.33179,-0.338279,-0.238633,
-0.203054,-0.0057783,0.278178,-1.65366,-0.304352,-0.10635,0.464659,-0.684198,0.192216,-0.697333,-0.268814,0.193044,0.553131,-0.243637,0,0,0,0,0,0,0,-0.185065,-0.00959462,0.295981,-1.64456,-0.311083,1.45054,1.26089,-0.668018,0.210636,-0.70021,-0.183595,-0.0567541,0.621362,-0.132742,0.360599,-34.3477,0.361952,25.6061,0.361325,1.48858,-0.177505,-1.17075,1.83827,-1.67488,-0.910965,0.497534,1.13224,1.16618,0.811034,1.10089,-1.09371,0.472138,-0.394195,-0.241288,
-0.205759,-0.00501787,0.275421,-1.65473,-0.303521,-0.104156,0.463699,-0.676163,0.190108,-0.689173,-0.266891,0.20756,0.548583,-0.24011,0,0,0,0,0,0,0,-0.185065,-0.00959462,0.295981,-1.64456,-0.311083,1.45054,1.26089,-0.668018,0.210636,-0.70021,-0.183595,-0.0567541,0.621362,-0.132742,0.360599,-34.3477,0.361952,25.6061,0.361325,1.48858,-0.177505,-1.17075,1.83827,-1.67488,-0.910965,0.497534,1.13224,1.16618,0.811034,1.10089,-1.09371,0.472138,-0.394195,-0.241288,
-0.199236,-0.00683143,0.282032,-1.6527,-0.309196,-0.111261,0.464307,-0.757541,0.211716,-0.77248,-0.307333,0.104438,0.564804,-0.304633,0,0,0,0,0,0,0,-0.185065,-0.00959462,0.295981,-1.64456,-0.311083,1.45054,1.26089,-0.668018,0.210636,-0.70021,-0.183595,-0.0567541,0.621362,-0.132742,0.360599,-34.3477,0.361952,25.6061,0.361325,1.48858,-0.177505,-0.3516,1.63362,-2.54216,-0.785162,1.57727,0.976176,1.01299,1.6092,0.941226,-1.57521,0.465684,-0.498211,-0.243704,
-0.218062,-0.00126129,0.262306,-1.65743,-0.300054,-0.0917012,0.462283,-0.661039,0.168944,-0.674824,-0.265882,0.357739,0.499935,-0.261096,0,0,0,0,0,0,0,-0.206901,-0.00276941,0.27325,-1.65017,-0.311899,1.47109,1.25643,-0.67058,0.203559,-0.703046,-0.174228,0.000449771,0.662792,-0.145791,0.793033,-34.796,0.814222,25.1102,0.0564539,1.7138,-0.224197,-0.3516,1.63362,-2.54216,-0.785162,1.57727,0.976176,1.01299,1.6092,0.941226,-1.57521,0.465684,-0.498211,-0.243704,
-0.220663,-0.000582939,0.259651,-1.65847,-0.298616,-0.0897759,0.461284,-0.650344,0.169587,-0.663796,-0.259783,0.359437,0.481323,-0.249708,0,0,0,0,0,0,0,-0.206901,-0.00276941,0.27325,-1.65017,-0.311899,1.47109,1.25643,-0.67058,0.203559,-0.703046,-0.174228,0.000449771,0.662792,-0.145791,0.793033,-34.796,0.814222,25.1102,0.0564539,1.7138,-0.224197,-0.50044,-0.457115,-2.64749,0.571057,1.47153,-0.153095,-0.123011,1.69023,-0.183026,-1.56164,0.34169,-0.506852,-0.239128,
-0.223227,8.80257e-05,0.257034,-1.6595,-0.297162,-0.087893,0.460301,-0.640853,0.167741,-0.6542,-0.257702,0.363557,0.470712,-0.245742,0,0,0,0,0,0,0,-0.206901,-0.00276941,0.27325,-1.65017,-0.311899,1.47109,1.25643,-0.67058,0.203559,-0.703046,-0.174228,0.000449771,0.662792,-0.145791,0.793033,-34.796,0.814222,25.1102,0.0564539,1.7138,-0.224197,-0.50044,-0.457115,-2.64749,0.571057,1.47153,-0.153095,-0.123011,1.69023,-0.183026,-1.56164,0.34169,-0.506852,-0.239128,
-0.225756,0.000747817,0.254452,-1.66053,-0.295684,-0.0860314,0.459332,-0.632223,0.164948,-0.645474,-0.256906,0.369368,0.465416,-0.242363,0,0,0,0,0,0,0,-0.206901,-0.00276941,0.27325,-1.65017,-0.311899,1.47109,1.25643,-0.67058,0.203559,-0.703046,-0.174228,0.000449771,0.662792,-0.145791,0.793033,-34.796,0.814222,25.1102,0.0564539,1.7138,-0.224197,-1.59386,-0.240765,-2.17422,0.433495,0.449381,-0.00806958,0.0200326,1.03421,-0.0358464,-1.29177,0.316113,-0.466948,-0.239272,
-0.228253,0.0013947,0.251903,-1.66156,-0.294177,-0.0841713,0.458376,-0.624225,0.161721,-0.637386,-0.256576,0.376708,0.465011,-0.239104,0,0,0,0,0,0,0,-0.206901,-0.00276941,0.27325,-1.65017,-0.311899,1.47109,1.25643,-0.67058,0.203559,-0.703046,-0.174228,0.000449771,0.662792,-0.145791,0.793033,-34.796,0.814222,25.1102,0.0564539,1.7138,-0.224197,-1.59386,-0.240765,-2.17422,0.433495,0.449381,-0.00806958,0.0200326,1.03421,-0.0358464,-1.29177,0.316113,-0.466948,-0.239272,
-0.230719,0.00202905,0.249384,-1.66258,-0.292636,-0.0823133,0.457432,-0.616544,0.158588,-0.629617,-0.255442,0.385428,0.464517,-0.235983,0,0,0,0,0,0,0,-0.229641,0.0042436,0.249642,-1.65643,-0.30974,1.493,1.25083,-0.677627,0.190211,-0.69225,-0.200661,0.159386,0.622187,-0.147519,2.56641,-37.0415,2.38923,26.3559,-0.169681,1.98571,-0.183914,-1.29041,1.14291,-1.89028,-0.533512,0.488154,0.761791,0.794792,0.859386,0.727215,-1.16323,0.269509,-0.391879,-0.239064,
-0.21951,-0.00100869,0.260791,-1.65863,-0.301766,-0.0921241,0.460066,-0.706962,0.181567,-0.722008,-0.295055,0.324129,0.494605,-0.30393,0,0,0,0,0,0,0,-0.229641,0.0042436,0.249642,-1.65643,-0.30974,1.493,1.25083,-0.677627,0.190211,-0.69225,-0.200661,0.159386,0.622187,-0.147519,2.56641,-37.0415,2.38923,26.3559,-0.169681,1.98571,-0.183914,-0.943689,0.143306,-1.0501,0.0455055,0.145358,0.239669,0.274156,0.468827,0.205007,-0.668226,0.133403,-0.232597,-0.23145,
-0.260971,0.0117205,0.21761,-1.66905,-0.292749,-0.0519414,0.452193,-0.615781,0.145809,-0.629879,-0.260874,0.447742,0.460256,-0.263061,0,0,0,0,0,0,0,-0.229641,0.0042436,0.249642,-1.65643,-0.30974,1.493,1.25083,-0.677627,0.190211,-0.69225,-0.200661,0.159386,0.622187,-0.147519,2.56641,-37.0415,2.38923,26.3559,-0.169681,1.98571,-0.183914,-0.943689,0.143306,-1.0501,0.0455055,0.145358,0.239669,0.274156,0.468827,0.205007,-0.668226,0.133403,-0.232597,-0.23145,
-0.26339,0.0123036,0.215136,-1.67007,-0.290963,-0.0501645,0.451185,-0.604854,0.145774,-0.61853,-0.25478,0.446606,0.444247,-0.251889,0,0,0,0,0,0,0,-0.229641,0.0042436,0.249642,-1.65643,-0.30974,1.493,1.25083,-0.677627,0.190211,-0.69225,-0.200661,0.159386,0.622187,-0.147519,2.56641,-37.0415,2.38923,26.3559,-0.169681,1.98571,-0.183914,-1.60722,-1.1101,-1.64169,0.832971,-0.0197186,-0.453378,-0.426066,0.612412,-0.477909,-0.882962,0.0460066,-0.273868,-0.22619,
-0.26577,0.0128779,0.212701,-1.67108,-0.289174,-0.0484225,0.450193,-0.595018,0.143585,-0.608641,-0.252467,0.447146,0.435477,-0.248063,0,0,0,0,0,0,0,-0.229641,0.0042436,0.249642,-1.65643,-0.30974,1.493,1.25083,-0.677627,0.190211,-0.69225,-0.200661,0.159386,0.622187,-0.147519,2.56641,-37.0415,2.38923,26.3559,-0.169681,1.98571,-0.183914,-1.60722,-1.1101,-1.64169,0.832971,-0.0197186,-0.453378,-0.426066,0.612412,-0.477909,-0.882962,0.0460066,-0.273868,-0.22619,
-0.268115,0.0134404,0.210303,-1.67209,-0.287379,-0.0466968,0.449214,-0.586065,0.140624,-0.599635,-0.251405,0.448827,0.431429,-0.244818,0,0,0,0,0,0,0,-0.229641,0.0042436,0.249642,-1.65643,-0.30974,1.493,1.25083,-0.677627,0.190211,-0.69225,-0.200661,0.159386,0.622187,-0.147519,2.56641,-37.0415,2.38923,26.3559,-0.169681,1.98571,-0.183914,-1.14865,0.160439,-1.66889,0.0489157,0.322205,0.237632,0.27261,0.708428,0.201659,-0.927433,0.116681,-0.254779,-0.223549,
-0.270425,0.0139909,0.207938,-1.67309,-0.285573,-0.0449867,0.448247,-0.577664,0.137609,-0.59117,-0.249993,0.451367,0.427534,-0.241698,0,0,0,0,0,0,0,-0.249957,0.0102816,0.228732,-1.66235,-0.303735,1.51038,1.24695,-0.658143,0.185808,-0.674941,-0.197736,0.215437,0.54101,-0.136309,1.4278,-35.9703,1.46089,25.7092,-0.480961,1.70739,-0.217789,-1.14865,0.160439,-1.66889,0.0489157,0.322205,0.237632,0.27261,0.708428,0.201659,-0.927433,0.116681,-0.254779,-0.223549,
-0.272704,0.0145298,0.205606,-1.67408,-0.283754,-0.0433065,0.447292,-0.569585,0.134733,-0.583021,-0.247616,0.45477,0.420045,-0.238705,0,0,0,0,0,0,0,-0.249957,0.0102816,0.228732,-1.66235,-0.303735,1.51038,1.24695,-0.658143,0.185808,-0.674941,-0.197736,0.215437,0.54101,-0.136309,1.4278,-35.9703,1.46089,25.7092,-0.480961,1.70739,-0.217789,-0.290852,0.160725,-1.25796,-6.90889e-05,0.658691,0.259123,0.295559,0.744436,0.22088,-0.742496,0.0589537,-0.193748,-0.220941,
-0.262564,0.0118324,0.215949,-1.66975,-0.284435,-0.0537475,0.45013,-0.658831,0.154239,-0.674022,-0.280267,0.66505,0.409695,-0.302828,0,0,0,0,0,0,0,-0.249957,0.0102816,0.228732,-1.66235,-0.303735,1.51038,1.24695,-0.658143,0.185808,-0.674941,-0.197736,0.215437,0.54101,-0.136309,1.4278,-35.9703,1.46089,25.7092,-0.480961,1.70739,-0.217789,-0.271548,-1.21823,-0.592065,0.882566,0.371161,-0.537839,-0.504178,0.570102,-0.566539,-0.498372,0.011308,-0.249573,-0.218345,
-0.279736,0.0168169,0.198258,-1.6744,-0.277734,-0.0392757,0.448334,-0.571687,0.120219,-0.585585,-0.246469,0.63419,0.338092,-0.262551,0,0,0,0,0,0,0,-0.249957,0.0102816,0.228732,-1.66235,-0.303735,1.51038,1.24695,-0.658143,0.185808,-0.674941,-0.197736,0.215437,0.54101,-0.136309,1.4278,-35.9703,1.46089,25.7092,-0.480961,1.70739,-0.217789,-0.271548,-1.21823,-0.592065,0.882566,0.371161,-0.537839,-0.504178,0.570102,-0.566539,-0.498372,0.011308,-0.249573,-0.218345,
-0.281976,0.0172962,0.195964,-1.67536,-0.275231,-0.0379992,0.447325,-0.559969,0.119812,-0.57349,-0.240425,0.625747,0.319132,-0.25228,0,0,0,0,0,0,0,-0.249957,0.0102816,0.228732,-1.66235,-0.303735,1.51038,1.24695,-0.658143,0.185808,-0.674941,-0.197736,0.215437,0.54101,-0.136309,1.4278,-35.9703,1.46089,25.7092,-0.480961,1.70739,-0.217789,-0.814298,-2.93176,-0.561232,1.96926,0.073973,-1.54229,-1.51317,0.59782,-1.55691,-0.551386,-0.0673864,-0.381174,-0.215313,
-0.284174,0.0177658,0.193712,-1.67631,-0.272757,-0.0367707,0.446331,-0.549448,0.117418,-0.562957,-0.238057,0.618524,0.307133,-0.248659,0,0,0,0,0,0,0,-0.270073,0.0162695,0.207931,-1.66871,-0.295264,1.5273,1.2428,-0.614568,0.184244,-0.629404,-0.185908,0.29187,0.525159,-0.123777,1.60236,-37.0177,1.7624,26.0068,-0.17609,1.6607,-0.217789,-0.814298,-2.93176,-0.561232,1.96926,0.073973,-1.54229,-1.51317,0.59782,-1.55691,-0.551386,-0.0673864,-0.381174,-0.215313,
-0.286333,0.0182233,0.191499,-1.67726,-0.270309,-0.0355721,0.445348,-0.539922,0.114358,-0.553412,-0.236919,0.611933,0.299642,-0.245566,0,0,0,0,0,0,0,-0.270073,0.0162695,0.207931,-1.66871,-0.295264,1.5273,1.2428,-0.614568,0.184244,-0.629404,-0.185908,0.29187,0.525159,-0.123777,1.60236,-37.0177,1.7624,26.0068,-0.17609,1.6607,-0.217789,-1.10305,0.049401,-0.660244,0.176069,-0.068691,0.0909408,0.130225,0.339936,0.0535198,-0.601737,0.142968,-0.33168,-0.219288,
-0.288458,0.0186675,0.18932,-1.6782,-0.267886,-0.034387,0.444378,-0.531176,0.111064,-0.544639,-0.236274,0.605825,0.296282,-0.242582,0,0,0,0,0,0,0,-0.270073,0.0162695,0.207931,-1.66871,-0.295264,1.5273,1.2428,-0.614568,0.184244,-0.629404,-0.185908,0.29187,0.525159,-0.123777,1.60236,-37.0177,1.7624,26.0068,-0.17609,1.6607,-0.217789,-0.845784,0.149524,-1.11811,0.24059,0.348986,0.136447,0.174214,0.686695,0.100865,-0.824248,0.244235,-0.362481,-0.216077,
-0.29055,0.0190982,0.187174,-1.67915,-0.265485,-0.0331972,0.443419,-0.523064,0.107679,-0.536495,-0.235938,0.600274,0.297454,-0.239711,0,0,0,0,0,0,0,-0.270073,0.0162695,0.207931,-1.66871,-0.295264,1.5273,1.2428,-0.614568,0.184244,-0.629404,-0.185908,0.29187,0.525159,-0.123777,1.60236,-37.0177,1.7624,26.0068,-0.17609,1.6607,-0.217789,-0.845784,0.149524,-1.11811,0.24059,0.348986,0.136447,0.174214,0.686695,0.100865,-0.824248,0.244235,-0.362481,-0.216077,
-0.280683,0.0166214,0.197249,-1.67527,-0.271323,-0.0403485,0.446377,-0.595352,0.119432,-0.610241,-0.26858,0.789168,0.312331,-0.300331,0,0,0,0,0,0,0,-0.270073,0.0162695,0.207931,-1.66871,-0.295264,1.5273,1.2428,-0.614568,0.184244,-0.629404,-0.185908,0.29187,0.525159,-0.123777,1.60236,-37.0177,1.7624,26.0068,-0.17609,1.6607,-0.217789,-0.598316,-1.54808,-1.66531,1.4137,0.829426,-0.817456,-0.783291,1.24274,-0.838364,-1.10103,0.233967,-0.453462,-0.211922,
-0.297097,0.0216835,0.180218,-1.68045,-0.267383,-0.0244289,0.444226,-0.512296,0.0899853,-0.526404,-0.240881,0.656138,0.336183,-0.262667,0,0,0,0,0,0,0,-0.270073,0.0162695,0.207931,-1.66871,-0.295264,1.5273,1.2428,-0.614568,0.184244,-0.629404,-0.185908,0.29187,0.525159,-0.123777,1.60236,-37.0177,1.7624,26.0068,-0.17609,1.6607,-0.217789,-0.598316,-1.54808,-1.66531,1.4137,0.829426,-0.817456,-0.783291,1.24274,-0.838364,-1.10103,0.233967,-0.453462,-0.211922,
-0.299106,0.0220388,0.178153,-1.68138,-0.264733,-0.0231294,0.443214,-0.502335,0.0888135,-0.516167,-0.234878,0.662367,0.324876,-0.253033,0,0,0,0,0,0,0,-0.28967,0.0220231,0.187581,-1.67431,-0.283324,1.54287,1.23744,-0.591788,0.16964,-0.602296,-0.1575,0.384271,0.44427,-0.174216,2.49103,-37.4144,2.5638,26.106,0.386044,1.93261,-0.217789,-1.29805,-2.35132,-2.04158,1.95226,0.554382,-1.31209,-1.28266,1.28545,-1.32041,-1.24662,0.198134,-0.490883,-0.209,
-0.30108,0.0223832,0.176124,-1.68231,-0.262052,-0.0218562,0.442216,-0.493379,0.0861031,-0.507215,-0.231963,0.670272,0.318291,-0.249589,0,0,0,0,0,0,0,-0.28967,0.0220231,0.187581,-1.67431,-0.283324,1.54287,1.23744,-0.591788,0.16964,-0.602296,-0.1575,0.384271,0.44427,-0.174216,2.49103,-37.4144,2.5638,26.106,0.386044,1.93261,-0.217789,-1.29805,-2.35132,-2.04158,1.95226,0.554382,-1.31209,-1.28266,1.28545,-1.32041,-1.24662,0.198134,-0.490883,-0.209,
-0.303019,0.0227154,0.17413,-1.68323,-0.259361,-0.0205996,0.441229,-0.48477,0.083052,-0.498524,-0.230128,0.672857,0.314165,-0.246573,0,0,0,0,0,0,0,-0.28967,0.0220231,0.187581,-1.67431,-0.283324,1.54287,1.23744,-0.591788,0.16964,-0.602296,-0.1575,0.384271,0.44427,-0.174216,2.49103,-37.4144,2.5638,26.106,0.386044,1.93261,-0.217789,-1.25139,0.726968,-1.90046,0.119903,0.450863,0.39302,0.435376,0.936081,0.352902,-1.15524,0.418946,-0.385806,-0.207793,
-0.304925,0.0230351,0.172169,-1.68415,-0.256674,-0.0193498,0.440255,-0.476479,0.0799239,-0.490168,-0.228809,0.671588,0.312433,-0.243675,0,0,0,0,0,0,0,-0.28967,0.0220231,0.187581,-1.67431,-0.283324,1.54287,1.23744,-0.591788,0.16964,-0.602296,-0.1575,0.384271,0.44427,-0.174216,2.49103,-37.4144,2.5638,26.106,0.386044,1.93261,-0.217789,-1.25139,0.726968,-1.90046,0.119903,0.450863,0.39302,0.435376,0.936081,0.352902,-1.15524,0.418946,-0.385806,-0.207793,
-0.298546,0.021676,0.178705,-1.68103,-0.257355,-0.0255211,0.442291,-0.548612,0.0945603,-0.563603,-0.256946,0.897288,0.301861,-0.299899,0,0,0,0,0,0,0,-0.28967,0.0220231,0.187581,-1.67431,-0.283324,1.54287,1.23744,-0.591788,0.16964,-0.602296,-0.1575,0.384271,0.44427,-0.174216,2.49103,-37.4144,2.5638,26.106,0.386044,1.93261,-0.217789,-1.2488,0.298801,-2.2962,0.483273,0.661588,0.137889,0.177777,1.20369,0.104759,-1.34116,0.450333,-0.424286,-0.204581,
-0.315172,0.0263817,0.161394,-1.68536,-0.249784,-0.0111624,0.438844,-0.47597,0.0684574,-0.490016,-0.225118,0.766301,0.251884,-0.26195,0,0,0,0,0,0,0,-0.308352,0.027299,0.168107,-1.6795,-0.270365,1.55617,1.23175,-0.568826,0.159231,-0.598214,-0.165133,0.383562,0.396785,-0.177299,2.66956,-38.1404,2.76216,26.0306,0.923458,1.95275,-0.163772,-1.69802,-0.175466,-2.28519,0.852474,0.30316,-0.176691,-0.142405,1.07206,-0.196146,-1.28771,0.492534,-0.397619,-0.199836,
-0.317035,0.0266526,0.159477,-1.68623,-0.246733,-0.0102233,0.43783,-0.465694,0.0677296,-0.479448,-0.21923,0.762857,0.234773,-0.253452,0,0,0,0,0,0,0,-0.308352,0.027299,0.168107,-1.6795,-0.270365,1.55617,1.23175,-0.568826,0.159231,-0.598214,-0.165133,0.383562,0.396785,-0.177299,2.66956,-38.1404,2.76216,26.0306,0.923458,1.95275,-0.163772,-1.69802,-0.175466,-2.28519,0.852474,0.30316,-0.176691,-0.142405,1.07206,-0.196146,-1.28771,0.492534,-0.397619,-0.199836,
-0.318859,0.0269145,0.157597,-1.6871,-0.24371,-0.00933143,0.43683,-0.456086,0.0654773,-0.46981,-0.21663,0.755643,0.222977,-0.25016,0,0,0,0,0,0,0,-0.308352,0.027299,0.168107,-1.6795,-0.270365,1.55617,1.23175,-0.568826,0.159231,-0.598214,-0.165133,0.383562,0.396785,-0.177299,2.66956,-38.1404,2.76216,26.0306,0.923458,1.95275,-0.163772,-1.23772,-1.68248,-2.41371,1.77751,0.628999,-0.966764,-0.936611,1.37215,-0.970373,-1.29773,0.397488,-0.370002,-0.194701,
-0.320647,0.0271656,0.155754,-1.68796,-0.240728,-0.00847348,0.43584,-0.447113,0.062766,-0.460816,-0.215204,0.745487,0.214487,-0.247309,0,0,0,0,0,0,0,-0.308352,0.027299,0.168107,-1.6795,-0.270365,1.55617,1.23175,-0.568826,0.159231,-0.598214,-0.165133,0.383562,0.396785,-0.177299,2.66956,-38.1404,2.76216,26.0306,0.923458,1.95275,-0.163772,-1.23772,-1.68248,-2.41371,1.77751,0.628999,-0.966764,-0.936611,1.37215,-0.970373,-1.29773,0.397488,-0.370002,-0.194701,
-0.322402,0.0274053,0.153944,-1.68882,-0.237795,-0.00763749,0.434862,-0.438703,0.0599378,-0.452389,-0.214283,0.73323,0.208996,-0.244569,0,0,0,0,0,0,0,-0.308352,0.027299,0.168107,-1.6795,-0.270365,1.55617,1.23175,-0.568826,0.159231,-0.598214,-0.165133,0.383562,0.396785,-0.177299,2.66956,-38.1404,2.76216,26.0306,0.923458,1.95275,-0.163772,-1.9391,0.43882,-2.09318,0.503405,-0.01976,0.119327,0.157519,0.801468,0.0950767,-1.15987,0.541275,-0.337744,-0.193563,
-0.324125,0.0276337,0.152167,-1.68967,-0.234917,-0.00681012,0.433894,-0.430799,0.0570996,-0.444472,-0.213683,0.71964,0.206842,-0.241939,0,0,0,0,0,0,0,-0.331583,0.0329433,0.144163,-1.68692,-0.252321,1.57013,1.22552,-0.528332,0.128728,-0.553403,-0.16738,0.464465,0.276447,-0.145522,3.30432,-38.5411,3.16286,27.1255,0.379635,1.95916,-0.177505,-2.17943,1.11544,-1.68316,0.103207,-0.451991,0.450539,0.488007,0.413492,0.425075,-0.938897,0.621976,-0.271755,-0.188715,
-0.315963,0.0260683,0.160545,-1.68607,-0.241992,-0.0123584,0.437031,-0.494981,0.0634442,-0.50983,-0.243078,0.977729,0.22044,-0.296861,0,0,0,0,0,0,0,-0.331583,0.0329433,0.144163,-1.68692,-0.252321,1.57013,1.22552,-0.528332,0.128728,-0.553403,-0.16738,0.464465,0.276447,-0.145522,3.30432,-38.5411,3.16286,27.1255,0.379635,1.95916,-0.177505,-2.17943,1.11544,-1.68316,0.103207,-0.451991,0.450539,0.488007,0.413492,0.425075,-0.938897,0.621976,-0.271755,-0.188715,
-0.354351,0.0359656,0.120714,-1.69775,-0.217979,0.0109196,0.426982,-0.420484,0.0442539,-0.434465,-0.221157,0.728605,0.220002,-0.262165,0,0,0,0,0,0,0,-0.331583,0.0329433,0.144163,-1.68692,-0.252321,1.57013,1.22552,-0.528332,0.128728,-0.553403,-0.16738,0.464465,0.276447,-0.145522,3.30432,-38.5411,3.16286,27.1255,0.379635,1.95916,-0.177505,-1.25898,-0.478913,-1.91789,1.0696,0.240786,-0.3231,-0.290322,0.92437,-0.332986,-1.00408,0.507714,-0.245893,-0.186614,
-0.355995,0.036141,0.119015,-1.69861,-0.215093,0.0117703,0.425966,-0.410966,0.0438375,-0.424732,-0.21502,0.721501,0.212676,-0.25387,0,0,0,0,0,0,0,-0.331583,0.0329433,0.144163,-1.68692,-0.252321,1.57013,1.22552,-0.528332,0.128728,-0.553403,-0.16738,0.464465,0.276447,-0.145522,3.30432,-38.5411,3.16286,27.1255,0.379635,1.95916,-0.177505,-1.25898,-0.478913,-1.91789,1.0696,0.240786,-0.3231,-0.290322,0.92437,-0.332986,-1.00408,0.507714,-0.245893,-0.186614,
-0.357606,0.0363085,0.117349,-1.69946,-0.212216,0.0126059,0.424963,-0.402613,0.0418857,-0.416507,-0.211906,0.719238,0.208895,-0.250813,0,0,0,0,0,0,0,-0.331583,0.0329433,0.144163,-1.68692,-0.252321,1.57013,1.22552,-0.528332,0.128728,-0.553403,-0.16738,0.464465,0.276447,-0.145522,3.30432,-38.5411,3.16286,27.1255,0.379635,1.95916,-0.177505,-0.502396,-0.183851,-2.01031,0.898411,0.786318,-0.07381,-0.0363705,1.17954,-0.0939153,-1.06078,0.506881,-0.24023,-0.187419,
-0.359187,0.0364662,0.115711,-1.7003,-0.20933,0.0134331,0.423971,-0.395319,0.0394258,-0.40932,-0.209874,0.721582,0.206796,-0.248174,0,0,0,0,0,0,0,-0.331583,0.0329433,0.144163,-1.68692,-0.252321,1.57013,1.22552,-0.528332,0.128728,-0.553403,-0.16738,0.464465,0.276447,-0.145522,3.30432,-38.5411,3.16286,27.1255,0.379635,1.95916,-0.177505,-0.502396,-0.183851,-2.01031,0.898411,0.786318,-0.07381,-0.0363705,1.17954,-0.0939153,-1.06078,0.506881,-0.24023,-0.187419,
-0.36074,0.0366139,0.114102,-1.70114,-0.206448,0.014256,0.422988,-0.388327,0.0369217,-0.40228,-0.208275,0.72041,0.205722,-0.24552,0,0,0,0,0,0,0,-0.34811,0.0363701,0.127061,-1.69238,-0.2359,1.57745,1.22073,-0.517678,0.0919473,-0.522534,-0.177629,0.530347,0.209444,-0.149908,2.36408,-38.0412,2.33766,26.6534,0.19653,2.13769,-0.217789,-0.563315,-1.21551,-1.35792,1.40565,0.401712,-0.648097,-0.607241,0.895541,-0.661291,-0.753401,0.405984,-0.210211,-0.186504,
-0.362266,0.0367518,0.112521,-1.70196,-0.203588,0.0150804,0.422017,-0.38145,0.0344552,-0.395336,-0.207001,0.714994,0.206105,-0.242938,0,0,0,0,0,0,0,-0.34811,0.0363701,0.127061,-1.69238,-0.2359,1.57745,1.22073,-0.517678,0.0919473,-0.522534,-0.177629,0.530347,0.209444,-0.149908,2.36408,-38.0412,2.33766,26.6534,0.19653,2.13769,-0.217789,-0.0391828,0.813542,-1.5051,0.220677,0.770214,0.542159,0.595755,0.904767,0.49533,-0.805901,0.525954,-0.155921,-0.190712,
-0.355238,0.0355589,0.119747,-1.69823,-0.209248,0.0105169,0.425294,-0.446554,0.0349432,-0.461695,-0.231641,1.04189,0.204108,-0.294663,0,0,0,0,0,0,0,-0.34811,0.0363701,0.127061,-1.69238,-0.2359,1.57745,1.22073,-0.517678,0.0919473,-0.522534,-0.177629,0.530347,0.209444,-0.149908,2.36408,-38.0412,2.33766,26.6534,0.19653,2.13769,-0.217789,-0.0391828,0.813542,-1.5051,0.220677,0.770214,0.542159,0.595755,0.904767,0.49533,-0.805901,0.525954,-0.155921,-0.190712,
-0.369422,0.0381133,0.105066,-1.70267,-0.194772,0.0163669,0.42228,-0.385101,0.0184633,-0.399152,-0.20503,0.923303,0.163876,-0.2599,0,0,0,0,0,0,0,-0.34811,0.0363701,0.127061,-1.69238,-0.2359,1.57745,1.22073,-0.517678,0.0919473,-0.522534,-0.177629,0.530347,0.209444,-0.149908,2.36408,-38.0412,2.33766,26.6534,0.19653,2.13769,-0.217789,-0.311524,0.0820173,-1.32936,0.584409,0.515165,0.10619,0.156046,0.794152,0.0697506,-0.723407,0.423792,-0.163486,-0.186376,
-0.37092,0.0381859,0.103513,-1.70346,-0.191134,0.0169731,0.42127,-0.37443,0.0181613,-0.388202,-0.199118,0.909439,0.151538,-0.252545,0,0,0,0,0,0,0,-0.34811,0.0363701,0.127061,-1.69238,-0.2359,1.57745,1.22073,-0.517678,0.0919473,-0.522534,-0.177629,0.530347,0.209444,-0.149908,2.36408,-38.0412,2.33766,26.6534,0.19653,2.13769,-0.217789,-0.311524,0.0820173,-1.32936,0.584409,0.515165,0.10619,0.156046,0.794152,0.0697506,-0.723407,0.423792,-0.163486,-0.186376,
-0.372378,0.0382516,0.102,-1.70425,-0.187564,0.0175462,0.420271,-0.364507,0.0164214,-0.378328,-0.196311,0.89269,0.143282,-0.249644,0,0,0,0,0,0,0,-0.363472,0.0391091,0.111218,-1.69777,-0.219123,1.58339,1.21517,-0.492011,0.0779332,-0.49405,-0.169227,0.585035,0.17561,-0.202049,2.43946,-38.1642,2.5638,26.6534,1.13128,2.44988,-0.190323,-0.503738,-1.16545,-1.25454,1.24148,0.35752,-0.59246,-0.542916,0.794553,-0.617573,-0.662637,0.273765,-0.157382,-0.18238,
-0.373799,0.0383085,0.100523,-1.70503,-0.184069,0.0180963,0.419283,-0.355335,0.0142285,-0.369209,-0.19469,0.873627,0.13752,-0.247132,0,0,0,0,0,0,0,-0.363472,0.0391091,0.111218,-1.69777,-0.219123,1.58339,1.21517,-0.492011,0.0779332,-0.49405,-0.169227,0.585035,0.17561,-0.202049,2.43946,-38.1642,2.5638,26.6534,1.13128,2.44988,-0.190323,-0.930536,-0.731013,-1.68003,1.05437,0.256574,-0.412473,-0.360058,0.820896,-0.442291,-0.818503,0.310227,-0.146683,-0.183242,
-0.375186,0.0383562,0.09908,-1.7058,-0.180658,0.0186333,0.418304,-0.346826,0.011913,-0.360748,-0.193653,0.852855,0.13425,-0.244734,0,0,0,0,0,0,0,-0.363472,0.0391091,0.111218,-1.69777,-0.219123,1.58339,1.21517,-0.492011,0.0779332,-0.49405,-0.169227,0.585035,0.17561,-0.202049,2.43946,-38.1642,2.5638,26.6534,1.13128,2.44988,-0.190323,-0.930536,-0.731013,-1.68003,1.05437,0.256574,-0.412473,-0.360058,0.820896,-0.442291,-0.818503,0.310227,-0.146683,-0.183242,
-0.367727,0.0376695,0.106786,-1.70226,-0.197686,0.0154455,0.421874,-0.392865,0.00974747,-0.407701,-0.217749,1.00671,0.169786,-0.291905,0,0,0,0,0,0,0,-0.363472,0.0391091,0.111218,-1.69777,-0.219123,1.58339,1.21517,-0.492011,0.0779332,-0.49405,-0.169227,0.585035,0.17561,-0.202049,2.43946,-38.1642,2.5638,26.6534,1.13128,2.44988,-0.190323,-1.3292,-1.91268,-2.01868,1.82696,0.146187,-1.1191,-1.07483,0.983257,-1.12554,-0.931137,0.267258,-0.15078,-0.180556,
-0.381123,0.0399521,0.0929634,-1.70683,-0.182414,0.0195952,0.417719,-0.338462,-0.000936217,-0.352436,-0.203104,0.87538,0.164406,-0.262311,0,0,0,0,0,0,0,-0.363472,0.0391091,0.111218,-1.69777,-0.219123,1.58339,1.21517,-0.492011,0.0779332,-0.49405,-0.169227,0.585035,0.17561,-0.202049,2.43946,-38.1642,2.5638,26.6534,1.13128,2.44988,-0.190323,-1.3292,-1.91268,-2.01868,1.82696,0.146187,-1.1191,-1.07483,0.983257,-1.12554,-0.931137,0.267258,-0.15078,-0.180556,
-0.382433,0.0399424,0.091597,-1.70763,-0.178975,0.0202691,0.416673,-0.3275,-0.0024296,-0.34161,-0.199971,0.859749,0.168476,-0.261522,0,0,0,0,0,0,0,-0.363472,0.0391091,0.111218,-1.69777,-0.219123,1.58339,1.21517,-0.492011,0.0779332,-0.49405,-0.169227,0.585035,0.17561,-0.202049,2.43946,-38.1642,2.5638,26.6534,1.13128,2.44988,-0.190323,-0.945764,0.120573,-2.02776,0.63887,0.337681,0.0470317,0.100877,0.857419,0.00945379,-0.917103,0.393893,-0.0951221,-0.1842,
-0.383699,0.0399321,0.0902743,-1.70841,-0.175607,0.0209388,0.415656,-0.316681,-0.00259249,-0.330676,-0.19418,0.842027,0.167436,-0.254272,0,0,0,0,0,0,0,-0.378441,0.0414585,0.0957595,-1.70275,-0.198031,1.58796,1.20954,-0.456575,0.0712227,-0.477373,-0.153052,0.658779,0.114493,-0.153254,3.73279,-38.8387,3.63893,26.7526,0.843807,2.4627,-0.123489,-0.945764,0.120573,-2.02776,0.63887,0.337681,0.0470317,0.100877,0.857419,0.00945379,-0.917103,0.393893,-0.0951221,-0.1842,
-0.384928,0.0399161,0.0889895,-1.70917,-0.172303,0.0216073,0.41465,-0.307018,-0.00399017,-0.321187,-0.190781,0.826129,0.167119,-0.251509,0,0,0,0,0,0,0,-0.378441,0.0414585,0.0957595,-1.70275,-0.198031,1.58796,1.20954,-0.456575,0.0712227,-0.477373,-0.153052,0.658779,0.114493,-0.153254,3.73279,-38.8387,3.63893,26.7526,0.843807,2.4627,-0.123489,-1.21386,0.0562922,-2.22415,0.675841,0.248715,-0.0296207,0.0230618,0.865391,-0.065431,-0.980959,0.352948,-0.0882176,-0.182061,
-0.386121,0.0398928,0.0877384,-1.70992,-0.169054,0.0222731,0.413654,-0.298446,-0.00582948,-0.312771,-0.188314,0.81213,0.166442,-0.249098,0,0,0,0,0,0,0,-0.378441,0.0414585,0.0957595,-1.70275,-0.198031,1.58796,1.20954,-0.456575,0.0712227,-0.477373,-0.153052,0.658779,0.114493,-0.153254,3.73279,-38.8387,3.63893,26.7526,0.843807,2.4627,-0.123489,-1.27723,-0.690691,-2.26342,1.11082,0.232062,-0.448767,-0.398839,0.942148,-0.473988,-0.988489,0.290368,-0.0918767,-0.179605,
-0.381455,0.0395446,0.0925598,-1.70735,-0.180716,0.0208583,0.416298,-0.353393,-0.01223,-0.36895,-0.213659,1.00084,0.199622,-0.292738,0,0,0,0,0,0,0,-0.378441,0.0414585,0.0957595,-1.70275,-0.198031,1.58796,1.20954,-0.456575,0.0712227,-0.477373,-0.153052,0.658779,0.114493,-0.153254,3.73279,-38.8387,3.63893,26.7526,0.843807,2.4627,-0.123489,-1.27723,-0.690691,-2.26342,1.11082,0.232062,-0.448767,-0.398839,0.942148,-0.473988,-0.988489,0.290368,-0.0918767,-0.179605,
-0.394697,0.0416257,0.0788711,-1.71165,-0.159459,0.0251314,0.412073,-0.309959,-0.0171882,-0.324728,-0.192355,0.974281,0.169651,-0.261667,0,0,0,0,0,0,0,-0.378441,0.0414585,0.0957595,-1.70275,-0.198031,1.58796,1.20954,-0.456575,0.0712227,-0.477373,-0.153052,0.658779,0.114493,-0.153254,3.73279,-38.8387,3.63893,26.7526,0.843807,2.4627,-0.123489,-0.976968,0.253141,-2.43173,0.633488,0.486537,0.098937,0.150667,1.02492,0.0624769,-1.07469,0.38429,-0.0949241,-0.180025,
-0.395896,0.041548,0.0776129,-1.71241,-0.155586,0.0257768,0.411034,-0.299788,-0.0194311,-0.314553,-0.1893,0.968239,0.161373,-0.259791,0,0,0,0,0,0,0,-0.392701,0.0429422,0.0807348,-1.70818,-0.176753,1.59139,1.2048,-0.420243,0.0353343,-0.43053,-0.169895,0.587307,0.0900116,-0.142026,3.32813,-38.3666,3.31361,27.0779,1.06994,2.44988,-0.0905302,-0.976968,0.253141,-2.43173,0.633488,0.486537,0.098937,0.150667,1.02492,0.0624769,-1.07469,0.38429,-0.0949241,-0.180025,
-0.397055,0.0414634,0.0763948,-1.71315,-0.15176,0.0263796,0.410001,-0.289719,-0.0211518,-0.304532,-0.185645,0.956523,0.150678,-0.258226,0,0,0,0,0,0,0,-0.392701,0.0429422,0.0807348,-1.70818,-0.176753,1.59139,1.2048,-0.420243,0.0353343,-0.43053,-0.169895,0.587307,0.0900116,-0.142026,3.32813,-38.3666,3.31361,27.0779,1.06994,2.44988,-0.0905302,-0.900056,-0.957784,-2.35,1.35093,0.482119,-0.548569,-0.50231,1.12015,-0.565914,-1.01267,0.33471,-0.0797482,-0.173768,
-0.398174,0.0413774,0.0752168,-1.71387,-0.147997,0.026927,0.408992,-0.279799,-0.0214994,-0.294498,-0.179774,0.940641,0.13686,-0.252355,0,0,0,0,0,0,0,-0.392701,0.0429422,0.0807348,-1.70818,-0.176753,1.59139,1.2048,-0.420243,0.0353343,-0.43053,-0.169895,0.587307,0.0900116,-0.142026,3.32813,-38.3666,3.31361,27.0779,1.06994,2.44988,-0.0905302,-0.900056,-0.957784,-2.35,1.35093,0.482119,-0.548569,-0.50231,1.12015,-0.565914,-1.01267,0.33471,-0.0797482,-0.173768,
-0.399258,0.0412851,0.0740741,-1.71458,-0.144301,0.0274273,0.407993,-0.270833,-0.0230545,-0.285665,-0.176582,0.924178,0.125077,-0.249752,0,0,0,0,0,0,0,-0.392701,0.0429422,0.0807348,-1.70818,-0.176753,1.59139,1.2048,-0.420243,0.0353343,-0.43053,-0.169895,0.587307,0.0900116,-0.142026,3.32813,-38.3666,3.31361,27.0779,1.06994,2.44988,-0.0905302,-0.596233,-0.243409,-2.89543,1.05689,0.954387,-0.116374,-0.0601878,1.44281,-0.152376,-1.27979,0.38956,-0.119602,-0.174694,
-0.400309,0.0411853,0.0729632,-1.71528,-0.140671,0.0278831,0.407003,-0.262784,-0.0249723,-0.27774,-0.174426,0.907504,0.113947,-0.247421,0,0,0,0,0,0,0,-0.392701,0.0429422,0.0807348,-1.70818,-0.176753,1.59139,1.2048,-0.420243,0.0353343,-0.43053,-0.169895,0.587307,0.0900116,-0.142026,3.32813,-38.3666,3.31361,27.0779,1.06994,2.44988,-0.0905302,-0.60412,0.95249,-2.8332,0.427463,0.874875,0.501226,0.563236,1.28251,0.450283,-1.26715,0.531732,-0.119575,-0.173815,
-0.395581,0.0410748,0.0778934,-1.71287,-0.155671,0.0267469,0.409605,-0.292042,-0.0320482,-0.307864,-0.197714,0.999927,0.188469,-0.287759,0,0,0,0,0,0,0,-0.392701,0.0429422,0.0807348,-1.70818,-0.176753,1.59139,1.2048,-0.420243,0.0353343,-0.43053,-0.169895,0.587307,0.0900116,-0.142026,3.32813,-38.3666,3.31361,27.0779,1.06994,2.44988,-0.0905302,-0.60412,0.95249,-2.8332,0.427463,0.874875,0.501226,0.563236,1.28251,0.450283,-1.26715,0.531732,-0.119575,-0.173815,
-0.40782,0.042031,0.064925,-1.71732,-0.137843,0.0254088,0.406491,-0.245198,-0.0391814,-0.260156,-0.183754,0.811447,0.100387,-0.256693,0,0,0,0,0,0,0,-0.405227,0.0435604,0.0677428,-1.71321,-0.156962,1.59362,1.19989,-0.390686,0.0130049,-0.415352,-0.151142,0.655572,0.0482326,-0.190173,3.60584,-38.0888,3.51198,27.1017,0.837399,2.55608,-0.150955,-0.761189,-1.54816,-2.58838,1.83161,0.661606,-0.865674,-0.815527,1.36376,-0.877648,-1.11622,0.374823,-0.0954349,-0.166415,
-0.408761,0.0418674,0.0639239,-1.71806,-0.134718,0.0258849,0.40547,-0.235151,-0.0409147,-0.250278,-0.183732,0.781351,0.119039,-0.255266,0,0,0,0,0,0,0,-0.405227,0.0435604,0.0677428,-1.71321,-0.156962,1.59362,1.19989,-0.390686,0.0130049,-0.415352,-0.151142,0.655572,0.0482326,-0.190173,3.60584,-38.0888,3.51198,27.1017,0.837399,2.55608,-0.150955,-0.761189,-1.54816,-2.58838,1.83161,0.661606,-0.865674,-0.815527,1.36376,-0.877648,-1.11622,0.374823,-0.0954349,-0.166415,
-0.409663,0.0417022,0.0629614,-1.71878,-0.131726,0.0264382,0.404472,-0.225526,-0.0412946,-0.240621,-0.181657,0.74809,0.138319,-0.249533,0,0,0,0,0,0,0,-0.405227,0.0435604,0.0677428,-1.71321,-0.156962,1.59362,1.19989,-0.390686,0.0130049,-0.415352,-0.151142,0.655572,0.0482326,-0.190173,3.60584,-38.0888,3.51198,27.1017,0.837399,2.55608,-0.150955,-0.823951,-1.78963,-2.03529,1.84252,0.359341,-1.00669,-0.956172,1.08131,-1.01688,-0.876379,0.323398,-0.077018,-0.165572,
-0.41053,0.0415356,0.0620333,-1.7195,-0.128869,0.0270406,0.403483,-0.216767,-0.0416537,-0.23201,-0.178771,0.714186,0.150613,-0.247034,0,0,0,0,0,0,0,-0.405227,0.0435604,0.0677428,-1.71321,-0.156962,1.59362,1.19989,-0.390686,0.0130049,-0.415352,-0.151142,0.655572,0.0482326,-0.190173,3.60584,-38.0888,3.51198,27.1017,0.837399,2.55608,-0.150955,-0.462398,-0.0150507,-1.51194,0.744196,0.273533,-0.00527169,0.0557206,0.690177,-0.0445155,-0.648894,0.460882,-0.0344078,-0.165968,
-0.411366,0.0413667,0.0611361,-1.7202,-0.126148,0.0276726,0.402504,-0.208919,-0.04223,-0.224302,-0.175842,0.680331,0.157993,-0.244781,0,0,0,0,0,0,0,-0.405227,0.0435604,0.0677428,-1.71321,-0.156962,1.59362,1.19989,-0.390686,0.0130049,-0.415352,-0.151142,0.655572,0.0482326,-0.190173,3.60584,-38.0888,3.51198,27.1017,0.837399,2.55608,-0.150955,-0.462398,-0.0150507,-1.51194,0.744196,0.273533,-0.00527169,0.0557206,0.690177,-0.0445155,-0.648894,0.460882,-0.0344078,-0.165968,
-0.412174,0.0411945,0.0602663,-1.7209,-0.123558,0.0283197,0.401534,-0.201932,-0.0430325,-0.217448,-0.173121,0.647349,0.161778,-0.242552,0,0,0,0,0,0,0,-0.416612,0.0438378,0.0559094,-1.71795,-0.137266,1.59465,1.19426,-0.36845,0.00516828,-0.367805,-0.147945,0.604929,0.0145219,-0.184969,3.55426,-38.4142,3.33742,27.3517,0.593868,2.42333,-0.230606,-0.382255,-0.732256,-1.58324,1.15954,0.361085,-0.362517,-0.301712,0.819805,-0.39523,-0.661466,0.402318,-0.0250154,-0.167979,
-0.407979,0.0415005,0.0646973,-1.7179,-0.135688,0.0280207,0.405074,-0.256067,-0.0529647,-0.272678,-0.193301,0.990234,0.164876,-0.284449,0,0,0,0,0,0,0,-0.416612,0.0438378,0.0559094,-1.71795,-0.137266,1.59465,1.19426,-0.36845,0.00516828,-0.367805,-0.147945,0.604929,0.0145219,-0.184969,3.55426,-38.4142,3.33742,27.3517,0.593868,2.42333,-0.230606,-0.382255,-0.732256,-1.58324,1.15954,0.361085,-0.362517,-0.301712,0.819805,-0.39523,-0.661466,0.402318,-0.0250154,-0.167979,
-0.429505,0.0417915,0.042284,-1.72691,-0.101436,0.0317697,0.396101,-0.211045,-0.0558718,-0.227382,-0.173842,0.747763,0.176874,-0.251853,0,0,0,0,0,0,0,-0.416612,0.0438378,0.0559094,-1.71795,-0.137266,1.59465,1.19426,-0.36845,0.00516828,-0.367805,-0.147945,0.604929,0.0145219,-0.184969,3.55426,-38.4142,3.33742,27.3517,0.593868,2.42333,-0.230606,-0.721965,-1.10517,-1.63121,1.34502,0.198079,-0.618989,-0.560852,0.801883,-0.645595,-0.691543,0.328031,-0.0432791,-0.17267,
-0.43033,0.0415644,0.0413925,-1.72759,-0.0983496,0.0324476,0.395103,-0.206276,-0.0567737,-0.222886,-0.170671,0.771633,0.169479,-0.24947,0,0,0,0,0,0,0,-0.416612,0.0438378,0.0559094,-1.71795,-0.137266,1.59465,1.19426,-0.36845,0.00516828,-0.367805,-0.147945,0.604929,0.0145219,-0.184969,3.55426,-38.4142,3.33742,27.3517,0.593868,2.42333,-0.230606,-0.721965,-1.10517,-1.63121,1.34502,0.198079,-0.618989,-0.560852,0.801883,-0.645595,-0.691543,0.328031,-0.0432791,-0.17267,
-0.431142,0.0413384,0.0405136,-1.72825,-0.0951079,0.0330809,0.394117,-0.202882,-0.0564997,-0.219715,-0.165762,0.810428,0.158324,-0.246555,0,0,0,0,0,0,0,-0.416612,0.0438378,0.0559094,-1.71795,-0.137266,1.59465,1.19426,-0.36845,0.00516828,-0.367805,-0.147945,0.604929,0.0145219,-0.184969,3.55426,-38.4142,3.33742,27.3517,0.593868,2.42333,-0.230606,-0.859504,-0.215755,-1.63411,0.802834,0.0870703,-0.174381,-0.111049,0.642731,-0.215584,-0.685262,0.352127,-0.0295862,-0.176897,
-0.431937,0.0411101,0.0396522,-1.7289,-0.0917744,0.0336674,0.393141,-0.198822,-0.0570716,-0.215363,-0.162659,0.833375,0.146637,-0.244103,0,0,0,0,0,0,0,-0.416612,0.0438378,0.0559094,-1.71795,-0.137266,1.59465,1.19426,-0.36845,0.00516828,-0.367805,-0.147945,0.604929,0.0145219,-0.184969,3.55426,-38.4142,3.33742,27.3517,0.593868,2.42333,-0.230606,-1.01147,0.46933,-1.65128,0.387569,-0.0347901,0.161202,0.233527,0.501521,0.104225,-0.674767,0.372099,-0.00778005,-0.186326,
-0.432713,0.0408782,0.0388109,-1.72954,-0.0884071,0.0342044,0.392174,-0.194023,-0.0579791,-0.210315,-0.160392,0.841806,0.134241,-0.24175,0,0,0,0,0,0,0,-0.430446,0.0438093,0.0415244,-1.72387,-0.114468,1.59485,1.1879,-0.297623,-0.00394925,-0.327049,-0.130356,0.520533,0.00755284,-0.135486,2.59418,-37.589,2.46461,27.0264,1.41784,2.64214,-0.170181,-1.01147,0.46933,-1.65128,0.387569,-0.0347901,0.161202,0.233527,0.501521,0.104225,-0.674767,0.372099,-0.00778005,-0.186326,
-0.433468,0.0406421,0.0379917,-1.73018,-0.0850567,0.0346914,0.391216,-0.188699,-0.0590355,-0.204802,-0.158656,0.837609,0.121748,-0.239485,0,0,0,0,0,0,0,-0.430446,0.0438093,0.0415244,-1.72387,-0.114468,1.59485,1.1879,-0.297623,-0.00394925,-0.327049,-0.130356,0.520533,0.00755284,-0.135486,2.59418,-37.589,2.46461,27.0264,1.41784,2.64214,-0.170181,-1.34887,-0.505123,-2.20881,1.07692,0.0160001,-0.418226,-0.350554,0.804336,-0.45823,-0.894257,0.328435,-0.0181654,-0.191993,
-0.42922,0.0412936,0.0425446,-1.72732,-0.0963349,0.0343739,0.394826,-0.203059,-0.0687821,-0.219699,-0.179255,0.979871,0.237568,-0.276446,0,0,0,0,0,0,0,-0.430446,0.0438093,0.0415244,-1.72387,-0.114468,1.59485,1.1879,-0.297623,-0.00394925,-0.327049,-0.130356,0.520533,0.00755284,-0.135486,2.59418,-37.589,2.46461,27.0264,1.41784,2.64214,-0.170181,-1.34887,-0.505123,-2.20881,1.07692,0.0160001,-0.418226,-0.350554,0.804336,-0.45823,-0.894257,0.328435,-0.0181654,-0.191993,
-0.441238,0.0411111,0.0299906,-1.73228,-0.0768749,0.0293446,0.390012,-0.165856,-0.0704724,-0.181608,-0.168586,0.7663,0.124123,-0.249585,0,0,0,0,0,0,0,-0.430446,0.0438093,0.0415244,-1.72387,-0.114468,1.59485,1.1879,-0.297623,-0.00394925,-0.327049,-0.130356,0.520533,0.00755284,-0.135486,2.59418,-37.589,2.46461,27.0264,1.41784,2.64214,-0.170181,-1.78616,-1.8572,-2.30205,1.8624,-0.202225,-1.21319,-1.15398,0.882172,-1.22913,-0.911472,0.232475,-0.0115512,-0.196674,
-0.441866,0.0408244,0.0292982,-1.73295,-0.0739465,0.0299202,0.389019,-0.157177,-0.0716666,-0.173095,-0.168961,0.732092,0.143891,-0.248398,0,0,0,0,0,0,0,-0.430446,0.0438093,0.0415244,-1.72387,-0.114468,1.59485,1.1879,-0.297623,-0.00394925,-0.327049,-0.130356,0.520533,0.00755284,-0.135486,2.59418,-37.589,2.46461,27.0264,1.41784,2.64214,-0.170181,-1.78616,-1.8572,-2.30205,1.8624,-0.202225,-1.21319,-1.15398,0.882172,-1.22913,-0.911472,0.232475,-0.0115512,-0.196674,
-0.442462,0.0405377,0.0286396,-1.73362,-0.0711755,0.0305837,0.388046,-0.14877,-0.0716655,-0.164645,-0.167706,0.692752,0.165878,-0.243062,0,0,0,0,0,0,0,-0.439249,0.0436499,0.0318172,-1.72746,-0.0963131,1.59496,1.18326,-0.279104,-0.00762543,-0.283051,-0.110311,0.591799,0.00999279,-0.148679,2.82032,-37.1169,2.68678,26.5027,1.58905,2.54235,-0.157364,-1.69469,-1.17836,-2.26273,1.48512,-0.22105,-0.839721,-0.779513,0.776057,-0.862167,-0.86984,0.3037,0.021181,-0.205832,
-0.443026,0.040252,0.0280108,-1.73428,-0.0685633,0.0313011,0.387083,-0.141192,-0.0714256,-0.157221,-0.165057,0.653057,0.179349,-0.240794,0,0,0,0,0,0,0,-0.439249,0.0436499,0.0318172,-1.72746,-0.0963131,1.59496,1.18326,-0.279104,-0.00762543,-0.283051,-0.110311,0.591799,0.00999279,-0.148679,2.82032,-37.1169,2.68678,26.5027,1.58905,2.54235,-0.157364,-1.42166,-0.641757,-2.57445,1.31688,0.0422919,-0.511625,-0.445919,0.938708,-0.543186,-0.993502,0.418243,0.025867,-0.21186,
-0.443564,0.0399666,0.0274081,-1.73493,-0.0661091,0.0320494,0.386128,-0.134489,-0.0713699,-0.150659,-0.162215,0.613559,0.187059,-0.238751,0,0,0,0,0,0,0,-0.439249,0.0436499,0.0318172,-1.72746,-0.0963131,1.59496,1.18326,-0.279104,-0.00762543,-0.283051,-0.110311,0.591799,0.00999279,-0.148679,2.82032,-37.1169,2.68678,26.5027,1.58905,2.54235,-0.157364,-1.42166,-0.641757,-2.57445,1.31688,0.0422919,-0.511625,-0.445919,0.938708,-0.543186,-0.993502,0.418243,0.025867,-0.21186,
-0.444079,0.0396803,0.0268285,-1.73557,-0.0638094,0.0328119,0.385181,-0.128604,-0.0715571,-0.144906,-0.159572,0.574907,0.190647,-0.23672,0,0,0,0,0,0,0,-0.439249,0.0436499,0.0318172,-1.72746,-0.0963131,1.59496,1.18326,-0.279104,-0.00762543,-0.283051,-0.110311,0.591799,0.00999279,-0.148679,2.82032,-37.1169,2.68678,26.5027,1.58905,2.54235,-0.157364,-1.88483,-0.89691,-2.59792,1.4762,-0.234536,-0.751441,-0.684474,0.86233,-0.778959,-1.01165,0.403062,0.0125583,-0.217423,
-0.441088,0.0405057,0.030089,-1.73287,-0.0743978,0.0337927,0.388779,-0.167786,-0.0860446,-0.184888,-0.176834,0.973681,0.232268,-0.273798,0,0,0,0,0,0,0,-0.439249,0.0436499,0.0318172,-1.72746,-0.0963131,1.59496,1.18326,-0.279104,-0.00762543,-0.283051,-0.110311,0.591799,0.00999279,-0.148679,2.82032,-37.1169,2.68678,26.5027,1.58905,2.54235,-0.157364,-1.88483,-0.89691,-2.59792,1.4762,-0.234536,-0.751441,-0.684474,0.86233,-0.778959,-1.01165,0.403062,0.0125583,-0.217423,
-0.448084,0.0403542,0.0222187,-1.73583,-0.0645352,0.0343316,0.385548,-0.130647,-0.0817105,-0.14775,-0.161728,0.613442,0.229023,-0.24386,0,0,0,0,0,0,0,-0.439249,0.0436499,0.0318172,-1.72746,-0.0963131,1.59496,1.18326,-0.279104,-0.00762543,-0.283051,-0.110311,0.591799,0.00999279,-0.148679,2.82032,-37.1169,2.68678,26.5027,1.58905,2.54235,-0.157364,-2.39953,-0.380988,-2.67915,1.19192,-0.52187,-0.609367,-0.540715,0.711387,-0.641314,-1.0671,0.419274,-0.011057,-0.220379,
-0.448592,0.0400246,0.0216418,-1.73647,-0.0620196,0.0352301,0.384581,-0.126842,-0.0824073,-0.144215,-0.159448,0.628903,0.224623,-0.241544,0,0,0,0,0,0,0,-0.447493,0.0432485,0.0230673,-1.73106,-0.0789239,1.59532,1.17879,-0.224172,-0.0153068,-0.24704,-0.110318,0.44721,0.0224178,-0.132582,3.05042,-37.1407,2.91292,26.2805,0.960079,2.50298,-0.210464,-2.39953,-0.380988,-2.67915,1.19192,-0.52187,-0.609367,-0.540715,0.711387,-0.641314,-1.0671,0.419274,-0.011057,-0.220379,
-0.449089,0.0396981,0.0210735,-1.73709,-0.0593817,0.0360809,0.383624,-0.124451,-0.0816123,-0.142072,-0.154613,0.659482,0.212695,-0.239262,0,0,0,0,0,0,0,-0.447493,0.0432485,0.0230673,-1.73106,-0.0789239,1.59532,1.17879,-0.224172,-0.0153068,-0.24704,-0.110318,0.44721,0.0224178,-0.132582,3.05042,-37.1407,2.91292,26.2805,0.960079,2.50298,-0.210464,-2.23717,-0.0147823,-2.84017,1.02155,-0.350058,-0.390278,-0.316221,0.798379,-0.432182,-1.14268,0.439894,-0.0205052,-0.220134,
-0.449575,0.0393714,0.0205188,-1.73769,-0.0566871,0.0368793,0.382676,-0.121345,-0.0816951,-0.138677,-0.151453,0.673634,0.199614,-0.237016,0,0,0,0,0,0,0,-0.447493,0.0432485,0.0230673,-1.73106,-0.0789239,1.59532,1.17879,-0.224172,-0.0153068,-0.24704,-0.110318,0.44721,0.0224178,-0.132582,3.05042,-37.1407,2.91292,26.2805,0.960079,2.50298,-0.210464,-2.23717,-0.0147823,-2.84017,1.02155,-0.350058,-0.390278,-0.316221,0.798379,-0.432182,-1.14268,0.439894,-0.0205052,-0.220134,
-0.450045,0.0390427,0.0199797,-1.73829,-0.0539853,0.0376201,0.381737,-0.11764,-0.0821552,-0.134776,-0.149096,0.675456,0.185179,-0.234855,0,0,0,0,0,0,0,-0.447493,0.0432485,0.0230673,-1.73106,-0.0789239,1.59532,1.17879,-0.224172,-0.0153068,-0.24704,-0.110318,0.44721,0.0224178,-0.132582,3.05042,-37.1407,2.91292,26.2805,0.960079,2.50298,-0.210464,-2.23346,0.860187,-2.46515,0.457133,-0.562969,0.0517598,0.132706,0.488056,-0.00438472,-0.986006,0.512886,-0.0065667,-0.226033,
-0.4505,0.0387116,0.0194571,-1.73888,-0.0513131,0.0382992,0.380806,-0.113646,-0.0827812,-0.130662,-0.147234,0.668041,0.169779,-0.232771,0,0,0,0,0,0,0,-0.447493,0.0432485,0.0230673,-1.73106,-0.0789239,1.59532,1.17879,-0.224172,-0.0153068,-0.24704,-0.110318,0.44721,0.0224178,-0.132582,3.05042,-37.1407,2.91292,26.2805,0.960079,2.50298,-0.210464,-1.76696,0.552906,-2.81894,0.767383,-0.155566,-0.00435689,0.0774173,0.807156,-0.0583375,-1.09891,0.564137,0.0203086,-0.229745,
-0.447829,0.0398429,0.0224505,-1.73631,-0.0573593,0.0379496,0.384372,-0.119542,-0.0949269,-0.136906,-0.167277,0.857851,0.3115,-0.266513,0,0,0,0,0,0,0,-0.454588,0.0424693,0.0156199,-1.73479,-0.0653799,1.59657,1.174,-0.201799,-0.0301405,-0.218801,-0.117343,0.405022,0.0454982,-0.143052,2.54261,-37.1684,2.33766,26.3281,1.04522,2.52221,-0.250748,-1.76696,0.552906,-2.81894,0.767383,-0.155566,-0.00435689,0.0774173,0.807156,-0.0583375,-1.09891,0.564137,0.0203086,-0.229745,
-0.461328,0.0385954,0.00808389,-1.7427,-0.034229,0.0333438,0.376515,-0.0938517,-0.0924461,-0.110656,-0.154909,0.615586,0.13432,-0.240519,0,0,0,0,0,0,0,-0.454588,0.0424693,0.0156199,-1.73479,-0.0653799,1.59657,1.174,-0.201799,-0.0301405,-0.218801,-0.117343,0.405022,0.0454982,-0.143052,2.54261,-37.1684,2.33766,26.3281,1.04522,2.52221,-0.250748,-2.49899,-0.622223,-2.72771,1.3873,-0.614385,-0.777122,-0.701488,0.716629,-0.811668,-1.06331,0.44768,0.011851,-0.232763,
-0.461678,0.0382225,0.00766595,-1.74332,-0.0318911,0.0339053,0.37556,-0.0875948,-0.0932224,-0.104485,-0.154843,0.584472,0.140399,-0.238673,0,0,0,0,0,0,0,-0.454588,0.0424693,0.0156199,-1.73479,-0.0653799,1.59657,1.174,-0.201799,-0.0301405,-0.218801,-0.117343,0.405022,0.0454982,-0.143052,2.54261,-37.1684,2.33766,26.3281,1.04522,2.52221,-0.250748,-2.49899,-0.622223,-2.72771,1.3873,-0.614385,-0.777122,-0.701488,0.716629,-0.811668,-1.06331,0.44768,0.011851,-0.232763,
-0.462005,0.0378512,0.00727171,-1.74393,-0.0296953,0.0344998,0.374619,-0.081683,-0.0928289,-0.0985602,-0.153431,0.548947,0.148616,-0.235143,0,0,0,0,0,0,0,-0.454588,0.0424693,0.0156199,-1.73479,-0.0653799,1.59657,1.174,-0.201799,-0.0301405,-0.218801,-0.117343,0.405022,0.0454982,-0.143052,2.54261,-37.1684,2.33766,26.3281,1.04522,2.52221,-0.250748,-2.94335,-0.966145,-2.81842,1.57693,-0.811173,-1.05719,-0.98231,0.707964,-1.08695,-1.12389,0.382449,-0.0156855,-0.235669,
-0.46231,0.0374816,0.00689923,-1.74454,-0.027659,0.0351016,0.373687,-0.0762023,-0.0923993,-0.0931202,-0.151177,0.50909,0.150458,-0.23305,0,0,0,0,0,0,0,-0.454588,0.0424693,0.0156199,-1.73479,-0.0653799,1.59657,1.174,-0.201799,-0.0301405,-0.218801,-0.117343,0.405022,0.0454982,-0.143052,2.54261,-37.1684,2.33766,26.3281,1.04522,2.52221,-0.250748,-2.61614,-0.138631,-2.88801,1.14918,-0.631531,-0.566819,-0.487167,0.705329,-0.609747,-1.13724,0.472782,0.00284202,-0.238052,
-0.462595,0.0371128,0.00654649,-1.74513,-0.0257946,0.0356949,0.372763,-0.0712193,-0.0921968,-0.0881858,-0.148939,0.466098,0.148311,-0.231054,0,0,0,0,0,0,0,-0.460247,0.0414756,0.00898079,-1.73845,-0.0517048,1.59832,1.1702,-0.174443,-0.0355319,-0.194462,-0.114584,0.433935,0.0413939,-0.104688,2.56641,-36.8153,2.36146,26.3559,0.948178,2.36382,-0.304764,-2.61614,-0.138631,-2.88801,1.14918,-0.631531,-0.566819,-0.487167,0.705329,-0.609747,-1.13724,0.472782,0.00284202,-0.238052,
-0.462862,0.0367439,0.00621131,-1.74572,-0.0241097,0.0362703,0.371847,-0.0667708,-0.0922338,-0.0837933,-0.147022,0.421229,0.143851,-0.229043,0,0,0,0,0,0,0,-0.460247,0.0414756,0.00898079,-1.73845,-0.0517048,1.59832,1.1702,-0.174443,-0.0355319,-0.194462,-0.114584,0.433935,0.0413939,-0.104688,2.56641,-36.8153,2.36146,26.3559,0.948178,2.36382,-0.304764,-2.20271,0.0404008,-2.77336,1.02313,-0.446644,-0.374369,-0.294814,0.719422,-0.420949,-1.07213,0.488333,0.024719,-0.242197,
-0.46119,0.0385957,0.00804262,-1.7427,-0.0342901,0.0333408,0.376508,-0.0905424,-0.092449,-0.110646,-0.154938,0.614387,0.134313,-0.240873,0,0,0,0,0,0,0,-0.460247,0.0414756,0.00898079,-1.73845,-0.0517048,1.59832,1.1702,-0.174443,-0.0355319,-0.194462,-0.114584,0.433935,0.0413939,-0.104688,2.56641,-36.8153,2.36146,26.3559,0.948178,2.36382,-0.304764,-2.20271,0.0404008,-2.77336,1.02313,-0.446644,-0.374369,-0.294814,0.719422,-0.420949,-1.07213,0.488333,0.024719,-0.242197,
-0.465426,0.0378104,0.00294251,-1.74588,-0.0371695,0.0332742,0.373906,-0.0770359,-0.0843313,-0.0950927,-0.151486,0.204775,0.134426,-0.215398,0,0,0,0,0,0,0,-0.460247,0.0414756,0.00898079,-1.73845,-0.0517048,1.59832,1.1702,-0.174443,-0.0355319,-0.194462,-0.114584,0.433935,0.0413939,-0.104688,2.56641,-36.8153,2.36146,26.3559,0.948178,2.36382,-0.304764,-1.99121,0.357651,-2.9551,0.886346,-0.188826,-0.155779,-0.0780788,0.874469,-0.205787,-1.19599,0.48302,-0.0262758,-0.249815,
-0.465741,0.0374743,0.00255526,-1.74649,-0.0361849,0.033866,0.373056,-0.0788746,-0.084022,-0.0968129,-0.15241,0.246133,0.147957,-0.212627,0,0,0,0,0,0,0,-0.460247,0.0414756,0.00898079,-1.73845,-0.0517048,1.59832,1.1702,-0.174443,-0.0355319,-0.194462,-0.114584,0.433935,0.0413939,-0.104688,2.56641,-36.8153,2.36146,26.3559,0.948178,2.36382,-0.304764,-1.99121,0.357651,-2.9551,0.886346,-0.188826,-0.155779,-0.0780788,0.874469,-0.205787,-1.19599,0.48302,-0.0262758,-0.249815,
