PerkyPenguin/Analysis-on-Approximated-Derivatives/Code_and_Data/PaperData/Real_Robot/Scene_2/contact_change/14/trajectory.csv
Commanded Joint 0 Position,Commanded Joint 1 Position,Commanded Joint 2 Position,Commanded Joint 3 Position,Commanded Joint 4 Position,Commanded Joint 5 Position,Commanded Joint 6 Position,Commanded Joint 0 Velocity,Commanded Joint 1 Velocity,Commanded Joint 2 Velocity,Commanded Joint 3 Velocity,Commanded Joint 4 Velocity,Commanded Joint 5 Velocity,Commanded Joint 6 Velocity,Commanded Joint 0 Torque,Commanded Joint 1 Torque,Commanded Joint 2 Torque,Commanded Joint 3 Torque,Commanded Joint 4 Torque,Commanded Joint 5 Torque,Commanded Joint 6 Torque,Actual Joint 0 Position,Actual Joint 1 Position,Actual Joint 2 Position,Actual Joint 3 Position,Actual Joint 4 Position,Actual Joint 5 Position,Actual Joint 6 Position,Actual Joint 0 Velocity,Actual Joint 1 Velocity,Actual Joint 2 Velocity,Actual Joint 3 Velocity,Actual Joint 4 Velocity,Actual Joint 5 Velocity,Actual Joint 6 Velocity,Actual Joint 0 Torque,Actual Joint 1 Torque,Actual Joint 2 Torque,Actual Joint 3 Torque,Actual Joint 4 Torque,Actual Joint 5 Torque,Actual Joint 6 Torque,EE ext force 0,EE ext force 1,EE ext force 2,EE ext force 3,EE ext force 4,EE ext force 5,joint ext torque 0,joint ext torque 1,joint ext torque 2,joint ext torque 3,joint ext torque 4,joint ext torque 5,joint ext torque 6,
0.019061,-0.0511882,0.509931,-1.56075,0.0392597,-0.0125428,0.532265,0.011035,0.0301553,0.0150929,-0.143475,-0.0756783,0.199865,-0.00126198,0,0,0,0,0,0,0,0.0189811,-0.0513145,0.509817,-1.55932,0.0398995,1.55627,1.31768,-0.000895036,0.00073245,-0.00064261,0.000324719,0.00769592,0.000878264,0.00120658,0.209842,-27.6827,-0.713182,26.9034,0.660702,3.05321,0.0577852,1.80873,1.6187,1.83161,-0.811491,1.02995,0.162213,0.163199,0.432298,0.174585,0.131334,0.16511,-0.318162,0.0864138,
0.0191189,-0.0509858,0.510008,-1.56137,0.0388861,-0.0117097,0.532259,0.0144576,0.0506004,0.0192482,-0.154271,-0.0934022,0.208282,-0.00134845,0,0,0,0,0,0,0,0.0189811,-0.0513145,0.509817,-1.55932,0.0398995,1.55627,1.31768,-0.000895036,0.00073245,-0.00064261,0.000324719,0.00769592,0.000878264,0.00120658,0.209842,-27.6827,-0.713182,26.9034,0.660702,3.05321,0.0577852,1.70215,1.60739,1.87317,-0.777617,0.932447,0.186911,0.187224,0.369684,0.198483,0.166517,0.178254,-0.309418,0.0867645,
0.0189764,-0.051307,0.509813,-1.55932,0.0399608,-0.0145161,0.532281,-0.000139785,0.000325369,-0.000101856,5.53448e-05,0.00231427,0.000529658,9.45465e-06,0,0,0,0,0,0,0,0.0189811,-0.0513145,0.509817,-1.55932,0.0398995,1.55627,1.31768,-0.000895036,0.00073245,-0.00064261,0.000324719,0.00769592,0.000878264,0.00120658,0.209842,-27.6827,-0.713182,26.9034,0.660702,3.05321,0.0577852,1.70215,1.60739,1.87317,-0.777617,0.932447,0.186911,0.187224,0.369684,0.198483,0.166517,0.178254,-0.309418,0.0867645,
0.018976,-0.051306,0.509813,-1.55932,0.0399676,-0.0145143,0.532281,-8.75616e-05,0.000244959,-3.85586e-05,3.09491e-05,0.00171379,0.000428533,5.99676e-06,0,0,0,0,0,0,0,0.0189811,-0.0513145,0.509817,-1.55932,0.0398995,1.55627,1.31768,-0.000895036,0.00073245,-0.00064261,0.000324719,0.00769592,0.000878264,0.00120658,0.209842,-27.6827,-0.713182,26.9034,0.660702,3.05321,0.0577852,1.88661,1.60885,1.90429,-0.776981,1.04155,0.133281,0.136676,0.41753,0.141842,0.173784,0.163289,-0.296143,0.0889036,
0.0189758,-0.0513053,0.509813,-1.55932,0.0399727,-0.014513,0.532281,-5.27355e-05,0.000174821,4.90123e-06,1.67723e-05,0.0012636,0.000332763,3.71176e-06,0,0,0,0,0,0,0,0.0189811,-0.0513145,0.509817,-1.55932,0.0398995,1.55627,1.31768,-0.000895036,0.00073245,-0.00064261,0.000324719,0.00769592,0.000878264,0.00120658,0.209842,-27.6827,-0.713182,26.9034,0.660702,3.05321,0.0577852,1.88661,1.60885,1.90429,-0.776981,1.04155,0.133281,0.136676,0.41753,0.141842,0.173784,0.163289,-0.296143,0.0889036,
0.0189757,-0.0513048,0.509813,-1.55932,0.0399764,-0.014512,0.532281,-2.99234e-05,0.000113905,3.45286e-05,9.61386e-06,0.000924268,0.000244943,2.214e-06,0,0,0,0,0,0,0,0.0189873,-0.0513677,0.50982,-1.55946,0.0398265,1.55638,1.31768,-0.0013474,-0.00797853,-0.00156042,-0.020958,0.0038367,0.0211888,-0.000146484,0.209842,-26.8337,-0.661608,24.7095,0.770565,3.07976,0.0907442,1.32542,1.11798,1.63266,-0.484569,0.703346,0.0638359,0.0672528,0.263768,0.0660668,0.152649,0.140758,-0.288866,0.0893699,
0.0189756,-0.0513046,0.509813,-1.55932,0.039979,-0.0145114,0.532281,-1.53526e-05,6.11241e-05,5.45512e-05,7.1466e-06,0.000667036,0.000166217,1.25563e-06,0,0,0,0,0,0,0,0.0189873,-0.0513677,0.50982,-1.55946,0.0398265,1.55638,1.31768,-0.0013474,-0.00797853,-0.00156042,-0.020958,0.0038367,0.0211888,-0.000146484,0.209842,-26.8337,-0.661608,24.7095,0.770565,3.07976,0.0907442,0.702289,1.15474,1.09814,-0.622093,0.428765,0.253482,0.248909,0.198892,0.269558,0.0220342,0.152789,-0.275531,0.0896439,
0.0189756,-0.0513045,0.509813,-1.55932,0.0399809,-0.014511,0.532281,-6.38222e-06,1.5449e-05,6.7943e-05,7.7235e-06,0.000470879,9.67772e-05,6.65617e-07,0,0,0,0,0,0,0,0.0189873,-0.0513677,0.50982,-1.55946,0.0398265,1.55638,1.31768,-0.0013474,-0.00797853,-0.00156042,-0.020958,0.0038367,0.0211888,-0.000146484,0.209842,-26.8337,-0.661608,24.7095,0.770565,3.07976,0.0907442,0.702289,1.15474,1.09814,-0.622093,0.428765,0.253482,0.248909,0.198892,0.269558,0.0220342,0.152789,-0.275531,0.0896439,
0.019496,-0.0513996,0.510323,-1.55888,0.026187,-0.0228348,0.532238,0.0058064,-0.00572449,0.00593891,0.00209623,-0.369333,-0.231107,-0.00104772,0,0,0,0,0,0,0,0.0189873,-0.0513677,0.50982,-1.55946,0.0398265,1.55638,1.31768,-0.0013474,-0.00797853,-0.00156042,-0.020958,0.0038367,0.0211888,-0.000146484,0.209842,-26.8337,-0.661608,24.7095,0.770565,3.07976,0.0907442,1.95455,2.00453,0.662731,-1.36536,1.52965,0.293385,0.28667,0.891288,0.334235,-0.287509,0.148704,-0.264946,0.0874229,
0.0194869,-0.0514351,0.510317,-1.55911,0.0266953,-0.0223285,0.532238,0.00543743,-0.00521875,0.00560755,0.00173034,-0.350353,-0.220563,-0.000952322,0,0,0,0,0,0,0,0.0189873,-0.0513677,0.50982,-1.55946,0.0398265,1.55638,1.31768,-0.0013474,-0.00797853,-0.00156042,-0.020958,0.0038367,0.0211888,-0.000146484,0.209842,-26.8337,-0.661608,24.7095,0.770565,3.07976,0.0907442,1.95455,2.00453,0.662731,-1.36536,1.52965,0.293385,0.28667,0.891288,0.334235,-0.287509,0.148704,-0.264946,0.0874229,
0.0195046,-0.0514552,0.510335,-1.55911,0.0252803,-0.0232232,0.532235,0.00442987,-0.00503312,0.00459814,0.00117113,-0.353745,-0.223657,-0.000931384,0,0,0,0,0,0,0,0.0189985,-0.05137,0.509819,-1.5599,0.0397975,1.557,1.31767,0.00565921,0.00182286,0.00144229,-0.000156296,-0.0103274,0.000964183,-0.00112343,-0.0440639,-28.1825,-0.887743,27.1771,0.617672,3.19237,0.110886,2.02589,1.65881,1.41002,-0.904147,1.25147,0.115114,0.107115,0.582756,0.140075,0.0566692,0.144331,-0.211093,0.0878766,
0.0195186,-0.0514743,0.51035,-1.5591,0.0238554,-0.0241271,0.532231,0.00349576,-0.00477853,0.00366091,0.000684007,-0.356236,-0.225992,-0.000910785,0,0,0,0,0,0,0,0.0189985,-0.05137,0.509819,-1.5599,0.0397975,1.557,1.31767,0.00565921,0.00182286,0.00144229,-0.000156296,-0.0103274,0.000964183,-0.00112343,-0.0440639,-28.1825,-0.887743,27.1771,0.617672,3.19237,0.110886,2.02589,1.65881,1.41002,-0.904147,1.25147,0.115114,0.107115,0.582756,0.140075,0.0566692,0.144331,-0.211093,0.0878766,
0.0195292,-0.0514922,0.510361,-1.5591,0.0224234,-0.0250379,0.532228,0.00263502,-0.00447752,0.00279631,0.000258067,-0.357991,-0.227697,-0.000890809,0,0,0,0,0,0,0,0.0189985,-0.05137,0.509819,-1.5599,0.0397975,1.557,1.31767,0.00565921,0.00182286,0.00144229,-0.000156296,-0.0103274,0.000964183,-0.00112343,-0.0440639,-28.1825,-0.887743,27.1771,0.617672,3.19237,0.110886,2.22955,2.04714,1.35997,-1.18467,1.44136,0.235758,0.222841,0.707549,0.27295,-0.000173022,0.175632,-0.213313,0.0883712,
0.0195365,-0.0515088,0.510369,-1.5591,0.0209869,-0.0259534,0.532224,0.0018456,-0.00414763,0.00200263,-0.000115332,-0.359139,-0.228878,-0.000871607,0,0,0,0,0,0,0,0.0189985,-0.05137,0.509819,-1.5599,0.0397975,1.557,1.31767,0.00565921,0.00182286,0.00144229,-0.000156296,-0.0103274,0.000964183,-0.00112343,-0.0440639,-28.1825,-0.887743,27.1771,0.617672,3.19237,0.110886,1.11034,2.20621,1.37355,-1.33465,0.589941,0.618645,0.595629,0.230573,0.670267,0.0885136,0.151151,-0.230666,0.0884185,
0.019541,-0.051524,0.510374,-1.5591,0.0195477,-0.0268719,0.532221,0.00112421,-0.0038024,0.00127681,-0.000443156,-0.359785,-0.229625,-0.000853245,0,0,0,0,0,0,0,0.0189985,-0.05137,0.509819,-1.5599,0.0397975,1.557,1.31767,0.00565921,0.00182286,0.00144229,-0.000156296,-0.0103274,0.000964183,-0.00112343,-0.0440639,-28.1825,-0.887743,27.1771,0.617672,3.19237,0.110886,1.11034,2.20621,1.37355,-1.33465,0.589941,0.618645,0.595629,0.230573,0.670267,0.0885136,0.151151,-0.230666,0.0884185,
0.0199748,-0.0514677,0.510728,-1.55776,-0.00163946,-0.0562577,0.531754,0.00265555,-0.00985973,0.00174958,0.00115466,-1.13647,-1.14718,-0.0108381,0,0,0,0,0,0,0,0.0190777,-0.0513842,0.509929,-1.55987,0.0352218,1.55668,1.31767,0.00103746,0.000707168,0.00198998,-0.0029981,-0.177268,-0.00962961,-0.000863718,-0.57568,-27.9802,-1.463,27.2763,0.148007,2.7813,0.104477,1.05335,1.91436,1.61346,-1.15069,0.413772,0.496887,0.470347,0.0716271,0.547742,0.186194,0.0488171,-0.241433,0.0879928,
0.0198762,-0.0514569,0.510658,-1.55835,-0.00884557,-0.0523495,0.531805,0.000348241,-0.00804174,-0.000462639,0.000386633,-1.15314,-1.04334,-0.00959945,0,0,0,0,0,0,0,0.0190777,-0.0513842,0.509929,-1.55987,0.0352218,1.55668,1.31767,0.00103746,0.000707168,0.00198998,-0.0029981,-0.177268,-0.00962961,-0.000863718,-0.57568,-27.9802,-1.463,27.2763,0.148007,2.7813,0.104477,1.05335,1.91436,1.61346,-1.15069,0.413772,0.496887,0.470347,0.0716271,0.547742,0.186194,0.0488171,-0.241433,0.0879928,
0.0198663,-0.0514819,0.510645,-1.55836,-0.0135178,-0.0565668,0.531767,-0.00246319,-0.00625984,-0.00324401,-0.00283038,-1.16805,-1.05431,-0.00946489,0,0,0,0,0,0,0,0.0190777,-0.0513842,0.509929,-1.55987,0.0352218,1.55668,1.31767,0.00103746,0.000707168,0.00198998,-0.0029981,-0.177268,-0.00962961,-0.000863718,-0.57568,-27.9802,-1.463,27.2763,0.148007,2.7813,0.104477,1.86931,1.7821,1.61052,-1.17888,1.04106,0.204346,0.177626,0.428534,0.259079,0.0404018,-0.0591952,-0.313389,0.0876851,
0.019846,-0.0514993,0.510622,-1.55839,-0.0182396,-0.0608134,0.53173,-0.00507639,-0.00435246,-0.00583391,-0.00563725,-1.18045,-1.06166,-0.00933156,0,0,0,0,0,0,0,0.0190777,-0.0513842,0.509929,-1.55987,0.0352218,1.55668,1.31767,0.00103746,0.000707168,0.00198998,-0.0029981,-0.177268,-0.00962961,-0.000863718,-0.57568,-27.9802,-1.463,27.2763,0.148007,2.7813,0.104477,1.86931,1.7821,1.61052,-1.17888,1.04106,0.204346,0.177626,0.428534,0.259079,0.0404018,-0.0591952,-0.313389,0.0876851,
0.019816,-0.0515089,0.510589,-1.55842,-0.0230028,-0.0650775,0.531693,-0.00749501,-0.00239383,-0.00823495,-0.00808327,-1.1908,-1.06602,-0.00919987,0,0,0,0,0,0,0,0.0190777,-0.0513842,0.509929,-1.55987,0.0352218,1.55668,1.31767,0.00103746,0.000707168,0.00198998,-0.0029981,-0.177268,-0.00962961,-0.000863718,-0.57568,-27.9802,-1.463,27.2763,0.148007,2.7813,0.104477,2.63678,2.56718,2.07477,-1.65205,1.39436,0.342975,0.317648,0.530826,0.407295,0.158311,-0.0736774,-0.264098,0.0903662,
0.0197771,-0.0515106,0.510547,-1.55846,-0.0278005,-0.0693491,0.531657,-0.00972588,-0.000439179,-0.0104532,-0.0102107,-1.19943,-1.06789,-0.00906999,0,0,0,0,0,0,0,0.0190777,-0.0513842,0.509929,-1.55987,0.0352218,1.55668,1.31767,0.00103746,0.000707168,0.00198998,-0.0029981,-0.177268,-0.00962961,-0.000863718,-0.57568,-27.9802,-1.463,27.2763,0.148007,2.7813,0.104477,3.42246,3.43546,2.66329,-2.16426,1.7231,0.510141,0.477773,0.602696,0.592903,0.307249,-0.0877798,-0.224662,0.0956336,
0.0141179,-0.0501821,0.504521,-1.56186,-0.00174036,-0.0568782,0.527645,-0.165616,0.0567134,-0.175202,-0.0841595,-1.04766,-1.22475,-0.0910596,0,0,0,0,0,0,0,0.0194116,-0.0514604,0.510294,-1.55931,0.0220825,1.55138,1.31767,0.0223025,0.0103078,0.0215883,0.0345913,-0.666537,-0.325028,-0.00337999,-1.44055,-27.9326,-2.11363,25.3085,-2.30744,0.911795,0.11821,3.42246,3.43546,2.66329,-2.16426,1.7231,0.510141,0.477773,0.602696,0.592903,0.307249,-0.0877798,-0.224662,0.0956336,
0.014321,-0.050517,0.504809,-1.56145,-0.0216395,-0.0667276,0.528123,-0.165749,0.0551566,-0.174593,-0.0804196,-1.0867,-1.25158,-0.0804427,0,0,0,0,0,0,0,0.0194116,-0.0514604,0.510294,-1.55931,0.0220825,1.55138,1.31767,0.0223025,0.0103078,0.0215883,0.0345913,-0.666537,-0.325028,-0.00337999,-1.44055,-27.9326,-2.11363,25.3085,-2.30744,0.911795,0.11821,2.45582,2.54397,2.95604,-1.99289,1.03216,0.350082,0.31234,0.236043,0.444405,0.12865,-0.506068,-0.64438,0.0960572,
0.0136342,-0.0502722,0.504087,-1.56179,-0.0260677,-0.0718081,0.527805,-0.171703,0.061213,-0.180544,-0.0842884,-1.10703,-1.27013,-0.0793986,0,0,0,0,0,0,0,0.0194116,-0.0514604,0.510294,-1.55931,0.0220825,1.55138,1.31767,0.0223025,0.0103078,0.0215883,0.0345913,-0.666537,-0.325028,-0.00337999,-1.44055,-27.9326,-2.11363,25.3085,-2.30744,0.911795,0.11821,2.32792,2.1543,2.65406,-2.21616,1.15262,0.187729,0.147806,0.406404,0.30191,-0.271639,-0.8416,-0.959259,0.0955209,
0.0129261,-0.0500047,0.503343,-1.56214,-0.0305684,-0.07695,0.527492,-0.177009,0.0668645,-0.185847,-0.087676,-1.12517,-1.28548,-0.0783645,0,0,0,0,0,0,0,0.0194116,-0.0514604,0.510294,-1.55931,0.0220825,1.55138,1.31767,0.0223025,0.0103078,0.0215883,0.0345913,-0.666537,-0.325028,-0.00337999,-1.44055,-27.9326,-2.11363,25.3085,-2.30744,0.911795,0.11821,2.32792,2.1543,2.65406,-2.21616,1.15262,0.187729,0.147806,0.406404,0.30191,-0.271639,-0.8416,-0.959259,0.0955209,
0.0121992,-0.0497163,0.502581,-1.5625,-0.0351337,-0.0821426,0.527183,-0.181736,0.072102,-0.190572,-0.090621,-1.14134,-1.29816,-0.0773381,0,0,0,0,0,0,0,0.0194116,-0.0514604,0.510294,-1.55931,0.0220825,1.55138,1.31767,0.0223025,0.0103078,0.0215883,0.0345913,-0.666537,-0.325028,-0.00337999,-1.44055,-27.9326,-2.11363,25.3085,-2.30744,0.911795,0.11821,1.8952,2.73721,3.10489,-2.49798,0.643845,0.585752,0.556995,0.0444222,0.694379,-0.0486598,-0.797296,-0.921661,0.0805655,
0.0114554,-0.0494086,0.501802,-1.56287,-0.0397567,-0.087377,0.526877,-0.185943,0.0769263,-0.194779,-0.0931609,-1.15573,-1.30858,-0.0763178,0,0,0,0,0,0,0,0.0199236,-0.0516421,0.510713,-1.55868,0.00036347,1.53986,1.31738,0.000720702,-0.00949468,-0.00544551,-0.00511556,-0.751562,-0.465548,-0.0344359,-3.97564,-25.6355,-5.06133,24.9594,-0.340885,0.971304,-0.0026396,1.8952,2.73721,3.10489,-2.49798,0.643845,0.585752,0.556995,0.0444222,0.694379,-0.0486598,-0.797296,-0.921661,0.0805655,
0.010243,-0.0499455,0.500632,-1.56413,-0.0112771,-0.0599422,0.524849,-0.308084,0.0997117,-0.320902,-0.151173,-0.959857,-1.19382,-0.158516,0,0,0,0,0,0,0,0.0199236,-0.0516421,0.510713,-1.55868,0.00036347,1.53986,1.31738,0.000720702,-0.00949468,-0.00544551,-0.00511556,-0.751562,-0.465548,-0.0344359,-3.97564,-25.6355,-5.06133,24.9594,-0.340885,0.971304,-0.0026396,0.645556,1.96742,4.00711,-1.73765,-0.457029,0.598447,0.59384,-0.649954,0.659249,0.26711,-0.732592,-1.09963,0.05432,
0.0106511,-0.0501303,0.500985,-1.56337,-0.0354282,-0.074171,0.525358,-0.301978,0.0968282,-0.313859,-0.140825,-0.985531,-1.21267,-0.140294,0,0,0,0,0,0,0,0.0199236,-0.0516421,0.510713,-1.55868,0.00036347,1.53986,1.31738,0.000720702,-0.00949468,-0.00544551,-0.00511556,-0.751562,-0.465548,-0.0344359,-3.97564,-25.6355,-5.06133,24.9594,-0.340885,0.971304,-0.0026396,3.39683,0.128308,3.72416,-0.837669,1.83447,-1.01353,-0.997659,0.719454,-0.986578,-0.328165,-1.06321,-1.41222,0.0356703,
0.00940394,-0.0497033,0.49969,-1.56395,-0.0394908,-0.0790988,0.524805,-0.311796,0.10674,-0.323731,-0.145297,-1.01563,-1.23195,-0.138331,0,0,0,0,0,0,0,0.0199236,-0.0516421,0.510713,-1.55868,0.00036347,1.53986,1.31738,0.000720702,-0.00949468,-0.00544551,-0.00511556,-0.751562,-0.465548,-0.0344359,-3.97564,-25.6355,-5.06133,24.9594,-0.340885,0.971304,-0.0026396,3.39683,0.128308,3.72416,-0.837669,1.83447,-1.01353,-0.997659,0.719454,-0.986578,-0.328165,-1.06321,-1.41222,0.0356703,
0.00812213,-0.0492399,0.498361,-1.56454,-0.0436636,-0.0840906,0.524259,-0.320451,0.115844,-0.33243,-0.149217,-1.04321,-1.24795,-0.13639,0,0,0,0,0,0,0,0.0199236,-0.0516421,0.510713,-1.55868,0.00036347,1.53986,1.31738,0.000720702,-0.00949468,-0.00544551,-0.00511556,-0.751562,-0.465548,-0.0344359,-3.97564,-25.6355,-5.06133,24.9594,-0.340885,0.971304,-0.0026396,3.33387,-0.736127,3.60975,-0.354961,1.86617,-1.3824,-1.36545,0.768311,-1.36599,-0.431914,-1.1727,-1.51908,0.0161497,
0.0068098,-0.0487433,0.497,-1.56515,-0.0479371,-0.0891355,0.523721,-0.328083,0.124167,-0.3401,-0.152615,-1.06836,-1.26121,-0.134464,0,0,0,0,0,0,0,0.0199236,-0.0516421,0.510713,-1.55868,0.00036347,1.53986,1.31738,0.000720702,-0.00949468,-0.00544551,-0.00511556,-0.751562,-0.465548,-0.0344359,-3.97564,-25.6355,-5.06133,24.9594,-0.340885,0.971304,-0.0026396,3.33387,-0.736127,3.60975,-0.354961,1.86617,-1.3824,-1.36545,0.768311,-1.36599,-0.431914,-1.1727,-1.51908,0.0161497,
0.00547057,-0.0482163,0.495613,-1.56578,-0.0523018,-0.0942242,0.523191,-0.334807,0.131745,-0.34686,-0.155524,-1.09119,-1.27217,-0.132551,0,0,0,0,0,0,0,0.0198389,-0.0519783,0.510512,-1.55888,-0.0223883,1.52434,1.31619,-0.0151504,-0.0182168,-0.0261003,-0.0222118,-0.692909,-0.519516,-0.0498141,-6.18145,-24.489,-7.08464,24.2136,-0.224613,1.34942,-0.0566557,1.2,-0.523324,2.81144,-0.544106,0.731422,-0.668158,-0.666956,0.345823,-0.631518,-0.60848,-0.938003,-1.58416,-0.0106072,
0.00410768,-0.0476618,0.494202,-1.56641,-0.0567492,-0.099349,0.522668,-0.340723,0.138617,-0.352812,-0.157981,-1.11184,-1.28119,-0.130648,0,0,0,0,0,0,0,0.0198389,-0.0519783,0.510512,-1.55888,-0.0223883,1.52434,1.31619,-0.0151504,-0.0182168,-0.0261003,-0.0222118,-0.692909,-0.519516,-0.0498141,-6.18145,-24.489,-7.08464,24.2136,-0.224613,1.34942,-0.0566557,1.2,-0.523324,2.81144,-0.544106,0.731422,-0.668158,-0.666956,0.345823,-0.631518,-0.60848,-0.938003,-1.58416,-0.0106072,
0.00445651,-0.0488478,0.494671,-1.56697,-0.0337048,-0.0772434,0.521086,-0.452536,0.155889,-0.466743,-0.213704,-0.932658,-1.1981,-0.21069,0,0,0,0,0,0,0,0.0198389,-0.0519783,0.510512,-1.55888,-0.0223883,1.52434,1.31619,-0.0151504,-0.0182168,-0.0261003,-0.0222118,-0.692909,-0.519516,-0.0498141,-6.18145,-24.489,-7.08464,24.2136,-0.224613,1.34942,-0.0566557,0.67288,-0.889613,2.24504,-0.420177,0.685982,-0.666806,-0.673273,0.475222,-0.623365,-0.884481,-0.885121,-1.71161,-0.0447678,
0.00484893,-0.0493673,0.495008,-1.56629,-0.0569144,-0.0939421,0.521305,-0.433604,0.143535,-0.446383,-0.190184,-0.942343,-1.20405,-0.18128,0,0,0,0,0,0,0,0.0198389,-0.0519783,0.510512,-1.55888,-0.0223883,1.52434,1.31619,-0.0151504,-0.0182168,-0.0261003,-0.0222118,-0.692909,-0.519516,-0.0498141,-6.18145,-24.489,-7.08464,24.2136,-0.224613,1.34942,-0.0566557,0.706961,-1.17055,3.04354,0.00483362,0.381668,-0.787137,-0.79447,0.152786,-0.759266,-0.536637,-0.876878,-1.6756,-0.0721564,
0.00307018,-0.048747,0.493178,-1.56706,-0.0608263,-0.0988187,0.520591,-0.444687,0.15507,-0.45754,-0.194132,-0.977969,-1.21915,-0.17845,0,0,0,0,0,0,0,0.0198389,-0.0519783,0.510512,-1.55888,-0.0223883,1.52434,1.31619,-0.0151504,-0.0182168,-0.0261003,-0.0222118,-0.692909,-0.519516,-0.0498141,-6.18145,-24.489,-7.08464,24.2136,-0.224613,1.34942,-0.0566557,0.706961,-1.17055,3.04354,0.00483362,0.381668,-0.787137,-0.79447,0.152786,-0.759266,-0.536637,-0.876878,-1.6756,-0.0721564,
0.00125254,-0.0480848,0.491309,-1.56785,-0.0648688,-0.103745,0.519888,-0.45441,0.165541,-0.467327,-0.197521,-1.01063,-1.23164,-0.175644,0,0,0,0,0,0,0,0.0174307,-0.0525112,0.507502,-1.56055,-0.0510006,1.50045,1.31369,-0.0945409,-0.0217062,-0.12007,-0.0608081,-0.631591,-0.610424,-0.0750213,-6.61389,-23.0171,-7.61229,23.6899,-0.866398,1.70006,-0.224197,1.67439,0.491143,2.70607,-1.11332,1.15356,-0.256756,-0.26712,0.612727,-0.197217,-0.639302,-0.727089,-1.48027,-0.103452,
-0.000599172,-0.0473848,0.489405,-1.56865,-0.0690306,-0.108713,0.519197,-0.462929,0.175012,-0.475904,-0.200383,-1.04044,-1.24195,-0.172856,0,0,0,0,0,0,0,0.0174307,-0.0525112,0.507502,-1.56055,-0.0510006,1.50045,1.31369,-0.0945409,-0.0217062,-0.12007,-0.0608081,-0.631591,-0.610424,-0.0750213,-6.61389,-23.0171,-7.61229,23.6899,-0.866398,1.70006,-0.224197,1.67439,0.491143,2.70607,-1.11332,1.15356,-0.256756,-0.26712,0.612727,-0.197217,-0.639302,-0.727089,-1.48027,-0.103452,
-0.00248069,-0.0466506,0.487471,-1.56946,-0.0733007,-0.113715,0.518517,-0.470379,0.183544,-0.48341,-0.202754,-1.06752,-1.25042,-0.170083,0,0,0,0,0,0,0,0.0174307,-0.0525112,0.507502,-1.56055,-0.0510006,1.50045,1.31369,-0.0945409,-0.0217062,-0.12007,-0.0608081,-0.631591,-0.610424,-0.0750213,-6.61389,-23.0171,-7.61229,23.6899,-0.866398,1.70006,-0.224197,1.9082,0.774834,1.67552,-1.39775,1.64244,-0.144579,-0.162281,1.0258,-0.0686495,-0.905992,-0.618407,-1.3194,-0.135627,
0.000219768,-0.0485747,0.490344,-1.56908,-0.0515861,-0.0921274,0.51772,-0.564766,0.18954,-0.578983,-0.253152,-0.866632,-1.17101,-0.250882,0,0,0,0,0,0,0,0.0174307,-0.0525112,0.507502,-1.56055,-0.0510006,1.50045,1.31369,-0.0945409,-0.0217062,-0.12007,-0.0608081,-0.631591,-0.610424,-0.0750213,-6.61389,-23.0171,-7.61229,23.6899,-0.866398,1.70006,-0.224197,1.9082,0.774834,1.67552,-1.39775,1.64244,-0.144579,-0.162281,1.0258,-0.0686495,-0.905992,-0.618407,-1.3194,-0.135627,
-0.0028245,-0.0486246,0.486741,-1.56978,-0.0831885,-0.118023,0.517107,-0.552829,0.184131,-0.565526,-0.226553,-0.915304,-1.17889,-0.212069,0,0,0,0,0,0,0,0.0174307,-0.0525112,0.507502,-1.56055,-0.0510006,1.50045,1.31369,-0.0945409,-0.0217062,-0.12007,-0.0608081,-0.631591,-0.610424,-0.0750213,-6.61389,-23.0171,-7.61229,23.6899,-0.866398,1.70006,-0.224197,0.393896,0.0730343,1.74213,-0.60643,0.405885,-0.0154147,-0.0420861,0.283011,0.0401704,-0.524744,-0.437329,-1.13501,-0.163434,
-0.00508284,-0.0478376,0.484431,-1.5707,-0.0870064,-0.122792,0.516274,-0.564587,0.196745,-0.57737,-0.230188,-0.954471,-1.19209,-0.208406,0,0,0,0,0,0,0,0.0174307,-0.0525112,0.507502,-1.56055,-0.0510006,1.50045,1.31369,-0.0945409,-0.0217062,-0.12007,-0.0608081,-0.631591,-0.610424,-0.0750213,-6.61389,-23.0171,-7.61229,23.6899,-0.866398,1.70006,-0.224197,0.561245,-0.21075,2.52813,-0.0437882,0.0762011,-0.160823,-0.185102,-0.109786,-0.130996,-0.0120049,-0.369551,-0.916479,-0.18672,
-0.00738219,-0.0470052,0.48208,-1.57163,-0.0909681,-0.127604,0.515455,-0.574838,0.208097,-0.587694,-0.233252,-0.990418,-1.20299,-0.204772,0,0,0,0,0,0,0,0.0138835,-0.0527884,0.5028,-1.56289,-0.0715861,1.47884,1.31109,-0.138614,-0.0129943,-0.181094,-0.10273,-0.67406,-0.747303,-0.0745792,-6.9154,-23.4892,-7.90984,24.3881,-0.54871,2.09832,-0.311172,0.561245,-0.21075,2.52813,-0.0437882,0.0762011,-0.160823,-0.185102,-0.109786,-0.130996,-0.0120049,-0.369551,-0.916479,-0.18672,
-0.00971721,-0.0461321,0.479694,-1.57257,-0.0950611,-0.132452,0.51465,-0.583754,0.218274,-0.596677,-0.235777,-1.02324,-1.21195,-0.201162,0,0,0,0,0,0,0,0.0138835,-0.0527884,0.5028,-1.56289,-0.0715861,1.47884,1.31109,-0.138614,-0.0129943,-0.181094,-0.10273,-0.67406,-0.747303,-0.0745792,-6.9154,-23.4892,-7.90984,24.3881,-0.54871,2.09832,-0.311172,0.387994,0.762417,1.96418,-0.730741,0.120839,0.37047,0.342578,-0.00292647,0.421918,-0.123655,-0.228659,-0.780855,-0.213867,
-0.0120831,-0.0452227,0.477276,-1.57352,-0.0992735,-0.137329,0.51386,-0.591482,0.227358,-0.604469,-0.237797,-1.0531,-1.21928,-0.197574,0,0,0,0,0,0,0,0.0138835,-0.0527884,0.5028,-1.56289,-0.0715861,1.47884,1.31109,-0.138614,-0.0129943,-0.181094,-0.10273,-0.67406,-0.747303,-0.0745792,-6.9154,-23.4892,-7.90984,24.3881,-0.54871,2.09832,-0.311172,0.387994,0.762417,1.96418,-0.730741,0.120839,0.37047,0.342578,-0.00292647,0.421918,-0.123655,-0.228659,-0.780855,-0.213867,
-0.0144757,-0.0442809,0.474831,-1.57448,-0.103594,-0.14223,0.513084,-0.598149,0.235429,-0.611196,-0.239352,-1.08015,-1.22522,-0.194006,0,0,0,0,0,0,0,0.0138835,-0.0527884,0.5028,-1.56289,-0.0715861,1.47884,1.31109,-0.138614,-0.0129943,-0.181094,-0.10273,-0.67406,-0.747303,-0.0745792,-6.9154,-23.4892,-7.90984,24.3881,-0.54871,2.09832,-0.311172,-0.481873,0.352271,0.9751,-0.551533,-0.0979113,0.432259,0.39384,0.0661848,0.490815,-0.401846,-0.117578,-0.780703,-0.230708,
-0.00719122,-0.0478668,0.482763,-1.57246,-0.0784266,-0.116188,0.513637,-0.673515,0.227059,-0.687425,-0.286873,-0.843563,-1.14581,-0.279385,0,0,0,0,0,0,0,0.0138835,-0.0527884,0.5028,-1.56289,-0.0715861,1.47884,1.31109,-0.138614,-0.0129943,-0.181094,-0.10273,-0.67406,-0.747303,-0.0745792,-6.9154,-23.4892,-7.90984,24.3881,-0.54871,2.09832,-0.311172,0.367464,-0.102917,1.0277,-0.145151,0.441471,0.0173003,-0.0148993,0.319777,0.0571849,-0.347839,-0.116766,-0.688909,-0.247868,
-0.0106972,-0.047762,0.477764,-1.57382,-0.102665,-0.140972,0.513354,-0.654575,0.216453,-0.666602,-0.256136,-0.895861,-1.16589,-0.231899,0,0,0,0,0,0,0,0.0079352,-0.0527762,0.49599,-1.56626,-0.091815,1.45496,1.3084,-0.219732,-0.00252277,-0.235213,-0.119065,-0.673318,-0.799949,-0.0782056,-7.34784,-23.5884,-8.31053,24.6381,-0.731815,1.93261,-0.217789,0.367464,-0.102917,1.0277,-0.145151,0.441471,0.0173003,-0.0148993,0.319777,0.0571849,-0.347839,-0.116766,-0.688909,-0.247868,
-0.0133647,-0.0468439,0.475048,-1.57485,-0.106417,-0.145676,0.512444,-0.666883,0.229507,-0.67901,-0.259153,-0.937933,-1.17596,-0.227481,0,0,0,0,0,0,0,0.0079352,-0.0527762,0.49599,-1.56626,-0.091815,1.45496,1.3084,-0.219732,-0.00252277,-0.235213,-0.119065,-0.673318,-0.799949,-0.0782056,-7.34784,-23.5884,-8.31053,24.6381,-0.731815,1.93261,-0.217789,0.888887,0.693808,0.812024,-0.713707,0.906363,0.263615,0.239409,0.612708,0.311391,-0.460223,-0.0514533,-0.632417,-0.260417,
-0.0160747,-0.0458794,0.472289,-1.5759,-0.110324,-0.150412,0.511551,-0.677503,0.241135,-0.689714,-0.261618,-0.97667,-1.18421,-0.223105,0,0,0,0,0,0,0,0.0079352,-0.0527762,0.49599,-1.56626,-0.091815,1.45496,1.3084,-0.219732,-0.00252277,-0.235213,-0.119065,-0.673318,-0.799949,-0.0782056,-7.34784,-23.5884,-8.31053,24.6381,-0.731815,1.93261,-0.217789,0.888887,0.693808,0.812024,-0.713707,0.906363,0.263615,0.239409,0.612708,0.311391,-0.460223,-0.0514533,-0.632417,-0.260417,
-0.0188213,-0.0448736,0.469493,-1.57695,-0.114372,-0.155176,0.510676,-0.686628,0.25144,-0.698913,-0.263551,-1.01214,-1.19092,-0.218768,0,0,0,0,0,0,0,0.0079352,-0.0527762,0.49599,-1.56626,-0.091815,1.45496,1.3084,-0.219732,-0.00252277,-0.235213,-0.119065,-0.673318,-0.799949,-0.0782056,-7.34784,-23.5884,-8.31053,24.6381,-0.731815,1.93261,-0.217789,-0.342117,1.51397,0.281042,-1.42276,0.298121,0.970589,0.946035,0.414382,1.0404,-0.662645,0.0278753,-0.702836,-0.273092,
-0.0215989,-0.0438315,0.466666,-1.57801,-0.11855,-0.159961,0.509819,-0.694421,0.260522,-0.706773,-0.26498,-1.04448,-1.19636,-0.214467,0,0,0,0,0,0,0,0.0079352,-0.0527762,0.49599,-1.56626,-0.091815,1.45496,1.3084,-0.219732,-0.00252277,-0.235213,-0.119065,-0.673318,-0.799949,-0.0782056,-7.34784,-23.5884,-8.31053,24.6381,-0.731815,1.93261,-0.217789,-0.342117,1.51397,0.281042,-1.42276,0.298121,0.970589,0.946035,0.414382,1.0404,-0.662645,0.0278753,-0.702836,-0.273092,
-0.024403,-0.0427576,0.463813,-1.57908,-0.122846,-0.164764,0.508978,-0.701018,0.268474,-0.713432,-0.265931,-1.07387,-1.20072,-0.2102,0,0,0,0,0,0,0,0.0079352,-0.0527762,0.49599,-1.56626,-0.091815,1.45496,1.3084,-0.219732,-0.00252277,-0.235213,-0.119065,-0.673318,-0.799949,-0.0782056,-7.34784,-23.5884,-8.31053,24.6381,-0.731815,1.93261,-0.217789,-0.460299,0.892274,-0.329299,-1.125,0.47541,0.718369,0.685513,0.627786,0.791404,-0.901127,0.000985548,-0.746873,-0.280893,
-0.0124201,-0.0464938,0.477066,-1.57634,-0.101048,-0.139435,0.510002,-0.711628,0.262262,-0.702901,-0.317774,-0.852011,-1.14031,-0.297587,0,0,0,0,0,0,0,-0.000924176,-0.0525639,0.486589,-1.57039,-0.111979,1.43034,1.30522,-0.287406,0.0159782,-0.333306,-0.131558,-0.599646,-0.758055,-0.115148,-6.8916,-23.9137,-7.71147,24.3365,-0.903019,1.58745,-0.230606,-0.106878,-0.94195,0.281594,0.255243,0.470301,-0.235919,-0.270121,0.504596,-0.200415,-0.668118,-0.14365,-0.798552,-0.283077,
-0.0302782,-0.0453589,0.457744,-1.58247,-0.145089,-0.188201,0.506829,-0.744606,0.251425,-0.736554,-0.286393,-0.914244,-1.09953,-0.242567,0,0,0,0,0,0,0,-0.000924176,-0.0525639,0.486589,-1.57039,-0.111979,1.43034,1.30522,-0.287406,0.0159782,-0.333306,-0.131558,-0.599646,-0.758055,-0.115148,-6.8916,-23.9137,-7.71147,24.3365,-0.903019,1.58745,-0.230606,-0.106878,-0.94195,0.281594,0.255243,0.470301,-0.235919,-0.270121,0.504596,-0.200415,-0.668118,-0.14365,-0.798552,-0.283077,
-0.033314,-0.0443169,0.454739,-1.58365,-0.148879,-0.192443,0.505879,-0.758939,0.260509,-0.751186,-0.295123,-0.947546,-1.06039,-0.237399,0,0,0,0,0,0,0,-0.000924176,-0.0525639,0.486589,-1.57039,-0.111979,1.43034,1.30522,-0.287406,0.0159782,-0.333306,-0.131558,-0.599646,-0.758055,-0.115148,-6.8916,-23.9137,-7.71147,24.3365,-0.903019,1.58745,-0.230606,0.105422,-1.22819,-0.0864445,0.203901,0.795849,-0.41517,-0.440345,0.75842,-0.38028,-0.920874,-0.307986,-0.900557,-0.290059,
-0.0363885,-0.0432393,0.451674,-1.58486,-0.152797,-0.196483,0.50495,-0.768624,0.269398,-0.766308,-0.301646,-0.979393,-1.01013,-0.23238,0,0,0,0,0,0,0,-0.000924176,-0.0525639,0.486589,-1.57039,-0.111979,1.43034,1.30522,-0.287406,0.0159782,-0.333306,-0.131558,-0.599646,-0.758055,-0.115148,-6.8916,-23.9137,-7.71147,24.3365,-0.903019,1.58745,-0.230606,0.105422,-1.22819,-0.0864445,0.203901,0.795849,-0.41517,-0.440345,0.75842,-0.38028,-0.920874,-0.307986,-0.900557,-0.290059,
-0.0394937,-0.0421288,0.448554,-1.58608,-0.156833,-0.200285,0.50404,-0.77631,0.277609,-0.780013,-0.306622,-1.00907,-0.950457,-0.227471,0,0,0,0,0,0,0,-0.000924176,-0.0525639,0.486589,-1.57039,-0.111979,1.43034,1.30522,-0.287406,0.0159782,-0.333306,-0.131558,-0.599646,-0.758055,-0.115148,-6.8916,-23.9137,-7.71147,24.3365,-0.903019,1.58745,-0.230606,0.0967261,-1.36142,-0.466287,0.142426,0.931613,-0.468934,-0.489431,0.895575,-0.432951,-1.088,-0.38935,-0.926879,-0.289258,
-0.0426234,-0.0409891,0.445384,-1.58732,-0.160978,-0.203816,0.503149,-0.782432,0.28493,-0.792372,-0.310411,-1.03625,-0.882758,-0.222658,0,0,0,0,0,0,0,-0.0102828,-0.0517684,0.476884,-1.5745,-0.128411,1.4106,1.30206,-0.36954,0.0293448,-0.37264,-0.158185,-0.535427,-0.662771,-0.122273,-5.29278,-24.1121,-6.25945,23.4161,-1.29395,1.39519,-0.270889,-0.910065,-0.737804,-0.524807,-0.290657,0.239706,0.0618072,0.0399496,0.534046,0.109439,-1.05015,-0.338695,-0.923043,-0.287795,
-0.0457795,-0.0398233,0.442181,-1.58858,-0.165225,-0.207049,0.502278,-0.789018,0.29146,-0.800882,-0.313059,-1.06171,-0.808217,-0.217895,0,0,0,0,0,0,0,-0.0102828,-0.0517684,0.476884,-1.5745,-0.128411,1.4106,1.30206,-0.36954,0.0293448,-0.37264,-0.158185,-0.535427,-0.662771,-0.122273,-5.29278,-24.1121,-6.25945,23.4161,-1.29395,1.39519,-0.270889,-0.910065,-0.737804,-0.524807,-0.290657,0.239706,0.0618072,0.0399496,0.534046,0.109439,-1.05015,-0.338695,-0.923043,-0.287795,
-0.0300929,-0.043892,0.457893,-1.58481,-0.145186,-0.187122,0.503636,-0.740069,0.302879,-0.73228,-0.339783,-0.915585,-1.11156,-0.305061,0,0,0,0,0,0,0,-0.0102828,-0.0517684,0.476884,-1.5745,-0.128411,1.4106,1.30206,-0.36954,0.0293448,-0.37264,-0.158185,-0.535427,-0.662771,-0.122273,-5.29278,-24.1121,-6.25945,23.4161,-1.29395,1.39519,-0.270889,-2.18553,-0.425577,-0.576151,-0.562616,-0.618306,0.5003,0.469863,0.0948158,0.563461,-1.04098,-0.339513,-0.986756,-0.289587,
-0.0408445,-0.0437585,0.44679,-1.5882,-0.162061,-0.192183,0.503439,-0.760936,0.258715,-0.753273,-0.340549,-0.915003,-0.280054,-0.246512,0,0,0,0,0,0,0,-0.0102828,-0.0517684,0.476884,-1.5745,-0.128411,1.4106,1.30206,-0.36954,0.0293448,-0.37264,-0.158185,-0.535427,-0.662771,-0.122273,-5.29278,-24.1121,-6.25945,23.4161,-1.29395,1.39519,-0.270889,-2.18553,-0.425577,-0.576151,-0.562616,-0.618306,0.5003,0.469863,0.0948158,0.563461,-1.04098,-0.339513,-0.986756,-0.289587,
-0.0439378,-0.0426781,0.443727,-1.58956,-0.165842,-0.192902,0.50248,-0.773306,0.270114,-0.76583,-0.339276,-0.945342,-0.179885,-0.239856,0,0,0,0,0,0,0,-0.0102828,-0.0517684,0.476884,-1.5745,-0.128411,1.4106,1.30206,-0.36954,0.0293448,-0.37264,-0.158185,-0.535427,-0.662771,-0.122273,-5.29278,-24.1121,-6.25945,23.4161,-1.29395,1.39519,-0.270889,-2.61375,0.824137,-1.24719,-1.62939,-0.593754,1.18944,1.16681,0.2437,1.27627,-1.36004,-0.316423,-1.02691,-0.288995,
-0.0470742,-0.0415579,0.440619,-1.5909,-0.169733,-0.193287,0.501541,-0.784122,0.280041,-0.776868,-0.335419,-0.972758,-0.0962194,-0.234753,0,0,0,0,0,0,0,-0.0102828,-0.0517684,0.476884,-1.5745,-0.128411,1.4106,1.30206,-0.36954,0.0293448,-0.37264,-0.158185,-0.535427,-0.662771,-0.122273,-5.29278,-24.1121,-6.25945,23.4161,-1.29395,1.39519,-0.270889,0.149015,-1.79013,-0.92227,0.130986,1.14919,-0.681717,-0.706995,1.08506,-0.632997,-1.33625,-0.654606,-0.998311,-0.280079,
-0.0502492,-0.0404062,0.437472,-1.59222,-0.173722,-0.193388,0.500622,-0.793738,0.287922,-0.786726,-0.330743,-0.997091,-0.0252003,-0.22985,0,0,0,0,0,0,0,-0.0290634,-0.0499262,0.457217,-1.58295,-0.153716,1.3844,1.29625,-0.425726,0.0396496,-0.448155,-0.215718,-0.576705,-0.482845,-0.13721,-4.63421,-24.6874,-5.43822,24.039,-0.805057,2.50939,-0.284622,0.149015,-1.79013,-0.92227,0.130986,1.14919,-0.681717,-0.706995,1.08506,-0.632997,-1.33625,-0.654606,-0.998311,-0.280079,
-0.0534585,-0.0392312,0.43429,-1.59353,-0.177796,-0.193246,0.499721,-0.802335,0.293764,-0.795574,-0.325847,-1.01856,0.0355195,-0.22503,0,0,0,0,0,0,0,-0.0290634,-0.0499262,0.457217,-1.58295,-0.153716,1.3844,1.29625,-0.425726,0.0396496,-0.448155,-0.215718,-0.576705,-0.482845,-0.13721,-4.63421,-24.6874,-5.43822,24.039,-0.805057,2.50939,-0.284622,1.20685,-2.59735,-0.534653,0.825329,1.70651,-1.30905,-1.3295,1.30175,-1.28504,-1.17971,-0.683502,-0.932849,-0.27842,
-0.0405631,-0.0419696,0.447035,-1.58977,-0.162418,-0.201261,0.500305,-0.7559,0.311126,-0.748684,-0.387814,-0.923833,-0.687263,-0.307743,0,0,0,0,0,0,0,-0.0290634,-0.0499262,0.457217,-1.58295,-0.153716,1.3844,1.29625,-0.425726,0.0396496,-0.448155,-0.215718,-0.576705,-0.482845,-0.13721,-4.63421,-24.6874,-5.43822,24.039,-0.805057,2.50939,-0.284622,1.20685,-2.59735,-0.534653,0.825329,1.70651,-1.30905,-1.3295,1.30175,-1.28504,-1.17971,-0.683502,-0.932849,-0.27842,
-0.0610731,-0.0410148,0.425627,-1.59756,-0.189451,-0.193703,0.497593,-0.77297,0.262282,-0.765982,-0.321315,-0.933501,0.0406625,-0.249859,0,0,0,0,0,0,0,-0.0290634,-0.0499262,0.457217,-1.58295,-0.153716,1.3844,1.29625,-0.425726,0.0396496,-0.448155,-0.215718,-0.576705,-0.482845,-0.13721,-4.63421,-24.6874,-5.43822,24.039,-0.805057,2.50939,-0.284622,-1.34556,-0.591258,0.905032,-0.143438,-0.854221,0.217619,0.199278,-0.419479,0.25002,-0.288818,-0.478375,-0.719902,-0.280805,
-0.0642028,-0.0399215,0.422524,-1.59879,-0.193299,-0.193527,0.496639,-0.782424,0.273312,-0.775624,-0.308327,-0.961998,0.0441571,-0.23829,0,0,0,0,0,0,0,-0.0290634,-0.0499262,0.457217,-1.58295,-0.153716,1.3844,1.29625,-0.425726,0.0396496,-0.448155,-0.215718,-0.576705,-0.482845,-0.13721,-4.63421,-24.6874,-5.43822,24.039,-0.805057,2.50939,-0.284622,-1.49357,-0.471548,1.08293,-0.201007,-1.17981,0.330272,0.306457,-0.698041,0.368136,-0.0752744,-0.537242,-0.575151,-0.278538,
-0.0673712,-0.0388102,0.419382,-1.60002,-0.197238,-0.193245,0.495707,-0.792095,0.27783,-0.78562,-0.305903,-0.984955,0.0704474,-0.233077,0,0,0,0,0,0,0,-0.044094,-0.0479044,0.441881,-1.59101,-0.172095,1.37654,1.29129,-0.517516,0.0839158,-0.514035,-0.266072,-0.591441,-0.158914,-0.15369,-3.57098,-25.2348,-4.36308,25.0864,-0.793155,1.64055,-0.150955,-1.49357,-0.471548,1.08293,-0.201007,-1.17981,0.330272,0.306457,-0.698041,0.368136,-0.0752744,-0.537242,-0.575151,-0.278538,
-0.0705536,-0.0376858,0.416189,-1.60124,-0.201267,-0.192846,0.494794,-0.795597,0.2811,-0.798221,-0.304259,-1.00727,0.0997818,-0.228255,0,0,0,0,0,0,0,-0.044094,-0.0479044,0.441881,-1.59101,-0.172095,1.37654,1.29129,-0.517516,0.0839158,-0.514035,-0.266072,-0.591441,-0.158914,-0.15369,-3.57098,-25.2348,-4.36308,25.0864,-0.793155,1.64055,-0.150955,0.207093,0.398123,0.642696,-0.849965,0.202955,0.404117,0.387443,0.0983427,0.453146,-0.322332,-0.493724,-0.477977,-0.270283,
-0.0737502,-0.0365504,0.412963,-1.60244,-0.205386,-0.192336,0.4939,-0.799165,0.283845,-0.806493,-0.301874,-1.0297,0.127385,-0.223532,0,0,0,0,0,0,0,-0.044094,-0.0479044,0.441881,-1.59101,-0.172095,1.37654,1.29129,-0.517516,0.0839158,-0.514035,-0.266072,-0.591441,-0.158914,-0.15369,-3.57098,-25.2348,-4.36308,25.0864,-0.793155,1.64055,-0.150955,0.207093,0.398123,0.642696,-0.849965,0.202955,0.404117,0.387443,0.0983427,0.453146,-0.322332,-0.493724,-0.477977,-0.270283,
-0.076961,-0.0354067,0.409722,-1.60364,-0.209596,-0.19172,0.493024,-0.802695,0.285931,-0.810317,-0.299216,-1.05245,0.15402,-0.218895,0,0,0,0,0,0,0,-0.044094,-0.0479044,0.441881,-1.59101,-0.172095,1.37654,1.29129,-0.517516,0.0839158,-0.514035,-0.266072,-0.591441,-0.158914,-0.15369,-3.57098,-25.2348,-4.36308,25.0864,-0.793155,1.64055,-0.150955,1.6768,1.2793,-0.203039,-1.53146,1.61166,0.555883,0.541292,0.991748,0.622105,-0.713864,-0.399594,-0.391725,-0.268137,
-0.0639669,-0.0383535,0.422728,-1.60076,-0.193798,-0.207181,0.493402,-0.78064,0.31893,-0.774141,-0.368769,-0.971747,-0.216827,-0.296009,0,0,0,0,0,0,0,-0.044094,-0.0479044,0.441881,-1.59101,-0.172095,1.37654,1.29129,-0.517516,0.0839158,-0.514035,-0.266072,-0.591441,-0.158914,-0.15369,-3.57098,-25.2348,-4.36308,25.0864,-0.793155,1.64055,-0.150955,2.53751,0.0183521,-0.971792,-0.766995,2.36208,-0.16885,-0.195749,1.46808,-0.105135,-0.864046,-0.519258,-0.222435,-0.261768,
-0.0808154,-0.0374264,0.405428,-1.60685,-0.214139,-0.190262,0.492131,-0.777892,0.262403,-0.785023,-0.293047,-1.00979,0.208939,-0.231608,0,0,0,0,0,0,0,-0.0606212,-0.0451174,0.425228,-1.59887,-0.191574,1.37442,1.28708,-0.559464,0.0944311,-0.552619,-0.245249,-0.63772,0.00231969,-0.124972,-3.51941,-26.3854,-4.28771,24.6103,-1.44043,2.33727,-0.190323,2.53751,0.0183521,-0.971792,-0.766995,2.36208,-0.16885,-0.195749,1.46808,-0.105135,-0.864046,-0.519258,-0.222435,-0.261768,
-0.0839362,-0.0363684,0.402279,-1.60802,-0.218288,-0.189348,0.491223,-0.780195,0.2645,-0.78743,-0.29304,-1.03732,0.228567,-0.227092,0,0,0,0,0,0,0,-0.0606212,-0.0451174,0.425228,-1.59887,-0.191574,1.37442,1.28708,-0.559464,0.0944311,-0.552619,-0.245249,-0.63772,0.00231969,-0.124972,-3.51941,-26.3854,-4.28771,24.6103,-1.44043,2.33727,-0.190323,1.39497,0.77482,-0.64696,-1.15459,1.31118,0.452703,0.440153,0.786101,0.505536,-0.548507,-0.440731,-0.0916593,-0.259749,
-0.0870613,-0.0353059,0.399124,-1.60919,-0.222537,-0.188326,0.490332,-0.781292,0.265612,-0.78862,-0.293595,-1.06222,0.255507,-0.222716,0,0,0,0,0,0,0,-0.0606212,-0.0451174,0.425228,-1.59887,-0.191574,1.37442,1.28708,-0.559464,0.0944311,-0.552619,-0.245249,-0.63772,0.00231969,-0.124972,-3.51941,-26.3854,-4.28771,24.6103,-1.44043,2.33727,-0.190323,1.39497,0.77482,-0.64696,-1.15459,1.31118,0.452703,0.440153,0.786101,0.505536,-0.548507,-0.440731,-0.0916593,-0.259749,
-0.0901846,-0.0342387,0.395971,-1.61036,-0.226879,-0.187215,0.489458,-0.780818,0.266817,-0.788231,-0.292069,-1.08552,0.277751,-0.218523,0,0,0,0,0,0,0,-0.0606212,-0.0451174,0.425228,-1.59887,-0.191574,1.37442,1.28708,-0.559464,0.0944311,-0.552619,-0.245249,-0.63772,0.00231969,-0.124972,-3.51941,-26.3854,-4.28771,24.6103,-1.44043,2.33727,-0.190323,1.53128,-1.16463,-0.299424,0.240432,1.27094,-0.550573,-0.562024,0.748225,-0.530882,-0.417017,-0.530282,-0.158581,-0.256281,
-0.0933005,-0.033169,0.392825,-1.61152,-0.231308,-0.186025,0.4886,-0.778972,0.267403,-0.786482,-0.289966,-1.1071,0.297402,-0.214556,0,0,0,0,0,0,0,-0.0606212,-0.0451174,0.425228,-1.59887,-0.191574,1.37442,1.28708,-0.559464,0.0944311,-0.552619,-0.245249,-0.63772,0.00231969,-0.124972,-3.51941,-26.3854,-4.28771,24.6103,-1.44043,2.33727,-0.190323,1.53128,-1.16463,-0.299424,0.240432,1.27094,-0.550573,-0.562024,0.748225,-0.530882,-0.417017,-0.530282,-0.158581,-0.256281,
-0.0964036,-0.0321003,0.389692,-1.61267,-0.235816,-0.184763,0.487756,-0.77579,0.267182,-0.783416,-0.287833,-1.1272,0.315508,-0.210895,0,0,0,0,0,0,0,-0.0606212,-0.0451174,0.425228,-1.59887,-0.191574,1.37442,1.28708,-0.559464,0.0944311,-0.552619,-0.245249,-0.63772,0.00231969,-0.124972,-3.51941,-26.3854,-4.28771,24.6103,-1.44043,2.33727,-0.190323,1.30933,1.18413,-1.71357,-1.47089,1.82038,0.676955,0.670152,1.29742,0.730161,-1.01,-0.27828,-0.136522,-0.257691,
-0.0775475,-0.03701,0.408782,-1.60736,-0.210489,-0.201111,0.490146,-0.785276,0.301043,-0.77925,-0.354041,-0.97389,-0.0187648,-0.293861,0,0,0,0,0,0,0,-0.0778733,-0.041209,0.407481,-1.60623,-0.213553,1.37539,1.28356,-0.575621,0.132154,-0.593171,-0.22269,-0.723445,0.0741124,-0.114113,-3.54321,-29.0038,-4.08537,25.257,-1.70868,2.12487,-0.278213,0.595965,-0.21155,-2.25035,-0.627152,1.51543,0.121816,0.103851,1.25471,0.169452,-1.14769,-0.392008,-0.167259,-0.254541,
-0.112847,-0.0312736,0.372554,-1.62038,-0.255456,-0.185051,0.485385,-0.772748,0.258694,-0.782328,-0.29012,-1.03831,0.290908,-0.237277,0,0,0,0,0,0,0,-0.0778733,-0.041209,0.407481,-1.60623,-0.213553,1.37539,1.28356,-0.575621,0.132154,-0.593171,-0.22269,-0.723445,0.0741124,-0.114113,-3.54321,-29.0038,-4.08537,25.257,-1.70868,2.12487,-0.278213,0.595965,-0.21155,-2.25035,-0.627152,1.51543,0.121816,0.103851,1.25471,0.169452,-1.14769,-0.392008,-0.167259,-0.254541,
-0.115937,-0.030229,0.369426,-1.62154,-0.259709,-0.183842,0.484453,-0.772356,0.261156,-0.781891,-0.289966,-1.06317,0.302178,-0.232917,0,0,0,0,0,0,0,-0.0778733,-0.041209,0.407481,-1.60623,-0.213553,1.37539,1.28356,-0.575621,0.132154,-0.593171,-0.22269,-0.723445,0.0741124,-0.114113,-3.54321,-29.0038,-4.08537,25.257,-1.70868,2.12487,-0.278213,-1.4748,-0.959804,-1.66234,-0.0381946,-0.130744,0.0428228,0.0196496,0.327197,0.0783142,-0.872067,-0.411346,-0.300469,-0.248314,
-0.119022,-0.0291798,0.366302,-1.6227,-0.264046,-0.18256,0.483538,-0.771427,0.262304,-0.780936,-0.290638,-1.08445,0.320402,-0.228679,0,0,0,0,0,0,0,-0.0778733,-0.041209,0.407481,-1.60623,-0.213553,1.37539,1.28356,-0.575621,0.132154,-0.593171,-0.22269,-0.723445,0.0741124,-0.114113,-3.54321,-29.0038,-4.08537,25.257,-1.70868,2.12487,-0.278213,-1.4748,-0.959804,-1.66234,-0.0381946,-0.130744,0.0428228,0.0196496,0.327197,0.0783142,-0.872067,-0.411346,-0.300469,-0.248314,
-0.122102,-0.0281293,0.363185,-1.62387,-0.268458,-0.181181,0.48264,-0.769819,0.262605,-0.779318,-0.291472,-1.10298,0.344949,-0.224572,0,0,0,0,0,0,0,-0.0778733,-0.041209,0.407481,-1.60623,-0.213553,1.37539,1.28356,-0.575621,0.132154,-0.593171,-0.22269,-0.723445,0.0741124,-0.114113,-3.54321,-29.0038,-4.08537,25.257,-1.70868,2.12487,-0.278213,-1.25172,-0.847612,-0.366876,0.0752,-0.515845,0.0158761,0.00770904,-0.118272,0.0298155,-0.397804,-0.405439,-0.307417,-0.243824,
-0.125171,-0.0270786,0.360078,-1.62503,-0.272937,-0.179703,0.481757,-0.76725,0.262684,-0.776757,-0.29109,-1.11967,0.369487,-0.220654,0,0,0,0,0,0,0,-0.09577,-0.0360093,0.389092,-1.61305,-0.237328,1.38081,1.28019,-0.584585,0.171599,-0.611536,-0.224086,-0.767758,0.215837,-0.129111,-2.32922,-28.98,-2.78807,24.9356,-1.34888,1.80627,-0.270889,-1.27634,1.68843,-0.771452,-1.62528,-0.254002,1.29921,1.29762,0.0631567,1.33528,-0.630361,-0.192727,-0.293543,-0.249996,
-0.113014,-0.0301455,0.372598,-1.6221,-0.255388,-0.187476,0.482644,-0.801974,0.29087,-0.797669,-0.340455,-1.00062,0.264548,-0.291294,0,0,0,0,0,0,0,-0.09577,-0.0360093,0.389092,-1.61305,-0.237328,1.38081,1.28019,-0.584585,0.171599,-0.611536,-0.224086,-0.767758,0.215837,-0.129111,-2.32922,-28.98,-2.78807,24.9356,-1.34888,1.80627,-0.270889,-1.27634,1.68843,-0.771452,-1.62528,-0.254002,1.29921,1.29762,0.0631567,1.33528,-0.630361,-0.192727,-0.293543,-0.249996,
-0.130698,-0.0258625,0.353948,-1.62736,-0.279873,-0.169422,0.482032,-0.758636,0.247711,-0.769084,-0.291225,-0.983148,0.526409,-0.238367,0,0,0,0,0,0,0,-0.09577,-0.0360093,0.389092,-1.61305,-0.237328,1.38081,1.28019,-0.584585,0.171599,-0.611536,-0.224086,-0.767758,0.215837,-0.129111,-2.32922,-28.98,-2.78807,24.9356,-1.34888,1.80627,-0.270889,-0.945873,-0.150767,-1.12042,-0.534781,0.168798,0.301842,0.296847,0.418597,0.325221,-0.83957,-0.392907,-0.403111,-0.247677,
-0.133736,-0.0248685,0.350869,-1.62852,-0.28368,-0.167262,0.481096,-0.759359,0.248496,-0.769695,-0.288875,-0.951861,0.539924,-0.234179,0,0,0,0,0,0,0,-0.09577,-0.0360093,0.389092,-1.61305,-0.237328,1.38081,1.28019,-0.584585,0.171599,-0.611536,-0.224086,-0.767758,0.215837,-0.129111,-2.32922,-28.98,-2.78807,24.9356,-1.34888,1.80627,-0.270889,-0.945873,-0.150767,-1.12042,-0.534781,0.168798,0.301842,0.296847,0.418597,0.325221,-0.83957,-0.392907,-0.403111,-0.247677,
-0.136775,-0.0238742,0.347789,-1.62966,-0.287318,-0.16507,0.480175,-0.759739,0.248575,-0.770007,-0.285691,-0.909541,0.548097,-0.230128,0,0,0,0,0,0,0,-0.09577,-0.0360093,0.389092,-1.61305,-0.237328,1.38081,1.28019,-0.584585,0.171599,-0.611536,-0.224086,-0.767758,0.215837,-0.129111,-2.32922,-28.98,-2.78807,24.9356,-1.34888,1.80627,-0.270889,-0.540506,-3.05747,-1.22123,1.27391,0.478911,-1.25518,-1.25836,0.68347,-1.25845,-0.906767,-0.68886,-0.496941,-0.242998,
-0.139813,-0.0228826,0.34471,-1.63079,-0.290753,-0.162861,0.47927,-0.75957,0.247905,-0.769801,-0.282198,-0.858727,0.552208,-0.22621,0,0,0,0,0,0,0,-0.09577,-0.0360093,0.389092,-1.61305,-0.237328,1.38081,1.28019,-0.584585,0.171599,-0.611536,-0.224086,-0.767758,0.215837,-0.129111,-2.32922,-28.98,-2.78807,24.9356,-1.34888,1.80627,-0.270889,-0.595393,-2.18305,-1.77202,0.696478,0.752744,-0.816659,-0.810837,0.940811,-0.820133,-1.15612,-0.56895,-0.50465,-0.242314,
-0.142848,-0.0218965,0.341634,-1.6319,-0.293958,-0.160648,0.47838,-0.758714,0.246525,-0.768934,-0.278652,-0.801161,0.553224,-0.222467,0,0,0,0,0,0,0,-0.120526,-0.0280833,0.363571,-1.62166,-0.269649,1.39482,1.27384,-0.608263,0.19343,-0.6371,-0.206606,-0.749606,0.43571,-0.168279,-1.97216,-31.1025,-2.312,25.7568,-1.34888,1.9262,-0.190323,-0.595393,-2.18305,-1.77202,0.696478,0.752744,-0.816659,-0.810837,0.940811,-0.820133,-1.15612,-0.56895,-0.50465,-0.242314,
-0.13132,-0.0249997,0.353636,-1.62899,-0.279702,-0.172264,0.479387,-0.79666,0.274051,-0.808698,-0.336513,-1.00354,0.477262,-0.290418,0,0,0,0,0,0,0,-0.120526,-0.0280833,0.363571,-1.62166,-0.269649,1.39482,1.27384,-0.608263,0.19343,-0.6371,-0.206606,-0.749606,0.43571,-0.168279,-1.97216,-31.1025,-2.312,25.7568,-1.34888,1.9262,-0.190323,-0.529862,0.217224,-2.00984,-0.833965,0.922235,0.424428,0.432814,0.993933,0.437072,-1.23735,-0.364604,-0.404038,-0.243551,
-0.155342,-0.018204,0.328207,-1.63547,-0.302871,-0.148663,0.47566,-0.752844,0.227792,-0.764577,-0.277991,-0.478067,0.57159,-0.240205,0,0,0,0,0,0,0,-0.120526,-0.0280833,0.363571,-1.62166,-0.269649,1.39482,1.27384,-0.608263,0.19343,-0.6371,-0.206606,-0.749606,0.43571,-0.168279,-1.97216,-31.1025,-2.312,25.7568,-1.34888,1.9262,-0.190323,-0.529862,0.217224,-2.00984,-0.833965,0.922235,0.424428,0.432814,0.993933,0.437072,-1.23735,-0.364604,-0.404038,-0.243551,
-0.158342,-0.017293,0.32516,-1.63658,-0.304591,-0.146354,0.474715,-0.750119,0.227746,-0.761748,-0.277022,-0.430131,0.577239,-0.236265,0,0,0,0,0,0,0,-0.120526,-0.0280833,0.363571,-1.62166,-0.269649,1.39482,1.27384,-0.608263,0.19343,-0.6371,-0.206606,-0.749606,0.43571,-0.168279,-1.97216,-31.1025,-2.312,25.7568,-1.34888,1.9262,-0.190323,-0.895775,-0.847694,-2.12907,-0.198198,0.643814,-0.06213,-0.0583046,0.870056,-0.0536744,-1.19781,-0.516505,-0.367754,-0.241546,
-0.161329,-0.0163839,0.322127,-1.63768,-0.306117,-0.144031,0.473785,-0.746819,0.227274,-0.758354,-0.275391,-0.38132,0.580825,-0.232477,0,0,0,0,0,0,0,-0.120526,-0.0280833,0.363571,-1.62166,-0.269649,1.39482,1.27384,-0.608263,0.19343,-0.6371,-0.206606,-0.749606,0.43571,-0.168279,-1.97216,-31.1025,-2.312,25.7568,-1.34888,1.9262,-0.190323,-0.895775,-0.847694,-2.12907,-0.198198,0.643814,-0.06213,-0.0583046,0.870056,-0.0536744,-1.19781,-0.516505,-0.367754,-0.241546,
-0.164301,-0.015478,0.319109,-1.63877,-0.307443,-0.14171,0.472869,-0.742877,0.226474,-0.754329,-0.272897,-0.331686,0.580034,-0.228839,0,0,0,0,0,0,0,-0.141317,-0.0213945,0.342071,-1.62862,-0.292132,1.41127,1.26875,-0.633817,0.202121,-0.659831,-0.220884,-0.594071,0.549294,-0.141304,-0.627255,-32.5227,-0.963121,24.884,-0.46265,1.89232,-0.197647,-0.652504,-2.52107,-2.198,0.903453,0.764734,-0.961779,-0.960884,0.981659,-0.962511,-1.15036,-0.642111,-0.327687,-0.234129,
-0.167254,-0.0145776,0.31611,-1.63985,-0.308567,-0.139405,0.471968,-0.738385,0.225091,-0.74977,-0.270223,-0.280861,0.576472,-0.225391,0,0,0,0,0,0,0,-0.141317,-0.0213945,0.342071,-1.62862,-0.292132,1.41127,1.26875,-0.633817,0.202121,-0.659831,-0.220884,-0.594071,0.549294,-0.141304,-0.627255,-32.5227,-0.963121,24.884,-0.46265,1.89232,-0.197647,-0.652504,-2.52107,-2.198,0.903453,0.764734,-0.961779,-0.960884,0.981659,-0.962511,-1.15036,-0.642111,-0.327687,-0.234129,
-0.170188,-0.0136853,0.313131,-1.64092,-0.30948,-0.13712,0.471079,-0.733377,0.223083,-0.744719,-0.267624,-0.228443,0.571166,-0.22221,0,0,0,0,0,0,0,-0.141317,-0.0213945,0.342071,-1.62862,-0.292132,1.41127,1.26875,-0.633817,0.202121,-0.659831,-0.220884,-0.594071,0.549294,-0.141304,-0.627255,-32.5227,-0.963121,24.884,-0.46265,1.89232,-0.197647,-1.96005,-1.06048,-1.78266,0.10272,-0.387823,-0.0679925,-0.0576564,0.225702,-0.0741789,-0.843716,-0.463792,-0.213603,-0.233999,
-0.156577,-0.0174689,0.327386,-1.63695,-0.307675,-0.150388,0.473157,-0.802213,0.252566,-0.815318,-0.317144,-0.665005,0.549994,-0.288861,0,0,0,0,0,0,0,-0.141317,-0.0213945,0.342071,-1.62862,-0.292132,1.41127,1.26875,-0.633817,0.202121,-0.659831,-0.220884,-0.594071,0.549294,-0.141304,-0.627255,-32.5227,-0.963121,24.884,-0.46265,1.89232,-0.197647,-2.78682,1.35234,-2.25372,-1.29335,-0.730057,1.27024,1.28382,0.0664707,1.26986,-0.956966,-0.120579,-0.113751,-0.237432,
-0.175978,-0.0118491,0.306819,-1.64213,-0.303149,-0.130224,0.470563,-0.722847,0.21207,-0.735194,-0.270558,-0.0111351,0.572427,-0.242467,0,0,0,0,0,0,0,-0.141317,-0.0213945,0.342071,-1.62862,-0.292132,1.41127,1.26875,-0.633817,0.202121,-0.659831,-0.220884,-0.594071,0.549294,-0.141304,-0.627255,-32.5227,-0.963121,24.884,-0.46265,1.89232,-0.197647,-2.78682,1.35234,-2.25372,-1.29335,-0.730057,1.27024,1.28382,0.0664707,1.26986,-0.956966,-0.120579,-0.113751,-0.237432,
-0.178845,-0.0110027,0.303903,-1.6432,-0.303077,-0.127981,0.469608,-0.716667,0.21161,-0.72888,-0.268026,0.0179829,0.560799,-0.238753,0,0,0,0,0,0,0,-0.141317,-0.0213945,0.342071,-1.62862,-0.292132,1.41127,1.26875,-0.633817,0.202121,-0.659831,-0.220884,-0.594071,0.549294,-0.141304,-0.627255,-32.5227,-0.963121,24.884,-0.46265,1.89232,-0.197647,-0.947822,-2.22905,-2.37076,1.12841,0.55259,-0.82475,-0.816273,0.919762,-0.837647,-1.02263,-0.264527,-0.137428,-0.233446,
-0.181687,-0.0101614,0.301013,-1.64427,-0.302884,-0.12579,0.468667,-0.710533,0.210333,-0.722627,-0.265734,0.0482164,0.547772,-0.235157,0,0,0,0,0,0,0,-0.162436,-0.0147742,0.320182,-1.6356,-0.305132,1.4302,1.26435,-0.651659,0.205873,-0.678967,-0.205079,-0.311427,0.606757,-0.138954,-0.627255,-33.0504,-0.812364,25.7092,-0.95795,1.58105,-0.224197,-0.947822,-2.22905,-2.37076,1.12841,0.55259,-0.82475,-0.816273,0.919762,-0.837647,-1.02263,-0.264527,-0.137428,-0.233446,
-0.184504,-0.00932758,0.298147,-1.64532,-0.302565,-0.123655,0.467741,-0.704373,0.208444,-0.716361,-0.263487,0.0797009,0.533551,-0.231674,0,0,0,0,0,0,0,-0.162436,-0.0147742,0.320182,-1.6356,-0.305132,1.4302,1.26435,-0.651659,0.205873,-0.678967,-0.205079,-0.311427,0.606757,-0.138954,-0.627255,-33.0504,-0.812364,25.7092,-0.95795,1.58105,-0.224197,-0.255691,-2.10995,-1.76324,1.16934,0.734168,-0.840058,-0.824582,0.886605,-0.859637,-0.78401,-0.199955,-0.0926444,-0.235878,
-0.187297,-0.00850342,0.295307,-1.64637,-0.302114,-0.121581,0.466827,-0.698137,0.20604,-0.710039,-0.261258,0.112753,0.518484,-0.228348,0,0,0,0,0,0,0,-0.162436,-0.0147742,0.320182,-1.6356,-0.305132,1.4302,1.26435,-0.651659,0.205873,-0.678967,-0.205079,-0.311427,0.606757,-0.138954,-0.627255,-33.0504,-0.812364,25.7092,-0.95795,1.58105,-0.224197,-0.657573,0.0584391,-0.553205,-0.0771757,-0.0511827,0.29669,0.315129,0.155195,0.279137,-0.333257,0.00399064,-0.0789966,-0.238046,
-0.177542,-0.0113601,0.305323,-1.64359,-0.312039,-0.130806,0.468165,-0.778375,0.231336,-0.79226,-0.30578,-0.209205,0.572219,-0.288723,0,0,0,0,0,0,0,-0.162436,-0.0147742,0.320182,-1.6356,-0.305132,1.4302,1.26435,-0.651659,0.205873,-0.678967,-0.205079,-0.311427,0.606757,-0.138954,-0.627255,-33.0504,-0.812364,25.7092,-0.95795,1.58105,-0.224197,-0.657573,0.0584391,-0.553205,-0.0771757,-0.0511827,0.29669,0.315129,0.155195,0.279137,-0.333257,0.00399064,-0.0789966,-0.238046,
-0.19601,-0.00592226,0.285974,-1.64863,-0.303077,-0.113186,0.466132,-0.680384,0.188353,-0.693259,-0.264153,0.191678,0.476495,-0.244502,0,0,0,0,0,0,0,-0.162436,-0.0147742,0.320182,-1.6356,-0.305132,1.4302,1.26435,-0.651659,0.205873,-0.678967,-0.205079,-0.311427,0.606757,-0.138954,-0.627255,-33.0504,-0.812364,25.7092,-0.95795,1.58105,-0.224197,-0.435571,1.22605,-0.525158,-0.686667,0.238824,0.842334,0.867998,0.326646,0.819556,-0.462209,0.225311,-0.182443,-0.239346,
-0.198702,-0.00517599,0.283231,-1.64969,-0.302257,-0.111306,0.465168,-0.672972,0.186568,-0.68572,-0.263641,0.205046,0.470093,-0.240974,0,0,0,0,0,0,0,-0.184033,-0.00802862,0.297809,-1.64245,-0.310774,1.45003,1.25991,-0.667757,0.207909,-0.708343,-0.196106,-0.0490931,0.638866,-0.131772,-0.119442,-33.8954,-0.110155,25.5823,0.141598,1.62041,-0.23793,-0.435571,1.22605,-0.525158,-0.686667,0.238824,0.842334,0.867998,0.326646,0.819556,-0.462209,0.225311,-0.182443,-0.239346,
-0.201366,-0.00443938,0.280517,-1.65074,-0.301379,-0.109431,0.464217,-0.665959,0.184151,-0.67859,-0.263599,0.219573,0.468759,-0.237574,0,0,0,0,0,0,0,-0.184033,-0.00802862,0.297809,-1.64245,-0.310774,1.45003,1.25991,-0.667757,0.207909,-0.708343,-0.196106,-0.0490931,0.638866,-0.131772,-0.119442,-33.8954,-0.110155,25.5823,0.141598,1.62041,-0.23793,-0.304548,-0.00792798,-1.30913,0.202536,0.793028,0.128634,0.146335,0.916431,0.111021,-0.860372,0.288477,-0.308434,-0.238077,
-0.204003,-0.00371417,0.277829,-1.6518,-0.300437,-0.107538,0.46328,-0.659233,0.181303,-0.671761,-0.263825,0.235406,0.473088,-0.234313,0,0,0,0,0,0,0,-0.184033,-0.00802862,0.297809,-1.64245,-0.310774,1.45003,1.25991,-0.667757,0.207909,-0.708343,-0.196106,-0.0490931,0.638866,-0.131772,-0.119442,-33.8954,-0.110155,25.5823,0.141598,1.62041,-0.23793,-0.304548,-0.00792798,-1.30913,0.202536,0.793028,0.128634,0.146335,0.916431,0.111021,-0.860372,0.288477,-0.308434,-0.238077,
-0.206614,-0.00300176,0.275169,-1.65286,-0.299426,-0.105602,0.462355,-0.652718,0.178104,-0.665156,-0.264317,0.252862,0.483992,-0.231257,0,0,0,0,0,0,0,-0.184033,-0.00802862,0.297809,-1.64245,-0.310774,1.45003,1.25991,-0.667757,0.207909,-0.708343,-0.196106,-0.0490931,0.638866,-0.131772,-0.119442,-33.8954,-0.110155,25.5823,0.141598,1.62041,-0.23793,0.288267,1.28774,-2.22028,-0.504114,1.63456,0.809184,0.830621,1.49384,0.789592,-1.23276,0.505482,-0.253218,-0.236779,
-0.209199,-0.00230291,0.272534,-1.65391,-0.298337,-0.1036,0.461441,-0.646284,0.174713,-0.658654,-0.264782,0.272272,0.500693,-0.228518,0,0,0,0,0,0,0,-0.184033,-0.00802862,0.297809,-1.64245,-0.310774,1.45003,1.25991,-0.667757,0.207909,-0.708343,-0.196106,-0.0490931,0.638866,-0.131772,-0.119442,-33.8954,-0.110155,25.5823,0.141598,1.62041,-0.23793,0.633192,1.79313,-2.57191,-0.767922,2.12276,1.05723,1.08407,1.83731,1.03183,-1.46819,0.58927,-0.320546,-0.242453,
-0.197653,-0.00543487,0.284258,-1.6499,-0.308192,-0.113649,0.463819,-0.735361,0.207814,-0.749666,-0.295056,0.0782894,0.472226,-0.289154,0,0,0,0,0,0,0,-0.205194,-0.00152928,0.275807,-1.64798,-0.311635,1.46937,1.25547,-0.673231,0.207424,-0.714558,-0.164584,-0.000363149,0.604668,-0.157213,1.4278,-35.4704,1.53627,25.6815,0.361325,1.48858,-0.190323,0.633192,1.79313,-2.57191,-0.767922,2.12276,1.05723,1.08407,1.83731,1.03183,-1.46819,0.58927,-0.320546,-0.242453,
-0.216633,0.000278185,0.26455,-1.65531,-0.301225,-0.0921647,0.461602,-0.645373,0.169395,-0.658522,-0.26036,0.313132,0.546216,-0.248509,0,0,0,0,0,0,0,-0.205194,-0.00152928,0.275807,-1.64798,-0.311635,1.46937,1.25547,-0.673231,0.207424,-0.714558,-0.164584,-0.000363149,0.604668,-0.157213,1.4278,-35.4704,1.53627,25.6815,0.361325,1.48858,-0.190323,-0.433705,-0.068216,-2.33308,0.4197,1.30517,0.0600482,0.0819832,1.50113,0.0385659,-1.37028,0.452813,-0.42518,-0.241604,
-0.219179,0.000947359,0.261952,-1.65634,-0.299942,-0.0900415,0.460622,-0.636415,0.167293,-0.649455,-0.257575,0.320779,0.530809,-0.245126,0,0,0,0,0,0,0,-0.205194,-0.00152928,0.275807,-1.64798,-0.311635,1.46937,1.25547,-0.673231,0.207424,-0.714558,-0.164584,-0.000363149,0.604668,-0.157213,1.4278,-35.4704,1.53627,25.6815,0.361325,1.48858,-0.190323,-0.433705,-0.068216,-2.33308,0.4197,1.30517,0.0600482,0.0819832,1.50113,0.0385659,-1.37028,0.452813,-0.42518,-0.241604,
-0.221691,0.00160592,0.259388,-1.65736,-0.298627,-0.0879832,0.459654,-0.627944,0.16464,-0.640883,-0.255105,0.32887,0.514561,-0.241856,0,0,0,0,0,0,0,-0.205194,-0.00152928,0.275807,-1.64798,-0.311635,1.46937,1.25547,-0.673231,0.207424,-0.714558,-0.164584,-0.000363149,0.604668,-0.157213,1.4278,-35.4704,1.53627,25.6815,0.361325,1.48858,-0.190323,-2.35937,-0.807533,-1.70266,0.844388,-0.359465,-0.304759,-0.287547,0.541871,-0.320421,-1.01486,0.32832,-0.430387,-0.237266,
-0.22417,0.0022524,0.256858,-1.65837,-0.297276,-0.0859929,0.458699,-0.619845,0.161621,-0.632692,-0.252734,0.337623,0.497578,-0.238695,0,0,0,0,0,0,0,-0.205194,-0.00152928,0.275807,-1.64798,-0.311635,1.46937,1.25547,-0.673231,0.207424,-0.714558,-0.164584,-0.000363149,0.604668,-0.157213,1.4278,-35.4704,1.53627,25.6815,0.361325,1.48858,-0.190323,-2.52973,1.02034,-1.64561,-0.331318,-0.467393,0.683341,0.705358,0.3679,0.660856,-1.02648,0.398038,-0.419247,-0.238499,
-0.226618,0.00288566,0.254359,-1.65937,-0.295887,-0.0840725,0.457757,-0.612028,0.158315,-0.624793,-0.250424,0.347378,0.480121,-0.235687,0,0,0,0,0,0,0,-0.205194,-0.00152928,0.275807,-1.64798,-0.311635,1.46937,1.25547,-0.673231,0.207424,-0.714558,-0.164584,-0.000363149,0.604668,-0.157213,1.4278,-35.4704,1.53627,25.6815,0.361325,1.48858,-0.190323,-2.52973,1.02034,-1.64561,-0.331318,-0.467393,0.683341,0.705358,0.3679,0.660856,-1.02648,0.398038,-0.419247,-0.238499,
-0.229036,0.00350467,0.25189,-1.66036,-0.294452,-0.0822225,0.456825,-0.604409,0.154752,-0.617112,-0.248208,0.358551,0.46249,-0.232916,0,0,0,0,0,0,0,-0.226511,0.00540928,0.25385,-1.65339,-0.310206,1.48883,1.2507,-0.66418,0.203615,-0.684555,-0.188513,0.0786032,0.612462,-0.133002,2.74494,-36.494,2.5876,25.8322,0.00152227,1.82,-0.190323,-2.29218,2.10016,-1.58281,-1.06398,-0.375247,1.28076,1.30727,0.293695,1.25055,-0.974873,0.385598,-0.347184,-0.234107,
-0.218184,0.000592471,0.262926,-1.65647,-0.302808,-0.0929629,0.459381,-0.694585,0.183828,-0.70909,-0.289217,0.283695,0.530102,-0.291418,0,0,0,0,0,0,0,-0.226511,0.00540928,0.25385,-1.65339,-0.310206,1.48883,1.2507,-0.66418,0.203615,-0.684555,-0.188513,0.0786032,0.612462,-0.133002,2.74494,-36.494,2.5876,25.8322,0.00152227,1.82,-0.190323,-2.29218,2.10016,-1.58281,-1.06398,-0.375247,1.28076,1.30727,0.293695,1.25055,-0.974873,0.385598,-0.347184,-0.234107,
-0.257493,0.0129485,0.22218,-1.6658,-0.295103,-0.0573218,0.452283,-0.605258,0.146965,-0.618827,-0.251176,0.413021,0.390938,-0.25098,0,0,0,0,0,0,0,-0.226511,0.00540928,0.25385,-1.65339,-0.310206,1.48883,1.2507,-0.66418,0.203615,-0.684555,-0.188513,0.0786032,0.612462,-0.133002,2.74494,-36.494,2.5876,25.8322,0.00152227,1.82,-0.190323,-2.04619,0.115551,-1.52787,0.0911672,-0.335646,0.209047,0.229469,0.367035,0.188969,-0.860821,0.155303,-0.289289,-0.225314,
-0.25988,0.0135257,0.21974,-1.6668,-0.293433,-0.0558049,0.451292,-0.596598,0.144296,-0.610088,-0.250195,0.417279,0.379208,-0.247666,0,0,0,0,0,0,0,-0.226511,0.00540928,0.25385,-1.65339,-0.310206,1.48883,1.2507,-0.66418,0.203615,-0.684555,-0.188513,0.0786032,0.612462,-0.133002,2.74494,-36.494,2.5876,25.8322,0.00152227,1.82,-0.190323,-0.705015,-1.80051,-2.55003,1.27527,1.10766,-0.839926,-0.818788,1.46712,-0.85727,-1.3449,0.00506624,-0.357146,-0.219345,
-0.262234,0.0140909,0.217332,-1.6678,-0.291748,-0.054319,0.450314,-0.588514,0.141292,-0.601926,-0.249651,0.421323,0.371485,-0.244453,0,0,0,0,0,0,0,-0.226511,0.00540928,0.25385,-1.65339,-0.310206,1.48883,1.2507,-0.66418,0.203615,-0.684555,-0.188513,0.0786032,0.612462,-0.133002,2.74494,-36.494,2.5876,25.8322,0.00152227,1.82,-0.190323,-0.705015,-1.80051,-2.55003,1.27527,1.10766,-0.839926,-0.818788,1.46712,-0.85727,-1.3449,0.00506624,-0.357146,-0.219345,
-0.264557,0.0146433,0.214955,-1.6688,-0.290046,-0.0528469,0.449349,-0.580903,0.138106,-0.594237,-0.249334,0.425509,0.368033,-0.241334,0,0,0,0,0,0,0,-0.253094,0.0133527,0.226427,-1.66116,-0.303417,1.51209,1.24575,-0.642732,0.192579,-0.663069,-0.189924,0.20883,0.529581,-0.125617,1.04694,-36.5694,1.08797,25.8084,-0.407718,1.614,-0.183914,-0.657649,0.0561584,-2.05892,0.0874921,0.881134,0.182488,0.210322,1.09199,0.15212,-1.13238,0.0712729,-0.288528,-0.216151,
-0.266852,0.0151824,0.212607,-1.66979,-0.288325,-0.0513689,0.448395,-0.573687,0.134786,-0.586948,-0.249236,0.430264,0.369486,-0.238342,0,0,0,0,0,0,0,-0.253094,0.0133527,0.226427,-1.66116,-0.303417,1.51209,1.24575,-0.642732,0.192579,-0.663069,-0.189924,0.20883,0.529581,-0.125617,1.04694,-36.5694,1.08797,25.8084,-0.407718,1.614,-0.183914,-0.657649,0.0561584,-2.05892,0.0874921,0.881134,0.182488,0.210322,1.09199,0.15212,-1.13238,0.0712729,-0.288528,-0.216151,
-0.269119,0.0157078,0.210287,-1.67079,-0.286581,-0.0498625,0.447453,-0.566797,0.131351,-0.579993,-0.249396,0.436057,0.376597,-0.235536,0,0,0,0,0,0,0,-0.253094,0.0133527,0.226427,-1.66116,-0.303417,1.51209,1.24575,-0.642732,0.192579,-0.663069,-0.189924,0.20883,0.529581,-0.125617,1.04694,-36.5694,1.08797,25.8084,-0.407718,1.614,-0.183914,-1.68334,-0.0363771,-0.611618,0.0480732,-0.574661,0.0937703,0.127983,-0.00424671,0.0597563,-0.463358,-0.016728,-0.237027,-0.211905,
-0.259086,0.0130287,0.220524,-1.66659,-0.287422,-0.0585775,0.450216,-0.648593,0.154739,-0.663162,-0.272139,0.613977,0.356626,-0.290828,0,0,0,0,0,0,0,-0.253094,0.0133527,0.226427,-1.66116,-0.303417,1.51209,1.24575,-0.642732,0.192579,-0.663069,-0.189924,0.20883,0.529581,-0.125617,1.04694,-36.5694,1.08797,25.8084,-0.407718,1.614,-0.183914,-1.68334,-0.0363771,-0.611618,0.0480732,-0.574661,0.0937703,0.127983,-0.00424671,0.0597563,-0.463358,-0.016728,-0.237027,-0.211905,
-0.28255,0.0199133,0.196292,-1.67323,-0.278425,-0.0378305,0.447312,-0.567037,0.122276,-0.580204,-0.244887,0.606591,0.3634,-0.253103,0,0,0,0,0,0,0,-0.253094,0.0133527,0.226427,-1.66116,-0.303417,1.51209,1.24575,-0.642732,0.192579,-0.663069,-0.189924,0.20883,0.529581,-0.125617,1.04694,-36.5694,1.08797,25.8084,-0.407718,1.614,-0.183914,-0.191758,-1.71784,-1.30251,1.16032,0.838677,-0.817467,-0.787747,1.0257,-0.841404,-0.847308,-0.0729161,-0.329519,-0.209083,
-0.284777,0.0203932,0.194013,-1.6742,-0.276017,-0.0364113,0.446314,-0.556674,0.119972,-0.569828,-0.242344,0.602061,0.354803,-0.24945,0,0,0,0,0,0,0,-0.253094,0.0133527,0.226427,-1.66116,-0.303417,1.51209,1.24575,-0.642732,0.192579,-0.663069,-0.189924,0.20883,0.529581,-0.125617,1.04694,-36.5694,1.08797,25.8084,-0.407718,1.614,-0.183914,-0.111772,-2.5003,-0.894336,1.6458,0.743515,-1.27697,-1.2476,0.971242,-1.29489,-0.732811,-0.112672,-0.394907,-0.207397,
-0.286966,0.0208611,0.191771,-1.67517,-0.273626,-0.0350101,0.445329,-0.547244,0.116985,-0.560378,-0.241042,0.597881,0.350297,-0.246357,0,0,0,0,0,0,0,-0.27283,0.0192737,0.206141,-1.66725,-0.295219,1.52781,1.24172,-0.612491,0.181334,-0.634938,-0.189278,0.28631,0.479058,-0.14091,2.01099,-36.8907,2.06392,26.2805,0.294491,1.76049,-0.197647,-0.111772,-2.5003,-0.894336,1.6458,0.743515,-1.27697,-1.2476,0.971242,-1.29489,-0.732811,-0.112672,-0.394907,-0.207397,
-0.28912,0.0213161,0.189565,-1.67613,-0.271249,-0.033612,0.444355,-0.53855,0.113748,-0.551656,-0.240242,0.594029,0.349529,-0.243372,0,0,0,0,0,0,0,-0.27283,0.0192737,0.206141,-1.66725,-0.295219,1.52781,1.24172,-0.612491,0.181334,-0.634938,-0.189278,0.28631,0.479058,-0.14091,2.01099,-36.8907,2.06392,26.2805,0.294491,1.76049,-0.197647,-0.405119,-0.144718,-0.883606,0.256217,0.521776,0.012823,0.0473522,0.688603,-0.0213579,-0.716012,0.0797157,-0.33775,-0.208154,
-0.291242,0.0217581,0.187391,-1.67709,-0.268887,-0.0322074,0.443393,-0.530407,0.11051,-0.54348,-0.239404,0.590591,0.35114,-0.2405,0,0,0,0,0,0,0,-0.27283,0.0192737,0.206141,-1.66725,-0.295219,1.52781,1.24172,-0.612491,0.181334,-0.634938,-0.189278,0.28631,0.479058,-0.14091,2.01099,-36.8907,2.06392,26.2805,0.294491,1.76049,-0.197647,-0.405119,-0.144718,-0.883606,0.256217,0.521776,0.012823,0.0473522,0.688603,-0.0213579,-0.716012,0.0797157,-0.33775,-0.208154,
-0.297093,0.0223931,0.18135,-1.6803,-0.252134,-0.0314827,0.438685,-0.540143,0.105241,-0.553951,-0.256244,0.754333,0.318956,-0.269876,0,0,0,0,0,0,0,-0.27283,0.0192737,0.206141,-1.66725,-0.295219,1.52781,1.24172,-0.612491,0.181334,-0.634938,-0.189278,0.28631,0.479058,-0.14091,2.01099,-36.8907,2.06392,26.2805,0.294491,1.76049,-0.197647,-0.349688,-0.227505,-1.5987,0.467403,0.957566,-0.0540998,-0.0177179,1.14097,-0.088651,-1.0653,0.186898,-0.406579,-0.205346,
-0.283628,0.0196999,0.19515,-1.67405,-0.270659,-0.0391711,0.445357,-0.593816,0.121073,-0.607964,-0.265809,0.796781,0.327713,-0.290817,0,0,0,0,0,0,0,-0.27283,0.0192737,0.206141,-1.66725,-0.295219,1.52781,1.24172,-0.612491,0.181334,-0.634938,-0.189278,0.28631,0.479058,-0.14091,2.01099,-36.8907,2.06392,26.2805,0.294491,1.76049,-0.197647,-0.349688,-0.227505,-1.5987,0.467403,0.957566,-0.0540998,-0.0177179,1.14097,-0.088651,-1.0653,0.186898,-0.406579,-0.205346,
-0.300024,0.0246656,0.178278,-1.67898,-0.266468,-0.0242076,0.443278,-0.514391,0.0912487,-0.527745,-0.234344,0.694527,0.305527,-0.253918,0,0,0,0,0,0,0,-0.292436,0.0250594,0.185585,-1.67297,-0.283195,1.54301,1.23589,-0.562699,0.173664,-0.59515,-0.157117,0.374258,0.452277,-0.180176,1.93164,-38.2158,1.98854,26.7288,0.745846,2.03148,-0.150955,-1.41718,-2.41777,-1.89068,1.91642,0.438591,-1.36266,-1.34084,1.19299,-1.36304,-1.20977,0.13401,-0.524384,-0.202457,
-0.302042,0.0250197,0.176207,-1.67991,-0.26368,-0.0230268,0.442277,-0.504515,0.0885237,-0.517812,-0.231661,0.696901,0.295198,-0.25043,0,0,0,0,0,0,0,-0.292436,0.0250594,0.185585,-1.67297,-0.283195,1.54301,1.23589,-0.562699,0.173664,-0.59515,-0.157117,0.374258,0.452277,-0.180176,1.93164,-38.2158,1.98854,26.7288,0.745846,2.03148,-0.150955,-2.03699,-1.96315,-1.48198,1.68826,-0.230588,-1.16981,-1.14251,0.732559,-1.17312,-0.989986,0.227935,-0.475413,-0.199714,
-0.304023,0.0253612,0.174173,-1.68083,-0.260897,-0.0218732,0.441287,-0.495217,0.0853695,-0.50847,-0.230156,0.695733,0.288392,-0.247442,0,0,0,0,0,0,0,-0.292436,0.0250594,0.185585,-1.67297,-0.283195,1.54301,1.23589,-0.562699,0.173664,-0.59515,-0.157117,0.374258,0.452277,-0.180176,1.93164,-38.2158,1.98854,26.7288,0.745846,2.03148,-0.150955,-2.03699,-1.96315,-1.48198,1.68826,-0.230588,-1.16981,-1.14251,0.732559,-1.17312,-0.989986,0.227935,-0.475413,-0.199714,
-0.305968,0.0256896,0.172175,-1.68175,-0.258129,-0.0207341,0.440309,-0.486437,0.0821201,-0.499652,-0.229157,0.691995,0.284781,-0.244572,0,0,0,0,0,0,0,-0.292436,0.0250594,0.185585,-1.67297,-0.283195,1.54301,1.23589,-0.562699,0.173664,-0.59515,-0.157117,0.374258,0.452277,-0.180176,1.93164,-38.2158,1.98854,26.7288,0.745846,2.03148,-0.150955,-1.43648,0.985945,-1.83669,0.0256155,0.291794,0.502084,0.544096,0.840824,0.463221,-1.13118,0.499634,-0.389399,-0.201739,
-0.307881,0.0260051,0.170209,-1.68266,-0.255383,-0.0195956,0.439341,-0.478128,0.0788769,-0.491312,-0.228467,0.686566,0.284623,-0.241816,0,0,0,0,0,0,0,-0.292436,0.0250594,0.185585,-1.67297,-0.283195,1.54301,1.23589,-0.562699,0.173664,-0.59515,-0.157117,0.374258,0.452277,-0.180176,1.93164,-38.2158,1.98854,26.7288,0.745846,2.03148,-0.150955,-1.43648,0.985945,-1.83669,0.0256155,0.291794,0.502084,0.544096,0.840824,0.463221,-1.13118,0.499634,-0.389399,-0.201739,
-0.309762,0.0263085,0.168276,-1.68357,-0.252662,-0.0184536,0.438384,-0.470164,0.0758408,-0.483319,-0.227456,0.680107,0.285492,-0.239217,0,0,0,0,0,0,0,-0.292436,0.0250594,0.185585,-1.67297,-0.283195,1.54301,1.23589,-0.562699,0.173664,-0.59515,-0.157117,0.374258,0.452277,-0.180176,1.93164,-38.2158,1.98854,26.7288,0.745846,2.03148,-0.150955,-0.883605,0.127361,-2.05374,0.655087,0.700036,0.06663,0.106992,1.15994,0.0376808,-1.17565,0.531287,-0.345308,-0.199967,
-0.301416,0.0245642,0.176817,-1.67962,-0.256248,-0.0250313,0.441362,-0.548727,0.0932673,-0.563019,-0.251163,0.9395,0.278766,-0.290797,0,0,0,0,0,0,0,-0.310421,0.0298975,0.166916,-1.67828,-0.26989,1.5558,1.23032,-0.558099,0.140367,-0.579901,-0.175281,0.411118,0.361646,-0.156966,2.3125,-39.2116,2.53602,26.5781,0.831906,1.78612,-0.123489,-0.883605,0.127361,-2.05374,0.655087,0.700036,0.06663,0.106992,1.15994,0.0376808,-1.17565,0.531287,-0.345308,-0.199967,
-0.335306,0.0337863,0.141355,-1.68935,-0.234952,-0.000105245,0.431845,-0.468723,0.0657956,-0.482029,-0.22131,0.782939,0.239486,-0.254926,0,0,0,0,0,0,0,-0.310421,0.0298975,0.166916,-1.67828,-0.26989,1.5558,1.23032,-0.558099,0.140367,-0.579901,-0.175281,0.411118,0.361646,-0.156966,2.3125,-39.2116,2.53602,26.5781,0.831906,1.78612,-0.123489,-0.955591,-0.642602,-1.78401,1.14693,0.456641,-0.373573,-0.339554,1.02627,-0.386647,-1.0079,0.528465,-0.301497,-0.19433,
-0.337142,0.0340417,0.139465,-1.69023,-0.231856,0.000811651,0.430838,-0.45922,0.0638438,-0.472503,-0.218662,0.774068,0.229224,-0.251608,0,0,0,0,0,0,0,-0.310421,0.0298975,0.166916,-1.67828,-0.26989,1.5558,1.23032,-0.558099,0.140367,-0.579901,-0.175281,0.411118,0.361646,-0.156966,2.3125,-39.2116,2.53602,26.5781,0.831906,1.78612,-0.123489,-0.955591,-0.642602,-1.78401,1.14693,0.456641,-0.373573,-0.339554,1.02627,-0.386647,-1.0079,0.528465,-0.301497,-0.19433,
-0.338944,0.0342872,0.13761,-1.6911,-0.228806,0.00169961,0.429843,-0.450336,0.0613845,-0.463605,-0.217191,0.762373,0.22199,-0.248752,0,0,0,0,0,0,0,-0.310421,0.0298975,0.166916,-1.67828,-0.26989,1.5558,1.23032,-0.558099,0.140367,-0.579901,-0.175281,0.411118,0.361646,-0.156966,2.3125,-39.2116,2.53602,26.5781,0.831906,1.78612,-0.123489,-3.17397,-0.718884,-1.22662,1.12762,-1.28412,-0.651137,-0.622328,0.0670081,-0.648622,-0.751252,0.491817,-0.333435,-0.188848,
-0.340712,0.0345223,0.135789,-1.69196,-0.225812,0.00256974,0.428859,-0.441998,0.058768,-0.455255,-0.216232,0.74862,0.217533,-0.246006,0,0,0,0,0,0,0,-0.310421,0.0298975,0.166916,-1.67828,-0.26989,1.5558,1.23032,-0.558099,0.140367,-0.579901,-0.175281,0.411118,0.361646,-0.156966,2.3125,-39.2116,2.53602,26.5781,0.831906,1.78612,-0.123489,-1.62706,2.05948,-2.36735,-0.362394,0.237183,1.04669,1.09232,0.841588,1.00278,-1.22581,0.721129,-0.252506,-0.193152,
-0.342448,0.0347468,0.134,-1.69282,-0.222878,0.00343468,0.427886,-0.43415,0.0561097,-0.447398,-0.215602,0.73351,0.216233,-0.24337,0,0,0,0,0,0,0,-0.329155,0.0344651,0.147468,-1.68429,-0.255157,1.56664,1.22536,-0.549579,0.109723,-0.585605,-0.181078,0.475797,0.292997,-0.153743,2.16175,-37.6643,2.31386,26.3559,0.960079,2.09832,-0.137222,-1.62706,2.05948,-2.36735,-0.362394,0.237183,1.04669,1.09232,0.841588,1.00278,-1.22581,0.721129,-0.252506,-0.193152,
-0.344155,0.0349606,0.13224,-1.69368,-0.220007,0.00430952,0.426922,-0.426736,0.0534511,-0.43998,-0.215275,0.717677,0.218711,-0.24088,0,0,0,0,0,0,0,-0.329155,0.0344651,0.147468,-1.68429,-0.255157,1.56664,1.22536,-0.549579,0.109723,-0.585605,-0.181078,0.475797,0.292997,-0.153743,2.16175,-37.6643,2.31386,26.3559,0.960079,2.09832,-0.137222,-0.846221,0.567468,-2.75215,0.622897,0.897906,0.303549,0.343699,1.38118,0.277507,-1.35184,0.673873,-0.231763,-0.18888,
-0.335856,0.0333441,0.140743,-1.68992,-0.227037,-0.00154705,0.430124,-0.483027,0.0558648,-0.497283,-0.235214,1.04189,0.200887,-0.288127,0,0,0,0,0,0,0,-0.329155,0.0344651,0.147468,-1.68429,-0.255157,1.56664,1.22536,-0.549579,0.109723,-0.585605,-0.181078,0.475797,0.292997,-0.153743,2.16175,-37.6643,2.31386,26.3559,0.960079,2.09832,-0.137222,-0.846221,0.567468,-2.75215,0.622897,0.897906,0.303549,0.343699,1.38118,0.277507,-1.35184,0.673873,-0.231763,-0.18888,
-0.352282,0.0370679,0.123695,-1.69491,-0.219064,0.00724304,0.426995,-0.417324,0.037511,-0.430603,-0.212773,0.778786,0.207135,-0.253976,0,0,0,0,0,0,0,-0.329155,0.0344651,0.147468,-1.68429,-0.255157,1.56664,1.22536,-0.549579,0.109723,-0.585605,-0.181078,0.475797,0.292997,-0.153743,2.16175,-37.6643,2.31386,26.3559,0.960079,2.09832,-0.137222,-0.298049,-0.225045,-2.78812,1.10296,1.25748,-0.0703338,-0.0323831,1.62229,-0.088248,-1.35235,0.615819,-0.217997,-0.186236,
-0.353912,0.0372099,0.122011,-1.69575,-0.215961,0.00805327,0.425991,-0.407559,0.0354785,-0.420991,-0.209832,0.775818,0.202557,-0.250939,0,0,0,0,0,0,0,-0.329155,0.0344651,0.147468,-1.68429,-0.255157,1.56664,1.22536,-0.549579,0.109723,-0.585605,-0.181078,0.475797,0.292997,-0.153743,2.16175,-37.6643,2.31386,26.3559,0.960079,2.09832,-0.137222,-0.581014,-1.62701,-2.44587,1.84494,0.919043,-0.87673,-0.845254,1.48842,-0.874412,-1.20022,0.461105,-0.23493,-0.181537,
-0.355508,0.0373417,0.12036,-1.69658,-0.212855,0.00885217,0.424998,-0.398973,0.0329653,-0.412536,-0.20792,0.776473,0.199726,-0.248315,0,0,0,0,0,0,0,-0.329155,0.0344651,0.147468,-1.68429,-0.255157,1.56664,1.22536,-0.549579,0.109723,-0.585605,-0.181078,0.475797,0.292997,-0.153743,2.16175,-37.6643,2.31386,26.3559,0.960079,2.09832,-0.137222,-0.581014,-1.62701,-2.44587,1.84494,0.919043,-0.87673,-0.845254,1.48842,-0.874412,-1.20022,0.461105,-0.23493,-0.181537,
-0.357074,0.037463,0.11874,-1.69741,-0.209731,0.00964526,0.424015,-0.391374,0.0303154,-0.405045,-0.206435,0.780839,0.198272,-0.245773,0,0,0,0,0,0,0,-0.345351,0.0376591,0.130445,-1.68981,-0.238951,1.57483,1.22025,-0.494212,0.0979966,-0.528247,-0.174808,0.571464,0.239455,-0.170983,1.98322,-38.6125,1.93696,26.951,0.489498,2.09832,-0.150955,-0.965945,-0.67254,-1.26162,1.04558,0.0560457,-0.404166,-0.363624,0.637498,-0.419208,-0.679028,0.415885,-0.175883,-0.177719,
-0.358609,0.0375741,0.11715,-1.69823,-0.206614,0.0104371,0.423042,-0.383924,0.0277875,-0.397521,-0.205163,0.779369,0.197956,-0.243191,0,0,0,0,0,0,0,-0.345351,0.0376591,0.130445,-1.68981,-0.238951,1.57483,1.22025,-0.494212,0.0979966,-0.528247,-0.174808,0.571464,0.239455,-0.170983,1.98322,-38.6125,1.93696,26.951,0.489498,2.09832,-0.150955,-0.965945,-0.67254,-1.26162,1.04558,0.0560457,-0.404166,-0.363624,0.637498,-0.419208,-0.679028,0.415885,-0.175883,-0.177719,
-0.360116,0.0376755,0.11559,-1.69904,-0.203521,0.011235,0.422079,-0.376574,0.0253485,-0.390116,-0.204162,0.773239,0.199469,-0.240725,0,0,0,0,0,0,0,-0.345351,0.0376591,0.130445,-1.68981,-0.238951,1.57483,1.22025,-0.494212,0.0979966,-0.528247,-0.174808,0.571464,0.239455,-0.170983,1.98322,-38.6125,1.93696,26.951,0.489498,2.09832,-0.150955,-0.281866,0.73754,-0.627017,0.106484,0.129291,0.459604,0.507125,0.33163,0.42144,-0.381693,0.476908,-0.089303,-0.176731,
-0.353035,0.036685,0.12286,-1.69547,-0.213035,0.00731134,0.425311,-0.441153,0.0288252,-0.455695,-0.224828,1.02275,0.205534,-0.286475,0,0,0,0,0,0,0,-0.345351,0.0376591,0.130445,-1.68981,-0.238951,1.57483,1.22025,-0.494212,0.0979966,-0.528247,-0.174808,0.571464,0.239455,-0.170983,1.98322,-38.6125,1.93696,26.951,0.489498,2.09832,-0.150955,-0.281866,0.73754,-0.627017,0.106484,0.129291,0.459604,0.507125,0.33163,0.42144,-0.381693,0.476908,-0.089303,-0.176731,
-0.366152,0.039284,0.108969,-1.70003,-0.197081,0.0141665,0.421929,-0.373978,0.0146123,-0.387734,-0.199736,0.929541,0.155448,-0.253145,0,0,0,0,0,0,0,-0.345351,0.0376591,0.130445,-1.68981,-0.238951,1.57483,1.22025,-0.494212,0.0979966,-0.528247,-0.174808,0.571464,0.239455,-0.170983,1.98322,-38.6125,1.93696,26.951,0.489498,2.09832,-0.150955,-0.460139,-0.84346,-0.941257,1.03662,0.201791,-0.426619,-0.381105,0.59945,-0.448292,-0.513375,0.329045,-0.128183,-0.172,
-0.36761,0.039334,0.107455,-1.70082,-0.193387,0.0147491,0.420928,-0.364573,0.0125105,-0.378434,-0.19681,0.923616,0.145668,-0.250269,0,0,0,0,0,0,0,-0.361493,0.0406033,0.113689,-1.69547,-0.220094,1.58124,1.21449,-0.488542,0.0866761,-0.502151,-0.16397,0.588623,0.176146,-0.192606,3.20118,-38.8387,3.23823,27.1255,-0.0717199,2.15142,-0.23793,-0.00718058,0.0796906,-1.52408,0.500103,0.795531,0.163159,0.218446,0.933598,0.116037,-0.769935,0.303893,-0.13004,-0.174959,
-0.369033,0.0393744,0.105977,-1.7016,-0.189738,0.0152999,0.419937,-0.355668,0.010089,-0.369511,-0.194947,0.912077,0.137692,-0.247668,0,0,0,0,0,0,0,-0.361493,0.0406033,0.113689,-1.69547,-0.220094,1.58124,1.21449,-0.488542,0.0866761,-0.502151,-0.16397,0.588623,0.176146,-0.192606,3.20118,-38.8387,3.23823,27.1255,-0.0717199,2.15142,-0.23793,-0.00718058,0.0796906,-1.52408,0.500103,0.795531,0.163159,0.218446,0.933598,0.116037,-0.769935,0.303893,-0.13004,-0.174959,
-0.370422,0.0394048,0.104533,-1.70238,-0.186153,0.0158259,0.418957,-0.347215,0.00761107,-0.361057,-0.193608,0.896416,0.131501,-0.245168,0,0,0,0,0,0,0,-0.361493,0.0406033,0.113689,-1.69547,-0.220094,1.58124,1.21449,-0.488542,0.0866761,-0.502151,-0.16397,0.588623,0.176146,-0.192606,3.20118,-38.8387,3.23823,27.1255,-0.0717199,2.15142,-0.23793,-1.14522,-1.12608,-1.67789,1.18791,0.1617,-0.660711,-0.613308,0.801757,-0.683657,-0.828363,0.176243,-0.170805,-0.172528,
-0.371778,0.0394255,0.10312,-1.70315,-0.182641,0.0163362,0.417986,-0.339218,0.00516138,-0.353072,-0.192642,0.877843,0.127586,-0.242772,0,0,0,0,0,0,0,-0.361493,0.0406033,0.113689,-1.69547,-0.220094,1.58124,1.21449,-0.488542,0.0866761,-0.502151,-0.16397,0.588623,0.176146,-0.192606,3.20118,-38.8387,3.23823,27.1255,-0.0717199,2.15142,-0.23793,-1.14522,-1.12608,-1.67789,1.18791,0.1617,-0.660711,-0.613308,0.801757,-0.683657,-0.828363,0.176243,-0.170805,-0.172528,
-0.373105,0.0394366,0.101738,-1.70391,-0.179212,0.016843,0.417024,-0.331662,0.00276872,-0.345539,-0.192031,0.857346,0.12668,-0.240508,0,0,0,0,0,0,0,-0.361493,0.0406033,0.113689,-1.69547,-0.220094,1.58124,1.21449,-0.488542,0.0866761,-0.502151,-0.16397,0.588623,0.176146,-0.192606,3.20118,-38.8387,3.23823,27.1255,-0.0717199,2.15142,-0.23793,-1.24003,-0.71304,-1.90735,1.0301,0.177305,-0.461266,-0.41628,0.841011,-0.483286,-0.912441,0.25053,-0.159831,-0.170604,
-0.366101,0.0388614,0.108978,-1.70055,-0.195878,0.0140047,0.420356,-0.375262,0.00376485,-0.389918,-0.210723,1.02352,0.154316,-0.283735,0,0,0,0,0,0,0,-0.361493,0.0406033,0.113689,-1.69547,-0.220094,1.58124,1.21449,-0.488542,0.0866761,-0.502151,-0.16397,0.588623,0.176146,-0.192606,3.20118,-38.8387,3.23823,27.1255,-0.0717199,2.15142,-0.23793,-1.24003,-0.71304,-1.90735,1.0301,0.177305,-0.461266,-0.41628,0.841011,-0.483286,-0.912441,0.25053,-0.159831,-0.170604,
-0.380275,0.0413765,0.0942617,-1.70532,-0.180804,0.0178068,0.416258,-0.321109,-0.00547491,-0.334842,-0.195572,0.83271,0.152004,-0.252355,0,0,0,0,0,0,0,-0.377153,0.0430651,0.0975207,-1.70066,-0.198517,1.58612,1.20921,-0.467978,0.0673272,-0.478644,-0.146608,0.684432,0.121638,-0.145117,4.64527,-38.7633,4.63869,26.828,0.569149,2.32354,-0.170181,-1.03657,-0.110316,-2.00584,0.707256,0.286346,-0.0985745,-0.0551715,0.836141,-0.124765,-0.903934,0.307735,-0.0989566,-0.172206,
-0.381519,0.0413472,0.0929623,-1.70609,-0.177519,0.0184097,0.415259,-0.310938,-0.00731209,-0.324868,-0.192045,0.821079,0.150735,-0.24964,0,0,0,0,0,0,0,-0.377153,0.0430651,0.0975207,-1.70066,-0.198517,1.58612,1.20921,-0.467978,0.0673272,-0.478644,-0.146608,0.684432,0.121638,-0.145117,4.64527,-38.7633,4.63869,26.828,0.569149,2.32354,-0.170181,-1.03657,-0.110316,-2.00584,0.707256,0.286346,-0.0985745,-0.0551715,0.836141,-0.124765,-0.903934,0.307735,-0.0989566,-0.172206,
-0.382727,0.041309,0.0916981,-1.70685,-0.174273,0.0190077,0.41427,-0.301932,-0.0095562,-0.316037,-0.189524,0.811583,0.149511,-0.247278,0,0,0,0,0,0,0,-0.377153,0.0430651,0.0975207,-1.70066,-0.198517,1.58612,1.20921,-0.467978,0.0673272,-0.478644,-0.146608,0.684432,0.121638,-0.145117,4.64527,-38.7633,4.63869,26.828,0.569149,2.32354,-0.170181,-1.91968,-1.09527,-1.89289,1.21864,-0.318162,-0.779254,-0.738729,0.619591,-0.788999,-0.845508,0.191405,-0.114602,-0.170074,
-0.383903,0.0412614,0.0904654,-1.7076,-0.171055,0.019601,0.41329,-0.293926,-0.0119085,-0.308183,-0.1875,0.804418,0.148314,-0.244985,0,0,0,0,0,0,0,-0.377153,0.0430651,0.0975207,-1.70066,-0.198517,1.58612,1.20921,-0.467978,0.0673272,-0.478644,-0.146608,0.684432,0.121638,-0.145117,4.64527,-38.7633,4.63869,26.828,0.569149,2.32354,-0.170181,-0.962388,-0.147571,-2.23613,0.750413,0.450728,-0.110592,-0.0593585,0.98045,-0.14588,-1.00372,0.270481,-0.108176,-0.171936,
-0.38505,0.0412044,0.0892607,-1.70834,-0.167857,0.0201912,0.412319,-0.286777,-0.0142522,-0.301168,-0.185822,0.799732,0.14754,-0.242757,0,0,0,0,0,0,0,-0.377153,0.0430651,0.0975207,-1.70066,-0.198517,1.58612,1.20921,-0.467978,0.0673272,-0.478644,-0.146608,0.684432,0.121638,-0.145117,4.64527,-38.7633,4.63869,26.828,0.569149,2.32354,-0.170181,-0.962388,-0.147571,-2.23613,0.750413,0.450728,-0.110592,-0.0593585,0.98045,-0.14588,-1.00372,0.270481,-0.108176,-0.171936,
-0.386169,0.0411386,0.0880841,-1.70908,-0.164698,0.020781,0.411357,-0.279799,-0.01645,-0.294158,-0.184394,0.789544,0.147456,-0.240514,0,0,0,0,0,0,0,-0.391043,0.0448843,0.0829581,-1.70533,-0.177605,1.58909,1.20494,-0.433065,0.0352266,-0.433114,-0.154831,0.632036,0.0771559,-0.1319,4.11365,-38.0888,3.96425,26.4035,0.776974,2.36382,-0.177505,-0.685031,-1.24659,-2.90486,1.55159,0.950607,-0.655485,-0.605896,1.52579,-0.677132,-1.27356,0.249836,-0.123003,-0.171879,
-0.380784,0.0409567,0.0936755,-1.70588,-0.177766,0.0192816,0.414712,-0.340314,-0.0158762,-0.355467,-0.205808,1.00776,0.187076,-0.282345,0,0,0,0,0,0,0,-0.391043,0.0448843,0.0829581,-1.70533,-0.177605,1.58909,1.20494,-0.433065,0.0352266,-0.433114,-0.154831,0.632036,0.0771559,-0.1319,4.11365,-38.0888,3.96425,26.4035,0.776974,2.36382,-0.177505,-0.685031,-1.24659,-2.90486,1.55159,0.950607,-0.655485,-0.605896,1.52579,-0.677132,-1.27356,0.249836,-0.123003,-0.171879,
-0.407523,0.0441514,0.0657972,-1.71469,-0.136276,0.0257346,0.406776,-0.281511,-0.0279378,-0.29579,-0.181717,0.883842,0.150587,-0.25168,0,0,0,0,0,0,0,-0.391043,0.0448843,0.0829581,-1.70533,-0.177605,1.58909,1.20494,-0.433065,0.0352266,-0.433114,-0.154831,0.632036,0.0771559,-0.1319,4.11365,-38.0888,3.96425,26.4035,0.776974,2.36382,-0.177505,-1.33052,-1.61568,-2.7587,1.7651,0.446817,-0.980695,-0.933594,1.29732,-0.990762,-1.19809,0.246425,-0.120106,-0.16785,
-0.408612,0.0440347,0.0646511,-1.7154,-0.132809,0.0263064,0.40578,-0.272076,-0.0291666,-0.286525,-0.178451,0.866727,0.142952,-0.249091,0,0,0,0,0,0,0,-0.391043,0.0448843,0.0829581,-1.70533,-0.177605,1.58909,1.20494,-0.433065,0.0352266,-0.433114,-0.154831,0.632036,0.0771559,-0.1319,4.11365,-38.0888,3.96425,26.4035,0.776974,2.36382,-0.177505,-0.831595,0.292688,-2.57433,0.636146,0.633311,0.126219,0.183175,1.12529,0.0836932,-1.12639,0.366844,-0.0918003,-0.169258,
-0.409666,0.0439115,0.0635381,-1.71611,-0.129409,0.0268481,0.404793,-0.263648,-0.0308062,-0.27825,-0.1762,0.849938,0.135424,-0.246798,0,0,0,0,0,0,0,-0.391043,0.0448843,0.0829581,-1.70533,-0.177605,1.58909,1.20494,-0.433065,0.0352266,-0.433114,-0.154831,0.632036,0.0771559,-0.1319,4.11365,-38.0888,3.96425,26.4035,0.776974,2.36382,-0.177505,-0.831595,0.292688,-2.57433,0.636146,0.633311,0.126219,0.183175,1.12529,0.0836932,-1.12639,0.366844,-0.0918003,-0.169258,
-0.410691,0.0437813,0.0624547,-1.71681,-0.126074,0.0273602,0.403815,-0.256098,-0.0325608,-0.270836,-0.174457,0.833766,0.128024,-0.244564,0,0,0,0,0,0,0,-0.40757,0.0458086,0.0656637,-1.71188,-0.153648,1.59163,1.19864,-0.367577,0.00967749,-0.394877,-0.152594,0.576922,0.0543691,-0.181149,2.21332,-38.1642,2.06392,27.0541,1.01501,2.49566,-0.123489,-0.456523,0.660057,-2.90145,0.522591,1.01155,0.383717,0.444367,1.36259,0.332802,-1.26834,0.42301,-0.0967701,-0.167641,
-0.411688,0.043644,0.061398,-1.7175,-0.122801,0.0278452,0.402845,-0.249313,-0.0343162,-0.264171,-0.173081,0.818436,0.121262,-0.242387,0,0,0,0,0,0,0,-0.40757,0.0458086,0.0656637,-1.71188,-0.153648,1.59163,1.19864,-0.367577,0.00967749,-0.394877,-0.152594,0.576922,0.0543691,-0.181149,2.21332,-38.1642,2.06392,27.0541,1.01501,2.49566,-0.123489,-0.456523,0.660057,-2.90145,0.522591,1.01155,0.383717,0.444367,1.36259,0.332802,-1.26834,0.42301,-0.0967701,-0.167641,
-0.412661,0.0434999,0.0603654,-1.71819,-0.119584,0.0283089,0.401884,-0.24318,-0.03602,-0.258144,-0.172062,0.804025,0.115913,-0.240284,0,0,0,0,0,0,0,-0.40757,0.0458086,0.0656637,-1.71188,-0.153648,1.59163,1.19864,-0.367577,0.00967749,-0.394877,-0.152594,0.576922,0.0543691,-0.181149,2.21332,-38.1642,2.06392,27.0541,1.01501,2.49566,-0.123489,-0.846974,-1.63157,-2.80407,1.86114,0.716107,-0.922786,-0.868672,1.44255,-0.938499,-1.18983,0.310413,-0.0872249,-0.159667,
-0.407132,0.0436677,0.0661595,-1.71508,-0.135372,0.0272513,0.405393,-0.273844,-0.0410857,-0.289119,-0.187979,0.99572,0.190139,-0.27879,0,0,0,0,0,0,0,-0.40757,0.0458086,0.0656637,-1.71188,-0.153648,1.59163,1.19864,-0.367577,0.00967749,-0.394877,-0.152594,0.576922,0.0543691,-0.181149,2.21332,-38.1642,2.06392,27.0541,1.01501,2.49566,-0.123489,-0.846974,-1.63157,-2.80407,1.86114,0.716107,-0.922786,-0.868672,1.44255,-0.938499,-1.18983,0.310413,-0.0872249,-0.159667,
-0.421326,0.0441161,0.051221,-1.72071,-0.11565,0.0266842,0.400608,-0.222986,-0.0473707,-0.237648,-0.17681,0.761247,0.154496,-0.248959,0,0,0,0,0,0,0,-0.40757,0.0458086,0.0656637,-1.71188,-0.153648,1.59163,1.19864,-0.367577,0.00967749,-0.394877,-0.152594,0.576922,0.0543691,-0.181149,2.21332,-38.1642,2.06392,27.0541,1.01501,2.49566,-0.123489,-0.593551,-0.726553,-2.6211,1.34596,0.741316,-0.402692,-0.344204,1.3051,-0.431552,-1.10579,0.406866,-0.0631822,-0.159645,
-0.422181,0.0439252,0.0503064,-1.72141,-0.112723,0.0273255,0.399622,-0.213826,-0.0477156,-0.228656,-0.173786,0.73165,0.160324,-0.246502,0,0,0,0,0,0,0,-0.40757,0.0458086,0.0656637,-1.71188,-0.153648,1.59163,1.19864,-0.367577,0.00967749,-0.394877,-0.152594,0.576922,0.0543691,-0.181149,2.21332,-38.1642,2.06392,27.0541,1.01501,2.49566,-0.123489,-0.593551,-0.726553,-2.6211,1.34596,0.741316,-0.402692,-0.344204,1.3051,-0.431552,-1.10579,0.406866,-0.0631822,-0.159645,
-0.423004,0.0437318,0.049424,-1.72209,-0.109917,0.0279766,0.398645,-0.205614,-0.0483695,-0.220603,-0.171098,0.701638,0.162762,-0.244281,0,0,0,0,0,0,0,-0.418922,0.0458709,0.0538622,-1.71671,-0.134592,1.5924,1.1927,-0.33764,0.00161943,-0.355879,-0.1474,0.611308,0.0183382,-0.191658,2.97107,-38.4142,2.86134,27.3755,0.886837,2.49566,-0.163772,-0.924093,-0.267938,-2.00617,0.970996,0.20297,-0.238204,-0.180327,0.825515,-0.268409,-0.836629,0.439443,-0.0367392,-0.156689,
-0.423797,0.0435349,0.0485703,-1.72277,-0.107229,0.0286271,0.397677,-0.198285,-0.0492265,-0.213425,-0.168719,0.671976,0.162642,-0.242089,0,0,0,0,0,0,0,-0.418922,0.0458709,0.0538622,-1.71671,-0.134592,1.5924,1.1927,-0.33764,0.00161943,-0.355879,-0.1474,0.611308,0.0183382,-0.191658,2.97107,-38.4142,2.86134,27.3755,0.886837,2.49566,-0.163772,-1.29157,-1.26264,-1.32566,1.38719,-0.349056,-0.838632,-0.786617,0.47075,-0.850909,-0.529548,0.346684,-0.0106644,-0.158235,
-0.424564,0.043334,0.047742,-1.72344,-0.104654,0.0292702,0.396717,-0.191787,-0.0502056,-0.207072,-0.166644,0.643595,0.160754,-0.239912,0,0,0,0,0,0,0,-0.418922,0.0458709,0.0538622,-1.71671,-0.134592,1.5924,1.1927,-0.33764,0.00161943,-0.355879,-0.1474,0.611308,0.0183382,-0.191658,2.97107,-38.4142,2.86134,27.3755,0.886837,2.49566,-0.163772,-1.29157,-1.26264,-1.32566,1.38719,-0.349056,-0.838632,-0.786617,0.47075,-0.850909,-0.529548,0.346684,-0.0106644,-0.158235,
-0.425308,0.0431291,0.0469359,-1.72409,-0.102184,0.0299017,0.395766,-0.186089,-0.0512421,-0.201519,-0.164886,0.617658,0.157891,-0.237751,0,0,0,0,0,0,0,-0.418922,0.0458709,0.0538622,-1.71671,-0.134592,1.5924,1.1927,-0.33764,0.00161943,-0.355879,-0.1474,0.611308,0.0183382,-0.191658,2.97107,-38.4142,2.86134,27.3755,0.886837,2.49566,-0.163772,-0.998083,-0.373223,-1.67223,0.988949,-0.0228705,-0.312801,-0.262556,0.63927,-0.332455,-0.691273,0.445513,-0.0242967,-0.165892,
-0.421373,0.0435225,0.0511096,-1.72129,-0.112353,0.0298198,0.399256,-0.230449,-0.0628309,-0.246647,-0.185544,0.99081,0.230597,-0.275429,0,0,0,0,0,0,0,-0.418922,0.0458709,0.0538622,-1.71671,-0.134592,1.5924,1.1927,-0.33764,0.00161943,-0.355879,-0.1474,0.611308,0.0183382,-0.191658,2.97107,-38.4142,2.86134,27.3755,0.886837,2.49566,-0.163772,-0.998083,-0.373223,-1.67223,0.988949,-0.0228705,-0.312801,-0.262556,0.63927,-0.332455,-0.691273,0.445513,-0.0242967,-0.165892,
-0.430868,0.0435916,0.0411919,-1.72548,-0.0987066,0.0290663,0.394848,-0.195757,-0.0596133,-0.212068,-0.167391,0.801465,0.16338,-0.245931,0,0,0,0,0,0,0,-0.429165,0.0458204,0.043122,-1.72121,-0.116869,1.59271,1.18767,-0.309029,-0.000689747,-0.320287,-0.126037,0.485613,0.00993722,-0.138944,3.58203,-37.7397,3.36122,27.0264,0.440975,2.50298,-0.217789,-1.16832,0.210501,-1.66699,0.65205,-0.164498,-0.041665,0.00883727,0.504941,-0.0665377,-0.680844,0.482489,-0.0123702,-0.172285,
-0.431628,0.0433504,0.0403675,-1.72613,-0.0954495,0.0296896,0.393874,-0.189994,-0.0602904,-0.206111,-0.164009,0.814272,0.155824,-0.243541,0,0,0,0,0,0,0,-0.429165,0.0458204,0.043122,-1.72121,-0.116869,1.59271,1.18767,-0.309029,-0.000689747,-0.320287,-0.126037,0.485613,0.00993722,-0.138944,3.58203,-37.7397,3.36122,27.0264,0.440975,2.50298,-0.217789,-1.36479,0.0969549,-1.71057,0.663954,-0.253187,-0.12917,-0.0761874,0.474626,-0.157001,-0.691292,0.405883,-0.00803736,-0.179229,
-0.432364,0.0431052,0.0395673,-1.72678,-0.0921811,0.0302774,0.392909,-0.184039,-0.0613068,-0.200043,-0.161479,0.817085,0.146967,-0.241298,0,0,0,0,0,0,0,-0.429165,0.0458204,0.043122,-1.72121,-0.116869,1.59271,1.18767,-0.309029,-0.000689747,-0.320287,-0.126037,0.485613,0.00993722,-0.138944,3.58203,-37.7397,3.36122,27.0264,0.440975,2.50298,-0.217789,-1.36479,0.0969549,-1.71057,0.663954,-0.253187,-0.12917,-0.0761874,0.474626,-0.157001,-0.691292,0.405883,-0.00803736,-0.179229,
-0.433077,0.0428554,0.038791,-1.72742,-0.0889308,0.0308269,0.391952,-0.178114,-0.0624636,-0.194067,-0.159492,0.812584,0.137363,-0.239142,0,0,0,0,0,0,0,-0.429165,0.0458204,0.043122,-1.72121,-0.116869,1.59271,1.18767,-0.309029,-0.000689747,-0.320287,-0.126037,0.485613,0.00993722,-0.138944,3.58203,-37.7397,3.36122,27.0264,0.440975,2.50298,-0.217789,-1.35983,-0.215238,-1.92449,0.854048,-0.148518,-0.281996,-0.224105,0.606034,-0.313238,-0.762399,0.352119,0.00295382,-0.184773,
-0.433766,0.0426007,0.0380378,-1.72805,-0.0857199,0.0313382,0.391004,-0.172362,-0.0636668,-0.188305,-0.157955,0.802716,0.127836,-0.237065,0,0,0,0,0,0,0,-0.429165,0.0458204,0.043122,-1.72121,-0.116869,1.59271,1.18767,-0.309029,-0.000689747,-0.320287,-0.126037,0.485613,0.00993722,-0.138944,3.58203,-37.7397,3.36122,27.0264,0.440975,2.50298,-0.217789,-1.35983,-0.215238,-1.92449,0.854048,-0.148518,-0.281996,-0.224105,0.606034,-0.313238,-0.762399,0.352119,0.00295382,-0.184773,
-0.434434,0.0423412,0.0373066,-1.72868,-0.0825647,0.0318159,0.390064,-0.166855,-0.0648624,-0.182813,-0.156867,0.788809,0.11942,-0.235074,0,0,0,0,0,0,0,-0.429165,0.0458204,0.043122,-1.72121,-0.116869,1.59271,1.18767,-0.309029,-0.000689747,-0.320287,-0.126037,0.485613,0.00993722,-0.138944,3.58203,-37.7397,3.36122,27.0264,0.440975,2.50298,-0.217789,-1.38597,-1.06917,-2.58465,1.51959,0.161708,-0.733161,-0.676798,1.05841,-0.7525,-1.04611,0.332012,-0.0269403,-0.190299,
-0.430635,0.0430679,0.0413983,-1.72595,-0.0934059,0.0321428,0.393578,-0.185884,-0.0730705,-0.202302,-0.173389,0.984956,0.234485,-0.27027,0,0,0,0,0,0,0,-0.437759,0.0456761,0.0334633,-1.72488,-0.100906,1.59287,1.18334,-0.272631,-0.00658267,-0.288584,-0.0996934,0.528461,-0.00064377,-0.131035,3.17737,-36.9185,3.06367,27.0026,1.31439,2.8344,-0.244339,-1.04946,0.0268307,-2.53635,0.928375,0.261235,-0.0921271,-0.0330878,0.952498,-0.124152,-0.991703,0.463068,0.01911,-0.199867,
-0.447375,0.0425266,0.0231059,-1.73304,-0.0643349,0.0285964,0.385667,-0.143917,-0.0761751,-0.159536,-0.164963,0.703134,0.176264,-0.242958,0,0,0,0,0,0,0,-0.437759,0.0456761,0.0334633,-1.72488,-0.100906,1.59287,1.18334,-0.272631,-0.00658267,-0.288584,-0.0996934,0.528461,-0.00064377,-0.131035,3.17737,-36.9185,3.06367,27.0026,1.31439,2.8344,-0.244339,-1.04946,0.0268307,-2.53635,0.928375,0.261235,-0.0921271,-0.0330878,0.952498,-0.124152,-0.991703,0.463068,0.01911,-0.199867,
-0.447917,0.0422224,0.0225003,-1.73369,-0.0616897,0.0293353,0.384704,-0.135607,-0.0760508,-0.151399,-0.162154,0.661311,0.184712,-0.24072,0,0,0,0,0,0,0,-0.437759,0.0456761,0.0334633,-1.72488,-0.100906,1.59287,1.18334,-0.272631,-0.00658267,-0.288584,-0.0996934,0.528461,-0.00064377,-0.131035,3.17737,-36.9185,3.06367,27.0026,1.31439,2.8344,-0.244339,-1.67413,-0.464567,-2.47077,1.17885,-0.199845,-0.486577,-0.429332,0.762965,-0.508018,-0.920533,0.426394,0.0568872,-0.204436,
-0.44843,0.0419178,0.0219235,-1.73433,-0.0592143,0.0300889,0.38375,-0.128247,-0.0761608,-0.144201,-0.159398,0.618857,0.1884,-0.238667,0,0,0,0,0,0,0,-0.437759,0.0456761,0.0334633,-1.72488,-0.100906,1.59287,1.18334,-0.272631,-0.00658267,-0.288584,-0.0996934,0.528461,-0.00064377,-0.131035,3.17737,-36.9185,3.06367,27.0026,1.31439,2.8344,-0.244339,-1.67413,-0.464567,-2.47077,1.17885,-0.199845,-0.486577,-0.429332,0.762965,-0.508018,-0.920533,0.426394,0.0568872,-0.204436,
-0.448917,0.0416118,0.021372,-1.73495,-0.0569081,0.0308438,0.382803,-0.12178,-0.0764944,-0.137884,-0.156925,0.576536,0.18874,-0.236615,0,0,0,0,0,0,0,-0.437759,0.0456761,0.0334633,-1.72488,-0.100906,1.59287,1.18334,-0.272631,-0.00658267,-0.288584,-0.0996934,0.528461,-0.00064377,-0.131035,3.17737,-36.9185,3.06367,27.0026,1.31439,2.8344,-0.244339,-2.38965,-0.956566,-2.55688,1.47709,-0.571129,-0.906414,-0.849217,0.702969,-0.919195,-0.988802,0.376062,0.0151743,-0.210163,
-0.449382,0.0413039,0.0208423,-1.73557,-0.0547665,0.0315914,0.381865,-0.116169,-0.0769854,-0.132417,-0.15482,0.535398,0.186885,-0.234543,0,0,0,0,0,0,0,-0.445797,0.0455618,0.025003,-1.72791,-0.0839168,1.59302,1.17934,-0.233288,-0.00644364,-0.261338,-0.0961832,0.54474,0.014529,-0.128138,2.82032,-37.2914,2.66298,26.2289,1.49749,2.50939,-0.183914,-2.38965,-0.956566,-2.55688,1.47709,-0.571129,-0.906414,-0.849217,0.702969,-0.919195,-0.988802,0.376062,0.0151743,-0.210163,
-0.449828,0.0409937,0.0203311,-1.73619,-0.0527789,0.0323269,0.380935,-0.111412,-0.0775572,-0.127804,-0.153127,0.496915,0.183892,-0.232442,0,0,0,0,0,0,0,-0.445797,0.0455618,0.025003,-1.72791,-0.0839168,1.59302,1.17934,-0.233288,-0.00644364,-0.261338,-0.0961832,0.54474,0.014529,-0.128138,2.82032,-37.2914,2.66298,26.2289,1.49749,2.50939,-0.183914,-2.24337,-0.788759,-2.69548,1.46191,-0.456875,-0.79686,-0.741785,0.781991,-0.807673,-1.03425,0.443839,0.0265887,-0.214676,
-0.447149,0.0419218,0.0232868,-1.73363,-0.0607555,0.0332175,0.38448,-0.141951,-0.0915796,-0.158492,-0.172417,0.935454,0.28639,-0.266063,0,0,0,0,0,0,0,-0.445797,0.0455618,0.025003,-1.72791,-0.0839168,1.59302,1.17934,-0.233288,-0.00644364,-0.261338,-0.0961832,0.54474,0.014529,-0.128138,2.82032,-37.2914,2.66298,26.2289,1.49749,2.50939,-0.183914,-2.44966,-0.725157,-2.71148,1.40082,-0.604877,-0.809385,-0.754784,0.695369,-0.820027,-1.01299,0.425683,0.0538487,-0.218938,
-0.45345,0.0420735,0.0165769,-1.73606,-0.0553739,0.0322073,0.381905,-0.118787,-0.0838251,-0.136431,-0.158411,0.630331,0.224032,-0.238757,0,0,0,0,0,0,0,-0.445797,0.0455618,0.025003,-1.72791,-0.0839168,1.59302,1.17934,-0.233288,-0.00644364,-0.261338,-0.0961832,0.54474,0.014529,-0.128138,2.82032,-37.2914,2.66298,26.2289,1.49749,2.50939,-0.183914,-2.44966,-0.725157,-2.71148,1.40082,-0.604877,-0.809385,-0.754784,0.695369,-0.820027,-1.01299,0.425683,0.0538487,-0.218938,
-0.453914,0.0417384,0.0160438,-1.73668,-0.0527588,0.0330795,0.380959,-0.116014,-0.0837822,-0.133281,-0.155336,0.653764,0.218047,-0.236541,0,0,0,0,0,0,0,-0.445797,0.0455618,0.025003,-1.72791,-0.0839168,1.59302,1.17934,-0.233288,-0.00644364,-0.261338,-0.0961832,0.54474,0.014529,-0.128138,2.82032,-37.2914,2.66298,26.2289,1.49749,2.50939,-0.183914,-2.44808,0.752209,-2.7781,0.564374,-0.584734,-0.0521725,0.0120895,0.564241,-0.0880835,-1.07547,0.498133,0.0254129,-0.226009,
-0.454364,0.0414022,0.0155262,-1.73729,-0.0501097,0.0339164,0.380022,-0.112388,-0.0840531,-0.129398,-0.152709,0.662287,0.209218,-0.234371,0,0,0,0,0,0,0,-0.445797,0.0455618,0.025003,-1.72791,-0.0839168,1.59302,1.17934,-0.233288,-0.00644364,-0.261338,-0.0961832,0.54474,0.014529,-0.128138,2.82032,-37.2914,2.66298,26.2289,1.49749,2.50939,-0.183914,-2.53128,1.33553,-2.35855,0.133917,-0.821849,0.220733,0.293665,0.273603,0.169933,-0.929618,0.514452,0.00870741,-0.229768,
-0.454797,0.0410641,0.0150255,-1.73789,-0.0474707,0.0347102,0.379093,-0.108312,-0.0845312,-0.125166,-0.1505,0.659748,0.198454,-0.232281,0,0,0,0,0,0,0,-0.45488,0.0449397,0.0153816,-1.73223,-0.0657733,1.5939,1.17312,-0.215185,-0.0239566,-0.230154,-0.117744,0.445618,0.0616058,-0.145717,2.56641,-36.9423,2.43684,26.2289,1.11297,2.52221,-0.244339,-2.53128,1.33553,-2.35855,0.133917,-0.821849,0.220733,0.293665,0.273603,0.169933,-0.929618,0.514452,0.00870741,-0.229768,
-0.455213,0.0407236,0.0145422,-1.73849,-0.0448744,0.0354568,0.378172,-0.104071,-0.0851306,-0.120838,-0.148696,0.64907,0.186652,-0.230261,0,0,0,0,0,0,0,-0.45488,0.0449397,0.0153816,-1.73223,-0.0657733,1.5939,1.17312,-0.215185,-0.0239566,-0.230154,-0.117744,0.445618,0.0616058,-0.145717,2.56641,-36.9423,2.43684,26.2289,1.11297,2.52221,-0.244339,-2.32397,0.81604,-2.55685,0.49886,-0.591586,0.0038237,0.0733268,0.504184,-0.0385124,-1.0132,0.499181,0.00180492,-0.237105,
-0.455403,0.0391188,0.0141807,-1.74029,-0.0251431,0.0430235,0.374703,-0.0750205,-0.103414,-0.0922511,-0.149266,0.82105,0.2399,-0.246625,0,0,0,0,0,0,0,-0.45488,0.0449397,0.0153816,-1.73223,-0.0657733,1.5939,1.17312,-0.215185,-0.0239566,-0.230154,-0.117744,0.445618,0.0616058,-0.145717,2.56641,-36.9423,2.43684,26.2289,1.11297,2.52221,-0.244339,-2.32397,0.81604,-2.55685,0.49886,-0.591586,0.0038237,0.0733268,0.504184,-0.0385124,-1.0132,0.499181,0.00180492,-0.237105,
-0.453279,0.0415373,0.01672,-1.73659,-0.04614,0.0363877,0.38076,-0.106787,-0.0978632,-0.124738,-0.164295,0.884958,0.319395,-0.260827,0,0,0,0,0,0,0,-0.45488,0.0449397,0.0153816,-1.73223,-0.0657733,1.5939,1.17312,-0.215185,-0.0239566,-0.230154,-0.117744,0.445618,0.0616058,-0.145717,2.56641,-36.9423,2.43684,26.2289,1.11297,2.52221,-0.244339,-2.41271,-0.252218,-2.81314,1.20188,-0.564895,-0.571145,-0.51306,0.709688,-0.588776,-1.0726,0.485513,0.0383986,-0.239317,
-0.461523,0.0411305,0.00796831,-1.74021,-0.0356423,0.0318513,0.375892,-0.086259,-0.0914521,-0.10289,-0.156011,0.564612,0.189563,-0.234802,0,0,0,0,0,0,0,-0.45488,0.0449397,0.0153816,-1.73223,-0.0657733,1.5939,1.17312,-0.215185,-0.0239566,-0.230154,-0.117744,0.445618,0.0616058,-0.145717,2.56641,-36.9423,2.43684,26.2289,1.11297,2.52221,-0.244339,-2.41271,-0.252218,-2.81314,1.20188,-0.564895,-0.571145,-0.51306,0.709688,-0.588776,-1.0726,0.485513,0.0383986,-0.239317,
-0.461843,0.0407642,0.00758232,-1.74082,-0.0335092,0.0326075,0.374961,-0.0798084,-0.0915769,-0.0964962,-0.153182,0.533274,0.189038,-0.232761,0,0,0,0,0,0,0,-0.460475,0.0439884,0.00874285,-1.73593,-0.0522533,1.59565,1.16942,-0.164571,-0.0347974,-0.192007,-0.119157,0.460054,0.0675361,-0.107297,3.09803,-37.2914,2.93672,26.4313,1.61926,2.44256,-0.304764,-2.91269,-0.93835,-2.60977,1.52797,-0.958857,-1.04272,-0.99194,0.551077,-1.04424,-0.979255,0.4204,0.0479247,-0.241858,
-0.462138,0.0403965,0.00721961,-1.74143,-0.0315163,0.0333473,0.374037,-0.073919,-0.0919304,-0.0906764,-0.150609,0.498228,0.184951,-0.23081,0,0,0,0,0,0,0,-0.460475,0.0439884,0.00874285,-1.73593,-0.0522533,1.59565,1.16942,-0.164571,-0.0347974,-0.192007,-0.119157,0.460054,0.0675361,-0.107297,3.09803,-37.2914,2.93672,26.4313,1.61926,2.44256,-0.304764,-2.91269,-0.93835,-2.60977,1.52797,-0.958857,-1.04272,-0.99194,0.551077,-1.04424,-0.979255,0.4204,0.0479247,-0.241858,
-0.462413,0.0400266,0.00687773,-1.74202,-0.0296726,0.0340618,0.373122,-0.0686331,-0.0924649,-0.0854706,-0.148426,0.46093,0.178625,-0.228853,0,0,0,0,0,0,0,-0.460475,0.0439884,0.00874285,-1.73593,-0.0522533,1.59565,1.16942,-0.164571,-0.0347974,-0.192007,-0.119157,0.460054,0.0675361,-0.107297,3.09803,-37.2914,2.93672,26.4313,1.61926,2.44256,-0.304764,-3.0214,-0.537041,-2.9076,1.37287,-0.833917,-0.860433,-0.80574,0.687664,-0.870525,-1.17352,0.416967,-0.0274366,-0.252542,
-0.462669,0.0396542,0.00655402,-1.74261,-0.0279805,0.0347469,0.372215,-0.0639981,-0.093108,-0.080927,-0.146697,0.423026,0.171274,-0.226869,0,0,0,0,0,0,0,-0.460475,0.0439884,0.00874285,-1.73593,-0.0522533,1.59565,1.16942,-0.164571,-0.0347974,-0.192007,-0.119157,0.460054,0.0675361,-0.107297,3.09803,-37.2914,2.93672,26.4313,1.61926,2.44256,-0.304764,-2.5309,0.410903,-3.09314,0.925669,-0.496621,-0.269175,-0.208588,0.785891,-0.295067,-1.24921,0.532265,-0.0257838,-0.257334,
