PerkyPenguin/Analysis-on-Approximated-Derivatives/Code_and_Data/PaperData/Real_Robot/Scene_2/contact_change/7/trajectory.csv
Commanded Joint 0 Position,Commanded Joint 1 Position,Commanded Joint 2 Position,Commanded Joint 3 Position,Commanded Joint 4 Position,Commanded Joint 5 Position,Commanded Joint 6 Position,Commanded Joint 0 Velocity,Commanded Joint 1 Velocity,Commanded Joint 2 Velocity,Commanded Joint 3 Velocity,Commanded Joint 4 Velocity,Commanded Joint 5 Velocity,Commanded Joint 6 Velocity,Commanded Joint 0 Torque,Commanded Joint 1 Torque,Commanded Joint 2 Torque,Commanded Joint 3 Torque,Commanded Joint 4 Torque,Commanded Joint 5 Torque,Commanded Joint 6 Torque,Actual Joint 0 Position,Actual Joint 1 Position,Actual Joint 2 Position,Actual Joint 3 Position,Actual Joint 4 Position,Actual Joint 5 Position,Actual Joint 6 Position,Actual Joint 0 Velocity,Actual Joint 1 Velocity,Actual Joint 2 Velocity,Actual Joint 3 Velocity,Actual Joint 4 Velocity,Actual Joint 5 Velocity,Actual Joint 6 Velocity,Actual Joint 0 Torque,Actual Joint 1 Torque,Actual Joint 2 Torque,Actual Joint 3 Torque,Actual Joint 4 Torque,Actual Joint 5 Torque,Actual Joint 6 Torque,EE ext force 0,EE ext force 1,EE ext force 2,EE ext force 3,EE ext force 4,EE ext force 5,joint ext torque 0,joint ext torque 1,joint ext torque 2,joint ext torque 3,joint ext torque 4,joint ext torque 5,joint ext torque 6,
0.0223776,-0.0546069,0.51216,-1.55807,0.0466737,-0.0117926,0.532081,0.011251,0.0304834,0.0156313,-0.144449,-0.0753816,0.194037,-0.00127017,0,0,0,0,0,0,0,0.022292,-0.0547388,0.512044,-1.55663,0.0472974,1.5571,1.3175,-0.000524,0.000911975,-0.000742391,0.000872264,0.00507527,-0.000183147,-0.0010879,0.25745,-27.4565,-0.76079,26.7764,0.788876,3.08617,0.0980684,1.43352,1.41599,1.53208,-0.659297,0.922752,0.185537,0.18617,0.449079,0.194517,0.0468951,0.255246,-0.328778,0.0747719,
0.0224363,-0.0544043,0.51224,-1.55869,0.0462991,-0.0109817,0.532075,0.014674,0.0506495,0.0198483,-0.15516,-0.0936572,0.20273,-0.00135514,0,0,0,0,0,0,0,0.022292,-0.0547388,0.512044,-1.55663,0.0472974,1.5571,1.3175,-0.000524,0.000911975,-0.000742391,0.000872264,0.00507527,-0.000183147,-0.0010879,0.25745,-27.4565,-0.76079,26.7764,0.788876,3.08617,0.0980684,1.43352,1.41599,1.53208,-0.659297,0.922752,0.185537,0.18617,0.449079,0.194517,0.0468951,0.255246,-0.328778,0.0747719,
0.0222868,-0.0547324,0.512039,-1.55662,0.047338,-0.0136932,0.532098,-0.000203197,0.000255089,-0.000162003,4.74575e-05,0.00145582,0.000279929,8.68062e-06,0,0,0,0,0,0,0,0.022292,-0.0547388,0.512044,-1.55663,0.0472974,1.5571,1.3175,-0.000524,0.000911975,-0.000742391,0.000872264,0.00507527,-0.000183147,-0.0010879,0.25745,-27.4565,-0.76079,26.7764,0.788876,3.08617,0.0980684,1.4638,1.46596,1.53993,-0.689783,0.94554,0.198284,0.197585,0.462043,0.209269,0.0451327,0.261585,-0.328366,0.0764128,
0.0222861,-0.0547316,0.512039,-1.55662,0.0473421,-0.0136924,0.532098,-0.000154712,0.000188454,-0.000102526,2.50749e-05,0.00102506,0.000211952,6.20951e-06,0,0,0,0,0,0,0,0.0222949,-0.054744,0.512045,-1.55664,0.047282,1.5571,1.3175,-0.00131546,-0.000226738,-0.000638441,-0.00498274,0.0094829,-5.31541e-05,0.00130612,0.25745,-27.3811,-0.76079,26.7526,0.855709,3.09258,0.050461,1.4638,1.46596,1.53993,-0.689783,0.94554,0.198284,0.197585,0.462043,0.209269,0.0451327,0.261585,-0.328366,0.0764128,
0.0222857,-0.0547311,0.512038,-1.55662,0.0473449,-0.0136918,0.532098,-0.00012017,0.000130504,-5.92895e-05,1.31954e-05,0.00070613,0.00014199,4.41854e-06,0,0,0,0,0,0,0,0.0222949,-0.054744,0.512045,-1.55664,0.047282,1.5571,1.3175,-0.00131546,-0.000226738,-0.000638441,-0.00498274,0.0094829,-5.31541e-05,0.00130612,0.25745,-27.3811,-0.76079,26.7526,0.855709,3.09258,0.050461,1.44732,1.32621,1.4677,-0.600873,0.934401,0.137215,0.137279,0.455596,0.145196,0.0478073,0.247522,-0.305947,0.077488,
0.0222853,-0.0547308,0.512038,-1.55662,0.0473468,-0.0136915,0.532098,-9.5566e-05,7.97159e-05,-2.77156e-05,7.61593e-06,0.00046974,7.479e-05,3.19691e-06,0,0,0,0,0,0,0,0.0222949,-0.054744,0.512045,-1.55664,0.047282,1.5571,1.3175,-0.00131546,-0.000226738,-0.000638441,-0.00498274,0.0094829,-5.31541e-05,0.00130612,0.25745,-27.3811,-0.76079,26.7526,0.855709,3.09258,0.050461,0.21821,0.567392,0.824533,-0.18551,0.23709,0.137667,0.134312,0.163962,0.140546,-0.039876,0.23648,-0.303219,0.0771421,
0.022285,-0.0547306,0.512038,-1.55662,0.047348,-0.0136915,0.532098,-7.79666e-05,3.5137e-05,-4.45317e-06,5.99263e-06,0.000294162,1.25206e-05,2.3935e-06,0,0,0,0,0,0,0,0.0222949,-0.054744,0.512045,-1.55664,0.047282,1.5571,1.3175,-0.00131546,-0.000226738,-0.000638441,-0.00498274,0.0094829,-5.31541e-05,0.00130612,0.25745,-27.3811,-0.76079,26.7526,0.855709,3.09258,0.050461,0.21821,0.567392,0.824533,-0.18551,0.23709,0.137667,0.134312,0.163962,0.140546,-0.039876,0.23648,-0.303219,0.0771421,
0.0222847,-0.0547307,0.512038,-1.55662,0.0473486,-0.0136917,0.532098,-6.5273e-05,-3.99131e-06,1.29019e-05,6.86545e-06,0.000163441,-4.39254e-05,1.88409e-06,0,0,0,0,0,0,0,0.0222949,-0.054744,0.512045,-1.55664,0.047282,1.5571,1.3175,-0.00131546,-0.000226738,-0.000638441,-0.00498274,0.0094829,-5.31541e-05,0.00130612,0.25745,-27.3811,-0.76079,26.7526,0.855709,3.09258,0.050461,0.566305,1.14998,0.355747,-0.720195,0.658019,0.30204,0.293473,0.476344,0.327759,-0.24975,0.243585,-0.277341,0.0776141,
0.0312762,-0.0545867,0.507632,-1.55865,0.0386251,-0.00404184,0.555787,0.28652,-0.00339195,-0.0729643,-0.121264,-0.426449,0.659845,1.1993,0,0,0,0,0,0,0,0.0222793,-0.0548637,0.512024,-1.55731,0.0472068,1.55796,1.3175,-0.00298979,-0.00132112,-0.00322181,-0.00370862,0.00212719,0.0068292,0.0011613,0.435978,-27.758,-0.510851,27.3279,1.17981,3.35808,0.050461,0.566305,1.14998,0.355747,-0.720195,0.658019,0.30204,0.293473,0.476344,0.327759,-0.24975,0.243585,-0.277341,0.0776141,
0.0245386,-0.0546562,0.510438,-1.55961,0.0420852,0.0081941,0.571498,-0.0315001,0.00951901,-0.00605818,0.00881296,-0.0266858,0.273135,0.283061,0,0,0,0,0,0,0,0.0222793,-0.0548637,0.512024,-1.55731,0.0472068,1.55796,1.3175,-0.00298979,-0.00132112,-0.00322181,-0.00370862,0.00212719,0.0068292,0.0011613,0.435978,-27.758,-0.510851,27.3279,1.17981,3.35808,0.050461,1.20072,1.52029,0.386043,-0.972757,1.08729,0.289847,0.279811,0.697104,0.323737,-0.270659,0.241098,-0.231844,0.0780505,
0.0244147,-0.054626,0.51041,-1.55957,0.0419923,0.00916657,0.572499,-0.0309535,0.00754683,-0.00700956,0.00902555,-0.0232148,0.243117,0.250438,0,0,0,0,0,0,0,0.0222793,-0.0548637,0.512024,-1.55731,0.0472068,1.55796,1.3175,-0.00298979,-0.00132112,-0.00322181,-0.00370862,0.00212719,0.0068292,0.0011613,0.435978,-27.758,-0.510851,27.3279,1.17981,3.35808,0.050461,1.20072,1.52029,0.386043,-0.972757,1.08729,0.289847,0.279811,0.697104,0.323737,-0.270659,0.241098,-0.231844,0.0780505,
0.0227082,-0.0547048,0.511448,-1.55945,0.0425688,0.00924321,0.569333,-0.426648,-0.0196799,0.259491,0.029445,0.144116,0.0191609,-0.791608,0,0,0,0,0,0,0,0.0222793,-0.0548637,0.512024,-1.55731,0.0472068,1.55796,1.3175,-0.00298979,-0.00132112,-0.00322181,-0.00370862,0.00212719,0.0068292,0.0011613,0.435978,-27.758,-0.510851,27.3279,1.17981,3.35808,0.050461,1.22067,1.309,0.987445,-0.636407,0.836918,0.182339,0.170126,0.434143,0.204114,0.0140171,0.249432,-0.18116,0.0844784,
0.0219809,-0.0547104,0.511569,-1.55916,0.0430321,0.00826488,0.564655,-0.181814,-0.00142149,0.0300506,0.0738575,0.115836,-0.244583,-1.16953,0,0,0,0,0,0,0,0.0222793,-0.0548637,0.512024,-1.55731,0.0472068,1.55796,1.3175,-0.00298979,-0.00132112,-0.00322181,-0.00370862,0.00212719,0.0068292,0.0011613,0.435978,-27.758,-0.510851,27.3279,1.17981,3.35808,0.050461,0.799843,1.47959,0.349241,-0.960294,0.776826,0.318121,0.337969,0.521454,0.323552,-0.232829,0.217363,-0.218294,0.144088,
0.021698,-0.0546807,0.511373,-1.55878,0.0433253,0.00638502,0.559869,-0.070717,0.00744452,-0.048801,0.0949885,0.0732876,-0.469965,-1.19643,0,0,0,0,0,0,0,0.0222793,-0.0548637,0.512024,-1.55731,0.0472068,1.55796,1.3175,-0.00298979,-0.00132112,-0.00322181,-0.00370862,0.00212719,0.0068292,0.0011613,0.435978,-27.758,-0.510851,27.3279,1.17981,3.35808,0.050461,0.799843,1.47959,0.349241,-0.960294,0.776826,0.318121,0.337969,0.521454,0.323552,-0.232829,0.217363,-0.218294,0.144088,
0.0223673,-0.0545832,0.510588,-1.55836,0.0431751,0.00383208,0.555091,0.167312,0.0243764,-0.196418,0.103184,-0.0375585,-0.638236,-1.19448,0,0,0,0,0,0,0,0.0228359,-0.0549058,0.511697,-1.55764,0.0464747,1.55905,1.32011,0.0194881,0.000887838,-0.00882703,-0.0171347,-0.0399667,0.0857292,0.20968,-0.0956386,-27.2066,-1.28844,26.951,1.12487,3.72887,0.460617,-0.248131,1.37591,0.405546,-0.85185,-0.0829959,0.505327,0.550091,0.00966003,0.483479,-0.0604976,0.206152,-0.171656,0.204981,
0.025517,-0.0549318,0.511341,-1.55827,0.00563599,-0.0220967,0.57102,-0.0202149,-0.00470013,0.0045214,0.00992032,-1.1285,-0.544703,0.273154,0,0,0,0,0,0,0,0.0228359,-0.0549058,0.511697,-1.55764,0.0464747,1.55905,1.32011,0.0194881,0.000887838,-0.00882703,-0.0171347,-0.0399667,0.0857292,0.20968,-0.0956386,-27.2066,-1.28844,26.951,1.12487,3.72887,0.460617,-0.248131,1.37591,0.405546,-0.85185,-0.0829959,0.505327,0.550091,0.00966003,0.483479,-0.0604976,0.206152,-0.171656,0.204981,
0.0254846,-0.0550035,0.511496,-1.55619,0.00536381,-0.0498833,0.502953,0.337829,0.00387319,-0.13688,-0.0125746,-1.21949,-1.09308,0.221843,0,0,0,0,0,0,0,0.0228359,-0.0549058,0.511697,-1.55764,0.0464747,1.55905,1.32011,0.0194881,0.000887838,-0.00882703,-0.0171347,-0.0399667,0.0857292,0.20968,-0.0956386,-27.2066,-1.28844,26.951,1.12487,3.72887,0.460617,1.24533,2.07528,0.416994,-1.31323,0.975365,0.381364,0.397373,0.573554,0.399593,-0.138707,0.227203,-0.0775118,0.223683,
0.0280191,-0.05493,0.510087,-1.55636,0.000485789,-0.0540686,0.507454,0.633625,0.0183558,-0.352202,-0.0412943,-1.21951,-1.04632,1.12527,0,0,0,0,0,0,0,0.0228359,-0.0549058,0.511697,-1.55764,0.0464747,1.55905,1.32011,0.0194881,0.000887838,-0.00882703,-0.0171347,-0.0399667,0.0857292,0.20968,-0.0956386,-27.2066,-1.28844,26.951,1.12487,3.72887,0.460617,1.24533,2.07528,0.416994,-1.31323,0.975365,0.381364,0.397373,0.573554,0.399593,-0.138707,0.227203,-0.0775118,0.223683,
0.0263603,-0.0551113,0.511906,-1.5566,-0.00335329,-0.0581327,0.506718,-0.414699,-0.0453069,0.454777,-0.0606021,-0.959769,-1.01604,-0.184039,0,0,0,0,0,0,0,0.0228359,-0.0549058,0.511697,-1.55764,0.0464747,1.55905,1.32011,0.0194881,0.000887838,-0.00882703,-0.0171347,-0.0399667,0.0857292,0.20968,-0.0956386,-27.2066,-1.28844,26.951,1.12487,3.72887,0.460617,1.93102,1.86249,0.79051,-1.07159,1.31092,0.170661,0.136999,0.675966,0.227161,-0.0199667,0.203466,-0.0450208,0.141263,
0.0268686,-0.0551633,0.511786,-1.55677,-0.00761844,-0.0620705,0.509243,0.127058,-0.0130216,-0.0299858,-0.0409983,-1.06629,-0.984448,0.631392,0,0,0,0,0,0,0,0.0225706,-0.0548627,0.512091,-1.55713,0.0419784,1.55741,1.30911,0.176692,-0.00134251,-0.110018,0.0288977,-0.498776,-0.237233,-0.107398,1.63013,-27.6073,-0.33629,24.0628,-0.585331,1.88592,-0.00996382,3.39942,1.64016,1.71261,-0.71616,1.99888,-0.272651,-0.29656,0.869701,-0.24066,0.247432,0.135712,0.00576336,0.0665965,
0.0291804,-0.0550786,0.510395,-1.55688,-0.0123989,-0.0660233,0.513809,0.577952,0.0211729,-0.34766,-0.0297049,-1.19511,-0.988183,1.14142,0,0,0,0,0,0,0,0.0225706,-0.0548627,0.512091,-1.55713,0.0419784,1.55741,1.30911,0.176692,-0.00134251,-0.110018,0.0288977,-0.498776,-0.237233,-0.107398,1.63013,-27.6073,-0.33629,24.0628,-0.585331,1.88592,-0.00996382,3.39942,1.64016,1.71261,-0.71616,1.99888,-0.272651,-0.29656,0.869701,-0.24066,0.247432,0.135712,0.00576336,0.0665965,
0.0198092,-0.0532475,0.505138,-1.55967,0.0104679,-0.0531555,0.500984,0.170451,0.089269,-0.312953,-0.0796496,-1.23641,-1.22385,0.145141,0,0,0,0,0,0,0,0.0225706,-0.0548627,0.512091,-1.55713,0.0419784,1.55741,1.30911,0.176692,-0.00134251,-0.110018,0.0288977,-0.498776,-0.237233,-0.107398,1.63013,-27.6073,-0.33629,24.0628,-0.585331,1.88592,-0.00996382,3.50066,1.98358,2.2964,-0.988891,1.87716,-0.105023,-0.0953326,0.720193,-0.0965145,0.348868,0.0187922,-0.0905461,0.0205158,
0.0300385,-0.0533876,0.502774,-1.559,-0.00329804,-0.0595542,0.532486,0.562757,0.0721055,-0.586068,-0.128332,-1.24066,-1.19769,0.253102,0,0,0,0,0,0,0,0.0225706,-0.0548627,0.512091,-1.55713,0.0419784,1.55741,1.30911,0.176692,-0.00134251,-0.110018,0.0288977,-0.498776,-0.237233,-0.107398,1.63013,-27.6073,-0.33629,24.0628,-0.585331,1.88592,-0.00996382,2.44575,1.24199,2.61919,-0.911918,1.125,-0.158675,-0.114988,0.326168,-0.173413,0.172938,-0.380691,-0.524095,0.0174854,
0.0293772,-0.053109,0.502118,-1.5595,-0.00689378,-0.0644785,0.528042,-0.165336,0.0696399,-0.163947,-0.125862,-0.898935,-1.23108,-1.11101,0,0,0,0,0,0,0,0.0225706,-0.0548627,0.512091,-1.55713,0.0419784,1.55741,1.30911,0.176692,-0.00134251,-0.110018,0.0288977,-0.498776,-0.237233,-0.107398,1.63013,-27.6073,-0.33629,24.0628,-0.585331,1.88592,-0.00996382,2.44575,1.24199,2.61919,-0.911918,1.125,-0.158675,-0.114988,0.326168,-0.173413,0.172938,-0.380691,-0.524095,0.0174854,
0.0274185,-0.0528765,0.50216,-1.55996,-0.0100987,-0.0695605,0.52323,-0.489665,0.0581373,0.0104496,-0.114296,-0.801221,-1.2705,-1.20305,0,0,0,0,0,0,0,0.0225706,-0.0548627,0.512091,-1.55713,0.0419784,1.55741,1.30911,0.176692,-0.00134251,-0.110018,0.0288977,-0.498776,-0.237233,-0.107398,1.63013,-27.6073,-0.33629,24.0628,-0.585331,1.88592,-0.00996382,1.15359,2.55488,2.15496,-2.35678,0.473651,0.756492,0.83493,0.141142,0.76224,-0.241077,-0.587466,-0.829228,0.0476161,
0.0286295,-0.0523147,0.499915,-1.56017,-0.0146342,-0.074885,0.526232,0.302743,0.14044,-0.561241,-0.0534345,-1.13389,-1.33111,0.750573,0,0,0,0,0,0,0,0.0318062,-0.0548151,0.505816,-1.55662,0.0201553,1.54765,1.31554,0.307519,-0.00190322,-0.253154,-0.00174399,-0.738812,-0.375346,0.262529,-3.06317,-26.2108,-4.73601,23.9874,-1.29395,1.40893,0.259201,1.15359,2.55488,2.15496,-2.35678,0.473651,0.756492,0.83493,0.141142,0.76224,-0.241077,-0.587466,-0.829228,0.0476161,
0.0308131,-0.0532854,0.496143,-1.56308,-0.0185579,-0.0781695,0.521954,0.545893,-0.242665,-0.942952,-0.728157,-0.980918,-0.821125,-1.06951,0,0,0,0,0,0,0,0.0318062,-0.0548151,0.505816,-1.55662,0.0201553,1.54765,1.31554,0.307519,-0.00190322,-0.253154,-0.00174399,-0.738812,-0.375346,0.262529,-3.06317,-26.2108,-4.73601,23.9874,-1.29395,1.40893,0.259201,-0.228675,3.26386,2.47431,-2.88283,-0.672754,1.41412,1.50015,-0.529287,1.42952,-0.0703621,-0.627594,-0.879639,0.0932841,
0.0261642,-0.0530381,0.497234,-1.5627,0.00238264,-0.0577264,0.528725,0.422501,0.105375,-0.73034,-0.212118,-1.14259,-1.16844,0.179505,0,0,0,0,0,0,0,0.0318062,-0.0548151,0.505816,-1.55662,0.0201553,1.54765,1.31554,0.307519,-0.00190322,-0.253154,-0.00174399,-0.738812,-0.375346,0.262529,-3.06317,-26.2108,-4.73601,23.9874,-1.29395,1.40893,0.259201,-0.228675,3.26386,2.47431,-2.88283,-0.672754,1.41412,1.50015,-0.529287,1.42952,-0.0703621,-0.627594,-0.879639,0.0932841,
0.0280767,-0.0546169,0.489798,-1.56563,-0.0191734,-0.0692875,0.519193,-0.295276,0.0916119,-0.308959,-0.151954,-1.00865,-1.27652,-0.140249,0,0,0,0,0,0,0,0.0318062,-0.0548151,0.505816,-1.55662,0.0201553,1.54765,1.31554,0.307519,-0.00190322,-0.253154,-0.00174399,-0.738812,-0.375346,0.262529,-3.06317,-26.2108,-4.73601,23.9874,-1.29395,1.40893,0.259201,1.86108,1.55005,3.32103,-1.64526,0.64531,0.0360881,0.175524,0.0712379,-0.0341286,-0.0588084,-0.845363,-1.06324,0.0910241,
0.0268502,-0.054212,0.488518,-1.56625,-0.0233057,-0.0744381,0.518661,-0.306641,0.10122,-0.319986,-0.15442,-1.03308,-1.28764,-0.133089,0,0,0,0,0,0,0,0.0318062,-0.0548151,0.505816,-1.55662,0.0201553,1.54765,1.31554,0.307519,-0.00190322,-0.253154,-0.00174399,-0.738812,-0.375346,0.262529,-3.06317,-26.2108,-4.73601,23.9874,-1.29395,1.40893,0.259201,5.61409,0.427038,2.96282,-1.15392,3.7347,-1.49503,-1.28178,1.90979,-1.64251,-0.742864,-1.04444,-1.30281,0.0375127,
0.0255859,-0.0537724,0.487198,-1.56687,-0.0275321,-0.0796254,0.518114,-0.316058,0.109913,-0.330111,-0.156382,-1.05661,-1.29683,-0.136793,0,0,0,0,0,0,0,0.0388551,-0.0555031,0.500655,-1.55735,-0.00179133,1.53355,1.30819,0.283755,-0.0792745,-0.200783,-0.0732238,-0.695415,-0.438389,-0.323592,-2.68231,-25.5879,-4.83519,22.0712,-0.890201,0.904471,-0.190323,5.61409,0.427038,2.96282,-1.15392,3.7347,-1.49503,-1.28178,1.90979,-1.64251,-0.742864,-1.04444,-1.30281,0.0375127,
0.024287,-0.0533009,0.485845,-1.56751,-0.0318483,-0.0848395,0.517599,-0.324733,0.117877,-0.338264,-0.158683,-1.07905,-1.30354,-0.128733,0,0,0,0,0,0,0,0.0388551,-0.0555031,0.500655,-1.55735,-0.00179133,1.53355,1.30819,0.283755,-0.0792745,-0.200783,-0.0732238,-0.695415,-0.438389,-0.323592,-2.68231,-25.5879,-4.83519,22.0712,-0.890201,0.904471,-0.190323,4.28223,-1.2522,1.63871,-0.316142,3.33241,-1.81886,-1.61618,1.94255,-1.97326,-1.19452,-1.09014,-1.4622,-0.0300449,
0.0229601,-0.0528006,0.484461,-1.56815,-0.0362481,-0.0900772,0.517062,-0.331723,0.12507,-0.346079,-0.160115,-1.09995,-1.30942,-0.134148,0,0,0,0,0,0,0,0.0388551,-0.0555031,0.500655,-1.55735,-0.00179133,1.53355,1.30819,0.283755,-0.0792745,-0.200783,-0.0732238,-0.695415,-0.438389,-0.323592,-2.68231,-25.5879,-4.83519,22.0712,-0.890201,0.904471,-0.190323,4.28223,-1.2522,1.63871,-0.316142,3.33241,-1.81886,-1.61618,1.94255,-1.97326,-1.19452,-1.09014,-1.4622,-0.0300449,
0.0216063,-0.052274,0.483052,-1.56879,-0.0407258,-0.0953305,0.516565,-0.338446,0.131645,-0.352058,-0.161973,-1.11943,-1.31333,-0.12432,0,0,0,0,0,0,0,0.0388551,-0.0555031,0.500655,-1.55735,-0.00179133,1.53355,1.30819,0.283755,-0.0792745,-0.200783,-0.0732238,-0.695415,-0.438389,-0.323592,-2.68231,-25.5879,-4.83519,22.0712,-0.890201,0.904471,-0.190323,-1.55621,-3.06408,2.05723,1.16887,-1.09188,-0.93258,-0.740655,-0.574879,-1.12106,-0.520185,-0.985258,-1.58938,-0.0914874,
0.0240695,-0.0539472,0.485829,-1.56846,-0.0140439,-0.0676656,0.516367,-0.430533,0.126841,-0.44813,-0.221317,-0.900416,-1.24581,-0.214262,0,0,0,0,0,0,0,0.0388551,-0.0555031,0.500655,-1.55735,-0.00179133,1.53355,1.30819,0.283755,-0.0792745,-0.200783,-0.0732238,-0.695415,-0.438389,-0.323592,-2.68231,-25.5879,-4.83519,22.0712,-0.890201,0.904471,-0.190323,-1.55621,-3.06408,2.05723,1.16887,-1.09188,-0.93258,-0.740655,-0.574879,-1.12106,-0.520185,-0.985258,-1.58938,-0.0914874,
0.0249566,-0.0545992,0.486054,-1.56466,-0.0342242,-0.084778,0.513147,-0.427857,0.116475,-0.443226,-0.186444,-0.910039,-1.2123,-0.173559,0,0,0,0,0,0,0,0.0388551,-0.0555031,0.500655,-1.55735,-0.00179133,1.53355,1.30819,0.283755,-0.0792745,-0.200783,-0.0732238,-0.695415,-0.438389,-0.323592,-2.68231,-25.5879,-4.83519,22.0712,-0.890201,0.904471,-0.190323,0.157892,-0.443809,1.61145,-0.800696,0.502718,-0.193804,0.0326917,0.49954,-0.357927,-1.0145,-0.806575,-1.62628,-0.138016,
0.0231993,-0.0540823,0.484225,-1.56542,-0.0380206,-0.0896912,0.512371,-0.439326,0.129241,-0.457111,-0.189586,-0.949109,-1.2283,-0.194082,0,0,0,0,0,0,0,0.044944,-0.056073,0.49511,-1.55924,-0.0251052,1.51687,1.30536,-0.0467592,-0.0327414,-0.00711565,-0.0621145,-0.682132,-0.567784,-0.00492491,-7.09393,-22.9894,-8.26293,24.5349,-1.0614,1.4016,-0.284622,0.157892,-0.443809,1.61145,-0.800696,0.502718,-0.193804,0.0326917,0.49954,-0.357927,-1.0145,-0.806575,-1.62628,-0.138016,
0.0213933,-0.0535179,0.482359,-1.56619,-0.0419627,-0.094648,0.511714,-0.451487,0.141105,-0.466567,-0.194481,-0.985502,-1.23919,-0.164187,0,0,0,0,0,0,0,0.044944,-0.056073,0.49511,-1.55924,-0.0251052,1.51687,1.30536,-0.0467592,-0.0327414,-0.00711565,-0.0621145,-0.682132,-0.567784,-0.00492491,-7.09393,-22.9894,-8.26293,24.5349,-1.0614,1.4016,-0.284622,0.369819,0.338976,2.2471,-1.14665,0.401665,0.124876,0.320818,0.330581,-0.00471869,-0.758666,-0.730311,-1.55152,-0.170919,
0.0195546,-0.0529112,0.480446,-1.56698,-0.0460355,-0.0996511,0.510938,-0.45969,0.151668,-0.478096,-0.196124,-1.01822,-1.25079,-0.193967,0,0,0,0,0,0,0,0.044944,-0.056073,0.49511,-1.55924,-0.0251052,1.51687,1.30536,-0.0467592,-0.0327414,-0.00711565,-0.0621145,-0.682132,-0.567784,-0.00492491,-7.09393,-22.9894,-8.26293,24.5349,-1.0614,1.4016,-0.284622,3.75953,1.48252,0.92843,-2.27716,3.43468,-0.288023,-0.110035,2.26523,-0.361648,-1.58018,-0.707271,-1.49784,-0.19303,
0.0176752,-0.052265,0.478509,-1.56778,-0.0502303,-0.104679,0.510328,-0.469834,0.161549,-0.484329,-0.200542,-1.0487,-1.25708,-0.152423,0,0,0,0,0,0,0,0.044944,-0.056073,0.49511,-1.55924,-0.0251052,1.51687,1.30536,-0.0467592,-0.0327414,-0.00711565,-0.0621145,-0.682132,-0.567784,-0.00492491,-7.09393,-22.9894,-8.26293,24.5349,-1.0614,1.4016,-0.284622,3.75953,1.48252,0.92843,-2.27716,3.43468,-0.288023,-0.110035,2.26523,-0.361648,-1.58018,-0.707271,-1.49784,-0.19303,
0.0157752,-0.0515846,0.47653,-1.56858,-0.0545321,-0.109744,0.509526,-0.475007,0.170088,-0.494676,-0.200322,-1.07545,-1.26619,-0.200597,0,0,0,0,0,0,0,0.044944,-0.056073,0.49511,-1.55924,-0.0251052,1.51687,1.30536,-0.0467592,-0.0327414,-0.00711565,-0.0621145,-0.682132,-0.567784,-0.00492491,-7.09393,-22.9894,-8.26293,24.5349,-1.0614,1.4016,-0.284622,2.00478,-0.100652,0.901805,-0.865312,2.0182,-0.484189,-0.342161,1.3926,-0.570976,-1.15553,-0.5702,-1.30364,-0.210356,
0.0202482,-0.0543055,0.481177,-1.56777,-0.0287292,-0.0830361,0.509903,-0.561067,0.150526,-0.580453,-0.254778,-0.833256,-1.18214,-0.236649,0,0,0,0,0,0,0,0.042558,-0.0572785,0.493124,-1.56144,-0.0451202,1.49659,1.30414,-0.0985555,-0.0134503,-0.0892901,-0.0696482,-0.62549,-0.685962,-0.0575864,-7.09393,-24.7112,-8.46129,24.761,-0.285953,2.02508,-0.270889,2.00478,-0.100652,0.901805,-0.865312,2.0182,-0.484189,-0.342161,1.3926,-0.570976,-1.15553,-0.5702,-1.30364,-0.210356,
0.0222235,-0.0540233,0.471889,-1.57115,-0.0763336,-0.123496,0.506063,-0.569872,0.160154,-0.576549,-0.22685,-0.901047,-1.19563,-0.108218,0,0,0,0,0,0,0,0.042558,-0.0572785,0.493124,-1.56144,-0.0451202,1.49659,1.30414,-0.0985555,-0.0134503,-0.0892901,-0.0696482,-0.62549,-0.685962,-0.0575864,-7.09393,-24.7112,-8.46129,24.761,-0.285953,2.02508,-0.270889,-1.74287,-1.76238,2.06721,0.964142,-1.3116,-0.175779,-0.0663132,-0.743486,-0.299504,-0.085569,-0.338684,-1.10528,-0.224119,
0.0199229,-0.0533275,0.469514,-1.57208,-0.0801125,-0.128315,0.505255,-0.575159,0.173943,-0.593612,-0.231571,-0.944736,-1.20475,-0.202023,0,0,0,0,0,0,0,0.042558,-0.0572785,0.493124,-1.56144,-0.0451202,1.49659,1.30414,-0.0985555,-0.0134503,-0.0892901,-0.0696482,-0.62549,-0.685962,-0.0575864,-7.09393,-24.7112,-8.46129,24.761,-0.285953,2.02508,-0.270889,-1.74287,-1.76238,2.06721,0.964142,-1.3116,-0.175779,-0.0663132,-0.743486,-0.299504,-0.085569,-0.338684,-1.10528,-0.224119,
0.0175816,-0.0525805,0.467103,-1.57302,-0.0840497,-0.133163,0.504485,-0.585319,0.186754,-0.602713,-0.235865,-0.984305,-1.2119,-0.192334,0,0,0,0,0,0,0,0.042558,-0.0572785,0.493124,-1.56144,-0.0451202,1.49659,1.30414,-0.0985555,-0.0134503,-0.0892901,-0.0696482,-0.62549,-0.685962,-0.0575864,-7.09393,-24.7112,-8.46129,24.761,-0.285953,2.02508,-0.270889,-0.504277,-1.31655,1.64883,0.609561,-0.316547,-0.299294,-0.205886,-0.152822,-0.397204,-0.252863,-0.319263,-0.974366,-0.240294,
0.0152067,-0.0517869,0.464659,-1.57398,-0.088129,-0.138036,0.503726,-0.593745,0.198391,-0.611172,-0.239,-1.01982,-1.21828,-0.189785,0,0,0,0,0,0,0,0.042558,-0.0572785,0.493124,-1.56144,-0.0451202,1.49659,1.30414,-0.0985555,-0.0134503,-0.0892901,-0.0696482,-0.62549,-0.685962,-0.0575864,-7.09393,-24.7112,-8.46129,24.761,-0.285953,2.02508,-0.270889,-1.2059,-0.305108,1.18285,-0.108823,-0.717411,0.371943,0.435776,-0.305435,0.323166,-0.284058,-0.199544,-0.842767,-0.253194,
0.0128021,-0.0509516,0.462185,-1.57494,-0.0923356,-0.142931,0.502981,-0.601149,0.208834,-0.61851,-0.241435,-1.05166,-1.22362,-0.186332,0,0,0,0,0,0,0,0.0385496,-0.0575781,0.488415,-1.56434,-0.0654395,1.47279,1.30184,-0.156295,-0.0149728,-0.202242,-0.102891,-0.595999,-0.773617,-0.0656074,-8.16113,-23.3385,-9.1873,24.3604,-0.426029,2.04522,-0.250748,-1.2059,-0.305108,1.18285,-0.108823,-0.717411,0.371943,0.435776,-0.305435,0.323166,-0.284058,-0.199544,-0.842767,-0.253194,
0.0103718,-0.0500789,0.459685,-1.57591,-0.0966563,-0.147843,0.502249,-0.607567,0.218153,-0.624884,-0.243286,-1.08016,-1.22801,-0.18298,0,0,0,0,0,0,0,0.0385496,-0.0575781,0.488415,-1.56434,-0.0654395,1.47279,1.30184,-0.156295,-0.0149728,-0.202242,-0.102891,-0.595999,-0.773617,-0.0656074,-8.16113,-23.3385,-9.1873,24.3604,-0.426029,2.04522,-0.250748,-1.27703,0.307655,0.851016,-0.464534,-0.635351,0.674399,0.710794,-0.195174,0.659507,-0.343411,-0.0316455,-0.751578,-0.260928,
0.0177303,-0.0531921,0.468545,-1.57389,-0.071838,-0.121686,0.502764,-0.684869,0.204122,-0.691287,-0.289908,-0.832032,-1.16272,-0.172405,0,0,0,0,0,0,0,0.0385496,-0.0575781,0.488415,-1.56434,-0.0654395,1.47279,1.30184,-0.156295,-0.0149728,-0.202242,-0.102891,-0.595999,-0.773617,-0.0656074,-8.16113,-23.3385,-9.1873,24.3604,-0.426029,2.04522,-0.250748,-1.27703,0.307655,0.851016,-0.464534,-0.635351,0.674399,0.710794,-0.195174,0.659507,-0.343411,-0.0316455,-0.751578,-0.260928,
0.0133479,-0.0527739,0.462611,-1.57577,-0.0955908,-0.147418,0.505276,-0.6661,0.211273,-0.682177,-0.264913,-0.895045,-1.16914,-0.219271,0,0,0,0,0,0,0,0.0385496,-0.0575781,0.488415,-1.56434,-0.0654395,1.47279,1.30184,-0.156295,-0.0149728,-0.202242,-0.102891,-0.595999,-0.773617,-0.0656074,-8.16113,-23.3385,-9.1873,24.3604,-0.426029,2.04522,-0.250748,-0.6134,0.517871,0.815831,-0.59202,-0.142975,0.592499,0.623717,0.0777105,0.585514,-0.389187,-0.0100023,-0.71161,-0.265656,
0.0106348,-0.0518758,0.459833,-1.57684,-0.0993442,-0.152132,0.504415,-0.678275,0.224528,-0.694416,-0.267667,-0.938346,-1.17844,-0.215086,0,0,0,0,0,0,0,0.0385496,-0.0575781,0.488415,-1.56434,-0.0654395,1.47279,1.30184,-0.156295,-0.0149728,-0.202242,-0.102891,-0.595999,-0.773617,-0.0656074,-8.16113,-23.3385,-9.1873,24.3604,-0.426029,2.04522,-0.250748,0.907332,0.0771056,-0.493735,-0.653226,1.42817,-0.00334161,0.019416,1.1469,0.00843632,-0.990524,-0.139213,-0.694288,-0.269363,
0.00787979,-0.0509302,0.457013,-1.57792,-0.103257,-0.156876,0.503571,-0.688748,0.236394,-0.704934,-0.269887,-0.978123,-1.18596,-0.210944,0,0,0,0,0,0,0,0.0385496,-0.0575781,0.488415,-1.56434,-0.0654395,1.47279,1.30184,-0.156295,-0.0149728,-0.202242,-0.102891,-0.595999,-0.773617,-0.0656074,-8.16113,-23.3385,-9.1873,24.3604,-0.426029,2.04522,-0.250748,0.907332,0.0771056,-0.493735,-0.653226,1.42817,-0.00334161,0.019416,1.1469,0.00843632,-0.990524,-0.139213,-0.694288,-0.269363,
0.00508894,-0.0499424,0.454158,-1.579,-0.107315,-0.161644,0.502744,-0.697713,0.24697,-0.713931,-0.271594,-1.01448,-1.19201,-0.206842,0,0,0,0,0,0,0,0.0321611,-0.0578674,0.481333,-1.56771,-0.0856358,1.4472,1.29948,-0.245941,-0.000622238,-0.240454,-0.10717,-0.635607,-0.823836,-0.0891515,-7.87945,-23.1401,-8.98497,24.1144,-0.951542,2.01226,-0.23793,-0.0421175,-0.235339,-0.607891,-0.473852,0.776903,0.10557,0.114374,0.807357,0.12674,-0.96416,-0.159689,-0.724529,-0.268947,
0.00226762,-0.048917,0.451271,-1.58009,-0.111505,-0.166431,0.501933,-0.70533,0.256349,-0.721571,-0.27281,-1.04758,-1.19683,-0.202777,0,0,0,0,0,0,0,0.0321611,-0.0578674,0.481333,-1.56771,-0.0856358,1.4472,1.29948,-0.245941,-0.000622238,-0.240454,-0.10717,-0.635607,-0.823836,-0.0891515,-7.87945,-23.1401,-8.98497,24.1144,-0.951542,2.01226,-0.23793,-0.0421175,-0.235339,-0.607891,-0.473852,0.776903,0.10557,0.114374,0.807357,0.12674,-0.96416,-0.159689,-0.724529,-0.268947,
-0.00641816,-0.0442292,0.444267,-1.58638,-0.118013,-0.174027,0.495667,-0.790489,0.325026,-0.782741,-0.33719,-1.06182,-1.18245,-0.253396,0,0,0,0,0,0,0,0.0321611,-0.0578674,0.481333,-1.56771,-0.0856358,1.4472,1.29948,-0.245941,-0.000622238,-0.240454,-0.10717,-0.635607,-0.823836,-0.0891515,-7.87945,-23.1401,-8.98497,24.1144,-0.951542,2.01226,-0.23793,-0.619274,-0.0303841,-0.393862,-0.550469,0.306594,0.34536,0.342723,0.527773,0.377984,-0.862491,-0.114268,-0.745155,-0.27303,
0.0118901,-0.051455,0.462371,-1.57834,-0.0943633,-0.145918,0.502039,-0.715032,0.257821,-0.705479,-0.32823,-0.856983,-1.14502,-0.282764,0,0,0,0,0,0,0,0.0321611,-0.0578674,0.481333,-1.56771,-0.0856358,1.4472,1.29948,-0.245941,-0.000622238,-0.240454,-0.10717,-0.635607,-0.823836,-0.0891515,-7.87945,-23.1401,-8.98497,24.1144,-0.951542,2.01226,-0.23793,-0.619274,-0.0303841,-0.393862,-0.550469,0.306594,0.34536,0.342723,0.527773,0.377984,-0.862491,-0.114268,-0.745155,-0.27303,
0.00399673,-0.0518418,0.453782,-1.58003,-0.117215,-0.172525,0.50171,-0.733334,0.235196,-0.723972,-0.293071,-0.889887,-1.10912,-0.230671,0,0,0,0,0,0,0,0.0321611,-0.0578674,0.481333,-1.56771,-0.0856358,1.4472,1.29948,-0.245941,-0.000622238,-0.240454,-0.10717,-0.635607,-0.823836,-0.0891515,-7.87945,-23.1401,-8.98497,24.1144,-0.951542,2.01226,-0.23793,-0.56603,-1.52492,-0.206307,0.468929,0.273522,-0.365152,-0.373992,0.462227,-0.355436,-0.809329,-0.258657,-0.826113,-0.274251,
0.00100228,-0.0508578,0.450824,-1.58123,-0.120921,-0.176799,0.500807,-0.748613,0.246015,-0.739567,-0.301521,-0.926647,-1.06861,-0.225895,0,0,0,0,0,0,0,0.0196633,-0.0572676,0.467945,-1.57356,-0.110254,1.41462,1.29501,-0.352349,0.0295392,-0.345946,-0.160863,-0.557277,-0.718933,-0.146744,-8.31189,-22.4181,-9.13573,22.0474,-1.13465,1.38878,-0.230606,-1.33173,-1.92091,-0.169984,0.627089,-0.347666,-0.345374,-0.359123,0.0951907,-0.331684,-0.749735,-0.408642,-0.8623,-0.276873,
-0.00204691,-0.0498337,0.44781,-1.58247,-0.124763,-0.180861,0.499922,-0.762298,0.256017,-0.753536,-0.308528,-0.960476,-1.01542,-0.221216,0,0,0,0,0,0,0,0.0196633,-0.0572676,0.467945,-1.57356,-0.110254,1.41462,1.29501,-0.352349,0.0295392,-0.345946,-0.160863,-0.557277,-0.718933,-0.146744,-8.31189,-22.4181,-9.13573,22.0474,-1.13465,1.38878,-0.230606,-1.33173,-1.92091,-0.169984,0.627089,-0.347666,-0.345374,-0.359123,0.0951907,-0.331684,-0.749735,-0.408642,-0.8623,-0.276873,
-0.00513894,-0.0487726,0.444741,-1.58372,-0.12873,-0.18467,0.499055,-0.773007,0.265267,-0.767128,-0.314027,-0.991824,-0.952378,-0.216598,0,0,0,0,0,0,0,0.0196633,-0.0572676,0.467945,-1.57356,-0.110254,1.41462,1.29501,-0.352349,0.0295392,-0.345946,-0.160863,-0.557277,-0.718933,-0.146744,-8.31189,-22.4181,-9.13573,22.0474,-1.13465,1.38878,-0.230606,-1.764,-1.24527,-0.903977,-0.0696793,-0.307962,0.0698982,0.0488088,0.286366,0.116106,-1.09276,-0.403416,-0.929135,-0.276731,
-0.00825905,-0.0476776,0.441618,-1.585,-0.132815,-0.188196,0.498207,-0.780029,0.27377,-0.780826,-0.318143,-1.02118,-0.881401,-0.212036,0,0,0,0,0,0,0,0.0196633,-0.0572676,0.467945,-1.57356,-0.110254,1.41462,1.29501,-0.352349,0.0295392,-0.345946,-0.160863,-0.557277,-0.718933,-0.146744,-8.31189,-22.4181,-9.13573,22.0474,-1.13465,1.38878,-0.230606,-1.764,-1.24527,-0.903977,-0.0696793,-0.307962,0.0698982,0.0488088,0.286366,0.116106,-1.09276,-0.403416,-0.929135,-0.276731,
0.00711294,-0.0513947,0.456819,-1.58105,-0.11371,-0.166882,0.499749,-0.711794,0.275596,-0.702415,-0.343875,-0.849967,-1.11589,-0.297666,0,0,0,0,0,0,0,0.0196633,-0.0572676,0.467945,-1.57356,-0.110254,1.41462,1.29501,-0.352349,0.0295392,-0.345946,-0.160863,-0.557277,-0.718933,-0.146744,-8.31189,-22.4181,-9.13573,22.0474,-1.13465,1.38878,-0.230606,-0.353229,-0.333149,-1.07133,-0.737484,0.845345,0.131662,0.115741,0.972869,0.192827,-1.31706,-0.354806,-0.920388,-0.275818,
-0.00746832,-0.0501859,0.441314,-1.58609,-0.140184,-0.194755,0.497637,-0.741251,0.253533,-0.732402,-0.33895,-0.886344,-0.726891,-0.246151,0,0,0,0,0,0,0,0.0196633,-0.0572676,0.467945,-1.57356,-0.110254,1.41462,1.29501,-0.352349,0.0295392,-0.345946,-0.160863,-0.557277,-0.718933,-0.146744,-8.31189,-22.4181,-9.13573,22.0474,-1.13465,1.38878,-0.230606,-0.522125,-1.04714,-1.05505,-0.283707,0.694119,-0.162778,-0.18932,0.87202,-0.103025,-1.28982,-0.45476,-0.942598,-0.272176,
-0.0104933,-0.0491263,0.438324,-1.58748,-0.143867,-0.197257,0.496671,-0.756245,0.264905,-0.747667,-0.345988,-0.920678,-0.62562,-0.241335,0,0,0,0,0,0,0,0.00711525,-0.0565497,0.45504,-1.57957,-0.127442,1.39412,1.29028,-0.407539,0.0393679,-0.424883,-0.195874,-0.543151,-0.575356,-0.119348,-7.1455,-23.9653,-7.93761,23.3646,-1.61164,1.43548,-0.230606,-0.522125,-1.04714,-1.05505,-0.283707,0.694119,-0.162778,-0.18932,0.87202,-0.103025,-1.28982,-0.45476,-0.942598,-0.272176,
-0.0135721,-0.0480258,0.435278,-1.58888,-0.147673,-0.199307,0.495732,-0.769703,0.275128,-0.761383,-0.351197,-0.9517,-0.512456,-0.234927,0,0,0,0,0,0,0,0.00711525,-0.0565497,0.45504,-1.57957,-0.127442,1.39412,1.29028,-0.407539,0.0393679,-0.424883,-0.195874,-0.543151,-0.575356,-0.119348,-7.1455,-23.9653,-7.93761,23.3646,-1.61164,1.43548,-0.230606,-1.70954,-2.1789,-1.21531,0.362272,-0.0866799,-0.421897,-0.459156,0.482236,-0.366628,-1.31586,-0.602769,-1.05648,-0.265222,
-0.0166977,-0.0468858,0.432185,-1.59029,-0.151594,-0.200945,0.494812,-0.781406,0.284998,-0.773307,-0.351803,-0.980248,-0.40947,-0.229985,0,0,0,0,0,0,0,0.00711525,-0.0565497,0.45504,-1.57957,-0.127442,1.39412,1.29028,-0.407539,0.0393679,-0.424883,-0.195874,-0.543151,-0.575356,-0.119348,-7.1455,-23.9653,-7.93761,23.3646,-1.61164,1.43548,-0.230606,-1.70954,-2.1789,-1.21531,0.362272,-0.0866799,-0.421897,-0.459156,0.482236,-0.366628,-1.31586,-0.602769,-1.05648,-0.265222,
-0.0198641,-0.0457099,0.42905,-1.59168,-0.155619,-0.202236,0.493911,-0.791578,0.293972,-0.7837,-0.348708,-1.00619,-0.322831,-0.225289,0,0,0,0,0,0,0,0.00711525,-0.0565497,0.45504,-1.57957,-0.127442,1.39412,1.29028,-0.407539,0.0393679,-0.424883,-0.195874,-0.543151,-0.575356,-0.119348,-7.1455,-23.9653,-7.93761,23.3646,-1.61164,1.43548,-0.230606,-0.231207,-1.19795,-1.13056,-0.284367,0.949045,-0.312045,-0.333623,1.02404,-0.254234,-1.38057,-0.570018,-0.978235,-0.263,
-0.0102636,-0.0475443,0.438516,-1.58942,-0.144065,-0.200821,0.493658,-0.751041,0.314703,-0.742856,-0.391448,-0.925751,-0.906326,-0.30035,0,0,0,0,0,0,0,0.00711525,-0.0565497,0.45504,-1.57957,-0.127442,1.39412,1.29028,-0.407539,0.0393679,-0.424883,-0.195874,-0.543151,-0.575356,-0.119348,-7.1455,-23.9653,-7.93761,23.3646,-1.61164,1.43548,-0.230606,-0.231207,-1.19795,-1.13056,-0.284367,0.949045,-0.312045,-0.333623,1.02404,-0.254234,-1.38057,-0.570018,-0.978235,-0.263,
-0.0244565,-0.0479043,0.423963,-1.59464,-0.162318,-0.190439,0.491886,-0.768683,0.26075,-0.7603,-0.335746,-0.931451,-0.0704688,-0.24747,0,0,0,0,0,0,0,-0.00779108,-0.054864,0.440133,-1.58678,-0.14511,1.3784,1.28645,-0.481303,0.0662639,-0.477589,-0.246865,-0.578529,-0.382349,-0.114648,-4.86432,-25.1634,-5.68816,25.257,-1.42212,2.3565,-0.170181,-0.645,-0.814454,-0.0457703,-0.183019,0.105797,-0.043337,-0.0754361,0.316406,0.0114729,-0.774585,-0.465037,-0.804236,-0.260024,
-0.0275738,-0.046824,0.420878,-1.59595,-0.166161,-0.190615,0.490944,-0.779322,0.27008,-0.771164,-0.326998,-0.960758,-0.0440245,-0.235436,0,0,0,0,0,0,0,-0.00779108,-0.054864,0.440133,-1.58678,-0.14511,1.3784,1.28645,-0.481303,0.0662639,-0.477589,-0.246865,-0.578529,-0.382349,-0.114648,-4.86432,-25.1634,-5.68816,25.257,-1.42212,2.3565,-0.170181,-2.04325,0.962941,1.1388,-1.10811,-1.45808,1.11189,1.08517,-0.787721,1.17754,-0.136729,-0.325892,-0.66174,-0.258771,
-0.0307308,-0.0457211,0.417753,-1.59724,-0.170105,-0.190671,0.490022,-0.789239,0.275728,-0.781423,-0.32266,-0.986062,-0.0140839,-0.230376,0,0,0,0,0,0,0,-0.00779108,-0.054864,0.440133,-1.58678,-0.14511,1.3784,1.28645,-0.481303,0.0662639,-0.477589,-0.246865,-0.578529,-0.382349,-0.114648,-4.86432,-25.1634,-5.68816,25.257,-1.42212,2.3565,-0.170181,-2.04325,0.962941,1.1388,-1.10811,-1.45808,1.11189,1.08517,-0.787721,1.17754,-0.136729,-0.325892,-0.66174,-0.258771,
-0.0339237,-0.044603,0.41459,-1.59852,-0.174139,-0.190606,0.489119,-0.798222,0.279514,-0.790728,-0.319615,-1.00856,0.0162727,-0.225886,0,0,0,0,0,0,0,-0.00779108,-0.054864,0.440133,-1.58678,-0.14511,1.3784,1.28645,-0.481303,0.0662639,-0.477589,-0.246865,-0.578529,-0.382349,-0.114648,-4.86432,-25.1634,-5.68816,25.257,-1.42212,2.3565,-0.170181,0.971885,-0.872485,0.591449,-0.0608957,0.891529,-0.415723,-0.430639,0.561076,-0.382281,-0.534555,-0.585948,-0.667009,-0.25339,
-0.0371458,-0.0434747,0.411391,-1.59979,-0.178255,-0.190421,0.488233,-0.805531,0.282095,-0.799592,-0.316896,-1.02893,0.0461901,-0.221514,0,0,0,0,0,0,0,-0.00779108,-0.054864,0.440133,-1.58678,-0.14511,1.3784,1.28645,-0.481303,0.0662639,-0.477589,-0.246865,-0.578529,-0.382349,-0.114648,-4.86432,-25.1634,-5.68816,25.257,-1.42212,2.3565,-0.170181,0.971885,-0.872485,0.591449,-0.0608957,0.891529,-0.415723,-0.430639,0.561076,-0.382281,-0.534555,-0.585948,-0.667009,-0.25339,
-0.0403727,-0.0423385,0.408148,-1.60105,-0.182451,-0.19012,0.487364,-0.806739,0.28403,-0.810975,-0.314056,-1.04904,0.0752022,-0.217168,0,0,0,0,0,0,0,-0.00779108,-0.054864,0.440133,-1.58678,-0.14511,1.3784,1.28645,-0.481303,0.0662639,-0.477589,-0.246865,-0.578529,-0.382349,-0.114648,-4.86432,-25.1634,-5.68816,25.257,-1.42212,2.3565,-0.170181,0.470465,0.502618,0.154785,-0.926684,0.691706,0.358338,0.339359,0.516895,0.415469,-0.590513,-0.370775,-0.543478,-0.251353,
-0.024199,-0.0463079,0.424182,-1.59616,-0.162839,-0.207655,0.48894,-0.766058,0.309826,-0.758054,-0.394751,-0.944155,-0.475344,-0.304758,0,0,0,0,0,0,0,-0.0237063,-0.0521839,0.423984,-1.59502,-0.164536,1.37047,1.28263,-0.528145,0.0954295,-0.519002,-0.259676,-0.636781,-0.116922,-0.11327,-4.43188,-26.3338,-5.18828,25.9552,-1.46424,2.98638,-0.177505,0.470465,0.502618,0.154785,-0.926684,0.691706,0.358338,0.339359,0.516895,0.415469,-0.590513,-0.370775,-0.543478,-0.251353,
-0.057579,-0.0421181,0.390514,-1.61012,-0.203701,-0.202337,0.48427,-0.792121,0.265939,-0.78559,-0.333851,-0.978453,0.115956,-0.246285,0,0,0,0,0,0,0,-0.0237063,-0.0521839,0.423984,-1.59502,-0.164536,1.37047,1.28263,-0.528145,0.0954295,-0.519002,-0.259676,-0.636781,-0.116922,-0.11327,-4.43188,-26.3338,-5.18828,25.9552,-1.46424,2.98638,-0.177505,0.157924,1.30888,0.0241719,-1.41735,0.375102,0.848523,0.824805,0.294276,0.92015,-0.451364,-0.306507,-0.345401,-0.247797,
-0.060763,-0.0410011,0.387339,-1.61137,-0.207721,-0.20199,0.483333,-0.796005,0.279253,-0.793811,-0.313094,-1.00489,0.0867135,-0.234283,0,0,0,0,0,0,0,-0.0237063,-0.0521839,0.423984,-1.59502,-0.164536,1.37047,1.28263,-0.528145,0.0954295,-0.519002,-0.259676,-0.636781,-0.116922,-0.11327,-4.43188,-26.3338,-5.18828,25.9552,-1.46424,2.98638,-0.177505,1.82552,-0.2226,-0.247706,-0.474549,1.60344,-0.209456,-0.231575,0.975526,-0.159223,-0.597702,-0.49569,-0.308971,-0.241895,
-0.0639563,-0.0398658,0.384121,-1.6126,-0.211825,-0.20165,0.482415,-0.798331,0.283816,-0.80445,-0.307703,-1.02617,0.0849781,-0.229352,0,0,0,0,0,0,0,-0.0237063,-0.0521839,0.423984,-1.59502,-0.164536,1.37047,1.28263,-0.528145,0.0954295,-0.519002,-0.259676,-0.636781,-0.116922,-0.11327,-4.43188,-26.3338,-5.18828,25.9552,-1.46424,2.98638,-0.177505,1.82552,-0.2226,-0.247706,-0.474549,1.60344,-0.209456,-0.231575,0.975526,-0.159223,-0.597702,-0.49569,-0.308971,-0.241895,
-0.0671636,-0.0387236,0.380875,-1.61383,-0.21601,-0.201257,0.481516,-0.801823,0.285564,-0.811534,-0.306816,-1.04612,0.0981712,-0.224879,0,0,0,0,0,0,0,-0.0237063,-0.0521839,0.423984,-1.59502,-0.164536,1.37047,1.28263,-0.528145,0.0954295,-0.519002,-0.259676,-0.636781,-0.116922,-0.11327,-4.43188,-26.3338,-5.18828,25.9552,-1.46424,2.98638,-0.177505,1.49913,1.00665,-0.556926,-1.26962,1.51189,0.463994,0.454935,0.974723,0.519148,-0.671537,-0.337265,-0.245561,-0.23849,
-0.0703848,-0.0375785,0.377614,-1.61506,-0.220273,-0.200769,0.480634,-0.805286,0.286268,-0.815252,-0.307185,-1.06584,0.122158,-0.22049,0,0,0,0,0,0,0,-0.0403427,-0.0489278,0.407139,-1.60318,-0.18525,1.36986,1.27857,-0.550368,0.114379,-0.562403,-0.270538,-0.689134,0.00865429,-0.165957,-3.97564,-27.3573,-4.86296,24.5627,-1.41571,1.83282,-0.250748,1.49913,1.00665,-0.556926,-1.26962,1.51189,0.463994,0.454935,0.974723,0.519148,-0.671537,-0.337265,-0.245561,-0.23849,
-0.0542487,-0.0420831,0.393793,-1.61041,-0.20007,-0.207831,0.482691,-0.779748,0.300395,-0.773213,-0.386921,-0.960461,-0.0292365,-0.30398,0,0,0,0,0,0,0,-0.0403427,-0.0489278,0.407139,-1.60318,-0.18525,1.36986,1.27857,-0.550368,0.114379,-0.562403,-0.270538,-0.689134,0.00865429,-0.165957,-3.97564,-27.3573,-4.86296,24.5627,-1.41571,1.83282,-0.250748,0.961056,0.604494,-0.812726,-0.97428,1.18245,0.38755,0.375645,0.826584,0.43643,-0.659902,-0.321402,-0.192527,-0.2358,
-0.0718222,-0.0397454,0.375991,-1.61732,-0.221808,-0.193141,0.481104,-0.791847,0.258682,-0.785874,-0.333573,-0.964925,0.360924,-0.250741,0,0,0,0,0,0,0,-0.0403427,-0.0489278,0.407139,-1.60318,-0.18525,1.36986,1.27857,-0.550368,0.114379,-0.562403,-0.270538,-0.689134,0.00865429,-0.165957,-3.97564,-27.3573,-4.86296,24.5627,-1.41571,1.83282,-0.250748,-0.539131,1.49654,-1.65294,-1.66242,0.519104,1.11537,1.09679,0.638516,1.18601,-0.919517,-0.20396,-0.210421,-0.235528,
-0.075025,-0.0386968,0.372811,-1.61865,-0.225748,-0.191545,0.480112,-0.800704,0.262155,-0.794962,-0.332673,-0.98504,0.39896,-0.24814,0,0,0,0,0,0,0,-0.0403427,-0.0489278,0.407139,-1.60318,-0.18525,1.36986,1.27857,-0.550368,0.114379,-0.562403,-0.270538,-0.689134,0.00865429,-0.165957,-3.97564,-27.3573,-4.86296,24.5627,-1.41571,1.83282,-0.250748,-0.539131,1.49654,-1.65294,-1.66242,0.519104,1.11537,1.09679,0.638516,1.18601,-0.919517,-0.20396,-0.210421,-0.235528,
-0.0782165,-0.0376329,0.369577,-1.61997,-0.229782,-0.189819,0.479127,-0.797887,0.26598,-0.808495,-0.329387,-1.00849,0.431548,-0.246185,0,0,0,0,0,0,0,-0.0403427,-0.0489278,0.407139,-1.60318,-0.18525,1.36986,1.27857,-0.550368,0.114379,-0.562403,-0.270538,-0.689134,0.00865429,-0.165957,-3.97564,-27.3573,-4.86296,24.5627,-1.41571,1.83282,-0.250748,0.87883,-1.14685,-1.40578,0.0504537,1.39512,-0.450182,-0.462162,1.08163,-0.421535,-0.912672,-0.494967,-0.282101,-0.231126,
-0.0814031,-0.0365333,0.366347,-1.62123,-0.233943,-0.188101,0.478193,-0.796639,0.274897,-0.807564,-0.314262,-1.0402,0.429562,-0.233584,0,0,0,0,0,0,0,-0.0572909,-0.0447831,0.389664,-1.61052,-0.207052,1.37101,1.27372,-0.564881,0.142302,-0.573208,-0.251598,-0.714814,0.0837315,-0.175216,-2.78546,-27.9802,-3.51012,24.2374,-0.908512,1.4547,-0.284622,0.87883,-1.14685,-1.40578,0.0504537,1.39512,-0.450182,-0.462162,1.08163,-0.421535,-0.912672,-0.494967,-0.282101,-0.231126,
-0.0845875,-0.0354226,0.363119,-1.62246,-0.238204,-0.186331,0.477278,-0.796106,0.277678,-0.80703,-0.30913,-1.06525,0.442257,-0.228807,0,0,0,0,0,0,0,-0.0572909,-0.0447831,0.389664,-1.61052,-0.207052,1.37101,1.27372,-0.564881,0.142302,-0.573208,-0.251598,-0.714814,0.0837315,-0.175216,-2.78546,-27.9802,-3.51012,24.2374,-0.908512,1.4547,-0.284622,1.2601,-0.623235,-0.580605,-0.16517,1.37092,-0.27555,-0.267711,0.925857,-0.265043,-0.663283,-0.447979,-0.305505,-0.234128,
-0.0877684,-0.0343099,0.359894,-1.62369,-0.242549,-0.184482,0.476379,-0.795234,0.278161,-0.806161,-0.307123,-1.08635,0.462383,-0.224622,0,0,0,0,0,0,0,-0.0572909,-0.0447831,0.389664,-1.61052,-0.207052,1.37101,1.27372,-0.564881,0.142302,-0.573208,-0.251598,-0.714814,0.0837315,-0.175216,-2.78546,-27.9802,-3.51012,24.2374,-0.908512,1.4547,-0.284622,1.2601,-0.623235,-0.580605,-0.16517,1.37092,-0.27555,-0.267711,0.925857,-0.265043,-0.663283,-0.447979,-0.305505,-0.234128,
-0.0748518,-0.0374612,0.372961,-1.6203,-0.226092,-0.197468,0.477457,-0.798525,0.301723,-0.792997,-0.38191,-0.991279,0.270096,-0.299719,0,0,0,0,0,0,0,-0.0572909,-0.0447831,0.389664,-1.61052,-0.207052,1.37101,1.27372,-0.564881,0.142302,-0.573208,-0.251598,-0.714814,0.0837315,-0.175216,-2.78546,-27.9802,-3.51012,24.2374,-0.908512,1.4547,-0.284622,-0.0833343,-0.153641,0.255575,-0.249835,0.049311,0.160206,0.168434,0.0560077,0.164219,-0.219559,-0.315774,-0.27092,-0.233206,
-0.0922479,-0.0348541,0.354827,-1.6258,-0.247924,-0.181078,0.475376,-0.785228,0.248815,-0.797232,-0.314292,-1.00177,0.508253,-0.246827,0,0,0,0,0,0,0,-0.0572909,-0.0447831,0.389664,-1.61052,-0.207052,1.37101,1.27372,-0.564881,0.142302,-0.573208,-0.251598,-0.714814,0.0837315,-0.175216,-2.78546,-27.9802,-3.51012,24.2374,-0.908512,1.4547,-0.284622,-1.85298,0.864623,-0.465449,-1.03931,-0.824416,0.956789,0.964515,-0.263668,0.976119,-0.459378,-0.24069,-0.319629,-0.234909,
-0.0953866,-0.0338458,0.351639,-1.62705,-0.252051,-0.178998,0.474395,-0.784678,0.252082,-0.797045,-0.311337,-1.03167,0.519942,-0.245044,0,0,0,0,0,0,0,-0.0572909,-0.0447831,0.389664,-1.61052,-0.207052,1.37101,1.27372,-0.564881,0.142302,-0.573208,-0.251598,-0.714814,0.0837315,-0.175216,-2.78546,-27.9802,-3.51012,24.2374,-0.908512,1.4547,-0.284622,-1.85298,0.864623,-0.465449,-1.03931,-0.824416,0.956789,0.964515,-0.263668,0.976119,-0.459378,-0.24069,-0.319629,-0.234909,
-0.0985087,-0.0328144,0.348468,-1.62826,-0.256305,-0.176888,0.473465,-0.780536,0.257847,-0.792781,-0.302738,-1.0637,0.527385,-0.23272,0,0,0,0,0,0,0,-0.07714,-0.0393977,0.369326,-1.6191,-0.231398,1.37884,1.2684,-0.633505,0.193661,-0.633627,-0.238519,-0.745164,0.331677,-0.12745,-2.37683,-29.6544,-3.08562,25.7092,-1.33057,1.80627,-0.244339,-1.59591,-1.39935,-0.294267,0.386047,-0.694303,-0.257647,-0.242219,-0.168596,-0.271215,-0.458992,-0.48051,-0.440018,-0.23074,
-0.101617,-0.0317745,0.345312,-1.62945,-0.26066,-0.174737,0.472552,-0.776998,0.259985,-0.789109,-0.298688,-1.08868,0.537837,-0.228146,0,0,0,0,0,0,0,-0.07714,-0.0393977,0.369326,-1.6191,-0.231398,1.37884,1.2684,-0.633505,0.193661,-0.633627,-0.238519,-0.745164,0.331677,-0.12745,-2.37683,-29.6544,-3.08562,25.7092,-1.33057,1.80627,-0.244339,-1.59591,-1.39935,-0.294267,0.386047,-0.694303,-0.257647,-0.242219,-0.168596,-0.271215,-0.458992,-0.48051,-0.440018,-0.23074,
-0.104713,-0.0307329,0.342167,-1.63064,-0.26506,-0.172556,0.471655,-0.774167,0.260391,-0.786114,-0.295404,-1.10009,0.545349,-0.224193,0,0,0,0,0,0,0,-0.07714,-0.0393977,0.369326,-1.6191,-0.231398,1.37884,1.2684,-0.633505,0.193661,-0.633627,-0.238519,-0.745164,0.331677,-0.12745,-2.37683,-29.6544,-3.08562,25.7092,-1.33057,1.80627,-0.244339,0.793375,-0.71493,-1.47893,-0.245838,1.56475,-0.242522,-0.214969,1.25289,-0.249558,-1.09404,-0.47441,-0.421389,-0.23059,
-0.0890546,-0.0349529,0.358174,-1.62603,-0.244164,-0.186937,0.474025,-0.793206,0.276653,-0.788267,-0.363773,-0.970123,0.402183,-0.299693,0,0,0,0,0,0,0,-0.07714,-0.0393977,0.369326,-1.6191,-0.231398,1.37884,1.2684,-0.633505,0.193661,-0.633627,-0.238519,-0.745164,0.331677,-0.12745,-2.37683,-29.6544,-3.08562,25.7092,-1.33057,1.80627,-0.244339,1.30285,-0.781294,-1.98815,-0.247895,2.10444,-0.312493,-0.280389,1.61495,-0.323028,-1.26349,-0.493929,-0.354974,-0.233385,
-0.109948,-0.0298293,0.336378,-1.63302,-0.270301,-0.169613,0.470966,-0.783447,0.245176,-0.796362,-0.310834,-0.997265,0.551798,-0.250771,0,0,0,0,0,0,0,-0.07714,-0.0393977,0.369326,-1.6191,-0.231398,1.37884,1.2684,-0.633505,0.193661,-0.633627,-0.238519,-0.745164,0.331677,-0.12745,-2.37683,-29.6544,-3.08562,25.7092,-1.33057,1.80627,-0.244339,1.30285,-0.781294,-1.98815,-0.247895,2.10444,-0.312493,-0.280389,1.61495,-0.323028,-1.26349,-0.493929,-0.354974,-0.233385,
-0.113096,-0.0288484,0.333178,-1.63425,-0.274188,-0.167393,0.469976,-0.787044,0.245207,-0.799948,-0.30933,-0.971869,0.554966,-0.247607,0,0,0,0,0,0,0,-0.103097,-0.0313824,0.342607,-1.62891,-0.262924,1.39713,1.26264,-0.624896,0.208213,-0.622822,-0.227325,-0.745827,0.484668,-0.134807,-1.11126,-31.1501,-1.4868,24.4873,-1.37268,1.35583,-0.204056,-0.480144,-1.29586,-1.86713,0.105576,0.727789,-0.326555,-0.300445,0.850132,-0.340729,-1.05171,-0.551201,-0.320559,-0.229678,
-0.116255,-0.0278706,0.329968,-1.63548,-0.277902,-0.165164,0.468994,-0.789533,0.24445,-0.802575,-0.307348,-0.928279,0.557373,-0.245392,0,0,0,0,0,0,0,-0.103097,-0.0313824,0.342607,-1.62891,-0.262924,1.39713,1.26264,-0.624896,0.208213,-0.622822,-0.227325,-0.745827,0.484668,-0.134807,-1.11126,-31.1501,-1.4868,24.4873,-1.37268,1.35583,-0.204056,-0.480144,-1.29586,-1.86713,0.105576,0.727789,-0.326555,-0.300445,0.850132,-0.340729,-1.05171,-0.551201,-0.320559,-0.229678,
-0.11941,-0.0268938,0.326759,-1.6367,-0.281439,-0.162933,0.468018,-0.788967,0.244208,-0.802356,-0.30377,-0.88432,0.55761,-0.244016,0,0,0,0,0,0,0,-0.103097,-0.0313824,0.342607,-1.62891,-0.262924,1.39713,1.26264,-0.624896,0.208213,-0.622822,-0.227325,-0.745827,0.484668,-0.134807,-1.11126,-31.1501,-1.4868,24.4873,-1.37268,1.35583,-0.204056,-0.278638,-2.11862,-2.32688,0.544221,1.06402,-0.766082,-0.738153,1.13294,-0.78673,-1.23547,-0.670767,-0.331846,-0.226964,
-0.122551,-0.0259074,0.323565,-1.63788,-0.284806,-0.160719,0.467089,-0.785071,0.246612,-0.798331,-0.294968,-0.841673,0.5536,-0.232219,0,0,0,0,0,0,0,-0.103097,-0.0313824,0.342607,-1.62891,-0.262924,1.39713,1.26264,-0.624896,0.208213,-0.622822,-0.227325,-0.745827,0.484668,-0.134807,-1.11126,-31.1501,-1.4868,24.4873,-1.37268,1.35583,-0.204056,-0.278638,-2.11862,-2.32688,0.544221,1.06402,-0.766082,-0.738153,1.13294,-0.78673,-1.23547,-0.670767,-0.331846,-0.226964,
-0.113451,-0.0279186,0.333241,-1.63582,-0.274383,-0.169356,0.467536,-0.813276,0.274523,-0.809691,-0.35287,-1.01131,0.525169,-0.295559,0,0,0,0,0,0,0,-0.103097,-0.0313824,0.342607,-1.62891,-0.262924,1.39713,1.26264,-0.624896,0.208213,-0.622822,-0.227325,-0.745827,0.484668,-0.134807,-1.11126,-31.1501,-1.4868,24.4873,-1.37268,1.35583,-0.204056,-0.492389,-0.040881,-3.50675,-0.834266,1.5385,0.340851,0.374398,1.59477,0.333425,-1.73595,-0.442914,-0.316307,-0.228122,
-0.138562,-0.0213772,0.306643,-1.64356,-0.295724,-0.144461,0.464316,-0.778232,0.222887,-0.792096,-0.295883,-0.457017,0.622462,-0.247125,0,0,0,0,0,0,0,-0.103097,-0.0313824,0.342607,-1.62891,-0.262924,1.39713,1.26264,-0.624896,0.208213,-0.622822,-0.227325,-0.745827,0.484668,-0.134807,-1.11126,-31.1501,-1.4868,24.4873,-1.37268,1.35583,-0.204056,-0.404545,-0.390552,-3.0645,-0.497374,1.30555,0.156445,0.189714,1.35386,0.141396,-1.45552,-0.449497,-0.20958,-0.223996,
-0.141669,-0.0204881,0.30348,-1.64474,-0.297323,-0.141994,0.463334,-0.776702,0.222274,-0.790755,-0.293482,-0.399653,0.616621,-0.245528,0,0,0,0,0,0,0,-0.122807,-0.0251125,0.322268,-1.63573,-0.285161,1.41338,1.25826,-0.632407,0.209423,-0.666591,-0.225064,-0.676509,0.546667,-0.136736,-1.46435,-32.2252,-1.8637,25.2094,-1.3974,1.46844,-0.204056,-0.404545,-0.390552,-3.0645,-0.497374,1.30555,0.156445,0.189714,1.35386,0.141396,-1.45552,-0.449497,-0.20958,-0.223996,
-0.144758,-0.0196004,0.300334,-1.6459,-0.298725,-0.139556,0.462355,-0.772216,0.221913,-0.786549,-0.290252,-0.350502,0.609527,-0.24484,0,0,0,0,0,0,0,-0.122807,-0.0251125,0.322268,-1.63573,-0.285161,1.41338,1.25826,-0.632407,0.209423,-0.666591,-0.225064,-0.676509,0.546667,-0.136736,-1.46435,-32.2252,-1.8637,25.2094,-1.3974,1.46844,-0.204056,-1.00291,-0.905304,-1.52711,-0.0407737,0.090883,-0.0631653,-0.0280007,0.377991,-0.0902164,-0.731869,-0.535072,-0.136326,-0.222041,
-0.147817,-0.0187051,0.297219,-1.64703,-0.29996,-0.137159,0.461423,-0.764726,0.223843,-0.778847,-0.282519,-0.308704,0.599245,-0.232903,0,0,0,0,0,0,0,-0.122807,-0.0251125,0.322268,-1.63573,-0.285161,1.41338,1.25826,-0.632407,0.209423,-0.666591,-0.225064,-0.676509,0.546667,-0.136736,-1.46435,-32.2252,-1.8637,25.2094,-1.3974,1.46844,-0.204056,-1.00291,-0.905304,-1.52711,-0.0407737,0.090883,-0.0631653,-0.0280007,0.377991,-0.0902164,-0.731869,-0.535072,-0.136326,-0.222041,
-0.150848,-0.0178141,0.294131,-1.64815,-0.30102,-0.134772,0.460508,-0.757938,0.222745,-0.771899,-0.279526,-0.265145,0.596682,-0.228785,0,0,0,0,0,0,0,-0.122807,-0.0251125,0.322268,-1.63573,-0.285161,1.41338,1.25826,-0.632407,0.209423,-0.666591,-0.225064,-0.676509,0.546667,-0.136736,-1.46435,-32.2252,-1.8637,25.2094,-1.3974,1.46844,-0.204056,-0.465148,-1.55047,-0.615435,0.485406,0.0581248,-0.496349,-0.458612,0.207299,-0.533174,-0.4008,-0.552268,-0.152827,-0.222267,
-0.153854,-0.0169325,0.29107,-1.64926,-0.301902,-0.132376,0.459607,-0.751449,0.220411,-0.765267,-0.278128,-0.220551,0.599073,-0.225295,0,0,0,0,0,0,0,-0.122807,-0.0251125,0.322268,-1.63573,-0.285161,1.41338,1.25826,-0.632407,0.209423,-0.666591,-0.225064,-0.676509,0.546667,-0.136736,-1.46435,-32.2252,-1.8637,25.2094,-1.3974,1.46844,-0.204056,-0.420755,-0.448728,-0.113862,-0.0416074,-0.110086,0.0465449,0.0871025,0.00293218,0.00952999,-0.205213,-0.338528,-0.121432,-0.228573,
-0.13938,-0.0206921,0.306302,-1.64505,-0.301462,-0.145783,0.461996,-0.81846,0.244612,-0.833777,-0.334953,-0.663725,0.6136,-0.292366,0,0,0,0,0,0,0,-0.142623,-0.0186848,0.302047,-1.64289,-0.301454,1.43114,1.25347,-0.682303,0.216036,-0.690266,-0.233795,-0.406649,0.628713,-0.167912,-0.246395,-33.4709,-0.637804,26.0822,0.288082,1.88592,-0.23793,-0.420755,-0.448728,-0.113862,-0.0416074,-0.110086,0.0465449,0.0871025,0.00293218,0.00952999,-0.205213,-0.338528,-0.121432,-0.228573,
-0.178247,-0.00885787,0.265683,-1.65705,-0.309796,-0.108252,0.455219,-0.745344,0.208424,-0.760257,-0.287769,0.0247243,0.617508,-0.247418,0,0,0,0,0,0,0,-0.142623,-0.0186848,0.302047,-1.64289,-0.301454,1.43114,1.25347,-0.682303,0.216036,-0.690266,-0.233795,-0.406649,0.628713,-0.167912,-0.246395,-33.4709,-0.637804,26.0822,0.288082,1.88592,-0.23793,0.106571,-1.48316,-0.400112,0.777164,0.415169,-0.578336,-0.537268,0.417772,-0.622758,-0.340506,-0.229992,-0.150675,-0.232936,
-0.181204,-0.00803151,0.262667,-1.6582,-0.309596,-0.105817,0.454234,-0.739103,0.206591,-0.754046,-0.286417,0.0500174,0.608798,-0.246272,0,0,0,0,0,0,0,-0.142623,-0.0186848,0.302047,-1.64289,-0.301454,1.43114,1.25347,-0.682303,0.216036,-0.690266,-0.233795,-0.406649,0.628713,-0.167912,-0.246395,-33.4709,-0.637804,26.0822,0.288082,1.88592,-0.23793,0.106571,-1.48316,-0.400112,0.777164,0.415169,-0.578336,-0.537268,0.417772,-0.622758,-0.340506,-0.229992,-0.150675,-0.232936,
-0.184128,-0.00721178,0.259683,-1.65933,-0.309312,-0.103414,0.45325,-0.731035,0.204932,-0.746097,-0.284207,0.0709818,0.60057,-0.246077,0,0,0,0,0,0,0,-0.142623,-0.0186848,0.302047,-1.64289,-0.301454,1.43114,1.25347,-0.682303,0.216036,-0.690266,-0.233795,-0.406649,0.628713,-0.167912,-0.246395,-33.4709,-0.637804,26.0822,0.288082,1.88592,-0.23793,0.117192,-0.18778,-1.31225,0.0459737,1.0266,0.0619395,0.106301,0.973391,0.0198506,-0.849297,0.027967,-0.269936,-0.236091,
-0.187011,-0.00638837,0.256741,-1.66044,-0.308962,-0.101072,0.452312,-0.720709,0.205854,-0.735406,-0.276486,0.0873948,0.585627,-0.234376,0,0,0,0,0,0,0,-0.142623,-0.0186848,0.302047,-1.64289,-0.301454,1.43114,1.25347,-0.682303,0.216036,-0.690266,-0.233795,-0.406649,0.628713,-0.167912,-0.246395,-33.4709,-0.637804,26.0822,0.288082,1.88592,-0.23793,-0.0259758,-0.452544,-1.82217,0.200782,1.30269,-0.106096,-0.0648778,1.30247,-0.145105,-1.17799,0.0286306,-0.418363,-0.235363,
-0.189856,-0.00557118,0.253837,-1.66153,-0.308533,-0.0987826,0.45139,-0.711336,0.204297,-0.72588,-0.2722,0.107274,0.572315,-0.230515,0,0,0,0,0,0,0,-0.142623,-0.0186848,0.302047,-1.64289,-0.301454,1.43114,1.25347,-0.682303,0.216036,-0.690266,-0.233795,-0.406649,0.628713,-0.167912,-0.246395,-33.4709,-0.637804,26.0822,0.288082,1.88592,-0.23793,-0.0259758,-0.452544,-1.82217,0.200782,1.30269,-0.106096,-0.0648778,1.30247,-0.145105,-1.17799,0.0286306,-0.418363,-0.235363,
-0.192667,-0.00476458,0.250969,-1.6626,-0.308014,-0.0965486,0.450481,-0.7026,0.201651,-0.717006,-0.268991,0.129727,0.558495,-0.227291,0,0,0,0,0,0,0,-0.164136,-0.0117871,0.27959,-1.6497,-0.311198,1.45239,1.24907,-0.696131,0.218449,-0.70114,-0.210697,-0.200997,0.731604,-0.123243,-0.551876,-34.0978,-0.685411,25.4831,0.514218,1.6076,-0.183914,-1.45559,0.462914,-1.57936,-0.268774,0.24806,0.433264,0.478909,0.703183,0.390061,-1.05799,0.175635,-0.446224,-0.234605,
-0.179822,-0.00847771,0.264259,-1.6582,-0.311263,-0.108556,0.45307,-0.798143,0.224121,-0.814575,-0.315592,0.0240096,0.61874,-0.288907,0,0,0,0,0,0,0,-0.164136,-0.0117871,0.27959,-1.6497,-0.311198,1.45239,1.24907,-0.696131,0.218449,-0.70114,-0.210697,-0.200997,0.731604,-0.123243,-0.551876,-34.0978,-0.685411,25.4831,0.514218,1.6076,-0.183914,-1.45559,0.462914,-1.57936,-0.268774,0.24806,0.433264,0.478909,0.703183,0.390061,-1.05799,0.175635,-0.446224,-0.234605,
-0.198595,-0.0029477,0.244379,-1.66293,-0.30208,-0.0872618,0.45089,-0.695602,0.178286,-0.710684,-0.270748,0.371033,0.526257,-0.249457,0,0,0,0,0,0,0,-0.164136,-0.0117871,0.27959,-1.6497,-0.311198,1.45239,1.24907,-0.696131,0.218449,-0.70114,-0.210697,-0.200997,0.731604,-0.123243,-0.551876,-34.0978,-0.685411,25.4831,0.514218,1.6076,-0.183914,-1.55854,0.560092,-2.01926,-0.147992,0.426187,0.450782,0.496978,0.937771,0.40589,-1.25188,0.367473,-0.472671,-0.234367,
-0.20134,-0.0022426,0.241573,-1.66401,-0.300554,-0.0852348,0.449893,-0.686145,0.176274,-0.701321,-0.268951,0.381469,0.506749,-0.24925,0,0,0,0,0,0,0,-0.164136,-0.0117871,0.27959,-1.6497,-0.311198,1.45239,1.24907,-0.696131,0.218449,-0.70114,-0.210697,-0.200997,0.731604,-0.123243,-0.551876,-34.0978,-0.685411,25.4831,0.514218,1.6076,-0.183914,-1.55854,0.560092,-2.01926,-0.147992,0.426187,0.450782,0.496978,0.937771,0.40589,-1.25188,0.367473,-0.472671,-0.234367,
-0.20404,-0.00153629,0.238815,-1.66506,-0.299009,-0.0832928,0.44894,-0.674901,0.176578,-0.689706,-0.262611,0.386243,0.485486,-0.238226,0,0,0,0,0,0,0,-0.164136,-0.0117871,0.27959,-1.6497,-0.311198,1.45239,1.24907,-0.696131,0.218449,-0.70114,-0.210697,-0.200997,0.731604,-0.123243,-0.551876,-34.0978,-0.685411,25.4831,0.514218,1.6076,-0.183914,-1.60503,1.19356,-2.41138,-0.405309,0.532481,0.796643,0.843683,1.04809,0.750811,-1.34812,0.535524,-0.394715,-0.236042,
-0.206699,-0.000838697,0.236096,-1.6661,-0.297436,-0.0814027,0.448002,-0.664889,0.174399,-0.679559,-0.26039,0.393286,0.472537,-0.234496,0,0,0,0,0,0,0,-0.185035,-0.00537233,0.25791,-1.65583,-0.313197,1.47474,1.24522,-0.706843,0.212256,-0.728169,-0.208308,-0.00840308,0.725595,-0.118473,0.134464,-34.5699,-0.0625476,24.9832,-0.480961,1.48858,-0.190323,-0.54809,0.510536,-2.75154,0.0169331,1.37839,0.401936,0.445708,1.56827,0.35893,-1.48748,0.457827,-0.362456,-0.23147,
-0.209322,-0.000153533,0.233415,-1.66714,-0.295828,-0.079542,0.447076,-0.65577,0.171291,-0.670315,-0.259507,0.401859,0.465173,-0.23135,0,0,0,0,0,0,0,-0.185035,-0.00537233,0.25791,-1.65583,-0.313197,1.47474,1.24522,-0.706843,0.212256,-0.728169,-0.208308,-0.00840308,0.725595,-0.118473,0.134464,-34.5699,-0.0625476,24.9832,-0.480961,1.48858,-0.190323,-0.54809,0.510536,-2.75154,0.0169331,1.37839,0.401936,0.445708,1.56827,0.35893,-1.48748,0.457827,-0.362456,-0.23147,
-0.211911,0.000517538,0.230768,-1.66817,-0.294181,-0.07769,0.446163,-0.647313,0.167768,-0.661741,-0.259128,0.411791,0.463005,-0.228329,0,0,0,0,0,0,0,-0.185035,-0.00537233,0.25791,-1.65583,-0.313197,1.47474,1.24522,-0.706843,0.212256,-0.728169,-0.208308,-0.00840308,0.725595,-0.118473,0.134464,-34.5699,-0.0625476,24.9832,-0.480961,1.48858,-0.190323,0.18758,-0.576248,-3.42688,0.687809,2.2781,-0.219308,-0.174962,2.27077,-0.262666,-1.86014,0.36624,-0.464093,-0.228496,
-0.199971,-0.00277356,0.242926,-1.66408,-0.30364,-0.0880439,0.448827,-0.739179,0.188316,-0.755703,-0.298801,0.339804,0.511655,-0.289283,0,0,0,0,0,0,0,-0.185035,-0.00537233,0.25791,-1.65583,-0.313197,1.47474,1.24522,-0.706843,0.212256,-0.728169,-0.208308,-0.00840308,0.725595,-0.118473,0.134464,-34.5699,-0.0625476,24.9832,-0.480961,1.48858,-0.190323,0.18758,-0.576248,-3.42688,0.687809,2.2781,-0.219308,-0.174962,2.27077,-0.262666,-1.86014,0.36624,-0.464093,-0.228496,
-0.218007,0.00249595,0.224184,-1.66868,-0.29756,-0.0680528,0.447096,-0.647316,0.148847,-0.662303,-0.266558,0.46837,0.51008,-0.251062,0,0,0,0,0,0,0,-0.185035,-0.00537233,0.25791,-1.65583,-0.313197,1.47474,1.24522,-0.706843,0.212256,-0.728169,-0.208308,-0.00840308,0.725595,-0.118473,0.134464,-34.5699,-0.0625476,24.9832,-0.480961,1.48858,-0.190323,-0.385072,1.18519,-2.35118,-0.323149,1.22728,0.764319,0.808402,1.34126,0.720487,-1.27083,0.516651,-0.276547,-0.222273,
-0.220554,0.00308102,0.221577,-1.66974,-0.295665,-0.0660579,0.44609,-0.636767,0.146267,-0.651782,-0.264075,0.473916,0.498732,-0.25151,0,0,0,0,0,0,0,-0.185035,-0.00537233,0.25791,-1.65583,-0.313197,1.47474,1.24522,-0.706843,0.212256,-0.728169,-0.208308,-0.00840308,0.725595,-0.118473,0.134464,-34.5699,-0.0625476,24.9832,-0.480961,1.48858,-0.190323,-0.385072,1.18519,-2.35118,-0.323149,1.22728,0.764319,0.808402,1.34126,0.720487,-1.27083,0.516651,-0.276547,-0.222273,
-0.223053,0.00366362,0.219019,-1.67077,-0.293769,-0.0641166,0.44513,-0.624757,0.145649,-0.639356,-0.257766,0.474029,0.485308,-0.24016,0,0,0,0,0,0,0,-0.215549,0.00363969,0.226345,-1.66432,-0.308983,1.50455,1.2392,-0.691564,0.19607,-0.710439,-0.194893,0.153735,0.61074,-0.174392,1.65393,-36.8669,1.56404,26.2289,-0.292362,1.35583,-0.190323,-0.642349,1.3533,-1.31616,-0.398899,0.467969,0.848591,0.89133,0.677358,0.805803,-0.770119,0.52685,-0.19279,-0.214226,
-0.225509,0.00423555,0.216505,-1.67179,-0.291864,-0.0622045,0.444184,-0.613999,0.142985,-0.628502,-0.255015,0.476237,0.478029,-0.236554,0,0,0,0,0,0,0,-0.215549,0.00363969,0.226345,-1.66432,-0.308983,1.50455,1.2392,-0.691564,0.19607,-0.710439,-0.194893,0.153735,0.61074,-0.174392,1.65393,-36.8669,1.56404,26.2289,-0.292362,1.35583,-0.190323,0.460326,0.804333,-1.26976,-0.114467,1.20487,0.549888,0.596567,1.05953,0.503334,-0.801224,0.419731,-0.208418,-0.211745,
-0.227926,0.00479546,0.214031,-1.6728,-0.289945,-0.0603305,0.443249,-0.604052,0.139976,-0.618459,-0.252229,0.479679,0.468497,-0.233572,0,0,0,0,0,0,0,-0.215549,0.00363969,0.226345,-1.66432,-0.308983,1.50455,1.2392,-0.691564,0.19607,-0.710439,-0.194893,0.153735,0.61074,-0.174392,1.65393,-36.8669,1.56404,26.2289,-0.292362,1.35583,-0.190323,0.460326,0.804333,-1.26976,-0.114467,1.20487,0.549888,0.596567,1.05953,0.503334,-0.801224,0.419731,-0.208418,-0.211745,
-0.219578,0.00276836,0.222539,-1.66958,-0.295347,-0.0693263,0.445082,-0.694004,0.16168,-0.710352,-0.290045,0.52782,0.477245,-0.289928,0,0,0,0,0,0,0,-0.215549,0.00363969,0.226345,-1.66432,-0.308983,1.50455,1.2392,-0.691564,0.19607,-0.710439,-0.194893,0.153735,0.61074,-0.174392,1.65393,-36.8669,1.56404,26.2289,-0.292362,1.35583,-0.190323,-0.590474,-0.126736,-0.337443,0.381896,-0.0202544,0.0292744,0.0712439,0.248967,-0.0102384,-0.339111,0.276431,-0.18403,-0.203655,
-0.246753,0.0104492,0.194392,-1.67663,-0.287436,-0.0421708,0.441004,-0.601339,0.124374,-0.616295,-0.252349,0.554478,0.387375,-0.251726,0,0,0,0,0,0,0,-0.215549,0.00363969,0.226345,-1.66432,-0.308983,1.50455,1.2392,-0.691564,0.19607,-0.710439,-0.194893,0.153735,0.61074,-0.174392,1.65393,-36.8669,1.56404,26.2289,-0.292362,1.35583,-0.190323,-0.881852,-0.337162,-0.831187,0.525095,0.0959044,-0.10873,-0.0657217,0.475401,-0.148396,-0.605419,0.262581,-0.273673,-0.20277,
-0.249115,0.0109357,0.191969,-1.67763,-0.285227,-0.0406855,0.439998,-0.590614,0.121623,-0.605608,-0.250422,0.55206,0.37133,-0.251471,0,0,0,0,0,0,0,-0.235828,0.00982053,0.205472,-1.67008,-0.302136,1.52204,1.23405,-0.659502,0.200905,-0.679602,-0.173338,0.245772,0.546788,-0.164738,2.38788,-37.1407,2.46461,26.4789,0.514218,1.49499,-0.204056,-0.881852,-0.337162,-0.831187,0.525095,0.0959044,-0.10873,-0.0657217,0.475401,-0.148396,-0.605419,0.262581,-0.273673,-0.20277,
-0.251431,0.0114197,0.189595,-1.67861,-0.283048,-0.0392683,0.439031,-0.578854,0.120993,-0.593494,-0.244592,0.544998,0.354319,-0.241735,0,0,0,0,0,0,0,-0.235828,0.00982053,0.205472,-1.67008,-0.302136,1.52204,1.23405,-0.659502,0.200905,-0.679602,-0.173338,0.245772,0.546788,-0.164738,2.38788,-37.1407,2.46461,26.4789,0.514218,1.49499,-0.204056,-0.604353,-0.266474,-1.0808,0.520731,0.4784,-0.0904723,-0.0532014,0.763597,-0.124474,-0.791261,0.290428,-0.35029,-0.20167,
-0.253704,0.0118933,0.187264,-1.67958,-0.280889,-0.037888,0.438077,-0.568309,0.118401,-0.582903,-0.24244,0.539708,0.345067,-0.238422,0,0,0,0,0,0,0,-0.235828,0.00982053,0.205472,-1.67008,-0.302136,1.52204,1.23405,-0.659502,0.200905,-0.679602,-0.173338,0.245772,0.546788,-0.164738,2.38788,-37.1407,2.46461,26.4789,0.514218,1.49499,-0.204056,-0.604353,-0.266474,-1.0808,0.520731,0.4784,-0.0904723,-0.0532014,0.763597,-0.124474,-0.791261,0.290428,-0.35029,-0.20167,
-0.255939,0.0123539,0.18497,-1.68054,-0.278746,-0.036523,0.437135,-0.558751,0.115149,-0.573296,-0.241556,0.535717,0.341241,-0.235646,0,0,0,0,0,0,0,-0.235828,0.00982053,0.205472,-1.67008,-0.302136,1.52204,1.23405,-0.659502,0.200905,-0.679602,-0.173338,0.245772,0.546788,-0.164738,2.38788,-37.1407,2.46461,26.4789,0.514218,1.49499,-0.204056,-1.43253,-1.30867,-1.01962,1.08614,-0.0778913,-0.700603,-0.659107,0.547765,-0.734334,-0.772731,0.139699,-0.41289,-0.197412,
-0.248096,0.0104094,0.192975,-1.67746,-0.280977,-0.0437345,0.439113,-0.637675,0.128259,-0.653866,-0.274443,0.716402,0.346961,-0.288167,0,0,0,0,0,0,0,-0.235828,0.00982053,0.205472,-1.67008,-0.302136,1.52204,1.23405,-0.659502,0.200905,-0.679602,-0.173338,0.245772,0.546788,-0.164738,2.38788,-37.1407,2.46461,26.4789,0.514218,1.49499,-0.204056,-1.43253,-1.30867,-1.01962,1.08614,-0.0778913,-0.700603,-0.659107,0.547765,-0.734334,-0.772731,0.139699,-0.41289,-0.197412,
-0.264901,0.0156744,0.175651,-1.68202,-0.276165,-0.0285595,0.435822,-0.551661,0.0983314,-0.566899,-0.245202,0.645175,0.342723,-0.256598,0,0,0,0,0,0,0,-0.235828,0.00982053,0.205472,-1.67008,-0.302136,1.52204,1.23405,-0.659502,0.200905,-0.679602,-0.173338,0.245772,0.546788,-0.164738,2.38788,-37.1407,2.46461,26.4789,0.514218,1.49499,-0.204056,-2.37486,-1.09245,-0.828046,0.906129,-0.787883,-0.633796,-0.593972,0.140811,-0.664926,-0.688877,0.101339,-0.433437,-0.194984,
-0.267063,0.0160632,0.17343,-1.68298,-0.273563,-0.0272426,0.434835,-0.540589,0.097204,-0.555421,-0.239087,0.650509,0.329214,-0.246737,0,0,0,0,0,0,0,-0.256463,0.0162546,0.184093,-1.67564,-0.291912,1.53927,1.22888,-0.631417,0.20054,-0.6546,-0.168155,0.349702,0.502398,-0.148663,2.82032,-37.5652,2.78596,25.6339,0.557247,1.48125,-0.110672,-2.37486,-1.09245,-0.828046,0.906129,-0.787883,-0.633796,-0.593972,0.140811,-0.664926,-0.688877,0.101339,-0.433437,-0.194984,
-0.269184,0.0164411,0.171249,-1.68392,-0.27095,-0.0259567,0.433862,-0.530297,0.0944608,-0.545063,-0.236373,0.653293,0.321486,-0.24343,0,0,0,0,0,0,0,-0.256463,0.0162546,0.184093,-1.67564,-0.291912,1.53927,1.22888,-0.631417,0.20054,-0.6546,-0.168155,0.349702,0.502398,-0.148663,2.82032,-37.5652,2.78596,25.6339,0.557247,1.48125,-0.110672,-1.45435,0.323622,-1.94277,0.181051,0.427167,0.174969,0.219666,0.95547,0.131124,-1.22688,0.263692,-0.46279,-0.194771,
-0.271267,0.016806,0.169107,-1.68486,-0.268333,-0.0246867,0.432899,-0.520743,0.0912227,-0.535451,-0.234871,0.654183,0.317481,-0.240664,0,0,0,0,0,0,0,-0.256463,0.0162546,0.184093,-1.67564,-0.291912,1.53927,1.22888,-0.631417,0.20054,-0.6546,-0.168155,0.349702,0.502398,-0.148663,2.82032,-37.5652,2.78596,25.6339,0.557247,1.48125,-0.110672,-1.61727,0.0970658,-1.78324,0.313169,0.225056,0.0331165,0.0746279,0.82834,-0.00556506,-1.14509,0.234408,-0.453349,-0.193392,
-0.273315,0.0171574,0.167002,-1.6858,-0.265718,-0.0234193,0.431947,-0.511821,0.0878529,-0.526476,-0.233885,0.653933,0.316851,-0.238016,0,0,0,0,0,0,0,-0.256463,0.0162546,0.184093,-1.67564,-0.291912,1.53927,1.22888,-0.631417,0.20054,-0.6546,-0.168155,0.349702,0.502398,-0.148663,2.82032,-37.5652,2.78596,25.6339,0.557247,1.48125,-0.110672,-1.61727,0.0970658,-1.78324,0.313169,0.225056,0.0331165,0.0746279,0.82834,-0.00556506,-1.14509,0.234408,-0.453349,-0.193392,
-0.266214,0.0155825,0.174272,-1.68277,-0.26831,-0.0298376,0.434007,-0.585539,0.100543,-0.601816,-0.265017,0.834298,0.307546,-0.291532,0,0,0,0,0,0,0,-0.256463,0.0162546,0.184093,-1.67564,-0.291912,1.53927,1.22888,-0.631417,0.20054,-0.6546,-0.168155,0.349702,0.502398,-0.148663,2.82032,-37.5652,2.78596,25.6339,0.557247,1.48125,-0.110672,-1.00944,-1.75337,-2.14015,1.50534,0.793406,-0.961545,-0.920087,1.33864,-0.989609,-1.28568,0.153575,-0.470482,-0.189318,
-0.283651,0.021355,0.15617,-1.68723,-0.260598,-0.0137236,0.430634,-0.505635,0.0766095,-0.52052,-0.235372,0.723048,0.266126,-0.256731,0,0,0,0,0,0,0,-0.276357,0.0217404,0.163615,-1.68132,-0.278995,1.55489,1.22405,-0.590917,0.157287,-0.622606,-0.180727,0.408611,0.457801,-0.152267,3.73279,-37.8389,3.73811,26.0822,0.484005,1.63415,-0.157364,-1.00944,-1.75337,-2.14015,1.50534,0.793406,-0.961545,-0.920087,1.33864,-0.989609,-1.28568,0.153575,-0.470482,-0.189318,
-0.285626,0.0216562,0.154137,-1.68814,-0.257753,-0.0127204,0.429643,-0.493727,0.0752858,-0.508288,-0.229367,0.711358,0.250811,-0.247924,0,0,0,0,0,0,0,-0.276357,0.0217404,0.163615,-1.68132,-0.278995,1.55489,1.22405,-0.590917,0.157287,-0.622606,-0.180727,0.408611,0.457801,-0.152267,3.73279,-37.8389,3.73811,26.0822,0.484005,1.63415,-0.157364,-1.03561,-1.45346,-2.53637,1.42749,0.985348,-0.812587,-0.768275,1.54102,-0.843666,-1.47352,0.231452,-0.49511,-0.187625,
-0.287557,0.0219456,0.152147,-1.68905,-0.254953,-0.0117511,0.428663,-0.482946,0.0723503,-0.497519,-0.226859,0.699883,0.242323,-0.244886,0,0,0,0,0,0,0,-0.276357,0.0217404,0.163615,-1.68132,-0.278995,1.55489,1.22405,-0.590917,0.157287,-0.622606,-0.180727,0.408611,0.457801,-0.152267,3.73279,-37.8389,3.73811,26.0822,0.484005,1.63415,-0.157364,-1.27917,0.0394703,-2.65695,0.564833,0.879812,-0.00815723,0.0444808,1.41659,-0.0556341,-1.53268,0.332021,-0.480997,-0.191379,
-0.28945,0.0222214,0.150196,-1.68995,-0.2522,-0.0107973,0.427694,-0.473148,0.0689656,-0.487727,-0.225599,0.688477,0.238441,-0.242335,0,0,0,0,0,0,0,-0.276357,0.0217404,0.163615,-1.68132,-0.278995,1.55489,1.22405,-0.590917,0.157287,-0.622606,-0.180727,0.408611,0.457801,-0.152267,3.73279,-37.8389,3.73811,26.0822,0.484005,1.63415,-0.157364,-1.27917,0.0394703,-2.65695,0.564833,0.879812,-0.00815723,0.0444808,1.41659,-0.0556341,-1.53268,0.332021,-0.480997,-0.191379,
-0.291307,0.0224835,0.148281,-1.69085,-0.24949,-0.00984203,0.426734,-0.464152,0.0655043,-0.478729,-0.224895,0.677276,0.238826,-0.239916,0,0,0,0,0,0,0,-0.276357,0.0217404,0.163615,-1.68132,-0.278995,1.55489,1.22405,-0.590917,0.157287,-0.622606,-0.180727,0.408611,0.457801,-0.152267,3.73279,-37.8389,3.73811,26.0822,0.484005,1.63415,-0.157364,-1.56396,-0.492854,-2.58171,0.955592,0.634165,-0.343352,-0.297034,1.3355,-0.377802,-1.48732,0.357586,-0.483923,-0.189486,
-0.29313,0.0227318,0.1464,-1.69175,-0.246824,-0.00886691,0.425784,-0.45582,0.0620853,-0.47039,-0.224555,0.666535,0.24378,-0.237649,0,0,0,0,0,0,0,-0.294633,0.0263785,0.144736,-1.68671,-0.265344,1.56732,1.21954,-0.569864,0.14637,-0.590562,-0.166635,0.437744,0.368626,-0.152672,3.3797,-38.3388,3.31361,26.6296,0.526119,1.96557,-0.150955,-1.56396,-0.492854,-2.58171,0.955592,0.634165,-0.343352,-0.297034,1.3355,-0.377802,-1.48732,0.357586,-0.483923,-0.189486,
-0.284784,0.0211298,0.154971,-1.68792,-0.251832,-0.0151649,0.428898,-0.53362,0.0745799,-0.549468,-0.253595,0.94068,0.226406,-0.290082,0,0,0,0,0,0,0,-0.294633,0.0263785,0.144736,-1.68671,-0.265344,1.56732,1.21954,-0.569864,0.14637,-0.590562,-0.166635,0.437744,0.368626,-0.152672,3.3797,-38.3388,3.31361,26.6296,0.526119,1.96557,-0.150955,-1.54297,-0.797206,-2.1805,1.16798,0.386328,-0.520574,-0.470606,1.12722,-0.553207,-1.27079,0.39174,-0.428905,-0.188358,
-0.319031,0.0297931,0.119607,-1.69777,-0.232544,0.0103363,0.421266,-0.451776,0.0505553,-0.466535,-0.221565,0.728561,0.22714,-0.252581,0,0,0,0,0,0,0,-0.294633,0.0263785,0.144736,-1.68671,-0.265344,1.56732,1.21954,-0.569864,0.14637,-0.590562,-0.166635,0.437744,0.368626,-0.152672,3.3797,-38.3388,3.31361,26.6296,0.526119,1.96557,-0.150955,-0.852378,-0.0764983,-2.09713,0.787181,0.729324,-0.057766,-0.00670134,1.19568,-0.0960874,-1.19611,0.486959,-0.350555,-0.188502,
-0.320801,0.0299859,0.117778,-1.69865,-0.229634,0.0112129,0.420268,-0.442394,0.0481961,-0.457148,-0.218677,0.727455,0.219153,-0.249557,0,0,0,0,0,0,0,-0.294633,0.0263785,0.144736,-1.68671,-0.265344,1.56732,1.21954,-0.569864,0.14637,-0.590562,-0.166635,0.437744,0.368626,-0.152672,3.3797,-38.3388,3.31361,26.6296,0.526119,1.96557,-0.150955,-0.852378,-0.0764983,-2.09713,0.787181,0.729324,-0.057766,-0.00670134,1.19568,-0.0960874,-1.19611,0.486959,-0.350555,-0.188502,
-0.322535,0.0301678,0.115985,-1.69951,-0.226746,0.012067,0.41928,-0.433529,0.0454856,-0.448239,-0.216898,0.722043,0.21351,-0.246962,0,0,0,0,0,0,0,-0.294633,0.0263785,0.144736,-1.68671,-0.265344,1.56732,1.21954,-0.569864,0.14637,-0.590562,-0.166635,0.437744,0.368626,-0.152672,3.3797,-38.3388,3.31361,26.6296,0.526119,1.96557,-0.150955,-0.419998,0.198039,-0.954196,0.491018,0.368221,0.135825,0.189989,0.65435,0.0930238,-0.655534,0.47613,-0.244367,-0.186255,
-0.324235,0.0303387,0.114226,-1.70038,-0.223892,0.0129071,0.418302,-0.425131,0.0427152,-0.439807,-0.215635,0.713442,0.210042,-0.244478,0,0,0,0,0,0,0,-0.294633,0.0263785,0.144736,-1.68671,-0.265344,1.56732,1.21954,-0.569864,0.14637,-0.590562,-0.166635,0.437744,0.368626,-0.152672,3.3797,-38.3388,3.31361,26.6296,0.526119,1.96557,-0.150955,-0.419998,0.198039,-0.954196,0.491018,0.368221,0.135825,0.189989,0.65435,0.0930238,-0.655534,0.47613,-0.244367,-0.186255,
-0.325904,0.0304986,0.112499,-1.70123,-0.221082,0.0137435,0.417334,-0.417177,0.0399776,-0.431826,-0.214711,0.702593,0.209087,-0.242102,0,0,0,0,0,0,0,-0.317347,0.0316788,0.121118,-1.69401,-0.246933,1.57929,1.21267,-0.528727,0.12563,-0.564256,-0.186118,0.484231,0.248894,-0.175783,2.34027,-38.8625,2.33766,27.2009,1.22284,2.28417,-0.157364,-1.22867,0.769034,-0.317827,0.0951578,-0.511515,0.351076,0.403538,0.0121678,0.30994,-0.36447,0.516027,-0.215861,-0.1858,
-0.327542,0.0306478,0.110802,-1.70209,-0.21832,0.0145881,0.416375,-0.409631,0.037304,-0.424262,-0.214086,0.690291,0.211165,-0.239865,0,0,0,0,0,0,0,-0.317347,0.0316788,0.121118,-1.69401,-0.246933,1.57929,1.21267,-0.528727,0.12563,-0.564256,-0.186118,0.484231,0.248894,-0.175783,2.34027,-38.8625,2.33766,27.2009,1.22284,2.28417,-0.157364,-1.22867,0.769034,-0.317827,0.0951578,-0.511515,0.351076,0.403538,0.0121678,0.30994,-0.36447,0.516027,-0.215861,-0.1858,
-0.319885,0.0293736,0.11868,-1.69828,-0.222804,0.00853046,0.419655,-0.474249,0.0414524,-0.490047,-0.234715,1.03395,0.176518,-0.283478,0,0,0,0,0,0,0,-0.317347,0.0316788,0.121118,-1.69401,-0.246933,1.57929,1.21267,-0.528727,0.12563,-0.564256,-0.186118,0.484231,0.248894,-0.175783,2.34027,-38.8625,2.33766,27.2009,1.22284,2.28417,-0.157364,-1.98949,-0.700627,-0.645116,1.06664,-0.869664,-0.557959,-0.511841,0.0684347,-0.575336,-0.472366,0.490018,-0.238306,-0.183221,
-0.339758,0.034151,0.0979814,-1.70485,-0.209442,0.0180736,0.414439,-0.405622,0.028204,-0.420347,-0.212773,0.813275,0.150895,-0.252399,0,0,0,0,0,0,0,-0.317347,0.0316788,0.121118,-1.69401,-0.246933,1.57929,1.21267,-0.528727,0.12563,-0.564256,-0.186118,0.484231,0.248894,-0.175783,2.34027,-38.8625,2.33766,27.2009,1.22284,2.28417,-0.157364,-0.943347,-0.67454,-1.36359,1.10358,0.121239,-0.394057,-0.344756,0.6961,-0.419323,-0.730649,0.464981,-0.182376,-0.186961,
-0.341343,0.0342537,0.096337,-1.70569,-0.206205,0.0186443,0.41344,-0.396245,0.0256804,-0.411087,-0.209561,0.809243,0.142676,-0.249625,0,0,0,0,0,0,0,-0.317347,0.0316788,0.121118,-1.69401,-0.246933,1.57929,1.21267,-0.528727,0.12563,-0.564256,-0.186118,0.484231,0.248894,-0.175783,2.34027,-38.8625,2.33766,27.2009,1.22284,2.28417,-0.157364,-0.943347,-0.67454,-1.36359,1.10358,0.121239,-0.394057,-0.344756,0.6961,-0.419323,-0.730649,0.464981,-0.182376,-0.186961,
-0.342894,0.0343451,0.0947269,-1.70652,-0.20299,0.0191888,0.412452,-0.387662,0.0228576,-0.402534,-0.207409,0.803687,0.136115,-0.247187,0,0,0,0,0,0,0,-0.333849,0.0350292,0.10395,-1.69949,-0.230779,1.58605,1.20792,-0.496722,0.0908934,-0.520048,-0.167578,0.557769,0.188847,-0.140364,2.08637,-38.8625,2.03615,27.0264,0.911556,2.22375,-0.204056,-0.38164,-1.08308,-1.99519,1.35082,0.801882,-0.524428,-0.476381,1.20238,-0.549444,-0.981516,0.362882,-0.176359,-0.187571,
-0.344412,0.0344254,0.0931497,-1.70734,-0.199817,0.0197124,0.411472,-0.37946,0.020066,-0.394292,-0.20575,0.793171,0.130898,-0.244786,0,0,0,0,0,0,0,-0.333849,0.0350292,0.10395,-1.69949,-0.230779,1.58605,1.20792,-0.496722,0.0908934,-0.520048,-0.167578,0.557769,0.188847,-0.140364,2.08637,-38.8625,2.03615,27.0264,0.911556,2.22375,-0.204056,-0.38164,-1.08308,-1.99519,1.35082,0.801882,-0.524428,-0.476381,1.20238,-0.549444,-0.981516,0.362882,-0.176359,-0.187571,
-0.345898,0.0344949,0.091604,-1.70816,-0.196701,0.0202226,0.410502,-0.371625,0.0173633,-0.386433,-0.204465,0.778958,0.127558,-0.242484,0,0,0,0,0,0,0,-0.333849,0.0350292,0.10395,-1.69949,-0.230779,1.58605,1.20792,-0.496722,0.0908934,-0.520048,-0.167578,0.557769,0.188847,-0.140364,2.08637,-38.8625,2.03615,27.0264,0.911556,2.22375,-0.204056,-0.382782,0.315729,-2.29152,0.580513,0.90812,0.243189,0.296519,1.2047,0.200819,-1.09492,0.460079,-0.149621,-0.186786,
-0.347355,0.0345539,0.0900882,-1.70897,-0.193653,0.0207299,0.409541,-0.364158,0.0147669,-0.378956,-0.203542,0.762062,0.126831,-0.24031,0,0,0,0,0,0,0,-0.333849,0.0350292,0.10395,-1.69949,-0.230779,1.58605,1.20792,-0.496722,0.0908934,-0.520048,-0.167578,0.557769,0.188847,-0.140364,2.08637,-38.8625,2.03615,27.0264,0.911556,2.22375,-0.204056,-0.700256,0.16158,-2.33438,0.681467,0.686135,0.120723,0.170653,1.11372,0.0851741,-1.07903,0.448085,-0.12558,-0.189423,
-0.339992,0.0336689,0.0976897,-1.70536,-0.204935,0.0174349,0.412939,-0.414613,0.0160134,-0.430358,-0.223913,1.01876,0.136489,-0.281384,0,0,0,0,0,0,0,-0.333849,0.0350292,0.10395,-1.69949,-0.230779,1.58605,1.20792,-0.496722,0.0908934,-0.520048,-0.167578,0.557769,0.188847,-0.140364,2.08637,-38.8625,2.03615,27.0264,0.911556,2.22375,-0.204056,-0.700256,0.16158,-2.33438,0.681467,0.686135,0.120723,0.170653,1.11372,0.0851741,-1.07903,0.448085,-0.12558,-0.189423,
-0.353849,0.0360297,0.0832355,-1.70972,-0.191758,0.0228683,0.409786,-0.351819,0.000920324,-0.366681,-0.205561,0.816876,0.154866,-0.251205,0,0,0,0,0,0,0,-0.333849,0.0350292,0.10395,-1.69949,-0.230779,1.58605,1.20792,-0.496722,0.0908934,-0.520048,-0.167578,0.557769,0.188847,-0.140364,2.08637,-38.8625,2.03615,27.0264,0.911556,2.22375,-0.204056,-0.992102,-1.02353,-2.26187,1.33151,0.451074,-0.563188,-0.51325,1.07352,-0.587514,-1.01335,0.333075,-0.113389,-0.186751,
-0.355217,0.0360272,0.0818068,-1.71053,-0.188552,0.0234855,0.408791,-0.342174,-0.000607283,-0.357162,-0.202235,0.801517,0.154299,-0.248594,0,0,0,0,0,0,0,-0.349212,0.0375882,0.0881116,-1.70443,-0.212685,1.59058,1.20341,-0.47845,0.0681277,-0.499354,-0.163521,0.594193,0.121366,-0.142693,3.17737,-38.6125,3.08748,26.3281,0.208431,2.00493,-0.157364,-0.992102,-1.02353,-2.26187,1.33151,0.451074,-0.563188,-0.51325,1.07352,-0.587514,-1.01335,0.333075,-0.113389,-0.186751,
-0.356552,0.0360171,0.0804121,-1.71133,-0.185401,0.0240995,0.407806,-0.33358,-0.0025415,-0.34868,-0.199779,0.78777,0.15348,-0.246314,0,0,0,0,0,0,0,-0.349212,0.0375882,0.0881116,-1.70443,-0.212685,1.59058,1.20341,-0.47845,0.0681277,-0.499354,-0.163521,0.594193,0.121366,-0.142693,3.17737,-38.6125,3.08748,26.3281,0.208431,2.00493,-0.157364,-0.805832,-0.493658,-2.27691,0.971021,0.604253,-0.245508,-0.188477,1.0985,-0.284773,-1.04288,0.295143,-0.126274,-0.18718,
-0.357855,0.0359986,0.0790477,-1.71212,-0.182297,0.024709,0.40683,-0.325902,-0.00461017,-0.3411,-0.197742,0.776006,0.152381,-0.244095,0,0,0,0,0,0,0,-0.349212,0.0375882,0.0881116,-1.70443,-0.212685,1.59058,1.20341,-0.47845,0.0681277,-0.499354,-0.163521,0.594193,0.121366,-0.142693,3.17737,-38.6125,3.08748,26.3281,0.208431,2.00493,-0.157364,-0.805832,-0.493658,-2.27691,0.971021,0.604253,-0.245508,-0.188477,1.0985,-0.284773,-1.04288,0.295143,-0.126274,-0.18718,
-0.359132,0.0359718,0.0777105,-1.7129,-0.179231,0.0253143,0.405862,-0.319031,-0.00670354,-0.334316,-0.195985,0.76666,0.151332,-0.24193,0,0,0,0,0,0,0,-0.349212,0.0375882,0.0881116,-1.70443,-0.212685,1.59058,1.20341,-0.47845,0.0681277,-0.499354,-0.163521,0.594193,0.121366,-0.142693,3.17737,-38.6125,3.08748,26.3281,0.208431,2.00493,-0.157364,-0.610046,-0.490662,-2.70266,1.07471,0.944136,-0.218401,-0.162502,1.39436,-0.256405,-1.23943,0.326725,-0.15121,-0.188684,
-0.35423,0.0355492,0.0827818,-1.71026,-0.188248,0.02327,0.408323,-0.36768,-0.0113551,-0.383914,-0.216189,1.01868,0.164469,-0.279581,0,0,0,0,0,0,0,-0.349212,0.0375882,0.0881116,-1.70443,-0.212685,1.59058,1.20341,-0.47845,0.0681277,-0.499354,-0.163521,0.594193,0.121366,-0.142693,3.17737,-38.6125,3.08748,26.3281,0.208431,2.00493,-0.157364,-0.808741,0.357898,-2.50376,0.579802,0.685044,0.192615,0.24731,1.14096,0.150006,-1.15283,0.398003,-0.13679,-0.183255,
-0.36779,0.0376457,0.0688094,-1.71436,-0.171891,0.0268628,0.405366,-0.322728,-0.0176889,-0.337978,-0.19271,0.936334,0.116145,-0.249677,0,0,0,0,0,0,0,-0.364544,0.0392342,0.0722176,-1.71006,-0.192536,1.59378,1.19807,-0.46287,0.0383839,-0.452641,-0.17054,0.587144,0.0824666,-0.164708,4.51831,-38.065,4.26179,26.4551,0.27618,2.07818,-0.250748,-0.808741,0.357898,-2.50376,0.579802,0.685044,0.192615,0.24731,1.14096,0.150006,-1.15283,0.398003,-0.13679,-0.183255,
-0.369043,0.037568,0.0674949,-1.71512,-0.168157,0.0272902,0.404377,-0.313286,-0.0194271,-0.328619,-0.189562,0.933331,0.106837,-0.247237,0,0,0,0,0,0,0,-0.364544,0.0392342,0.0722176,-1.71006,-0.192536,1.59378,1.19807,-0.46287,0.0383839,-0.452641,-0.17054,0.587144,0.0824666,-0.164708,4.51831,-38.065,4.26179,26.4551,0.27618,2.07818,-0.250748,-1.34546,-0.665988,-2.61566,1.13881,0.464361,-0.454211,-0.40471,1.18234,-0.482028,-1.23438,0.253716,-0.199299,-0.177857,
-0.37026,0.0374822,0.0662167,-1.71587,-0.164466,0.027683,0.403397,-0.304258,-0.0214577,-0.319566,-0.18741,0.922849,0.0982049,-0.244975,0,0,0,0,0,0,0,-0.364544,0.0392342,0.0722176,-1.71006,-0.192536,1.59378,1.19807,-0.46287,0.0383839,-0.452641,-0.17054,0.587144,0.0824666,-0.164708,4.51831,-38.065,4.26179,26.4551,0.27618,2.07818,-0.250748,-1.34546,-0.665988,-2.61566,1.13881,0.464361,-0.454211,-0.40471,1.18234,-0.482028,-1.23438,0.253716,-0.199299,-0.177857,
-0.371443,0.037388,0.0649729,-1.71662,-0.16084,0.0280448,0.402426,-0.295634,-0.0235451,-0.310936,-0.185792,0.906506,0.0904528,-0.242802,0,0,0,0,0,0,0,-0.364544,0.0392342,0.0722176,-1.71006,-0.192536,1.59378,1.19807,-0.46287,0.0383839,-0.452641,-0.17054,0.587144,0.0824666,-0.164708,4.51831,-38.065,4.26179,26.4551,0.27618,2.07818,-0.250748,-1.5579,-1.10328,-2.77743,1.43587,0.440015,-0.737476,-0.682712,1.2831,-0.765358,-1.33253,0.224502,-0.243201,-0.176075,
-0.372593,0.0372856,0.0637618,-1.71735,-0.157297,0.0283819,0.401463,-0.287455,-0.0256097,-0.302771,-0.184586,0.885791,0.0842682,-0.240727,0,0,0,0,0,0,0,-0.364544,0.0392342,0.0722176,-1.71006,-0.192536,1.59378,1.19807,-0.46287,0.0383839,-0.452641,-0.17054,0.587144,0.0824666,-0.164708,4.51831,-38.065,4.26179,26.4551,0.27618,2.07818,-0.250748,-1.5579,-1.10328,-2.77743,1.43587,0.440015,-0.737476,-0.682712,1.2831,-0.765358,-1.33253,0.224502,-0.243201,-0.176075,
-0.373711,0.0371751,0.0625815,-1.71809,-0.153849,0.0287043,0.400508,-0.279735,-0.0276197,-0.29508,-0.183795,0.861874,0.0806116,-0.238772,0,0,0,0,0,0,0,-0.364544,0.0392342,0.0722176,-1.71006,-0.192536,1.59378,1.19807,-0.46287,0.0383839,-0.452641,-0.17054,0.587144,0.0824666,-0.164708,4.51831,-38.065,4.26179,26.4551,0.27618,2.07818,-0.250748,-0.857422,-0.601943,-2.8151,1.24213,0.834846,-0.354856,-0.290788,1.42622,-0.39603,-1.31814,0.348545,-0.195557,-0.179845,
-0.367664,0.0371621,0.0688935,-1.71485,-0.17089,0.0274771,0.403986,-0.320134,-0.0302663,-0.336351,-0.202155,1.00036,0.133113,-0.27654,0,0,0,0,0,0,0,-0.378096,0.0401881,0.0581545,-1.71535,-0.17315,1.59611,1.19241,-0.425373,0.0165031,-0.429271,-0.164076,0.620787,0.0485133,-0.172758,4.67304,-38.2634,4.48793,27.4509,0.825497,2.37023,-0.224197,-0.512719,-0.36161,-1.85747,0.966427,0.521528,-0.16537,-0.104932,0.958152,-0.204201,-0.866672,0.391765,-0.112946,-0.187113,
-0.393947,0.0387989,0.041581,-1.72477,-0.133042,0.0298449,0.394429,-0.266023,-0.0416916,-0.28129,-0.191161,0.834711,0.139529,-0.249096,0,0,0,0,0,0,0,-0.378096,0.0401881,0.0581545,-1.71535,-0.17315,1.59611,1.19241,-0.425373,0.0165031,-0.429271,-0.164076,0.620787,0.0485133,-0.172758,4.67304,-38.2634,4.48793,27.4509,0.825497,2.37023,-0.224197,-0.512719,-0.36161,-1.85747,0.966427,0.521528,-0.16537,-0.104932,0.958152,-0.204201,-0.866672,0.391765,-0.112946,-0.187113,
-0.394973,0.0386307,0.0404934,-1.72552,-0.129795,0.0304388,0.393443,-0.256488,-0.0420549,-0.271896,-0.187951,0.81186,0.148472,-0.246731,0,0,0,0,0,0,0,-0.378096,0.0401881,0.0581545,-1.71535,-0.17315,1.59611,1.19241,-0.425373,0.0165031,-0.429271,-0.164076,0.620787,0.0485133,-0.172758,4.67304,-38.2634,4.48793,27.4509,0.825497,2.37023,-0.224197,-0.827281,-1.67337,-1.65758,1.71097,0.225373,-0.925225,-0.872493,0.899067,-0.941193,-0.76617,0.326707,-0.110317,-0.189539,
-0.395965,0.0384596,0.0394396,-1.72626,-0.126639,0.0310548,0.392464,-0.24792,-0.0427765,-0.263461,-0.185126,0.789102,0.15401,-0.244665,0,0,0,0,0,0,0,-0.378096,0.0401881,0.0581545,-1.71535,-0.17315,1.59611,1.19241,-0.425373,0.0165031,-0.429271,-0.164076,0.620787,0.0485133,-0.172758,4.67304,-38.2634,4.48793,27.4509,0.825497,2.37023,-0.224197,-0.827281,-1.67337,-1.65758,1.71097,0.225373,-0.925225,-0.872493,0.899067,-0.941193,-0.76617,0.326707,-0.110317,-0.189539,
-0.396926,0.0382846,0.038416,-1.72699,-0.123571,0.031683,0.391493,-0.240234,-0.0437351,-0.255896,-0.182645,0.766977,0.157045,-0.242647,0,0,0,0,0,0,0,-0.378096,0.0401881,0.0581545,-1.71535,-0.17315,1.59611,1.19241,-0.425373,0.0165031,-0.429271,-0.164076,0.620787,0.0485133,-0.172758,4.67304,-38.2634,4.48793,27.4509,0.825497,2.37023,-0.224197,-0.484757,0.163268,-1.02048,0.533397,0.0516379,0.120277,0.183524,0.420762,0.0753778,-0.46237,0.446785,-0.0322298,-0.197735,
-0.397859,0.0381053,0.0374195,-1.72771,-0.120587,0.0323168,0.390531,-0.233347,-0.0448412,-0.249122,-0.180495,0.746032,0.158445,-0.240668,0,0,0,0,0,0,0,-0.390539,0.0407079,0.0450086,-1.72042,-0.153178,1.59649,1.18806,-0.391492,0.00459476,-0.39815,-0.166963,0.613108,0.00828446,-0.130896,2.99884,-38.3666,2.78596,27.2763,0.990292,2.4627,-0.197647,-0.484757,0.163268,-1.02048,0.533397,0.0516379,0.120277,0.183524,0.420762,0.0753778,-0.46237,0.446785,-0.0322298,-0.197735,
-0.398768,0.0379212,0.0364472,-1.72843,-0.117679,0.032953,0.389576,-0.227184,-0.0460247,-0.243064,-0.178685,0.726816,0.159067,-0.238737,0,0,0,0,0,0,0,-0.390539,0.0407079,0.0450086,-1.72042,-0.153178,1.59649,1.18806,-0.391492,0.00459476,-0.39815,-0.166963,0.613108,0.00828446,-0.130896,2.99884,-38.3666,2.78596,27.2763,0.990292,2.4627,-0.197647,-0.0102121,0.283191,-1.37851,0.541647,0.496938,0.284053,0.34747,0.706184,0.236219,-0.592097,0.470076,-0.0139571,-0.204048,
-0.393815,0.0382261,0.0416635,-1.72529,-0.131201,0.032243,0.393158,-0.267183,-0.0568553,-0.283732,-0.199173,0.99502,0.198632,-0.274001,0,0,0,0,0,0,0,-0.390539,0.0407079,0.0450086,-1.72042,-0.153178,1.59649,1.18806,-0.391492,0.00459476,-0.39815,-0.166963,0.613108,0.00828446,-0.130896,2.99884,-38.3666,2.78596,27.2763,0.990292,2.4627,-0.197647,-1.00944,-1.86494,-1.55472,1.80841,-0.0197321,-1.04705,-0.991902,0.752414,-1.06172,-0.655601,0.327059,-0.0414244,-0.204966,
-0.404446,0.0386751,0.0303656,-1.72978,-0.114388,0.032813,0.390233,-0.226352,-0.0551582,-0.242299,-0.178927,0.842974,0.167287,-0.246593,0,0,0,0,0,0,0,-0.390539,0.0407079,0.0450086,-1.72042,-0.153178,1.59649,1.18806,-0.391492,0.00459476,-0.39815,-0.166963,0.613108,0.00828446,-0.130896,2.99884,-38.3666,2.78596,27.2763,0.990292,2.4627,-0.197647,-1.00944,-1.86494,-1.55472,1.80841,-0.0197321,-1.04705,-0.991902,0.752414,-1.06172,-0.655601,0.327059,-0.0414244,-0.204966,
-0.405317,0.0384504,0.0294307,-1.73048,-0.111061,0.033461,0.389256,-0.217727,-0.056171,-0.233722,-0.175506,0.831769,0.162006,-0.244367,0,0,0,0,0,0,0,-0.390539,0.0407079,0.0450086,-1.72042,-0.153178,1.59649,1.18806,-0.391492,0.00459476,-0.39815,-0.166963,0.613108,0.00828446,-0.130896,2.99884,-38.3666,2.78596,27.2763,0.990292,2.4627,-0.197647,-1.49696,-1.30591,-2.05883,1.57034,-0.103879,-0.842021,-0.785341,0.807893,-0.861342,-0.869807,0.347758,-0.0556269,-0.213173,
-0.406156,0.0382203,0.0285275,-1.73118,-0.107793,0.0340847,0.388287,-0.209738,-0.0575216,-0.225798,-0.172994,0.816858,0.155936,-0.242344,0,0,0,0,0,0,0,-0.390539,0.0407079,0.0450086,-1.72042,-0.153178,1.59649,1.18806,-0.391492,0.00459476,-0.39815,-0.166963,0.613108,0.00828446,-0.130896,2.99884,-38.3666,2.78596,27.2763,0.990292,2.4627,-0.197647,-1.49696,-1.30591,-2.05883,1.57034,-0.103879,-0.842021,-0.785341,0.807893,-0.861342,-0.869807,0.347758,-0.0556269,-0.213173,
-0.406965,0.0379844,0.0276534,-1.73186,-0.104595,0.0346819,0.387325,-0.202392,-0.0589702,-0.218529,-0.170985,0.799564,0.149293,-0.240378,0,0,0,0,0,0,0,-0.401788,0.0406974,0.0330918,-1.72521,-0.134772,1.59661,1.18342,-0.348257,0.00146802,-0.346111,-0.141419,0.547082,0.00139089,-0.144615,3.02265,-37.9659,2.86134,27.3755,1.48559,2.7813,-0.197647,-1.31104,-0.170269,-2.00655,0.925444,-0.0877021,-0.20529,-0.141593,0.663644,-0.241868,-0.813936,0.447308,-0.0070531,-0.222477,
-0.407748,0.0377428,0.0268058,-1.73254,-0.101471,0.0352524,0.386371,-0.195678,-0.060416,-0.211898,-0.169358,0.78099,0.142632,-0.238463,0,0,0,0,0,0,0,-0.401788,0.0406974,0.0330918,-1.72521,-0.134772,1.59661,1.18342,-0.348257,0.00146802,-0.346111,-0.141419,0.547082,0.00139089,-0.144615,3.02265,-37.9659,2.86134,27.3755,1.48559,2.7813,-0.197647,-1.31104,-0.170269,-2.00655,0.925444,-0.0877021,-0.20529,-0.141593,0.663644,-0.241868,-0.813936,0.447308,-0.0070531,-0.222477,
-0.408506,0.0374955,0.0259823,-1.73321,-0.0984229,0.0357993,0.385425,-0.189571,-0.0618084,-0.205876,-0.168095,0.762058,0.136705,-0.236605,0,0,0,0,0,0,0,-0.401788,0.0406974,0.0330918,-1.72521,-0.134772,1.59661,1.18342,-0.348257,0.00146802,-0.346111,-0.141419,0.547082,0.00139089,-0.144615,3.02265,-37.9659,2.86134,27.3755,1.48559,2.7813,-0.197647,-1.61637,-0.921681,-2.29536,1.42982,-0.165974,-0.662678,-0.602429,0.788424,-0.686292,-0.906791,0.421897,0.00481633,-0.227039,
-0.404175,0.0381254,0.0306037,-1.73026,-0.112131,0.0355502,0.389017,-0.220427,-0.0696254,-0.237185,-0.185725,0.98189,0.232926,-0.270326,0,0,0,0,0,0,0,-0.401788,0.0406974,0.0330918,-1.72521,-0.134772,1.59661,1.18342,-0.348257,0.00146802,-0.346111,-0.141419,0.547082,0.00139089,-0.144615,3.02265,-37.9659,2.86134,27.3755,1.48559,2.7813,-0.197647,-1.85069,-1.15792,-2.40686,1.57276,-0.282078,-0.830402,-0.771917,0.78237,-0.849177,-0.928185,0.394224,0.0240577,-0.233957,
-0.413573,0.0380131,0.0205577,-1.73414,-0.0975786,0.031969,0.385727,-0.182639,-0.0698353,-0.198858,-0.175122,0.794012,0.161187,-0.24415,0,0,0,0,0,0,0,-0.401788,0.0406974,0.0330918,-1.72521,-0.134772,1.59661,1.18342,-0.348257,0.00146802,-0.346111,-0.141419,0.547082,0.00139089,-0.144615,3.02265,-37.9659,2.86134,27.3755,1.48559,2.7813,-0.197647,-1.85069,-1.15792,-2.40686,1.57276,-0.282078,-0.830402,-0.771917,0.78237,-0.849177,-0.928185,0.394224,0.0240577,-0.233957,
-0.414269,0.0377319,0.0197963,-1.73483,-0.0944779,0.0326254,0.384759,-0.17405,-0.070301,-0.190344,-0.171859,0.775185,0.16409,-0.242038,0,0,0,0,0,0,0,-0.412024,0.0405424,0.0220971,-1.72938,-0.115839,1.59669,1.17908,-0.312108,-0.00676098,-0.315785,-0.127972,0.563111,-0.000323534,-0.133989,3.32813,-36.9661,3.18666,26.4789,1.24115,2.68151,-0.204056,-1.24608,-0.084706,-2.81885,1.03679,0.265016,-0.137408,-0.073881,1.02966,-0.174425,-1.09745,0.454824,0.0300786,-0.239168,
-0.414934,0.0374478,0.0190662,-1.7355,-0.0914662,0.0332812,0.383798,-0.16615,-0.071045,-0.182531,-0.169073,0.752904,0.163968,-0.240115,0,0,0,0,0,0,0,-0.412024,0.0405424,0.0220971,-1.72938,-0.115839,1.59669,1.17908,-0.312108,-0.00676098,-0.315785,-0.127972,0.563111,-0.000323534,-0.133989,3.32813,-36.9661,3.18666,26.4789,1.24115,2.68151,-0.204056,-1.24608,-0.084706,-2.81885,1.03679,0.265016,-0.137408,-0.073881,1.02966,-0.174425,-1.09745,0.454824,0.0300786,-0.239168,
-0.415569,0.03716,0.0183645,-1.73617,-0.0885526,0.0339277,0.382845,-0.158944,-0.0719458,-0.17542,-0.166674,0.728416,0.161615,-0.238232,0,0,0,0,0,0,0,-0.412024,0.0405424,0.0220971,-1.72938,-0.115839,1.59669,1.17908,-0.312108,-0.00676098,-0.315785,-0.127972,0.563111,-0.000323534,-0.133989,3.32813,-36.9661,3.18666,26.4789,1.24115,2.68151,-0.204056,-1.40324,0.393506,-2.38351,0.656868,-0.0418774,0.0725129,0.143319,0.709212,0.0235722,-0.925095,0.457516,0.0326175,-0.241733,
-0.416179,0.0368683,0.0176885,-1.73683,-0.0857412,0.0345591,0.3819,-0.152422,-0.0729228,-0.168998,-0.164641,0.702836,0.157861,-0.236379,0,0,0,0,0,0,0,-0.412024,0.0405424,0.0220971,-1.72938,-0.115839,1.59669,1.17908,-0.312108,-0.00676098,-0.315785,-0.127972,0.563111,-0.000323534,-0.133989,3.32813,-36.9661,3.18666,26.4789,1.24115,2.68151,-0.204056,-1.40324,0.393506,-2.38351,0.656868,-0.0418774,0.0725129,0.143319,0.709212,0.0235722,-0.925095,0.457516,0.0326175,-0.241733,
-0.416765,0.0365726,0.0170355,-1.73748,-0.0830323,0.0351736,0.380962,-0.146571,-0.0739166,-0.163248,-0.162986,0.677234,0.153607,-0.234559,0,0,0,0,0,0,0,-0.412024,0.0405424,0.0220971,-1.72938,-0.115839,1.59669,1.17908,-0.312108,-0.00676098,-0.315785,-0.127972,0.563111,-0.000323534,-0.133989,3.32813,-36.9661,3.18666,26.4789,1.24115,2.68151,-0.204056,-1.13168,-0.0933503,-2.56846,1.00412,0.190231,-0.125242,-0.0531072,0.915975,-0.171064,-0.976053,0.462341,0.0521943,-0.243301,
-0.413443,0.0374365,0.0206432,-1.7347,-0.0946829,0.0358927,0.384541,-0.182268,-0.0847252,-0.199559,-0.182833,0.975962,0.255374,-0.267342,0,0,0,0,0,0,0,-0.424013,0.039833,0.00954369,-1.73479,-0.0928924,1.59711,1.17316,-0.249772,-0.021669,-0.268263,-0.125021,0.51762,0.0196402,-0.12768,3.1258,-36.9185,3.0121,26.2051,0.911556,2.29699,-0.311172,-1.4834,-1.53853,-2.84299,1.89071,0.136979,-0.950334,-0.886876,1.14289,-0.973145,-1.09316,0.363239,0.0308177,-0.244975,
-0.432912,0.0362407,-0.000158827,-1.74335,-0.0571452,0.0348493,0.375588,-0.138486,-0.0847582,-0.155625,-0.166879,0.749517,0.199758,-0.242045,0,0,0,0,0,0,0,-0.424013,0.039833,0.00954369,-1.73479,-0.0928924,1.59711,1.17316,-0.249772,-0.021669,-0.268263,-0.125021,0.51762,0.0196402,-0.12768,3.1258,-36.9185,3.0121,26.2051,0.911556,2.29699,-0.311172,-1.4834,-1.53853,-2.84299,1.89071,0.136979,-0.950334,-0.886876,1.14289,-0.973145,-1.09316,0.363239,0.0308177,-0.244975,
-0.433441,0.0359016,-0.000756772,-1.744,-0.0542024,0.0356421,0.374628,-0.132407,-0.0847935,-0.149486,-0.163726,0.735718,0.198196,-0.239957,0,0,0,0,0,0,0,-0.424013,0.039833,0.00954369,-1.73479,-0.0928924,1.59711,1.17316,-0.249772,-0.021669,-0.268263,-0.125021,0.51762,0.0196402,-0.12768,3.1258,-36.9185,3.0121,26.2051,0.911556,2.29699,-0.311172,-2.03511,-1.57303,-3.0492,1.9464,-0.0623049,-1.0869,-1.02524,1.14976,-1.10589,-1.23273,0.325723,-0.0303798,-0.255553,
-0.433947,0.035561,-0.00133109,-1.74465,-0.0513423,0.0364166,0.373676,-0.126519,-0.0851467,-0.143579,-0.161046,0.715018,0.193623,-0.238009,0,0,0,0,0,0,0,-0.424013,0.039833,0.00954369,-1.73479,-0.0928924,1.59711,1.17316,-0.249772,-0.021669,-0.268263,-0.125021,0.51762,0.0196402,-0.12768,3.1258,-36.9185,3.0121,26.2051,0.911556,2.29699,-0.311172,-2.03511,-1.57303,-3.0492,1.9464,-0.0623049,-1.0869,-1.02524,1.14976,-1.10589,-1.23273,0.325723,-0.0303798,-0.255553,
-0.434431,0.0352182,-0.00188317,-1.74528,-0.0485847,0.0371641,0.372731,-0.120949,-0.0856889,-0.138021,-0.158763,0.689411,0.186863,-0.236101,0,0,0,0,0,0,0,-0.424013,0.039833,0.00954369,-1.73479,-0.0928924,1.59711,1.17316,-0.249772,-0.021669,-0.268263,-0.125021,0.51762,0.0196402,-0.12768,3.1258,-36.9185,3.0121,26.2051,0.911556,2.29699,-0.311172,-2.53395,0.229991,-2.70411,0.872922,-0.580275,-0.283973,-0.217595,0.63548,-0.320225,-1.12633,0.459728,-0.050833,-0.266911,
-0.434894,0.0348729,-0.00241474,-1.74591,-0.0459422,0.0378792,0.371795,-0.115786,-0.0863308,-0.132893,-0.156859,0.66061,0.178777,-0.234221,0,0,0,0,0,0,0,-0.424013,0.039833,0.00954369,-1.73479,-0.0928924,1.59711,1.17316,-0.249772,-0.021669,-0.268263,-0.125021,0.51762,0.0196402,-0.12768,3.1258,-36.9185,3.0121,26.2051,0.911556,2.29699,-0.311172,-2.73964,0.258147,-2.69755,0.871086,-0.717934,-0.319475,-0.254779,0.57756,-0.352753,-1.13197,0.469809,-0.0593947,-0.276165,
-0.435339,0.0345249,-0.00292775,-1.74653,-0.0434214,0.0385605,0.370865,-0.111096,-0.0870045,-0.128253,-0.155356,0.630212,0.17032,-0.232359,0,0,0,0,0,0,0,-0.431518,0.039195,0.00151863,-1.73858,-0.0772165,1.5981,1.17003,-0.214719,-0.0229953,-0.259288,-0.120967,0.510877,0.0370169,-0.101293,2.87189,-36.8907,2.78596,26.6296,1.31439,2.58263,-0.35878,-2.73964,0.258147,-2.69755,0.871086,-0.717934,-0.319475,-0.254779,0.57756,-0.352753,-1.13197,0.469809,-0.0593947,-0.276165,
-0.432493,0.0357318,0.000248652,-1.74382,-0.0526968,0.0393794,0.374514,-0.126838,-0.0978473,-0.144179,-0.171593,0.963969,0.306545,-0.262839,0,0,0,0,0,0,0,-0.431518,0.039195,0.00151863,-1.73858,-0.0772165,1.5981,1.17003,-0.214719,-0.0229953,-0.259288,-0.120967,0.510877,0.0370169,-0.101293,2.87189,-36.8907,2.78596,26.6296,1.31439,2.58263,-0.35878,-2.63582,-0.47298,-2.70666,1.30082,-0.640371,-0.665166,-0.606381,0.69676,-0.68648,-1.12578,0.428059,-0.052545,-0.286709,
-0.438681,0.0353636,-0.00643611,-1.74687,-0.0469816,0.0361891,0.372683,-0.100745,-0.0912887,-0.118065,-0.162151,0.59417,0.203798,-0.238035,0,0,0,0,0,0,0,-0.431518,0.039195,0.00151863,-1.73858,-0.0772165,1.5981,1.17003,-0.214719,-0.0229953,-0.259288,-0.120967,0.510877,0.0370169,-0.101293,2.87189,-36.8907,2.78596,26.6296,1.31439,2.58263,-0.35878,-2.63582,-0.47298,-2.70666,1.30082,-0.640371,-0.665166,-0.606381,0.69676,-0.68648,-1.12578,0.428059,-0.052545,-0.286709,
-0.439064,0.0349988,-0.00688725,-1.74751,-0.0446568,0.0370051,0.371739,-0.0955686,-0.0912128,-0.112785,-0.15928,0.581203,0.203987,-0.236025,0,0,0,0,0,0,0,-0.431518,0.039195,0.00151863,-1.73858,-0.0772165,1.5981,1.17003,-0.214719,-0.0229953,-0.259288,-0.120967,0.510877,0.0370169,-0.101293,2.87189,-36.8907,2.78596,26.6296,1.31439,2.58263,-0.35878,-2.35826,-0.724358,-2.84288,1.48779,-0.402015,-0.727526,-0.668667,0.874603,-0.74794,-1.17922,0.420615,-0.0525478,-0.292019,
-0.439425,0.0346332,-0.00731747,-1.74814,-0.0424185,0.0378073,0.370803,-0.0903902,-0.091394,-0.107555,-0.156643,0.559572,0.200552,-0.234089,0,0,0,0,0,0,0,-0.431518,0.039195,0.00151863,-1.73858,-0.0772165,1.5981,1.17003,-0.214719,-0.0229953,-0.259288,-0.120967,0.510877,0.0370169,-0.101293,2.87189,-36.8907,2.78596,26.6296,1.31439,2.58263,-0.35878,-2.39916,0.295651,-2.41041,0.805515,-0.655304,-0.22038,-0.153412,0.514186,-0.257747,-1.00705,0.475405,-0.0456607,-0.298336,
-0.439767,0.0342661,-0.00772775,-1.74875,-0.0402909,0.0385863,0.369874,-0.0854137,-0.0917791,-0.10257,-0.154371,0.531899,0.194754,-0.232177,0,0,0,0,0,0,0,-0.438005,0.0384248,-0.00566551,-1.7422,-0.0618992,1.59953,1.16693,-0.211424,-0.0224583,-0.218482,-0.112794,0.493032,0.0540655,-0.094443,2.64179,-37.3152,2.46461,26.828,1.5158,2.81426,-0.291031,-2.39916,0.295651,-2.41041,0.805515,-0.655304,-0.22038,-0.153412,0.514186,-0.257747,-1.00705,0.475405,-0.0456607,-0.298336,
-0.44009,0.0338969,-0.00811968,-1.74936,-0.0382885,0.0393371,0.368953,-0.0808003,-0.0922903,-0.0979822,-0.15252,0.500602,0.18771,-0.230267,0,0,0,0,0,0,0,-0.438005,0.0384248,-0.00566551,-1.7422,-0.0618992,1.59953,1.16693,-0.211424,-0.0224583,-0.218482,-0.112794,0.493032,0.0540655,-0.094443,2.64179,-37.3152,2.46461,26.828,1.5158,2.81426,-0.291031,-1.84369,1.35563,-1.94309,0.12893,-0.633688,0.441461,0.518518,0.229932,0.384111,-0.753201,0.602661,0.0303383,-0.303227,
-0.440397,0.0335255,-0.00849538,-1.74997,-0.0364159,0.0400593,0.36804,-0.0766912,-0.0928485,-0.0939268,-0.151131,0.468158,0.180532,-0.228339,0,0,0,0,0,0,0,-0.438005,0.0384248,-0.00566551,-1.7422,-0.0618992,1.59953,1.16693,-0.211424,-0.0224583,-0.218482,-0.112794,0.493032,0.0540655,-0.094443,2.64179,-37.3152,2.46461,26.828,1.5158,2.81426,-0.291031,-1.84369,1.35563,-1.94309,0.12893,-0.633688,0.441461,0.518518,0.229932,0.384111,-0.753201,0.602661,0.0303383,-0.303227,
-0.43865,0.0347781,-0.00643963,-1.74748,-0.0386957,0.041268,0.371619,-0.0964181,-0.106355,-0.114149,-0.168954,0.87587,0.321722,-0.258478,0,0,0,0,0,0,0,-0.438005,0.0384248,-0.00566551,-1.7422,-0.0618992,1.59953,1.16693,-0.211424,-0.0224583,-0.218482,-0.112794,0.493032,0.0540655,-0.094443,2.64179,-37.3152,2.46461,26.828,1.5158,2.81426,-0.291031,-1.96604,0.310703,-1.63529,0.626714,-0.853174,-0.116131,-0.0393017,0.133559,-0.16508,-0.581624,0.517761,0.0757385,-0.304896,
-0.444048,0.0343206,-0.0125099,-1.75043,-0.0353396,0.0387991,0.369814,-0.0854734,-0.097702,-0.103595,-0.161817,0.57519,0.23239,-0.233914,0,0,0,0,0,0,0,-0.438005,0.0384248,-0.00566551,-1.7422,-0.0618992,1.59953,1.16693,-0.211424,-0.0224583,-0.218482,-0.112794,0.493032,0.0540655,-0.094443,2.64179,-37.3152,2.46461,26.828,1.5158,2.81426,-0.291031,-1.96604,0.310703,-1.63529,0.626714,-0.853174,-0.116131,-0.0393017,0.133559,-0.16508,-0.581624,0.517761,0.0757385,-0.304896,
-0.44438,0.0339311,-0.0129131,-1.75106,-0.0329599,0.0397279,0.368886,-0.0829883,-0.0973683,-0.100795,-0.159014,0.594917,0.232211,-0.231971,0,0,0,0,0,0,0,-0.438005,0.0384248,-0.00566551,-1.7422,-0.0618992,1.59953,1.16693,-0.211424,-0.0224583,-0.218482,-0.112794,0.493032,0.0540655,-0.094443,2.64179,-37.3152,2.46461,26.828,1.5158,2.81426,-0.291031,-2.29496,-0.654374,-2.32411,1.30522,-0.678432,-0.679096,-0.604494,0.545303,-0.717788,-0.891359,0.411418,0.0319302,-0.30662,
