PerkyPenguin/Analysis-on-Approximated-Derivatives/Code_and_Data/PaperData/Real_Robot/Scene_1/set_interval/8/trajectory.csv
Commanded Joint 0 Position,Commanded Joint 1 Position,Commanded Joint 2 Position,Commanded Joint 3 Position,Commanded Joint 4 Position,Commanded Joint 5 Position,Commanded Joint 6 Position,Commanded Joint 0 Velocity,Commanded Joint 1 Velocity,Commanded Joint 2 Velocity,Commanded Joint 3 Velocity,Commanded Joint 4 Velocity,Commanded Joint 5 Velocity,Commanded Joint 6 Velocity,Commanded Joint 0 Torque,Commanded Joint 1 Torque,Commanded Joint 2 Torque,Commanded Joint 3 Torque,Commanded Joint 4 Torque,Commanded Joint 5 Torque,Commanded Joint 6 Torque,Actual Joint 0 Position,Actual Joint 1 Position,Actual Joint 2 Position,Actual Joint 3 Position,Actual Joint 4 Position,Actual Joint 5 Position,Actual Joint 6 Position,Actual Joint 0 Velocity,Actual Joint 1 Velocity,Actual Joint 2 Velocity,Actual Joint 3 Velocity,Actual Joint 4 Velocity,Actual Joint 5 Velocity,Actual Joint 6 Velocity,Actual Joint 0 Torque,Actual Joint 1 Torque,Actual Joint 2 Torque,Actual Joint 3 Torque,Actual Joint 4 Torque,Actual Joint 5 Torque,Actual Joint 6 Torque,EE ext force 0,EE ext force 1,EE ext force 2,EE ext force 3,EE ext force 4,EE ext force 5,joint ext torque 0,joint ext torque 1,joint ext torque 2,joint ext torque 3,joint ext torque 4,joint ext torque 5,joint ext torque 6,
0.0125675,-0.195609,-0.332787,-1.66113,-0.092913,-0.0915554,-0.382627,-0.00221149,0.013881,-0.0120412,-0.149356,0.00746061,0.200738,-0.00214809,0,0,0,0,0,0,0,0.0125822,-0.195561,-0.332684,-1.65964,-0.0930281,1.47724,0.402796,-0.000527139,-0.000717276,-0.000231419,0.000917924,-0.00323535,-0.000403946,-0.000256003,-0.0956386,-25.7625,1.83778,25.9552,0.575558,2.95983,-0.0227812,-1.37336,0.0752361,-0.530533,0.00512181,-0.53478,-0.162985,-0.0619004,-0.0844213,-0.251566,-0.346548,-0.137119,-0.315156,-0.0398636,
0.0125536,-0.195477,-0.332847,-1.66177,-0.0928894,-0.0907223,-0.382636,-0.00347202,0.0328304,-0.0149396,-0.158617,0.00589795,0.208267,-0.00204462,0,0,0,0,0,0,0,0.0125839,-0.195556,-0.332683,-1.65964,-0.093034,1.47725,0.402801,0.000109361,0.00183315,-0.00090931,-0.000265907,-0.00622928,0.000157188,0.00101914,-0.119442,-25.8339,1.83778,26.0068,0.63049,2.94701,-0.0630644,-1.4483,0.0384843,-0.463082,0.0131254,-0.618977,-0.193529,-0.0905506,-0.143741,-0.282148,-0.308213,-0.14754,-0.310983,-0.0390525,
0.0125779,-0.195538,-0.33269,-1.65965,-0.0930976,-0.0935483,-0.382596,-0.000339665,0.000872776,-0.000408896,-0.000447474,-0.00300223,-3.14939e-05,5.25868e-06,0,0,0,0,0,0,0,0.0125839,-0.195556,-0.332683,-1.65964,-0.093034,1.47725,0.402801,0.000109361,0.00183315,-0.00090931,-0.000265907,-0.00622928,0.000157188,0.00101914,-0.119442,-25.8339,1.83778,26.0068,0.63049,2.94701,-0.0630644,-1.12889,-0.0191372,-0.552197,0.0741751,-0.341231,-0.16187,-0.0610075,0.0272428,-0.257855,-0.378935,-0.142855,-0.308632,-0.0400773,
0.0125767,-0.195535,-0.332692,-1.65965,-0.0931078,-0.0935488,-0.382596,-0.000310215,0.000734789,-0.000380394,-0.000396322,-0.00254643,-0.000113987,5.4165e-06,0,0,0,0,0,0,0,0.0125839,-0.195556,-0.332683,-1.65964,-0.093034,1.47725,0.402801,0.000109361,0.00183315,-0.00090931,-0.000265907,-0.00622928,0.000157188,0.00101914,-0.119442,-25.8339,1.83778,26.0068,0.63049,2.94701,-0.0630644,-1.12889,-0.0191372,-0.552197,0.0741751,-0.341231,-0.16187,-0.0610075,0.0272428,-0.257855,-0.378935,-0.142855,-0.308632,-0.0400773,
0.0125756,-0.195532,-0.332693,-1.65965,-0.0931165,-0.0935495,-0.382596,-0.000280977,0.000614956,-0.000350498,-0.000347413,-0.00217006,-0.000177755,5.40596e-06,0,0,0,0,0,0,0,0.0125839,-0.195556,-0.332683,-1.65964,-0.093034,1.47725,0.402801,0.000109361,0.00183315,-0.00090931,-0.000265907,-0.00622928,0.000157188,0.00101914,-0.119442,-25.8339,1.83778,26.0068,0.63049,2.94701,-0.0630644,-1.56306,0.181597,-0.509717,-0.0977359,-0.723455,-0.146816,-0.0449565,-0.209101,-0.222957,-0.277594,-0.142373,-0.277622,-0.0404848,
0.0125745,-0.19553,-0.332695,-1.65966,-0.0931239,-0.0935504,-0.382596,-0.000252836,0.000510451,-0.00032076,-0.000302213,-0.00185694,-0.000225145,5.25439e-06,0,0,0,0,0,0,0,0.0125839,-0.195556,-0.332683,-1.65964,-0.093034,1.47725,0.402801,0.000109361,0.00183315,-0.00090931,-0.000265907,-0.00622928,0.000157188,0.00101914,-0.119442,-25.8339,1.83778,26.0068,0.63049,2.94701,-0.0630644,-1.56306,0.181597,-0.509717,-0.0977359,-0.723455,-0.146816,-0.0449565,-0.209101,-0.222957,-0.277594,-0.142373,-0.277622,-0.0404848,
0.0125736,-0.195529,-0.332696,-1.65966,-0.0931303,-0.0935514,-0.382596,-0.000226352,0.000419176,-0.000292168,-0.000261056,-0.0015946,-0.000259007,5.01037e-06,0,0,0,0,0,0,0,0.0125839,-0.195556,-0.332683,-1.65964,-0.093034,1.47725,0.402801,0.000109361,0.00183315,-0.00090931,-0.000265907,-0.00622928,0.000157188,0.00101914,-0.119442,-25.8339,1.83778,26.0068,0.63049,2.94701,-0.0630644,-3.0063,0.304552,-0.946208,-0.143599,-1.68103,-0.345443,-0.237296,-0.686244,-0.421058,-0.26081,-0.161687,-0.275662,-0.0403769,
0.0125728,-0.195527,-0.332697,-1.65966,-0.0931358,-0.0935526,-0.382596,-0.000201828,0.00033941,-0.000265299,-0.000223865,-0.00137339,-0.00028202,4.7138e-06,0,0,0,0,0,0,0,0.012583,-0.19554,-0.332684,-1.66,-0.0930218,1.47788,0.402798,0.00145372,0.0168214,0.000457565,-0.0056506,-0.00458559,0.015302,-4.77118e-05,-0.119442,-26.1354,1.83778,26.951,0.562741,3.16582,-0.0429228,-1.32235,-0.0486269,-1.68989,0.254041,-0.101794,-0.202521,-0.0985674,0.328973,-0.334136,-0.748297,-0.146508,-0.275746,-0.0428556,
0.0125721,-0.195526,-0.332698,-1.65966,-0.0931405,-0.0935538,-0.382596,-0.000179389,0.000269679,-0.000240458,-0.000190413,-0.00118578,-0.000296503,4.39341e-06,0,0,0,0,0,0,0,0.012583,-0.19554,-0.332684,-1.66,-0.0930218,1.47788,0.402798,0.00145372,0.0168214,0.000457565,-0.0056506,-0.00458559,0.015302,-4.77118e-05,-0.119442,-26.1354,1.83778,26.951,0.562741,3.16582,-0.0429228,-1.32235,-0.0486269,-1.68989,0.254041,-0.101794,-0.202521,-0.0985674,0.328973,-0.334136,-0.748297,-0.146508,-0.275746,-0.0428556,
0.0125715,-0.195525,-0.332699,-1.65966,-0.0931446,-0.093555,-0.382596,-0.000159041,0.000208698,-0.00021776,-0.000160417,-0.00102589,-0.000304394,4.06873e-06,0,0,0,0,0,0,0,0.012583,-0.19554,-0.332684,-1.66,-0.0930218,1.47788,0.402798,0.00145372,0.0168214,0.000457565,-0.0056506,-0.00458559,0.015302,-4.77118e-05,-0.119442,-26.1354,1.83778,26.951,0.562741,3.16582,-0.0429228,-0.975236,-0.132708,-1.29436,0.247911,-0.0174657,-0.179379,-0.0769894,0.298127,-0.303313,-0.602513,-0.145244,-0.234441,-0.0424698,
0.0125709,-0.195525,-0.332699,-1.65966,-0.0931482,-0.0935562,-0.382596,-0.000140714,0.00015535,-0.000197203,-0.000133584,-0.000889009,-0.000307282,3.75238e-06,0,0,0,0,0,0,0,0.012583,-0.19554,-0.332684,-1.66,-0.0930218,1.47788,0.402798,0.00145372,0.0168214,0.000457565,-0.0056506,-0.00458559,0.015302,-4.77118e-05,-0.119442,-26.1354,1.83778,26.951,0.562741,3.16582,-0.0429228,-0.975236,-0.132708,-1.29436,0.247911,-0.0174657,-0.179379,-0.0769894,0.298127,-0.303313,-0.602513,-0.145244,-0.234441,-0.0424698,
0.0125704,-0.195524,-0.3327,-1.65966,-0.0931512,-0.0935574,-0.382596,-0.000124294,0.000108655,-0.000178709,-0.000109624,-0.000771392,-0.000306447,3.4521e-06,0,0,0,0,0,0,0,0.012583,-0.19554,-0.332684,-1.66,-0.0930218,1.47788,0.402798,0.00145372,0.0168214,0.000457565,-0.0056506,-0.00458559,0.015302,-4.77118e-05,-0.119442,-26.1354,1.83778,26.951,0.562741,3.16582,-0.0429228,-0.876113,0.024729,-1.11092,0.105681,-0.027513,-0.0915663,0.00968106,0.256258,-0.198732,-0.528605,-0.130503,-0.218069,-0.0415715,
0.01257,-0.195524,-0.332701,-1.65966,-0.0931539,-0.0935586,-0.382596,-0.000109642,6.77617e-05,-0.000162158,-8.82608e-05,-0.000669999,-0.000302917,3.17223e-06,0,0,0,0,0,0,0,0.0125732,-0.195555,-0.332696,-1.65993,-0.0929925,1.47793,0.4028,0.000977829,-0.00524598,-0.00106765,-0.00128061,-0.00114431,0.00116576,0.000659529,0.0313145,-25.8101,2.01234,25.9076,0.312802,3.00652,-0.050247,-1.207,0.0620227,-1.24973,0.0837104,-0.205871,-0.135163,-0.0274653,0.187804,-0.244948,-0.561357,-0.154022,-0.240047,-0.039244,
0.0125696,-0.195524,-0.332701,-1.65966,-0.0931563,-0.0935598,-0.382596,-9.66088e-05,3.19265e-05,-0.000147406,-6.92349e-05,-0.00058235,-0.000297502,2.91483e-06,0,0,0,0,0,0,0,0.0125732,-0.195555,-0.332696,-1.65993,-0.0929925,1.47793,0.4028,0.000977829,-0.00524598,-0.00106765,-0.00128061,-0.00114431,0.00116576,0.000659529,0.0313145,-25.8101,2.01234,25.9076,0.312802,3.00652,-0.050247,-1.207,0.0620227,-1.24973,0.0837104,-0.205871,-0.135163,-0.0274653,0.187804,-0.244948,-0.561357,-0.154022,-0.240047,-0.039244,
0.0125693,-0.195524,-0.332702,-1.65966,-0.0931583,-0.093561,-0.382596,-8.50449e-05,5.02841e-07,-0.000134299,-5.23074e-05,-0.000506404,-0.000290835,2.68045e-06,0,0,0,0,0,0,0,0.0125732,-0.195555,-0.332696,-1.65993,-0.0929925,1.47793,0.4028,0.000977829,-0.00524598,-0.00106765,-0.00128061,-0.00114431,0.00116576,0.000659529,0.0313145,-25.8101,2.01234,25.9076,0.312802,3.00652,-0.050247,-2.15291,0.250065,-0.973224,-0.105295,-1.04126,-0.218405,-0.103758,-0.331421,-0.306729,-0.341665,-0.158238,-0.2413,-0.0385385,
0.012569,-0.195524,-0.332702,-1.65966,-0.09316,-0.0935621,-0.382596,-7.48049e-05,-2.7072e-05,-0.000122684,-3.7259e-05,-0.000440466,-0.000283408,2.46863e-06,0,0,0,0,0,0,0,0.0125732,-0.195555,-0.332696,-1.65993,-0.0929925,1.47793,0.4028,0.000977829,-0.00524598,-0.00106765,-0.00128061,-0.00114431,0.00116576,0.000659529,0.0313145,-25.8101,2.01234,25.9076,0.312802,3.00652,-0.050247,-2.15291,0.250065,-0.973224,-0.105295,-1.04126,-0.218405,-0.103758,-0.331421,-0.306729,-0.341665,-0.158238,-0.2413,-0.0385385,
0.0125687,-0.195524,-0.332703,-1.65966,-0.0931616,-0.0935632,-0.382596,-6.57518e-05,-5.12874e-05,-0.000112411,-2.38899e-05,-0.000383119,-0.000275593,2.27834e-06,0,0,0,0,0,0,0,0.0125732,-0.195555,-0.332696,-1.65993,-0.0929925,1.47793,0.4028,0.000977829,-0.00524598,-0.00106765,-0.00128061,-0.00114431,0.00116576,0.000659529,0.0313145,-25.8101,2.01234,25.9076,0.312802,3.00652,-0.050247,-1.70181,0.254241,-0.885063,-0.0907129,-0.712916,-0.137718,-0.028387,-0.153164,-0.226614,-0.383269,-0.130166,-0.260683,-0.038763,
0.0125685,-0.195525,-0.332703,-1.65966,-0.0931629,-0.0935643,-0.382596,-5.77581e-05,-7.25693e-05,-0.000103342,-1.20193e-05,-0.000333174,-0.000267672,2.10819e-06,0,0,0,0,0,0,0,0.0125732,-0.195555,-0.332696,-1.65993,-0.0929925,1.47793,0.4028,0.000977829,-0.00524598,-0.00106765,-0.00128061,-0.00114431,0.00116576,0.000659529,0.0313145,-25.8101,2.01234,25.9076,0.312802,3.00652,-0.050247,-1.70181,0.254241,-0.885063,-0.0907129,-0.712916,-0.137718,-0.028387,-0.153164,-0.226614,-0.383269,-0.130166,-0.260683,-0.038763,
0.0125683,-0.195525,-0.332704,-1.65966,-0.0931641,-0.0935653,-0.382596,-5.0707e-05,-9.12881e-05,-9.53473e-05,-1.48379e-06,-0.00028962,-0.000259851,1.95662e-06,0,0,0,0,0,0,0,0.0125776,-0.195498,-0.332687,-1.65985,-0.09302,1.47795,0.402802,-0.000501426,-0.00142376,-0.00120504,0.00480526,0.00149096,0.00101186,0.000915655,-0.0718349,-25.6117,1.88936,25.7092,0.532528,2.89391,-0.0630644,-1.39594,0.127863,-0.876828,0.00117811,-0.476103,-0.140948,-0.0342498,-0.018717,-0.237499,-0.419231,-0.135386,-0.261264,-0.0388732,
0.0125681,-0.195525,-0.332704,-1.65966,-0.0931651,-0.0935664,-0.382596,-4.44925e-05,-0.000107766,-8.83072e-05,7.86334e-06,-0.000251603,-0.000252276,1.82202e-06,0,0,0,0,0,0,0,0.0125776,-0.195498,-0.332687,-1.65985,-0.09302,1.47795,0.402802,-0.000501426,-0.00142376,-0.00120504,0.00480526,0.00149096,0.00101186,0.000915655,-0.0718349,-25.6117,1.88936,25.7092,0.532528,2.89391,-0.0630644,-1.64809,0.12711,-0.768757,-0.0246876,-0.707081,-0.186348,-0.0811833,-0.165312,-0.275334,-0.349396,-0.147014,-0.262708,-0.039131,
0.0125679,-0.195526,-0.332704,-1.65966,-0.0931659,-0.0935673,-0.382596,-3.90191e-05,-0.000122284,-8.21144e-05,1.61538e-05,-0.000218388,-0.00024505,1.70281e-06,0,0,0,0,0,0,0,0.0125776,-0.195498,-0.332687,-1.65985,-0.09302,1.47795,0.402802,-0.000501426,-0.00142376,-0.00120504,0.00480526,0.00149096,0.00101186,0.000915655,-0.0718349,-25.6117,1.88936,25.7092,0.532528,2.89391,-0.0630644,-1.64809,0.12711,-0.768757,-0.0246876,-0.707081,-0.186348,-0.0811833,-0.165312,-0.275334,-0.349396,-0.147014,-0.262708,-0.039131,
0.0125678,-0.195526,-0.332705,-1.65966,-0.0931667,-0.0935683,-0.382596,-3.42011e-05,-0.000135087,-7.6672e-05,2.35055e-05,-0.000189349,-0.000238239,1.59744e-06,0,0,0,0,0,0,0,0.0125776,-0.195498,-0.332687,-1.65985,-0.09302,1.47795,0.402802,-0.000501426,-0.00142376,-0.00120504,0.00480526,0.00149096,0.00101186,0.000915655,-0.0718349,-25.6117,1.88936,25.7092,0.532528,2.89391,-0.0630644,-1.90765,0.0484465,-0.514994,-0.0128958,-0.985232,-0.270774,-0.164869,-0.356883,-0.355537,-0.23621,-0.164814,-0.275845,-0.0373231,
0.0125677,-0.195527,-0.332705,-1.65966,-0.0931674,-0.0935692,-0.382596,-2.99619e-05,-0.000146388,-7.1893e-05,3.00236e-05,-0.000163945,-0.00023188,1.50449e-06,0,0,0,0,0,0,0,0.0125776,-0.195498,-0.332687,-1.65985,-0.09302,1.47795,0.402802,-0.000501426,-0.00142376,-0.00120504,0.00480526,0.00149096,0.00101186,0.000915655,-0.0718349,-25.6117,1.88936,25.7092,0.532528,2.89391,-0.0630644,-1.90765,0.0484465,-0.514994,-0.0128958,-0.985232,-0.270774,-0.164869,-0.356883,-0.355537,-0.23621,-0.164814,-0.275845,-0.0373231,
0.0125676,-0.195528,-0.332705,-1.65966,-0.0931679,-0.0935701,-0.382596,-2.62333e-05,-0.000156372,-6.76997e-05,3.58021e-05,-0.000141711,-0.000225992,1.42262e-06,0,0,0,0,0,0,0,0.0125974,-0.195457,-0.332655,-1.65984,-0.0930369,1.47795,0.402798,-0.000493589,0.00301141,0.000187794,0.00194341,-0.0120798,0.00352585,0.000201612,-0.222592,-25.8339,1.71083,26.0544,0.660702,2.96715,-0.0301054,-1.39442,0.102212,-0.604934,-0.0241633,-0.563864,-0.155209,-0.0579605,-0.105957,-0.236671,-0.327345,-0.14205,-0.270595,-0.0383122,
0.0125675,-0.195528,-0.332705,-1.65966,-0.0931684,-0.093571,-0.382596,-2.29548e-05,-0.000165202,-6.40231e-05,4.09248e-05,-0.000122242,-0.000220578,1.35063e-06,0,0,0,0,0,0,0,0.0125974,-0.195457,-0.332655,-1.65984,-0.0930369,1.47795,0.402798,-0.000493589,0.00301141,0.000187794,0.00194341,-0.0120798,0.00352585,0.000201612,-0.222592,-25.8339,1.71083,26.0544,0.660702,2.96715,-0.0301054,-0.966443,0.086205,-0.853708,0.0484229,-0.134047,-0.0869199,0.00253656,0.181024,-0.176833,-0.485053,-0.119772,-0.282733,-0.0387005,
0.0125674,-0.195529,-0.332706,-1.65966,-0.0931688,-0.0935719,-0.382596,-2.0073e-05,-0.00017302,-6.08019e-05,4.54659e-05,-0.00010519,-0.00021563,1.2874e-06,0,0,0,0,0,0,0,0.0125974,-0.195457,-0.332655,-1.65984,-0.0930369,1.47795,0.402798,-0.000493589,0.00301141,0.000187794,0.00194341,-0.0120798,0.00352585,0.000201612,-0.222592,-25.8339,1.71083,26.0544,0.660702,2.96715,-0.0301054,-0.966443,0.086205,-0.853708,0.0484229,-0.134047,-0.0869199,0.00253656,0.181024,-0.176833,-0.485053,-0.119772,-0.282733,-0.0387005,
0.0125673,-0.19553,-0.332706,-1.65966,-0.0931692,-0.0935727,-0.382596,-1.75403e-05,-0.00017995,-5.79818e-05,4.94919e-05,-9.02519e-05,-0.00021113,1.23194e-06,0,0,0,0,0,0,0,0.0125974,-0.195457,-0.332655,-1.65984,-0.0930369,1.47795,0.402798,-0.000493589,0.00301141,0.000187794,0.00194341,-0.0120798,0.00352585,0.000201612,-0.222592,-25.8339,1.71083,26.0544,0.660702,2.96715,-0.0301054,-1.30791,-0.097402,-0.489144,0.10416,-0.537774,-0.231316,-0.138604,-0.109188,-0.319467,-0.29502,-0.152121,-0.269548,-0.0381552,
0.0125673,-0.19553,-0.332706,-1.65966,-0.0931695,-0.0935735,-0.382596,-1.53148e-05,-0.0001861,-5.55147e-05,5.30615e-05,-7.71627e-05,-0.000207058,1.18336e-06,0,0,0,0,0,0,0,0.0125974,-0.195457,-0.332655,-1.65984,-0.0930369,1.47795,0.402798,-0.000493589,0.00301141,0.000187794,0.00194341,-0.0120798,0.00352585,0.000201612,-0.222592,-25.8339,1.71083,26.0544,0.660702,2.96715,-0.0301054,-1.30791,-0.097402,-0.489144,0.10416,-0.537774,-0.231316,-0.138604,-0.109188,-0.319467,-0.29502,-0.152121,-0.269548,-0.0381552,
0.0124599,-0.195488,-0.33278,-1.65953,-0.0915739,-0.0944818,-0.382595,-0.0116687,0.00480131,-0.0105707,0.00909085,0.168469,-0.105722,0.000357138,0,0,0,0,0,0,0,0.0125974,-0.195457,-0.332655,-1.65984,-0.0930369,1.47795,0.402798,-0.000493589,0.00301141,0.000187794,0.00194341,-0.0120798,0.00352585,0.000201612,-0.222592,-25.8339,1.71083,26.0544,0.660702,2.96715,-0.0301054,-0.831227,-0.210727,-0.665041,0.216967,-0.104244,-0.197362,-0.107799,0.164861,-0.298736,-0.417955,-0.152062,-0.267298,-0.0387181,
0.0124756,-0.195385,-0.332749,-1.65972,-0.091641,-0.0937269,-0.3826,-0.0115292,0.004929,-0.0103671,0.00936432,0.163497,-0.101588,0.000332626,0,0,0,0,0,0,0,0.0125875,-0.195522,-0.332653,-1.65981,-0.093002,1.47794,0.402795,-2.78753e-06,0.000164553,0.00186457,0.000552054,-0.000968002,0.00204729,-0.000594458,-0.0956386,-25.1357,1.86159,25.9076,0.386044,3.07976,-0.0301054,-1.35615,-0.0303817,-0.429802,0.0417254,-0.609649,-0.2101,-0.123789,-0.164074,-0.285307,-0.254031,-0.148138,-0.257042,-0.0383488,
0.0124297,-0.195372,-0.332793,-1.65969,-0.0908569,-0.0942172,-0.382598,-0.0114694,0.00341228,-0.0110554,0.00775837,0.196038,-0.122558,0.000464521,0,0,0,0,0,0,0,0.0125875,-0.195522,-0.332653,-1.65981,-0.093002,1.47794,0.402795,-2.78753e-06,0.000164553,0.00186457,0.000552054,-0.000968002,0.00204729,-0.000594458,-0.0956386,-25.1357,1.86159,25.9076,0.386044,3.07976,-0.0301054,-1.35615,-0.0303817,-0.429802,0.0417254,-0.609649,-0.2101,-0.123789,-0.164074,-0.285307,-0.254031,-0.148138,-0.257042,-0.0383488,
0.0123861,-0.195363,-0.332837,-1.65966,-0.0899722,-0.0947765,-0.382595,-0.0108853,0.00207238,-0.0109532,0.00625197,0.221171,-0.139833,0.00053866,0,0,0,0,0,0,0,0.0125875,-0.195522,-0.332653,-1.65981,-0.093002,1.47794,0.402795,-2.78753e-06,0.000164553,0.00186457,0.000552054,-0.000968002,0.00204729,-0.000594458,-0.0956386,-25.1357,1.86159,25.9076,0.386044,3.07976,-0.0301054,-1.1503,-0.18847,-0.521431,0.174022,-0.412284,-0.243999,-0.15713,-0.0362742,-0.334719,-0.317048,-0.15395,-0.259319,-0.0391849,
0.0123461,-0.19536,-0.332878,-1.65964,-0.0890092,-0.0953929,-0.382593,-0.0100017,0.000978199,-0.0103644,0.00495652,0.240746,-0.15409,0.000576869,0,0,0,0,0,0,0,0.0125875,-0.195522,-0.332653,-1.65981,-0.093002,1.47794,0.402795,-2.78753e-06,0.000164553,0.00186457,0.000552054,-0.000968002,0.00204729,-0.000594458,-0.0956386,-25.1357,1.86159,25.9076,0.386044,3.07976,-0.0301054,-1.1503,-0.18847,-0.521431,0.174022,-0.412284,-0.243999,-0.15713,-0.0362742,-0.334719,-0.317048,-0.15395,-0.259319,-0.0391849,
0.0123103,-0.195359,-0.332916,-1.65963,-0.0879848,-0.0960561,-0.382591,-0.0089622,0.000123872,-0.0094919,0.00387097,0.256096,-0.165819,0.000592047,0,0,0,0,0,0,0,0.0125875,-0.195522,-0.332653,-1.65981,-0.093002,1.47794,0.402795,-2.78753e-06,0.000164553,0.00186457,0.000552054,-0.000968002,0.00204729,-0.000594458,-0.0956386,-25.1357,1.86159,25.9076,0.386044,3.07976,-0.0301054,-0.760729,-0.235456,-0.590395,0.282718,-0.096488,-0.195157,-0.108692,0.148646,-0.304922,-0.398313,-0.0908336,-0.267087,-0.0399744,
0.0122789,-0.195361,-0.33295,-1.65962,-0.086912,-0.0967578,-0.382588,-0.00785955,-0.000519544,-0.00847039,0.00296605,0.268199,-0.175419,0.000592328,0,0,0,0,0,0,0,0.0125459,-0.195484,-0.332688,-1.65975,-0.0924153,1.47791,0.402798,-0.00114593,-0.000515078,-0.000970403,0.00107744,0.0522396,-0.00305615,-6.41524e-05,0.285221,-25.5879,2.11152,25.9314,0.745846,3.11272,-0.0301054,-1.21701,-0.292336,-0.255004,0.305248,-0.603587,-0.301149,-0.204496,-0.207244,-0.417319,-0.199207,-0.0582489,-0.249406,-0.0393201,
0.0122518,-0.195365,-0.33298,-1.65961,-0.0858009,-0.0974907,-0.382586,-0.00675326,-0.000985871,-0.00738868,0.00221006,0.277778,-0.183225,0.000583161,0,0,0,0,0,0,0,0.0125459,-0.195484,-0.332688,-1.65975,-0.0924153,1.47791,0.402798,-0.00114593,-0.000515078,-0.000970403,0.00107744,0.0522396,-0.00305615,-6.41524e-05,0.285221,-25.5879,2.11152,25.9314,0.745846,3.11272,-0.0301054,-1.21701,-0.292336,-0.255004,0.305248,-0.603587,-0.301149,-0.204496,-0.207244,-0.417319,-0.199207,-0.0582489,-0.249406,-0.0393201,
0.0122291,-0.19537,-0.333005,-1.6596,-0.0846594,-0.0982488,-0.382584,-0.00568048,-0.00130743,-0.00630416,0.00157567,0.285373,-0.189525,0.000568155,0,0,0,0,0,0,0,0.0125459,-0.195484,-0.332688,-1.65975,-0.0924153,1.47791,0.402798,-0.00114593,-0.000515078,-0.000970403,0.00107744,0.0522396,-0.00305615,-6.41524e-05,0.285221,-25.5879,2.11152,25.9314,0.745846,3.11272,-0.0301054,-0.766673,-0.267373,-0.395666,0.390746,-0.215171,-0.208253,-0.103753,0.0295228,-0.351527,-0.319845,0.0252993,-0.263038,-0.0393701,
0.0122105,-0.195376,-0.333026,-1.6596,-0.0834938,-0.0990271,-0.382582,-0.00466345,-0.00151296,-0.00525279,0.00104077,0.291391,-0.194563,0.000549558,0,0,0,0,0,0,0,0.0125459,-0.195484,-0.332688,-1.65975,-0.0924153,1.47791,0.402798,-0.00114593,-0.000515078,-0.000970403,0.00107744,0.0522396,-0.00305615,-6.41524e-05,0.285221,-25.5879,2.11152,25.9314,0.745846,3.11272,-0.0301054,-0.766673,-0.267373,-0.395666,0.390746,-0.215171,-0.208253,-0.103753,0.0295228,-0.351527,-0.319845,0.0252993,-0.263038,-0.0393701,
0.0121956,-0.195383,-0.333043,-1.65959,-0.0823093,-0.0998213,-0.38258,-0.00371432,-0.00162713,-0.00425608,0.000587888,0.296144,-0.198546,0.000529202,0,0,0,0,0,0,0,0.0125459,-0.195484,-0.332688,-1.65975,-0.0924153,1.47791,0.402798,-0.00114593,-0.000515078,-0.000970403,0.00107744,0.0522396,-0.00305615,-6.41524e-05,0.285221,-25.5879,2.11152,25.9314,0.745846,3.11272,-0.0301054,-0.617918,-0.319751,-0.305036,0.493702,-0.152381,-0.206039,-0.0954291,0.0412838,-0.371124,-0.309646,0.10182,-0.268904,-0.0378435,
0.0121843,-0.19539,-0.333056,-1.65959,-0.0811098,-0.100628,-0.382577,-0.00283861,-0.00167066,-0.00332573,0.000203189,0.299869,-0.201649,0.00050831,0,0,0,0,0,0,0,0.0125151,-0.195472,-0.332735,-1.65976,-0.0896774,1.47786,0.402797,-0.000589381,-0.00697604,-0.00128227,0.00653187,0.108255,-0.0102425,-0.000581851,0.463749,-25.6117,2.31386,26.0306,0.831906,3.09899,-0.0227812,-0.617918,-0.319751,-0.305036,0.493702,-0.152381,-0.206039,-0.0954291,0.0412838,-0.371124,-0.309646,0.10182,-0.268904,-0.0378435,
0.0121761,-0.195396,-0.333066,-1.65959,-0.0798988,-0.101444,-0.382576,-0.00203747,-0.00166068,-0.002467,-0.000124333,0.302752,-0.204021,0.000487302,0,0,0,0,0,0,0,0.0125151,-0.195472,-0.332735,-1.65976,-0.0896774,1.47786,0.402797,-0.000589381,-0.00697604,-0.00128227,0.00653187,0.108255,-0.0102425,-0.000581851,0.463749,-25.6117,2.31386,26.0306,0.831906,3.09899,-0.0227812,-0.724804,-0.197696,-0.285883,0.457129,-0.247806,-0.169756,-0.0533488,-0.0189722,-0.341002,-0.302133,0.160892,-0.283119,-0.0369913,
0.0121709,-0.195403,-0.333073,-1.65959,-0.078679,-0.102267,-0.382574,-0.00130928,-0.00161118,-0.00168089,-0.000403507,0.304941,-0.205785,0.000466942,0,0,0,0,0,0,0,0.0125151,-0.195472,-0.332735,-1.65976,-0.0896774,1.47786,0.402797,-0.000589381,-0.00697604,-0.00128227,0.00653187,0.108255,-0.0102425,-0.000581851,0.463749,-25.6117,2.31386,26.0306,0.831906,3.09899,-0.0227812,-0.724804,-0.197696,-0.285883,0.457129,-0.247806,-0.169756,-0.0533488,-0.0189722,-0.341002,-0.302133,0.160892,-0.283119,-0.0369913,
0.0121683,-0.195409,-0.333077,-1.6596,-0.0774528,-0.103095,-0.382572,-0.000650725,-0.00153346,-0.000965731,-0.00064151,0.306551,-0.207044,0.000447375,0,0,0,0,0,0,0,0.0125151,-0.195472,-0.332735,-1.65976,-0.0896774,1.47786,0.402797,-0.000589381,-0.00697604,-0.00128227,0.00653187,0.108255,-0.0102425,-0.000581851,0.463749,-25.6117,2.31386,26.0306,0.831906,3.09899,-0.0227812,-0.644542,-0.0448808,-0.178698,0.418884,-0.222119,-0.0866968,0.0301136,-0.0202149,-0.262296,-0.303046,0.252475,-0.316122,-0.0370019,
0.012168,-0.195414,-0.333078,-1.6596,-0.0762221,-0.103927,-0.38257,-5.75411e-05,-0.00143652,-0.000318234,-0.000844217,0.307676,-0.207884,0.000428825,0,0,0,0,0,0,0,0.0125151,-0.195472,-0.332735,-1.65976,-0.0896774,1.47786,0.402797,-0.000589381,-0.00697604,-0.00128227,0.00653187,0.108255,-0.0102425,-0.000581851,0.463749,-25.6117,2.31386,26.0306,0.831906,3.09899,-0.0227812,-1.2127,0.184091,0.204337,0.25203,-0.800779,-0.0841422,0.036666,-0.40883,-0.244645,-0.113428,0.315342,-0.341624,-0.0370631,
0.0121699,-0.19542,-0.333077,-1.6596,-0.0749885,-0.10476,-0.382569,0.00047501,-0.00132748,0.000265822,-0.0010165,0.308391,-0.208378,0.000411364,0,0,0,0,0,0,0,0.0125151,-0.195472,-0.332735,-1.65976,-0.0896774,1.47786,0.402797,-0.000589381,-0.00697604,-0.00128227,0.00653187,0.108255,-0.0102425,-0.000581851,0.463749,-25.6117,2.31386,26.0306,0.831906,3.09899,-0.0227812,-1.2127,0.184091,0.204337,0.25203,-0.800779,-0.0841422,0.036666,-0.40883,-0.244645,-0.113428,0.315342,-0.341624,-0.0370631,
0.0121737,-0.195425,-0.333074,-1.65961,-0.0737535,-0.105595,-0.382567,0.00095182,-0.00121187,0.000791092,-0.00116241,0.308757,-0.208584,0.000395058,0,0,0,0,0,0,0,0.0125286,-0.195462,-0.33273,-1.65975,-0.0850003,1.47756,0.402797,0.0019734,0.00253827,0.00251227,-0.000853368,0.11127,-0.00299767,4.48818e-05,0.25745,-25.7109,2.08772,25.9552,1.39404,2.70806,-0.0301054,-0.60388,0.191885,-0.064841,0.358106,-0.211337,0.0273673,0.146987,-0.0234123,-0.156156,-0.326731,0.37976,-0.380217,-0.0368698,
0.0121793,-0.195429,-0.333069,-1.65961,-0.0725182,-0.106429,-0.382565,0.00137772,-0.00109395,0.00126237,-0.00128539,0.308827,-0.208552,0.00037977,0,0,0,0,0,0,0,0.0125286,-0.195462,-0.33273,-1.65975,-0.0850003,1.47756,0.402797,0.0019734,0.00253827,0.00251227,-0.000853368,0.11127,-0.00299767,4.48818e-05,0.25745,-25.7109,2.08772,25.9552,1.39404,2.70806,-0.0301054,-0.60388,0.191885,-0.064841,0.358106,-0.211337,0.0273673,0.146987,-0.0234123,-0.156156,-0.326731,0.37976,-0.380217,-0.0368698,
0.0121863,-0.195433,-0.333062,-1.65962,-0.0712836,-0.107262,-0.382564,0.00175735,-0.000976931,0.00168437,-0.00138836,0.308642,-0.208323,0.00036548,0,0,0,0,0,0,0,0.0125286,-0.195462,-0.33273,-1.65975,-0.0850003,1.47756,0.402797,0.0019734,0.00253827,0.00251227,-0.000853368,0.11127,-0.00299767,4.48818e-05,0.25745,-25.7109,2.08772,25.9552,1.39404,2.70806,-0.0301054,-0.581823,0.222811,0.00241561,0.380138,-0.202495,0.0426875,0.158215,-0.0220651,-0.143926,-0.336879,0.428402,-0.413582,-0.0351195,
0.0121947,-0.195436,-0.333054,-1.65963,-0.0700507,-0.108094,-0.382563,0.00209509,-0.000863166,0.00206164,-0.00147379,0.308237,-0.20793,0.000352252,0,0,0,0,0,0,0,0.0125286,-0.195462,-0.33273,-1.65975,-0.0850003,1.47756,0.402797,0.0019734,0.00253827,0.00251227,-0.000853368,0.11127,-0.00299767,4.48818e-05,0.25745,-25.7109,2.08772,25.9552,1.39404,2.70806,-0.0301054,-0.839287,0.0335287,0.145445,0.50529,-0.421093,-0.0919401,0.0158274,-0.155218,-0.281077,-0.285795,0.416134,-0.446194,-0.0333424,
0.0122042,-0.195439,-0.333044,-1.65963,-0.0688201,-0.108923,-0.382561,0.00239504,-0.000754354,0.00239842,-0.00154383,0.307644,-0.207402,0.000339969,0,0,0,0,0,0,0,0.0125286,-0.195462,-0.33273,-1.65975,-0.0850003,1.47756,0.402797,0.0019734,0.00253827,0.00251227,-0.000853368,0.11127,-0.00299767,4.48818e-05,0.25745,-25.7109,2.08772,25.9552,1.39404,2.70806,-0.0301054,-0.839287,0.0335287,0.145445,0.50529,-0.421093,-0.0919401,0.0158274,-0.155218,-0.281077,-0.285795,0.416134,-0.446194,-0.0333424,
0.0122149,-0.195442,-0.333034,-1.65964,-0.0675926,-0.109751,-0.38256,0.00266093,-0.000651655,0.00269868,-0.00160034,0.306887,-0.206762,0.000328532,0,0,0,0,0,0,0,0.012575,-0.19548,-0.332676,-1.65975,-0.0810476,1.4774,0.402796,0.00447207,0.00165001,0.000373729,-0.000708326,0.128829,0.00222197,-0.00105932,-0.147213,-25.5126,1.7624,25.9314,1.02142,2.68792,-0.0163725,-0.528349,0.0997314,0.0851421,0.505716,-0.125566,-0.00774276,0.0862706,0.0373768,-0.191621,-0.389027,0.450401,-0.489352,-0.0343532,
0.0122265,-0.195444,-0.333022,-1.65965,-0.0663686,-0.110575,-0.382559,0.00289621,-0.000555812,0.00296609,-0.00164491,0.305987,-0.206029,0.000317783,0,0,0,0,0,0,0,0.012575,-0.19548,-0.332676,-1.65975,-0.0810476,1.4774,0.402796,0.00447207,0.00165001,0.000373729,-0.000708326,0.128829,0.00222197,-0.00105932,-0.147213,-25.5126,1.7624,25.9314,1.02142,2.68792,-0.0163725,-0.528349,0.0997314,0.0851421,0.505716,-0.125566,-0.00774276,0.0862706,0.0373768,-0.191621,-0.389027,0.450401,-0.489352,-0.0343532,
0.0122389,-0.195446,-0.333009,-1.65965,-0.0651488,-0.111396,-0.382557,0.00310405,-0.000467256,0.00320397,-0.00167895,0.304965,-0.205219,0.00030791,0,0,0,0,0,0,0,0.012575,-0.19548,-0.332676,-1.65975,-0.0810476,1.4774,0.402796,0.00447207,0.00165001,0.000373729,-0.000708326,0.128829,0.00222197,-0.00105932,-0.147213,-25.5126,1.7624,25.9314,1.02142,2.68792,-0.0163725,-0.776045,-0.0279911,0.285678,0.564913,-0.366007,-0.110956,-0.0255058,-0.120233,-0.288477,-0.306511,0.432501,-0.510994,-0.0341618,
0.012252,-0.195448,-0.332995,-1.65966,-0.0639334,-0.112213,-0.382556,0.00328725,-0.000386154,0.00341536,-0.00170369,0.303834,-0.204345,0.000298579,0,0,0,0,0,0,0,0.012575,-0.19548,-0.332676,-1.65975,-0.0810476,1.4774,0.402796,0.00447207,0.00165001,0.000373729,-0.000708326,0.128829,0.00222197,-0.00105932,-0.147213,-25.5126,1.7624,25.9314,1.02142,2.68792,-0.0163725,-0.475165,-0.104571,0.207519,0.613887,-0.0948854,-0.0919384,-0.0189598,0.0512133,-0.264173,-0.37447,0.411311,-0.511795,-0.035546,
0.0122658,-0.195449,-0.332981,-1.65967,-0.062723,-0.113027,-0.382555,0.00344841,-0.000312496,0.00360301,-0.00172021,0.30261,-0.203418,0.000289981,0,0,0,0,0,0,0,0.012575,-0.19548,-0.332676,-1.65975,-0.0810476,1.4774,0.402796,0.00447207,0.00165001,0.000373729,-0.000708326,0.128829,0.00222197,-0.00105932,-0.147213,-25.5126,1.7624,25.9314,1.02142,2.68792,-0.0163725,-0.475165,-0.104571,0.207519,0.613887,-0.0948854,-0.0919384,-0.0189598,0.0512133,-0.264173,-0.37447,0.411311,-0.511795,-0.035546,
0.012303,-0.19529,-0.332866,-1.6594,-0.0885734,-0.0965225,-0.382569,-0.0269449,0.00980478,-0.0226762,0.0338334,0.515549,-0.413743,0.00330258,0,0,0,0,0,0,0,0.012575,-0.19548,-0.332676,-1.65975,-0.0810476,1.4774,0.402796,0.00447207,0.00165001,0.000373729,-0.000708326,0.128829,0.00222197,-0.00105932,-0.147213,-25.5126,1.7624,25.9314,1.02142,2.68792,-0.0163725,-0.393949,-0.27721,0.185998,0.740115,0.0139237,-0.157287,-0.0959067,0.132887,-0.331988,-0.426343,0.389735,-0.544098,-0.0353008,
0.0123522,-0.19533,-0.332826,-1.65935,-0.0755047,-0.0968941,-0.382574,-0.0205315,0.00891342,-0.0166432,0.0309591,0.586283,-0.393953,0.00307762,0,0,0,0,0,0,0,0.0125669,-0.195492,-0.33265,-1.65972,-0.0766937,1.47716,0.402798,-0.000955966,-0.00405099,0.00120568,0.00227005,0.157882,-0.0129491,0.000423754,0.0313145,-25.3856,1.91316,25.6815,0.819088,2.76757,-0.0301054,-0.393949,-0.27721,0.185998,0.740115,0.0139237,-0.157287,-0.0959067,0.132887,-0.331988,-0.426343,0.389735,-0.544098,-0.0353008,
0.0122754,-0.195314,-0.332893,-1.65926,-0.072806,-0.0987579,-0.382561,-0.0192187,0.00404033,-0.0168697,0.0247512,0.674681,-0.465968,0.00336799,0,0,0,0,0,0,0,0.0125669,-0.195492,-0.33265,-1.65972,-0.0766937,1.47716,0.402798,-0.000955966,-0.00405099,0.00120568,0.00227005,0.157882,-0.0129491,0.000423754,0.0313145,-25.3856,1.91316,25.6815,0.819088,2.76757,-0.0301054,-0.818366,-0.292542,0.405758,0.684649,-0.385512,-0.24063,-0.18463,-0.124109,-0.396764,-0.292653,0.353199,-0.544016,-0.0344837,
0.0122081,-0.195314,-0.332955,-1.65918,-0.0698274,-0.10085,-0.382546,-0.0168296,4.75095e-06,-0.0154891,0.0187734,0.744646,-0.522894,0.0035214,0,0,0,0,0,0,0,0.0125669,-0.195492,-0.33265,-1.65972,-0.0766937,1.47716,0.402798,-0.000955966,-0.00405099,0.00120568,0.00227005,0.157882,-0.0129491,0.000423754,0.0313145,-25.3856,1.91316,25.6815,0.819088,2.76757,-0.0301054,-0.818366,-0.292542,0.405758,0.684649,-0.385512,-0.24063,-0.18463,-0.124109,-0.396764,-0.292653,0.353199,-0.544016,-0.0344837,
0.0121526,-0.195326,-0.333008,-1.65913,-0.0666251,-0.103121,-0.382532,-0.0138714,-0.00304227,-0.0131534,0.01354,0.800584,-0.567936,0.0035935,0,0,0,0,0,0,0,0.0125669,-0.195492,-0.33265,-1.65972,-0.0766937,1.47716,0.402798,-0.000955966,-0.00405099,0.00120568,0.00227005,0.157882,-0.0129491,0.000423754,0.0313145,-25.3856,1.91316,25.6815,0.819088,2.76757,-0.0301054,-0.561961,-0.298327,0.36935,0.707073,-0.152695,-0.197204,-0.14993,0.0236581,-0.351008,-0.360749,0.360906,-0.566843,-0.0353207,
0.0121099,-0.195346,-0.333049,-1.65909,-0.0632423,-0.105535,-0.382518,-0.0106558,-0.00519583,-0.0102905,0.00909799,0.845706,-0.603366,0.00361371,0,0,0,0,0,0,0,0.0125669,-0.195492,-0.33265,-1.65972,-0.0766937,1.47716,0.402798,-0.000955966,-0.00405099,0.00120568,0.00227005,0.157882,-0.0129491,0.000423754,0.0313145,-25.3856,1.91316,25.6815,0.819088,2.76757,-0.0301054,-0.566088,-0.580701,0.937863,0.836193,-0.350965,-0.322731,-0.274695,-0.173714,-0.481209,-0.16312,0.349233,-0.579284,-0.0368244,
0.0120804,-0.195373,-0.333078,-1.65907,-0.0597127,-0.108058,-0.382503,-0.00737941,-0.00661039,-0.00718236,0.00536384,0.882391,-0.630944,0.00360054,0,0,0,0,0,0,0,0.0124881,-0.195408,-0.332726,-1.65967,-0.0696571,1.4764,0.402796,-0.008636,0.00224298,-0.0078887,0.00933093,0.320868,-0.0472432,-0.000490549,0.765262,-25.9093,2.43684,25.983,1.68701,2.42333,-0.00996382,-0.566088,-0.580701,0.937863,0.836193,-0.350965,-0.322731,-0.274695,-0.173714,-0.481209,-0.16312,0.349233,-0.579284,-0.0368244,
0.0120638,-0.195403,-0.333094,-1.65906,-0.056063,-0.110667,-0.382489,-0.00416583,-0.00743909,-0.00401338,0.00223125,0.912425,-0.652088,0.00356444,0,0,0,0,0,0,0,0.0124881,-0.195408,-0.332726,-1.65967,-0.0696571,1.4764,0.402796,-0.008636,0.00224298,-0.0078887,0.00933093,0.320868,-0.0472432,-0.000490549,0.765262,-25.9093,2.43684,25.983,1.68701,2.42333,-0.00996382,-0.36615,-0.880347,1.20315,1.08757,-0.274192,-0.418218,-0.351002,-0.166612,-0.620587,-0.127904,0.393383,-0.616095,-0.0362329,
0.0120594,-0.195434,-0.333097,-1.65906,-0.0523143,-0.113339,-0.382475,-0.00109105,-0.00781597,-0.000901816,-0.000397894,0.937164,-0.667963,0.00351396,0,0,0,0,0,0,0,0.0124881,-0.195408,-0.332726,-1.65967,-0.0696571,1.4764,0.402796,-0.008636,0.00224298,-0.0078887,0.00933093,0.320868,-0.0472432,-0.000490549,0.765262,-25.9093,2.43684,25.983,1.68701,2.42333,-0.00996382,-0.36615,-0.880347,1.20315,1.08757,-0.274192,-0.418218,-0.351002,-0.166612,-0.620587,-0.127904,0.393383,-0.616095,-0.0362329,
0.0120666,-0.195465,-0.333089,-1.65907,-0.0484838,-0.116057,-0.382461,0.0018009,-0.00785268,0.00207902,-0.00260679,0.957646,-0.679524,0.00345423,0,0,0,0,0,0,0,0.0124881,-0.195408,-0.332726,-1.65967,-0.0696571,1.4764,0.402796,-0.008636,0.00224298,-0.0078887,0.00933093,0.320868,-0.0472432,-0.000490549,0.765262,-25.9093,2.43684,25.983,1.68701,2.42333,-0.00996382,-0.0269888,-0.733287,1.13601,1.12316,0.0666158,-0.285616,-0.195337,0.058718,-0.526943,-0.28654,0.507415,-0.710008,-0.0355026,
0.0120846,-0.195496,-0.333069,-1.65909,-0.0445851,-0.118807,-0.382448,0.00448731,-0.00763984,0.00488635,-0.00446396,0.974673,-0.68756,0.00338883,0,0,0,0,0,0,0,0.0124881,-0.195408,-0.332726,-1.65967,-0.0696571,1.4764,0.402796,-0.008636,0.00224298,-0.0078887,0.00933093,0.320868,-0.0472432,-0.000490549,0.765262,-25.9093,2.43684,25.983,1.68701,2.42333,-0.00996382,-0.0269888,-0.733287,1.13601,1.12316,0.0666158,-0.285616,-0.195337,0.058718,-0.526943,-0.28654,0.507415,-0.710008,-0.0355026,
0.0121124,-0.195525,-0.333039,-1.65911,-0.0406296,-0.121578,-0.382434,0.00695959,-0.00724978,0.00749793,-0.00602539,0.988871,-0.692719,0.00332061,0,0,0,0,0,0,0,0.0124881,-0.195408,-0.332726,-1.65967,-0.0696571,1.4764,0.402796,-0.008636,0.00224298,-0.0078887,0.00933093,0.320868,-0.0472432,-0.000490549,0.765262,-25.9093,2.43684,25.983,1.68701,2.42333,-0.00996382,-0.45269,-0.59123,1.63762,1.05851,-0.406588,-0.288029,-0.171571,-0.274149,-0.547454,-0.124414,0.604352,-0.788424,-0.0343808,
0.0121493,-0.195552,-0.333,-1.65914,-0.0366266,-0.12436,-0.382421,0.00921845,-0.00673948,0.00990526,-0.00733704,1.00074,-0.695533,0.00325162,0,0,0,0,0,0,0,0.0121914,-0.195402,-0.333127,-1.65953,-0.0537702,1.47317,0.402797,-0.012587,-0.00421081,-0.0137865,0.00310783,0.547883,-0.13679,-0.000296819,1.2215,-25.8855,2.93672,25.733,1.91864,2.09191,-0.0227812,-0.45269,-0.59123,1.63762,1.05851,-0.406588,-0.288029,-0.171571,-0.274149,-0.547454,-0.124414,0.604352,-0.788424,-0.0343808,
0.0121943,-0.195576,-0.332951,-1.65918,-0.032584,-0.127146,-0.382408,0.0112704,-0.00615334,0.0121088,-0.00843677,1.01066,-0.69644,0.00318292,0,0,0,0,0,0,0,0.0121914,-0.195402,-0.333127,-1.65953,-0.0537702,1.47317,0.402797,-0.012587,-0.00421081,-0.0137865,0.00310783,0.547883,-0.13679,-0.000296819,1.2215,-25.8855,2.93672,25.733,1.91864,2.09191,-0.0227812,-0.178617,-0.27377,1.86491,0.870021,-0.266766,-0.0892588,0.0346859,-0.225083,-0.342953,-0.109456,0.690628,-0.827959,-0.0345258,
0.0122468,-0.195599,-0.332895,-1.65921,-0.0285082,-0.129929,-0.382396,0.0131257,-0.00552541,0.0141148,-0.00935585,1.01895,-0.695797,0.00311507,0,0,0,0,0,0,0,0.0121914,-0.195402,-0.333127,-1.65953,-0.0537702,1.47317,0.402797,-0.012587,-0.00421081,-0.0137865,0.00310783,0.547883,-0.13679,-0.000296819,1.2215,-25.8855,2.93672,25.733,1.91864,2.09191,-0.0227812,-0.0920657,0.210311,1.8992,0.665056,-0.183781,0.151517,0.286289,-0.171053,-0.107567,-0.184935,0.850944,-0.911206,-0.0329229,
0.012306,-0.195618,-0.332831,-1.65925,-0.0244047,-0.132705,-0.382384,0.0147964,-0.00488144,0.0159328,-0.0101203,1.02587,-0.693899,0.0030489,0,0,0,0,0,0,0,0.0121914,-0.195402,-0.333127,-1.65953,-0.0537702,1.47317,0.402797,-0.012587,-0.00421081,-0.0137865,0.00310783,0.547883,-0.13679,-0.000296819,1.2215,-25.8855,2.93672,25.733,1.91864,2.09191,-0.0227812,-0.0920657,0.210311,1.8992,0.665056,-0.183781,0.151517,0.286289,-0.171053,-0.107567,-0.184935,0.850944,-0.911206,-0.0329229,
0.0123712,-0.195635,-0.332761,-1.6593,-0.0202782,-0.135469,-0.382372,0.0162957,-0.0042406,0.0175745,-0.010752,1.03163,-0.690987,0.00298451,0,0,0,0,0,0,0,0.0121914,-0.195402,-0.333127,-1.65953,-0.0537702,1.47317,0.402797,-0.012587,-0.00421081,-0.0137865,0.00310783,0.547883,-0.13679,-0.000296819,1.2215,-25.8855,2.93672,25.733,1.91864,2.09191,-0.0227812,-0.404888,0.462246,1.90262,0.563764,-0.385299,0.217758,0.367108,-0.2691,-0.0513336,-0.213833,0.926494,-0.982195,-0.0317293,
0.0124418,-0.19565,-0.332685,-1.65934,-0.0161326,-0.138218,-0.38236,0.0176369,-0.00361676,0.0190524,-0.0112693,1.03639,-0.687258,0.00292246,0,0,0,0,0,0,0,0.0117488,-0.195413,-0.333521,-1.65945,-0.0347403,1.4678,0.402799,-0.0101532,0.000974904,-0.0121959,0.0061461,0.603405,-0.179655,0.00045706,1.30085,-25.7625,2.91292,25.4077,2.13836,1.82641,-0.0429228,-0.404888,0.462246,1.90262,0.563764,-0.385299,0.217758,0.367108,-0.2691,-0.0513336,-0.213833,0.926494,-0.982195,-0.0317293,
0.0125171,-0.195662,-0.332603,-1.65939,-0.0119714,-0.140949,-0.382349,0.0188332,-0.00301972,0.0203793,-0.0116878,1.0403,-0.682874,0.00286264,0,0,0,0,0,0,0,0.0117488,-0.195413,-0.333521,-1.65945,-0.0347403,1.4678,0.402799,-0.0101532,0.000974904,-0.0121959,0.0061461,0.603405,-0.179655,0.00045706,1.30085,-25.7625,2.91292,25.4077,2.13836,1.82641,-0.0429228,-0.396628,0.528405,1.78214,0.582224,-0.290329,0.257353,0.414684,-0.177828,-0.027176,-0.317858,0.961395,-1.04072,-0.0319898,
0.0125967,-0.195671,-0.332517,-1.65944,-0.00779747,-0.143661,-0.382338,0.0198973,-0.00245605,0.0215677,-0.0120208,1.04348,-0.677967,0.00280486,0,0,0,0,0,0,0,0.0117488,-0.195413,-0.333521,-1.65945,-0.0347403,1.4678,0.402799,-0.0101532,0.000974904,-0.0121959,0.0061461,0.603405,-0.179655,0.00045706,1.30085,-25.7625,2.91292,25.4077,2.13836,1.82641,-0.0429228,-0.396628,0.528405,1.78214,0.582224,-0.290329,0.257353,0.414684,-0.177828,-0.027176,-0.317858,0.961395,-1.04072,-0.0319898,
0.0126801,-0.195679,-0.332426,-1.65949,-0.00361335,-0.146352,-0.382327,0.020841,-0.00192985,0.0226296,-0.0122797,1.04603,-0.672645,0.00274915,0,0,0,0,0,0,0,0.0117488,-0.195413,-0.333521,-1.65945,-0.0347403,1.4678,0.402799,-0.0101532,0.000974904,-0.0121959,0.0061461,0.603405,-0.179655,0.00045706,1.30085,-25.7625,2.91292,25.4077,2.13836,1.82641,-0.0429228,-0.188634,0.872804,1.85554,0.372438,-0.149897,0.457637,0.622073,-0.105989,0.181459,-0.340352,1.02727,-1.06955,-0.0314042,
0.0127668,-0.195685,-0.332332,-1.65954,0.000578767,-0.149019,-0.382316,0.0216754,-0.00144333,0.0235766,-0.0124745,1.04803,-0.666995,0.00269555,0,0,0,0,0,0,0,0.0117488,-0.195413,-0.333521,-1.65945,-0.0347403,1.4678,0.402799,-0.0101532,0.000974904,-0.0121959,0.0061461,0.603405,-0.179655,0.00045706,1.30085,-25.7625,2.91292,25.4077,2.13836,1.82641,-0.0429228,-0.215334,0.309085,1.70989,0.792937,-0.0784428,0.204567,0.377622,-0.0287084,-0.119344,-0.4216,0.972506,-1.09178,-0.0297372,
0.0128564,-0.195689,-0.332234,-1.65959,0.00477696,-0.151664,-0.382305,0.0224111,-0.000997304,0.0244191,-0.0126136,1.04955,-0.661089,0.00264388,0,0,0,0,0,0,0,0.0113767,-0.195447,-0.33371,-1.65942,-0.0142851,1.46093,0.402799,-0.00879857,0.00119153,-0.000840096,-0.000404301,0.680755,-0.239286,0.000562153,1.34845,-25.4094,2.91292,25.5585,2.26104,1.83282,-0.0429228,-0.215334,0.309085,1.70989,0.792937,-0.0784428,0.204567,0.377622,-0.0287084,-0.119344,-0.4216,0.972506,-1.09178,-0.0297372,
0.0129486,-0.195691,-0.332134,-1.65964,0.00897958,-0.154284,-0.382295,0.0230574,-0.000591479,0.0251671,-0.0127045,1.05065,-0.654984,0.00259389,0,0,0,0,0,0,0,0.0113767,-0.195447,-0.33371,-1.65942,-0.0142851,1.46093,0.402799,-0.00879857,0.00119153,-0.000840096,-0.000404301,0.680755,-0.239286,0.000562153,1.34845,-25.4094,2.91292,25.5585,2.26104,1.83282,-0.0429228,-0.0102037,0.129696,1.66231,0.909994,0.113159,0.165462,0.340941,0.0938929,-0.171209,-0.471417,0.939268,-1.09598,-0.0280151,
0.0130431,-0.195692,-0.33203,-1.65969,0.0131852,-0.156879,-0.382285,0.0236231,-0.00022481,0.0258296,-0.0127534,1.0514,-0.648728,0.00254574,0,0,0,0,0,0,0,0.0113767,-0.195447,-0.33371,-1.65942,-0.0142851,1.46093,0.402799,-0.00879857,0.00119153,-0.000840096,-0.000404301,0.680755,-0.239286,0.000562153,1.34845,-25.4094,2.91292,25.5585,2.26104,1.83282,-0.0429228,-0.0102037,0.129696,1.66231,0.909994,0.113159,0.165462,0.340941,0.0938929,-0.171209,-0.471417,0.939268,-1.09598,-0.0280151,
0.0131396,-0.195692,-0.331925,-1.65974,0.0173924,-0.159448,-0.382275,0.0241161,0.000104261,0.0264149,-0.0127662,1.05182,-0.642357,0.00249934,0,0,0,0,0,0,0,0.0113767,-0.195447,-0.33371,-1.65942,-0.0142851,1.46093,0.402799,-0.00879857,0.00119153,-0.000840096,-0.000404301,0.680755,-0.239286,0.000562153,1.34845,-25.4094,2.91292,25.5585,2.26104,1.83282,-0.0429228,-0.437593,-0.126782,1.84239,0.965011,-0.270843,-0.0184737,0.157266,-0.147409,-0.345538,-0.332229,0.82172,-1.07121,-0.0278991,
0.0132514,-0.195581,-0.331918,-1.65964,-0.0771606,-0.0988544,-0.382458,0.0790713,-0.0153772,0.0895481,0.00213919,0.41338,-0.630631,0.0119747,0,0,0,0,0,0,0,0.0113767,-0.195447,-0.33371,-1.65942,-0.0142851,1.46093,0.402799,-0.00879857,0.00119153,-0.000840096,-0.000404301,0.680755,-0.239286,0.000562153,1.34845,-25.4094,2.91292,25.5585,2.26104,1.83282,-0.0429228,-0.51166,-0.127452,1.68489,0.891703,-0.244967,-0.0242308,0.142878,-0.0954611,-0.329658,-0.376306,0.723769,-1.06468,-0.028447,
0.0121951,-0.195638,-0.332863,-1.65948,-0.00628955,-0.117089,-0.382443,0.0942858,-0.021854,0.102074,-0.0111888,0.678626,-0.74469,0.0125042,0,0,0,0,0,0,0,0.0113767,-0.195447,-0.33371,-1.65942,-0.0142851,1.46093,0.402799,-0.00879857,0.00119153,-0.000840096,-0.000404301,0.680755,-0.239286,0.000562153,1.34845,-25.4094,2.91292,25.5585,2.26104,1.83282,-0.0429228,-0.51166,-0.127452,1.68489,0.891703,-0.244967,-0.0242308,0.142878,-0.0954611,-0.329658,-0.376306,0.723769,-1.06468,-0.028447,
0.0126505,-0.195736,-0.332362,-1.65955,-0.00347449,-0.120499,-0.382395,0.113854,-0.0244323,0.125362,-0.0186355,0.703764,-0.852657,0.0118865,0,0,0,0,0,0,0,0.0112115,-0.19546,-0.333765,-1.65941,0.00886983,1.45217,0.402798,-0.00262746,0.00886764,0.000227437,-0.00229828,0.788854,-0.299703,-0.00035644,1.07074,-25.338,2.86134,25.6061,1.72363,2.17156,-0.0301054,-0.689323,-0.0199625,1.75782,0.697483,-0.44413,-0.00370863,0.154057,-0.233127,-0.270634,-0.263134,0.642883,-1.00135,-0.0278273,
0.0131705,-0.195836,-0.331785,-1.65966,-0.000542681,-0.124263,-0.38235,0.129995,-0.0250992,0.144245,-0.0257706,0.732953,-0.941005,0.0113718,0,0,0,0,0,0,0,0.0112115,-0.19546,-0.333765,-1.65941,0.00886983,1.45217,0.402798,-0.00262746,0.00886764,0.000227437,-0.00229828,0.788854,-0.299703,-0.00035644,1.07074,-25.338,2.86134,25.6061,1.72363,2.17156,-0.0301054,-0.689323,-0.0199625,1.75782,0.697483,-0.44413,-0.00370863,0.154057,-0.233127,-0.270634,-0.263134,0.642883,-1.00135,-0.0278273,
0.0137443,-0.195934,-0.331146,-1.65979,0.0025115,-0.128317,-0.382306,0.143447,-0.0243644,0.159747,-0.0323695,0.763545,-1.01351,0.0109392,0,0,0,0,0,0,0,0.0112115,-0.19546,-0.333765,-1.65941,0.00886983,1.45217,0.402798,-0.00262746,0.00886764,0.000227437,-0.00229828,0.788854,-0.299703,-0.00035644,1.07074,-25.338,2.86134,25.6061,1.72363,2.17156,-0.0301054,-0.492806,-0.228957,1.39913,0.793465,-0.185176,-0.0709879,0.0839316,-0.0397775,-0.339808,-0.360312,0.536231,-0.937211,-0.0202118,
0.0143633,-0.196024,-0.330455,-1.65994,0.00568691,-0.13261,-0.382264,0.154761,-0.0226445,0.172614,-0.0383558,0.793854,-1.07313,0.0105649,0,0,0,0,0,0,0,0.0112115,-0.19546,-0.333765,-1.65941,0.00886983,1.45217,0.402798,-0.00262746,0.00886764,0.000227437,-0.00229828,0.788854,-0.299703,-0.00035644,1.07074,-25.338,2.86134,25.6061,1.72363,2.17156,-0.0301054,-0.889069,-0.954134,1.28812,1.15158,-0.419078,-0.47042,-0.333051,-0.141903,-0.739258,-0.322101,0.312587,-0.893025,-0.0148655,
0.0150207,-0.196105,-0.329722,-1.66012,0.00897832,-0.137098,-0.382223,0.164349,-0.0202631,0.183397,-0.0437174,0.822851,-1.1222,0.0102338,0,0,0,0,0,0,0,0.0112115,-0.19546,-0.333765,-1.65941,0.00886983,1.45217,0.402798,-0.00262746,0.00886764,0.000227437,-0.00229828,0.788854,-0.299703,-0.00035644,1.07074,-25.338,2.86134,25.6061,1.72363,2.17156,-0.0301054,-0.889069,-0.954134,1.28812,1.15158,-0.419078,-0.47042,-0.333051,-0.141903,-0.739258,-0.322101,0.312587,-0.893025,-0.0148655,
0.0157108,-0.196175,-0.328952,-1.66031,0.0123781,-0.141749,-0.382183,0.17252,-0.0174655,0.192506,-0.0484724,0.849954,-1.16261,0.00993626,0,0,0,0,0,0,0,0.0120165,-0.195505,-0.332563,-1.65943,0.035726,1.43858,0.402799,0.0379043,-0.00218625,0.0544607,-0.000403696,0.578294,-0.39225,-0.000978048,1.95942,-25.2348,4.16261,25.2847,1.15509,1.75316,0.00376909,-0.889256,-1.42921,1.5289,1.20803,-0.512287,-0.683177,-0.570889,-0.232339,-0.906896,-0.146841,0.053689,-0.80017,-0.0136398,
0.0164289,-0.196233,-0.328151,-1.66052,0.0158776,-0.146533,-0.382144,0.179514,-0.0144352,0.200248,-0.0526547,0.874872,-1.19589,0.00966225,0,0,0,0,0,0,0,0.0120165,-0.195505,-0.332563,-1.65943,0.035726,1.43858,0.402799,0.0379043,-0.00218625,0.0544607,-0.000403696,0.578294,-0.39225,-0.000978048,1.95942,-25.2348,4.16261,25.2847,1.15509,1.75316,0.00376909,-0.889256,-1.42921,1.5289,1.20803,-0.512287,-0.683177,-0.570889,-0.232339,-0.906896,-0.146841,0.053689,-0.80017,-0.0136398,
0.0171709,-0.196278,-0.327323,-1.66074,0.0194676,-0.151426,-0.382107,0.185515,-0.0113075,0.206858,-0.0563048,0.897505,-1.22329,0.00940683,0,0,0,0,0,0,0,0.0120165,-0.195505,-0.332563,-1.65943,0.035726,1.43858,0.402799,0.0379043,-0.00218625,0.0544607,-0.000403696,0.578294,-0.39225,-0.000978048,1.95942,-25.2348,4.16261,25.2847,1.15509,1.75316,0.00376909,-0.823084,-1.28528,1.58751,0.971271,-0.474627,-0.604463,-0.514328,-0.213201,-0.774327,-0.103361,-0.0530897,-0.773391,-0.0115038,
0.0179336,-0.196313,-0.326473,-1.66099,0.0231394,-0.15637,-0.38207,0.190678,-0.00879249,0.21262,-0.0614013,0.917933,-1.23605,0.00921402,0,0,0,0,0,0,0,0.0120165,-0.195505,-0.332563,-1.65943,0.035726,1.43858,0.402799,0.0379043,-0.00218625,0.0544607,-0.000403696,0.578294,-0.39225,-0.000978048,1.95942,-25.2348,4.16261,25.2847,1.15509,1.75316,0.00376909,-0.823084,-1.28528,1.58751,0.971271,-0.474627,-0.604463,-0.514328,-0.213201,-0.774327,-0.103361,-0.0530897,-0.773391,-0.0115038,
0.0187142,-0.196338,-0.325602,-1.66126,0.0268843,-0.16132,-0.382034,0.195147,-0.00631105,0.217547,-0.0664954,0.936231,-1.23753,0.00903394,0,0,0,0,0,0,0,0.0120165,-0.195505,-0.332563,-1.65943,0.035726,1.43858,0.402799,0.0379043,-0.00218625,0.0544607,-0.000403696,0.578294,-0.39225,-0.000978048,1.95942,-25.2348,4.16261,25.2847,1.15509,1.75316,0.00376909,-0.659246,-0.936553,1.27841,0.780095,-0.132262,-0.408904,-0.339864,0.076644,-0.550632,-0.34232,-0.0447914,-0.883383,-0.00862134,
0.0195102,-0.196353,-0.324716,-1.66154,0.0306942,-0.166248,-0.381998,0.198992,-0.00361381,0.221735,-0.0707009,0.952471,-1.23199,0.00885297,0,0,0,0,0,0,0,0.0120165,-0.195505,-0.332563,-1.65943,0.035726,1.43858,0.402799,0.0379043,-0.00218625,0.0544607,-0.000403696,0.578294,-0.39225,-0.000978048,1.95942,-25.2348,4.16261,25.2847,1.15509,1.75316,0.00376909,-0.867952,-0.677969,1.18414,0.591293,-0.239431,-0.31838,-0.249499,0.0400645,-0.441618,-0.36888,-0.0498308,-0.904562,-0.010643,
0.0203193,-0.196356,-0.323814,-1.66184,0.0345612,-0.171135,-0.381964,0.202281,-0.000784847,0.225303,-0.0739581,0.966757,-1.22178,0.00867391,0,0,0,0,0,0,0,0.0136378,-0.195666,-0.33064,-1.6594,0.0535627,1.42395,0.4028,0.0569751,-0.00306661,0.0725293,-0.000776685,0.590215,-0.526316,-0.00112953,2.01099,-25.1357,4.16261,24.9356,1.89483,1.54168,-0.0026396,-0.867952,-0.677969,1.18414,0.591293,-0.239431,-0.31838,-0.249499,0.0400645,-0.441618,-0.36888,-0.0498308,-0.904562,-0.010643,
0.0211397,-0.196348,-0.322901,-1.66214,0.0384781,-0.175969,-0.38193,0.205083,0.00204879,0.228347,-0.0764035,0.979231,-1.20838,0.00849735,0,0,0,0,0,0,0,0.0136378,-0.195666,-0.33064,-1.6594,0.0535627,1.42395,0.4028,0.0569751,-0.00306661,0.0725293,-0.000776685,0.590215,-0.526316,-0.00112953,2.01099,-25.1357,4.16261,24.9356,1.89483,1.54168,-0.0026396,-1.27351,-0.805086,1.0996,0.680089,-0.476723,-0.432929,-0.361875,-0.0632139,-0.564536,-0.390229,-0.0859949,-0.94075,-0.0107937,
0.0219695,-0.196329,-0.321977,-1.66245,0.0424383,-0.18074,-0.381896,0.207455,0.00478667,0.230939,-0.0781946,0.990054,-1.19275,0.00832509,0,0,0,0,0,0,0,0.0136378,-0.195666,-0.33064,-1.6594,0.0535627,1.42395,0.4028,0.0569751,-0.00306661,0.0725293,-0.000776685,0.590215,-0.526316,-0.00112953,2.01099,-25.1357,4.16261,24.9356,1.89483,1.54168,-0.0026396,-1.27351,-0.805086,1.0996,0.680089,-0.476723,-0.432929,-0.361875,-0.0632139,-0.564536,-0.390229,-0.0859949,-0.94075,-0.0107937,
0.0228073,-0.196299,-0.321045,-1.66277,0.0464359,-0.185442,-0.381864,0.209447,0.00736363,0.233134,-0.0794659,0.999391,-1.17559,0.00815701,0,0,0,0,0,0,0,0.0136378,-0.195666,-0.33064,-1.6594,0.0535627,1.42395,0.4028,0.0569751,-0.00306661,0.0725293,-0.000776685,0.590215,-0.526316,-0.00112953,2.01099,-25.1357,4.16261,24.9356,1.89483,1.54168,-0.0026396,-1.74164,-1.11095,0.959662,0.946796,-0.667853,-0.630249,-0.561513,-0.10105,-0.787865,-0.506807,-0.115387,-1.05535,-0.00965624,
0.0236517,-0.19626,-0.320105,-1.66309,0.0504655,-0.190071,-0.381832,0.211101,0.0097427,0.234979,-0.0803237,1.0074,-1.15736,0.00799341,0,0,0,0,0,0,0,0.0136378,-0.195666,-0.33064,-1.6594,0.0535627,1.42395,0.4028,0.0569751,-0.00306661,0.0725293,-0.000776685,0.590215,-0.526316,-0.00112953,2.01099,-25.1357,4.16261,24.9356,1.89483,1.54168,-0.0026396,-1.74164,-1.11095,0.959662,0.946796,-0.667853,-0.630249,-0.561513,-0.10105,-0.787865,-0.506807,-0.115387,-1.05535,-0.00965624,
0.0245015,-0.196213,-0.319159,-1.66342,0.0545225,-0.194625,-0.381801,0.212452,0.0119073,0.236511,-0.0808507,1.01424,-1.13843,0.00783298,0,0,0,0,0,0,0,0.016142,-0.195744,-0.32753,-1.65952,0.0743373,1.40508,0.402807,0.084668,0.00676781,0.105942,-0.008902,0.619684,-0.58662,0.000834784,1.80469,-24.9373,3.8611,24.8087,2.3526,1.47484,-0.050247,-1.81795,-0.918117,0.820717,0.921938,-0.658894,-0.548965,-0.483693,-0.0676489,-0.712827,-0.595583,-0.0174093,-1.10403,-0.00895244,
0.0253556,-0.196157,-0.318208,-1.66374,0.0586026,-0.199101,-0.38177,0.213532,0.013854,0.237762,-0.0811115,1.02003,-1.11904,0.00767742,0,0,0,0,0,0,0,0.016142,-0.195744,-0.32753,-1.65952,0.0743373,1.40508,0.402807,0.084668,0.00676781,0.105942,-0.008902,0.619684,-0.58662,0.000834784,1.80469,-24.9373,3.8611,24.8087,2.3526,1.47484,-0.050247,-1.89033,-0.252357,0.937572,0.57339,-0.788921,-0.261203,-0.205297,-0.171467,-0.397768,-0.563535,0.175968,-1.13545,-0.00812801,
0.0262131,-0.196095,-0.317253,-1.66407,0.0627022,-0.203499,-0.38174,0.214368,0.0155887,0.238762,-0.0811552,1.02491,-1.09937,0.00752643,0,0,0,0,0,0,0,0.016142,-0.195744,-0.32753,-1.65952,0.0743373,1.40508,0.402807,0.084668,0.00676781,0.105942,-0.008902,0.619684,-0.58662,0.000834784,1.80469,-24.9373,3.8611,24.8087,2.3526,1.47484,-0.050247,-1.89033,-0.252357,0.937572,0.57339,-0.788921,-0.261203,-0.205297,-0.171467,-0.397768,-0.563535,0.175968,-1.13545,-0.00812801,
0.027073,-0.196026,-0.316294,-1.66439,0.0668181,-0.207817,-0.38171,0.214986,0.0171216,0.239535,-0.0810215,1.02896,-1.07955,0.00737807,0,0,0,0,0,0,0,0.016142,-0.195744,-0.32753,-1.65952,0.0743373,1.40508,0.402807,0.084668,0.00676781,0.105942,-0.008902,0.619684,-0.58662,0.000834784,1.80469,-24.9373,3.8611,24.8087,2.3526,1.47484,-0.050247,-1.95635,-0.13728,0.699727,0.6461,-0.719637,-0.217391,-0.173166,-0.0818303,-0.366469,-0.711694,0.292092,-1.20316,-0.00635495,
0.0279346,-0.195953,-0.315334,-1.66471,0.0709473,-0.212056,-0.381681,0.215407,0.0184665,0.240104,-0.0807416,1.0323,-1.05968,0.00723403,0,0,0,0,0,0,0,0.016142,-0.195744,-0.32753,-1.65952,0.0743373,1.40508,0.402807,0.084668,0.00676781,0.105942,-0.008902,0.619684,-0.58662,0.000834784,1.80469,-24.9373,3.8611,24.8087,2.3526,1.47484,-0.050247,-1.95635,-0.13728,0.699727,0.6461,-0.719637,-0.217391,-0.173166,-0.0818303,-0.366469,-0.711694,0.292092,-1.20316,-0.00635495,
0.0287973,-0.195874,-0.314372,-1.66503,0.0750873,-0.216215,-0.381653,0.215652,0.0196384,0.240489,-0.0803406,1.035,-1.03983,0.00709343,0,0,0,0,0,0,0,0.016142,-0.195744,-0.32753,-1.65952,0.0743373,1.40508,0.402807,0.084668,0.00676781,0.105942,-0.008902,0.619684,-0.58662,0.000834784,1.80469,-24.9373,3.8611,24.8087,2.3526,1.47484,-0.050247,-1.32848,0.572383,0.407357,0.319212,-0.18761,0.19561,0.230492,0.242744,0.0630968,-0.882527,0.494008,-1.20159,-0.00689865,
0.0296602,-0.195791,-0.313409,-1.66535,0.0792359,-0.220295,-0.381625,0.215739,0.0206525,0.240709,-0.0798387,1.03714,-1.02007,0.00695666,0,0,0,0,0,0,0,0.0188201,-0.195755,-0.323669,-1.6598,0.0928356,1.38624,0.402809,0.0888725,-0.00131713,0.129767,-0.0168335,0.570957,-0.617842,0.000719405,1.63013,-24.7865,3.4366,24.8087,2.71881,1.88592,-0.0429228,-1.45115,0.912399,0.451876,0.193063,-0.425739,0.306226,0.342272,0.0451102,0.173689,-0.76731,0.670887,-1.12093,-0.0065805,
0.0305229,-0.195705,-0.312446,-1.66567,0.083391,-0.224297,-0.381598,0.215684,0.0215237,0.24078,-0.079253,1.03878,-1.00041,0.00682294,0,0,0,0,0,0,0,0.0188201,-0.195755,-0.323669,-1.6598,0.0928356,1.38624,0.402809,0.0888725,-0.00131713,0.129767,-0.0168335,0.570957,-0.617842,0.000719405,1.63013,-24.7865,3.4366,24.8087,2.71881,1.88592,-0.0429228,-1.45115,0.912399,0.451876,0.193063,-0.425739,0.306226,0.342272,0.0451102,0.173689,-0.76731,0.670887,-1.12093,-0.0065805,
0.0129412,-0.196007,-0.332112,-1.66003,-0.00762312,-0.116739,-0.382427,0.176554,-0.0563934,0.18931,-0.0628501,0.540316,-0.716267,0.0138018,0,0,0,0,0,0,0,0.0188201,-0.195755,-0.323669,-1.6598,0.0928356,1.38624,0.402809,0.0888725,-0.00131713,0.129767,-0.0168335,0.570957,-0.617842,0.000719405,1.63013,-24.7865,3.4366,24.8087,2.71881,1.88592,-0.0429228,-1.52997,0.528756,0.154068,0.603318,-0.423691,0.106074,0.155957,0.0661911,-0.0890932,-0.844418,0.747101,-1.0848,-0.00566826,
0.0211663,-0.196193,-0.321115,-1.66068,0.0994873,-0.194099,-0.382427,0.228657,-0.04149,0.251623,-0.0853372,0.570115,-0.880792,0.0130424,0,0,0,0,0,0,0,0.0188201,-0.195755,-0.323669,-1.6598,0.0928356,1.38624,0.402809,0.0888725,-0.00131713,0.129767,-0.0168335,0.570957,-0.617842,0.000719405,1.63013,-24.7865,3.4366,24.8087,2.71881,1.88592,-0.0429228,-1.52997,0.528756,0.154068,0.603318,-0.423691,0.106074,0.155957,0.0661911,-0.0890932,-0.844418,0.747101,-1.0848,-0.00566826,
0.022179,-0.196356,-0.319993,-1.66105,0.10189,-0.197906,-0.382377,0.253167,-0.0407987,0.280447,-0.0917777,0.600699,-0.951618,0.0124973,0,0,0,0,0,0,0,0.0188201,-0.195755,-0.323669,-1.6598,0.0928356,1.38624,0.402809,0.0888725,-0.00131713,0.129767,-0.0168335,0.570957,-0.617842,0.000719405,1.63013,-24.7865,3.4366,24.8087,2.71881,1.88592,-0.0429228,-2.25343,0.750046,-0.00151613,0.539693,-0.963018,0.0766243,0.134619,-0.233759,-0.125632,-0.80131,0.839815,-1.07027,-0.004301,
0.0232724,-0.19651,-0.318777,-1.66143,0.104434,-0.20195,-0.382329,0.27335,-0.0384137,0.30393,-0.0970246,0.635903,-1.01103,0.0120156,0,0,0,0,0,0,0,0.0220151,-0.195671,-0.31929,-1.66022,0.110644,1.36659,0.402806,0.110153,0.00435084,0.14589,-0.0161481,0.575389,-0.628145,-0.000543136,1.57856,-25.5879,3.33742,24.761,2.26654,2.3565,-0.0163725,-1.86092,2.26757,-0.360485,-0.467535,-0.64775,0.798137,0.846811,-0.038129,0.686468,-0.884694,1.00561,-1.00067,-0.00442277,
0.0244329,-0.19665,-0.317484,-1.66184,0.107125,-0.206192,-0.382283,0.290135,-0.0351223,0.323263,-0.1016,0.67273,-1.0605,0.0115798,0,0,0,0,0,0,0,0.0220151,-0.195671,-0.31929,-1.66022,0.110644,1.36659,0.402806,0.110153,0.00435084,0.14589,-0.0161481,0.575389,-0.628145,-0.000543136,1.57856,-25.5879,3.33742,24.761,2.26654,2.3565,-0.0163725,-1.86092,2.26757,-0.360485,-0.467535,-0.64775,0.798137,0.846811,-0.038129,0.686468,-0.884694,1.00561,-1.00067,-0.00442277,
0.0256497,-0.196775,-0.316127,-1.66226,0.109962,-0.210598,-0.382238,0.304189,-0.0313599,0.339312,-0.105654,0.709269,-1.10156,0.0111832,0,0,0,0,0,0,0,0.0220151,-0.195671,-0.31929,-1.66022,0.110644,1.36659,0.402806,0.110153,0.00435084,0.14589,-0.0161481,0.575389,-0.628145,-0.000543136,1.57856,-25.5879,3.33742,24.761,2.26654,2.3565,-0.0163725,-2.12066,1.88345,-0.469807,-0.306734,-0.863154,0.571122,0.602633,-0.16711,0.472316,-0.797812,0.877076,-0.895991,-0.000487378,
0.0269141,-0.196887,-0.314715,-1.66271,0.112939,-0.215106,-0.382195,0.316113,-0.0279698,0.352866,-0.11088,0.744319,-1.12702,0.0108683,0,0,0,0,0,0,0,0.0220151,-0.195671,-0.31929,-1.66022,0.110644,1.36659,0.402806,0.110153,0.00435084,0.14589,-0.0161481,0.575389,-0.628145,-0.000543136,1.57856,-25.5879,3.33742,24.761,2.26654,2.3565,-0.0163725,-2.12066,1.88345,-0.469807,-0.306734,-0.863154,0.571122,0.602633,-0.16711,0.472316,-0.797812,0.877076,-0.895991,-0.000487378,
0.0282191,-0.196985,-0.313258,-1.66317,0.116048,-0.219668,-0.382153,0.326249,-0.0244757,0.364281,-0.11586,0.777183,-1.14048,0.0105423,0,0,0,0,0,0,0,0.0220151,-0.195671,-0.31929,-1.66022,0.110644,1.36659,0.402806,0.110153,0.00435084,0.14589,-0.0161481,0.575389,-0.628145,-0.000543136,1.57856,-25.5879,3.33742,24.761,2.26654,2.3565,-0.0163725,-2.16459,0.408444,-0.593025,0.516626,-0.853454,-0.0876679,-0.0302132,-0.153371,-0.260303,-0.75056,0.543382,-0.781315,0.00168388,
0.0295589,-0.19707,-0.311762,-1.66366,0.119278,-0.22422,-0.382112,0.33493,-0.0212773,0.374021,-0.121399,0.807463,-1.138,0.0102695,0,0,0,0,0,0,0,0.0220151,-0.195671,-0.31929,-1.66022,0.110644,1.36659,0.402806,0.110153,0.00435084,0.14589,-0.0161481,0.575389,-0.628145,-0.000543136,1.57856,-25.5879,3.33742,24.761,2.26654,2.3565,-0.0163725,-2.16459,0.408444,-0.593025,0.516626,-0.853454,-0.0876679,-0.0302132,-0.153371,-0.260303,-0.75056,0.543382,-0.781315,0.00168388,
0.0309281,-0.197142,-0.310233,-1.66416,0.122618,-0.228718,-0.382072,0.342324,-0.0179221,0.382264,-0.126167,0.834991,-1.12454,0.0100156,0,0,0,0,0,0,0,0.026295,-0.195837,-0.314175,-1.66128,0.123222,1.34896,0.402816,0.145884,-0.0125523,0.174439,-0.0434685,0.391494,-0.559423,0.001829,2.34027,-24.9135,4.38875,25.0864,2.26654,2.21093,-0.0630644,-2.04999,0.638092,-0.203229,0.212594,-1.01324,0.0297133,0.0792309,-0.34562,-0.0933413,-0.495969,0.508623,-0.664405,-0.000830111,
0.0323224,-0.197199,-0.308676,-1.66468,0.126057,-0.233138,-0.382033,0.348554,-0.0143007,0.389191,-0.129558,0.859752,-1.10495,0.00976542,0,0,0,0,0,0,0,0.026295,-0.195837,-0.314175,-1.66128,0.123222,1.34896,0.402816,0.145884,-0.0125523,0.174439,-0.0434685,0.391494,-0.559423,0.001829,2.34027,-24.9135,4.38875,25.0864,2.26654,2.21093,-0.0630644,-1.20367,0.9292,-0.531159,0.0738936,-0.21723,0.291742,0.322086,0.170231,0.185228,-0.744744,0.555282,-0.695588,-0.00291553,
0.0337374,-0.197242,-0.307096,-1.66521,0.129584,-0.237465,-0.381994,0.353759,-0.0105892,0.394993,-0.131728,0.881829,-1.08178,0.0095225,0,0,0,0,0,0,0,0.026295,-0.195837,-0.314175,-1.66128,0.123222,1.34896,0.402816,0.145884,-0.0125523,0.174439,-0.0434685,0.391494,-0.559423,0.001829,2.34027,-24.9135,4.38875,25.0864,2.26654,2.21093,-0.0630644,-1.20367,0.9292,-0.531159,0.0738936,-0.21723,0.291742,0.322086,0.170231,0.185228,-0.744744,0.555282,-0.695588,-0.00291553,
0.0351697,-0.197269,-0.305497,-1.66574,0.133189,-0.241691,-0.381957,0.358067,-0.00696228,0.399826,-0.132952,0.901375,-1.05651,0.00928803,0,0,0,0,0,0,0,0.026295,-0.195837,-0.314175,-1.66128,0.123222,1.34896,0.402816,0.145884,-0.0125523,0.174439,-0.0434685,0.391494,-0.559423,0.001829,2.34027,-24.9135,4.38875,25.0864,2.26654,2.21093,-0.0630644,-2.40205,0.224696,-0.482471,0.438418,-1.06951,-0.173552,-0.127327,-0.288422,-0.307129,-0.631298,0.357104,-0.731043,-0.00438547,
0.036616,-0.197284,-0.303882,-1.66627,0.136864,-0.245811,-0.381921,0.361594,-0.00353889,0.403818,-0.133473,0.918577,-1.03007,0.00906353,0,0,0,0,0,0,0,0.026295,-0.195837,-0.314175,-1.66128,0.123222,1.34896,0.402816,0.145884,-0.0125523,0.174439,-0.0434685,0.391494,-0.559423,0.001829,2.34027,-24.9135,4.38875,25.0864,2.26654,2.21093,-0.0630644,-2.40205,0.224696,-0.482471,0.438418,-1.06951,-0.173552,-0.127327,-0.288422,-0.307129,-0.631298,0.357104,-0.731043,-0.00438547,
0.0380738,-0.197285,-0.302253,-1.6668,0.140598,-0.249823,-0.381886,0.364434,-0.00038586,0.407076,-0.133475,0.933634,-1.00303,0.00884988,0,0,0,0,0,0,0,0.0329376,-0.196092,-0.305452,-1.66323,0.143217,1.32375,0.402813,0.162828,-0.00285448,0.228717,-0.0567077,0.557811,-0.576158,2.9994e-05,2.76874,-24.8857,4.56331,24.6103,2.62085,1.41533,-0.0365141,-2.36004,-0.704192,-0.915765,1.00667,-0.844849,-0.568999,-0.517491,-0.0873274,-0.750867,-0.776146,0.146637,-0.693361,-0.00538439,
0.0395405,-0.197275,-0.300615,-1.66734,0.144385,-0.253726,-0.381851,0.366672,0.00246705,0.409691,-0.13309,0.946747,-0.975778,0.00864705,0,0,0,0,0,0,0,0.0329376,-0.196092,-0.305452,-1.66323,0.143217,1.32375,0.402813,0.162828,-0.00285448,0.228717,-0.0567077,0.557811,-0.576158,2.9994e-05,2.76874,-24.8857,4.56331,24.6103,2.62085,1.41533,-0.0365141,-2.43498,-0.428821,-0.864298,0.808805,-0.861335,-0.431873,-0.382425,-0.07657,-0.594037,-0.811225,0.161241,-0.762686,-0.00678529,
0.041014,-0.197255,-0.298968,-1.66787,0.148218,-0.257521,-0.381817,0.368378,0.00501451,0.411739,-0.132415,0.958106,-0.948546,0.00845181,0,0,0,0,0,0,0,0.0329376,-0.196092,-0.305452,-1.66323,0.143217,1.32375,0.402813,0.162828,-0.00285448,0.228717,-0.0567077,0.557811,-0.576158,2.9994e-05,2.76874,-24.8857,4.56331,24.6103,2.62085,1.41533,-0.0365141,-2.43498,-0.428821,-0.864298,0.808805,-0.861335,-0.431873,-0.382425,-0.07657,-0.594037,-0.811225,0.161241,-0.762686,-0.00678529,
0.0424924,-0.197226,-0.297315,-1.66839,0.152089,-0.261207,-0.381784,0.369616,0.0072657,0.413287,-0.13152,0.967893,-0.921488,0.00826688,0,0,0,0,0,0,0,0.0329376,-0.196092,-0.305452,-1.66323,0.143217,1.32375,0.402813,0.162828,-0.00285448,0.228717,-0.0567077,0.557811,-0.576158,2.9994e-05,2.76874,-24.8857,4.56331,24.6103,2.62085,1.41533,-0.0365141,-2.78425,0.523782,-0.649904,0.190917,-1.13243,-0.024328,0.0283001,-0.221965,-0.137372,-0.800277,0.296377,-0.890721,-0.00872366,
0.0439742,-0.197189,-0.295657,-1.66891,0.155994,-0.264785,-0.381752,0.370441,0.00923842,0.414394,-0.130454,0.976272,-0.894704,0.0080911,0,0,0,0,0,0,0,0.0329376,-0.196092,-0.305452,-1.66323,0.143217,1.32375,0.402813,0.162828,-0.00285448,0.228717,-0.0567077,0.557811,-0.576158,2.9994e-05,2.76874,-24.8857,4.56331,24.6103,2.62085,1.41533,-0.0365141,-2.78425,0.523782,-0.649904,0.190917,-1.13243,-0.024328,0.0283001,-0.221965,-0.137372,-0.800277,0.296377,-0.890721,-0.00872366,
0.0454578,-0.197145,-0.293997,-1.66943,0.159928,-0.268258,-0.38172,0.3709,0.0109545,0.41511,-0.129255,0.983395,-0.868256,0.00792197,0,0,0,0,0,0,0,0.0389662,-0.196119,-0.297997,-1.66492,0.161948,1.30609,0.402815,0.216159,-0.00110854,0.24316,-0.0523868,0.592632,-0.519925,0.000477217,2.46723,-24.7865,4.21419,24.5349,2.70691,1.85296,-0.0429228,-2.40551,-0.0284254,-0.966505,0.677684,-0.702076,-0.223159,-0.168783,0.0696965,-0.394813,-0.986452,0.311376,-0.89934,-0.00716617,
0.0469419,-0.197096,-0.292335,-1.66994,0.163885,-0.271627,-0.381689,0.371037,0.0124373,0.41548,-0.127953,0.989399,-0.842179,0.00776078,0,0,0,0,0,0,0,0.0389662,-0.196119,-0.297997,-1.66492,0.161948,1.30609,0.402815,0.216159,-0.00110854,0.24316,-0.0523868,0.592632,-0.519925,0.000477217,2.46723,-24.7865,4.21419,24.5349,2.70691,1.85296,-0.0429228,-2.94535,-0.257602,-0.791607,0.851266,-1.20857,-0.40599,-0.352159,-0.262217,-0.59003,-0.838431,0.336488,-0.872223,-0.0057075,
0.0484255,-0.197041,-0.290672,-1.67045,0.167863,-0.274893,-0.381659,0.370888,0.0137103,0.415545,-0.126568,0.994408,-0.816495,0.00760576,0,0,0,0,0,0,0,0.0389662,-0.196119,-0.297997,-1.66492,0.161948,1.30609,0.402815,0.216159,-0.00110854,0.24316,-0.0523868,0.592632,-0.519925,0.000477217,2.46723,-24.7865,4.21419,24.5349,2.70691,1.85296,-0.0429228,-2.94535,-0.257602,-0.791607,0.851266,-1.20857,-0.40599,-0.352159,-0.262217,-0.59003,-0.838431,0.336488,-0.872223,-0.0057075,
0.0499075,-0.196982,-0.289011,-1.67095,0.171857,-0.278058,-0.381629,0.370489,0.0147963,0.41534,-0.125118,0.998532,-0.791218,0.00745742,0,0,0,0,0,0,0,0.0389662,-0.196119,-0.297997,-1.66492,0.161948,1.30609,0.402815,0.216159,-0.00110854,0.24316,-0.0523868,0.592632,-0.519925,0.000477217,2.46723,-24.7865,4.21419,24.5349,2.70691,1.85296,-0.0429228,-2.76536,0.183047,-1.07981,0.692561,-0.956378,-0.19325,-0.142369,-0.0710999,-0.37773,-1.00245,0.487449,-0.909042,-0.00478114,
0.0513869,-0.196919,-0.287352,-1.67144,0.175865,-0.281123,-0.3816,0.369868,0.0157158,0.414897,-0.123618,1.00187,-0.766352,0.00731521,0,0,0,0,0,0,0,0.0389662,-0.196119,-0.297997,-1.66492,0.161948,1.30609,0.402815,0.216159,-0.00110854,0.24316,-0.0523868,0.592632,-0.519925,0.000477217,2.46723,-24.7865,4.21419,24.5349,2.70691,1.85296,-0.0429228,-2.76536,0.183047,-1.07981,0.692561,-0.956378,-0.19325,-0.142369,-0.0710999,-0.37773,-1.00245,0.487449,-0.909042,-0.00478114,
0.0528631,-0.196853,-0.285695,-1.67193,0.179883,-0.284091,-0.381571,0.369051,0.0164884,0.414242,-0.122078,1.00452,-0.741898,0.00717911,0,0,0,0,0,0,0,0.0458415,-0.196022,-0.289791,-1.6667,0.179867,1.29109,0.402817,0.213529,0.00169222,0.275327,-0.0623107,0.572292,-0.436427,0.000164591,2.26093,-25.7625,3.73811,24.761,3.09784,1.9793,-0.0566557,-2.54586,0.719379,-0.528679,0.407981,-1.05427,0.0652451,0.115306,-0.238847,-0.101547,-0.80614,0.701279,-0.895917,-0.00637334,
0.0543354,-0.196784,-0.284041,-1.67241,0.183909,-0.286962,-0.381543,0.368062,0.0171318,0.413402,-0.120507,1.00655,-0.717856,0.00704644,0,0,0,0,0,0,0,0.0458415,-0.196022,-0.289791,-1.6667,0.179867,1.29109,0.402817,0.213529,0.00169222,0.275327,-0.0623107,0.572292,-0.436427,0.000164591,2.26093,-25.7625,3.73811,24.761,3.09784,1.9793,-0.0566557,-2.35759,1.46925,-0.464099,-0.0341073,-1.02259,0.408922,0.46835,-0.262764,0.265303,-0.744231,0.871685,-0.843405,-0.0110109,
0.0217917,-0.196495,-0.320463,-1.66115,0.0984394,-0.193382,-0.382442,0.298228,-0.0706397,0.327307,-0.133661,0.461015,-0.787246,0.0119371,0,0,0,0,0,0,0,0.0458415,-0.196022,-0.289791,-1.6667,0.179867,1.29109,0.402817,0.213529,0.00169222,0.275327,-0.0623107,0.572292,-0.436427,0.000164591,2.26093,-25.7625,3.73811,24.761,3.09784,1.9793,-0.0566557,-2.35759,1.46925,-0.464099,-0.0341073,-1.02259,0.408922,0.46835,-0.262764,0.265303,-0.744231,0.871685,-0.843405,-0.0110109,
0.0497888,-0.196431,-0.285423,-1.6682,0.186461,-0.28636,-0.382449,0.364715,-0.039214,0.405803,-0.13908,0.561899,-0.606975,0.0109247,0,0,0,0,0,0,0,0.0458415,-0.196022,-0.289791,-1.6667,0.179867,1.29109,0.402817,0.213529,0.00169222,0.275327,-0.0623107,0.572292,-0.436427,0.000164591,2.26093,-25.7625,3.73811,24.761,3.09784,1.9793,-0.0566557,-1.71846,1.8963,-1.00289,-0.177769,-0.354732,0.661229,0.73158,0.190028,0.499548,-1.01188,1.00686,-0.833623,-0.0118855,
0.0513527,-0.196583,-0.283676,-1.66878,0.18882,-0.288941,-0.382406,0.390967,-0.038099,0.436763,-0.145986,0.589696,-0.645298,0.0106298,0,0,0,0,0,0,0,0.0458415,-0.196022,-0.289791,-1.6667,0.179867,1.29109,0.402817,0.213529,0.00169222,0.275327,-0.0623107,0.572292,-0.436427,0.000164591,2.26093,-25.7625,3.73811,24.761,3.09784,1.9793,-0.0566557,-1.71846,1.8963,-1.00289,-0.177769,-0.354732,0.661229,0.73158,0.190028,0.499548,-1.01188,1.00686,-0.833623,-0.0118855,
0.0530019,-0.196723,-0.281829,-1.66938,0.191311,-0.291645,-0.382365,0.412296,-0.0350123,0.461733,-0.150469,0.622668,-0.675938,0.0103084,0,0,0,0,0,0,0,0.0458415,-0.196022,-0.289791,-1.6667,0.179867,1.29109,0.402817,0.213529,0.00169222,0.275327,-0.0623107,0.572292,-0.436427,0.000164591,2.26093,-25.7625,3.73811,24.761,3.09784,1.9793,-0.0566557,-2.17568,2.59842,-0.811619,-0.627122,-0.78865,0.917814,0.988545,-0.080866,0.795172,-0.898711,1.13052,-0.852503,-0.0112507,
0.0547214,-0.19685,-0.2799,-1.67,0.193941,-0.294417,-0.382324,0.429886,-0.0315301,0.482172,-0.154951,0.657664,-0.692978,0.0100825,0,0,0,0,0,0,0,0.0529527,-0.195973,-0.281175,-1.66862,0.196504,1.27848,0.402815,0.246959,-0.00921592,0.26699,-0.062367,0.423087,-0.351462,-0.00108479,-1.3136,-26.0085,0.286573,25.257,1.46087,2.24389,-0.00996382,-2.26975,1.94402,-0.670049,-0.233534,-0.926357,0.609645,0.657117,-0.196038,0.479669,-0.798355,1.04252,-0.803569,-0.00820833,
0.056499,-0.19696,-0.277904,-1.67064,0.196712,-0.297222,-0.382285,0.444395,-0.0275092,0.498908,-0.158369,0.692658,-0.701208,0.00980546,0,0,0,0,0,0,0,0.0529527,-0.195973,-0.281175,-1.66862,0.196504,1.27848,0.402815,0.246959,-0.00921592,0.26699,-0.062367,0.423087,-0.351462,-0.00108479,-1.3136,-26.0085,0.286573,25.257,1.46087,2.24389,-0.00996382,-2.26975,1.94402,-0.670049,-0.233534,-0.926357,0.609645,0.657117,-0.196038,0.479669,-0.798355,1.04252,-0.803569,-0.00820833,
0.0583249,-0.197054,-0.275853,-1.67128,0.199617,-0.300009,-0.382247,0.456488,-0.0236669,0.512774,-0.161911,0.726327,-0.69668,0.00957326,0,0,0,0,0,0,0,0.0529527,-0.195973,-0.281175,-1.66862,0.196504,1.27848,0.402815,0.246959,-0.00921592,0.26699,-0.062367,0.423087,-0.351462,-0.00108479,-1.3136,-26.0085,0.286573,25.257,1.46087,2.24389,-0.00996382,-2.70704,0.0949441,-0.989573,0.898679,-1.10725,-0.252276,-0.166741,-0.264195,-0.497808,-0.829279,0.700905,-0.737179,-0.00454881,
0.060191,-0.197133,-0.273756,-1.67194,0.202649,-0.302743,-0.38221,0.466504,-0.0197352,0.524225,-0.164647,0.757906,-0.683601,0.00936589,0,0,0,0,0,0,0,0.0529527,-0.195973,-0.281175,-1.66862,0.196504,1.27848,0.402815,0.246959,-0.00921592,0.26699,-0.062367,0.423087,-0.351462,-0.00108479,-1.3136,-26.0085,0.286573,25.257,1.46087,2.24389,-0.00996382,-2.70704,0.0949441,-0.989573,0.898679,-1.10725,-0.252276,-0.166741,-0.264195,-0.497808,-0.829279,0.700905,-0.737179,-0.00454881,
0.0620898,-0.197196,-0.271622,-1.67261,0.205797,-0.305407,-0.382173,0.474712,-0.0156632,0.533617,-0.16617,0.787004,-0.666123,0.00916637,0,0,0,0,0,0,0,0.0529527,-0.195973,-0.281175,-1.66862,0.196504,1.27848,0.402815,0.246959,-0.00921592,0.26699,-0.062367,0.423087,-0.351462,-0.00108479,-1.3136,-26.0085,0.286573,25.257,1.46087,2.24389,-0.00996382,-3.27076,-0.122762,-0.836732,0.932816,-1.60885,-0.393432,-0.291656,-0.578506,-0.63883,-0.671862,0.591177,-0.701948,-0.0048104,
0.0640153,-0.197242,-0.269457,-1.67327,0.209051,-0.307993,-0.382137,0.481371,-0.0116286,0.541273,-0.166692,0.813463,-0.646262,0.00897674,0,0,0,0,0,0,0,0.0609875,-0.196002,-0.27107,-1.67064,0.207881,1.26885,0.402814,0.261888,0.00175579,0.335342,-0.0716272,0.363334,-0.29299,-0.000231142,1.57856,-25.8617,3.21443,24.5111,3.29925,1.29632,-0.0026396,-3.27076,-0.122762,-0.836732,0.932816,-1.60885,-0.393432,-0.291656,-0.578506,-0.63883,-0.671862,0.591177,-0.701948,-0.0048104,
0.0659621,-0.197273,-0.267267,-1.67394,0.2124,-0.310493,-0.382102,0.486711,-0.00778708,0.547459,-0.166487,0.837272,-0.625101,0.00879641,0,0,0,0,0,0,0,0.0609875,-0.196002,-0.27107,-1.67064,0.207881,1.26885,0.402814,0.261888,0.00175579,0.335342,-0.0716272,0.363334,-0.29299,-0.000231142,1.57856,-25.8617,3.21443,24.5111,3.29925,1.29632,-0.0026396,-2.29974,0.768362,-1.01618,0.336234,-0.754862,0.137927,0.20314,-0.0303989,-0.0346232,-0.896671,0.678491,-0.763142,-0.00619899,
0.0679258,-0.19729,-0.265057,-1.6746,0.215834,-0.312906,-0.382067,0.490922,-0.00423369,0.552395,-0.165772,0.858512,-0.603254,0.00862657,0,0,0,0,0,0,0,0.0609875,-0.196002,-0.27107,-1.67064,0.207881,1.26885,0.402814,0.261888,0.00175579,0.335342,-0.0716272,0.363334,-0.29299,-0.000231142,1.57856,-25.8617,3.21443,24.5111,3.29925,1.29632,-0.0026396,-2.77975,0.0179229,-0.997819,0.726484,-1.0495,-0.206187,-0.134549,-0.176466,-0.403101,-0.877467,0.483877,-0.801241,-0.00522688,
0.0699025,-0.197294,-0.262832,-1.67526,0.219343,-0.31523,-0.382033,0.494165,-0.00101305,0.556264,-0.164699,0.877319,-0.581087,0.00846721,0,0,0,0,0,0,0,0.0609875,-0.196002,-0.27107,-1.67064,0.207881,1.26885,0.402814,0.261888,0.00175579,0.335342,-0.0716272,0.363334,-0.29299,-0.000231142,1.57856,-25.8617,3.21443,24.5111,3.29925,1.29632,-0.0026396,-2.77975,0.0179229,-0.997819,0.726484,-1.0495,-0.206187,-0.134549,-0.176466,-0.403101,-0.877467,0.483877,-0.801241,-0.00522688,
0.0718888,-0.197287,-0.260595,-1.67591,0.222919,-0.317466,-0.382,0.496575,0.00186372,0.559215,-0.163368,0.893859,-0.558823,0.00832066,0,0,0,0,0,0,0,0.0609875,-0.196002,-0.27107,-1.67064,0.207881,1.26885,0.402814,0.261888,0.00175579,0.335342,-0.0716272,0.363334,-0.29299,-0.000231142,1.57856,-25.8617,3.21443,24.5111,3.29925,1.29632,-0.0026396,-2.6576,-0.737833,-1.5448,1.10167,-0.705975,-0.494748,-0.426762,0.115275,-0.710602,-1.08418,0.228382,-0.786738,-0.00845667,
0.0738818,-0.197269,-0.25835,-1.67656,0.226552,-0.319612,-0.381967,0.498263,0.00440589,0.561377,-0.161851,0.908313,-0.536602,0.00818044,0,0,0,0,0,0,0,0.0609875,-0.196002,-0.27107,-1.67064,0.207881,1.26885,0.402814,0.261888,0.00175579,0.335342,-0.0716272,0.363334,-0.29299,-0.000231142,1.57856,-25.8617,3.21443,24.5111,3.29925,1.29632,-0.0026396,-2.6576,-0.737833,-1.5448,1.10167,-0.705975,-0.494748,-0.426762,0.115275,-0.710602,-1.08418,0.228382,-0.786738,-0.00845667,
0.0758791,-0.197243,-0.256099,-1.6772,0.230235,-0.32167,-0.381935,0.499327,0.00663371,0.562855,-0.160193,0.920865,-0.514512,0.00804932,0,0,0,0,0,0,0,0.0703503,-0.19607,-0.260056,-1.67293,0.222357,1.26051,0.402815,0.292518,0.000658876,0.36454,-0.0722233,0.528395,-0.235897,-0.00044853,2.64179,-25.211,4.23799,24.6619,3.0365,1.22948,-0.00996382,-2.31266,0.208607,-1.86614,0.423114,-0.259927,0.00744224,0.0626702,0.469944,-0.141362,-1.30348,0.263681,-0.865801,-0.0121014,
0.0778785,-0.197209,-0.253844,-1.67784,0.233962,-0.32364,-0.381903,0.499848,0.00857291,0.56374,-0.158427,0.931697,-0.492613,0.00792795,0,0,0,0,0,0,0,0.0703503,-0.19607,-0.260056,-1.67293,0.222357,1.26051,0.402815,0.292518,0.000658876,0.36454,-0.0722233,0.528395,-0.235897,-0.00044853,2.64179,-25.211,4.23799,24.6619,3.0365,1.22948,-0.00996382,-2.31266,0.208607,-1.86614,0.423114,-0.259927,0.00744224,0.0626702,0.469944,-0.141362,-1.30348,0.263681,-0.865801,-0.0121014,
0.0798781,-0.197168,-0.251587,-1.67846,0.237726,-0.325524,-0.381872,0.499897,0.0102511,0.564111,-0.156578,0.940979,-0.470948,0.00781204,0,0,0,0,0,0,0,0.0703503,-0.19607,-0.260056,-1.67293,0.222357,1.26051,0.402815,0.292518,0.000658876,0.36454,-0.0722233,0.528395,-0.235897,-0.00044853,2.64179,-25.211,4.23799,24.6619,3.0365,1.22948,-0.00996382,-2.3077,0.401015,-1.50812,0.294252,-0.376943,0.112207,0.169686,0.354846,-0.0265624,-1.19519,0.324382,-0.89312,-0.0116067,
0.0818763,-0.197121,-0.249331,-1.67908,0.241522,-0.327322,-0.381841,0.499535,0.0116955,0.564034,-0.154664,0.948873,-0.449547,0.00770342,0,0,0,0,0,0,0,0.0703503,-0.19607,-0.260056,-1.67293,0.222357,1.26051,0.402815,0.292518,0.000658876,0.36454,-0.0722233,0.528395,-0.235897,-0.00044853,2.64179,-25.211,4.23799,24.6619,3.0365,1.22948,-0.00996382,-2.25517,0.4518,-1.56975,0.277776,-0.301005,0.148914,0.214674,0.411207,0.00127432,-1.23667,0.349798,-0.903758,-0.0107273,
0.0838715,-0.197069,-0.247077,-1.67969,0.245344,-0.329036,-0.381811,0.498815,0.012932,0.563566,-0.152699,0.95553,-0.428435,0.00759957,0,0,0,0,0,0,0,0.0703503,-0.19607,-0.260056,-1.67293,0.222357,1.26051,0.402815,0.292518,0.000658876,0.36454,-0.0722233,0.528395,-0.235897,-0.00044853,2.64179,-25.211,4.23799,24.6619,3.0365,1.22948,-0.00996382,-2.25517,0.4518,-1.56975,0.277776,-0.301005,0.148914,0.214674,0.411207,0.00127432,-1.23667,0.349798,-0.903758,-0.0107273,
0.0858627,-0.197013,-0.244826,-1.68029,0.249188,-0.330667,-0.381781,0.497782,0.0139851,0.562758,-0.150694,0.961086,-0.40763,0.00750144,0,0,0,0,0,0,0,0.0835231,-0.196026,-0.244167,-1.67603,0.246189,1.25352,0.402818,0.330573,-0.000591662,0.395045,-0.0719222,0.576634,-0.117553,0.000261887,1.4278,-25.6593,2.71455,24.162,3.13995,1.42815,-0.0365141,-2.5445,-0.688799,-1.59899,1.11853,-0.510008,-0.408553,-0.333134,0.258739,-0.641479,-1.20411,0.309468,-0.868034,-0.00663987,
0.0878486,-0.196954,-0.242579,-1.68089,0.253051,-0.332215,-0.381751,0.496477,0.0148763,0.561654,-0.148659,0.965665,-0.387146,0.00740798,0,0,0,0,0,0,0,0.0835231,-0.196026,-0.244167,-1.67603,0.246189,1.25352,0.402818,0.330573,-0.000591662,0.395045,-0.0719222,0.576634,-0.117553,0.000261887,1.4278,-25.6593,2.71455,24.162,3.13995,1.42815,-0.0365141,-2.5445,-0.688799,-1.59899,1.11853,-0.510008,-0.408553,-0.333134,0.258739,-0.641479,-1.20411,0.309468,-0.868034,-0.00663987,
0.0898283,-0.196891,-0.240338,-1.68148,0.256928,-0.333683,-0.381722,0.494934,0.0156255,0.56029,-0.146602,0.969381,-0.366996,0.00732065,0,0,0,0,0,0,0,0.0835231,-0.196026,-0.244167,-1.67603,0.246189,1.25352,0.402818,0.330573,-0.000591662,0.395045,-0.0719222,0.576634,-0.117553,0.000261887,1.4278,-25.6593,2.71455,24.162,3.13995,1.42815,-0.0365141,-2.82489,-1.0282,-1.41212,1.46893,-0.806025,-0.606791,-0.53503,0.0336441,-0.875351,-1.10505,0.42023,-0.854758,-0.00630283,
0.0918033,-0.196827,-0.238102,-1.68205,0.260797,-0.335072,-0.381693,0.493755,0.0160926,0.558988,-0.144308,0.967109,-0.347132,0.0071664,0,0,0,0,0,0,0,0.0835231,-0.196026,-0.244167,-1.67603,0.246189,1.25352,0.402818,0.330573,-0.000591662,0.395045,-0.0719222,0.576634,-0.117553,0.000261887,1.4278,-25.6593,2.71455,24.162,3.13995,1.42815,-0.0365141,-2.50387,-0.208148,-1.33413,1.0649,-0.595865,-0.221251,-0.144603,0.143853,-0.477839,-1.13632,0.668681,-0.877257,-0.00883586,
0.093775,-0.196762,-0.23587,-1.68262,0.264625,-0.336382,-0.381666,0.49291,0.0162507,0.557953,-0.141767,0.957095,-0.327568,0.006975,0,0,0,0,0,0,0,0.0835231,-0.196026,-0.244167,-1.67603,0.246189,1.25352,0.402818,0.330573,-0.000591662,0.395045,-0.0719222,0.576634,-0.117553,0.000261887,1.4278,-25.6593,2.71455,24.162,3.13995,1.42815,-0.0365141,-2.50387,-0.208148,-1.33413,1.0649,-0.595865,-0.221251,-0.144603,0.143853,-0.477839,-1.13632,0.668681,-0.877257,-0.00883586,
0.0957427,-0.196697,-0.233642,-1.68318,0.268395,-0.337616,-0.381638,0.491937,0.0162245,0.55701,-0.139175,0.942456,-0.308376,0.0068067,0,0,0,0,0,0,0,0.0835231,-0.196026,-0.244167,-1.67603,0.246189,1.25352,0.402818,0.330573,-0.000591662,0.395045,-0.0719222,0.576634,-0.117553,0.000261887,1.4278,-25.6593,2.71455,24.162,3.13995,1.42815,-0.0365141,-2.58432,0.787224,-1.19041,0.445695,-0.739011,0.225084,0.30715,0.0505795,0.0130125,-1.06748,0.846703,-0.878221,-0.0115835,
0.0502787,-0.196745,-0.284907,-1.66877,0.185731,-0.283504,-0.382453,0.41855,-0.0659557,0.464627,-0.188363,0.48504,-0.294092,0.010548,0,0,0,0,0,0,0,0.0944434,-0.195904,-0.230664,-1.67875,0.264164,1.25153,0.402819,0.358548,0.00541479,0.409286,-0.0841146,0.574454,-0.0314586,0.000231359,1.27307,-26.1354,2.23848,24.162,3.62884,1.21667,-0.0429228,-2.58432,0.787224,-1.19041,0.445695,-0.739011,0.225084,0.30715,0.0505795,0.0130125,-1.06748,0.846703,-0.878221,-0.0115835,
0.0998191,-0.196278,-0.224631,-1.68067,0.270991,-0.319644,-0.382467,0.480053,-0.0344558,0.54071,-0.172352,0.582127,-0.0503373,0.00949429,0,0,0,0,0,0,0,0.0944434,-0.195904,-0.230664,-1.67875,0.264164,1.25153,0.402819,0.358548,0.00541479,0.409286,-0.0841146,0.574454,-0.0314586,0.000231359,1.27307,-26.1354,2.23848,24.162,3.62884,1.21667,-0.0429228,-2.79303,0.502359,-1.0934,0.713742,-0.938268,0.0703734,0.146399,-0.0975506,-0.16455,-1.00525,0.909621,-0.863222,-0.0113276,
0.101833,-0.196407,-0.222357,-1.68138,0.273419,-0.319911,-0.382429,0.503554,-0.0322817,0.568528,-0.176683,0.607062,-0.066883,0.0094442,0,0,0,0,0,0,0,0.0944434,-0.195904,-0.230664,-1.67875,0.264164,1.25153,0.402819,0.358548,0.00541479,0.409286,-0.0841146,0.574454,-0.0314586,0.000231359,1.27307,-26.1354,2.23848,24.162,3.62884,1.21667,-0.0429228,-2.79303,0.502359,-1.0934,0.713742,-0.938268,0.0703734,0.146399,-0.0975506,-0.16455,-1.00525,0.909621,-0.863222,-0.0113276,
0.103923,-0.196522,-0.219994,-1.68209,0.275963,-0.320231,-0.382392,0.522437,-0.0286876,0.59079,-0.178725,0.63596,-0.0800097,0.00930261,0,0,0,0,0,0,0,0.0944434,-0.195904,-0.230664,-1.67875,0.264164,1.25153,0.402819,0.358548,0.00541479,0.409286,-0.0841146,0.574454,-0.0314586,0.000231359,1.27307,-26.1354,2.23848,24.162,3.62884,1.21667,-0.0429228,-2.2454,2.57023,-0.963913,-0.652965,-0.574354,1.06878,1.13628,0.148645,0.948844,-1.04337,1.17016,-0.911396,-0.0150133,
0.106074,-0.196622,-0.217559,-1.68281,0.278628,-0.320567,-0.382355,0.537813,-0.0249791,0.608788,-0.180604,0.66631,-0.0839984,0.00918436,0,0,0,0,0,0,0,0.0944434,-0.195904,-0.230664,-1.67875,0.264164,1.25153,0.402819,0.358548,0.00541479,0.409286,-0.0841146,0.574454,-0.0314586,0.000231359,1.27307,-26.1354,2.23848,24.162,3.62884,1.21667,-0.0429228,-1.30904,2.72052,-1.10815,-0.801891,0.179442,1.20431,1.24623,0.598941,1.11378,-1.16767,1.14594,-0.878449,-0.014912,
0.108275,-0.196707,-0.215065,-1.68354,0.281414,-0.320894,-0.382318,0.550268,-0.0211427,0.623336,-0.18182,0.69646,-0.0816217,0.00908786,0,0,0,0,0,0,0,0.105426,-0.195825,-0.217666,-1.68147,0.278873,1.2515,0.402816,0.36782,0.00176694,0.432995,-0.0810158,0.375759,0.00655586,-4.41614e-07,0.765262,-25.9371,1.43709,23.4161,2.55401,1.22948,-0.0163725,-1.30904,2.72052,-1.10815,-0.801891,0.179442,1.20431,1.24623,0.598941,1.11378,-1.16767,1.14594,-0.878449,-0.014912,
0.110516,-0.196775,-0.212525,-1.68427,0.284316,-0.321198,-0.382282,0.560258,-0.0172074,0.635031,-0.182099,0.7254,-0.0760478,0.00899492,0,0,0,0,0,0,0,0.105426,-0.195825,-0.217666,-1.68147,0.278873,1.2515,0.402816,0.36782,0.00176694,0.432995,-0.0810158,0.375759,0.00655586,-4.41614e-07,0.765262,-25.9371,1.43709,23.4161,2.55401,1.22948,-0.0163725,-2.75762,-1.45189,-1.27519,1.97206,-0.822863,-0.793584,-0.721009,-0.0696586,-1.12863,-1.03359,0.674747,-0.791639,-0.00559594,
0.112789,-0.196829,-0.209948,-1.685,0.287326,-0.321473,-0.382247,0.568192,-0.0133604,0.644363,-0.181647,0.75254,-0.0686426,0.00890646,0,0,0,0,0,0,0,0.105426,-0.195825,-0.217666,-1.68147,0.278873,1.2515,0.402816,0.36782,0.00176694,0.432995,-0.0810158,0.375759,0.00655586,-4.41614e-07,0.765262,-25.9371,1.43709,23.4161,2.55401,1.22948,-0.0163725,-2.75762,-1.45189,-1.27519,1.97206,-0.822863,-0.793584,-0.721009,-0.0696586,-1.12863,-1.03359,0.674747,-0.791639,-0.00559594,
0.115091,-0.196869,-0.207339,-1.68572,0.290397,-0.321712,-0.382212,0.575464,-0.0100203,0.652254,-0.180225,0.767811,-0.0599572,0.00870103,0,0,0,0,0,0,0,0.105426,-0.195825,-0.217666,-1.68147,0.278873,1.2515,0.402816,0.36782,0.00176694,0.432995,-0.0810158,0.375759,0.00655586,-4.41614e-07,0.765262,-25.9371,1.43709,23.4161,2.55401,1.22948,-0.0163725,-2.92994,-1.01902,-1.35854,1.60243,-0.956218,-0.584106,-0.46697,-0.127838,-0.916303,-1.00547,0.648689,-0.758849,-0.0052129,
0.117418,-0.196898,-0.204702,-1.68643,0.293483,-0.321914,-0.382178,0.581827,-0.00724737,0.659151,-0.178172,0.771549,-0.0503818,0.00847255,0,0,0,0,0,0,0,0.105426,-0.195825,-0.217666,-1.68147,0.278873,1.2515,0.402816,0.36782,0.00176694,0.432995,-0.0810158,0.375759,0.00655586,-4.41614e-07,0.765262,-25.9371,1.43709,23.4161,2.55401,1.22948,-0.0163725,-3.04706,0.298529,-1.53464,0.669683,-0.939906,0.045431,0.121809,-0.018349,-0.169592,-1.10606,0.745698,-0.826427,-0.00900767,
0.119766,-0.196918,-0.202042,-1.68713,0.296556,-0.322075,-0.382145,0.586939,-0.0049278,0.664971,-0.175877,0.768074,-0.0402253,0.00827335,0,0,0,0,0,0,0,0.117126,-0.195807,-0.202911,-1.68448,0.290709,1.25296,0.402815,0.386894,0.00819561,0.463252,-0.100913,0.394786,0.0788863,-0.00126633,2.66956,-26.2346,3.76192,24.3127,2.87811,1.11687,-0.00996382,-3.04706,0.298529,-1.53464,0.669683,-0.939906,0.045431,0.121809,-0.018349,-0.169592,-1.10606,0.745698,-0.826427,-0.00900767,
0.122129,-0.19693,-0.199364,-1.68783,0.299596,-0.322194,-0.382113,0.590841,-0.00296676,0.669634,-0.173507,0.759972,-0.0296861,0.00810252,0,0,0,0,0,0,0,0.117126,-0.195807,-0.202911,-1.68448,0.290709,1.25296,0.402815,0.386894,0.00819561,0.463252,-0.100913,0.394786,0.0788863,-0.00126633,2.66956,-26.2346,3.76192,24.3127,2.87811,1.11687,-0.00996382,-2.92479,1.00132,-1.88554,0.014286,-0.704267,0.423057,0.46666,0.224121,0.305602,-1.24558,0.641676,-0.842358,-0.012084,
0.124504,-0.196935,-0.196671,-1.68851,0.302591,-0.322269,-0.382081,0.593636,-0.00129253,0.673166,-0.171133,0.74884,-0.0188874,0.0079455,0,0,0,0,0,0,0,0.117126,-0.195807,-0.202911,-1.68448,0.290709,1.25296,0.402815,0.386894,0.00819561,0.463252,-0.100913,0.394786,0.0788863,-0.00126633,2.66956,-26.2346,3.76192,24.3127,2.87811,1.11687,-0.00996382,-2.92479,1.00132,-1.88554,0.014286,-0.704267,0.423057,0.46666,0.224121,0.305602,-1.24558,0.641676,-0.842358,-0.012084,
0.126886,-0.196934,-0.193968,-1.68919,0.305534,-0.322301,-0.38205,0.595446,0.000147282,0.675655,-0.168784,0.735687,-0.00790535,0.00779945,0,0,0,0,0,0,0,0.117126,-0.195807,-0.202911,-1.68448,0.290709,1.25296,0.402815,0.386894,0.00819561,0.463252,-0.100913,0.394786,0.0788863,-0.00126633,2.66956,-26.2346,3.76192,24.3127,2.87811,1.11687,-0.00996382,-2.26084,0.42986,-2.37505,0.197687,-0.0854012,0.205738,0.247991,0.618228,0.0853244,-1.39078,0.383771,-0.733218,-0.0119134,
0.129271,-0.196929,-0.19126,-1.68985,0.308418,-0.322288,-0.382019,0.596392,0.00139171,0.677208,-0.166468,0.721172,0.00320557,0.00766564,0,0,0,0,0,0,0,0.117126,-0.195807,-0.202911,-1.68448,0.290709,1.25296,0.402815,0.386894,0.00819561,0.463252,-0.100913,0.394786,0.0788863,-0.00126633,2.66956,-26.2346,3.76192,24.3127,2.87811,1.11687,-0.00996382,-2.34331,-0.374214,-2.38712,0.712321,-0.18747,-0.1718,-0.128151,0.510695,-0.332509,-1.32529,0.293897,-0.661434,-0.0109756,
0.131658,-0.196919,-0.188548,-1.69051,0.311241,-0.32223,-0.381989,0.59659,0.00247075,0.67794,-0.164185,0.705749,0.0144027,0.00753622,0,0,0,0,0,0,0,0.117126,-0.195807,-0.202911,-1.68448,0.290709,1.25296,0.402815,0.386894,0.00819561,0.463252,-0.100913,0.394786,0.0788863,-0.00126633,2.66956,-26.2346,3.76192,24.3127,2.87811,1.11687,-0.00996382,-2.34331,-0.374214,-2.38712,0.712321,-0.18747,-0.1718,-0.128151,0.510695,-0.332509,-1.32529,0.293897,-0.661434,-0.0109756,
0.134042,-0.196905,-0.185836,-1.69116,0.314001,-0.322128,-0.381959,0.596142,0.00340856,0.677956,-0.161933,0.689764,0.0256515,0.00741376,0,0,0,0,0,0,0,0.129863,-0.195748,-0.187805,-1.68764,0.306549,1.2553,0.402823,0.411533,0.00337912,0.487129,-0.0966502,0.507929,0.0670258,0.000652048,2.59418,-26.8099,3.4366,24.5865,2.95684,1.27617,-0.050247,-2.47358,-0.372007,-2.36842,0.725639,-0.310204,-0.175786,-0.124674,0.426876,-0.344031,-1.28583,0.325905,-0.638304,-0.00991147,
0.136423,-0.196888,-0.183127,-1.6918,0.316695,-0.32198,-0.38193,0.595133,0.00422648,0.67735,-0.159713,0.673529,0.0369176,0.00729318,0,0,0,0,0,0,0,0.129863,-0.195748,-0.187805,-1.68764,0.306549,1.2553,0.402823,0.411533,0.00337912,0.487129,-0.0966502,0.507929,0.0670258,0.000652048,2.59418,-26.8099,3.4366,24.5865,2.95684,1.27617,-0.050247,-2.47358,-0.372007,-2.36842,0.725639,-0.310204,-0.175786,-0.124674,0.426876,-0.344031,-1.28583,0.325905,-0.638304,-0.00991147,
0.138797,-0.196868,-0.180422,-1.69243,0.319324,-0.321787,-0.381901,0.593629,0.00494642,0.676195,-0.157528,0.657414,0.0481648,0.00717569,0,0,0,0,0,0,0,0.129863,-0.195748,-0.187805,-1.68764,0.306549,1.2553,0.402823,0.411533,0.00337912,0.487129,-0.0966502,0.507929,0.0670258,0.000652048,2.59418,-26.8099,3.4366,24.5865,2.95684,1.27617,-0.050247,-2.56397,-1.30003,-2.0532,1.33515,-0.613478,-0.626502,-0.560172,0.111186,-0.849977,-1.03028,0.243917,-0.497469,-0.00830959,
0.141164,-0.196846,-0.177724,-1.69305,0.321892,-0.32155,-0.381873,0.591666,0.00559414,0.674541,-0.155395,0.641988,0.0593551,0.00705885,0,0,0,0,0,0,0,0.129863,-0.195748,-0.187805,-1.68764,0.306549,1.2553,0.402823,0.411533,0.00337912,0.487129,-0.0966502,0.507929,0.0670258,0.000652048,2.59418,-26.8099,3.4366,24.5865,2.95684,1.27617,-0.050247,-2.56397,-1.30003,-2.0532,1.33515,-0.613478,-0.626502,-0.560172,0.111186,-0.849977,-1.03028,0.243917,-0.497469,-0.00830959,
0.143521,-0.196821,-0.175034,-1.69366,0.324406,-0.321268,-0.381845,0.589202,0.00620764,0.67241,-0.153358,0.628317,0.0704414,0.00700959,0,0,0,0,0,0,0,0.129863,-0.195748,-0.187805,-1.68764,0.306549,1.2553,0.402823,0.411533,0.00337912,0.487129,-0.0966502,0.507929,0.0670258,0.000652048,2.59418,-26.8099,3.4366,24.5865,2.95684,1.27617,-0.050247,-2.58813,-0.509327,-2.35806,0.78607,-0.57649,-0.280607,-0.22271,0.192947,-0.449804,-1.08336,0.314183,-0.439761,-0.00938831,
0.145868,-0.196794,-0.172354,-1.69427,0.326853,-0.320942,-0.381817,0.586826,0.00667778,0.670082,-0.151145,0.611847,0.0814554,0.00693875,0,0,0,0,0,0,0,0.143428,-0.195476,-0.171336,-1.69034,0.32158,1.25706,0.40282,0.42925,0.0122221,0.513039,-0.0760157,0.447005,0.0402701,0.000493236,2.54261,-27.159,3.28584,24.4873,3.15826,1.62774,-0.050247,-2.97387,0.361654,-2.11686,0.270874,-1.01776,0.0947006,0.14927,-0.086567,-0.0268944,-0.90921,0.492329,-0.395626,-0.00982407,
0.148207,-0.196767,-0.169683,-1.69486,0.329215,-0.320573,-0.38179,0.584609,0.00694734,0.667792,-0.148725,0.590577,0.0924115,0.00681038,0,0,0,0,0,0,0,0.143428,-0.195476,-0.171336,-1.69034,0.32158,1.25706,0.40282,0.42925,0.0122221,0.513039,-0.0760157,0.447005,0.0402701,0.000493236,2.54261,-27.159,3.28584,24.4873,3.15826,1.62774,-0.050247,-2.97387,0.361654,-2.11686,0.270874,-1.01776,0.0947006,0.14927,-0.086567,-0.0268944,-0.90921,0.492329,-0.395626,-0.00982407,
0.150535,-0.196738,-0.167021,-1.69545,0.331484,-0.32016,-0.381763,0.582181,0.00708778,0.665454,-0.14632,0.567116,0.103253,0.00668609,0,0,0,0,0,0,0,0.143428,-0.195476,-0.171336,-1.69034,0.32158,1.25706,0.40282,0.42925,0.0122221,0.513039,-0.0760157,0.447005,0.0402701,0.000493236,2.54261,-27.159,3.28584,24.4873,3.15826,1.62774,-0.050247,-2.77187,0.718765,-2.18796,0.124442,-0.85341,0.237197,0.272355,0.0125418,0.132049,-0.938256,0.633954,-0.364472,-0.0111312,
0.152853,-0.19671,-0.164369,-1.69602,0.333655,-0.319704,-0.381737,0.579511,0.00715577,0.662944,-0.143986,0.54279,0.113926,0.00657467,0,0,0,0,0,0,0,0.143428,-0.195476,-0.171336,-1.69034,0.32158,1.25706,0.40282,0.42925,0.0122221,0.513039,-0.0760157,0.447005,0.0402701,0.000493236,2.54261,-27.159,3.28584,24.4873,3.15826,1.62774,-0.050247,-2.77187,0.718765,-2.18796,0.124442,-0.85341,0.237197,0.272355,0.0125418,0.132049,-0.938256,0.633954,-0.364472,-0.0111312,
0.15516,-0.196681,-0.161728,-1.69659,0.335728,-0.319206,-0.381711,0.576614,0.00718701,0.660223,-0.141734,0.518279,0.124398,0.00647322,0,0,0,0,0,0,0,0.143428,-0.195476,-0.171336,-1.69034,0.32158,1.25706,0.40282,0.42925,0.0122221,0.513039,-0.0760157,0.447005,0.0402701,0.000493236,2.54261,-27.159,3.28584,24.4873,3.15826,1.62774,-0.050247,-2.53625,1.60561,-2.39739,-0.474644,-0.617687,0.642999,0.676658,0.213816,0.584858,-1.0199,0.729729,-0.341653,-0.0129,
0.157454,-0.196652,-0.159099,-1.69715,0.337704,-0.318668,-0.381686,0.573518,0.0072012,0.657295,-0.139557,0.493925,0.134656,0.00637157,0,0,0,0,0,0,0,0.143428,-0.195476,-0.171336,-1.69034,0.32158,1.25706,0.40282,0.42925,0.0122221,0.513039,-0.0760157,0.447005,0.0402701,0.000493236,2.54261,-27.159,3.28584,24.4873,3.15826,1.62774,-0.050247,-2.53625,1.60561,-2.39739,-0.474644,-0.617687,0.642999,0.676658,0.213816,0.584858,-1.0199,0.729729,-0.341653,-0.0129,
0.100252,-0.196486,-0.224197,-1.68095,0.269081,-0.317518,-0.382466,0.525999,-0.0520176,0.590233,-0.193678,0.366813,0.179233,0.00937133,0,0,0,0,0,0,0,0.162433,-0.194791,-0.149002,-1.69334,0.336352,1.25924,0.402819,0.46025,0.0169829,0.545125,-0.0694606,0.305038,0.0655352,-0.000933056,-0.528073,-27.5319,0.0882092,24.6857,3.44574,1.6076,-0.00996382,-2.81113,0.662679,-2.64096,0.179697,-0.738728,0.197462,0.247735,0.128878,0.0694492,-1.05535,0.665904,-0.298726,-0.0100722,
0.168946,-0.195102,-0.141592,-1.69541,0.339859,-0.309169,-0.38247,0.570009,-0.0283183,0.649358,-0.187147,0.290587,0.223666,0.0092569,0,0,0,0,0,0,0,0.162433,-0.194791,-0.149002,-1.69334,0.336352,1.25924,0.402819,0.46025,0.0169829,0.545125,-0.0694606,0.305038,0.0655352,-0.000933056,-0.528073,-27.5319,0.0882092,24.6857,3.44574,1.6076,-0.00996382,-2.63307,0.819885,-2.55509,0.133154,-0.637423,0.259607,0.28742,0.168243,0.147069,-1.0344,0.757174,-0.282606,-0.00947627,
0.171306,-0.195201,-0.138901,-1.69617,0.341028,-0.308225,-0.382434,0.589865,-0.0248368,0.672806,-0.189595,0.292032,0.235935,0.00904546,0,0,0,0,0,0,0,0.162433,-0.194791,-0.149002,-1.69334,0.336352,1.25924,0.402819,0.46025,0.0169829,0.545125,-0.0694606,0.305038,0.0655352,-0.000933056,-0.528073,-27.5319,0.0882092,24.6857,3.44574,1.6076,-0.00996382,-2.63307,0.819885,-2.55509,0.133154,-0.637423,0.259607,0.28742,0.168243,0.147069,-1.0344,0.757174,-0.282606,-0.00947627,
0.173729,-0.195283,-0.136135,-1.69693,0.342205,-0.307238,-0.382399,0.605685,-0.0206325,0.691513,-0.189866,0.294334,0.24685,0.00883971,0,0,0,0,0,0,0,0.162433,-0.194791,-0.149002,-1.69334,0.336352,1.25924,0.402819,0.46025,0.0169829,0.545125,-0.0694606,0.305038,0.0655352,-0.000933056,-0.528073,-27.5319,0.0882092,24.6857,3.44574,1.6076,-0.00996382,-2.33601,2.11569,-2.55195,-0.76915,-0.435412,0.86495,0.892384,0.347955,0.827139,-1.0506,0.868093,-0.274103,-0.0121674,
0.176201,-0.195349,-0.13331,-1.69769,0.343394,-0.306213,-0.382364,0.618092,-0.0163108,0.706294,-0.189025,0.297352,0.25614,0.00864085,0,0,0,0,0,0,0,0.162433,-0.194791,-0.149002,-1.69334,0.336352,1.25924,0.402819,0.46025,0.0169829,0.545125,-0.0694606,0.305038,0.0655352,-0.000933056,-0.528073,-27.5319,0.0882092,24.6857,3.44574,1.6076,-0.00996382,-1.39368,0.388399,-2.90887,0.365672,0.40262,0.0413716,0.0476113,0.766943,-0.0871743,-1.23235,0.68722,-0.202796,-0.0116484,
0.178711,-0.195397,-0.130439,-1.69844,0.344603,-0.305157,-0.38233,0.627489,-0.0121598,0.717764,-0.187747,0.302209,0.264003,0.00856387,0,0,0,0,0,0,0,0.176215,-0.194582,-0.132615,-1.69546,0.343434,1.26176,0.402817,0.469071,-0.003227,0.560123,-0.0796847,0.191337,0.120265,-0.00124567,1.34845,-27.282,1.43709,23.6145,2.49267,1.77331,-0.0026396,-1.39368,0.388399,-2.90887,0.365672,0.40262,0.0413716,0.0476113,0.766943,-0.0871743,-1.23235,0.68722,-0.202796,-0.0116484,
0.181253,-0.195431,-0.127531,-1.69918,0.345801,-0.304074,-0.382296,0.635399,-0.00851799,0.726889,-0.185744,0.299536,0.270853,0.00842353,0,0,0,0,0,0,0,0.176215,-0.194582,-0.132615,-1.69546,0.343434,1.26176,0.402817,0.469071,-0.003227,0.560123,-0.0796847,0.191337,0.120265,-0.00124567,1.34845,-27.282,1.43709,23.6145,2.49267,1.77331,-0.0026396,-2.46149,-1.25077,-2.83938,1.42299,-0.459976,-0.676009,-0.60642,0.171522,-0.925639,-1.05323,0.489865,-0.160092,-0.00858996,
0.18382,-0.195453,-0.124594,-1.69992,0.346958,-0.302966,-0.382263,0.641808,-0.00547115,0.734283,-0.183362,0.289282,0.27702,0.00825076,0,0,0,0,0,0,0,0.176215,-0.194582,-0.132615,-1.69546,0.343434,1.26176,0.402817,0.469071,-0.003227,0.560123,-0.0796847,0.191337,0.120265,-0.00124567,1.34845,-27.282,1.43709,23.6145,2.49267,1.77331,-0.0026396,-2.46149,-1.25077,-2.83938,1.42299,-0.459976,-0.676009,-0.60642,0.171522,-0.925639,-1.05323,0.489865,-0.160092,-0.00858996,
0.186406,-0.195465,-0.121634,-1.70064,0.348059,-0.301835,-0.382231,0.646569,-0.00293136,0.740067,-0.180971,0.27506,0.28269,0.0080909,0,0,0,0,0,0,0,0.176215,-0.194582,-0.132615,-1.69546,0.343434,1.26176,0.402817,0.469071,-0.003227,0.560123,-0.0796847,0.191337,0.120265,-0.00124567,1.34845,-27.282,1.43709,23.6145,2.49267,1.77331,-0.0026396,-2.82582,-0.302119,-3.0262,0.696651,-0.656541,-0.194871,-0.0947101,0.167385,-0.399572,-1.10465,0.512596,-0.190431,-0.00972708,
0.189006,-0.195468,-0.118656,-1.70135,0.349094,-0.300683,-0.382199,0.649863,-0.000796333,0.744326,-0.178667,0.25877,0.287992,0.00795461,0,0,0,0,0,0,0,0.176215,-0.194582,-0.132615,-1.69546,0.343434,1.26176,0.402817,0.469071,-0.003227,0.560123,-0.0796847,0.191337,0.120265,-0.00124567,1.34845,-27.282,1.43709,23.6145,2.49267,1.77331,-0.0026396,-2.72867,-0.561479,-3.08188,0.797505,-0.573183,-0.303413,-0.279112,0.213696,-0.44569,-1.11912,0.441849,-0.179104,-0.0107387,
0.191613,-0.195464,-0.115667,-1.70206,0.350059,-0.299511,-0.382168,0.651893,0.00101727,0.747217,-0.176453,0.241429,0.29303,0.00782764,0,0,0,0,0,0,0,0.191079,-0.194605,-0.114651,-1.69814,0.347334,1.26711,0.402819,0.483493,0.00414403,0.580445,-0.079865,0.119711,0.204503,-3.68234e-05,1.72931,-26.9606,2.36146,24.2374,2.3526,1.96557,-0.0429228,-2.72867,-0.561479,-3.08188,0.797505,-0.573183,-0.303413,-0.279112,0.213696,-0.44569,-1.11912,0.441849,-0.179104,-0.0107387,
0.194224,-0.195454,-0.112672,-1.70276,0.350954,-0.298319,-0.382137,0.652849,0.00257108,0.748917,-0.174313,0.223585,0.29789,0.00770487,0,0,0,0,0,0,0,0.191079,-0.194605,-0.114651,-1.69814,0.347334,1.26711,0.402819,0.483493,0.00414403,0.580445,-0.079865,0.119711,0.204503,-3.68234e-05,1.72931,-26.9606,2.36146,24.2374,2.3526,1.96557,-0.0429228,-2.82044,0.218527,-3.32615,0.104686,-0.607147,0.0843933,0.0815715,0.29191,0.0401529,-1.15836,0.375292,-0.149345,-0.0126186,
0.196836,-0.195438,-0.109673,-1.70345,0.351776,-0.297109,-0.382107,0.6529,0.00391057,0.7496,-0.172224,0.205538,0.302634,0.00759284,0,0,0,0,0,0,0,0.191079,-0.194605,-0.114651,-1.69814,0.347334,1.26711,0.402819,0.483493,0.00414403,0.580445,-0.079865,0.119711,0.204503,-3.68234e-05,1.72931,-26.9606,2.36146,24.2374,2.3526,1.96557,-0.0429228,-2.82044,0.218527,-3.32615,0.104686,-0.607147,0.0843933,0.0815715,0.29191,0.0401529,-1.15836,0.375292,-0.149345,-0.0126186,
0.199445,-0.195418,-0.106676,-1.70413,0.352526,-0.29588,-0.382077,0.652194,0.00506994,0.749425,-0.170168,0.187462,0.307303,0.007481,0,0,0,0,0,0,0,0.191079,-0.194605,-0.114651,-1.69814,0.347334,1.26711,0.402819,0.483493,0.00414403,0.580445,-0.079865,0.119711,0.204503,-3.68234e-05,1.72931,-26.9606,2.36146,24.2374,2.3526,1.96557,-0.0429228,-1.96613,0.340749,-3.456,-0.0891877,0.006777,0.109337,0.105401,0.643964,0.0813324,-1.21433,0.288095,-0.0665961,-0.0131116,
0.202048,-0.195394,-0.103682,-1.7048,0.353204,-0.294632,-0.382047,0.650856,0.00607578,0.748528,-0.168132,0.169472,0.311925,0.00737507,0,0,0,0,0,0,0,0.191079,-0.194605,-0.114651,-1.69814,0.347334,1.26711,0.402819,0.483493,0.00414403,0.580445,-0.079865,0.119711,0.204503,-3.68234e-05,1.72931,-26.9606,2.36146,24.2374,2.3526,1.96557,-0.0429228,-1.96613,0.340749,-3.456,-0.0891877,0.006777,0.109337,0.105401,0.643964,0.0813324,-1.21433,0.288095,-0.0665961,-0.0131116,
0.204644,-0.195366,-0.100693,-1.70546,0.35381,-0.293366,-0.382018,0.648989,0.00695078,0.747027,-0.166109,0.151697,0.316511,0.00726846,0,0,0,0,0,0,0,0.191079,-0.194605,-0.114651,-1.69814,0.347334,1.26711,0.402819,0.483493,0.00414403,0.580445,-0.079865,0.119711,0.204503,-3.68234e-05,1.72931,-26.9606,2.36146,24.2374,2.3526,1.96557,-0.0429228,-2.05205,0.463052,-3.55869,-0.187674,-0.02024,0.178441,0.200395,0.656087,0.136943,-1.2421,0.303192,-0.0613994,-0.0124473,
0.207231,-0.195335,-0.0977134,-1.70612,0.354348,-0.292082,-0.38199,0.646667,0.00771833,0.745005,-0.164105,0.134392,0.321058,0.00716221,0,0,0,0,0,0,0,0.206903,-0.194621,-0.0958122,-1.70079,0.350396,1.27407,0.402821,0.486857,-0.000438857,0.590717,-0.0776621,0.0685106,0.225138,0.000727558,1.52698,-26.7345,1.7386,24.3365,2.59704,2.00493,-0.0566557,-2.16891,1.89033,-3.61665,-1.18577,-0.0985298,0.852896,0.879572,0.726896,0.894274,-1.25445,0.422983,-0.0656479,-0.0152977,
0.209807,-0.195301,-0.0947434,-1.70677,0.354821,-0.290779,-0.381962,0.643916,0.00840816,0.742505,-0.162147,0.118206,0.325544,0.00700037,0,0,0,0,0,0,0,0.206903,-0.194621,-0.0958122,-1.70079,0.350396,1.27407,0.402821,0.486857,-0.000438857,0.590717,-0.0776621,0.0685106,0.225138,0.000727558,1.52698,-26.7345,1.7386,24.3365,2.59704,2.00493,-0.0566557,-2.16891,1.89033,-3.61665,-1.18577,-0.0985298,0.852896,0.879572,0.726896,0.894274,-1.25445,0.422983,-0.0656479,-0.0152977,
0.212369,-0.195265,-0.0917853,-1.70741,0.35524,-0.28946,-0.381934,0.640604,0.00906931,0.739526,-0.160336,0.104888,0.329922,0.00692497,0,0,0,0,0,0,0,0.206903,-0.194621,-0.0958122,-1.70079,0.350396,1.27407,0.402821,0.486857,-0.000438857,0.590717,-0.0776621,0.0685106,0.225138,0.000727558,1.52698,-26.7345,1.7386,24.3365,2.59704,2.00493,-0.0566557,-1.04237,-1.34923,-3.58023,1.06911,0.701384,-0.732273,-0.689258,0.889879,-0.915503,-1.26845,0.193697,0.0450482,-0.00813294,
