PerkyPenguin/Analysis-on-Approximated-Derivatives/Code_and_Data/PaperData/Real_Robot/Scene_1/contact_change/8/trajectory.csv
Commanded Joint 0 Position,Commanded Joint 1 Position,Commanded Joint 2 Position,Commanded Joint 3 Position,Commanded Joint 4 Position,Commanded Joint 5 Position,Commanded Joint 6 Position,Commanded Joint 0 Velocity,Commanded Joint 1 Velocity,Commanded Joint 2 Velocity,Commanded Joint 3 Velocity,Commanded Joint 4 Velocity,Commanded Joint 5 Velocity,Commanded Joint 6 Velocity,Commanded Joint 0 Torque,Commanded Joint 1 Torque,Commanded Joint 2 Torque,Commanded Joint 3 Torque,Commanded Joint 4 Torque,Commanded Joint 5 Torque,Commanded Joint 6 Torque,Actual Joint 0 Position,Actual Joint 1 Position,Actual Joint 2 Position,Actual Joint 3 Position,Actual Joint 4 Position,Actual Joint 5 Position,Actual Joint 6 Position,Actual Joint 0 Velocity,Actual Joint 1 Velocity,Actual Joint 2 Velocity,Actual Joint 3 Velocity,Actual Joint 4 Velocity,Actual Joint 5 Velocity,Actual Joint 6 Velocity,Actual Joint 0 Torque,Actual Joint 1 Torque,Actual Joint 2 Torque,Actual Joint 3 Torque,Actual Joint 4 Torque,Actual Joint 5 Torque,Actual Joint 6 Torque,EE ext force 0,EE ext force 1,EE ext force 2,EE ext force 3,EE ext force 4,EE ext force 5,joint ext torque 0,joint ext torque 1,joint ext torque 2,joint ext torque 3,joint ext torque 4,joint ext torque 5,joint ext torque 6,
0.0124719,-0.195093,-0.333745,-1.65991,-0.0928539,-0.0923853,-0.38306,-0.00266877,0.0148124,-0.0125708,-0.149588,0.00663729,0.200337,-0.0021331,0,0,0,0,0,0,0,0.0124891,-0.195073,-0.333646,-1.65842,-0.0929458,1.47641,0.402359,-0.00102218,0.00141507,-0.00229208,0.00169516,0.00242058,-0.00146754,0.000694973,-0.0440639,-25.6117,1.88936,25.9076,0.526119,3.00011,-0.050247,-0.990897,-0.246622,-0.582359,0.252498,-0.213284,-0.239292,-0.131378,0.107474,-0.359823,-0.41718,-0.151881,-0.317335,-0.0407243,
0.0124564,-0.194958,-0.333807,-1.66055,-0.092832,-0.0915552,-0.383068,-0.00388487,0.0336143,-0.0154176,-0.158832,0.00547991,0.20753,-0.00203156,0,0,0,0,0,0,0,0.0124891,-0.195073,-0.333646,-1.65842,-0.0929458,1.47641,0.402359,-0.00102218,0.00141507,-0.00229208,0.00169516,0.00242058,-0.00146754,0.000694973,-0.0440639,-25.6117,1.88936,25.9076,0.526119,3.00011,-0.050247,-0.951852,-0.219607,-0.507436,0.221996,-0.217116,-0.221439,-0.11601,0.0910614,-0.336014,-0.388,-0.147562,-0.311605,-0.0397847,
0.0124762,-0.195069,-0.333662,-1.65842,-0.0929421,-0.0943915,-0.383038,-0.000550009,5.02443e-05,-0.000685301,-7.98311e-05,-0.000434281,-4.61337e-05,2.37494e-05,0,0,0,0,0,0,0,0.0124891,-0.195073,-0.333646,-1.65842,-0.0929458,1.47641,0.402359,-0.00102218,0.00141507,-0.00229208,0.00169516,0.00242058,-0.00146754,0.000694973,-0.0440639,-25.6117,1.88936,25.9076,0.526119,3.00011,-0.050247,-0.951852,-0.219607,-0.507436,0.221996,-0.217116,-0.221439,-0.11601,0.0910614,-0.336014,-0.388,-0.147562,-0.311605,-0.0397847,
0.0124744,-0.195069,-0.333664,-1.65842,-0.0929445,-0.0943919,-0.383038,-0.000450108,-1.58682e-06,-0.000561987,-6.52414e-05,-0.000600976,-8.85036e-05,1.84159e-05,0,0,0,0,0,0,0,0.0124891,-0.195073,-0.333646,-1.65842,-0.0929458,1.47641,0.402359,-0.00102218,0.00141507,-0.00229208,0.00169516,0.00242058,-0.00146754,0.000694973,-0.0440639,-25.6117,1.88936,25.9076,0.526119,3.00011,-0.050247,-1.0021,-0.099911,-0.410161,0.111145,-0.302827,-0.175354,-0.0699961,0.0229764,-0.276803,-0.333274,-0.146291,-0.30008,-0.040608,
0.0124729,-0.195069,-0.333666,-1.65842,-0.0929473,-0.0943923,-0.383038,-0.000372828,-3.93532e-05,-0.000467561,-4.5869e-05,-0.000685487,-0.000122317,1.46891e-05,0,0,0,0,0,0,0,0.0124907,-0.195084,-0.33364,-1.65846,-0.0929589,1.47644,0.402353,-0.000629949,-0.00228526,0.000880847,-0.00763345,-0.00258522,0.00934547,-0.00115824,-0.0718349,-25.4094,1.7624,24.9356,0.60577,3.00011,-0.0026396,-1.16931,0.111208,-0.869515,0.0228302,-0.276724,-0.108916,-0.00463821,0.105125,-0.207465,-0.471854,-0.13412,-0.289043,-0.0399863,
0.0124717,-0.195069,-0.333667,-1.65842,-0.0929501,-0.0943929,-0.383038,-0.000311925,-6.9006e-05,-0.000394166,-2.76273e-05,-0.000716857,-0.000146393,1.19659e-05,0,0,0,0,0,0,0,0.0124907,-0.195084,-0.33364,-1.65846,-0.0929589,1.47644,0.402353,-0.000629949,-0.00228526,0.000880847,-0.00763345,-0.00258522,0.00934547,-0.00115824,-0.0718349,-25.4094,1.7624,24.9356,0.60577,3.00011,-0.0026396,-1.16931,0.111208,-0.869515,0.0228302,-0.276724,-0.108916,-0.00463821,0.105125,-0.207465,-0.471854,-0.13412,-0.289043,-0.0399863,
0.0124706,-0.19507,-0.333669,-1.65842,-0.092953,-0.0943936,-0.383038,-0.000263192,-9.3298e-05,-0.000336319,-1.18628e-05,-0.000714448,-0.0001627,9.9206e-06,0,0,0,0,0,0,0,0.0124907,-0.195084,-0.33364,-1.65846,-0.0929589,1.47644,0.402353,-0.000629949,-0.00228526,0.000880847,-0.00763345,-0.00258522,0.00934547,-0.00115824,-0.0718349,-25.4094,1.7624,24.9356,0.60577,3.00011,-0.0026396,-2.62649,0.387075,-0.845651,-0.206156,-1.44335,-0.241452,-0.127121,-0.575061,-0.317859,-0.254531,-0.139809,-0.261812,-0.0399312,
0.0124698,-0.19507,-0.33367,-1.65842,-0.0929557,-0.0943943,-0.383038,-0.000223677,-0.000113703,-0.000290119,1.44122e-06,-0.000691265,-0.000173501,8.35417e-06,0,0,0,0,0,0,0,0.0124907,-0.195084,-0.33364,-1.65846,-0.0929589,1.47644,0.402353,-0.000629949,-0.00228526,0.000880847,-0.00763345,-0.00258522,0.00934547,-0.00115824,-0.0718349,-25.4094,1.7624,24.9356,0.60577,3.00011,-0.0026396,-2.62649,0.387075,-0.845651,-0.206156,-1.44335,-0.241452,-0.127121,-0.575061,-0.317859,-0.254531,-0.139809,-0.261812,-0.0399312,
0.0123545,-0.195013,-0.333754,-1.65829,-0.0913802,-0.0953763,-0.383037,-0.0124179,0.00409315,-0.0113472,0.0101339,0.177329,-0.11154,0.000409776,0,0,0,0,0,0,0,0.0124907,-0.195084,-0.33364,-1.65846,-0.0929589,1.47644,0.402353,-0.000629949,-0.00228526,0.000880847,-0.00763345,-0.00258522,0.00934547,-0.00115824,-0.0718349,-25.4094,1.7624,24.9356,0.60577,3.00011,-0.0026396,-1.2428,-0.0692891,-1.42673,0.227715,-0.167006,-0.198337,-0.0867868,0.237146,-0.329689,-0.630234,-0.142224,-0.24661,-0.0415911,
0.0123679,-0.195024,-0.333735,-1.65836,-0.0914379,-0.0952972,-0.383045,-0.0116611,0.00456768,-0.0105362,0.00943432,0.173905,-0.10898,0.00035616,0,0,0,0,0,0,0,0.0125052,-0.19508,-0.333631,-1.65876,-0.0929458,1.477,0.402357,0.0027469,-0.000402579,0.00149827,0.00055273,-0.00365665,0.000526854,-0.000760078,-0.274166,-25.6117,1.71083,26.3281,0.526119,3.19237,-0.0301054,-0.842552,-0.047776,-1.23724,0.19417,0.0434849,-0.116912,-0.0120896,0.315066,-0.239186,-0.582861,-0.119177,-0.220827,-0.0427042,
0.0123216,-0.195012,-0.33378,-1.65833,-0.0906129,-0.0958201,-0.383043,-0.0115844,0.00315444,-0.0111832,0.00801974,0.206263,-0.130736,0.000494539,0,0,0,0,0,0,0,0.0125052,-0.19508,-0.333631,-1.65876,-0.0929458,1.477,0.402357,0.0027469,-0.000402579,0.00149827,0.00055273,-0.00365665,0.000526854,-0.000760078,-0.274166,-25.6117,1.71083,26.3281,0.526119,3.19237,-0.0301054,-0.842552,-0.047776,-1.23724,0.19417,0.0434849,-0.116912,-0.0120896,0.315066,-0.239186,-0.582861,-0.119177,-0.220827,-0.0427042,
0.0122777,-0.195004,-0.333824,-1.6583,-0.0896881,-0.096414,-0.383041,-0.0109746,0.00184072,-0.0110432,0.00654093,0.231189,-0.148472,0.000569553,0,0,0,0,0,0,0,0.0125052,-0.19508,-0.333631,-1.65876,-0.0929458,1.477,0.402357,0.0027469,-0.000402579,0.00149827,0.00055273,-0.00365665,0.000526854,-0.000760078,-0.274166,-25.6117,1.71083,26.3281,0.526119,3.19237,-0.0301054,-0.922207,-0.0850775,-0.977688,0.174758,-0.129989,-0.147466,-0.04164,0.168428,-0.26338,-0.458614,-0.123765,-0.202982,-0.043215,
0.0122374,-0.195001,-0.333866,-1.65828,-0.0886859,-0.0970661,-0.383038,-0.0100658,0.000752,-0.0104228,0.00522267,0.250548,-0.163012,0.000607112,0,0,0,0,0,0,0,0.0125052,-0.19508,-0.333631,-1.65876,-0.0929458,1.477,0.402357,0.0027469,-0.000402579,0.00149827,0.00055273,-0.00365665,0.000526854,-0.000760078,-0.274166,-25.6117,1.71083,26.3281,0.526119,3.19237,-0.0301054,-0.922207,-0.0850775,-0.977688,0.174758,-0.129989,-0.147466,-0.04164,0.168428,-0.26338,-0.458614,-0.123765,-0.202982,-0.043215,
0.0122014,-0.195002,-0.333904,-1.65826,-0.0876232,-0.0977657,-0.383036,-0.00900414,-0.000100058,-0.00952427,0.00410151,0.265678,-0.174911,0.000621302,0,0,0,0,0,0,0,0.0125052,-0.19508,-0.333631,-1.65876,-0.0929458,1.477,0.402357,0.0027469,-0.000402579,0.00149827,0.00055273,-0.00365665,0.000526854,-0.000760078,-0.274166,-25.6117,1.71083,26.3281,0.526119,3.19237,-0.0301054,-0.86361,-0.190385,-1.43243,0.3647,0.11769,-0.18454,-0.0764754,0.394587,-0.332085,-0.681511,-0.0980139,-0.248473,-0.0430691,
0.0121699,-0.195005,-0.333938,-1.65825,-0.086513,-0.0985041,-0.383033,-0.00788253,-0.000739624,-0.00848149,0.0031604,0.277556,-0.184596,0.000620608,0,0,0,0,0,0,0,0.0124341,-0.194995,-0.333694,-1.65867,-0.0915999,1.477,0.402361,-0.00199051,-0.000189437,-0.00252541,0.000612953,0.0720045,-0.00211375,0.000593618,0.435978,-25.8101,2.26228,26.1575,1.03973,2.94701,-0.0703886,-1.68744,-0.2439,-0.821625,0.35662,-0.771261,-0.355425,-0.238715,-0.220301,-0.500566,-0.343796,-0.0551741,-0.240545,-0.0429231,
0.0121969,-0.194928,-0.333848,-1.65804,-0.0884162,-0.0981129,-0.383015,-0.0269156,0.00952462,-0.0223785,0.034234,0.520773,-0.423216,0.00328506,0,0,0,0,0,0,0,0.0124341,-0.194995,-0.333694,-1.65867,-0.0915999,1.477,0.402361,-0.00199051,-0.000189437,-0.00252541,0.000612953,0.0720045,-0.00211375,0.000593618,0.435978,-25.8101,2.26228,26.1575,1.03973,2.94701,-0.0703886,-1.68744,-0.2439,-0.821625,0.35662,-0.771261,-0.355425,-0.238715,-0.220301,-0.500566,-0.343796,-0.0551741,-0.240545,-0.0429231,
0.0121517,-0.194862,-0.333899,-1.65826,-0.0865047,-0.0973762,-0.383008,-0.0253116,0.00758779,-0.0212318,0.0325609,0.556567,-0.40218,0.00316407,0,0,0,0,0,0,0,0.0124341,-0.194995,-0.333694,-1.65867,-0.0915999,1.477,0.402361,-0.00199051,-0.000189437,-0.00252541,0.000612953,0.0720045,-0.00211375,0.000593618,0.435978,-25.8101,2.26228,26.1575,1.03973,2.94701,-0.0703886,-1.2544,-0.318937,-0.662318,0.471423,-0.505012,-0.310882,-0.191425,-0.0995867,-0.476764,-0.352095,0.0245735,-0.255125,-0.0442953,
0.0120568,-0.194851,-0.333984,-1.65815,-0.0839027,-0.0992754,-0.382994,-0.0237281,0.00271929,-0.0212608,0.0261336,0.650519,-0.474797,0.00346508,0,0,0,0,0,0,0,0.0124341,-0.194995,-0.333694,-1.65867,-0.0915999,1.477,0.402361,-0.00199051,-0.000189437,-0.00252541,0.000612953,0.0720045,-0.00211375,0.000593618,0.435978,-25.8101,2.26228,26.1575,1.03973,2.94701,-0.0703886,-1.2544,-0.318937,-0.662318,0.471423,-0.505012,-0.310882,-0.191425,-0.0995867,-0.476764,-0.352095,0.0245735,-0.255125,-0.0442953,
0.0119727,-0.194856,-0.334062,-1.65807,-0.0810028,-0.101404,-0.382979,-0.0210391,-0.00130268,-0.0196268,0.0199544,0.724975,-0.532142,0.003623,0,0,0,0,0,0,0,0.0124341,-0.194995,-0.333694,-1.65867,-0.0915999,1.477,0.402361,-0.00199051,-0.000189437,-0.00252541,0.000612953,0.0720045,-0.00211375,0.000593618,0.435978,-25.8101,2.26228,26.1575,1.03973,2.94701,-0.0703886,-0.861568,-0.253945,-0.730454,0.52379,-0.170504,-0.212104,-0.0911947,0.103082,-0.39579,-0.457585,0.11199,-0.288137,-0.0437354,
0.0119016,-0.194874,-0.33413,-1.65802,-0.0778644,-0.103714,-0.382965,-0.0177731,-0.00432187,-0.0170116,0.0145453,0.784587,-0.577444,0.00369594,0,0,0,0,0,0,0,0.0124341,-0.194995,-0.333694,-1.65867,-0.0915999,1.477,0.402361,-0.00199051,-0.000189437,-0.00252541,0.000612953,0.0720045,-0.00211375,0.000593618,0.435978,-25.8101,2.26228,26.1575,1.03973,2.94701,-0.0703886,-0.94509,-0.534795,-0.393731,0.724829,-0.353041,-0.352078,-0.232696,-0.052857,-0.552069,-0.340982,0.139355,-0.305516,-0.0465382,
0.0118446,-0.194899,-0.334186,-1.65798,-0.0745334,-0.106166,-0.38295,-0.0142545,-0.00643419,-0.0138622,0.00995228,0.832743,-0.612996,0.00371499,0,0,0,0,0,0,0,0.0123647,-0.194928,-0.333854,-1.65852,-0.0870459,1.47641,0.402357,-0.0038798,0.00759804,-0.0117032,0.00941197,0.239372,-0.0437956,-0.000225352,0.562931,-26.1354,2.28609,26.3559,2.10815,2.26403,-0.0301054,-0.94509,-0.534795,-0.393731,0.724829,-0.353041,-0.352078,-0.232696,-0.052857,-0.552069,-0.340982,0.139355,-0.305516,-0.0465382,
0.0118018,-0.19493,-0.334228,-1.65795,-0.0710456,-0.108728,-0.382935,-0.0106877,-0.00779683,-0.0104723,0.00608904,0.871957,-0.640576,0.00369883,0,0,0,0,0,0,0,0.0123647,-0.194928,-0.333854,-1.65852,-0.0870459,1.47641,0.402357,-0.0038798,0.00759804,-0.0117032,0.00941197,0.239372,-0.0437956,-0.000225352,0.562931,-26.1354,2.28609,26.3559,2.10815,2.26403,-0.0301054,-0.194926,-0.544747,0.276838,0.811367,-0.00300118,-0.223514,-0.105131,0.0463845,-0.441442,-0.251967,0.306286,-0.375941,-0.0475926,
0.0130409,-0.195113,-0.33298,-1.65855,-0.0881651,-0.0992985,-0.382892,0.0735239,-0.0166504,0.085982,0.00331387,0.383148,-0.634573,0.012006,0,0,0,0,0,0,0,0.0123647,-0.194928,-0.333854,-1.65852,-0.0870459,1.47641,0.402357,-0.0038798,0.00759804,-0.0117032,0.00941197,0.239372,-0.0437956,-0.000225352,0.562931,-26.1354,2.28609,26.3559,2.10815,2.26403,-0.0301054,-0.194926,-0.544747,0.276838,0.811367,-0.00300118,-0.223514,-0.105131,0.0463845,-0.441442,-0.251967,0.306286,-0.375941,-0.0475926,
0.0129931,-0.195039,-0.333146,-1.65842,-0.0823676,-0.100149,-0.38289,0.0766125,-0.0170092,0.0875722,-1.04375e-05,0.463586,-0.651723,0.0124522,0,0,0,0,0,0,0,0.0123647,-0.194928,-0.333854,-1.65852,-0.0870459,1.47641,0.402357,-0.0038798,0.00759804,-0.0117032,0.00941197,0.239372,-0.0437956,-0.000225352,0.562931,-26.1354,2.28609,26.3559,2.10815,2.26403,-0.0301054,-0.0553294,-0.512798,0.781216,0.907202,-0.0446779,-0.185449,-0.0569071,-0.043696,-0.433104,-0.175444,0.479126,-0.472519,-0.0457692,
0.0133771,-0.195125,-0.332707,-1.65846,-0.0802379,-0.10327,-0.382842,0.0960146,-0.0215025,0.109755,-0.00910918,0.532435,-0.780198,0.0119941,0,0,0,0,0,0,0,0.0123647,-0.194928,-0.333854,-1.65852,-0.0870459,1.47641,0.402357,-0.0038798,0.00759804,-0.0117032,0.00941197,0.239372,-0.0437956,-0.000225352,0.562931,-26.1354,2.28609,26.3559,2.10815,2.26403,-0.0301054,-0.0553294,-0.512798,0.781216,0.907202,-0.0446779,-0.185449,-0.0569071,-0.043696,-0.433104,-0.175444,0.479126,-0.472519,-0.0457692,
0.0138274,-0.195221,-0.332193,-1.65853,-0.0778529,-0.10681,-0.382796,0.112564,-0.0238254,0.128403,-0.0176936,0.596239,-0.885112,0.0115847,0,0,0,0,0,0,0,0.0119608,-0.194941,-0.334188,-1.65823,-0.0759292,1.47366,0.402361,-0.00377389,-0.00324808,-0.00294593,0.00958851,0.339775,-0.106456,-0.000695848,1.67774,-25.5879,3.66273,25.6815,1.43066,2.04522,-0.0227812,-0.049712,-0.497007,0.520642,1.12005,0.164065,-0.176906,-0.0335445,0.159772,-0.479807,-0.433786,0.617986,-0.634327,-0.0439473,
0.0143345,-0.195318,-0.331616,-1.65863,-0.0752347,-0.110694,-0.382751,0.126767,-0.0244419,0.144217,-0.0255009,0.654546,-0.97102,0.0112202,0,0,0,0,0,0,0,0.0119608,-0.194941,-0.334188,-1.65823,-0.0759292,1.47366,0.402361,-0.00377389,-0.00324808,-0.00294593,0.00958851,0.339775,-0.106456,-0.000695848,1.67774,-25.5879,3.66273,25.6815,1.43066,2.04522,-0.0227812,-0.510609,-0.186487,0.93555,0.940114,-0.252464,-0.126991,0.0239062,-0.102948,-0.42197,-0.347092,0.704137,-0.763251,-0.0349065,
0.0148906,-0.195414,-0.330985,-1.65876,-0.0724056,-0.11486,-0.382707,0.139022,-0.0237829,0.157727,-0.0324829,0.707275,-1.04146,0.010891,0,0,0,0,0,0,0,0.0119608,-0.194941,-0.334188,-1.65823,-0.0759292,1.47366,0.402361,-0.00377389,-0.00324808,-0.00294593,0.00958851,0.339775,-0.106456,-0.000695848,1.67774,-25.5879,3.66273,25.6815,1.43066,2.04522,-0.0227812,-0.510609,-0.186487,0.93555,0.940114,-0.252464,-0.126991,0.0239062,-0.102948,-0.42197,-0.347092,0.704137,-0.763251,-0.0349065,
0.0154891,-0.195502,-0.330308,-1.65892,-0.0693873,-0.119257,-0.382665,0.149641,-0.0222066,0.169341,-0.0386672,0.754591,-1.09925,0.0105892,0,0,0,0,0,0,0,0.0119608,-0.194941,-0.334188,-1.65823,-0.0759292,1.47366,0.402361,-0.00377389,-0.00324808,-0.00294593,0.00958851,0.339775,-0.106456,-0.000695848,1.67774,-25.5879,3.66273,25.6815,1.43066,2.04522,-0.0227812,-0.647988,0.211272,1.57515,0.499894,-0.543352,0.0193738,0.142872,-0.342676,-0.195262,-0.125365,0.661766,-0.800442,-0.0289711,
0.0137233,-0.195409,-0.332409,-1.65899,-0.083709,-0.0998966,-0.382863,0.157237,-0.0517439,0.173056,-0.053372,0.324561,-0.633608,0.0144817,0,0,0,0,0,0,0,0.0119608,-0.194941,-0.334188,-1.65823,-0.0759292,1.47366,0.402361,-0.00377389,-0.00324808,-0.00294593,0.00958851,0.339775,-0.106456,-0.000695848,1.67774,-25.5879,3.66273,25.6815,1.43066,2.04522,-0.0227812,-0.647988,0.211272,1.57515,0.499894,-0.543352,0.0193738,0.142872,-0.342676,-0.195262,-0.125365,0.661766,-0.800442,-0.0289711,
0.0133663,-0.195521,-0.332698,-1.65872,-0.0717553,-0.103106,-0.382841,0.160693,-0.0584498,0.176132,-0.0549292,0.382117,-0.662257,0.0155396,0,0,0,0,0,0,0,0.0119608,-0.194941,-0.334188,-1.65823,-0.0759292,1.47366,0.402361,-0.00377389,-0.00324808,-0.00294593,0.00958851,0.339775,-0.106456,-0.000695848,1.67774,-25.5879,3.66273,25.6815,1.43066,2.04522,-0.0227812,0.0399284,0.582455,1.42227,0.259036,0.120425,0.302924,0.389299,0.0958676,0.136106,-0.339473,0.673052,-0.876289,-0.0262927,
0.0141393,-0.195765,-0.33184,-1.65898,-0.0700161,-0.106261,-0.382782,0.193266,-0.0611357,0.214462,-0.0644852,0.434814,-0.788765,0.0146083,0,0,0,0,0,0,0,0.0121177,-0.195107,-0.333779,-1.65805,-0.0670072,1.4684,0.402361,0.00883827,-0.00538682,0.0178812,0.00502296,0.305811,-0.235405,-9.80398e-05,2.66956,-25.211,4.86085,24.9356,2.24273,1.19012,-0.0227812,0.0399284,0.582455,1.42227,0.259036,0.120425,0.302924,0.389299,0.0958676,0.136106,-0.339473,0.673052,-0.876289,-0.0262927,
0.0150199,-0.196009,-0.330857,-1.65927,-0.0680463,-0.109828,-0.382727,0.220147,-0.0609009,0.245627,-0.0728874,0.49244,-0.89177,0.0138574,0,0,0,0,0,0,0,0.0121177,-0.195107,-0.333779,-1.65805,-0.0670072,1.4684,0.402361,0.00883827,-0.00538682,0.0178812,0.00502296,0.305811,-0.235405,-9.80398e-05,2.66956,-25.211,4.86085,24.9356,2.24273,1.19012,-0.0227812,-0.327809,1.22827,1.30342,-0.0984287,-0.00831235,0.524281,0.597376,0.0921374,0.392201,-0.478951,0.76331,-1.02341,-0.0222177,
0.0159903,-0.196244,-0.329772,-1.65959,-0.0658424,-0.11373,-0.382674,0.242582,-0.0587668,0.271277,-0.0804604,0.550982,-0.975535,0.0132354,0,0,0,0,0,0,0,0.0121177,-0.195107,-0.333779,-1.65805,-0.0670072,1.4684,0.402361,0.00883827,-0.00538682,0.0178812,0.00502296,0.305811,-0.235405,-9.80398e-05,2.66956,-25.211,4.86085,24.9356,2.24273,1.19012,-0.0227812,-1.14725,1.85677,0.963687,-0.485411,-0.420563,0.659301,0.736827,-0.0454366,0.555778,-0.608761,0.782016,-1.13336,-0.0170091,
0.0170362,-0.196465,-0.328602,-1.65994,-0.0634105,-0.117905,-0.382623,0.261475,-0.0553968,0.292613,-0.0872912,0.607964,-1.04366,0.0127072,0,0,0,0,0,0,0,0.0121177,-0.195107,-0.333779,-1.65805,-0.0670072,1.4684,0.402361,0.00883827,-0.00538682,0.0178812,0.00502296,0.305811,-0.235405,-9.80398e-05,2.66956,-25.211,4.86085,24.9356,2.24273,1.19012,-0.0227812,-1.14725,1.85677,0.963687,-0.485411,-0.420563,0.659301,0.736827,-0.0454366,0.555778,-0.608761,0.782016,-1.13336,-0.0170091,
0.0181461,-0.19667,-0.32736,-1.66031,-0.0607628,-0.122301,-0.382574,0.277492,-0.0512428,0.310516,-0.0933914,0.661927,-1.09909,0.0122523,0,0,0,0,0,0,0,0.0121177,-0.195107,-0.333779,-1.65805,-0.0670072,1.4684,0.402361,0.00883827,-0.00538682,0.0178812,0.00502296,0.305811,-0.235405,-9.80398e-05,2.66956,-25.211,4.86085,24.9356,2.24273,1.19012,-0.0227812,-1.61168,0.281801,0.817051,0.470102,-0.682345,-0.135735,-0.0485851,-0.158697,-0.315805,-0.573273,0.478279,-1.08362,-0.0102705,
0.0140568,-0.195799,-0.332001,-1.65922,-0.0730147,-0.102866,-0.382846,0.236933,-0.0834505,0.256951,-0.101989,0.251635,-0.644095,0.0152871,0,0,0,0,0,0,0,0.0129863,-0.195508,-0.332485,-1.65829,-0.0593984,1.4609,0.402369,0.0472105,-0.0238359,0.0761938,-0.0158492,0.242909,-0.249321,0.000180177,3.50666,-25.2626,5.88838,25.2094,1.03332,1.77971,-0.0163725,-1.61168,0.281801,0.817051,0.470102,-0.682345,-0.135735,-0.0485851,-0.158697,-0.315805,-0.573273,0.478279,-1.08362,-0.0102705,
0.0154854,-0.196397,-0.329802,-1.6594,-0.0566679,-0.116766,-0.382823,0.262209,-0.0816108,0.287122,-0.109702,0.260815,-0.71786,0.0160551,0,0,0,0,0,0,0,0.0129863,-0.195508,-0.332485,-1.65829,-0.0593984,1.4609,0.402369,0.0472105,-0.0238359,0.0761938,-0.0158492,0.242909,-0.249321,0.000180177,3.50666,-25.2626,5.88838,25.2094,1.03332,1.77971,-0.0163725,-1.85999,-1.19614,0.864475,1.29017,-0.83403,-0.842832,-0.741461,-0.233236,-1.08503,-0.495163,0.142098,-1.03728,-0.00588925,
0.0166944,-0.196719,-0.328466,-1.65988,-0.0553922,-0.120091,-0.382763,0.30225,-0.0804464,0.334065,-0.119593,0.318929,-0.831226,0.0150512,0,0,0,0,0,0,0,0.0129863,-0.195508,-0.332485,-1.65829,-0.0593984,1.4609,0.402369,0.0472105,-0.0238359,0.0761938,-0.0158492,0.242909,-0.249321,0.000180177,3.50666,-25.2626,5.88838,25.2094,1.03332,1.77971,-0.0163725,-1.85999,-1.19614,0.864475,1.29017,-0.83403,-0.842832,-0.741461,-0.233236,-1.08503,-0.495163,0.142098,-1.03728,-0.00588925,
0.0180354,-0.197025,-0.326977,-1.66039,-0.0538549,-0.123786,-0.382706,0.335238,-0.0765177,0.37222,-0.127929,0.384326,-0.923589,0.0142468,0,0,0,0,0,0,0,0.0129863,-0.195508,-0.332485,-1.65829,-0.0593984,1.4609,0.402369,0.0472105,-0.0238359,0.0761938,-0.0158492,0.242909,-0.249321,0.000180177,3.50666,-25.2626,5.88838,25.2094,1.03332,1.77971,-0.0163725,-1.77642,-0.240957,0.595179,0.647649,-0.658052,-0.395398,-0.308206,-0.0803845,-0.571638,-0.626298,0.206971,-1.06688,-0.0049572,
0.0194862,-0.197309,-0.325363,-1.66093,-0.0520474,-0.12778,-0.382652,0.362712,-0.071014,0.403604,-0.135325,0.451879,-0.998506,0.0136229,0,0,0,0,0,0,0,0.0129863,-0.195508,-0.332485,-1.65829,-0.0593984,1.4609,0.402369,0.0472105,-0.0238359,0.0761938,-0.0158492,0.242909,-0.249321,0.000180177,3.50666,-25.2626,5.88838,25.2094,1.03332,1.77971,-0.0163725,-1.41458,1.68445,0.0206969,-0.563822,-0.199999,0.532812,0.593918,0.267004,0.470635,-0.894898,0.429913,-1.09633,-0.00354439,
0.0210294,-0.197567,-0.323644,-1.6615,-0.0499738,-0.132017,-0.3826,0.385802,-0.0645103,0.429636,-0.141694,0.518396,-1.05937,0.013007,0,0,0,0,0,0,0,0.0129863,-0.195508,-0.332485,-1.65829,-0.0593984,1.4609,0.402369,0.0472105,-0.0238359,0.0761938,-0.0158492,0.242909,-0.249321,0.000180177,3.50666,-25.2626,5.88838,25.2094,1.03332,1.77971,-0.0163725,-1.41458,1.68445,0.0206969,-0.563822,-0.199999,0.532812,0.593918,0.267004,0.470635,-0.894898,0.429913,-1.09633,-0.00354439,
0.0226506,-0.197798,-0.321838,-1.66209,-0.0476459,-0.136439,-0.38255,0.405291,-0.0576666,0.451425,-0.147755,0.581978,-1.10549,0.0124716,0,0,0,0,0,0,0,0.0152483,-0.196462,-0.329803,-1.659,-0.0514095,1.45094,0.402374,0.0871804,-0.0410695,0.0923773,-0.0326877,0.169012,-0.290411,-5.50381e-05,2.89569,-25.5602,5.41231,24.6857,0.593868,2.48925,-0.00996382,-2.62367,0.777769,-0.0280799,-0.108553,-1.17013,-0.0832703,-0.00959634,-0.303858,-0.172303,-0.648457,0.191562,-0.969753,0.000672028,
0.0160815,-0.196665,-0.329203,-1.65986,-0.05774,-0.116521,-0.382842,0.327902,-0.105967,0.356522,-0.153382,0.149975,-0.698807,0.0148372,0,0,0,0,0,0,0,0.0152483,-0.196462,-0.329803,-1.659,-0.0514095,1.45094,0.402374,0.0871804,-0.0410695,0.0923773,-0.0326877,0.169012,-0.290411,-5.50381e-05,2.89569,-25.5602,5.41231,24.6857,0.593868,2.48925,-0.00996382,-2.62367,0.777769,-0.0280799,-0.108553,-1.17013,-0.0832703,-0.00959634,-0.303858,-0.172303,-0.648457,0.191562,-0.969753,0.000672028,
0.0184746,-0.197667,-0.326366,-1.66062,-0.0499968,-0.126841,-0.382807,0.334415,-0.10713,0.364153,-0.15535,0.144356,-0.72167,0.016728,0,0,0,0,0,0,0,0.0152483,-0.196462,-0.329803,-1.659,-0.0514095,1.45094,0.402374,0.0871804,-0.0410695,0.0923773,-0.0326877,0.169012,-0.290411,-5.50381e-05,2.89569,-25.5602,5.41231,24.6857,0.593868,2.48925,-0.00996382,-3.28504,-0.249705,-0.00837988,0.416193,-1.71475,-0.651215,-0.555247,-0.632967,-0.782661,-0.465377,-0.0692406,-0.86365,0.00284939,
0.0200063,-0.198081,-0.324682,-1.66128,-0.0491775,-0.13017,-0.382745,0.382932,-0.103531,0.421163,-0.165639,0.204822,-0.832349,0.0155858,0,0,0,0,0,0,0,0.0152483,-0.196462,-0.329803,-1.659,-0.0514095,1.45094,0.402374,0.0871804,-0.0410695,0.0923773,-0.0326877,0.169012,-0.290411,-5.50381e-05,2.89569,-25.5602,5.41231,24.6857,0.593868,2.48925,-0.00996382,-3.31761,0.175137,0.323209,0.0708895,-1.93864,-0.462303,-0.377026,-0.841938,-0.547678,-0.271588,-0.00759866,-0.801669,0.00447854,
0.0216969,-0.198472,-0.322812,-1.66199,-0.0480721,-0.133798,-0.382686,0.42263,-0.0977894,0.467392,-0.176797,0.27635,-0.906997,0.0146907,0,0,0,0,0,0,0,0.0152483,-0.196462,-0.329803,-1.659,-0.0514095,1.45094,0.402374,0.0871804,-0.0410695,0.0923773,-0.0326877,0.169012,-0.290411,-5.50381e-05,2.89569,-25.5602,5.41231,24.6857,0.593868,2.48925,-0.00996382,-3.31761,0.175137,0.323209,0.0708895,-1.93864,-0.462303,-0.377026,-0.841938,-0.547678,-0.271588,-0.00759866,-0.801669,0.00447854,
0.0235192,-0.198831,-0.320792,-1.66274,-0.0466636,-0.137634,-0.382631,0.455592,-0.0898892,0.505075,-0.186017,0.352136,-0.958936,0.0138507,0,0,0,0,0,0,0,0.0188839,-0.197938,-0.325021,-1.66056,-0.0447878,1.43881,0.402383,0.124716,-0.0511889,0.168724,-0.0535071,0.167524,-0.428351,0.00489385,3.47889,-25.1634,5.7892,24.4119,1.46728,2.43615,-0.0163725,-1.63986,1.98102,-0.44603,-0.914885,-0.406702,0.630941,0.693033,0.140357,0.615696,-0.785934,0.327159,-0.841327,0.00476617,
0.0254512,-0.199159,-0.318647,-1.66352,-0.0449514,-0.141536,-0.382578,0.483001,-0.0818617,0.536255,-0.197106,0.428026,-0.975446,0.0132505,0,0,0,0,0,0,0,0.0188839,-0.197938,-0.325021,-1.66056,-0.0447878,1.43881,0.402383,0.124716,-0.0511889,0.168724,-0.0535071,0.167524,-0.428351,0.00489385,3.47889,-25.1634,5.7892,24.4119,1.46728,2.43615,-0.0163725,-1.63986,1.98102,-0.44603,-0.914885,-0.406702,0.630941,0.693033,0.140357,0.615696,-0.785934,0.327159,-0.841327,0.00476617,
0.0274755,-0.19945,-0.316399,-1.66435,-0.042947,-0.14543,-0.382527,0.50608,-0.0727031,0.562022,-0.205927,0.501118,-0.973579,0.0127182,0,0,0,0,0,0,0,0.0188839,-0.197938,-0.325021,-1.66056,-0.0447878,1.43881,0.402383,0.124716,-0.0511889,0.168724,-0.0535071,0.167524,-0.428351,0.00489385,3.47889,-25.1634,5.7892,24.4119,1.46728,2.43615,-0.0163725,-2.15927,0.69461,-0.804195,0.0312319,-0.627282,-0.0357381,0.03464,0.081311,-0.146828,-0.882529,0.203468,-0.855719,0.00819588,
0.0192604,-0.197868,-0.326303,-1.66102,-0.0507399,-0.1266,-0.382844,0.408056,-0.124866,0.385158,-0.194291,0.0686811,-0.701375,0.0142208,0,0,0,0,0,0,0,0.0188839,-0.197938,-0.325021,-1.66056,-0.0447878,1.43881,0.402383,0.124716,-0.0511889,0.168724,-0.0535071,0.167524,-0.428351,0.00489385,3.47889,-25.1634,5.7892,24.4119,1.46728,2.43615,-0.0163725,-2.15927,0.69461,-0.804195,0.0312319,-0.627282,-0.0357381,0.03464,0.081311,-0.146828,-0.882529,0.203468,-0.855719,0.00819588,
0.0232293,-0.199327,-0.320973,-1.6627,-0.0436502,-0.139826,-0.382803,0.429846,-0.120878,0.421849,-0.203452,0.118419,-0.766329,0.0161083,0,0,0,0,0,0,0,0.0188839,-0.197938,-0.325021,-1.66056,-0.0447878,1.43881,0.402383,0.124716,-0.0511889,0.168724,-0.0535071,0.167524,-0.428351,0.00489385,3.47889,-25.1634,5.7892,24.4119,1.46728,2.43615,-0.0163725,-3.36089,-1.23355,-1.05875,1.26462,-1.43419,-1.08764,-0.963799,-0.343268,-1.33821,-0.789114,-0.1144,-0.796638,0.00908135,
0.0251457,-0.199788,-0.319031,-1.66357,-0.0429379,-0.143171,-0.382743,0.479107,-0.115254,0.485367,-0.217673,0.178054,-0.836313,0.0149018,0,0,0,0,0,0,0,0.0188839,-0.197938,-0.325021,-1.66056,-0.0447878,1.43881,0.402383,0.124716,-0.0511889,0.168724,-0.0535071,0.167524,-0.428351,0.00489385,3.47889,-25.1634,5.7892,24.4119,1.46728,2.43615,-0.0163725,-3.20587,-0.36348,-0.680204,0.621322,-1.50949,-0.665244,-0.555905,-0.462098,-0.841442,-0.632017,-0.00159613,-0.769608,0.0097582,
0.0272229,-0.200216,-0.316881,-1.6645,-0.04194,-0.146628,-0.382687,0.519307,-0.107117,0.537558,-0.231504,0.249491,-0.864248,0.0140726,0,0,0,0,0,0,0,0.0264969,-0.200975,-0.315946,-1.66405,-0.0420118,1.42163,0.402391,0.217632,-0.0863082,0.225987,-0.100741,0.0606391,-0.424467,-0.00107389,3.53046,-24.8381,6.11055,25.2094,1.90033,2.21734,0.0101778,-3.20587,-0.36348,-0.680204,0.621322,-1.50949,-0.665244,-0.555905,-0.462098,-0.841442,-0.632017,-0.00159613,-0.769608,0.0097582,
0.0294332,-0.200602,-0.314558,-1.66546,-0.0406383,-0.150108,-0.382633,0.552566,-0.0965326,0.580842,-0.241747,0.32543,-0.869984,0.0133924,0,0,0,0,0,0,0,0.0264969,-0.200975,-0.315946,-1.66405,-0.0420118,1.42163,0.402391,0.217632,-0.0863082,0.225987,-0.100741,0.0606391,-0.424467,-0.00107389,3.53046,-24.8381,6.11055,25.2094,1.90033,2.21734,0.0101778,-1.49738,2.73561,0.0187135,-1.4705,-0.515542,0.998847,1.03597,-0.0032541,1.0593,-0.603786,0.458027,-0.817708,0.00795104,
0.0317542,-0.200941,-0.312088,-1.66646,-0.0390333,-0.15356,-0.382582,0.580248,-0.0846176,0.617287,-0.2487,0.401231,-0.862944,0.0128202,0,0,0,0,0,0,0,0.0264969,-0.200975,-0.315946,-1.66405,-0.0420118,1.42163,0.402391,0.217632,-0.0863082,0.225987,-0.100741,0.0606391,-0.424467,-0.00107389,3.53046,-24.8381,6.11055,25.2094,1.90033,2.21734,0.0101778,-1.49738,2.73561,0.0187135,-1.4705,-0.515542,0.998847,1.03597,-0.0032541,1.0593,-0.603786,0.458027,-0.817708,0.00795104,
0.0341678,-0.20123,-0.309495,-1.66747,-0.0371369,-0.156953,-0.382532,0.603401,-0.0723273,0.648368,-0.253199,0.474108,-0.84819,0.0123294,0,0,0,0,0,0,0,0.0264969,-0.200975,-0.315946,-1.66405,-0.0420118,1.42163,0.402391,0.217632,-0.0863082,0.225987,-0.100741,0.0606391,-0.424467,-0.00107389,3.53046,-24.8381,6.11055,25.2094,1.90033,2.21734,0.0101778,-2.30356,1.4453,0.361117,-0.639509,-1.25546,0.293205,0.330436,-0.485762,0.290812,-0.362241,0.325025,-0.791752,0.00848254,
0.0236824,-0.19946,-0.321171,-1.66304,-0.043856,-0.139615,-0.382858,0.474006,-0.132135,0.405798,-0.236396,0.0976812,-0.752688,0.0122366,0,0,0,0,0,0,0,0.0264969,-0.200975,-0.315946,-1.66405,-0.0420118,1.42163,0.402391,0.217632,-0.0863082,0.225987,-0.100741,0.0606391,-0.424467,-0.00107389,3.53046,-24.8381,6.11055,25.2094,1.90033,2.21734,0.0101778,-2.30356,1.4453,0.361117,-0.639509,-1.25546,0.293205,0.330436,-0.485762,0.290812,-0.362241,0.325025,-0.791752,0.00848254,
0.0317961,-0.202559,-0.311512,-1.66667,-0.0412826,-0.156451,-0.382827,0.506634,-0.133132,0.444403,-0.248457,0.106548,-0.669242,0.0138577,0,0,0,0,0,0,0,0.0342621,-0.203802,-0.307525,-1.66786,-0.0416269,1.40955,0.402405,0.258942,-0.0838961,0.322022,-0.11896,0.0315651,-0.370398,-0.000972041,4.79999,-24.5128,7.21345,24.6103,2.0166,2.23107,0.00376909,-3.43321,-1.03948,-0.882953,1.21636,-1.58963,-0.990195,-0.86948,-0.483304,-1.24399,-0.713495,0.0430857,-0.799619,0.0134053,
0.0340183,-0.203054,-0.309507,-1.66773,-0.0405748,-0.159226,-0.382775,0.555571,-0.123691,0.501267,-0.263678,0.176926,-0.693548,0.0130194,0,0,0,0,0,0,0,0.0342621,-0.203802,-0.307525,-1.66786,-0.0416269,1.40955,0.402405,0.258942,-0.0838961,0.322022,-0.11896,0.0315651,-0.370398,-0.000972041,4.79999,-24.5128,7.21345,24.6103,2.0166,2.23107,0.00376909,-4.47857,-0.202347,-0.702587,0.62009,-2.51478,-0.758098,-0.620291,-1.05202,-0.962734,-0.490314,0.138657,-0.776806,0.0135048,
0.0364047,-0.203499,-0.307313,-1.66882,-0.0395606,-0.162033,-0.382726,0.596601,-0.111153,0.548351,-0.273181,0.253573,-0.701945,0.0123709,0,0,0,0,0,0,0,0.0342621,-0.203802,-0.307525,-1.66786,-0.0416269,1.40955,0.402405,0.258942,-0.0838961,0.322022,-0.11896,0.0315651,-0.370398,-0.000972041,4.79999,-24.5128,7.21345,24.6103,2.0166,2.23107,0.00376909,-4.47857,-0.202347,-0.702587,0.62009,-2.51478,-0.758098,-0.620291,-1.05202,-0.962734,-0.490314,0.138657,-0.776806,0.0135048,
0.0389305,-0.203889,-0.304962,-1.66994,-0.0382359,-0.164833,-0.382678,0.631433,-0.0974575,0.58791,-0.279166,0.331168,-0.699808,0.0118471,0,0,0,0,0,0,0,0.0342621,-0.203802,-0.307525,-1.66786,-0.0416269,1.40955,0.402405,0.258942,-0.0838961,0.322022,-0.11896,0.0315651,-0.370398,-0.000972041,4.79999,-24.5128,7.21345,24.6103,2.0166,2.23107,0.00376909,-1.64085,3.47127,-0.329603,-1.87751,-0.576218,1.32399,1.36321,-0.00305707,1.4104,-0.66288,0.617695,-0.761067,0.00385188,
0.0415756,-0.204223,-0.302475,-1.67107,-0.0366099,-0.167595,-0.382633,0.661293,-0.083688,0.621543,-0.282888,0.406504,-0.690607,0.0114119,0,0,0,0,0,0,0,0.0342621,-0.203802,-0.307525,-1.66786,-0.0416269,1.40955,0.402405,0.258942,-0.0838961,0.322022,-0.11896,0.0315651,-0.370398,-0.000972041,4.79999,-24.5128,7.21345,24.6103,2.0166,2.23107,0.00376909,-1.64085,3.47127,-0.329603,-1.87751,-0.576218,1.32399,1.36321,-0.00305707,1.4104,-0.66288,0.617695,-0.761067,0.00385188,
0.0297695,-0.202027,-0.313289,-1.66568,-0.0417087,-0.153774,-0.382883,0.447241,-0.136072,0.374608,-0.223686,0.05106,-0.620424,0.0150009,0,0,0,0,0,0,0,0.0444822,-0.20702,-0.298173,-1.67259,-0.0413268,1.39822,0.40242,0.3329,-0.108678,0.304156,-0.150744,0.0101646,-0.333911,6.73255e-05,5.12928,-24.2391,6.78895,24.039,1.47918,2.49566,-0.0365141,-0.813529,1.51553,-0.428552,-0.491065,0.0938238,0.554252,0.582093,0.362039,0.512937,-0.758478,0.47362,-0.707664,0.00622956,
0.0504761,-0.208523,-0.292948,-1.67537,-0.0402333,-0.178164,-0.382799,0.553798,-0.119632,0.497888,-0.250884,0.157274,-0.515767,0.0140771,0,0,0,0,0,0,0,0.0444822,-0.20702,-0.298173,-1.67259,-0.0413268,1.39822,0.40242,0.3329,-0.108678,0.304156,-0.150744,0.0101646,-0.333911,6.73255e-05,5.12928,-24.2391,6.78895,24.039,1.47918,2.49566,-0.0365141,-0.813529,1.51553,-0.428552,-0.491065,0.0938238,0.554252,0.582093,0.362039,0.512937,-0.758478,0.47362,-0.707664,0.00622956,
0.0528586,-0.208955,-0.290763,-1.67641,-0.0392928,-0.180344,-0.382746,0.595639,-0.107979,0.546242,-0.260014,0.235114,-0.544928,0.0132508,0,0,0,0,0,0,0,0.0444822,-0.20702,-0.298173,-1.67259,-0.0413268,1.39822,0.40242,0.3329,-0.108678,0.304156,-0.150744,0.0101646,-0.333911,6.73255e-05,5.12928,-24.2391,6.78895,24.039,1.47918,2.49566,-0.0365141,-1.85719,-0.590441,-1.68923,1.06696,-0.20981,-0.530471,-0.399836,0.358697,-0.812086,-1.08367,0.21525,-0.680077,0.00758748,
0.0553828,-0.209335,-0.288416,-1.67748,-0.0380364,-0.182592,-0.382695,0.631047,-0.095181,0.586782,-0.26596,0.314102,-0.562066,0.0125895,0,0,0,0,0,0,0,0.0444822,-0.20702,-0.298173,-1.67259,-0.0413268,1.39822,0.40242,0.3329,-0.108678,0.304156,-0.150744,0.0101646,-0.333911,6.73255e-05,5.12928,-24.2391,6.78895,24.039,1.47918,2.49566,-0.0365141,-2.18546,0.833638,-1.83352,0.112912,-0.452945,0.0745788,0.203583,0.246452,-0.119205,-1.0845,0.376056,-0.671477,0.00572004,
0.0580281,-0.209665,-0.285932,-1.67856,-0.0364725,-0.184872,-0.382647,0.661312,-0.0822901,0.621152,-0.269981,0.390971,-0.569929,0.0120453,0,0,0,0,0,0,0,0.0444822,-0.20702,-0.298173,-1.67259,-0.0413268,1.39822,0.40242,0.3329,-0.108678,0.304156,-0.150744,0.0101646,-0.333911,6.73255e-05,5.12928,-24.2391,6.78895,24.039,1.47918,2.49566,-0.0365141,-2.18546,0.833638,-1.83352,0.112912,-0.452945,0.0745788,0.203583,0.246452,-0.119205,-1.0845,0.376056,-0.671477,0.00572004,
0.0607776,-0.209944,-0.283329,-1.67965,-0.0346173,-0.187155,-0.382601,0.687382,-0.0698394,0.650561,-0.272692,0.463803,-0.570683,0.0116069,0,0,0,0,0,0,0,0.0444822,-0.20702,-0.298173,-1.67259,-0.0413268,1.39822,0.40242,0.3329,-0.108678,0.304156,-0.150744,0.0101646,-0.333911,6.73255e-05,5.12928,-24.2391,6.78895,24.039,1.47918,2.49566,-0.0365141,-3.29041,0.979694,-0.426101,-0.111087,-1.84968,-0.0193177,0.0204339,-0.767201,-0.0881358,-0.423188,0.449535,-0.669426,0.00927207,
0.0482609,-0.208044,-0.29494,-1.67437,-0.0408624,-0.176101,-0.382855,0.503635,-0.127967,0.439473,-0.23573,0.0859601,-0.471518,0.015122,0,0,0,0,0,0,0,0.0557003,-0.209998,-0.288188,-1.67725,-0.0411352,1.38906,0.402433,0.374263,-0.0922183,0.332728,-0.164459,0.00495706,-0.251324,0.000888416,5.02613,-24.0129,6.6858,23.8129,1.53412,2.29699,-0.0301054,-3.29041,0.979694,-0.426101,-0.111087,-1.84968,-0.0193177,0.0204339,-0.767201,-0.0881358,-0.423188,0.449535,-0.669426,0.00927207,
0.061964,-0.211282,-0.282667,-1.68008,-0.0398434,-0.186115,-0.382776,0.572559,-0.101556,0.518524,-0.250217,0.178826,-0.415963,0.0148042,0,0,0,0,0,0,0,0.0557003,-0.209998,-0.288188,-1.67725,-0.0411352,1.38906,0.402433,0.374263,-0.0922183,0.332728,-0.164459,0.00495706,-0.251324,0.000888416,5.02613,-24.0129,6.6858,23.8129,1.53412,2.29699,-0.0301054,-2.84633,-0.255271,-0.823325,0.7341,-1.36019,-0.500705,-0.403883,-0.455762,-0.70121,-0.584168,0.286599,-0.62457,0.00921907,
0.0644111,-0.211647,-0.280411,-1.6811,-0.038811,-0.187918,-0.38272,0.611787,-0.0911823,0.563936,-0.256669,0.258093,-0.450579,0.0138858,0,0,0,0,0,0,0,0.0557003,-0.209998,-0.288188,-1.67725,-0.0411352,1.38906,0.402433,0.374263,-0.0922183,0.332728,-0.164459,0.00495706,-0.251324,0.000888416,5.02613,-24.0129,6.6858,23.8129,1.53412,2.29699,-0.0301054,-2.53901,-0.71874,-1.90276,1.12659,-0.693902,-0.65259,-0.506902,0.086371,-0.948464,-1.02501,0.199742,-0.623637,0.00923054,
0.0669913,-0.211967,-0.278002,-1.68215,-0.0374626,-0.189813,-0.382667,0.645057,-0.0800105,0.602134,-0.260892,0.337112,-0.473838,0.0131655,0,0,0,0,0,0,0,0.0557003,-0.209998,-0.288188,-1.67725,-0.0411352,1.38906,0.402433,0.374263,-0.0922183,0.332728,-0.164459,0.00495706,-0.251324,0.000888416,5.02613,-24.0129,6.6858,23.8129,1.53412,2.29699,-0.0301054,-2.53901,-0.71874,-1.90276,1.12659,-0.693902,-0.65259,-0.506902,0.086371,-0.948464,-1.02501,0.199742,-0.623637,0.00923054,
0.0696855,-0.212242,-0.275464,-1.6832,-0.0358098,-0.191764,-0.382617,0.673536,-0.0688499,0.634586,-0.263816,0.41319,-0.487701,0.0125908,0,0,0,0,0,0,0,0.0557003,-0.209998,-0.288188,-1.67725,-0.0411352,1.38906,0.402433,0.374263,-0.0922183,0.332728,-0.164459,0.00495706,-0.251324,0.000888416,5.02613,-24.0129,6.6858,23.8129,1.53412,2.29699,-0.0301054,-1.19954,1.79429,-1.77277,-0.612526,0.255453,0.652177,0.719761,0.650511,0.574641,-1.14564,0.471543,-0.630484,0.00795758,
0.0724689,-0.212474,-0.272809,-1.68426,-0.0338671,-0.19374,-0.382569,0.695854,-0.0579678,0.663672,-0.265842,0.48568,-0.493957,0.0120429,0,0,0,0,0,0,0,0.0677997,-0.213035,-0.27689,-1.68271,-0.0402766,1.38215,0.402447,0.410454,-0.1003,0.343785,-0.17908,0.00889234,-0.182802,0.00169157,0.840641,-25.0365,3.06367,25.4315,1.53412,2.18438,-0.0227812,-1.19954,1.79429,-1.77277,-0.612526,0.255453,0.652177,0.719761,0.650511,0.574641,-1.14564,0.471543,-0.630484,0.00795758,
0.0596737,-0.210876,-0.284741,-1.67907,-0.0405587,-0.184451,-0.382835,0.525681,-0.109322,0.463913,-0.239071,0.103765,-0.368605,0.0159491,0,0,0,0,0,0,0,0.0677997,-0.213035,-0.27689,-1.68271,-0.0402766,1.38215,0.402447,0.410454,-0.1003,0.343785,-0.17908,0.00889234,-0.182802,0.00169157,0.840641,-25.0365,3.06367,25.4315,1.53412,2.18438,-0.0227812,-1.55202,1.90026,-0.938658,-0.800376,-0.290745,0.659073,0.670873,0.236873,0.666382,-0.826841,0.462368,-0.663395,0.00871569,
0.074238,-0.214288,-0.271179,-1.68549,-0.0387712,-0.192269,-0.382755,0.584542,-0.0972598,0.531931,-0.24307,0.198772,-0.35381,0.0154775,0,0,0,0,0,0,0,0.0677997,-0.213035,-0.27689,-1.68271,-0.0402766,1.38215,0.402447,0.410454,-0.1003,0.343785,-0.17908,0.00889234,-0.182802,0.00169157,0.840641,-25.0365,3.06367,25.4315,1.53412,2.18438,-0.0227812,-1.55202,1.90026,-0.938658,-0.800376,-0.290745,0.659073,0.670873,0.236873,0.666382,-0.826841,0.462368,-0.663395,0.00871569,
0.0767266,-0.214635,-0.268877,-1.68649,-0.037659,-0.193828,-0.382696,0.622154,-0.0867527,0.575556,-0.248375,0.27804,-0.389759,0.0145343,0,0,0,0,0,0,0,0.0677997,-0.213035,-0.27689,-1.68271,-0.0402766,1.38215,0.402447,0.410454,-0.1003,0.343785,-0.17908,0.00889234,-0.182802,0.00169157,0.840641,-25.0365,3.06367,25.4315,1.53412,2.18438,-0.0227812,-3.00046,0.283933,-1.20333,0.27621,-1.27025,-0.21625,-0.100744,-0.305252,-0.382324,-0.750379,0.235063,-0.662045,0.0107336,
0.0793341,-0.214938,-0.266422,-1.68749,-0.0362301,-0.195486,-0.382642,0.65187,-0.0757081,0.613599,-0.252084,0.357218,-0.414539,0.0136987,0,0,0,0,0,0,0,0.0677997,-0.213035,-0.27689,-1.68271,-0.0402766,1.38215,0.402447,0.410454,-0.1003,0.343785,-0.17908,0.00889234,-0.182802,0.00169157,0.840641,-25.0365,3.06367,25.4315,1.53412,2.18438,-0.0227812,-2.76109,0.42581,-1.66092,0.265219,-0.900676,-0.111375,0.0355981,-0.0227753,-0.319071,-0.96907,0.295614,-0.679465,0.00974594,
0.0820356,-0.215197,-0.263835,-1.68851,-0.0344946,-0.197207,-0.38259,0.675365,-0.0647363,0.646748,-0.254788,0.433878,-0.430013,0.0129584,0,0,0,0,0,0,0,0.0677997,-0.213035,-0.27689,-1.68271,-0.0402766,1.38215,0.402447,0.410454,-0.1003,0.343785,-0.17908,0.00889234,-0.182802,0.00169157,0.840641,-25.0365,3.06367,25.4315,1.53412,2.18438,-0.0227812,-2.76109,0.42581,-1.66092,0.265219,-0.900676,-0.111375,0.0355981,-0.0227753,-0.319071,-0.96907,0.295614,-0.679465,0.00974594,
0.0848145,-0.215414,-0.261135,-1.68954,-0.0324701,-0.198958,-0.382541,0.694742,-0.0542012,0.675151,-0.256721,0.506136,-0.437935,0.0123228,0,0,0,0,0,0,0,0.0817268,-0.215742,-0.264034,-1.68855,-0.0384488,1.3771,0.402453,0.454478,-0.0766299,0.39484,-0.16855,0.0196672,-0.123631,0.001016,-1.38897,-24.8381,0.937208,26.2289,1.57074,2.07818,0.050461,-1.45529,0.167413,-0.692145,0.4673,-0.248622,-0.110157,-0.0498598,0.187012,-0.274135,-0.78037,0.405232,-0.69809,0.0128405,
0.0876575,-0.215591,-0.258336,-1.69057,-0.0301777,-0.200717,-0.382493,0.710744,-0.0442703,0.699624,-0.258014,0.573108,-0.439777,0.0117665,0,0,0,0,0,0,0,0.0817268,-0.215742,-0.264034,-1.68855,-0.0384488,1.3771,0.402453,0.454478,-0.0766299,0.39484,-0.16855,0.0196672,-0.123631,0.001016,-1.38897,-24.8381,0.937208,26.2289,1.57074,2.07818,0.050461,-1.45529,0.167413,-0.692145,0.4673,-0.248622,-0.110157,-0.0498598,0.187012,-0.274135,-0.78037,0.405232,-0.69809,0.0128405,
0.0718998,-0.213899,-0.273307,-1.68452,-0.0395663,-0.190854,-0.382816,0.539763,-0.106031,0.4796,-0.234457,0.122383,-0.305358,0.0166306,0,0,0,0,0,0,0,0.0817268,-0.215742,-0.264034,-1.68855,-0.0384488,1.3771,0.402453,0.454478,-0.0766299,0.39484,-0.16855,0.0196672,-0.123631,0.001016,-1.38897,-24.8381,0.937208,26.2289,1.57074,2.07818,0.050461,-1.31613,-0.118908,0.384472,0.466453,-0.608353,-0.209145,-0.138665,-0.211867,-0.351442,-0.311892,0.293006,-0.615847,0.0117278,
0.0885235,-0.216769,-0.257888,-1.69125,-0.0365465,-0.196542,-0.38275,0.607902,-0.0802116,0.562859,-0.237494,0.237991,-0.289902,0.0153425,0,0,0,0,0,0,0,0.0817268,-0.215742,-0.264034,-1.68855,-0.0384488,1.3771,0.402453,0.454478,-0.0766299,0.39484,-0.16855,0.0196672,-0.123631,0.001016,-1.38897,-24.8381,0.937208,26.2289,1.57074,2.07818,0.050461,-2.5864,-0.34715,-0.319701,0.607153,-1.30764,-0.411929,-0.291514,-0.49758,-0.599404,-0.423684,0.192724,-0.613953,0.00951024,
0.0910751,-0.217053,-0.255473,-1.69223,-0.0352654,-0.197853,-0.382693,0.637894,-0.0711341,0.603923,-0.242728,0.320267,-0.327561,0.0143402,0,0,0,0,0,0,0,0.0817268,-0.215742,-0.264034,-1.68855,-0.0384488,1.3771,0.402453,0.454478,-0.0766299,0.39484,-0.16855,0.0196672,-0.123631,0.001016,-1.38897,-24.8381,0.937208,26.2289,1.57074,2.07818,0.050461,-2.5864,-0.34715,-0.319701,0.607153,-1.30764,-0.411929,-0.291514,-0.49758,-0.599404,-0.423684,0.192724,-0.613953,0.00951024,
0.0937252,-0.217299,-0.252918,-1.69321,-0.0336653,-0.19927,-0.382639,0.662548,-0.0615371,0.638705,-0.246265,0.400026,-0.354307,0.0135031,0,0,0,0,0,0,0,0.0955231,-0.217724,-0.250775,-1.69391,-0.0357351,1.37413,0.402469,0.462082,-0.0452895,0.44148,-0.16037,0.153069,-0.0896991,-0.00033647,3.02265,-24.6358,5.01161,25.1578,2.33429,1.94543,0.0440523,-3.33613,0.298633,-0.474154,0.249522,-1.78835,-0.184572,-0.0657443,-0.714928,-0.340306,-0.454651,0.323714,-0.671454,0.0123779,
0.0964569,-0.217508,-0.250244,-1.69421,-0.0317637,-0.200757,-0.382588,0.682909,-0.0520233,0.668387,-0.248793,0.475416,-0.371776,0.0127866,0,0,0,0,0,0,0,0.0955231,-0.217724,-0.250775,-1.69391,-0.0357351,1.37413,0.402469,0.462082,-0.0452895,0.44148,-0.16037,0.153069,-0.0896991,-0.00033647,3.02265,-24.6358,5.01161,25.1578,2.33429,1.94543,0.0440523,-3.33613,0.298633,-0.474154,0.249522,-1.78835,-0.184572,-0.0657443,-0.714928,-0.340306,-0.454651,0.323714,-0.671454,0.0123779,
0.0992558,-0.217679,-0.247469,-1.69521,-0.0295819,-0.202283,-0.382539,0.699722,-0.042875,0.693904,-0.250573,0.545436,-0.381617,0.0121628,0,0,0,0,0,0,0,0.0955231,-0.217724,-0.250775,-1.69391,-0.0357351,1.37413,0.402469,0.462082,-0.0452895,0.44148,-0.16037,0.153069,-0.0896991,-0.00033647,3.02265,-24.6358,5.01161,25.1578,2.33429,1.94543,0.0440523,-1.01152,2.90428,0.162781,-1.49984,-0.262088,1.21113,1.22108,0.129718,1.28733,-0.518323,0.68478,-0.681958,0.00882646,
0.10211,-0.217816,-0.244605,-1.69622,-0.0271434,-0.203825,-0.382493,0.713565,-0.0342325,0.715975,-0.251725,0.609637,-0.38528,0.0116127,0,0,0,0,0,0,0,0.0955231,-0.217724,-0.250775,-1.69391,-0.0357351,1.37413,0.402469,0.462082,-0.0452895,0.44148,-0.16037,0.153069,-0.0896991,-0.00033647,3.02265,-24.6358,5.01161,25.1578,2.33429,1.94543,0.0440523,-1.01152,2.90428,0.162781,-1.49984,-0.262088,1.21113,1.22108,0.129718,1.28733,-0.518323,0.68478,-0.681958,0.00882646,
0.0860919,-0.216448,-0.26014,-1.6903,-0.0374985,-0.195383,-0.382812,0.569976,-0.0873535,0.514848,-0.228673,0.156596,-0.24039,0.0164789,0,0,0,0,0,0,0,0.0955231,-0.217724,-0.250775,-1.69391,-0.0357351,1.37413,0.402469,0.462082,-0.0452895,0.44148,-0.16037,0.153069,-0.0896991,-0.00033647,3.02265,-24.6358,5.01161,25.1578,2.33429,1.94543,0.0440523,-0.926385,-0.295147,-0.817942,0.686133,0.206136,-0.243602,-0.187786,0.444398,-0.423359,-0.846164,0.305341,-0.652785,0.0131738,
0.102527,-0.218489,-0.244293,-1.69659,-0.0326221,-0.198987,-0.382736,0.620504,-0.0612133,0.589068,-0.235083,0.327056,-0.243753,0.0150996,0,0,0,0,0,0,0,0.115131,-0.219247,-0.231324,-1.70028,-0.0306728,1.37277,0.402497,0.45348,-0.0139014,0.494921,-0.127319,0.194242,-0.0120967,0.0030215,2.61798,-25.0603,4.26179,24.5111,2.34069,1.79986,-0.00996382,-3.05486,-1.90842,-1.2532,1.79477,-1.24803,-1.12549,-0.968057,-0.36964,-1.47477,-0.749204,0.119869,-0.652112,0.0122833,
0.105118,-0.218706,-0.241783,-1.69755,-0.031026,-0.20011,-0.38268,0.647766,-0.0542487,0.627406,-0.239836,0.399018,-0.28096,0.0140944,0,0,0,0,0,0,0,0.115131,-0.219247,-0.231324,-1.70028,-0.0306728,1.37277,0.402497,0.45348,-0.0139014,0.494921,-0.127319,0.194242,-0.0120967,0.0030215,2.61798,-25.0603,4.26179,24.5111,2.34069,1.79986,-0.00996382,-3.05486,-1.90842,-1.2532,1.79477,-1.24803,-1.12549,-0.968057,-0.36964,-1.47477,-0.749204,0.119869,-0.652112,0.0122833,
0.107798,-0.218892,-0.239144,-1.69852,-0.0291477,-0.201341,-0.382626,0.670034,-0.0465059,0.659714,-0.24284,0.469567,-0.307647,0.0132566,0,0,0,0,0,0,0,0.115131,-0.219247,-0.231324,-1.70028,-0.0306728,1.37277,0.402497,0.45348,-0.0139014,0.494921,-0.127319,0.194242,-0.0120967,0.0030215,2.61798,-25.0603,4.26179,24.5111,2.34069,1.79986,-0.00996382,-3.2056,-0.0152711,-1.11978,0.617232,-1.39475,-0.259711,-0.125622,-0.40464,-0.489507,-0.749094,0.436107,-0.703294,0.0078724,
0.110551,-0.219047,-0.236396,-1.6995,-0.0270007,-0.202642,-0.382576,0.688267,-0.0386476,0.687188,-0.244868,0.53675,-0.325288,0.0125416,0,0,0,0,0,0,0,0.115131,-0.219247,-0.231324,-1.70028,-0.0306728,1.37277,0.402497,0.45348,-0.0139014,0.494921,-0.127319,0.194242,-0.0120967,0.0030215,2.61798,-25.0603,4.26179,24.5111,2.34069,1.79986,-0.00996382,-3.2056,-0.0152711,-1.11978,0.617232,-1.39475,-0.259711,-0.125622,-0.40464,-0.489507,-0.749094,0.436107,-0.703294,0.0078724,
0.113364,-0.219171,-0.233553,-1.70048,-0.0246029,-0.203984,-0.382529,0.703184,-0.0309862,0.710732,-0.246205,0.599461,-0.335458,0.0119205,0,0,0,0,0,0,0,0.115131,-0.219247,-0.231324,-1.70028,-0.0306728,1.37277,0.402497,0.45348,-0.0139014,0.494921,-0.127319,0.194242,-0.0120967,0.0030215,2.61798,-25.0603,4.26179,24.5111,2.34069,1.79986,-0.00996382,-1.64864,2.26932,-0.731132,-0.934157,-0.333415,0.896588,0.918359,0.235151,0.889781,-0.833296,0.714614,-0.730428,0.005686,
0.116225,-0.219265,-0.230629,-1.70147,-0.0219743,-0.205342,-0.382483,0.715337,-0.023681,0.731043,-0.246972,0.657156,-0.33957,0.0113739,0,0,0,0,0,0,0,0.115131,-0.219247,-0.231324,-1.70028,-0.0306728,1.37277,0.402497,0.45348,-0.0139014,0.494921,-0.127319,0.194242,-0.0120967,0.0030215,2.61798,-25.0603,4.26179,24.5111,2.34069,1.79986,-0.00996382,-1.64864,2.26932,-0.731132,-0.934157,-0.333415,0.896588,0.918359,0.235151,0.889781,-0.833296,0.714614,-0.730428,0.005686,
0.100044,-0.218244,-0.246649,-1.69565,-0.0339303,-0.198012,-0.382796,0.586843,-0.0658488,0.54313,-0.226355,0.256946,-0.195547,0.016307,0,0,0,0,0,0,0,0.130179,-0.219764,-0.216507,-1.7045,-0.0259524,1.37274,0.40251,0.47083,-0.00951799,0.48331,-0.132873,0.217897,-0.00153257,0.000632514,2.82032,-25.3856,3.96425,24.2374,1.90673,2.00493,-0.0301054,-1.81812,0.914054,-1.29497,-0.153329,-0.251487,0.293075,0.362725,0.328221,0.185372,-0.976165,0.417335,-0.691163,0.0056547,
0.137307,-0.220248,-0.209707,-1.70704,-0.0221514,-0.199303,-0.382698,0.628129,-0.041153,0.612029,-0.226895,0.380137,-0.158922,0.0147894,0,0,0,0,0,0,0,0.130179,-0.219764,-0.216507,-1.7045,-0.0259524,1.37274,0.40251,0.47083,-0.00951799,0.48331,-0.132873,0.217897,-0.00153257,0.000632514,2.82032,-25.3856,3.96425,24.2374,1.90673,2.00493,-0.0301054,-2.86508,-1.46041,-1.90789,1.49108,-0.798631,-0.849535,-0.713806,0.0125416,-1.16407,-1.06179,0.187184,-0.689366,0.00866484,
0.139919,-0.220393,-0.207116,-1.70797,-0.0203622,-0.200109,-0.382642,0.653039,-0.0364263,0.647759,-0.232472,0.447305,-0.201438,0.0138036,0,0,0,0,0,0,0,0.130179,-0.219764,-0.216507,-1.7045,-0.0259524,1.37274,0.40251,0.47083,-0.00951799,0.48331,-0.132873,0.217897,-0.00153257,0.000632514,2.82032,-25.3856,3.96425,24.2374,1.90673,2.00493,-0.0301054,-2.86508,-1.46041,-1.90789,1.49108,-0.798631,-0.849535,-0.713806,0.0125416,-1.16407,-1.06179,0.187184,-0.689366,0.00866484,
0.142612,-0.220516,-0.204405,-1.70891,-0.0183099,-0.201041,-0.38259,0.67328,-0.0305774,0.677865,-0.235862,0.513078,-0.23315,0.0129818,0,0,0,0,0,0,0,0.130179,-0.219764,-0.216507,-1.7045,-0.0259524,1.37274,0.40251,0.47083,-0.00951799,0.48331,-0.132873,0.217897,-0.00153257,0.000632514,2.82032,-25.3856,3.96425,24.2374,1.90673,2.00493,-0.0301054,-2.92885,0.172072,-1.3211,0.466612,-1.00716,-0.0962787,0.00494863,-0.109148,-0.290975,-0.935953,0.471689,-0.77215,0.00799055,
0.145371,-0.220613,-0.201591,-1.70987,-0.0160072,-0.202063,-0.382541,0.689759,-0.0243846,0.703454,-0.238089,0.57567,-0.255364,0.0122792,0,0,0,0,0,0,0,0.130179,-0.219764,-0.216507,-1.7045,-0.0259524,1.37274,0.40251,0.47083,-0.00951799,0.48331,-0.132873,0.217897,-0.00153257,0.000632514,2.82032,-25.3856,3.96425,24.2374,1.90673,2.00493,-0.0301054,-2.92885,0.172072,-1.3211,0.466612,-1.00716,-0.0962787,0.00494863,-0.109148,-0.290975,-0.935953,0.471689,-0.77215,0.00799055,
0.148184,-0.220686,-0.19869,-1.71082,-0.0134709,-0.203141,-0.382495,0.703146,-0.0182089,0.725369,-0.239536,0.634067,-0.269638,0.0116679,0,0,0,0,0,0,0,0.145007,-0.220003,-0.201185,-1.70877,-0.01946,1.3731,0.402512,0.485833,-0.00542507,0.494159,-0.143654,0.189182,0.0157194,-0.00081663,2.64179,-25.9093,3.68654,24.1898,1.43615,1.85296,0.0440523,-2.37543,1.62187,-1.19237,-0.530508,-0.581206,0.610845,0.649273,0.204621,0.555632,-1.02143,0.62649,-0.823957,0.00530276,
0.151039,-0.220735,-0.195713,-1.71178,-0.0107199,-0.204251,-0.38245,0.713962,-0.0122355,0.74426,-0.240367,0.687768,-0.27742,0.0111294,0,0,0,0,0,0,0,0.145007,-0.220003,-0.201185,-1.70877,-0.01946,1.3731,0.402512,0.485833,-0.00542507,0.494159,-0.143654,0.189182,0.0157194,-0.00081663,2.64179,-25.9093,3.68654,24.1898,1.43615,1.85296,0.0440523,-2.73766,0.174358,-1.46019,0.37634,-0.765761,-0.0584729,0.00472292,0.0774496,-0.208113,-1.03818,0.407646,-0.796197,0.00886816,
0.134794,-0.220083,-0.212156,-1.70613,-0.0236719,-0.198667,-0.382757,0.597198,-0.042897,0.569242,-0.216245,0.314535,-0.105734,0.0159902,0,0,0,0,0,0,0,0.145007,-0.220003,-0.201185,-1.70877,-0.01946,1.3731,0.402512,0.485833,-0.00542507,0.494159,-0.143654,0.189182,0.0157194,-0.00081663,2.64179,-25.9093,3.68654,24.1898,1.43615,1.85296,0.0440523,-2.73766,0.174358,-1.46019,0.37634,-0.765761,-0.0584729,0.00472292,0.0774496,-0.208113,-1.03818,0.407646,-0.796197,0.00886816,
0.152116,-0.220376,-0.194238,-1.71131,-0.0157521,-0.198714,-0.382698,0.624262,-0.0317497,0.621889,-0.224307,0.378102,-0.137294,0.0148011,0,0,0,0,0,0,0,0.145007,-0.220003,-0.201185,-1.70877,-0.01946,1.3731,0.402512,0.485833,-0.00542507,0.494159,-0.143654,0.189182,0.0157194,-0.00081663,2.64179,-25.9093,3.68654,24.1898,1.43615,1.85296,0.0440523,-3.54597,-1.02491,-1.91456,1.11087,-1.21405,-0.602103,-0.460804,-0.157266,-0.870495,-1.08798,0.206239,-0.77775,0.00728884,
0.154707,-0.220487,-0.191615,-1.71222,-0.0139595,-0.199422,-0.382642,0.647816,-0.0275769,0.655958,-0.229163,0.448153,-0.176831,0.0138235,0,0,0,0,0,0,0,0.145007,-0.220003,-0.201185,-1.70877,-0.01946,1.3731,0.402512,0.485833,-0.00542507,0.494159,-0.143654,0.189182,0.0157194,-0.00081663,2.64179,-25.9093,3.68654,24.1898,1.43615,1.85296,0.0440523,-3.54597,-1.02491,-1.91456,1.11087,-1.21405,-0.602103,-0.460804,-0.157266,-0.870495,-1.08798,0.206239,-0.77775,0.00728884,
0.157375,-0.220576,-0.188875,-1.71315,-0.0118972,-0.200246,-0.382591,0.667016,-0.0224154,0.684801,-0.232081,0.515572,-0.206096,0.0129956,0,0,0,0,0,0,0,0.145007,-0.220003,-0.201185,-1.70877,-0.01946,1.3731,0.402512,0.485833,-0.00542507,0.494159,-0.143654,0.189182,0.0157194,-0.00081663,2.64179,-25.9093,3.68654,24.1898,1.43615,1.85296,0.0440523,-2.84466,0.848071,-1.72193,-0.0821128,-0.689098,0.293711,0.371018,0.219885,0.169887,-1.18482,0.496658,-0.841579,0.00454136,
0.160106,-0.220644,-0.186038,-1.71409,-0.00958128,-0.201152,-0.382541,0.682675,-0.0169367,0.709413,-0.233936,0.578989,-0.226397,0.0122813,0,0,0,0,0,0,0,0.160854,-0.220027,-0.18477,-1.71321,-0.0106647,1.37354,0.402526,0.497046,0.00262482,0.489192,-0.132587,0.245878,0.0344446,0.000181923,-0.528073,-25.9609,1.03639,25.6061,1.15509,1.80627,0.00376909,-2.84466,0.848071,-1.72193,-0.0821128,-0.689098,0.293711,0.371018,0.219885,0.169887,-1.18482,0.496658,-0.841579,0.00454136,
0.162887,-0.22069,-0.183116,-1.71503,-0.0070306,-0.202109,-0.382495,0.695407,-0.0114585,0.73056,-0.235067,0.637671,-0.239225,0.0116561,0,0,0,0,0,0,0,0.160854,-0.220027,-0.18477,-1.71321,-0.0106647,1.37354,0.402526,0.497046,0.00262482,0.489192,-0.132587,0.245878,0.0344446,0.000181923,-0.528073,-25.9609,1.03639,25.6061,1.15509,1.80627,0.00376909,-2.32401,3.06438,-1.19009,-1.59512,-0.488582,1.3457,1.35129,0.376187,1.42226,-1.08286,0.739467,-0.848014,0.00268575,
0.16571,-0.220715,-0.18012,-1.71597,-0.00426536,-0.203092,-0.38245,0.705691,-0.00614766,0.748836,-0.235621,0.691309,-0.245952,0.0111034,0,0,0,0,0,0,0,0.160854,-0.220027,-0.18477,-1.71321,-0.0106647,1.37354,0.402526,0.497046,0.00262482,0.489192,-0.132587,0.245878,0.0344446,0.000181923,-0.528073,-25.9609,1.03639,25.6061,1.15509,1.80627,0.00376909,-1.87391,0.293846,-1.25952,0.164112,-0.231511,0.0883592,0.14691,0.340228,-0.0333151,-0.990531,0.358671,-0.71744,0.00506465,
0.149619,-0.220249,-0.196726,-1.71041,-0.0172646,-0.198165,-0.382757,0.595171,-0.0333506,0.581312,-0.215065,0.307754,-0.0873572,0.0159449,0,0,0,0,0,0,0,0.160854,-0.220027,-0.18477,-1.71321,-0.0106647,1.37354,0.402526,0.497046,0.00262482,0.489192,-0.132587,0.245878,0.0344446,0.000181923,-0.528073,-25.9609,1.03639,25.6061,1.15509,1.80627,0.00376909,-1.87391,0.293846,-1.25952,0.164112,-0.231511,0.0883592,0.14691,0.340228,-0.0333151,-0.990531,0.358671,-0.71744,0.00506465,
0.167902,-0.220331,-0.177739,-1.71567,-0.00644432,-0.197921,-0.382684,0.618504,-0.0265752,0.628879,-0.217823,0.413525,-0.103912,0.0147991,0,0,0,0,0,0,0,0.160854,-0.220027,-0.18477,-1.71321,-0.0106647,1.37354,0.402526,0.497046,0.00262482,0.489192,-0.132587,0.245878,0.0344446,0.000181923,-0.528073,-25.9609,1.03639,25.6061,1.15509,1.80627,0.00376909,-2.05143,-1.22188,-1.21646,1.1549,-0.469373,-0.599755,-0.472781,0.0747913,-0.860572,-0.842088,0.180899,-0.625595,0.00682489,
0.170468,-0.220422,-0.175089,-1.71656,-0.00453316,-0.198488,-0.382629,0.641625,-0.0228263,0.662583,-0.222714,0.477788,-0.141704,0.0137963,0,0,0,0,0,0,0,0.176717,-0.21989,-0.167675,-1.71774,-0.00189176,1.374,0.402535,0.510807,0.00422682,0.562266,-0.149953,0.321624,0.000240749,-0.000706837,1.24927,-26.7345,2.6114,25.4077,1.99829,1.80627,0.0101778,-2.05143,-1.22188,-1.21646,1.1549,-0.469373,-0.599755,-0.472781,0.0747913,-0.860572,-0.842088,0.180899,-0.625595,0.00682489,
0.17311,-0.220494,-0.172325,-1.71746,-0.00237175,-0.199167,-0.382577,0.660392,-0.0180449,0.691034,-0.2256,0.540353,-0.16983,0.0129447,0,0,0,0,0,0,0,0.176717,-0.21989,-0.167675,-1.71774,-0.00189176,1.374,0.402535,0.510807,0.00422682,0.562266,-0.149953,0.321624,0.000240749,-0.000706837,1.24927,-26.7345,2.6114,25.4077,1.99829,1.80627,0.0101778,-1.9529,0.475534,-0.855282,0.0994643,-0.534835,0.187559,0.272183,0.0639885,0.0520768,-0.738145,0.458881,-0.619286,0.00533423,
0.175812,-0.220546,-0.169464,-1.71837,2.69751e-05,-0.199925,-0.382528,0.67563,-0.012924,0.715245,-0.227411,0.599682,-0.189437,0.0122108,0,0,0,0,0,0,0,0.176717,-0.21989,-0.167675,-1.71774,-0.00189176,1.374,0.402535,0.510807,0.00422682,0.562266,-0.149953,0.321624,0.000240749,-0.000706837,1.24927,-26.7345,2.6114,25.4077,1.99829,1.80627,0.0101778,-1.9529,0.475534,-0.855282,0.0994643,-0.534835,0.187559,0.272183,0.0639885,0.0520768,-0.738145,0.458881,-0.619286,0.00533423,
0.178564,-0.220577,-0.16652,-1.71928,0.00264659,-0.200733,-0.382482,0.687959,-0.00778713,0.735994,-0.228502,0.654904,-0.201914,0.0115679,0,0,0,0,0,0,0,0.176717,-0.21989,-0.167675,-1.71774,-0.00189176,1.374,0.402535,0.510807,0.00422682,0.562266,-0.149953,0.321624,0.000240749,-0.000706837,1.24927,-26.7345,2.6114,25.4077,1.99829,1.80627,0.0101778,-2.14546,1.94384,-0.756246,-0.896818,-0.700956,0.875785,0.890401,0.0592271,0.895642,-0.719287,0.618387,-0.632858,0.00243355,
0.165428,-0.220224,-0.180255,-1.71479,-0.00809841,-0.197505,-0.382743,0.589866,-0.0276433,0.588593,-0.208329,0.35008,-0.0566136,0.0159512,0,0,0,0,0,0,0,0.176717,-0.21989,-0.167675,-1.71774,-0.00189176,1.374,0.402535,0.510807,0.00422682,0.562266,-0.149953,0.321624,0.000240749,-0.000706837,1.24927,-26.7345,2.6114,25.4077,1.99829,1.80627,0.0101778,-2.71013,-0.0658256,-0.9915,0.342577,-1.10868,-0.0296838,0.0213481,-0.265227,-0.131448,-0.650586,0.311097,-0.566542,0.0043745,
0.184018,-0.220087,-0.160167,-1.72022,0.00322288,-0.197665,-0.382687,0.634738,-0.0166292,0.661937,-0.217919,0.485959,-0.110905,0.0138824,0,0,0,0,0,0,0,0.176717,-0.21989,-0.167675,-1.71774,-0.00189176,1.374,0.402535,0.510807,0.00422682,0.562266,-0.149953,0.321624,0.000240749,-0.000706837,1.24927,-26.7345,2.6114,25.4077,1.99829,1.80627,0.0101778,-2.71013,-0.0658256,-0.9915,0.342577,-1.10868,-0.0296838,0.0213481,-0.265227,-0.131448,-0.650586,0.311097,-0.566542,0.0043745,
0.186634,-0.220139,-0.157404,-1.72111,0.00540583,-0.198225,-0.382635,0.653941,-0.0129686,0.69095,-0.221795,0.545739,-0.140036,0.0129963,0,0,0,0,0,0,0,0.192932,-0.219513,-0.150406,-1.7221,0.00675217,1.37409,0.402542,0.496816,0.0121975,0.5723,-0.132799,0.333672,-0.00431791,-0.000524269,1.83246,-26.7821,2.53602,25.2094,1.24115,2.47643,-0.0163725,-2.44573,-1.35946,-1.02498,1.14521,-1.00522,-0.606807,-0.50385,-0.326128,-0.818421,-0.56127,0.114147,-0.456576,0.00239534,
0.189312,-0.220173,-0.154541,-1.72201,0.00781782,-0.19887,-0.382586,0.669472,-0.00856352,0.715566,-0.223966,0.602997,-0.161086,0.0122351,0,0,0,0,0,0,0,0.192932,-0.219513,-0.150406,-1.7221,0.00675217,1.37409,0.402542,0.496816,0.0121975,0.5723,-0.132799,0.333672,-0.00431791,-0.000524269,1.83246,-26.7821,2.53602,25.2094,1.24115,2.47643,-0.0163725,-2.44573,-1.35946,-1.02498,1.14521,-1.00522,-0.606807,-0.50385,-0.326128,-0.818421,-0.56127,0.114147,-0.456576,0.00239534,
0.19204,-0.220189,-0.151595,-1.72291,0.0104445,-0.19957,-0.38254,0.682004,-0.00396033,0.736602,-0.225197,0.656679,-0.175044,0.0115765,0,0,0,0,0,0,0,0.192932,-0.219513,-0.150406,-1.7221,0.00675217,1.37409,0.402542,0.496816,0.0121975,0.5723,-0.132799,0.333672,-0.00431791,-0.000524269,1.83246,-26.7821,2.53602,25.2094,1.24115,2.47643,-0.0163725,-1.28931,1.59494,-1.60756,-0.819007,0.177893,0.752261,0.782472,0.652152,0.743622,-1.01108,0.460825,-0.51075,-0.00339851,
0.194808,-0.220186,-0.148576,-1.72381,0.0132695,-0.200302,-0.382496,0.692049,0.000588888,0.754694,-0.225786,0.70623,-0.183081,0.0109888,0,0,0,0,0,0,0,0.192932,-0.219513,-0.150406,-1.7221,0.00675217,1.37409,0.402542,0.496816,0.0121975,0.5723,-0.132799,0.333672,-0.00431791,-0.000524269,1.83246,-26.7821,2.53602,25.2094,1.24115,2.47643,-0.0163725,-1.28931,1.59494,-1.60756,-0.819007,0.177893,0.752261,0.782472,0.652152,0.743622,-1.01108,0.460825,-0.51075,-0.00339851,
0.197608,-0.220167,-0.145495,-1.72471,0.0162752,-0.201047,-0.382454,0.700008,0.00495599,0.770338,-0.225872,0.751431,-0.186285,0.010477,0,0,0,0,0,0,0,0.192932,-0.219513,-0.150406,-1.7221,0.00675217,1.37409,0.402542,0.496816,0.0121975,0.5723,-0.132799,0.333672,-0.00431791,-0.000524269,1.83246,-26.7821,2.53602,25.2094,1.24115,2.47643,-0.0163725,-1.77671,0.858562,-1.48474,-0.32312,-0.207402,0.424658,0.441993,0.383288,0.39094,-0.934554,0.405887,-0.543062,-0.000653116,
0.181479,-0.22002,-0.162815,-1.71935,0.00127904,-0.197221,-0.382743,0.61088,-0.0182374,0.627507,-0.210237,0.425439,-0.0737433,0.0149058,0,0,0,0,0,0,0,0.209651,-0.219047,-0.132285,-1.72626,0.0169596,1.37424,0.402549,0.491142,0.0197858,0.560519,-0.119295,0.326673,-0.00486953,0.000950289,3.1496,-26.9606,3.63893,24.8087,1.12487,2.39678,-0.0301054,-1.77671,0.858562,-1.48474,-0.32312,-0.207402,0.424658,0.441993,0.383288,0.39094,-0.934554,0.405887,-0.543062,-0.000653116,
0.21677,-0.219165,-0.1248,-1.72862,0.0220861,-0.197123,-0.38267,0.6204,-0.0114279,0.660958,-0.210448,0.484908,-0.0798481,0.0140542,0,0,0,0,0,0,0,0.209651,-0.219047,-0.132285,-1.72626,0.0169596,1.37424,0.402549,0.491142,0.0197858,0.560519,-0.119295,0.326673,-0.00486953,0.000950289,3.1496,-26.9606,3.63893,24.8087,1.12487,2.39678,-0.0301054,-1.99453,-1.6044,-1.71688,1.2448,-0.398587,-0.686305,-0.581728,0.105391,-0.920764,-0.85599,0.0768428,-0.44286,0.000705482,
0.21933,-0.219198,-0.122037,-1.72948,0.0242584,-0.197548,-0.382617,0.640226,-0.00813461,0.690697,-0.215117,0.543074,-0.106328,0.0131232,0,0,0,0,0,0,0,0.209651,-0.219047,-0.132285,-1.72626,0.0169596,1.37424,0.402549,0.491142,0.0197858,0.560519,-0.119295,0.326673,-0.00486953,0.000950289,3.1496,-26.9606,3.63893,24.8087,1.12487,2.39678,-0.0301054,-1.15601,-1.33239,-2.04216,1.06812,0.374745,-0.584538,-0.50197,0.602898,-0.808165,-1.07096,0.137198,-0.441506,-0.00258735,
0.221955,-0.219214,-0.119174,-1.73035,0.0266547,-0.198052,-0.382568,0.656256,-0.00395914,0.715905,-0.217617,0.599083,-0.125859,0.0123148,0,0,0,0,0,0,0,0.209651,-0.219047,-0.132285,-1.72626,0.0169596,1.37424,0.402549,0.491142,0.0197858,0.560519,-0.119295,0.326673,-0.00486953,0.000950289,3.1496,-26.9606,3.63893,24.8087,1.12487,2.39678,-0.0301054,-1.15601,-1.33239,-2.04216,1.06812,0.374745,-0.584538,-0.50197,0.602898,-0.808165,-1.07096,0.137198,-0.441506,-0.00258735,
0.224632,-0.219212,-0.116224,-1.73122,0.029262,-0.198608,-0.382522,0.669188,0.000435568,0.737418,-0.219,0.651826,-0.138972,0.0116214,0,0,0,0,0,0,0,0.209651,-0.219047,-0.132285,-1.72626,0.0169596,1.37424,0.402549,0.491142,0.0197858,0.560519,-0.119295,0.326673,-0.00486953,0.000950289,3.1496,-26.9606,3.63893,24.8087,1.12487,2.39678,-0.0301054,-1.06489,1.88513,-1.912,-1.06972,0.499325,0.903181,0.909234,0.931143,0.929005,-1.17136,0.502248,-0.519668,-0.00488173,
0.22735,-0.219193,-0.1132,-1.7321,0.0320648,-0.199194,-0.382478,0.679543,0.00476635,0.755896,-0.219674,0.700691,-0.146614,0.0110074,0,0,0,0,0,0,0,0.209651,-0.219047,-0.132285,-1.72626,0.0169596,1.37424,0.402549,0.491142,0.0197858,0.560519,-0.119295,0.326673,-0.00486953,0.000950289,3.1496,-26.9606,3.63893,24.8087,1.12487,2.39678,-0.0301054,-1.06489,1.88513,-1.912,-1.06972,0.499325,0.903181,0.909234,0.931143,0.929005,-1.17136,0.502248,-0.519668,-0.00488173,
0.214288,-0.21912,-0.127444,-1.72777,0.0201464,-0.196804,-0.382726,0.595764,-0.0121668,0.625664,-0.200707,0.426366,-0.0475084,0.0151329,0,0,0,0,0,0,0,0.225826,-0.218651,-0.11412,-1.73027,0.0291842,1.37458,0.402551,0.512045,0.0128961,0.538515,-0.121634,0.341259,0.0171044,0.00020926,0.182071,-27.0082,0.838026,24.9118,0.91705,2.16424,-0.00996382,-1.47077,0.249737,-1.92332,-0.00955477,0.166188,0.169875,0.176417,0.621672,0.112951,-1.08714,0.32115,-0.50277,-0.00191137,
0.232832,-0.218781,-0.106609,-1.73256,0.034483,-0.196501,-0.38267,0.610404,-0.0112539,0.663642,-0.203958,0.496393,-0.0540977,0.0140171,0,0,0,0,0,0,0,0.225826,-0.218651,-0.11412,-1.73027,0.0291842,1.37458,0.402551,0.512045,0.0128961,0.538515,-0.121634,0.341259,0.0171044,0.00020926,0.182071,-27.0082,0.838026,24.9118,0.91705,2.16424,-0.00996382,-1.47077,0.249737,-1.92332,-0.00955477,0.166188,0.169875,0.176417,0.621672,0.112951,-1.08714,0.32115,-0.50277,-0.00191137,
0.235353,-0.218811,-0.103835,-1.7334,0.0366914,-0.196815,-0.382617,0.630194,-0.00755812,0.693377,-0.208427,0.55211,-0.0784506,0.0130757,0,0,0,0,0,0,0,0.225826,-0.218651,-0.11412,-1.73027,0.0291842,1.37458,0.402551,0.512045,0.0128961,0.538515,-0.121634,0.341259,0.0171044,0.00020926,0.182071,-27.0082,0.838026,24.9118,0.91705,2.16424,-0.00996382,-1.79738,0.206651,-2.11549,-0.0404188,-0.0494757,0.192278,0.270151,0.525594,0.0884029,-1.08973,0.264511,-0.46538,-0.00281561,
0.237937,-0.218824,-0.100961,-1.73424,0.0391155,-0.197201,-0.382568,0.646173,-0.00317073,0.71856,-0.210907,0.606035,-0.0963567,0.0122553,0,0,0,0,0,0,0,0.225826,-0.218651,-0.11412,-1.73027,0.0291842,1.37458,0.402551,0.512045,0.0128961,0.538515,-0.121634,0.341259,0.0171044,0.00020926,0.182071,-27.0082,0.838026,24.9118,0.91705,2.16424,-0.00996382,-2.17109,-0.0642668,-2.00177,0.205394,-0.332862,0.0916745,0.182238,0.332948,-0.0458515,-1.03938,0.317743,-0.498818,0.000440987,
0.240577,-0.218819,-0.0980059,-1.73509,0.0417448,-0.197634,-0.382522,0.660015,0.00134319,0.738722,-0.212318,0.657318,-0.108351,0.0115186,0,0,0,0,0,0,0,0.225826,-0.218651,-0.11412,-1.73027,0.0291842,1.37458,0.402551,0.512045,0.0128961,0.538515,-0.121634,0.341259,0.0171044,0.00020926,0.182071,-27.0082,0.838026,24.9118,0.91705,2.16424,-0.00996382,-2.17109,-0.0642668,-2.00177,0.205394,-0.332862,0.0916745,0.182238,0.332948,-0.0458515,-1.03938,0.317743,-0.498818,0.000440987,
0.243267,-0.218796,-0.0949906,-1.73594,0.0445676,-0.198095,-0.382479,0.672428,0.00574613,0.753837,-0.213037,0.705707,-0.115321,0.0108408,0,0,0,0,0,0,0,0.242154,-0.218293,-0.0955323,-1.73447,0.0408815,1.37519,0.40256,0.510903,0.0104178,0.580649,-0.130505,0.311408,0.030835,0.0017059,-2.47998,-27.159,-1.73674,25.4831,1.32629,1.75316,-0.0429228,-1.67459,1.32479,-1.88726,-0.686265,0.0580576,0.695781,0.703571,0.656904,0.692084,-1.10666,0.518698,-0.529219,-0.000997199,
0.23039,-0.218736,-0.109263,-1.73175,0.0324974,-0.196285,-0.382726,0.585881,-0.0128015,0.628272,-0.194953,0.440687,-0.0242003,0.0150597,0,0,0,0,0,0,0,0.242154,-0.218293,-0.0955323,-1.73447,0.0408815,1.37519,0.40256,0.510903,0.0104178,0.580649,-0.130505,0.311408,0.030835,0.0017059,-2.47998,-27.159,-1.73674,25.4831,1.32629,1.75316,-0.0429228,-1.67459,1.32479,-1.88726,-0.686265,0.0580576,0.695781,0.703571,0.656904,0.692084,-1.10666,0.518698,-0.529219,-0.000997199,
0.249204,-0.218378,-0.0877772,-1.73674,0.046091,-0.195711,-0.382667,0.611162,-0.00656021,0.679711,-0.200623,0.496812,-0.0360843,0.0135219,0,0,0,0,0,0,0,0.242154,-0.218293,-0.0955323,-1.73447,0.0408815,1.37519,0.40256,0.510903,0.0104178,0.580649,-0.130505,0.311408,0.030835,0.0017059,-2.47998,-27.159,-1.73674,25.4831,1.32629,1.75316,-0.0429228,-1.94928,-0.195001,-2.05899,0.244669,-0.116538,0.0356833,0.0761015,0.470314,-0.0651827,-1.10684,0.304866,-0.521629,0.000766081,
0.251723,-0.218389,-0.0849557,-1.73756,0.0483184,-0.195942,-0.382617,0.629755,-0.00275422,0.705377,-0.204604,0.556836,-0.0575448,0.0126225,0,0,0,0,0,0,0,0.242154,-0.218293,-0.0955323,-1.73447,0.0408815,1.37519,0.40256,0.510903,0.0104178,0.580649,-0.130505,0.311408,0.030835,0.0017059,-2.47998,-27.159,-1.73674,25.4831,1.32629,1.75316,-0.0429228,-1.94928,-0.195001,-2.05899,0.244669,-0.116538,0.0356833,0.0761015,0.470314,-0.0651827,-1.10684,0.304866,-0.521629,0.000766081,
0.254308,-0.218383,-0.0820552,-1.73838,0.0507743,-0.196234,-0.38257,0.646173,0.00153014,0.725124,-0.206806,0.613987,-0.0731597,0.0118037,0,0,0,0,0,0,0,0.242154,-0.218293,-0.0955323,-1.73447,0.0408815,1.37519,0.40256,0.510903,0.0104178,0.580649,-0.130505,0.311408,0.030835,0.0017059,-2.47998,-27.159,-1.73674,25.4831,1.32629,1.75316,-0.0429228,-1.50659,-0.945834,-2.27172,0.697812,0.239221,-0.324372,-0.245001,0.617616,-0.504285,-1.1651,0.199301,-0.469308,-0.00193084,
0.256946,-0.21836,-0.0790909,-1.73922,0.0534447,-0.196568,-0.382525,0.659521,0.00581795,0.74107,-0.208049,0.66759,-0.0834311,0.0110726,0,0,0,0,0,0,0,0.263496,-0.217856,-0.0708947,-1.73996,0.0555377,1.3767,0.402561,0.521459,0.0141144,0.580998,-0.124757,0.311741,0.0406737,0.000148205,-0.500302,-26.8852,-0.0387439,25.3085,0.984799,2.04522,-0.00996382,-1.30301,1.90731,-2.23046,-1.1564,0.464817,0.966812,1.01405,1.00282,0.962394,-1.26608,0.552476,-0.503664,-0.00456492,
0.259627,-0.21832,-0.0760752,-1.74005,0.0563131,-0.196925,-0.382484,0.670256,0.00990999,0.753935,-0.208649,0.717105,-0.0891624,0.0104212,0,0,0,0,0,0,0,0.263496,-0.217856,-0.0708947,-1.73996,0.0555377,1.3767,0.402561,0.521459,0.0141144,0.580998,-0.124757,0.311741,0.0406737,0.000148205,-0.500302,-26.8852,-0.0387439,25.3085,0.984799,2.04522,-0.00996382,-1.30301,1.90731,-2.23046,-1.1564,0.464817,0.966812,1.01405,1.00282,0.962394,-1.26608,0.552476,-0.503664,-0.00456492,
0.246759,-0.218352,-0.0904961,-1.73594,0.0441038,-0.195567,-0.382721,0.58944,-0.00870337,0.647983,-0.192696,0.43448,-0.00942764,0.0144876,0,0,0,0,0,0,0,0.263496,-0.217856,-0.0708947,-1.73996,0.0555377,1.3767,0.402561,0.521459,0.0141144,0.580998,-0.124757,0.311741,0.0406737,0.000148205,-0.500302,-26.8852,-0.0387439,25.3085,0.984799,2.04522,-0.00996382,-1.21945,0.444282,-1.50533,-0.127656,0.192843,0.286979,0.310654,0.571946,0.222197,-0.927442,0.421219,-0.461905,7.82484e-05,
0.270495,-0.217893,-0.0630662,-1.74218,0.0608353,-0.193972,-0.382671,0.607484,-0.00254656,0.682214,-0.195856,0.505393,-0.0129631,0.0132017,0,0,0,0,0,0,0,0.263496,-0.217856,-0.0708947,-1.73996,0.0555377,1.3767,0.402561,0.521459,0.0141144,0.580998,-0.124757,0.311741,0.0406737,0.000148205,-0.500302,-26.8852,-0.0387439,25.3085,0.984799,2.04522,-0.00996382,-0.606433,-0.811077,-1.68257,0.612381,0.589206,-0.327288,-0.262832,0.668839,-0.490954,-0.924611,0.199151,-0.358589,-0.000558819,
0.273,-0.217888,-0.0602481,-1.74298,0.0631004,-0.194101,-0.382622,0.626259,0.00115924,0.704521,-0.199845,0.566271,-0.0322593,0.0122887,0,0,0,0,0,0,0,0.263496,-0.217856,-0.0708947,-1.73996,0.0555377,1.3767,0.402561,0.521459,0.0141144,0.580998,-0.124757,0.311741,0.0406737,0.000148205,-0.500302,-26.8852,-0.0387439,25.3085,0.984799,2.04522,-0.00996382,-0.606433,-0.811077,-1.68257,0.612381,0.589206,-0.327288,-0.262832,0.668839,-0.490954,-0.924611,0.199151,-0.358589,-0.000558819,
0.275566,-0.217867,-0.0573574,-1.74378,0.0655948,-0.194287,-0.382576,0.641536,0.00525347,0.722691,-0.202043,0.623593,-0.0463698,0.011477,0,0,0,0,0,0,0,0.263496,-0.217856,-0.0708947,-1.73996,0.0555377,1.3767,0.402561,0.521459,0.0141144,0.580998,-0.124757,0.311741,0.0406737,0.000148205,-0.500302,-26.8852,-0.0387439,25.3085,0.984799,2.04522,-0.00996382,-1.40061,-1.12757,-1.42063,0.885963,-0.142625,-0.390673,-0.322227,0.170353,-0.564227,-0.706859,0.215425,-0.323429,-0.00143114,
0.278182,-0.21783,-0.0544076,-1.7446,0.0683017,-0.19451,-0.382533,0.653911,0.0092887,0.737448,-0.203258,0.676739,-0.0556554,0.0107566,0,0,0,0,0,0,0,0.278817,-0.21731,-0.052742,-1.74357,0.0670649,1.3774,0.402562,0.513235,0.0205097,0.594803,-0.111159,0.375318,0.0203831,-0.000458069,-1.15887,-27.6589,-0.93535,25.6577,1.33819,2.03148,-0.0163725,-1.40061,-1.12757,-1.42063,0.885963,-0.142625,-0.390673,-0.322227,0.170353,-0.564227,-0.706859,0.215425,-0.323429,-0.00143114,
0.280837,-0.217778,-0.0514101,-1.74541,0.0712034,-0.194753,-0.382493,0.663856,0.013088,0.74937,-0.20382,0.725412,-0.060799,0.0101142,0,0,0,0,0,0,0,0.278817,-0.21731,-0.052742,-1.74357,0.0670649,1.3774,0.402562,0.513235,0.0205097,0.594803,-0.111159,0.375318,0.0203831,-0.000458069,-1.15887,-27.6589,-0.93535,25.6577,1.33819,2.03148,-0.0163725,-1.59149,0.370634,-1.5157,-0.0728352,-0.164978,0.310773,0.340455,0.336097,0.246378,-0.802919,0.437511,-0.3673,-0.00590645,
0.283524,-0.217711,-0.0483744,-1.74623,0.0742816,-0.195003,-0.382454,0.671753,0.0165805,0.758918,-0.203883,0.769555,-0.062506,0.00953844,0,0,0,0,0,0,0,0.278817,-0.21731,-0.052742,-1.74357,0.0670649,1.3774,0.402562,0.513235,0.0205097,0.594803,-0.111159,0.375318,0.0203831,-0.000458069,-1.15887,-27.6589,-0.93535,25.6577,1.33819,2.03148,-0.0163725,-1.52278,1.52483,-1.49968,-0.876665,-0.149795,0.84004,0.874413,0.447362,0.845653,-0.783863,0.511655,-0.32098,-0.00818172,
0.268065,-0.217883,-0.0657951,-1.74139,0.0588138,-0.193921,-0.382724,0.58451,-0.00468941,0.654815,-0.187898,0.441964,0.0106576,0.0141581,0,0,0,0,0,0,0,0.278817,-0.21731,-0.052742,-1.74357,0.0670649,1.3774,0.402562,0.513235,0.0205097,0.594803,-0.111159,0.375318,0.0203831,-0.000458069,-1.15887,-27.6589,-0.93535,25.6577,1.33819,2.03148,-0.0163725,-1.52278,1.52483,-1.49968,-0.876665,-0.149795,0.84004,0.874413,0.447362,0.845653,-0.783863,0.511655,-0.32098,-0.00818172,
0.285806,-0.217313,-0.0448856,-1.74571,0.0729395,-0.193234,-0.382675,0.606069,-0.000274407,0.682458,-0.191196,0.547157,-0.00265123,0.0127795,0,0,0,0,0,0,0,0.278817,-0.21731,-0.052742,-1.74357,0.0670649,1.3774,0.402562,0.513235,0.0205097,0.594803,-0.111159,0.375318,0.0203831,-0.000458069,-1.15887,-27.6589,-0.93535,25.6577,1.33819,2.03148,-0.0163725,-0.94323,-0.224791,-1.83607,0.186859,0.299173,-0.009285,0.043524,0.554038,-0.114756,-0.856323,0.263954,-0.248442,-0.00625347,
0.288301,-0.2173,-0.0420713,-1.7465,0.0753495,-0.193304,-0.382628,0.623762,0.0032887,0.703564,-0.195304,0.602497,-0.0176102,0.0118801,0,0,0,0,0,0,0,0.295127,-0.216581,-0.0335116,-1.7473,0.0791787,1.37817,0.402561,0.51986,0.0261078,0.616643,-0.10942,0.427949,0.0122865,-0.000406575,0.0313145,-27.3811,0.0366345,25.3085,1.99188,1.79986,-0.00996382,-0.94323,-0.224791,-1.83607,0.186859,0.299173,-0.009285,0.043524,0.554038,-0.114756,-0.856323,0.263954,-0.248442,-0.00625347,
0.290854,-0.217271,-0.0391885,-1.74729,0.0779689,-0.193419,-0.382583,0.638086,0.0072586,0.72069,-0.197451,0.654843,-0.0285277,0.0110805,0,0,0,0,0,0,0,0.295127,-0.216581,-0.0335116,-1.7473,0.0791787,1.37817,0.402561,0.51986,0.0261078,0.616643,-0.10942,0.427949,0.0122865,-0.000406575,0.0313145,-27.3811,0.0366345,25.3085,1.99188,1.79986,-0.00996382,-1.06837,-0.86548,-1.84123,0.683301,0.235186,-0.290153,-0.25026,0.447574,-0.435214,-0.848941,0.296456,-0.263245,-0.00636182,
0.293452,-0.217227,-0.0362504,-1.74808,0.0807831,-0.19356,-0.382542,0.649619,0.0111478,0.73453,-0.198571,0.703551,-0.0354523,0.0103717,0,0,0,0,0,0,0,0.295127,-0.216581,-0.0335116,-1.7473,0.0791787,1.37817,0.402561,0.51986,0.0261078,0.616643,-0.10942,0.427949,0.0122865,-0.000406575,0.0313145,-27.3811,0.0366345,25.3085,1.99188,1.79986,-0.00996382,-1.06837,-0.86548,-1.84123,0.683301,0.235186,-0.290153,-0.25026,0.447574,-0.435214,-0.848941,0.296456,-0.263245,-0.00636182,
0.296087,-0.217168,-0.0332678,-1.74888,0.0837762,-0.193716,-0.382503,0.658822,0.0147744,0.745645,-0.199035,0.748282,-0.0388738,0.00974094,0,0,0,0,0,0,0,0.295127,-0.216581,-0.0335116,-1.7473,0.0791787,1.37817,0.402561,0.51986,0.0261078,0.616643,-0.10942,0.427949,0.0122865,-0.000406575,0.0313145,-27.3811,0.0366345,25.3085,1.99188,1.79986,-0.00996382,-1.58215,0.89359,-1.6008,-0.415784,-0.170156,0.565822,0.573864,0.375842,0.547504,-0.770143,0.536672,-0.282717,-0.00855496,
0.298752,-0.217095,-0.0302499,-1.74967,0.086932,-0.193873,-0.382466,0.666065,0.0180731,0.754482,-0.19901,0.788933,-0.0393619,0.00917702,0,0,0,0,0,0,0,0.295127,-0.216581,-0.0335116,-1.7473,0.0791787,1.37817,0.402561,0.51986,0.0261078,0.616643,-0.10942,0.427949,0.0122865,-0.000406575,0.0313145,-27.3811,0.0366345,25.3085,1.99188,1.79986,-0.00996382,-1.23306,0.387431,-2.04427,-0.190078,0.203355,0.305732,0.344118,0.603207,0.238898,-0.927066,0.422572,-0.248766,-0.00862072,
0.283382,-0.217312,-0.0476154,-1.74495,0.0707509,-0.193223,-0.382726,0.584243,-0.00210876,0.656531,-0.182605,0.489807,0.0148946,0.0137279,0,0,0,0,0,0,0,0.295127,-0.216581,-0.0335116,-1.7473,0.0791787,1.37817,0.402561,0.51986,0.0261078,0.616643,-0.10942,0.427949,0.0122865,-0.000406575,0.0313145,-27.3811,0.0366345,25.3085,1.99188,1.79986,-0.00996382,-1.23306,0.387431,-2.04427,-0.190078,0.203355,0.305732,0.344118,0.603207,0.238898,-0.927066,0.422572,-0.248766,-0.00862072,
0.302188,-0.216522,-0.0255416,-1.74942,0.0856139,-0.192396,-0.382685,0.609666,0.00467899,0.688835,-0.188654,0.59026,0.00780516,0.0120992,0,0,0,0,0,0,0,0.311352,-0.215785,-0.0141579,-1.75068,0.091149,1.37894,0.402566,0.497149,0.0252868,0.598924,-0.107274,0.391956,0.0204211,0.000954022,1.52698,-27.3573,1.06416,25.3601,2.24823,1.94543,-0.0163725,-1.36872,-0.118451,-2.3722,0.107557,0.225665,0.107613,0.18009,0.626399,-0.0151907,-1.03499,0.387271,-0.254138,-0.00856987,
0.304689,-0.216491,-0.022711,-1.75019,0.0881798,-0.19241,-0.382639,0.625399,0.00788125,0.707655,-0.192435,0.641458,-0.00347649,0.0112587,0,0,0,0,0,0,0,0.311352,-0.215785,-0.0141579,-1.75068,0.091149,1.37894,0.402566,0.497149,0.0252868,0.598924,-0.107274,0.391956,0.0204211,0.000954022,1.52698,-27.3573,1.06416,25.3601,2.24823,1.94543,-0.0163725,-1.36872,-0.118451,-2.3722,0.107557,0.225665,0.107613,0.18009,0.626399,-0.0151907,-1.03499,0.387271,-0.254138,-0.00856987,
0.307242,-0.216445,-0.0198194,-1.75096,0.0909383,-0.192456,-0.382597,0.638077,0.0114534,0.722878,-0.194281,0.689635,-0.0115603,0.0105074,0,0,0,0,0,0,0,0.311352,-0.215785,-0.0141579,-1.75068,0.091149,1.37894,0.402566,0.497149,0.0252868,0.598924,-0.107274,0.391956,0.0204211,0.000954022,1.52698,-27.3573,1.06416,25.3601,2.24823,1.94543,-0.0163725,-1.03386,-0.982576,-2.36134,0.776736,0.546968,-0.340527,-0.289607,0.703079,-0.526677,-1.09397,0.441638,-0.302591,-0.00560583,
0.309834,-0.216385,-0.016879,-1.75175,0.0938755,-0.192521,-0.382558,0.648217,0.0149253,0.735119,-0.195131,0.734302,-0.0163359,0.00983976,0,0,0,0,0,0,0,0.311352,-0.215785,-0.0141579,-1.75068,0.091149,1.37894,0.402566,0.497149,0.0252868,0.598924,-0.107274,0.391956,0.0204211,0.000954022,1.52698,-27.3573,1.06416,25.3601,2.24823,1.94543,-0.0163725,-1.03386,-0.982576,-2.36134,0.776736,0.546968,-0.340527,-0.289607,0.703079,-0.526677,-1.09397,0.441638,-0.302591,-0.00560583,
0.312459,-0.216313,-0.0138995,-1.75253,0.0969764,-0.192594,-0.382521,0.656236,0.0181287,0.744877,-0.195356,0.775213,-0.0181642,0.00924548,0,0,0,0,0,0,0,0.311352,-0.215785,-0.0141579,-1.75068,0.091149,1.37894,0.402566,0.497149,0.0252868,0.598924,-0.107274,0.391956,0.0204211,0.000954022,1.52698,-27.3573,1.06416,25.3601,2.24823,1.94543,-0.0163725,-1.50805,0.878192,-2.42854,-0.491112,0.275587,0.56098,0.569577,0.800511,0.528473,-1.13873,0.62391,-0.321647,-0.00915111,
0.315109,-0.216229,-0.0108893,-1.75331,0.100226,-0.192664,-0.382486,0.662466,0.0210089,0.752551,-0.195126,0.812316,-0.0175078,0.00871659,0,0,0,0,0,0,0,0.327663,-0.214893,0.00518051,-1.75373,0.103837,1.37999,0.402567,0.500679,0.0254328,0.601406,-0.0956259,0.380066,0.0410922,0.000472485,0.94379,-27.1828,0.211195,25.1578,1.62567,2.03881,-0.0227812,-1.50805,0.878192,-2.42854,-0.491112,0.275587,0.56098,0.569577,0.800511,0.528473,-1.13873,0.62391,-0.321647,-0.00915111,
0.299749,-0.216541,-0.0282969,-1.74866,0.0832529,-0.192427,-0.382733,0.59019,0.00314903,0.665697,-0.180396,0.53676,0.0206278,0.0129812,0,0,0,0,0,0,0,0.327663,-0.214893,0.00518051,-1.75373,0.103837,1.37999,0.402567,0.500679,0.0254328,0.601406,-0.0956259,0.380066,0.0410922,0.000472485,0.94379,-27.1828,0.211195,25.1578,1.62567,2.03881,-0.0227812,-1.34266,-0.425698,-2.12517,0.359142,0.171098,-0.0219378,0.017837,0.51355,-0.141332,-0.939646,0.430369,-0.253198,-0.00761616,
0.334518,-0.214841,0.0129642,-1.75574,0.109857,-0.190157,-0.382678,0.593101,0.00442063,0.673922,-0.181083,0.560132,0.0436558,0.0121216,0,0,0,0,0,0,0,0.327663,-0.214893,0.00518051,-1.75373,0.103837,1.37999,0.402567,0.500679,0.0254328,0.601406,-0.0956259,0.380066,0.0410922,0.000472485,0.94379,-27.1828,0.211195,25.1578,1.62567,2.03881,-0.0227812,-1.18551,0.194749,-2.31563,-0.103627,0.344977,0.235831,0.294883,0.711081,0.136456,-1.01582,0.465463,-0.226744,-0.0111726,
0.336956,-0.214809,0.0157378,-1.75648,0.112314,-0.190028,-0.382633,0.609474,0.00790083,0.693417,-0.185446,0.614409,0.0322474,0.0112594,0,0,0,0,0,0,0,0.327663,-0.214893,0.00518051,-1.75373,0.103837,1.37999,0.402567,0.500679,0.0254328,0.601406,-0.0956259,0.380066,0.0410922,0.000472485,0.94379,-27.1828,0.211195,25.1578,1.62567,2.03881,-0.0227812,-1.18551,0.194749,-2.31563,-0.103627,0.344977,0.235831,0.294883,0.711081,0.136456,-1.01582,0.465463,-0.226744,-0.0111726,
0.339447,-0.214763,0.018575,-1.75723,0.114975,-0.189933,-0.382591,0.622753,0.0116523,0.709279,-0.187713,0.665059,0.023636,0.0104832,0,0,0,0,0,0,0,0.327663,-0.214893,0.00518051,-1.75373,0.103837,1.37999,0.402567,0.500679,0.0254328,0.601406,-0.0956259,0.380066,0.0410922,0.000472485,0.94379,-27.1828,0.211195,25.1578,1.62567,2.03881,-0.0227812,-0.874375,0.528165,-2.75261,-0.322853,0.863045,0.314244,0.359466,1.13682,0.216083,-1.2964,0.613129,-0.300437,-0.0100783,
0.341981,-0.214702,0.0214634,-1.75799,0.117822,-0.189861,-0.382552,0.633446,0.0152132,0.722105,-0.18889,0.711767,0.0180892,0.00979438,0,0,0,0,0,0,0,0.327663,-0.214893,0.00518051,-1.75373,0.103837,1.37999,0.402567,0.500679,0.0254328,0.601406,-0.0956259,0.380066,0.0410922,0.000472485,0.94379,-27.1828,0.211195,25.1578,1.62567,2.03881,-0.0227812,-0.874375,0.528165,-2.75261,-0.322853,0.863045,0.314244,0.359466,1.13682,0.216083,-1.2964,0.613129,-0.300437,-0.0100783,
0.344549,-0.214628,0.0243932,-1.75875,0.120835,-0.1898,-0.382515,0.642055,0.0184306,0.732447,-0.189344,0.753439,0.0153381,0.00919294,0,0,0,0,0,0,0,0.348774,-0.213927,0.0303615,-1.75788,0.12128,1.38207,0.402566,0.483638,0.0241577,0.605792,-0.097566,0.386923,0.0623178,-0.000484527,0.717655,-27.282,-0.185533,24.6103,1.14318,2.11846,-0.0163725,-1.40035,0.919361,-2.81065,-0.594133,0.537658,0.576448,0.595707,1.04229,0.53231,-1.31139,0.683412,-0.330253,-0.00974344,
0.347148,-0.214543,0.0273579,-1.7595,0.123961,-0.18974,-0.38248,0.649891,0.0212462,0.741185,-0.188894,0.781287,0.0148737,0.00864386,0,0,0,0,0,0,0,0.348774,-0.213927,0.0303615,-1.75788,0.12128,1.38207,0.402566,0.483638,0.0241577,0.605792,-0.097566,0.386923,0.0623178,-0.000484527,0.717655,-27.282,-0.185533,24.6103,1.14318,2.11846,-0.0163725,-1.25115,-0.747513,-2.40181,0.501401,0.332089,-0.150353,-0.100333,0.615746,-0.293909,-1.03581,0.425351,-0.237811,-0.00935411,
0.334518,-0.214841,0.0129642,-1.75574,0.109856,-0.190157,-0.382678,0.593107,0.00441889,0.673928,-0.181085,0.560037,0.0436884,0.0121211,0,0,0,0,0,0,0,0.348774,-0.213927,0.0303615,-1.75788,0.12128,1.38207,0.402566,0.483638,0.0241577,0.605792,-0.097566,0.386923,0.0623178,-0.000484527,0.717655,-27.282,-0.185533,24.6103,1.14318,2.11846,-0.0163725,-1.25115,-0.747513,-2.40181,0.501401,0.332089,-0.150353,-0.100333,0.615746,-0.293909,-1.03581,0.425351,-0.237811,-0.00935411,
0.355534,-0.213854,0.0380738,-1.75986,0.127355,-0.187819,-0.382682,0.584851,0.00656172,0.667252,-0.176977,0.56411,0.0665962,0.0118293,0,0,0,0,0,0,0,0.348774,-0.213927,0.0303615,-1.75788,0.12128,1.38207,0.402566,0.483638,0.0241577,0.605792,-0.097566,0.386923,0.0623178,-0.000484527,0.717655,-27.282,-0.185533,24.6103,1.14318,2.11846,-0.0163725,-1.20969,-0.317725,-2.13814,0.225083,0.245141,0.0423964,0.103525,0.565455,-0.0819869,-0.924316,0.436054,-0.212554,-0.0108114,
0.357937,-0.213814,0.0408191,-1.76058,0.129825,-0.187594,-0.382638,0.600883,0.00998283,0.686335,-0.181153,0.617491,0.0562249,0.0109799,0,0,0,0,0,0,0,0.348774,-0.213927,0.0303615,-1.75788,0.12128,1.38207,0.402566,0.483638,0.0241577,0.605792,-0.097566,0.386923,0.0623178,-0.000484527,0.717655,-27.282,-0.185533,24.6103,1.14318,2.11846,-0.0163725,-1.20969,-0.317725,-2.13814,0.225083,0.245141,0.0423964,0.103525,0.565455,-0.0819869,-0.924316,0.436054,-0.212554,-0.0108114,
0.360393,-0.21376,0.0436268,-1.76132,0.13249,-0.187401,-0.382597,0.613982,0.0135646,0.701918,-0.1833,0.666226,0.0483056,0.0102257,0,0,0,0,0,0,0,0.364388,-0.213354,0.0490327,-1.76137,0.134595,1.38425,0.402572,0.491164,0.0185585,0.5804,-0.113299,0.388621,0.0893148,0.00115611,-0.29797,-27.0836,-1.0385,25.0348,1.85821,1.83922,-0.0301054,-1.39645,0.313161,-2.0711,-0.125555,0.181221,0.342195,0.378319,0.611921,0.259775,-0.945241,0.596135,-0.257943,-0.0113269,
0.362895,-0.213692,0.046487,-1.76205,0.135295,-0.187228,-0.382559,0.625606,0.016894,0.715055,-0.183966,0.701264,0.0430209,0.00954317,0,0,0,0,0,0,0,0.364388,-0.213354,0.0490327,-1.76137,0.134595,1.38425,0.402572,0.491164,0.0185585,0.5804,-0.113299,0.388621,0.0893148,0.00115611,-0.29797,-27.0836,-1.0385,25.0348,1.85821,1.83922,-0.0301054,-1.93888,1.70716,-2.71648,-1.17778,0.125558,1.04568,1.06057,0.939561,1.07136,-1.25126,0.756333,-0.330081,-0.0121909,
0.365438,-0.213613,0.0493922,-1.76279,0.138189,-0.187067,-0.382523,0.635573,0.0197594,0.726314,-0.183782,0.723526,0.0402594,0.00892467,0,0,0,0,0,0,0,0.364388,-0.213354,0.0490327,-1.76137,0.134595,1.38425,0.402572,0.491164,0.0185585,0.5804,-0.113299,0.388621,0.0893148,0.00115611,-0.29797,-27.0836,-1.0385,25.0348,1.85821,1.83922,-0.0301054,-1.93888,1.70716,-2.71648,-1.17778,0.125558,1.04568,1.06057,0.939561,1.07136,-1.25126,0.756333,-0.330081,-0.0121909,
0.370612,-0.213429,0.0553098,-1.76425,0.144089,-0.18673,-0.382458,0.649576,0.0240188,0.743216,-0.182504,0.747081,0.0415802,0.00790319,0,0,0,0,0,0,0,0.364388,-0.213354,0.0490327,-1.76137,0.134595,1.38425,0.402572,0.491164,0.0185585,0.5804,-0.113299,0.388621,0.0893148,0.00115611,-0.29797,-27.0836,-1.0385,25.0348,1.85821,1.83922,-0.0301054,-0.712727,-0.670944,-2.57829,0.320375,0.792685,-0.196011,-0.159177,0.92376,-0.321019,-1.16268,0.402036,-0.243189,-0.00712204,
0.355534,-0.213854,0.0380743,-1.75986,0.127346,-0.187816,-0.382682,0.584925,0.00654378,0.667317,-0.176983,0.563042,0.0669129,0.0118241,0,0,0,0,0,0,0,0.364388,-0.213354,0.0490327,-1.76137,0.134595,1.38425,0.402572,0.491164,0.0185585,0.5804,-0.113299,0.388621,0.0893148,0.00115611,-0.29797,-27.0836,-1.0385,25.0348,1.85821,1.83922,-0.0301054,-0.712727,-0.670944,-2.57829,0.320375,0.792685,-0.196011,-0.159177,0.92376,-0.321019,-1.16268,0.402036,-0.243189,-0.00712204,
0.371026,-0.213262,0.0566242,-1.76334,0.140668,-0.185423,-0.382679,0.574541,0.00906064,0.6576,-0.174558,0.56187,0.0844939,0.0116467,0,0,0,0,0,0,0,0.364388,-0.213354,0.0490327,-1.76137,0.134595,1.38425,0.402572,0.491164,0.0185585,0.5804,-0.113299,0.388621,0.0893148,0.00115611,-0.29797,-27.0836,-1.0385,25.0348,1.85821,1.83922,-0.0301054,-0.864719,-0.369952,-2.46038,0.0975255,0.579998,-0.0246256,0.0209012,0.816477,-0.124973,-1.06642,0.375579,-0.198627,-0.00888365,
0.373393,-0.213212,0.0593334,-1.76405,0.143082,-0.185122,-0.382636,0.591745,0.0124469,0.677304,-0.177562,0.603515,0.0751794,0.0107882,0,0,0,0,0,0,0,0.380221,-0.212824,0.0683144,-1.7649,0.148013,1.38717,0.402571,0.495422,0.0125241,0.601852,-0.106872,0.443126,0.0913913,0.000576792,1.01917,-26.7107,-0.0387439,25.5585,2.78015,1.83922,-0.0227812,-0.864719,-0.369952,-2.46038,0.0975255,0.579998,-0.0246256,0.0209012,0.816477,-0.124973,-1.06642,0.375579,-0.198627,-0.00888365,
0.375818,-0.213149,0.0621096,-1.76477,0.145614,-0.184849,-0.382596,0.606395,0.015712,0.694042,-0.178749,0.632917,0.0681609,0.0100065,0,0,0,0,0,0,0,0.380221,-0.212824,0.0683144,-1.7649,0.148013,1.38717,0.402571,0.495422,0.0125241,0.601852,-0.106872,0.443126,0.0913913,0.000576792,1.01917,-26.7107,-0.0387439,25.5585,2.78015,1.83922,-0.0227812,-0.142531,-0.302525,-2.57676,0.082525,1.24027,-0.164641,-0.119003,1.20123,-0.297789,-1.21473,0.474904,-0.23324,-0.00665868,
0.378292,-0.213075,0.0649416,-1.76548,0.148233,-0.184595,-0.382559,0.618347,0.0185485,0.708016,-0.179144,0.654709,0.0636558,0.00930209,0,0,0,0,0,0,0,0.380221,-0.212824,0.0683144,-1.7649,0.148013,1.38717,0.402571,0.495422,0.0125241,0.601852,-0.106872,0.443126,0.0913913,0.000576792,1.01917,-26.7107,-0.0387439,25.5585,2.78015,1.83922,-0.0227812,-1.37415,1.48994,-2.61582,-1.07843,0.461879,0.848688,0.87578,1.07239,0.846999,-1.2125,0.719778,-0.279031,-0.00907129,
0.380802,-0.212992,0.067819,-1.7662,0.150924,-0.184349,-0.382524,0.62765,0.020924,0.719349,-0.179176,0.67291,0.0614435,0.00872288,0,0,0,0,0,0,0,0.380221,-0.212824,0.0683144,-1.7649,0.148013,1.38717,0.402571,0.495422,0.0125241,0.601852,-0.106872,0.443126,0.0913913,0.000576792,1.01917,-26.7107,-0.0387439,25.5585,2.78015,1.83922,-0.0227812,-1.37415,1.48994,-2.61582,-1.07843,0.461879,0.848688,0.87578,1.07239,0.846999,-1.2125,0.719778,-0.279031,-0.00907129,
0.383344,-0.2129,0.0707332,-1.76692,0.153656,-0.184104,-0.382491,0.635418,0.0229131,0.728555,-0.178628,0.682882,0.0610745,0.00821112,0,0,0,0,0,0,0,0.380221,-0.212824,0.0683144,-1.7649,0.148013,1.38717,0.402571,0.495422,0.0125241,0.601852,-0.106872,0.443126,0.0913913,0.000576792,1.01917,-26.7107,-0.0387439,25.5585,2.78015,1.83922,-0.0227812,-1.54468,0.387231,-2.18422,-0.32069,0.0838945,0.451047,0.487291,0.626758,0.399356,-0.96833,0.555777,-0.243001,-0.00980043,
0.371034,-0.213264,0.0566296,-1.76334,0.140574,-0.185397,-0.38268,0.575289,0.00888801,0.658244,-0.174577,0.551008,0.0873764,0.0115945,0,0,0,0,0,0,0,0.395753,-0.212138,0.0868466,-1.76804,0.160122,1.39028,0.40257,0.501806,0.0239679,0.608258,-0.100854,0.402889,0.0941019,0.000175751,0.285221,-26.9606,-0.836168,25.5823,1.60736,2.11114,-0.00996382,-1.54468,0.387231,-2.18422,-0.32069,0.0838945,0.451047,0.487291,0.626758,0.399356,-0.96833,0.555777,-0.243001,-0.00980043,
0.402507,-0.21202,0.0946103,-1.76994,0.166216,-0.179165,-0.382692,0.582598,0.0107076,0.669147,-0.169272,0.546173,0.107573,0.0107621,0,0,0,0,0,0,0,0.395753,-0.212138,0.0868466,-1.76804,0.160122,1.39028,0.40257,0.501806,0.0239679,0.608258,-0.100854,0.402889,0.0941019,0.000175751,0.285221,-26.9606,-0.836168,25.5823,1.60736,2.11114,-0.00996382,-0.146428,-0.821636,-1.75254,0.505663,0.809125,-0.356965,-0.302992,0.700579,-0.50994,-0.796823,0.344128,-0.144956,-0.00799192,
0.404898,-0.211965,0.0973581,-1.77063,0.168505,-0.178764,-0.382653,0.597819,0.0136401,0.686939,-0.172352,0.572267,0.100273,0.00998948,0,0,0,0,0,0,0,0.395753,-0.212138,0.0868466,-1.76804,0.160122,1.39028,0.40257,0.501806,0.0239679,0.608258,-0.100854,0.402889,0.0941019,0.000175751,0.285221,-26.9606,-0.836168,25.5823,1.60736,2.11114,-0.00996382,0.153163,0.200078,-1.86632,-0.185192,1.12643,-0.018251,0.018686,1.03573,-0.115146,-0.897092,0.46675,-0.149578,-0.0100672,
0.407338,-0.2119,0.100164,-1.77133,0.170884,-0.178385,-0.382615,0.609896,0.016458,0.701499,-0.173916,0.594783,0.0946086,0.0093285,0,0,0,0,0,0,0,0.395753,-0.212138,0.0868466,-1.76804,0.160122,1.39028,0.40257,0.501806,0.0239679,0.608258,-0.100854,0.402889,0.0941019,0.000175751,0.285221,-26.9606,-0.836168,25.5823,1.60736,2.11114,-0.00996382,0.153163,0.200078,-1.86632,-0.185192,1.12643,-0.018251,0.018686,1.03573,-0.115146,-0.897092,0.46675,-0.149578,-0.0100672,
0.409818,-0.211824,0.103018,-1.77203,0.17332,-0.178022,-0.38258,0.620014,0.0189533,0.713426,-0.174383,0.609045,0.0908018,0.00874269,0,0,0,0,0,0,0,0.395753,-0.212138,0.0868466,-1.76804,0.160122,1.39028,0.40257,0.501806,0.0239679,0.608258,-0.100854,0.402889,0.0941019,0.000175751,0.285221,-26.9606,-0.836168,25.5823,1.60736,2.11114,-0.00996382,-1.42098,0.352891,-1.82459,-0.202681,0.104884,0.417449,0.438373,0.564518,0.358834,-0.855696,0.640016,-0.253497,-0.00918268,
0.412331,-0.21174,0.10591,-1.77272,0.175788,-0.177667,-0.382547,0.628131,0.0210074,0.723136,-0.174264,0.616956,0.0888409,0.00820032,0,0,0,0,0,0,0,0.411731,-0.211367,0.106078,-1.77107,0.17249,1.39333,0.402573,0.486417,0.0345217,0.590422,-0.0824539,0.345893,0.109101,0.00128735,0.412174,-27.4327,-0.911547,25.4315,1.28326,2.18438,-0.0301054,-1.42098,0.352891,-1.82459,-0.202681,0.104884,0.417449,0.438373,0.564518,0.358834,-0.855696,0.640016,-0.253497,-0.00918268,
0.402573,-0.21203,0.0946558,-1.76993,0.165398,-0.179041,-0.382697,0.58887,0.0094906,0.674493,-0.168233,0.452016,0.121946,0.0103229,0,0,0,0,0,0,0,0.411731,-0.211367,0.106078,-1.77107,0.17249,1.39333,0.402573,0.486417,0.0345217,0.590422,-0.0824539,0.345893,0.109101,0.00128735,0.412174,-27.4327,-0.911547,25.4315,1.28326,2.18438,-0.0301054,-1.87487,-0.246032,-1.76155,0.149444,-0.304707,0.314944,0.375704,0.266486,0.216424,-0.778122,0.528028,-0.254313,-0.00832633,
0.41838,-0.21121,0.113714,-1.77287,0.176904,-0.175675,-0.382695,0.574974,0.0120399,0.661024,-0.162731,0.37799,0.149397,0.0103461,0,0,0,0,0,0,0,0.411731,-0.211367,0.106078,-1.77107,0.17249,1.39333,0.402573,0.486417,0.0345217,0.590422,-0.0824539,0.345893,0.109101,0.00128735,0.412174,-27.4327,-0.911547,25.4315,1.28326,2.18438,-0.0301054,-1.87487,-0.246032,-1.76155,0.149444,-0.304707,0.314944,0.375704,0.266486,0.216424,-0.778122,0.528028,-0.254313,-0.00832633,
0.420743,-0.211154,0.116433,-1.77354,0.178442,-0.175097,-0.382657,0.590694,0.0140595,0.679893,-0.166413,0.384428,0.144487,0.00962426,0,0,0,0,0,0,0,0.411731,-0.211367,0.106078,-1.77107,0.17249,1.39333,0.402573,0.486417,0.0345217,0.590422,-0.0824539,0.345893,0.109101,0.00128735,0.412174,-27.4327,-0.911547,25.4315,1.28326,2.18438,-0.0301054,-1.47788,0.00835893,-1.78053,-0.0906027,-0.0831148,0.335125,0.408683,0.410948,0.24681,-0.774349,0.455721,-0.204128,-0.0101311,
0.423156,-0.211089,0.119214,-1.77421,0.179994,-0.174537,-0.382621,0.603324,0.0162376,0.695154,-0.168104,0.387899,0.140072,0.0089487,0,0,0,0,0,0,0,0.411731,-0.211367,0.106078,-1.77107,0.17249,1.39333,0.402573,0.486417,0.0345217,0.590422,-0.0824539,0.345893,0.109101,0.00128735,0.412174,-27.4327,-0.911547,25.4315,1.28326,2.18438,-0.0301054,-0.397111,0.24019,-2.25109,-0.375162,0.910848,0.137573,0.17238,1.0728,0.0711242,-1.07571,0.48058,-0.22478,-0.00699924,
0.425608,-0.211016,0.122043,-1.77489,0.181558,-0.173989,-0.382588,0.613038,0.0181658,0.707224,-0.168954,0.391025,0.136942,0.00831274,0,0,0,0,0,0,0,0.411731,-0.211367,0.106078,-1.77107,0.17249,1.39333,0.402573,0.486417,0.0345217,0.590422,-0.0824539,0.345893,0.109101,0.00128735,0.412174,-27.4327,-0.911547,25.4315,1.28326,2.18438,-0.0301054,-0.397111,0.24019,-2.25109,-0.375162,0.910848,0.137573,0.17238,1.0728,0.0711242,-1.07571,0.48058,-0.22478,-0.00699924,
0.428089,-0.210937,0.124909,-1.77556,0.183134,-0.173448,-0.382556,0.620287,0.0197772,0.716557,-0.169309,0.394044,0.13522,0.00781842,0,0,0,0,0,0,0,0.427108,-0.210454,0.124799,-1.77366,0.183906,1.3966,0.402573,0.504329,0.0283858,0.595213,-0.0765455,0.321618,0.116638,0.000431589,-1.59131,-27.2066,-2.83568,25.4593,1.32629,2.09832,-0.0365141,-1.37428,0.37295,-2.46603,-0.497227,0.338929,0.442332,0.438218,0.879697,0.438044,-1.13782,0.566182,-0.283316,-0.00756912,
0.418602,-0.211233,0.113865,-1.77281,0.173994,-0.175425,-0.382712,0.595699,0.0086124,0.678619,-0.15702,0.0463397,0.178367,0.00895428,0,0,0,0,0,0,0,0.427108,-0.210454,0.124799,-1.77366,0.183906,1.3966,0.402573,0.504329,0.0283858,0.595213,-0.0765455,0.321618,0.116638,0.000431589,-1.59131,-27.2066,-2.83568,25.4593,1.32629,2.09832,-0.0365141,-1.37428,0.37295,-2.46603,-0.497227,0.338929,0.442332,0.438218,0.879697,0.438044,-1.13782,0.566182,-0.283316,-0.00756912,
0.434015,-0.210373,0.132651,-1.77532,0.185176,-0.172018,-0.382713,0.596647,0.00484695,0.681675,-0.150523,0.0228272,0.191339,0.00883284,0,0,0,0,0,0,0,0.427108,-0.210454,0.124799,-1.77366,0.183906,1.3966,0.402573,0.504329,0.0283858,0.595213,-0.0765455,0.321618,0.116638,0.000431589,-1.59131,-27.2066,-2.83568,25.4593,1.32629,2.09832,-0.0365141,-1.72322,-0.506982,-2.22772,0.117465,-0.0716396,0.210859,0.244923,0.477919,0.142974,-0.971933,0.457161,-0.260098,-0.00616167,
0.436456,-0.210349,0.135452,-1.77594,0.18504,-0.171248,-0.382681,0.610269,0.00605032,0.700119,-0.155167,-0.0340063,0.192541,0.00817664,0,0,0,0,0,0,0,0.427108,-0.210454,0.124799,-1.77366,0.183906,1.3966,0.402573,0.504329,0.0283858,0.595213,-0.0765455,0.321618,0.116638,0.000431589,-1.59131,-27.2066,-2.83568,25.4593,1.32629,2.09832,-0.0365141,-0.913392,0.0606998,-2.52433,-0.408643,0.568972,0.22642,0.290793,0.957515,0.161466,-1.13426,0.405178,-0.22613,-0.0066105,
0.438935,-0.210318,0.138306,-1.77658,0.184735,-0.17048,-0.38265,0.619803,0.00769924,0.713494,-0.158042,-0.076146,0.191919,0.00767774,0,0,0,0,0,0,0,0.427108,-0.210454,0.124799,-1.77366,0.183906,1.3966,0.402573,0.504329,0.0283858,0.595213,-0.0765455,0.321618,0.116638,0.000431589,-1.59131,-27.2066,-2.83568,25.4593,1.32629,2.09832,-0.0365141,-0.913392,0.0606998,-2.52433,-0.408643,0.568972,0.22642,0.290793,0.957515,0.161466,-1.13426,0.405178,-0.22613,-0.0066105,
0.441442,-0.21028,0.141198,-1.77721,0.184287,-0.169717,-0.382621,0.626729,0.00944119,0.723114,-0.159669,-0.1119,0.1907,0.00725012,0,0,0,0,0,0,0,0.448174,-0.209175,0.150265,-1.77658,0.192696,1.40204,0.402573,0.527784,0.0264266,0.615593,-0.0612123,0.0387602,0.140415,-0.00258032,-1.21045,-27.5081,-2.61351,25.6061,1.11847,2.05163,-0.0301054,-1.19905,1.08182,-2.72883,-1.15711,0.495026,0.698173,0.738116,1.15279,0.717318,-1.24898,0.511337,-0.260275,-0.00704716,
0.443967,-0.210236,0.144118,-1.77786,0.18372,-0.168959,-0.382593,0.631242,0.0110381,0.729837,-0.160661,-0.141798,0.18961,0.00687691,0,0,0,0,0,0,0,0.448174,-0.209175,0.150265,-1.77658,0.192696,1.40204,0.402573,0.527784,0.0264266,0.615593,-0.0612123,0.0387602,0.140415,-0.00258032,-1.21045,-27.5081,-2.61351,25.6061,1.11847,2.05163,-0.0301054,-1.19905,1.08182,-2.72883,-1.15711,0.495026,0.698173,0.738116,1.15279,0.717318,-1.24898,0.511337,-0.260275,-0.00704716,
0.434193,-0.210505,0.13272,-1.77535,0.18033,-0.170908,-0.382724,0.607353,-0.00943845,0.688433,-0.152815,-0.521473,0.308354,0.00835413,0,0,0,0,0,0,0,0.448174,-0.209175,0.150265,-1.77658,0.192696,1.40204,0.402573,0.527784,0.0264266,0.615593,-0.0612123,0.0387602,0.140415,-0.00258032,-1.21045,-27.5081,-2.61351,25.6061,1.11847,2.05163,-0.0301054,-0.618635,-1.40223,-2.4483,0.516781,0.7211,-0.403983,-0.377458,0.812741,-0.511438,-1.13287,0.272776,-0.266782,-0.00107072,
0.455181,-0.209263,0.158225,-1.77822,0.187811,-0.165475,-0.382721,0.593751,-0.0123321,0.682271,-0.15179,-0.553581,0.303924,0.0086435,0,0,0,0,0,0,0,0.448174,-0.209175,0.150265,-1.77658,0.192696,1.40204,0.402573,0.527784,0.0264266,0.615593,-0.0612123,0.0387602,0.140415,-0.00258032,-1.21045,-27.5081,-2.61351,25.6061,1.11847,2.05163,-0.0301054,-0.618635,-1.40223,-2.4483,0.516781,0.7211,-0.403983,-0.377458,0.812741,-0.511438,-1.13287,0.272776,-0.266782,-0.00107072,
0.457569,-0.209312,0.160988,-1.77885,0.185242,-0.164214,-0.382688,0.596969,-0.0122248,0.690759,-0.157825,-0.642269,0.315253,0.00834228,0,0,0,0,0,0,0,0.448174,-0.209175,0.150265,-1.77658,0.192696,1.40204,0.402573,0.527784,0.0264266,0.615593,-0.0612123,0.0387602,0.140415,-0.00258032,-1.21045,-27.5081,-2.61351,25.6061,1.11847,2.05163,-0.0301054,-2.39208,-0.974534,-2.06638,0.237755,-0.802097,0.316705,0.362761,0.0354262,0.286778,-0.822248,0.191047,-0.245989,-0.00658829,
0.459958,-0.209356,0.163767,-1.77949,0.182423,-0.16293,-0.382656,0.597178,-0.0109595,0.694555,-0.161423,-0.704624,0.320806,0.00803335,0,0,0,0,0,0,0,0.448174,-0.209175,0.150265,-1.77658,0.192696,1.40204,0.402573,0.527784,0.0264266,0.615593,-0.0612123,0.0387602,0.140415,-0.00258032,-1.21045,-27.5081,-2.61351,25.6061,1.11847,2.05163,-0.0301054,-1.15321,0.0958113,-2.57938,-0.764857,0.188506,0.380717,0.4256,0.842533,0.415487,-1.12488,0.0863406,-0.223637,-0.00700294,
0.462339,-0.209393,0.166547,-1.78015,0.179429,-0.161637,-0.382624,0.595355,-0.0092324,0.695178,-0.163708,-0.748601,0.323229,0.00791874,0,0,0,0,0,0,0,0.46534,-0.208287,0.170855,-1.77855,0.191449,1.40758,0.40257,0.517382,0.0131522,0.605155,-0.0680272,-0.137997,0.192709,0.000417025,-1.18664,-27.2066,-2.61351,25.6339,0.422665,2.21734,-0.00996382,-1.15321,0.0958113,-2.57938,-0.764857,0.188506,0.380717,0.4256,0.842533,0.415487,-1.12488,0.0863406,-0.223637,-0.00700294,
0.464708,-0.209422,0.169322,-1.78081,0.17631,-0.160342,-0.382594,0.59218,-0.00735749,0.693668,-0.165157,-0.779752,0.323909,0.00754172,0,0,0,0,0,0,0,0.46534,-0.208287,0.170855,-1.77855,0.191449,1.40758,0.40257,0.517382,0.0131522,0.605155,-0.0680272,-0.137997,0.192709,0.000417025,-1.18664,-27.2066,-2.61351,25.6339,0.422665,2.21734,-0.00996382,-1.19441,0.869919,-3.07279,-1.52081,0.293929,0.694039,0.717835,1.17653,0.819157,-1.35821,0.0487934,-0.251993,-0.00582366,
0.46706,-0.209444,0.172085,-1.78147,0.173102,-0.159047,-0.382564,0.58812,-0.0054901,0.690739,-0.166008,-0.801897,0.323619,0.00749674,0,0,0,0,0,0,0,0.46534,-0.208287,0.170855,-1.77855,0.191449,1.40758,0.40257,0.517382,0.0131522,0.605155,-0.0680272,-0.137997,0.192709,0.000417025,-1.18664,-27.2066,-2.61351,25.6339,0.422665,2.21734,-0.00996382,-1.19441,0.869919,-3.07279,-1.52081,0.293929,0.694039,0.717835,1.17653,0.819157,-1.35821,0.0487934,-0.251993,-0.00582366,
