PerkyPenguin/Analysis-on-Approximated-Derivatives/Code_and_Data/PaperData/Real_Robot/Scene_2/set_interval/5/trajectory.csv
Commanded Joint 0 Position,Commanded Joint 1 Position,Commanded Joint 2 Position,Commanded Joint 3 Position,Commanded Joint 4 Position,Commanded Joint 5 Position,Commanded Joint 6 Position,Commanded Joint 0 Velocity,Commanded Joint 1 Velocity,Commanded Joint 2 Velocity,Commanded Joint 3 Velocity,Commanded Joint 4 Velocity,Commanded Joint 5 Velocity,Commanded Joint 6 Velocity,Commanded Joint 0 Torque,Commanded Joint 1 Torque,Commanded Joint 2 Torque,Commanded Joint 3 Torque,Commanded Joint 4 Torque,Commanded Joint 5 Torque,Commanded Joint 6 Torque,Actual Joint 0 Position,Actual Joint 1 Position,Actual Joint 2 Position,Actual Joint 3 Position,Actual Joint 4 Position,Actual Joint 5 Position,Actual Joint 6 Position,Actual Joint 0 Velocity,Actual Joint 1 Velocity,Actual Joint 2 Velocity,Actual Joint 3 Velocity,Actual Joint 4 Velocity,Actual Joint 5 Velocity,Actual Joint 6 Velocity,Actual Joint 0 Torque,Actual Joint 1 Torque,Actual Joint 2 Torque,Actual Joint 3 Torque,Actual Joint 4 Torque,Actual Joint 5 Torque,Actual Joint 6 Torque,EE ext force 0,EE ext force 1,EE ext force 2,EE ext force 3,EE ext force 4,EE ext force 5,joint ext torque 0,joint ext torque 1,joint ext torque 2,joint ext torque 3,joint ext torque 4,joint ext torque 5,joint ext torque 6,
0.0203646,-0.0526379,0.513155,-1.56117,0.0392542,-0.0155421,0.53191,0.0103691,0.0300789,0.0145706,-0.143835,-0.0767947,0.200684,-0.00127612,0,0,0,0,0,0,0,0.0202824,-0.0527613,0.513052,-1.55974,0.039911,1.55327,1.31733,-0.00206104,0.00166599,-0.000141032,0.000408275,0.0178459,0.00136701,0.000746126,0.25745,-27.4327,-0.713182,26.9788,0.599362,3.03307,0.0641939,2.60124,2.13343,2.24908,-1.09385,1.4705,0.167878,0.154022,0.610926,0.200335,0.197928,0.170301,-0.310777,0.0843271,
0.0204199,-0.052436,0.51323,-1.56179,0.0388783,-0.0147048,0.531904,0.0138425,0.0504662,0.0188031,-0.154641,-0.09396,0.20932,-0.00135994,0,0,0,0,0,0,0,0.0202824,-0.0527613,0.513052,-1.55974,0.039911,1.55327,1.31733,-0.00206104,0.00166599,-0.000141032,0.000408275,0.0178459,0.00136701,0.000746126,0.25745,-27.4327,-0.713182,26.9788,0.599362,3.03307,0.0641939,2.60124,2.13343,2.24908,-1.09385,1.4705,0.167878,0.154022,0.610926,0.200335,0.197928,0.170301,-0.310777,0.0843271,
0.0202789,-0.0527433,0.513048,-1.55974,0.0400613,-0.0175061,0.53193,4.85658e-05,0.000811456,8.13934e-05,-2.26422e-05,0.00605562,0.000776487,1.43738e-05,0,0,0,0,0,0,0,0.0202824,-0.0527613,0.513052,-1.55974,0.039911,1.55327,1.31733,-0.00206104,0.00166599,-0.000141032,0.000408275,0.0178459,0.00136701,0.000746126,0.25745,-27.4327,-0.713182,26.9788,0.599362,3.03307,0.0641939,2.45573,2.11636,2.26046,-1.05934,1.36278,0.202473,0.185043,0.550992,0.236957,0.220809,0.190548,-0.307014,0.0835162,
0.0202794,-0.0527407,0.513049,-1.55974,0.0400801,-0.0175036,0.53193,0.000124108,0.000644805,0.000172262,-5.92824e-05,0.00470053,0.000615608,7.86931e-06,0,0,0,0,0,0,0,0.0202824,-0.0527613,0.513052,-1.55974,0.039911,1.55327,1.31733,-0.00206104,0.00166599,-0.000141032,0.000408275,0.0178459,0.00136701,0.000746126,0.25745,-27.4327,-0.713182,26.9788,0.599362,3.03307,0.0641939,2.45573,2.11636,2.26046,-1.05934,1.36278,0.202473,0.185043,0.550992,0.236957,0.220809,0.190548,-0.307014,0.0835162,
0.0202801,-0.0527387,0.51305,-1.55974,0.0400947,-0.0175018,0.53193,0.000167172,0.000502091,0.000226588,-7.74336e-05,0.00366721,0.00046574,3.63299e-06,0,0,0,0,0,0,0,0.0202966,-0.0528564,0.513056,-1.56009,0.0397912,1.55362,1.31733,0.000501845,-0.0117855,0.000202289,-0.0420782,-0.00475339,0.0522684,0.000482229,0.134464,-26.06,-0.685411,24.5865,0.880428,2.92687,0.0641939,2.39291,1.82924,2.32409,-0.821113,1.24926,0.088916,0.0714162,0.455663,0.116215,0.302269,0.173223,-0.267976,0.0829077,
0.0202808,-0.0527372,0.513051,-1.55974,0.0401062,-0.0175004,0.53193,0.000188433,0.000380449,0.000256192,-8.31701e-05,0.00287313,0.000331216,9.24729e-07,0,0,0,0,0,0,0,0.0202966,-0.0528564,0.513056,-1.56009,0.0397912,1.55362,1.31733,0.000501845,-0.0117855,0.000202289,-0.0420782,-0.00475339,0.0522684,0.000482229,0.134464,-26.06,-0.685411,24.5865,0.880428,2.92687,0.0641939,2.39291,1.82924,2.32409,-0.821113,1.24926,0.088916,0.0714162,0.455663,0.116215,0.302269,0.173223,-0.267976,0.0829077,
0.0202816,-0.0527361,0.513052,-1.55974,0.0401153,-0.0174996,0.53193,0.000195303,0.000277065,0.00026931,-8.09125e-05,0.002258,0.000213705,-7.45574e-07,0,0,0,0,0,0,0,0.0202966,-0.0528564,0.513056,-1.56009,0.0397912,1.55362,1.31733,0.000501845,-0.0117855,0.000202289,-0.0420782,-0.00475339,0.0522684,0.000482229,0.134464,-26.06,-0.685411,24.5865,0.880428,2.92687,0.0641939,1.09186,1.28292,1.42741,-0.641733,0.621343,0.204729,0.181989,0.260903,0.237246,0.0853909,0.163769,-0.293709,0.0830758,
0.0202824,-0.0527353,0.513053,-1.55974,0.0401224,-0.0174991,0.53193,0.000192915,0.000189359,0.000271662,-7.37587e-05,0.00177753,0.000113151,-1.71455e-06,0,0,0,0,0,0,0,0.0202966,-0.0528564,0.513056,-1.56009,0.0397912,1.55362,1.31733,0.000501845,-0.0117855,0.000202289,-0.0420782,-0.00475339,0.0522684,0.000482229,0.134464,-26.06,-0.685411,24.5865,0.880428,2.92687,0.0641939,1.84794,1.98691,0.876452,-1.28303,1.38567,0.310876,0.285953,0.781585,0.36609,-0.200538,0.174899,-0.268974,0.0839615,
0.0202831,-0.0527349,0.513054,-1.55974,0.040128,-0.017499,0.53193,0.000184806,0.000115039,0.000267204,-6.38314e-05,0.00139906,2.84905e-05,-2.21513e-06,0,0,0,0,0,0,0,0.0202966,-0.0528564,0.513056,-1.56009,0.0397912,1.55362,1.31733,0.000501845,-0.0117855,0.000202289,-0.0420782,-0.00475339,0.0522684,0.000482229,0.134464,-26.06,-0.685411,24.5865,0.880428,2.92687,0.0641939,1.84794,1.98691,0.876452,-1.28303,1.38567,0.310876,0.285953,0.781585,0.36609,-0.200538,0.174899,-0.268974,0.0839615,
0.0202838,-0.0527347,0.513055,-1.55974,0.0401324,-0.0174992,0.53193,0.000173388,5.21025e-05,0.000258646,-5.25572e-05,0.00109838,-4.18561e-05,-2.40838e-06,0,0,0,0,0,0,0,0.0202966,-0.0528564,0.513056,-1.56009,0.0397912,1.55362,1.31733,0.000501845,-0.0117855,0.000202289,-0.0420782,-0.00475339,0.0522684,0.000482229,0.134464,-26.06,-0.685411,24.5865,0.880428,2.92687,0.0641939,2.74064,2.2675,1.04412,-1.46299,1.95135,0.185439,0.167411,1.05182,0.238443,-0.198576,0.143622,-0.232876,0.0847585,
0.0202844,-0.0527347,0.513056,-1.55974,0.0401358,-0.0174996,0.53193,0.000160287,-1.18226e-06,0.000247828,-4.08731e-05,0.000857467,-9.96692e-05,-2.40511e-06,0,0,0,0,0,0,0,0.0202911,-0.0528358,0.513049,-1.56036,0.0397201,1.554,1.31732,0.0042946,-0.000209534,0.00194103,-0.000569122,-0.013053,-0.000993522,-0.000658241,0.0313145,-27.4089,-0.713182,27.1533,1.40594,3.41759,0.0980684,2.71713,2.13358,1.62365,-1.17024,1.67653,0.13201,0.10509,0.779545,0.180905,0.0885652,0.171579,-0.172942,0.0844861,
0.020285,-0.0527349,0.513057,-1.55974,0.0401384,-0.0175002,0.53193,0.000146579,-4.63018e-05,0.000235981,-2.93766e-05,0.000662833,-0.000146735,-2.28104e-06,0,0,0,0,0,0,0,0.0202911,-0.0528358,0.513049,-1.56036,0.0397201,1.554,1.31732,0.0042946,-0.000209534,0.00194103,-0.000569122,-0.013053,-0.000993522,-0.000658241,0.0313145,-27.4089,-0.713182,27.1533,1.40594,3.41759,0.0980684,2.71713,2.13358,1.62365,-1.17024,1.67653,0.13201,0.10509,0.779545,0.180905,0.0885652,0.171579,-0.172942,0.0844861,
0.0202856,-0.0527352,0.513058,-1.55974,0.0401404,-0.0175009,0.53193,0.00013296,-8.45244e-05,0.000223908,-1.84314e-05,0.000504316,-0.000184735,-2.08732e-06,0,0,0,0,0,0,0,0.0202911,-0.0528358,0.513049,-1.56036,0.0397201,1.554,1.31732,0.0042946,-0.000209534,0.00194103,-0.000569122,-0.013053,-0.000993522,-0.000658241,0.0313145,-27.4089,-0.713182,27.1533,1.40594,3.41759,0.0980684,2.75457,2.3241,1.41293,-1.36907,1.79967,0.208136,0.167093,0.892613,0.277315,-0.0182608,0.176515,-0.188385,0.083985,
0.020286,-0.0527357,0.513059,-1.55974,0.0401419,-0.0175018,0.53193,0.000119863,-0.000116928,0.000212121,-8.24228e-06,0.000374221,-0.000215187,-1.85809e-06,0,0,0,0,0,0,0,0.0202911,-0.0528358,0.513049,-1.56036,0.0397201,1.554,1.31732,0.0042946,-0.000209534,0.00194103,-0.000569122,-0.013053,-0.000993522,-0.000658241,0.0313145,-27.4089,-0.713182,27.1533,1.40594,3.41759,0.0980684,2.75457,2.3241,1.41293,-1.36907,1.79967,0.208136,0.167093,0.892613,0.277315,-0.0182608,0.176515,-0.188385,0.083985,
0.0202865,-0.0527363,0.513059,-1.55974,0.040143,-0.0175027,0.53193,0.00010754,-0.000144425,0.000200929,1.09224e-06,0.000266676,-0.000239425,-1.61565e-06,0,0,0,0,0,0,0,0.0202911,-0.0528358,0.513049,-1.56036,0.0397201,1.554,1.31732,0.0042946,-0.000209534,0.00194103,-0.000569122,-0.013053,-0.000993522,-0.000658241,0.0313145,-27.4089,-0.713182,27.1533,1.40594,3.41759,0.0980684,2.17547,2.02943,1.3878,-1.17442,1.38889,0.23593,0.195439,0.672771,0.299719,0.0135933,0.166481,-0.215061,0.0849497,
0.0202868,-0.0527369,0.51306,-1.55974,0.0401437,-0.0175038,0.53193,9.61228e-05,-0.000167786,0.000190505,9.54343e-06,0.000177171,-0.000258598,-1.37419e-06,0,0,0,0,0,0,0,0.0202859,-0.05282,0.513052,-1.56033,0.0397737,1.55404,1.31732,0.00667819,-0.00172367,-6.68534e-05,-0.00481948,-0.00971106,-0.00609717,-0.0016039,0.134464,-27.5835,-0.713182,26.7764,0.960079,3.11913,0.110886,2.17547,2.02943,1.3878,-1.17442,1.38889,0.23593,0.195439,0.672771,0.299719,0.0135933,0.166481,-0.215061,0.0849497,
0.0202872,-0.0527377,0.513061,-1.55974,0.0401441,-0.0175049,0.53193,8.56628e-05,-0.000187662,0.00018093,1.71269e-05,0.000102218,-0.000273675,-1.14238e-06,0,0,0,0,0,0,0,0.0202859,-0.05282,0.513052,-1.56033,0.0397737,1.55404,1.31732,0.00667819,-0.00172367,-6.68534e-05,-0.00481948,-0.00971106,-0.00609717,-0.0016039,0.134464,-27.5835,-0.713182,26.7764,0.960079,3.11913,0.110886,2.10178,1.62506,1.84884,-0.768596,1.14227,0.0716521,0.0311708,0.445164,0.121762,0.221616,0.149004,-0.205493,0.0857963,
0.0202875,-0.0527385,0.513062,-1.55974,0.0401443,-0.017506,0.53193,7.61588e-05,-0.0002046,0.000172225,2.38853e-05,3.90947e-05,-0.000285467,-9.2515e-07,0,0,0,0,0,0,0,0.0202859,-0.05282,0.513052,-1.56033,0.0397737,1.55404,1.31732,0.00667819,-0.00172367,-6.68534e-05,-0.00481948,-0.00971106,-0.00609717,-0.0016039,0.134464,-27.5835,-0.713182,26.7764,0.960079,3.11913,0.110886,2.28577,1.95007,1.62502,-1.07084,1.3936,0.168746,0.119827,0.638869,0.236665,0.0802575,0.161325,-0.230963,0.0848836,
0.0202878,-0.0527394,0.513062,-1.55974,0.0401442,-0.0175072,0.53193,6.7577e-05,-0.00021906,0.000164371,2.98764e-05,-1.43372e-05,-0.000294644,-7.2496e-07,0,0,0,0,0,0,0,0.0202859,-0.05282,0.513052,-1.56033,0.0397737,1.55404,1.31732,0.00667819,-0.00172367,-6.68534e-05,-0.00481948,-0.00971106,-0.00609717,-0.0016039,0.134464,-27.5835,-0.713182,26.7764,0.960079,3.11913,0.110886,2.28577,1.95007,1.62502,-1.07084,1.3936,0.168746,0.119827,0.638869,0.236665,0.0802575,0.161325,-0.230963,0.0848836,
0.020288,-0.0527403,0.513063,-1.55974,0.040144,-0.0175084,0.53193,5.98647e-05,-0.00023143,0.000157329,3.51651e-05,-5.9772e-05,-0.000301752,-5.42654e-07,0,0,0,0,0,0,0,0.0202859,-0.05282,0.513052,-1.56033,0.0397737,1.55404,1.31732,0.00667819,-0.00172367,-6.68534e-05,-0.00481948,-0.00971106,-0.00609717,-0.0016039,0.134464,-27.5835,-0.713182,26.7764,0.960079,3.11913,0.110886,1.86038,1.97118,1.62679,-1.04727,1.07264,0.300109,0.24306,0.458782,0.374243,0.139348,0.19748,-0.212623,0.0835933,
0.0202882,-0.0527413,0.513064,-1.55974,0.0401436,-0.0175096,0.53193,5.29588e-05,-0.000242035,0.000151044,3.98185e-05,-9.85626e-05,-0.000307237,-3.7806e-07,0,0,0,0,0,0,0,0.0202752,-0.0528162,0.513052,-1.56034,0.0398043,1.55405,1.31732,-0.000117798,0.000982654,-0.00146714,-0.000152812,0.00240441,-0.000484887,-0.0012859,0.25745,-27.6073,-0.713182,26.8518,0.63049,3.03307,0.104477,1.86038,1.97118,1.62679,-1.04727,1.07264,0.300109,0.24306,0.458782,0.374243,0.139348,0.19748,-0.212623,0.0835933,
0.0202884,-0.0527423,0.513064,-1.55974,0.0401431,-0.0175109,0.53193,4.67923e-05,-0.000251149,0.000145457,4.39023e-05,-0.000131798,-0.000311454,-2.30387e-07,0,0,0,0,0,0,0,0.0202752,-0.0528162,0.513052,-1.56034,0.0398043,1.55405,1.31732,-0.000117798,0.000982654,-0.00146714,-0.000152812,0.00240441,-0.000484887,-0.0012859,0.25745,-27.6073,-0.713182,26.8518,0.63049,3.03307,0.104477,1.97212,1.92667,1.79141,-0.986604,1.08881,0.2486,0.206274,0.437207,0.306362,0.191944,0.182905,-0.213445,0.0838066,
0.0202886,-0.0527433,0.513065,-1.55974,0.0401424,-0.0175121,0.53193,4.12976e-05,-0.000259002,0.000140504,4.74792e-05,-0.000160361,-0.000314691,-9.85035e-08,0,0,0,0,0,0,0,0.0202752,-0.0528162,0.513052,-1.56034,0.0398043,1.55405,1.31732,-0.000117798,0.000982654,-0.00146714,-0.000152812,0.00240441,-0.000484887,-0.0012859,0.25745,-27.6073,-0.713182,26.8518,0.63049,3.03307,0.104477,1.97212,1.92667,1.79141,-0.986604,1.08881,0.2486,0.206274,0.437207,0.306362,0.191944,0.182905,-0.213445,0.0838066,
0.0202887,-0.0527444,0.513065,-1.55974,0.0401417,-0.0175134,0.53193,3.64095e-05,-0.000265787,0.000136127,5.06071e-05,-0.000184972,-0.000317174,1.88899e-08,0,0,0,0,0,0,0,0.0202752,-0.0528162,0.513052,-1.56034,0.0398043,1.55405,1.31732,-0.000117798,0.000982654,-0.00146714,-0.000152812,0.00240441,-0.000484887,-0.0012859,0.25745,-27.6073,-0.713182,26.8518,0.63049,3.03307,0.104477,1.94484,2.04527,1.3831,-1.20859,1.24872,0.311136,0.286064,0.610424,0.361696,-0.00535789,0.164814,-0.253851,0.0830253,
0.0202888,-0.0527455,0.513066,-1.55974,0.0401409,-0.0175147,0.53193,3.20664e-05,-0.000271667,0.000132266,5.33393e-05,-0.000206226,-0.000319081,1.23142e-07,0,0,0,0,0,0,0,0.0202752,-0.0528162,0.513052,-1.56034,0.0398043,1.55405,1.31732,-0.000117798,0.000982654,-0.00146714,-0.000152812,0.00240441,-0.000484887,-0.0012859,0.25745,-27.6073,-0.713182,26.8518,0.63049,3.03307,0.104477,1.75851,1.80491,1.22653,-1.04574,1.16073,0.255544,0.240072,0.583169,0.292764,-0.0219284,0.175997,-0.239022,0.0822163,
0.020289,-0.0527466,0.513066,-1.55974,0.04014,-0.0175159,0.53193,2.82112e-05,-0.000276778,0.000128868,5.5724e-05,-0.000224613,-0.000320553,2.15578e-07,0,0,0,0,0,0,0,0.0202752,-0.0528162,0.513052,-1.56034,0.0398043,1.55405,1.31732,-0.000117798,0.000982654,-0.00146714,-0.000152812,0.00240441,-0.000484887,-0.0012859,0.25745,-27.6073,-0.713182,26.8518,0.63049,3.03307,0.104477,1.75851,1.80491,1.22653,-1.04574,1.16073,0.255544,0.240072,0.583169,0.292764,-0.0219284,0.175997,-0.239022,0.0822163,
0.0202891,-0.0527477,0.513067,-1.55974,0.040139,-0.0175172,0.53193,2.47912e-05,-0.000281238,0.000125882,5.78044e-05,-0.000240544,-0.000321698,2.97459e-07,0,0,0,0,0,0,0,0.0202222,-0.0528403,0.513024,-1.56029,0.0397903,1.55404,1.31733,0.00267952,0.000624862,-0.000640442,-0.000876379,0.00589237,-0.00200625,-0.000449955,0.336795,-27.3097,-0.586229,26.5543,0.697323,3.09899,0.0843355,1.61846,1.6366,1.5449,-0.832955,0.909834,0.218273,0.209178,0.375898,0.241444,0.145289,0.171708,-0.21286,0.0823855,
0.0202891,-0.0527488,0.513067,-1.55974,0.040138,-0.0175185,0.53193,2.1759e-05,-0.000285142,0.000123263,5.96188e-05,-0.000254361,-0.000322599,3.69955e-07,0,0,0,0,0,0,0,0.0202222,-0.0528403,0.513024,-1.56029,0.0397903,1.55404,1.31733,0.00267952,0.000624862,-0.000640442,-0.000876379,0.00589237,-0.00200625,-0.000449955,0.336795,-27.3097,-0.586229,26.5543,0.697323,3.09899,0.0843355,1.61846,1.6366,1.5449,-0.832955,0.909834,0.218273,0.209178,0.375898,0.241444,0.145289,0.171708,-0.21286,0.0823855,
0.0204922,-0.0529861,0.513263,-1.55951,-0.015923,-0.052998,0.531773,-0.00517951,0.000934638,-0.00515098,-0.00230424,-0.33483,-0.214044,-0.000697073,0,0,0,0,0,0,0,0.0202222,-0.0528403,0.513024,-1.56029,0.0397903,1.55404,1.31733,0.00267952,0.000624862,-0.000640442,-0.000876379,0.00589237,-0.00200625,-0.000449955,0.336795,-27.3097,-0.586229,26.5543,0.697323,3.09899,0.0843355,1.86559,1.82785,1.49146,-0.989451,1.13439,0.235601,0.21568,0.519674,0.273821,0.0787271,0.182049,-0.227441,0.0826182,
0.0204356,-0.0531025,0.513254,-1.56011,-0.00600472,-0.0464574,0.531841,-0.0044275,0.000221241,-0.00431765,-0.00210324,-0.25673,-0.17136,-0.000340696,0,0,0,0,0,0,0,0.0202222,-0.0528403,0.513024,-1.56029,0.0397903,1.55404,1.31733,0.00267952,0.000624862,-0.000640442,-0.000876379,0.00589237,-0.00200625,-0.000449955,0.336795,-27.3097,-0.586229,26.5543,0.697323,3.09899,0.0843355,1.86559,1.82785,1.49146,-0.989451,1.13439,0.235601,0.21568,0.519674,0.273821,0.0787271,0.182049,-0.227441,0.0826182,
0.0204176,-0.0531016,0.513237,-1.56012,-0.00701634,-0.0471342,0.53184,-0.00448926,0.000234079,-0.00438156,-0.0021174,-0.252905,-0.169199,-0.00033892,0,0,0,0,0,0,0,0.0202222,-0.0528403,0.513024,-1.56029,0.0397903,1.55404,1.31733,0.00267952,0.000624862,-0.000640442,-0.000876379,0.00589237,-0.00200625,-0.000449955,0.336795,-27.3097,-0.586229,26.5543,0.697323,3.09899,0.0843355,2.17343,1.8693,1.36968,-1.05262,1.39866,0.166702,0.130665,0.681997,0.22284,0.0124719,0.172246,-0.216136,0.0824078,
0.0203994,-0.0531006,0.513219,-1.56013,-0.00801169,-0.0478017,0.531838,-0.004552,0.000240667,-0.00444621,-0.00213769,-0.248838,-0.166877,-0.000338236,0,0,0,0,0,0,0,0.0202516,-0.0528602,0.51304,-1.5603,0.039795,1.55404,1.31733,-0.000265128,0.000386846,-0.000259976,0.00145448,0.0124333,0.000135424,0.00090874,-0.0440639,-27.2066,-0.788561,26.6058,0.440975,3.02025,0.0577852,2.13969,1.98477,1.38903,-1.14237,1.36295,0.226276,0.173164,0.658102,0.301368,0.0169781,0.166246,-0.217342,0.0833567,
0.0203809,-0.0530996,0.513201,-1.56014,-0.00898968,-0.0484591,0.531837,-0.00461752,0.000241487,-0.00451336,-0.00216616,-0.244496,-0.164365,-0.000338737,0,0,0,0,0,0,0,0.0202516,-0.0528602,0.51304,-1.5603,0.039795,1.55404,1.31733,-0.000265128,0.000386846,-0.000259976,0.00145448,0.0124333,0.000135424,0.00090874,-0.0440639,-27.2066,-0.788561,26.6058,0.440975,3.02025,0.0577852,2.13969,1.98477,1.38903,-1.14237,1.36295,0.226276,0.173164,0.658102,0.301368,0.0169781,0.166246,-0.217342,0.0833567,
0.0203622,-0.0530987,0.513182,-1.56015,-0.00994902,-0.0491056,0.531835,-0.00468796,0.000237051,-0.00458507,-0.00220521,-0.239836,-0.161627,-0.000340342,0,0,0,0,0,0,0,0.0202516,-0.0528602,0.51304,-1.5603,0.039795,1.55404,1.31733,-0.000265128,0.000386846,-0.000259976,0.00145448,0.0124333,0.000135424,0.00090874,-0.0440639,-27.2066,-0.788561,26.6058,0.440975,3.02025,0.0577852,1.80076,2.11328,1.41298,-1.31025,1.11952,0.376403,0.306631,0.529683,0.473805,-0.00480298,0.114043,-0.275497,0.0840692,
0.0203431,-0.0530978,0.513164,-1.56015,-0.0108883,-0.0497401,0.531834,-0.00476588,0.000227908,-0.00466385,-0.0022577,-0.234809,-0.158621,-0.000343281,0,0,0,0,0,0,0,0.0202516,-0.0528602,0.51304,-1.5603,0.039795,1.55404,1.31733,-0.000265128,0.000386846,-0.000259976,0.00145448,0.0124333,0.000135424,0.00090874,-0.0440639,-27.2066,-0.788561,26.6058,0.440975,3.02025,0.0577852,1.80076,2.11328,1.41298,-1.31025,1.11952,0.376403,0.306631,0.529683,0.473805,-0.00480298,0.114043,-0.275497,0.0840692,
0.0203237,-0.0530969,0.513145,-1.56016,-0.0118057,-0.0503613,0.531833,-0.00485444,0.000214666,-0.00475276,-0.00232702,-0.229355,-0.155295,-0.000347431,0,0,0,0,0,0,0,0.0202516,-0.0528602,0.51304,-1.5603,0.039795,1.55404,1.31733,-0.000265128,0.000386846,-0.000259976,0.00145448,0.0124333,0.000135424,0.00090874,-0.0440639,-27.2066,-0.788561,26.6058,0.440975,3.02025,0.0577852,1.83429,1.84237,1.4984,-1.23828,1.07221,0.235867,0.153567,0.47121,0.346308,-0.00745035,-0.0389767,-0.318679,0.0851518,
0.0203039,-0.0530961,0.513125,-1.56017,-0.0126993,-0.0509676,0.531831,-0.00495757,0.000198,-0.00485563,-0.00241722,-0.223396,-0.151586,-0.000352878,0,0,0,0,0,0,0,0.0202516,-0.0528602,0.51304,-1.5603,0.039795,1.55404,1.31733,-0.000265128,0.000386846,-0.000259976,0.00145448,0.0124333,0.000135424,0.00090874,-0.0440639,-27.2066,-0.788561,26.6058,0.440975,3.02025,0.0577852,1.83429,1.84237,1.4984,-1.23828,1.07221,0.235867,0.153567,0.47121,0.346308,-0.00745035,-0.0389767,-0.318679,0.0851518,
0.0202836,-0.0530954,0.513105,-1.56018,-0.0135666,-0.0515573,0.53183,-0.00508027,0.000178682,-0.00497734,-0.00253313,-0.21684,-0.147421,-0.000359506,0,0,0,0,0,0,0,0.0204012,-0.0528594,0.513143,-1.5603,0.0334297,1.55316,1.31733,0.000369472,-0.00071503,0.000936025,-0.000612883,-0.183307,-0.0434174,0.00103883,-0.603451,-27.3097,-1.43523,27.1255,0.667111,3.08617,0.0577852,1.77099,1.96089,1.97908,-1.27285,0.812779,0.305478,0.226783,0.232791,0.412324,0.171082,-0.103871,-0.323402,0.0843287,
0.0202626,-0.0530948,0.513085,-1.56019,-0.0144049,-0.0521282,0.531828,-0.005229,0.000157586,-0.00512415,-0.00268047,-0.20957,-0.142709,-0.000366872,0,0,0,0,0,0,0,0.0204012,-0.0528594,0.513143,-1.5603,0.0334297,1.55316,1.31733,0.000369472,-0.00071503,0.000936025,-0.000612883,-0.183307,-0.0434174,0.00103883,-0.603451,-27.3097,-1.43523,27.1255,0.667111,3.08617,0.0577852,2.11065,2.01308,2.1015,-1.316,1.02467,0.232163,0.156726,0.332227,0.337306,0.164824,-0.132119,-0.341165,0.0842505,
0.020241,-0.0530942,0.513064,-1.56021,-0.0152107,-0.0526775,0.531827,-0.00541209,0.000135702,-0.00530421,-0.00286608,-0.201437,-0.137345,-0.000374744,0,0,0,0,0,0,0,0.0204012,-0.0528594,0.513143,-1.5603,0.0334297,1.55316,1.31733,0.000369472,-0.00071503,0.000936025,-0.000612883,-0.183307,-0.0434174,0.00103883,-0.603451,-27.3097,-1.43523,27.1255,0.667111,3.08617,0.0577852,2.11065,2.01308,2.1015,-1.316,1.02467,0.232163,0.156726,0.332227,0.337306,0.164824,-0.132119,-0.341165,0.0842505,
0.0202184,-0.0530938,0.513042,-1.56022,-0.0159797,-0.0532023,0.531825,-0.0056405,0.000114121,-0.00552818,-0.00309802,-0.192254,-0.1312,-0.000381948,0,0,0,0,0,0,0,0.0204012,-0.0528594,0.513143,-1.5603,0.0334297,1.55316,1.31733,0.000369472,-0.00071503,0.000936025,-0.000612883,-0.183307,-0.0434174,0.00103883,-0.603451,-27.3097,-1.43523,27.1255,0.667111,3.08617,0.0577852,2.73485,1.76118,2.34402,-1.21028,1.40174,-0.0642173,-0.137873,0.501006,0.0382072,0.137924,-0.258984,-0.41074,0.0852005,
0.0201947,-0.0530934,0.513018,-1.56023,-0.0167068,-0.0536988,0.531824,-0.0059287,9.39565e-05,-0.00581022,-0.00338599,-0.18178,-0.124124,-0.000387331,0,0,0,0,0,0,0,0.0204012,-0.0528594,0.513143,-1.5603,0.0334297,1.55316,1.31733,0.000369472,-0.00071503,0.000936025,-0.000612883,-0.183307,-0.0434174,0.00103883,-0.603451,-27.3097,-1.43523,27.1255,0.667111,3.08617,0.0577852,2.73485,1.76118,2.34402,-1.21028,1.40174,-0.0642173,-0.137873,0.501006,0.0382072,0.137924,-0.258984,-0.41074,0.0852005,
0.0201695,-0.0530931,0.512994,-1.56025,-0.0173856,-0.0541626,0.531822,-0.00629605,7.60962e-05,-0.00616927,-0.00374186,-0.169703,-0.115937,-0.000388354,0,0,0,0,0,0,0,0.0204272,-0.0528559,0.513145,-1.5603,0.028076,1.55219,1.31732,-0.00176483,-0.000914491,-0.000701227,-0.00265892,-0.147564,-0.00971916,0.000417482,-0.349545,-27.3573,-1.31224,26.9272,0.599362,2.84722,0.0779268,2.72119,1.48044,2.42627,-1.09347,1.41183,-0.190138,-0.26176,0.515183,-0.0908655,0.0794625,-0.332928,-0.513765,0.08396,
0.0201425,-0.0530929,0.512967,-1.56026,-0.0180081,-0.0545883,0.531821,-0.00676886,6.04307e-05,-0.006631,-0.00418135,-0.155617,-0.106425,-0.000380011,0,0,0,0,0,0,0,0.0204272,-0.0528559,0.513145,-1.5603,0.028076,1.55219,1.31732,-0.00176483,-0.000914491,-0.000701227,-0.00265892,-0.147564,-0.00971916,0.000417482,-0.349545,-27.3573,-1.31224,26.9272,0.599362,2.84722,0.0779268,2.72119,1.48044,2.42627,-1.09347,1.41183,-0.190138,-0.26176,0.515183,-0.0908655,0.0794625,-0.332928,-0.513765,0.08396,
0.0201129,-0.0530927,0.512938,-1.56028,-0.018564,-0.0549696,0.531819,-0.00738397,4.32639e-05,-0.00723146,-0.00472935,-0.138977,-0.0953212,-0.000351508,0,0,0,0,0,0,0,0.0204272,-0.0528559,0.513145,-1.5603,0.028076,1.55219,1.31732,-0.00176483,-0.000914491,-0.000701227,-0.00265892,-0.147564,-0.00971916,0.000417482,-0.349545,-27.3573,-1.31224,26.9272,0.599362,2.84722,0.0779268,2.53533,1.58932,2.41821,-1.17741,1.32833,-0.0864992,-0.143628,0.494966,0.00139807,0.0432464,-0.304985,-0.560213,0.082962,
0.0200801,-0.0530926,0.512906,-1.5603,-0.0190401,-0.0552986,0.531818,-0.00819627,8.87116e-06,-0.00802419,-0.00543749,-0.119029,-0.082256,-0.000278807,0,0,0,0,0,0,0,0.0204272,-0.0528559,0.513145,-1.5603,0.028076,1.55219,1.31732,-0.00176483,-0.000914491,-0.000701227,-0.00265892,-0.147564,-0.00971916,0.000417482,-0.349545,-27.3573,-1.31224,26.9272,0.599362,2.84722,0.0779268,2.71634,1.56604,2.48849,-1.16958,1.46167,-0.14724,-0.185226,0.568552,-0.0776961,0.0203097,-0.317588,-0.593546,0.0816184,
0.020043,-0.053093,0.51287,-1.56033,-0.0194187,-0.055565,0.531818,-0.00929741,-9.88953e-05,-0.0090991,-0.00644375,-0.0946495,-0.0666007,-0.000149116,0,0,0,0,0,0,0,0.0204272,-0.0528559,0.513145,-1.5603,0.028076,1.55219,1.31732,-0.00176483,-0.000914491,-0.000701227,-0.00265892,-0.147564,-0.00971916,0.000417482,-0.349545,-27.3573,-1.31224,26.9272,0.599362,2.84722,0.0779268,2.71634,1.56604,2.48849,-1.16958,1.46167,-0.14724,-0.185226,0.568552,-0.0776961,0.0203097,-0.317588,-0.593546,0.0816184,
0.0200049,-0.0530906,0.512832,-1.56035,-0.0197247,-0.0557849,0.531817,-0.00951658,0.000598358,-0.00940694,-0.00581261,-0.0765086,-0.054989,-5.46323e-05,0,0,0,0,0,0,0,0.0204272,-0.0528559,0.513145,-1.5603,0.028076,1.55219,1.31732,-0.00176483,-0.000914491,-0.000701227,-0.00265892,-0.147564,-0.00971916,0.000417482,-0.349545,-27.3573,-1.31224,26.9272,0.599362,2.84722,0.0779268,2.48401,1.98725,2.55146,-1.42428,1.31581,0.112687,0.0923913,0.502864,0.171154,0.0271943,-0.246628,-0.614816,0.0808823,
0.0199675,-0.0530853,0.512795,-1.56037,-0.0199747,-0.0559676,0.531817,-0.00934118,0.00134069,-0.00929568,-0.00488966,-0.0625041,-0.0456546,-1.5962e-05,0,0,0,0,0,0,0,0.0203276,-0.0528525,0.513072,-1.56029,0.0237355,1.55206,1.31732,-0.005978,0.000510798,-0.00242286,0.00299746,-0.139652,-0.000811498,0.000468422,0.233646,-27.4089,-0.713182,26.705,0.495907,2.71447,0.0779268,2.48401,1.98725,2.55146,-1.42428,1.31581,0.112687,0.0923913,0.502864,0.171154,0.0271943,-0.246628,-0.614816,0.0808823,
0.0199317,-0.0530775,0.512759,-1.56039,-0.0201806,-0.0561192,0.531817,-0.00895682,0.00194085,-0.0089544,-0.00402464,-0.0514667,-0.0379213,-2.47946e-06,0,0,0,0,0,0,0,0.0203276,-0.0528525,0.513072,-1.56029,0.0237355,1.55206,1.31732,-0.005978,0.000510798,-0.00242286,0.00299746,-0.139652,-0.000811498,0.000468422,0.233646,-27.4089,-0.713182,26.705,0.495907,2.71447,0.0779268,2.56677,2.06345,2.534,-1.45527,1.4126,0.123745,0.11668,0.572535,0.169805,0.00132503,-0.206844,-0.622895,0.0821636,
0.0198979,-0.053068,0.512725,-1.5604,-0.0203512,-0.0562451,0.531817,-0.00846,0.0023748,-0.00848566,-0.00328558,-0.0426437,-0.031452,-4.42661e-07,0,0,0,0,0,0,0,0.0203276,-0.0528525,0.513072,-1.56029,0.0237355,1.55206,1.31732,-0.005978,0.000510798,-0.00242286,0.00299746,-0.139652,-0.000811498,0.000468422,0.233646,-27.4089,-0.713182,26.705,0.495907,2.71447,0.0779268,2.56677,2.06345,2.534,-1.45527,1.4126,0.123745,0.11668,0.572535,0.169805,0.00132503,-0.206844,-0.622895,0.0821636,
0.0198662,-0.0530574,0.512693,-1.56041,-0.0204932,-0.0563492,0.531817,-0.00790772,0.00266152,-0.00795117,-0.00266676,-0.0355091,-0.026026,-4.06753e-06,0,0,0,0,0,0,0,0.0203276,-0.0528525,0.513072,-1.56029,0.0237355,1.55206,1.31732,-0.005978,0.000510798,-0.00242286,0.00299746,-0.139652,-0.000811498,0.000468422,0.233646,-27.4089,-0.713182,26.705,0.495907,2.71447,0.0779268,2.30296,2.11794,2.49242,-1.45251,1.25735,0.223779,0.224479,0.504918,0.261281,0.01133,-0.145584,-0.620028,0.0827884,
0.0198369,-0.0530461,0.512664,-1.56042,-0.0206119,-0.0564351,0.531817,-0.00733584,0.00282816,-0.00739013,-0.0021476,-0.0296797,-0.0214737,-1.05994e-05,0,0,0,0,0,0,0,0.0203276,-0.0528525,0.513072,-1.56029,0.0237355,1.55206,1.31732,-0.005978,0.000510798,-0.00242286,0.00299746,-0.139652,-0.000811498,0.000468422,0.233646,-27.4089,-0.713182,26.705,0.495907,2.71447,0.0779268,2.20417,2.03202,2.54046,-1.30964,1.18785,0.215783,0.21927,0.465999,0.244806,0.0563059,-0.076533,-0.606407,0.0814742,
0.0198098,-0.0530345,0.512637,-1.56043,-0.0207114,-0.0565057,0.531817,-0.00676729,0.00290036,-0.00682781,-0.0017081,-0.0248706,-0.0176549,-1.85453e-05,0,0,0,0,0,0,0,0.0201236,-0.0528508,0.512984,-1.56032,0.0196425,1.55206,1.31733,-0.00846832,-0.000135914,-0.00738023,-0.00235313,-0.113491,0.00081511,0.00107419,0.487552,-27.4327,-0.510851,27.0779,0.550839,2.76757,0.0440523,2.20417,2.03202,2.54046,-1.30964,1.18785,0.215783,0.21927,0.465999,0.244806,0.0563059,-0.076533,-0.606407,0.0814742,
0.0187125,-0.0513824,0.511325,-1.5606,-0.147742,-0.199784,0.530331,-0.0319638,0.0213149,-0.0330274,-0.0204426,-1.20255,-1.04952,-0.00720752,0,0,0,0,0,0,0,0.0201236,-0.0528508,0.512984,-1.56032,0.0196425,1.55206,1.31733,-0.00846832,-0.000135914,-0.00738023,-0.00235313,-0.113491,0.00081511,0.00107419,0.487552,-27.4327,-0.510851,27.0779,0.550839,2.76757,0.0440523,2.35086,2.20376,2.58949,-1.37686,1.30102,0.255228,0.266023,0.530657,0.277653,0.0616635,-0.0219101,-0.598304,0.0805223,
0.0181402,-0.0517356,0.510891,-1.56042,-0.114349,-0.152714,0.531117,-0.0261037,0.0135938,-0.0267866,-0.0116432,-0.634343,-0.77839,-0.0027865,0,0,0,0,0,0,0,0.0201236,-0.0528508,0.512984,-1.56032,0.0196425,1.55206,1.31733,-0.00846832,-0.000135914,-0.00738023,-0.00235313,-0.113491,0.00081511,0.00107419,0.487552,-27.4327,-0.510851,27.0779,0.550839,2.76757,0.0440523,2.35086,2.20376,2.58949,-1.37686,1.30102,0.255228,0.266023,0.530657,0.277653,0.0616635,-0.0219101,-0.598304,0.0805223,
0.0180359,-0.0516826,0.510784,-1.56047,-0.116838,-0.155805,0.531106,-0.0260694,0.0132681,-0.0267616,-0.0115085,-0.622397,-0.772751,-0.00272007,0,0,0,0,0,0,0,0.0201236,-0.0528508,0.512984,-1.56032,0.0196425,1.55206,1.31733,-0.00846832,-0.000135914,-0.00738023,-0.00235313,-0.113491,0.00081511,0.00107419,0.487552,-27.4327,-0.510851,27.0779,0.550839,2.76757,0.0440523,2.35075,2.31843,2.64103,-1.38106,1.30775,0.30933,0.323715,0.536958,0.326621,0.0892516,0.0524299,-0.585146,0.0809076,
0.0179317,-0.0516309,0.510677,-1.56052,-0.119277,-0.15887,0.531095,-0.0260512,0.012905,-0.0267524,-0.0114017,-0.60974,-0.766401,-0.00265728,0,0,0,0,0,0,0,0.0201236,-0.0528508,0.512984,-1.56032,0.0196425,1.55206,1.31733,-0.00846832,-0.000135914,-0.00738023,-0.00235313,-0.113491,0.00081511,0.00107419,0.487552,-27.4327,-0.510851,27.0779,0.550839,2.76757,0.0440523,2.35075,2.31843,2.64103,-1.38106,1.30775,0.30933,0.323715,0.536958,0.326621,0.0892516,0.0524299,-0.585146,0.0809076,
0.0178275,-0.0515809,0.51057,-1.56056,-0.121662,-0.161907,0.531085,-0.0260547,0.0125032,-0.0267642,-0.0113303,-0.596245,-0.759172,-0.00260011,0,0,0,0,0,0,0,0.0201236,-0.0528508,0.512984,-1.56032,0.0196425,1.55206,1.31733,-0.00846832,-0.000135914,-0.00738023,-0.00235313,-0.113491,0.00081511,0.00107419,0.487552,-27.4327,-0.510851,27.0779,0.550839,2.76757,0.0440523,3.13954,3.65874,3.271,-2.10089,1.63173,0.6931,0.717594,0.604895,0.715138,0.297219,0.163149,-0.481022,0.0868393,
0.0177231,-0.0515327,0.510463,-1.56061,-0.123989,-0.16491,0.531074,-0.0260859,0.0120614,-0.0268032,-0.0113038,-0.581768,-0.750861,-0.00254857,0,0,0,0,0,0,0,0.0200535,-0.0528335,0.512813,-1.56005,0.0127717,1.54979,1.31733,0.00916786,-0.00133134,0.00742556,0.0279969,-0.489784,-0.275857,0.00106569,-1.26202,-27.4843,-1.78832,24.5111,-0.976261,1.5078,0.0440523,4.27419,4.64882,3.30813,-2.85231,2.39259,0.81138,0.819946,0.996273,0.870131,0.226064,0.112791,-0.413304,0.0933077,
0.0176185,-0.0514864,0.510355,-1.56065,-0.126254,-0.167875,0.531064,-0.0261519,0.0115778,-0.0268763,-0.0113332,-0.56614,-0.741228,-0.00250297,0,0,0,0,0,0,0,0.0200535,-0.0528335,0.512813,-1.56005,0.0127717,1.54979,1.31733,0.00916786,-0.00133134,0.00742556,0.0279969,-0.489784,-0.275857,0.00106569,-1.26202,-27.4843,-1.78832,24.5111,-0.976261,1.5078,0.0440523,4.27419,4.64882,3.30813,-2.85231,2.39259,0.81138,0.819946,0.996273,0.870131,0.226064,0.112791,-0.413304,0.0933077,
0.0175135,-0.0514422,0.510247,-1.5607,-0.128451,-0.170795,0.531055,-0.0262607,0.0110507,-0.0269915,-0.0114317,-0.549168,-0.729982,-0.00246563,0,0,0,0,0,0,0,0.0200535,-0.0528335,0.512813,-1.56005,0.0127717,1.54979,1.31733,0.00916786,-0.00133134,0.00742556,0.0279969,-0.489784,-0.275857,0.00106569,-1.26202,-27.4843,-1.78832,24.5111,-0.976261,1.5078,0.0440523,3.20519,4.38754,2.9788,-2.93164,1.70539,0.977491,0.951592,0.66788,1.07784,0.116085,-0.0570068,-0.510172,0.095531,
0.0174078,-0.0514002,0.510139,-1.56074,-0.130573,-0.173662,0.531045,-0.0264218,0.0104781,-0.0271578,-0.0116151,-0.530634,-0.716775,-0.00243688,0,0,0,0,0,0,0,0.0200535,-0.0528335,0.512813,-1.56005,0.0127717,1.54979,1.31733,0.00916786,-0.00133134,0.00742556,0.0279969,-0.489784,-0.275857,0.00106569,-1.26202,-27.4843,-1.78832,24.5111,-0.976261,1.5078,0.0440523,3.39483,3.16807,3.56445,-2.25061,1.61144,0.350883,0.304864,0.50443,0.457146,0.191744,-0.39724,-0.692174,0.0937436,
0.0173012,-0.0513608,0.510029,-1.56079,-0.132614,-0.176467,0.531035,-0.0266452,0.00985828,-0.0273855,-0.0119022,-0.51029,-0.701193,-0.00241879,0,0,0,0,0,0,0,0.0200535,-0.0528335,0.512813,-1.56005,0.0127717,1.54979,1.31733,0.00916786,-0.00133134,0.00742556,0.0279969,-0.489784,-0.275857,0.00106569,-1.26202,-27.4843,-1.78832,24.5111,-0.976261,1.5078,0.0440523,3.39483,3.16807,3.56445,-2.25061,1.61144,0.350883,0.304864,0.50443,0.457146,0.191744,-0.39724,-0.692174,0.0937436,
0.0171934,-0.0513241,0.509918,-1.56084,-0.134566,-0.179198,0.531025,-0.0269424,0.00919012,-0.0276859,-0.0123156,-0.487857,-0.682739,-0.00241334,0,0,0,0,0,0,0,0.0203481,-0.0529072,0.512973,-1.55903,-0.00538138,1.53571,1.31731,0.016408,-0.00450844,0.00778098,0.0289775,-0.597758,-0.536247,-0.000692528,-1.51593,-26.6591,-2.01048,25.134,-0.383915,1.40893,0.0980684,3.2504,2.1155,3.9634,-1.62793,1.43099,-0.100853,-0.161264,0.365907,0.00558913,0.196237,-0.591388,-0.900013,0.0899541,
0.0170841,-0.0512902,0.509806,-1.56089,-0.136418,-0.181841,0.531016,-0.0273254,0.00847316,-0.0280708,-0.0128816,-0.46303,-0.660826,-0.00242323,0,0,0,0,0,0,0,0.0203481,-0.0529072,0.512973,-1.55903,-0.00538138,1.53571,1.31731,0.016408,-0.00450844,0.00778098,0.0289775,-0.597758,-0.536247,-0.000692528,-1.51593,-26.6591,-2.01048,25.134,-0.383915,1.40893,0.0980684,3.2504,2.1155,3.9634,-1.62793,1.43099,-0.100853,-0.161264,0.365907,0.00558913,0.196237,-0.591388,-0.900013,0.0899541,
0.0169729,-0.0512593,0.509692,-1.56095,-0.13816,-0.18438,0.531006,-0.0278066,0.00770833,-0.0285523,-0.0136312,-0.435477,-0.634759,-0.00245227,0,0,0,0,0,0,0,0.0203481,-0.0529072,0.512973,-1.55903,-0.00538138,1.53571,1.31731,0.016408,-0.00450844,0.00778098,0.0289775,-0.597758,-0.536247,-0.000692528,-1.51593,-26.6591,-2.01048,25.134,-0.383915,1.40893,0.0980684,3.26447,1.78089,4.46339,-1.38998,1.37688,-0.269737,-0.338964,0.304358,-0.161026,0.222919,-0.644567,-1.07682,0.087511,
0.0168593,-0.0512317,0.509575,-1.56101,-0.139779,-0.186795,0.530996,-0.0283973,0.00689869,-0.0291418,-0.0146007,-0.404855,-0.603719,-0.00250447,0,0,0,0,0,0,0,0.0203481,-0.0529072,0.512973,-1.55903,-0.00538138,1.53571,1.31731,0.016408,-0.00450844,0.00778098,0.0289775,-0.597758,-0.536247,-0.000692528,-1.51593,-26.6591,-2.01048,25.134,-0.383915,1.40893,0.0980684,3.26447,1.78089,4.46339,-1.38998,1.37688,-0.269737,-0.338964,0.304358,-0.161026,0.222919,-0.644567,-1.07682,0.087511,
0.0167429,-0.0512075,0.509456,-1.56107,-0.141262,-0.189062,0.530986,-0.0291064,0.00605033,-0.029848,-0.0158324,-0.37082,-0.566744,-0.00258668,0,0,0,0,0,0,0,0.0203481,-0.0529072,0.512973,-1.55903,-0.00538138,1.53571,1.31731,0.016408,-0.00450844,0.00778098,0.0289775,-0.597758,-0.536247,-0.000692528,-1.51593,-26.6591,-2.01048,25.134,-0.383915,1.40893,0.0980684,3.028,1.04152,4.48407,-1.03927,1.37444,-0.557234,-0.631523,0.378209,-0.449167,0.0174272,-0.738017,-1.34749,0.0858104,
0.0166231,-0.0511868,0.509333,-1.56114,-0.142595,-0.191153,0.530975,-0.0299382,0.00517404,-0.0306752,-0.0173747,-0.333054,-0.522712,-0.00270848,0,0,0,0,0,0,0,0.0206047,-0.0530101,0.513097,-1.55875,-0.0292829,1.51224,1.31732,0.000849897,0.00108656,-0.000539582,-0.0012442,-0.487044,-0.523729,0.000214268,-1.15887,-27.0598,-1.9113,25.983,-0.377506,1.24962,0.0706026,2.56327,0.532139,4.53461,-0.789157,1.09056,-0.670172,-0.7495,0.247228,-0.561321,-0.0470046,-0.821855,-1.49932,0.0842703,
0.0164996,-0.0511697,0.509207,-1.56122,-0.14376,-0.193034,0.530963,-0.0308881,0.00428866,-0.0316187,-0.0192803,-0.291303,-0.470317,-0.00287775,0,0,0,0,0,0,0,0.0206047,-0.0530101,0.513097,-1.55875,-0.0292829,1.51224,1.31732,0.000849897,0.00108656,-0.000539582,-0.0012442,-0.487044,-0.523729,0.000214268,-1.15887,-27.0598,-1.9113,25.983,-0.377506,1.24962,0.0706026,2.56327,0.532139,4.53461,-0.789157,1.09056,-0.670172,-0.7495,0.247228,-0.561321,-0.0470046,-0.821855,-1.49932,0.0842703,
0.0163718,-0.051156,0.509076,-1.5613,-0.144742,-0.194667,0.530951,-0.031936,0.00342966,-0.0326586,-0.0215964,-0.245438,-0.408069,-0.00299804,0,0,0,0,0,0,0,0.0206047,-0.0530101,0.513097,-1.55875,-0.0292829,1.51224,1.31732,0.000849897,0.00108656,-0.000539582,-0.0012442,-0.487044,-0.523729,0.000214268,-1.15887,-27.0598,-1.9113,25.983,-0.377506,1.24962,0.0706026,2.62921,0.555387,4.00516,-1.0168,1.44726,-0.684202,-0.753842,0.586655,-0.573616,-0.389248,-0.841855,-1.6345,0.0807385,
0.0162398,-0.0511453,0.508941,-1.5614,-0.145524,-0.196004,0.530946,-0.0330215,0.00267786,-0.0337488,-0.0243202,-0.19557,-0.334355,-0.00137521,0,0,0,0,0,0,0,0.0206047,-0.0530101,0.513097,-1.55875,-0.0292829,1.51224,1.31732,0.000849897,0.00108656,-0.000539582,-0.0012442,-0.487044,-0.523729,0.000214268,-1.15887,-27.0598,-1.9113,25.983,-0.377506,1.24962,0.0706026,2.62921,0.555387,4.00516,-1.0168,1.44726,-0.684202,-0.753842,0.586655,-0.573616,-0.389248,-0.841855,-1.6345,0.0807385,
0.0161107,-0.0511277,0.508809,-1.56149,-0.146156,-0.197115,0.530941,-0.0322579,0.00437891,-0.0330893,-0.021956,-0.157974,-0.277651,-0.00122684,0,0,0,0,0,0,0,0.0206047,-0.0530101,0.513097,-1.55875,-0.0292829,1.51224,1.31732,0.000849897,0.00108656,-0.000539582,-0.0012442,-0.487044,-0.523729,0.000214268,-1.15887,-27.0598,-1.9113,25.983,-0.377506,1.24962,0.0706026,2.50994,0.564672,3.66483,-1.04175,1.58361,-0.649997,-0.688934,0.763927,-0.56796,-0.559245,-0.74017,-1.68742,0.0779022,
0.0159877,-0.0511027,0.508682,-1.56156,-0.146669,-0.198041,0.530936,-0.0307523,0.00625942,-0.0316577,-0.0185838,-0.128376,-0.231711,-0.00126982,0,0,0,0,0,0,0,0.0206047,-0.0530101,0.513097,-1.55875,-0.0292829,1.51224,1.31732,0.000849897,0.00108656,-0.000539582,-0.0012442,-0.487044,-0.523729,0.000214268,-1.15887,-27.0598,-1.9113,25.983,-0.377506,1.24962,0.0706026,2.50994,0.564672,3.66483,-1.04175,1.58361,-0.649997,-0.688934,0.763927,-0.56796,-0.559245,-0.74017,-1.68742,0.0779022,
0.015872,-0.0510717,0.508563,-1.56162,-0.147087,-0.198816,0.53093,-0.0289264,0.00774538,-0.0298789,-0.015334,-0.104522,-0.193717,-0.00134753,0,0,0,0,0,0,0,0.0203961,-0.0531029,0.512976,-1.55885,-0.0440801,1.49605,1.31732,-0.00896408,0.00126364,-0.00271765,-0.00223851,-0.418622,-0.45129,0.000665409,-0.424923,-27.0598,-1.43523,26.5781,0.166317,1.89965,0.0577852,2.26115,0.446156,3.78684,-0.767584,1.3712,-0.635457,-0.650755,0.630135,-0.588173,-0.424017,-0.596514,-1.62858,0.0757949,
0.0157641,-0.0510367,0.508451,-1.56167,-0.147427,-0.199464,0.530925,-0.026977,0.00875918,-0.0279576,-0.0124647,-0.0850084,-0.162042,-0.00142889,0,0,0,0,0,0,0,0.0203961,-0.0531029,0.512976,-1.55885,-0.0440801,1.49605,1.31732,-0.00896408,0.00126364,-0.00271765,-0.00223851,-0.418622,-0.45129,0.000665409,-0.424923,-27.0598,-1.43523,26.5781,0.166317,1.89965,0.0577852,2.26115,0.446156,3.78684,-0.767584,1.3712,-0.635457,-0.650755,0.630135,-0.588173,-0.424017,-0.596514,-1.62858,0.0757949,
0.0156641,-0.0509993,0.508347,-1.56171,-0.147703,-0.200007,0.530919,-0.0250099,0.00935635,-0.0260058,-0.00998873,-0.0688639,-0.135547,-0.00150554,0,0,0,0,0,0,0,0.0203961,-0.0531029,0.512976,-1.55885,-0.0440801,1.49605,1.31732,-0.00896408,0.00126364,-0.00271765,-0.00223851,-0.418622,-0.45129,0.000665409,-0.424923,-27.0598,-1.43523,26.5781,0.166317,1.89965,0.0577852,2.17763,0.400623,3.45986,-0.73085,1.48195,-0.633796,-0.635841,0.768573,-0.60049,-0.540454,-0.503546,-1.6322,0.072069,
0.0155717,-0.0509608,0.50825,-1.56174,-0.147924,-0.20046,0.530912,-0.0230867,0.00961789,-0.0240894,-0.00785908,-0.0553796,-0.113349,-0.00157513,0,0,0,0,0,0,0,0.0203961,-0.0531029,0.512976,-1.55885,-0.0440801,1.49605,1.31732,-0.00896408,0.00126364,-0.00271765,-0.00223851,-0.418622,-0.45129,0.000665409,-0.424923,-27.0598,-1.43523,26.5781,0.166317,1.89965,0.0577852,1.42093,0.532113,3.04562,-0.82612,1.15826,-0.367084,-0.359168,0.697984,-0.340982,-0.657454,-0.367354,-1.65761,0.0704596,
0.0154867,-0.0509223,0.508161,-1.56177,-0.1481,-0.200839,0.530906,-0.021244,0.00962009,-0.0222484,-0.00602181,-0.0440218,-0.0947294,-0.00163728,0,0,0,0,0,0,0,0.0203961,-0.0531029,0.512976,-1.55885,-0.0440801,1.49605,1.31732,-0.00896408,0.00126364,-0.00271765,-0.00223851,-0.418622,-0.45129,0.000665409,-0.424923,-27.0598,-1.43523,26.5781,0.166317,1.89965,0.0577852,1.42093,0.532113,3.04562,-0.82612,1.15826,-0.367084,-0.359168,0.697984,-0.340982,-0.657454,-0.367354,-1.65761,0.0704596,
0.0154087,-0.0508846,0.508079,-1.56179,-0.148238,-0.201155,0.530899,-0.019503,0.00942748,-0.0205059,-0.00442936,-0.034382,-0.0790971,-0.00169232,0,0,0,0,0,0,0,0.019904,-0.0530432,0.512587,-1.55916,-0.0552892,1.48396,1.31731,-0.0230959,0.00415496,-0.0195898,-0.0219963,-0.330765,-0.356424,-0.000693362,0.360599,-27.6073,-0.586229,27.3755,0.758663,2.73461,0.0706026,0.839383,1.26766,3.37777,-0.976088,0.487101,0.134579,0.150826,0.218695,0.147706,-0.249931,-0.133928,-1.39553,0.0741996,
-0.00875014,-0.0398508,0.482527,-1.57458,-0.166926,-0.225649,0.518683,-0.20211,0.10884,-0.211625,-0.0974554,-1.24141,-1.31794,-0.0571864,0,0,0,0,0,0,0,0.019904,-0.0530432,0.512587,-1.55916,-0.0552892,1.48396,1.31731,-0.0230959,0.00415496,-0.0195898,-0.0219963,-0.330765,-0.356424,-0.000693362,0.360599,-27.6073,-0.586229,27.3755,0.758663,2.73461,0.0706026,0.839383,1.26766,3.37777,-0.976088,0.487101,0.134579,0.150826,0.218695,0.147706,-0.249931,-0.133928,-1.39553,0.0741996,
-0.00328678,-0.0445804,0.488303,-1.57016,-0.236429,-0.200619,0.52528,-0.171008,0.0540486,-0.177623,-0.0651388,-0.798541,0.139561,-0.0197292,0,0,0,0,0,0,0,0.019904,-0.0530432,0.512587,-1.55916,-0.0552892,1.48396,1.31731,-0.0230959,0.00415496,-0.0195898,-0.0219963,-0.330765,-0.356424,-0.000693362,0.360599,-27.6073,-0.586229,27.3755,0.758663,2.73461,0.0706026,0.99509,2.81808,3.62664,-1.58807,0.297284,0.819898,0.846628,-0.0210468,0.827579,0.202556,0.197392,-0.948524,0.0705168,
-0.00397727,-0.0443711,0.487586,-1.57041,-0.239321,-0.199855,0.525204,-0.172623,0.052334,-0.179267,-0.064076,-0.72306,0.191018,-0.0190014,0,0,0,0,0,0,0,0.019904,-0.0530432,0.512587,-1.55916,-0.0552892,1.48396,1.31731,-0.0230959,0.00415496,-0.0195898,-0.0219963,-0.330765,-0.356424,-0.000693362,0.360599,-27.6073,-0.586229,27.3755,0.758663,2.73461,0.0706026,0.99509,2.81808,3.62664,-1.58807,0.297284,0.819898,0.846628,-0.0210468,0.827579,0.202556,0.197392,-0.948524,0.0705168,
-0.00467396,-0.044169,0.486863,-1.57067,-0.241887,-0.198878,0.525131,-0.174172,0.050518,-0.180836,-0.0630714,-0.641468,0.2443,-0.0183108,0,0,0,0,0,0,0,0.019904,-0.0530432,0.512587,-1.55916,-0.0552892,1.48396,1.31731,-0.0230959,0.00415496,-0.0195898,-0.0219963,-0.330765,-0.356424,-0.000693362,0.360599,-27.6073,-0.586229,27.3755,0.758663,2.73461,0.0706026,1.42054,4.48776,3.4635,-2.37888,0.40189,1.49343,1.52612,-0.0519566,1.50748,0.528211,0.50384,-0.439723,0.0668192,
-0.00537665,-0.0439747,0.486134,-1.57091,-0.2441,-0.19768,0.52506,-0.175672,0.0485863,-0.18235,-0.0621283,-0.55325,0.299517,-0.0176636,0,0,0,0,0,0,0,0.019904,-0.0530432,0.512587,-1.55916,-0.0552892,1.48396,1.31731,-0.0230959,0.00415496,-0.0195898,-0.0219963,-0.330765,-0.356424,-0.000693362,0.360599,-27.6073,-0.586229,27.3755,0.758663,2.73461,0.0706026,1.07009,6.31381,2.22106,-3.69379,0.587878,2.44277,2.47361,0.263969,2.49467,0.213568,0.813354,-0.225387,0.0564178,
-0.0060852,-0.0437886,0.485398,-1.57116,-0.245931,-0.196253,0.524992,-0.177138,0.046528,-0.183821,-0.0612452,-0.457811,0.356727,-0.0170602,0,0,0,0,0,0,0,0.0189606,-0.0531382,0.51139,-1.55971,-0.0717111,1.46702,1.31716,-0.0373737,-0.0101662,-0.0532366,-0.0300887,-0.806888,-0.57266,-0.0122549,-5.44751,-24.7865,-6.06108,25.6339,-1.18958,2.90032,-0.0429228,1.07009,6.31381,2.22106,-3.69379,0.587878,2.44277,2.47361,0.263969,2.49467,0.213568,0.813354,-0.225387,0.0564178,
-0.00679949,-0.0436112,0.484657,-1.5714,-0.247349,-0.19459,0.524926,-0.178574,0.0443389,-0.185253,-0.0604147,-0.35455,0.415902,-0.0165114,0,0,0,0,0,0,0,0.0189606,-0.0531382,0.51139,-1.55971,-0.0717111,1.46702,1.31716,-0.0373737,-0.0101662,-0.0532366,-0.0300887,-0.806888,-0.57266,-0.0122549,-5.44751,-24.7865,-6.06108,25.6339,-1.18958,2.90032,-0.0429228,-0.530562,3.7639,1.93603,-2.12043,-0.431064,1.74191,1.75219,-0.237866,1.77655,0.149655,0.601334,-0.451954,0.0240068,
-0.00751933,-0.0434431,0.483911,-1.57164,-0.248321,-0.192682,0.524862,-0.179959,0.0420254,-0.186625,-0.059618,-0.242966,0.476861,-0.0160276,0,0,0,0,0,0,0,0.0189606,-0.0531382,0.51139,-1.55971,-0.0717111,1.46702,1.31716,-0.0373737,-0.0101662,-0.0532366,-0.0300887,-0.806888,-0.57266,-0.0122549,-5.44751,-24.7865,-6.06108,25.6339,-1.18958,2.90032,-0.0429228,-0.530562,3.7639,1.93603,-2.12043,-0.431064,1.74191,1.75219,-0.237866,1.77655,0.149655,0.601334,-0.451954,0.0240068,
-0.00824426,-0.0432846,0.483159,-1.57187,-0.248812,-0.190525,0.524799,-0.181231,0.0396127,-0.187876,-0.0588169,-0.122871,0.539153,-0.0156111,0,0,0,0,0,0,0,0.0189606,-0.0531382,0.51139,-1.55971,-0.0717111,1.46702,1.31716,-0.0373737,-0.0101662,-0.0532366,-0.0300887,-0.806888,-0.57266,-0.0122549,-5.44751,-24.7865,-6.06108,25.6339,-1.18958,2.90032,-0.0429228,2.41224,1.81259,2.39482,-0.967643,1.06528,0.0911047,0.112062,0.268671,0.0906337,0.38761,-0.0631,-0.212384,0.0203958,
-0.00897326,-0.043136,0.482404,-1.57211,-0.248791,-0.188118,0.524738,-0.18225,0.0371595,-0.188866,-0.0579356,0.00525123,0.601869,-0.015287,0,0,0,0,0,0,0,0.0189606,-0.0531382,0.51139,-1.55971,-0.0717111,1.46702,1.31716,-0.0373737,-0.0101662,-0.0532366,-0.0300887,-0.806888,-0.57266,-0.0122549,-5.44751,-24.7865,-6.06108,25.6339,-1.18958,2.90032,-0.0429228,5.06948,1.77407,1.90727,-1.0137,2.88354,-0.604109,-0.587204,1.20268,-0.597507,0.296898,-0.221259,0.123109,0.0149402,
-0.0097042,-0.0429969,0.481646,-1.57233,-0.248233,-0.185465,0.524678,-0.182737,0.0347812,-0.189321,-0.0568307,0.139609,0.66332,-0.0150828,0,0,0,0,0,0,0,0.0176618,-0.0535709,0.509778,-1.56181,-0.0951266,1.45511,1.3169,-0.0561207,-0.0297212,-0.0776507,-0.082093,-0.650977,-0.304067,-0.00667493,-2.4284,-24.7389,-3.43474,27.0264,0.758663,3.65014,0.0440523,5.06948,1.77407,1.90727,-1.0137,2.88354,-0.604109,-0.587204,1.20268,-0.597507,0.296898,-0.221259,0.123109,0.0149402,
-0.010433,-0.0428661,0.480892,-1.57255,-0.247129,-0.182582,0.524617,-0.182188,0.0326866,-0.188746,-0.0552439,0.276108,0.720572,-0.0150531,0,0,0,0,0,0,0,0.0176618,-0.0535709,0.509778,-1.56181,-0.0951266,1.45511,1.3169,-0.0561207,-0.0297212,-0.0776507,-0.082093,-0.650977,-0.304067,-0.00667493,-2.4284,-24.7389,-3.43474,27.0264,0.758663,3.65014,0.0440523,3.98257,3.0755,0.9649,-1.98871,2.57453,0.308303,0.320591,1.2643,0.34707,-0.0274378,0.0643276,0.122006,-0.00501516,
-0.0111519,-0.0427412,0.480146,-1.57277,-0.245501,-0.179507,0.524556,-0.179748,0.0312319,-0.186294,-0.0527268,0.406922,0.768818,-0.0153134,0,0,0,0,0,0,0,0.0176618,-0.0535709,0.509778,-1.56181,-0.0951266,1.45511,1.3169,-0.0561207,-0.0297212,-0.0776507,-0.082093,-0.650977,-0.304067,-0.00667493,-2.4284,-24.7389,-3.43474,27.0264,0.758663,3.65014,0.0440523,3.98257,3.0755,0.9649,-1.98871,2.57453,0.308303,0.320591,1.2643,0.34707,-0.0274378,0.0643276,0.122006,-0.00501516,
-0.0118482,-0.0426172,0.479424,-1.57296,-0.243425,-0.176305,0.524492,-0.174071,0.031004,-0.180633,-0.0485063,0.518874,0.800668,-0.0161357,0,0,0,0,0,0,0,0.0176618,-0.0535709,0.509778,-1.56181,-0.0951266,1.45511,1.3169,-0.0561207,-0.0297212,-0.0776507,-0.082093,-0.650977,-0.304067,-0.00667493,-2.4284,-24.7389,-3.43474,27.0264,0.758663,3.65014,0.0440523,3.59765,1.30881,1.98707,-0.621671,1.62895,-0.352693,-0.340037,0.433434,-0.354414,0.596975,-0.249381,0.237108,-0.0160283,
-0.012501,-0.0424851,0.478745,-1.57312,-0.241057,-0.173084,0.524419,-0.16318,0.0330305,-0.169797,-0.0410861,0.592054,0.805125,-0.0181184,0,0,0,0,0,0,0,0.0176618,-0.0535709,0.509778,-1.56181,-0.0951266,1.45511,1.3169,-0.0561207,-0.0297212,-0.0776507,-0.082093,-0.650977,-0.304067,-0.00667493,-2.4284,-24.7389,-3.43474,27.0264,0.758663,3.65014,0.0440523,3.59765,1.30881,1.98707,-0.621671,1.62895,-0.352693,-0.340037,0.433434,-0.354414,0.596975,-0.249381,0.237108,-0.0160283,
-0.0130776,-0.0423268,0.478141,-1.57323,-0.238664,-0.170028,0.524332,-0.144164,0.0395786,-0.150876,-0.0266972,0.598212,0.76408,-0.0217565,0,0,0,0,0,0,0,0.0176618,-0.0535709,0.509778,-1.56181,-0.0951266,1.45511,1.3169,-0.0561207,-0.0297212,-0.0776507,-0.082093,-0.650977,-0.304067,-0.00667493,-2.4284,-24.7389,-3.43474,27.0264,0.758663,3.65014,0.0440523,4.1546,-0.424948,2.57362,0.573535,1.5808,-1.26561,-1.25419,0.190596,-1.29857,0.925659,-0.591274,0.308533,-0.0192475,
-0.0135256,-0.042098,0.477667,-1.5732,-0.236688,-0.167478,0.52428,-0.112004,0.0571941,-0.118452,0.00650611,0.493986,0.637342,-0.0130237,0,0,0,0,0,0,0,0.0149655,-0.0539553,0.506256,-1.56486,-0.106456,1.45139,1.31681,-0.0961527,-0.00932647,-0.128128,-0.0991839,-0.072593,0.000795724,-0.00336746,-0.95654,-25.8339,-1.98668,27.8476,1.0086,3.6831,0.0376436,4.1546,-0.424948,2.57362,0.573535,1.5808,-1.26561,-1.25419,0.190596,-1.29857,0.925659,-0.591274,0.308533,-0.0192475,
-0.0138916,-0.0418698,0.477278,-1.57316,-0.234968,-0.165242,0.524227,-0.0914894,0.0570518,-0.0972031,0.0109152,0.430197,0.559127,-0.01319,0,0,0,0,0,0,0,0.0149655,-0.0539553,0.506256,-1.56486,-0.106456,1.45139,1.31681,-0.0961527,-0.00932647,-0.128128,-0.0991839,-0.072593,0.000795724,-0.00336746,-0.95654,-25.8339,-1.98668,27.8476,1.0086,3.6831,0.0376436,4.44982,0.905794,1.14853,-0.641136,2.4924,-0.728577,-0.713451,1.01524,-0.724683,0.23926,-0.408061,0.254865,-0.0248101,
-0.0141992,-0.0416613,0.47695,-1.57313,-0.233409,-0.163231,0.524173,-0.0769143,0.0521147,-0.0820811,0.00804604,0.389581,0.502685,-0.0135872,0,0,0,0,0,0,0,0.0149655,-0.0539553,0.506256,-1.56486,-0.106456,1.45139,1.31681,-0.0961527,-0.00932647,-0.128128,-0.0991839,-0.072593,0.000795724,-0.00336746,-0.95654,-25.8339,-1.98668,27.8476,1.0086,3.6831,0.0376436,3.68648,0.471103,-0.180702,-0.529323,2.5844,-0.71718,-0.703746,1.36169,-0.710065,-0.268205,-0.250057,0.16039,-0.0294975,
-0.0144632,-0.041476,0.476667,-1.57311,-0.231955,-0.161397,0.524118,-0.0659818,0.0463278,-0.070758,0.00408789,0.363574,0.458598,-0.0138321,0,0,0,0,0,0,0,0.0149655,-0.0539553,0.506256,-1.56486,-0.106456,1.45139,1.31681,-0.0961527,-0.00932647,-0.128128,-0.0991839,-0.072593,0.000795724,-0.00336746,-0.95654,-25.8339,-1.98668,27.8476,1.0086,3.6831,0.0376436,3.68648,0.471103,-0.180702,-0.529323,2.5844,-0.71718,-0.703746,1.36169,-0.710065,-0.268205,-0.250057,0.16039,-0.0294975,
-0.0146933,-0.0413126,0.476419,-1.57311,-0.230566,-0.159705,0.524062,-0.0575232,0.040849,-0.0620228,0.000629473,0.347241,0.422989,-0.013987,0,0,0,0,0,0,0,0.0149655,-0.0539553,0.506256,-1.56486,-0.106456,1.45139,1.31681,-0.0961527,-0.00932647,-0.128128,-0.0991839,-0.072593,0.000795724,-0.00336746,-0.95654,-25.8339,-1.98668,27.8476,1.0086,3.6831,0.0376436,2.33422,-0.62741,-0.0629588,0.323701,1.58988,-0.867826,-0.859267,0.811452,-0.881435,-0.114992,-0.218972,0.0920007,-0.026037,
-0.0148966,-0.0411687,0.476198,-1.57312,-0.229216,-0.158129,0.524005,-0.0508425,0.0359734,-0.0551464,-0.00206912,0.337436,0.393859,-0.014092,0,0,0,0,0,0,0,0.0116625,-0.0535014,0.502051,-1.5662,-0.105861,1.4528,1.31677,-0.0986785,0.0335662,-0.135458,-0.0143493,0.00576737,0.0620701,0.00163372,0.463749,-28.2063,-0.487047,27.3517,0.21484,3.33794,-0.00996382,2.33422,-0.62741,-0.0629588,0.323701,1.58988,-0.867826,-0.859267,0.811452,-0.881435,-0.114992,-0.218972,0.0920007,-0.026037,
-0.0150786,-0.0410418,0.476,-1.57313,-0.227888,-0.15665,0.523949,-0.0454801,0.0317308,-0.0496454,-0.00409304,0.332045,0.369918,-0.0141666,0,0,0,0,0,0,0,0.0116625,-0.0535014,0.502051,-1.5662,-0.105861,1.4528,1.31677,-0.0986785,0.0335662,-0.135458,-0.0143493,0.00576737,0.0620701,0.00163372,0.463749,-28.2063,-0.487047,27.3517,0.21484,3.33794,-0.00996382,1.69861,0.00618527,0.0390289,-0.0273357,1.13304,-0.418227,-0.409757,0.567844,-0.424711,-0.0445582,-0.0949096,0.0960827,-0.0188442,
-0.015243,-0.0409295,0.475819,-1.57316,-0.22657,-0.155249,0.523892,-0.0411148,0.0280727,-0.0451815,-0.00558787,0.329611,0.350214,-0.0142214,0,0,0,0,0,0,0,0.0116625,-0.0535014,0.502051,-1.5662,-0.105861,1.4528,1.31677,-0.0986785,0.0335662,-0.135458,-0.0143493,0.00576737,0.0620701,0.00163372,0.463749,-28.2063,-0.487047,27.3517,0.21484,3.33794,-0.00996382,0.64644,1.16264,-0.795537,-0.921181,0.815862,0.391906,0.401229,0.605767,0.410211,-0.36047,0.133315,0.0580133,-0.0204706,
-0.0153931,-0.0408298,0.475653,-1.57318,-0.225253,-0.153913,0.523835,-0.0375151,0.0249317,-0.0415114,-0.00668483,0.32912,0.33399,-0.0142626,0,0,0,0,0,0,0,0.0116625,-0.0535014,0.502051,-1.5662,-0.105861,1.4528,1.31677,-0.0986785,0.0335662,-0.135458,-0.0143493,0.00576737,0.0620701,0.00163372,0.463749,-28.2063,-0.487047,27.3517,0.21484,3.33794,-0.00996382,0.64644,1.16264,-0.795537,-0.921181,0.815862,0.391906,0.401229,0.605767,0.410211,-0.36047,0.133315,0.0580133,-0.0204706,
-0.0155311,-0.0407408,0.475499,-1.57321,-0.223934,-0.15263,0.523777,-0.0345115,0.0222398,-0.038457,-0.00748712,0.32987,0.320631,-0.0142944,0,0,0,0,0,0,0,0.0116625,-0.0535014,0.502051,-1.5662,-0.105861,1.4528,1.31677,-0.0986785,0.0335662,-0.135458,-0.0143493,0.00576737,0.0620701,0.00163372,0.463749,-28.2063,-0.487047,27.3517,0.21484,3.33794,-0.00996382,0.641124,1.80648,-1.49616,-1.41292,1.25539,0.67886,0.694572,1.04878,0.704865,-0.729079,0.350195,-0.0160038,-0.0216396,
-0.0299555,-0.0291907,0.460301,-1.58084,-0.23114,-0.283038,0.513467,-0.336731,0.176102,-0.351808,-0.142667,-1.2294,-1.04567,-0.0742296,0,0,0,0,0,0,0,0.0116625,-0.0535014,0.502051,-1.5662,-0.105861,1.4528,1.31677,-0.0986785,0.0335662,-0.135458,-0.0143493,0.00576737,0.0620701,0.00163372,0.463749,-28.2063,-0.487047,27.3517,0.21484,3.33794,-0.00996382,0.641124,1.80648,-1.49616,-1.41292,1.25539,0.67886,0.694572,1.04878,0.704865,-0.729079,0.350195,-0.0160038,-0.0216396,
-0.0215091,-0.0399583,0.467457,-1.57787,-0.218554,-0.171661,0.522722,-0.199827,0.0773268,-0.207473,-0.0663256,-0.0758811,-0.217674,-0.0323595,0,0,0,0,0,0,0,0.00796258,-0.0523455,0.497873,-1.56617,-0.106549,1.45491,1.31674,-0.127009,0.0278273,-0.129148,-0.000774214,-0.0406517,0.0845888,-0.000595676,1.2215,-28.2579,0.314344,25.7568,0.642391,2.55608,-0.0026396,-0.350364,1.45036,-1.09202,-1.02681,0.481239,0.75603,0.779149,0.602209,0.761094,-0.570023,0.433254,-0.118545,-0.020577,
-0.0223092,-0.039655,0.466626,-1.57813,-0.218567,-0.172439,0.522595,-0.20003,0.0758183,-0.207673,-0.065759,-0.00330059,-0.194389,-0.0316443,0,0,0,0,0,0,0,0.00796258,-0.0523455,0.497873,-1.56617,-0.106549,1.45491,1.31674,-0.127009,0.0278273,-0.129148,-0.000774214,-0.0406517,0.0845888,-0.000595676,1.2215,-28.2579,0.314344,25.7568,0.642391,2.55608,-0.0026396,-0.350364,1.45036,-1.09202,-1.02681,0.481239,0.75603,0.779149,0.602209,0.761094,-0.570023,0.433254,-0.118545,-0.020577,
-0.0231104,-0.0393583,0.465795,-1.57839,-0.218269,-0.173118,0.522472,-0.200311,0.074174,-0.207949,-0.0652013,0.0745161,-0.16986,-0.0309446,0,0,0,0,0,0,0,0.00796258,-0.0523455,0.497873,-1.56617,-0.106549,1.45491,1.31674,-0.127009,0.0278273,-0.129148,-0.000774214,-0.0406517,0.0845888,-0.000595676,1.2215,-28.2579,0.314344,25.7568,0.642391,2.55608,-0.0026396,-2.00281,2.5338,-0.223068,-1.54711,-0.98009,1.67557,1.70578,-0.308034,1.68045,-0.185335,0.584825,-0.160309,-0.0235912,
-0.0239132,-0.0390688,0.464961,-1.57865,-0.217636,-0.173694,0.522351,-0.200687,0.0723842,-0.208317,-0.0646634,0.158224,-0.143952,-0.0302709,0,0,0,0,0,0,0,0.00796258,-0.0523455,0.497873,-1.56617,-0.106549,1.45491,1.31674,-0.127009,0.0278273,-0.129148,-0.000774214,-0.0406517,0.0845888,-0.000595676,1.2215,-28.2579,0.314344,25.7568,0.642391,2.55608,-0.0026396,-2.41511,4.23376,-0.618065,-2.7982,-1.13005,2.57829,2.59858,-0.319347,2.62601,-0.312851,0.698308,-0.0921693,-0.02239,
-0.0247178,-0.038787,0.464126,-1.57891,-0.216642,-0.17416,0.522232,-0.201171,0.07044,-0.208791,-0.0641587,0.248527,-0.116495,-0.0296198,0,0,0,0,0,0,0,0.00796258,-0.0523455,0.497873,-1.56617,-0.106549,1.45491,1.31674,-0.127009,0.0278273,-0.129148,-0.000774214,-0.0406517,0.0845888,-0.000595676,1.2215,-28.2579,0.314344,25.7568,0.642391,2.55608,-0.0026396,-2.41511,4.23376,-0.618065,-2.7982,-1.13005,2.57829,2.59858,-0.319347,2.62601,-0.312851,0.698308,-0.0921693,-0.02239,
-0.0255249,-0.0385137,0.463289,-1.57916,-0.215258,-0.174509,0.522116,-0.201772,0.0683327,-0.20938,-0.0637055,0.346147,-0.0872822,-0.0289996,0,0,0,0,0,0,0,0.00378028,-0.0510985,0.493433,-1.56624,-0.111221,1.45559,1.31641,-0.133869,0.0115904,-0.144119,-0.0155016,-0.236266,-0.0428345,-0.0280323,-3.36865,-26.3338,-4.08537,24.7095,-0.652164,1.85937,-0.0630644,0.994523,1.67836,-1.31268,-1.51638,1.62322,0.520203,0.534778,1.29478,0.553823,-0.956934,0.209268,-0.287642,-0.0349494,
-0.0263349,-0.0382495,0.462448,-1.57942,-0.21345,-0.174733,0.522002,-0.202493,0.0660564,-0.210085,-0.0633273,0.451787,-0.0560609,-0.0284154,0,0,0,0,0,0,0,0.00378028,-0.0510985,0.493433,-1.56624,-0.111221,1.45559,1.31641,-0.133869,0.0115904,-0.144119,-0.0155016,-0.236266,-0.0428345,-0.0280323,-3.36865,-26.3338,-4.08537,24.7095,-0.652164,1.85937,-0.0630644,0.994523,1.67836,-1.31268,-1.51638,1.62322,0.520203,0.534778,1.29478,0.553823,-0.956934,0.209268,-0.287642,-0.0349494,
-0.0271482,-0.0379951,0.461605,-1.57967,-0.211186,-0.174823,0.521891,-0.203317,0.0636095,-0.210892,-0.0630534,0.566037,-0.0225263,-0.0278802,0,0,0,0,0,0,0,0.00378028,-0.0510985,0.493433,-1.56624,-0.111221,1.45559,1.31641,-0.133869,0.0115904,-0.144119,-0.0155016,-0.236266,-0.0428345,-0.0280323,-3.36865,-26.3338,-4.08537,24.7095,-0.652164,1.85937,-0.0630644,1.53926,0.288605,-0.373772,-0.606952,1.67322,-0.272176,-0.242811,1.16205,-0.274286,-0.767187,-0.101244,-0.470609,-0.0457001,
-0.0279599,-0.0377487,0.460762,-1.57992,-0.208482,-0.174772,0.521781,-0.202919,0.0615822,-0.210593,-0.062554,0.676179,0.0129369,-0.0273884,0,0,0,0,0,0,0,0.00378028,-0.0510985,0.493433,-1.56624,-0.111221,1.45559,1.31641,-0.133869,0.0115904,-0.144119,-0.0155016,-0.236266,-0.0428345,-0.0280323,-3.36865,-26.3338,-4.08537,24.7095,-0.652164,1.85937,-0.0630644,1.53926,0.288605,-0.373772,-0.606952,1.67322,-0.272176,-0.242811,1.16205,-0.274286,-0.767187,-0.101244,-0.470609,-0.0457001,
-0.0287575,-0.0375063,0.459933,-1.58017,-0.205439,-0.174571,0.521673,-0.199409,0.0606096,-0.207354,-0.0616762,0.760713,0.0501622,-0.026973,0,0,0,0,0,0,0,0.00378028,-0.0510985,0.493433,-1.56624,-0.111221,1.45559,1.31641,-0.133869,0.0115904,-0.144119,-0.0155016,-0.236266,-0.0428345,-0.0280323,-3.36865,-26.3338,-4.08537,24.7095,-0.652164,1.85937,-0.0630644,1.78762,-0.361649,-0.304389,-0.230202,1.92197,-0.650345,-0.625556,1.32731,-0.655635,-0.87844,-0.177992,-0.616991,-0.0493051,
-0.0295335,-0.0372675,0.459124,-1.58041,-0.202133,-0.174206,0.521567,-0.194013,0.0596992,-0.202121,-0.0614447,0.826328,0.0913657,-0.026732,0,0,0,0,0,0,0,-0.00215542,-0.0505759,0.486391,-1.56709,-0.112144,1.45517,1.31618,-0.142008,0.0158814,-0.179425,-0.0212314,0.120801,-0.00152581,-0.00267532,-1.38897,-28.0556,-2.16124,26.106,0.233151,2.19811,-0.0227812,1.23863,-0.570603,-0.100118,-0.0747659,1.47676,-0.610201,-0.589909,1.06444,-0.615436,-0.805413,-0.198596,-0.680022,-0.0527504,
-0.0302829,-0.0370334,0.458342,-1.58066,-0.198623,-0.173655,0.52146,-0.187347,0.0585151,-0.195535,-0.0619776,0.877617,0.137543,-0.0266846,0,0,0,0,0,0,0,-0.00215542,-0.0505759,0.486391,-1.56709,-0.112144,1.45517,1.31618,-0.142008,0.0158814,-0.179425,-0.0212314,0.120801,-0.00152581,-0.00267532,-1.38897,-28.0556,-2.16124,26.106,0.233151,2.19811,-0.0227812,1.23863,-0.570603,-0.100118,-0.0747659,1.47676,-0.610201,-0.589909,1.06444,-0.615436,-0.805413,-0.198596,-0.680022,-0.0527504,
-0.031002,-0.0368056,0.45759,-1.58091,-0.194952,-0.1729,0.521352,-0.179759,0.0569532,-0.187959,-0.0631353,0.917804,0.188909,-0.0268994,0,0,0,0,0,0,0,-0.00215542,-0.0505759,0.486391,-1.56709,-0.112144,1.45517,1.31618,-0.142008,0.0158814,-0.179425,-0.0212314,0.120801,-0.00152581,-0.00267532,-1.38897,-28.0556,-2.16124,26.106,0.233151,2.19811,-0.0227812,0.977636,-1.4944,0.126268,0.571454,1.17366,-0.975183,-0.959803,0.849009,-0.992134,-0.690218,-0.298637,-0.71638,-0.0532221,
-0.0316875,-0.0365855,0.456872,-1.58117,-0.191155,-0.171922,0.521242,-0.171391,0.055032,-0.179535,-0.0646241,0.949108,0.244462,-0.0275425,0,0,0,0,0,0,0,-0.00215542,-0.0505759,0.486391,-1.56709,-0.112144,1.45517,1.31618,-0.142008,0.0158814,-0.179425,-0.0212314,0.120801,-0.00152581,-0.00267532,-1.38897,-28.0556,-2.16124,26.106,0.233151,2.19811,-0.0227812,0.977636,-1.4944,0.126268,0.571454,1.17366,-0.975183,-0.959803,0.849009,-0.992134,-0.690218,-0.298637,-0.71638,-0.0532221,
-0.0323362,-0.0363738,0.456192,-1.58143,-0.187264,-0.170718,0.521126,-0.162176,0.0529142,-0.170174,-0.0658737,0.972895,0.301009,-0.0289634,0,0,0,0,0,0,0,-0.00215542,-0.0505759,0.486391,-1.56709,-0.112144,1.45517,1.31618,-0.142008,0.0158814,-0.179425,-0.0212314,0.120801,-0.00152581,-0.00267532,-1.38897,-28.0556,-2.16124,26.106,0.233151,2.19811,-0.0227812,0.761666,-2.04203,0.382429,1.00287,0.931982,-1.17786,-1.1662,0.680812,-1.20331,-0.587928,-0.324091,-0.754712,-0.0571471,
-0.0329433,-0.0361695,0.455554,-1.5817,-0.183305,-0.169311,0.520999,-0.151766,0.0510719,-0.159492,-0.0656778,0.989692,0.35179,-0.0318103,0,0,0,0,0,0,0,-0.00215542,-0.0505759,0.486391,-1.56709,-0.112144,1.45517,1.31618,-0.142008,0.0158814,-0.179425,-0.0212314,0.120801,-0.00152581,-0.00267532,-1.38897,-28.0556,-2.16124,26.106,0.233151,2.19811,-0.0227812,1.06672,-1.24514,-0.657074,0.27976,1.72178,-0.878691,-0.864821,1.36624,-0.883131,-1.12866,-0.168169,-0.835945,-0.0637641,
-0.0335007,-0.0359661,0.454967,-1.58194,-0.179309,-0.167776,0.520854,-0.139356,0.0508719,-0.146632,-0.0610493,0.99896,0.383699,-0.0363339,0,0,0,0,0,0,0,-0.00739869,-0.0502962,0.480794,-1.56762,-0.102465,1.4554,1.31614,-0.173227,0.00340346,-0.189353,-0.00869437,0.401852,0.0239349,-0.00740583,-0.29797,-27.5081,-1.0623,25.3601,0.727535,2.21093,0.00376909,1.06672,-1.24514,-0.657074,0.27976,1.72178,-0.878691,-0.864821,1.36624,-0.883131,-1.12866,-0.168169,-0.835945,-0.0637641,
-0.0339631,-0.0357259,0.454477,-1.5821,-0.175629,-0.166326,0.520746,-0.115605,0.0600325,-0.122561,-0.0405102,0.919899,0.362565,-0.0269072,0,0,0,0,0,0,0,-0.00739869,-0.0502962,0.480794,-1.56762,-0.102465,1.4554,1.31614,-0.173227,0.00340346,-0.189353,-0.00869437,0.401852,0.0239349,-0.00740583,-0.29797,-27.5081,-1.0623,25.3601,0.727535,2.21093,0.00376909,0.545272,-1.19097,-1.27973,0.211616,1.69261,-0.727583,-0.713762,1.50999,-0.729285,-1.37514,-0.0254755,-0.890689,-0.0644424,
-0.0343604,-0.0354889,0.454054,-1.58225,-0.172152,-0.164887,0.520639,-0.0993078,0.0592636,-0.105807,-0.0355604,0.869449,0.359543,-0.0268199,0,0,0,0,0,0,0,-0.00739869,-0.0502962,0.480794,-1.56762,-0.102465,1.4554,1.31614,-0.173227,0.00340346,-0.189353,-0.00869437,0.401852,0.0239349,-0.00740583,-0.29797,-27.5081,-1.0623,25.3601,0.727535,2.21093,0.00376909,0.545272,-1.19097,-1.27973,0.211616,1.69261,-0.727583,-0.713762,1.50999,-0.729285,-1.37514,-0.0254755,-0.890689,-0.0644424,
-0.0347092,-0.0352664,0.45368,-1.58238,-0.168806,-0.163441,0.52053,-0.0872014,0.0556229,-0.0933693,-0.0346398,0.83633,0.361691,-0.027147,0,0,0,0,0,0,0,-0.00739869,-0.0502962,0.480794,-1.56762,-0.102465,1.4554,1.31614,-0.173227,0.00340346,-0.189353,-0.00869437,0.401852,0.0239349,-0.00740583,-0.29797,-27.5081,-1.0623,25.3601,0.727535,2.21093,0.00376909,-1.23383,-1.61851,-0.876444,0.718634,0.247154,-0.493034,-0.482714,0.660661,-0.509934,-1.04161,0.0847225,-0.890001,-0.0676787,
-0.0350205,-0.0350611,0.453345,-1.58252,-0.165548,-0.16198,0.520421,-0.0778346,0.0513284,-0.0837704,-0.034443,0.814526,0.365078,-0.0273832,0,0,0,0,0,0,0,-0.00739869,-0.0502962,0.480794,-1.56762,-0.102465,1.4554,1.31614,-0.173227,0.00340346,-0.189353,-0.00869437,0.401852,0.0239349,-0.00740583,-0.29797,-27.5081,-1.0623,25.3601,0.727535,2.21093,0.00376909,-2.16491,-1.04733,-0.599903,0.577977,-0.544986,-0.00118232,0.00814045,0.179309,-0.0205493,-0.782504,0.298965,-0.796379,-0.064833,
-0.0353021,-0.0348727,0.45304,-1.58266,-0.162347,-0.160506,0.52031,-0.0704041,0.0470829,-0.0761797,-0.0341345,0.800378,0.368548,-0.0275488,0,0,0,0,0,0,0,-0.0126068,-0.0498665,0.474882,-1.56796,-0.0893198,1.45742,1.31608,-0.164436,0.0187666,-0.200698,-0.0101344,0.41984,0.0721735,-0.000423449,1.75708,-28.3809,0.86183,26.0544,1.09466,2.86095,-0.0630644,-2.16491,-1.04733,-0.599903,0.577977,-0.544986,-0.00118232,0.00814045,0.179309,-0.0205493,-0.782504,0.298965,-0.796379,-0.064833,
-0.0355597,-0.0347003,0.45276,-1.58279,-0.159181,-0.159019,0.5202,-0.0644019,0.0431055,-0.070068,-0.0335854,0.791473,0.371782,-0.02767,0,0,0,0,0,0,0,-0.0126068,-0.0498665,0.474882,-1.56796,-0.0893198,1.45742,1.31608,-0.164436,0.0187666,-0.200698,-0.0101344,0.41984,0.0721735,-0.000423449,1.75708,-28.3809,0.86183,26.0544,1.09466,2.86095,-0.0630644,-1.20279,0.0879745,-1.1105,-0.0948251,0.307343,0.312258,0.327074,0.707326,0.302336,-0.913752,0.521633,-0.598302,-0.0632842,
-0.0357977,-0.0345425,0.4525,-1.58292,-0.156036,-0.15752,0.520089,-0.0594797,0.0394567,-0.0650721,-0.0328449,0.786157,0.374714,-0.0277617,0,0,0,0,0,0,0,-0.0126068,-0.0498665,0.474882,-1.56796,-0.0893198,1.45742,1.31608,-0.164436,0.0187666,-0.200698,-0.0101344,0.41984,0.0721735,-0.000423449,1.75708,-28.3809,0.86183,26.0544,1.09466,2.86095,-0.0630644,-1.20279,0.0879745,-1.1105,-0.0948251,0.307343,0.312258,0.327074,0.707326,0.302336,-0.913752,0.521633,-0.598302,-0.0632842,
-0.0360192,-0.0343979,0.452256,-1.58305,-0.152903,-0.156011,0.519977,-0.0553888,0.036142,-0.0609324,-0.0319885,0.783272,0.377349,-0.0278327,0,0,0,0,0,0,0,-0.0126068,-0.0498665,0.474882,-1.56796,-0.0893198,1.45742,1.31608,-0.164436,0.0187666,-0.200698,-0.0101344,0.41984,0.0721735,-0.000423449,1.75708,-28.3809,0.86183,26.0544,1.09466,2.86095,-0.0630644,-0.576616,0.335826,-1.56255,-0.191073,0.804508,0.299963,0.310376,0.995487,0.295259,-0.935522,0.615071,-0.380843,-0.0646311,
-0.0392967,-0.0336167,0.449052,-1.58934,-0.273419,-0.292939,0.511467,-0.311282,0.136248,-0.323157,-0.150264,-1.21023,-0.855565,-0.0856885,0,0,0,0,0,0,0,-0.0126068,-0.0498665,0.474882,-1.56796,-0.0893198,1.45742,1.31608,-0.164436,0.0187666,-0.200698,-0.0101344,0.41984,0.0721735,-0.000423449,1.75708,-28.3809,0.86183,26.0544,1.09466,2.86095,-0.0630644,-0.576616,0.335826,-1.56255,-0.191073,0.804508,0.299963,0.310376,0.995487,0.295259,-0.935522,0.615071,-0.380843,-0.0646311,
-0.0412871,-0.0430366,0.444958,-1.58224,-0.206709,-0.10074,0.520206,-0.152322,0.0278756,-0.158864,-0.0807204,-0.538345,0.576959,-0.046196,0,0,0,0,0,0,0,-0.0126068,-0.0498665,0.474882,-1.56796,-0.0893198,1.45742,1.31608,-0.164436,0.0187666,-0.200698,-0.0101344,0.41984,0.0721735,-0.000423449,1.75708,-28.3809,0.86183,26.0544,1.09466,2.86095,-0.0630644,-0.087354,0.833984,-1.88773,-0.547618,1.16024,0.436378,0.440993,1.18457,0.446562,-0.958943,0.627353,-0.214965,-0.0622942,
-0.0418947,-0.0429285,0.444324,-1.58256,-0.208745,-0.0982822,0.520024,-0.151883,0.0270227,-0.158427,-0.080549,-0.508944,0.614517,-0.0454921,0,0,0,0,0,0,0,-0.0176085,-0.0493682,0.469056,-1.56801,-0.078867,1.45818,1.31606,-0.168243,0.0173671,-0.17007,-0.0022869,0.297423,0.00599847,-0.00262159,2.26093,-28.4801,1.53627,25.9076,0.660702,3.15941,-0.103348,-0.608335,2.15929,-1.83586,-1.40581,0.652093,1.20792,1.21257,0.841468,1.2366,-0.794978,0.70442,-0.0631986,-0.0637473,
-0.0425006,-0.0428238,0.443692,-1.58288,-0.210656,-0.0956664,0.519845,-0.151489,0.0261785,-0.158034,-0.0804302,-0.477812,0.653955,-0.0448091,0,0,0,0,0,0,0,-0.0176085,-0.0493682,0.469056,-1.56801,-0.078867,1.45818,1.31606,-0.168243,0.0173671,-0.17007,-0.0022869,0.297423,0.00599847,-0.00262159,2.26093,-28.4801,1.53627,25.9076,0.660702,3.15941,-0.103348,-0.608335,2.15929,-1.83586,-1.40581,0.652093,1.20792,1.21257,0.841468,1.2366,-0.794978,0.70442,-0.0631986,-0.0637473,
-0.0431052,-0.0427224,0.443061,-1.58321,-0.212435,-0.092885,0.519668,-0.15115,0.0253379,-0.157692,-0.0803632,-0.444611,0.695344,-0.0441511,0,0,0,0,0,0,0,-0.0176085,-0.0493682,0.469056,-1.56801,-0.078867,1.45818,1.31606,-0.168243,0.0173671,-0.17007,-0.0022869,0.297423,0.00599847,-0.00262159,2.26093,-28.4801,1.53627,25.9076,0.660702,3.15941,-0.103348,-1.43503,4.85725,-2.0721,-3.18928,0.148635,2.69789,2.70137,0.595068,2.76851,-0.794873,0.988189,0.062211,-0.0660345,
-0.0437087,-0.0426244,0.442431,-1.58353,-0.21407,-0.0899301,0.519494,-0.150875,0.0244964,-0.15741,-0.0803462,-0.408945,0.738741,-0.0435217,0,0,0,0,0,0,0,-0.0176085,-0.0493682,0.469056,-1.56801,-0.078867,1.45818,1.31606,-0.168243,0.0173671,-0.17007,-0.0022869,0.297423,0.00599847,-0.00262159,2.26093,-28.4801,1.53627,25.9076,0.660702,3.15941,-0.103348,-1.43503,4.85725,-2.0721,-3.18928,0.148635,2.69789,2.70137,0.595068,2.76851,-0.794873,0.988189,0.062211,-0.0660345,
-0.0443114,-0.0425298,0.441802,-1.58385,-0.215552,-0.0867933,0.519322,-0.150673,0.0236496,-0.157199,-0.0803766,-0.370346,0.784182,-0.042927,0,0,0,0,0,0,0,-0.0176085,-0.0493682,0.469056,-1.56801,-0.078867,1.45818,1.31606,-0.168243,0.0173671,-0.17007,-0.0022869,0.297423,0.00599847,-0.00262159,2.26093,-28.4801,1.53627,25.9076,0.660702,3.15941,-0.103348,-1.43356,1.71158,-2.45273,-1.30613,0.41198,1.19815,1.18782,0.873617,1.24275,-1.10846,0.652625,-0.23395,-0.0813466,
-0.0449128,-0.0424367,0.441175,-1.58417,-0.216867,-0.0834956,0.519153,-0.150331,0.0232785,-0.156834,-0.0789836,-0.328705,0.824424,-0.0423808,0,0,0,0,0,0,0,-0.0224578,-0.0490481,0.464009,-1.56845,-0.0814389,1.45797,1.31582,-0.139268,0.0125919,-0.128887,-0.0274705,-0.352275,0.100218,-0.00223623,0.892215,-28.7538,0.0366345,26.5305,-2.51526,4.5382,-0.250748,-1.43356,1.71158,-2.45273,-1.30613,0.41198,1.19815,1.18782,0.873617,1.24275,-1.10846,0.652625,-0.23395,-0.0813466,
-0.0455122,-0.042344,0.44055,-1.58447,-0.218,-0.080071,0.518985,-0.149853,0.0231851,-0.156329,-0.076218,-0.283304,0.856158,-0.0419039,0,0,0,0,0,0,0,-0.0224578,-0.0490481,0.464009,-1.56845,-0.0814389,1.45797,1.31582,-0.139268,0.0125919,-0.128887,-0.0274705,-0.352275,0.100218,-0.00223623,0.892215,-28.7538,0.0366345,26.5305,-2.51526,4.5382,-0.250748,0.579104,-1.17074,-1.74683,0.270234,1.08258,-0.594065,-0.590953,0.887211,-0.59029,-0.738637,-0.262237,-0.0611667,-0.0788109,
-0.0461099,-0.0422526,0.439926,-1.58476,-0.218932,-0.0765437,0.518819,-0.149427,0.0228381,-0.155876,-0.0732369,-0.232977,0.881829,-0.0414885,0,0,0,0,0,0,0,-0.0224578,-0.0490481,0.464009,-1.56845,-0.0814389,1.45797,1.31582,-0.139268,0.0125919,-0.128887,-0.0274705,-0.352275,0.100218,-0.00223623,0.892215,-28.7538,0.0366345,26.5305,-2.51526,4.5382,-0.250748,1.51454,-1.49791,-2.13908,0.281533,1.57411,-0.922842,-0.929552,1.06426,-0.904514,-0.695048,-0.562821,0.206778,-0.0746003,
-0.0467064,-0.0421641,0.439304,-1.58504,-0.219639,-0.0729326,0.518654,-0.149126,0.0221335,-0.155549,-0.0703797,-0.176707,0.902785,-0.041133,0,0,0,0,0,0,0,-0.0224578,-0.0490481,0.464009,-1.56845,-0.0814389,1.45797,1.31582,-0.139268,0.0125919,-0.128887,-0.0274705,-0.352275,0.100218,-0.00223623,0.892215,-28.7538,0.0366345,26.5305,-2.51526,4.5382,-0.250748,1.51454,-1.49791,-2.13908,0.281533,1.57411,-0.922842,-0.929552,1.06426,-0.904514,-0.695048,-0.562821,0.206778,-0.0746003,
-0.0473023,-0.0420798,0.438683,-1.58532,-0.220092,-0.0692528,0.518491,-0.148993,0.0210832,-0.155385,-0.0677439,-0.113414,0.919936,-0.0408418,0,0,0,0,0,0,0,-0.0224578,-0.0490481,0.464009,-1.56845,-0.0814389,1.45797,1.31582,-0.139268,0.0125919,-0.128887,-0.0274705,-0.352275,0.100218,-0.00223623,0.892215,-28.7538,0.0366345,26.5305,-2.51526,4.5382,-0.250748,-0.487622,-1.03631,-2.13659,0.0120183,0.0296526,-0.216925,-0.231753,0.183867,-0.187315,-0.451677,-0.504766,0.289004,-0.0848252,
-0.0478986,-0.0420009,0.438061,-1.58558,-0.22026,-0.0655169,0.518329,-0.149054,0.0197244,-0.155411,-0.065362,-0.0419409,0.933973,-0.0406252,0,0,0,0,0,0,0,-0.0224578,-0.0490481,0.464009,-1.56845,-0.0814389,1.45797,1.31582,-0.139268,0.0125919,-0.128887,-0.0274705,-0.352275,0.100218,-0.00223623,0.892215,-28.7538,0.0366345,26.5305,-2.51526,4.5382,-0.250748,0.418545,-1.76752,-1.45037,0.572373,0.229082,-0.750843,-0.761363,0.0894482,-0.740196,-0.116654,-0.706477,0.418044,-0.0951636,
-0.0484958,-0.0419285,0.437438,-1.58583,-0.220105,-0.0617351,0.518167,-0.149318,0.0180965,-0.155634,-0.06326,0.0388336,0.94545,-0.0404961,0,0,0,0,0,0,0,-0.027123,-0.0490664,0.458314,-1.57116,-0.0956782,1.46769,1.31561,-0.110899,-0.00419096,-0.133475,-0.0911616,-0.289643,0.362823,-0.00533734,-1.28582,-28.3055,-1.98668,26.8042,-1.56861,4.29925,-0.0630644,0.418545,-1.76752,-1.45037,0.572373,0.229082,-0.750843,-0.761363,0.0894482,-0.740196,-0.116654,-0.706477,0.418044,-0.0951636,
-0.0490948,-0.0418635,0.436814,-1.58608,-0.219586,-0.0579159,0.518005,-0.149746,0.0162424,-0.15602,-0.0614765,0.129699,0.954814,-0.0404707,0,0,0,0,0,0,0,-0.027123,-0.0490664,0.458314,-1.57116,-0.0956782,1.46769,1.31561,-0.110899,-0.00419096,-0.133475,-0.0911616,-0.289643,0.362823,-0.00533734,-1.28582,-28.3055,-1.98668,26.8042,-1.56861,4.29925,-0.0630644,2.41701,-2.94923,-1.55281,1.10764,1.45722,-1.74314,-1.75643,0.655595,-1.73517,-0.155502,-1.14428,0.553956,-0.0952172,
-0.0496956,-0.0418066,0.436189,-1.58632,-0.218664,-0.0540663,0.517842,-0.150203,0.0142259,-0.156441,-0.0600648,0.230517,0.962397,-0.0405771,0,0,0,0,0,0,0,-0.027123,-0.0490664,0.458314,-1.57116,-0.0956782,1.46769,1.31561,-0.110899,-0.00419096,-0.133475,-0.0911616,-0.289643,0.362823,-0.00533734,-1.28582,-28.3055,-1.98668,26.8042,-1.56861,4.29925,-0.0630644,2.41701,-2.94923,-1.55281,1.10764,1.45722,-1.74314,-1.75643,0.655595,-1.73517,-0.155502,-1.14428,0.553956,-0.0952172,
-0.0502971,-0.0417579,0.435562,-1.58655,-0.217307,-0.0501927,0.517679,-0.150371,0.0121698,-0.156596,-0.0590666,0.339231,0.968392,-0.0408832,0,0,0,0,0,0,0,-0.027123,-0.0490664,0.458314,-1.57116,-0.0956782,1.46769,1.31561,-0.110899,-0.00419096,-0.133475,-0.0911616,-0.289643,0.362823,-0.00533734,-1.28582,-28.3055,-1.98668,26.8042,-1.56861,4.29925,-0.0630644,3.22225,-2.43518,-2.6655,0.418639,2.48472,-1.6608,-1.67235,1.39982,-1.62847,-0.678682,-1.23402,0.54964,-0.0995258,
-0.0508957,-0.0417166,0.434939,-1.58679,-0.215505,-0.0463017,0.517513,-0.14964,0.0103381,-0.155896,-0.0584081,0.450538,0.972748,-0.0415809,0,0,0,0,0,0,0,-0.027123,-0.0490664,0.458314,-1.57116,-0.0956782,1.46769,1.31561,-0.110899,-0.00419096,-0.133475,-0.0911616,-0.289643,0.362823,-0.00533734,-1.28582,-28.3055,-1.98668,26.8042,-1.56861,4.29925,-0.0630644,3.22225,-2.43518,-2.6655,0.418639,2.48472,-1.6608,-1.67235,1.39982,-1.62847,-0.678682,-1.23402,0.54964,-0.0995258,
-0.0514835,-0.0416792,0.434325,-1.58702,-0.213287,-0.0424021,0.51734,-0.146968,0.00934033,-0.153333,-0.0575587,0.554504,0.97491,-0.0431637,0,0,0,0,0,0,0,-0.0308958,-0.0491979,0.453746,-1.57379,-0.100169,1.48282,1.31552,-0.123202,0.00313264,-0.131304,-0.0663368,-0.0437496,0.520034,-0.000900738,-0.95654,-28.4801,-1.76055,26.6058,-0.46265,3.91472,-0.123489,3.02023,-2.69654,-3.23775,0.57156,2.58139,-1.73464,-1.74286,1.56547,-1.70823,-0.853902,-1.16801,0.563789,-0.104239,
-0.0520462,-0.0416362,0.433736,-1.58723,-0.210747,-0.0385101,0.517155,-0.140663,0.0107463,-0.147253,-0.054452,0.634858,0.973004,-0.0461206,0,0,0,0,0,0,0,-0.0308958,-0.0491979,0.453746,-1.57379,-0.100169,1.48282,1.31552,-0.123202,0.00313264,-0.131304,-0.0663368,-0.0437496,0.520034,-0.000900738,-0.95654,-28.4801,-1.76055,26.6058,-0.46265,3.91472,-0.123489,3.02023,-2.69654,-3.23775,0.57156,2.58139,-1.73464,-1.74286,1.56547,-1.70823,-0.853902,-1.16801,0.563789,-0.104239,
-0.0525483,-0.0415416,0.433208,-1.58734,-0.208111,-0.0349491,0.517004,-0.125533,0.0236618,-0.132079,-0.0274894,0.659027,0.890242,-0.0379623,0,0,0,0,0,0,0,-0.0308958,-0.0491979,0.453746,-1.57379,-0.100169,1.48282,1.31552,-0.123202,0.00313264,-0.131304,-0.0663368,-0.0437496,0.520034,-0.000900738,-0.95654,-28.4801,-1.76055,26.6058,-0.46265,3.91472,-0.123489,1.98924,-3.30432,-2.2324,1.30364,1.39148,-1.80481,-1.80965,0.736035,-1.80847,-0.313117,-1.09686,0.604822,-0.108245,
-0.0530076,-0.04144,0.432723,-1.58743,-0.205361,-0.0315886,0.516852,-0.114805,0.0253938,-0.121235,-0.021763,0.687562,0.840127,-0.0377955,0,0,0,0,0,0,0,-0.0308958,-0.0491979,0.453746,-1.57379,-0.100169,1.48282,1.31552,-0.123202,0.00313264,-0.131304,-0.0663368,-0.0437496,0.520034,-0.000900738,-0.95654,-28.4801,-1.76055,26.6058,-0.46265,3.91472,-0.123489,1.07252,-2.1123,-1.83781,0.744771,0.739658,-1.044,-1.04636,0.384435,-1.04312,-0.185893,-0.775929,0.545914,-0.112752,
-0.0534318,-0.0413434,0.432273,-1.58752,-0.202501,-0.0283716,0.516701,-0.106054,0.0241406,-0.112367,-0.0221537,0.714898,0.804244,-0.0379688,0,0,0,0,0,0,0,-0.0308958,-0.0491979,0.453746,-1.57379,-0.100169,1.48282,1.31552,-0.123202,0.00313264,-0.131304,-0.0663368,-0.0437496,0.520034,-0.000900738,-0.95654,-28.4801,-1.76055,26.6058,-0.46265,3.91472,-0.123489,1.07252,-2.1123,-1.83781,0.744771,0.739658,-1.044,-1.04636,0.384435,-1.04312,-0.185893,-0.775929,0.545914,-0.112752,
-0.0538257,-0.0412542,0.431855,-1.58762,-0.199543,-0.0252667,0.516548,-0.0984834,0.0223113,-0.104687,-0.0241084,0.739642,0.776233,-0.0380871,0,0,0,0,0,0,0,-0.0308958,-0.0491979,0.453746,-1.57379,-0.100169,1.48282,1.31552,-0.123202,0.00313264,-0.131304,-0.0663368,-0.0437496,0.520034,-0.000900738,-0.95654,-28.4801,-1.76055,26.6058,-0.46265,3.91472,-0.123489,0.55368,-0.962921,-2.67226,0.00280693,0.917826,-0.3813,-0.387459,0.722505,-0.358807,-0.584519,-0.427977,0.462842,-0.116662,
-0.0541929,-0.0411719,0.431463,-1.58772,-0.196496,-0.0222525,0.516396,-0.0917892,0.0205731,-0.0978913,-0.0262823,0.76163,0.753533,-0.0381732,0,0,0,0,0,0,0,-0.0353122,-0.0491061,0.449079,-1.57655,-0.0989372,1.50355,1.31533,-0.136512,0.0127208,-0.156088,-0.0650964,0.0804672,0.664046,-0.00631173,0.336795,-29.2815,-0.435472,27.1533,0.855709,3.58971,-0.224197,0.55368,-0.962921,-2.67226,0.00280693,0.917826,-0.3813,-0.387459,0.722505,-0.358807,-0.584519,-0.427977,0.462842,-0.116662,
-0.0545362,-0.0410956,0.431096,-1.58783,-0.193372,-0.0193131,0.516243,-0.0858234,0.0190765,-0.0918336,-0.0283022,0.781037,0.734853,-0.0382445,0,0,0,0,0,0,0,-0.0353122,-0.0491061,0.449079,-1.57655,-0.0989372,1.50355,1.31533,-0.136512,0.0127208,-0.156088,-0.0650964,0.0804672,0.664046,-0.00631173,0.336795,-29.2815,-0.435472,27.1533,0.855709,3.58971,-0.224197,0.464682,-1.06412,-2.35151,0.403816,0.82958,-0.415526,-0.418227,0.676955,-0.413606,-0.444779,-0.144159,0.467521,-0.124505,
-0.0487411,-0.0330694,0.437026,-1.58821,-0.262858,-0.249535,0.512051,-0.193306,0.0983634,-0.202559,-0.124649,-1.19972,-0.303527,-0.0805751,0,0,0,0,0,0,0,-0.0353122,-0.0491061,0.449079,-1.57655,-0.0989372,1.50355,1.31533,-0.136512,0.0127208,-0.156088,-0.0650964,0.0804672,0.664046,-0.00631173,0.336795,-29.2815,-0.435472,27.1533,0.855709,3.58971,-0.224197,0.464682,-1.06412,-2.35151,0.403816,0.82958,-0.415526,-0.418227,0.676955,-0.413606,-0.444779,-0.144159,0.467521,-0.124505,
-0.0531175,-0.0408057,0.430252,-1.58751,-0.191597,-0.074628,0.519338,-0.0740968,0.0494974,-0.0794675,-0.0643441,-0.385614,-0.314852,-0.0503843,0,0,0,0,0,0,0,-0.0353122,-0.0491061,0.449079,-1.57655,-0.0989372,1.50355,1.31533,-0.136512,0.0127208,-0.156088,-0.0650964,0.0804672,0.664046,-0.00631173,0.336795,-29.2815,-0.435472,27.1533,0.855709,3.58971,-0.224197,0.193529,-0.538688,-1.42564,0.521925,0.372837,-0.114554,-0.111419,0.321714,-0.133021,-0.0629764,0.216113,0.490566,-0.122986,
-0.0534091,-0.0406111,0.429939,-1.58776,-0.193167,-0.0759201,0.519139,-0.0728999,0.0486665,-0.0782636,-0.0638711,-0.392607,-0.323028,-0.0499162,0,0,0,0,0,0,0,-0.0353122,-0.0491061,0.449079,-1.57655,-0.0989372,1.50355,1.31533,-0.136512,0.0127208,-0.156088,-0.0650964,0.0804672,0.664046,-0.00631173,0.336795,-29.2815,-0.435472,27.1533,0.855709,3.58971,-0.224197,0.202009,0.711419,-1.82027,-0.248801,0.791411,0.488005,0.493741,0.723449,0.484165,-0.387689,0.536163,0.36386,-0.128574,
-0.053696,-0.04042,0.429631,-1.58802,-0.194768,-0.0772462,0.518941,-0.0717286,0.0477604,-0.0770852,-0.0633742,-0.400106,-0.331527,-0.0494597,0,0,0,0,0,0,0,-0.039477,-0.0488204,0.444094,-1.57847,-0.0963337,1.52423,1.31517,-0.134654,0.0130554,-0.165193,-0.034581,-0.00618933,0.564837,-0.00878253,0.0828892,-28.73,-0.685411,24.4635,0.208431,1.15624,-0.250748,0.202009,0.711419,-1.82027,-0.248801,0.791411,0.488005,0.493741,0.723449,0.484165,-0.387689,0.536163,0.36386,-0.128574,
-0.0539784,-0.040233,0.429327,-1.58827,-0.1964,-0.0786072,0.518745,-0.0705828,0.0467693,-0.0759326,-0.0628679,-0.407976,-0.340245,-0.0490146,0,0,0,0,0,0,0,-0.039477,-0.0488204,0.444094,-1.57847,-0.0963337,1.52423,1.31517,-0.134654,0.0130554,-0.165193,-0.034581,-0.00618933,0.564837,-0.00878253,0.0828892,-28.73,-0.685411,24.4635,0.208431,1.15624,-0.250748,-0.369282,2.56216,-2.3994,-1.44391,0.87109,1.51057,1.50832,0.969453,1.54155,-0.742551,0.919016,0.249114,-0.126188,
-0.0542562,-0.0400502,0.429028,-1.58852,-0.198064,-0.0800032,0.51855,-0.0694673,0.0456816,-0.0748097,-0.0623713,-0.416029,-0.348998,-0.048582,0,0,0,0,0,0,0,-0.039477,-0.0488204,0.444094,-1.57847,-0.0963337,1.52423,1.31517,-0.134654,0.0130554,-0.165193,-0.034581,-0.00618933,0.564837,-0.00878253,0.0828892,-28.73,-0.685411,24.4635,0.208431,1.15624,-0.250748,-0.369282,2.56216,-2.3994,-1.44391,0.87109,1.51057,1.50832,0.969453,1.54155,-0.742551,0.919016,0.249114,-0.126188,
-0.0545298,-0.0398723,0.428733,-1.58877,-0.19976,-0.0814332,0.518358,-0.0683936,0.0444827,-0.0737275,-0.0619119,-0.423988,-0.357494,-0.0481661,0,0,0,0,0,0,0,-0.039477,-0.0488204,0.444094,-1.57847,-0.0963337,1.52423,1.31517,-0.134654,0.0130554,-0.165193,-0.034581,-0.00618933,0.564837,-0.00878253,0.0828892,-28.73,-0.685411,24.4635,0.208431,1.15624,-0.250748,0.549626,3.51031,-2.66457,-2.10308,1.86779,1.75849,1.75549,1.64459,1.80731,-1.10382,1.0863,0.106517,-0.117803,
-0.0547994,-0.0396997,0.428442,-1.58901,-0.201485,-0.0828944,0.518167,-0.0673832,0.0431541,-0.0727065,-0.0615284,-0.431447,-0.365294,-0.0477658,0,0,0,0,0,0,0,-0.039477,-0.0488204,0.444094,-1.57847,-0.0963337,1.52423,1.31517,-0.134654,0.0130554,-0.165193,-0.034581,-0.00618933,0.564837,-0.00878253,0.0828892,-28.73,-0.685411,24.4635,0.208431,1.15624,-0.250748,0.549626,3.51031,-2.66457,-2.10308,1.86779,1.75849,1.75549,1.64459,1.80731,-1.10382,1.0863,0.106517,-0.117803,
-0.0550652,-0.039533,0.428155,-1.58926,-0.203237,-0.0843813,0.517977,-0.066472,0.0416727,-0.0717819,-0.0612751,-0.437813,-0.371743,-0.0473797,0,0,0,0,0,0,0,-0.0431636,-0.0484764,0.439824,-1.57845,-0.110602,1.53038,1.31498,-0.116108,0.00579024,-0.128984,-0.00590863,-0.507496,0.0770425,-0.000890994,0.336795,-29.2061,-0.312487,24.884,-0.762028,0.579458,-0.183914,0.603195,3.73059,-2.06626,-2.35039,1.71557,1.83345,1.83787,1.46641,1.88272,-1.01299,0.927552,-0.0166782,-0.113432,
-0.0553281,-0.039373,0.427871,-1.5895,-0.205006,-0.085885,0.517789,-0.0657182,0.0400088,-0.0710103,-0.0612273,-0.442208,-0.375903,-0.0470066,0,0,0,0,0,0,0,-0.0431636,-0.0484764,0.439824,-1.57845,-0.110602,1.53038,1.31498,-0.116108,0.00579024,-0.128984,-0.00590863,-0.507496,0.0770425,-0.000890994,0.336795,-29.2061,-0.312487,24.884,-0.762028,0.579458,-0.183914,-0.205675,1.62011,-1.30936,-1.27341,0.914946,0.916243,0.915186,0.950321,0.952784,-0.945501,0.373247,-0.390887,-0.115686,
-0.055589,-0.0392205,0.427589,-1.58975,-0.206779,-0.0873908,0.517603,-0.0652109,0.0381253,-0.0704786,-0.0614852,-0.443354,-0.37646,-0.0466408,0,0,0,0,0,0,0,-0.0431636,-0.0484764,0.439824,-1.57845,-0.110602,1.53038,1.31498,-0.116108,0.00579024,-0.128984,-0.00590863,-0.507496,0.0770425,-0.000890994,0.336795,-29.2061,-0.312487,24.884,-0.762028,0.579458,-0.183914,-0.205675,1.62011,-1.30936,-1.27341,0.914946,0.916243,0.915186,0.950321,0.952784,-0.945501,0.373247,-0.390887,-0.115686,
-0.0558493,-0.0390766,0.427308,-1.59,-0.208537,-0.0888773,0.517418,-0.0650834,0.035977,-0.0703174,-0.0621766,-0.439393,-0.371629,-0.0462705,0,0,0,0,0,0,0,-0.0431636,-0.0484764,0.439824,-1.57845,-0.110602,1.53038,1.31498,-0.116108,0.00579024,-0.128984,-0.00590863,-0.507496,0.0770425,-0.000890994,0.336795,-29.2061,-0.312487,24.884,-0.762028,0.579458,-0.183914,-0.851366,0.341682,-0.846443,-0.69534,0.492604,0.359781,0.356273,0.749132,0.391253,-1.08434,0.0355328,-0.814415,-0.115839,
-0.0561114,-0.0389425,0.427025,-1.59025,-0.210247,-0.0903137,0.517234,-0.0655277,0.0335116,-0.0707149,-0.063451,-0.42767,-0.359098,-0.0458762,0,0,0,0,0,0,0,-0.0431636,-0.0484764,0.439824,-1.57845,-0.110602,1.53038,1.31498,-0.116108,0.00579024,-0.128984,-0.00590863,-0.507496,0.0770425,-0.000890994,0.336795,-29.2061,-0.312487,24.884,-0.762028,0.579458,-0.183914,-0.851366,0.341682,-0.846443,-0.69534,0.492604,0.359781,0.356273,0.749132,0.391253,-1.08434,0.0355328,-0.814415,-0.115839,
-0.0563786,-0.0388198,0.426737,-1.59051,-0.211865,-0.0916579,0.517052,-0.0668085,0.0306749,-0.0719318,-0.0654595,-0.404487,-0.336049,-0.0454259,0,0,0,0,0,0,0,-0.0431636,-0.0484764,0.439824,-1.57845,-0.110602,1.53038,1.31498,-0.116108,0.00579024,-0.128984,-0.00590863,-0.507496,0.0770425,-0.000890994,0.336795,-29.2061,-0.312487,24.884,-0.762028,0.579458,-0.183914,-1.90216,0.345651,-0.716133,-0.849675,-0.274564,0.562614,0.55768,0.32462,0.601336,-1.07179,-0.10044,-0.943213,-0.11975,
-0.0566557,-0.0387101,0.42644,-1.59078,-0.213325,-0.0928552,0.516873,-0.0692708,0.0274206,-0.0743083,-0.0683179,-0.364897,-0.299326,-0.0448712,0,0,0,0,0,0,0,-0.0463102,-0.0480164,0.436313,-1.57849,-0.124917,1.53125,1.31492,-0.0949914,0.0123813,-0.111995,-0.00954069,-0.461812,0.00324491,0.000103488,0.590702,-29.6544,-0.0863513,25.3323,-0.811466,1.80627,-0.123489,-2.09142,-0.574564,-0.664394,-0.475846,-0.441578,0.127246,0.12548,0.223062,0.159732,-1.12764,-0.407705,-1.07092,-0.12217,
-0.056949,-0.0386152,0.426127,-1.59107,-0.214536,-0.0938382,0.516696,-0.0733255,0.023724,-0.0782535,-0.0720633,-0.302698,-0.245739,-0.0441427,0,0,0,0,0,0,0,-0.0463102,-0.0480164,0.436313,-1.57849,-0.124917,1.53125,1.31492,-0.0949914,0.0123813,-0.111995,-0.00954069,-0.461812,0.00324491,0.000103488,0.590702,-29.6544,-0.0863513,25.3323,-0.811466,1.80627,-0.123489,-2.09142,-0.574564,-0.664394,-0.475846,-0.441578,0.127246,0.12548,0.223062,0.159732,-1.12764,-0.407705,-1.07092,-0.12217,
-0.0572666,-0.0385369,0.42579,-1.59138,-0.215379,-0.0945275,0.516524,-0.0794048,0.0195885,-0.0842024,-0.0766487,-0.210839,-0.172328,-0.0431432,0,0,0,0,0,0,0,-0.0463102,-0.0480164,0.436313,-1.57849,-0.124917,1.53125,1.31492,-0.0949914,0.0123813,-0.111995,-0.00954069,-0.461812,0.00324491,0.000103488,0.590702,-29.6544,-0.0863513,25.3323,-0.811466,1.80627,-0.123489,-0.712135,-1.79314,-0.930428,-0.0668321,0.731853,-0.79349,-0.784149,0.93607,-0.769309,-1.52311,-0.827308,-1.29161,-0.124611,
-0.0576183,-0.0384768,0.42542,-1.59171,-0.215708,-0.0948326,0.516357,-0.0879029,0.0150167,-0.0925607,-0.0820464,-0.0821745,-0.0762723,-0.0417407,0,0,0,0,0,0,0,-0.0463102,-0.0480164,0.436313,-1.57849,-0.124917,1.53125,1.31492,-0.0949914,0.0123813,-0.111995,-0.00954069,-0.461812,0.00324491,0.000103488,0.590702,-29.6544,-0.0863513,25.3323,-0.811466,1.80627,-0.123489,-0.712135,-1.79314,-0.930428,-0.0668321,0.731853,-0.79349,-0.784149,0.93607,-0.769309,-1.52311,-0.827308,-1.29161,-0.124611,
-0.058015,-0.0384373,0.425005,-1.59206,-0.215346,-0.0946486,0.516196,-0.0991971,0.00987506,-0.103747,-0.0885724,0.0904175,0.0459922,-0.0400801,0,0,0,0,0,0,0,-0.0463102,-0.0480164,0.436313,-1.57849,-0.124917,1.53125,1.31492,-0.0949914,0.0123813,-0.111995,-0.00954069,-0.461812,0.00324491,0.000103488,0.590702,-29.6544,-0.0863513,25.3323,-0.811466,1.80627,-0.123489,0.274486,-3.21481,-0.779164,0.792411,1.35688,-1.71537,-1.70431,1.25046,-1.70935,-1.55643,-1.06906,-1.35256,-0.125135,
-0.0584284,-0.0383906,0.424571,-1.5924,-0.214473,-0.094108,0.516039,-0.103327,0.0116876,-0.108427,-0.0836605,0.218198,0.135155,-0.0394445,0,0,0,0,0,0,0,-0.0491884,-0.0476877,0.433338,-1.57871,-0.136089,1.53121,1.31485,-0.0769128,0.000379175,-0.0873169,-0.0154937,-0.292704,-0.00505127,0.000635415,0.309024,-29.3291,-0.288683,25.0348,-0.597233,2.13769,-0.143631,0.274486,-3.21481,-0.779164,0.792411,1.35688,-1.71537,-1.70431,1.25046,-1.70935,-1.55643,-1.06906,-1.35256,-0.125135,
-0.0588435,-0.0383312,0.424134,-1.5927,-0.213211,-0.0932859,0.515882,-0.103777,0.0148464,-0.109261,-0.0768712,0.31545,0.20552,-0.0391848,0,0,0,0,0,0,0,-0.0491884,-0.0476877,0.433338,-1.57871,-0.136089,1.53121,1.31485,-0.0769128,0.000379175,-0.0873169,-0.0154937,-0.292704,-0.00505127,0.000635415,0.309024,-29.3291,-0.288683,25.0348,-0.597233,2.13769,-0.143631,0.0350437,-2.76156,-1.05538,0.415602,1.25046,-1.43033,-1.42273,1.21224,-1.41055,-1.60747,-1.07545,-1.29973,-0.128751,
-0.0592518,-0.0382601,0.423703,-1.59299,-0.211648,-0.0922342,0.515726,-0.102083,0.0177579,-0.107817,-0.0707099,0.390817,0.262933,-0.0390909,0,0,0,0,0,0,0,-0.0491884,-0.0476877,0.433338,-1.57871,-0.136089,1.53121,1.31485,-0.0769128,0.000379175,-0.0873169,-0.0154937,-0.292704,-0.00505127,0.000635415,0.309024,-29.3291,-0.288683,25.0348,-0.597233,2.13769,-0.143631,0.0350437,-2.76156,-1.05538,0.415602,1.25046,-1.43033,-1.42273,1.21224,-1.41055,-1.60747,-1.07545,-1.29973,-0.128751,
-0.0596483,-0.03818,0.423283,-1.59325,-0.209848,-0.0909926,0.515569,-0.0991232,0.0200467,-0.105014,-0.0656312,0.450057,0.310401,-0.0390803,0,0,0,0,0,0,0,-0.0491884,-0.0476877,0.433338,-1.57871,-0.136089,1.53121,1.31485,-0.0769128,0.000379175,-0.0873169,-0.0154937,-0.292704,-0.00505127,0.000635415,0.309024,-29.3291,-0.288683,25.0348,-0.597233,2.13769,-0.143631,-0.431606,-2.95881,-1.34156,0.474861,0.92657,-1.41056,-1.40415,1.04347,-1.38922,-1.59367,-1.14816,-1.22237,-0.135543,
-0.0600301,-0.0380932,0.422877,-1.5935,-0.207859,-0.0895931,0.515413,-0.0954515,0.0216979,-0.101436,-0.0615462,0.497206,0.349852,-0.0391144,0,0,0,0,0,0,0,-0.0491884,-0.0476877,0.433338,-1.57871,-0.136089,1.53121,1.31485,-0.0769128,0.000379175,-0.0873169,-0.0154937,-0.292704,-0.00505127,0.000635415,0.309024,-29.3291,-0.288683,25.0348,-0.597233,2.13769,-0.143631,-0.981005,-3.07714,-1.24656,0.726833,0.43296,-1.34044,-1.33374,0.743788,-1.33026,-1.40712,-1.02986,-1.12351,-0.138988,
-0.0603958,-0.038002,0.422487,-1.59373,-0.205718,-0.0880623,0.515256,-0.0914292,0.022793,-0.0974643,-0.0582618,0.535168,0.382716,-0.0391725,0,0,0,0,0,0,0,-0.0491884,-0.0476877,0.433338,-1.57871,-0.136089,1.53121,1.31485,-0.0769128,0.000379175,-0.0873169,-0.0154937,-0.292704,-0.00505127,0.000635415,0.309024,-29.3291,-0.288683,25.0348,-0.597233,2.13769,-0.143631,-0.981005,-3.07714,-1.24656,0.726833,0.43296,-1.34044,-1.33374,0.743788,-1.33026,-1.40712,-1.02986,-1.12351,-0.138988,
-0.060745,-0.0379083,0.422114,-1.59395,-0.203454,-0.0864218,0.515099,-0.087295,0.0234308,-0.0933525,-0.0555979,0.566067,0.410123,-0.0392426,0,0,0,0,0,0,0,-0.0516569,-0.0477149,0.430177,-1.57934,-0.139493,1.53129,1.3148,-0.0833538,-0.00116981,-0.0970096,-0.0269706,0.0147972,0.00787243,-0.000551609,0.00751081,-29.0791,-0.661608,25.5069,0.0436365,2.50939,-0.157364,-0.889982,-3.31829,-1.54684,1.0534,0.622693,-1.4616,-1.45511,0.915818,-1.46212,-1.44616,-0.849939,-1.04821,-0.142368,
-0.0610778,-0.0378135,0.421757,-1.59416,-0.201088,-0.0846898,0.514942,-0.0832046,0.0237033,-0.0892665,-0.0534116,0.591472,0.432994,-0.0393171,0,0,0,0,0,0,0,-0.0516569,-0.0477149,0.430177,-1.57934,-0.139493,1.53129,1.3148,-0.0833538,-0.00116981,-0.0970096,-0.0269706,0.0147972,0.00787243,-0.000551609,0.00751081,-29.0791,-0.661608,25.5069,0.0436365,2.50939,-0.157364,-0.889982,-3.31829,-1.54684,1.0534,0.622693,-1.4616,-1.45511,0.915818,-1.46212,-1.44616,-0.849939,-1.04821,-0.142368,
-0.0613948,-0.0377187,0.421415,-1.59437,-0.198638,-0.0828815,0.514784,-0.0792571,0.0236904,-0.0853122,-0.0515942,0.612551,0.45209,-0.0393915,0,0,0,0,0,0,0,-0.0516569,-0.0477149,0.430177,-1.57934,-0.139493,1.53129,1.3148,-0.0833538,-0.00116981,-0.0970096,-0.0269706,0.0147972,0.00787243,-0.000551609,0.00751081,-29.0791,-0.661608,25.5069,0.0436365,2.50939,-0.157364,-1.02604,-2.91859,-1.70626,1.03589,0.444477,-1.19905,-1.19349,0.789421,-1.2043,-1.25743,-0.615334,-0.792933,-0.139252,
-0.0616969,-0.0376249,0.421089,-1.59457,-0.196117,-0.0810093,0.514626,-0.0755122,0.0234591,-0.081554,-0.050065,0.630182,0.468039,-0.0394631,0,0,0,0,0,0,0,-0.0516569,-0.0477149,0.430177,-1.57934,-0.139493,1.53129,1.3148,-0.0833538,-0.00116981,-0.0970096,-0.0269706,0.0147972,0.00787243,-0.000551609,0.00751081,-29.0791,-0.661608,25.5069,0.0436365,2.50939,-0.157364,-1.02604,-2.91859,-1.70626,1.03589,0.444477,-1.19905,-1.19349,0.789421,-1.2043,-1.25743,-0.615334,-0.792933,-0.139252,
-0.0619849,-0.0375326,0.420777,-1.59477,-0.193537,-0.0790839,0.514468,-0.0720027,0.0230651,-0.078028,-0.0487638,0.645032,0.481359,-0.0395302,0,0,0,0,0,0,0,-0.0516569,-0.0477149,0.430177,-1.57934,-0.139493,1.53129,1.3148,-0.0833538,-0.00116981,-0.0970096,-0.0269706,0.0147972,0.00787243,-0.000551609,0.00751081,-29.0791,-0.661608,25.5069,0.0436365,2.50939,-0.157364,-1.44379,-1.73648,-1.0768,0.79879,-0.32794,-0.474135,-0.468665,0.16524,-0.488907,-0.627315,-0.183092,-0.39155,-0.142914,
-0.0622599,-0.0374424,0.420478,-1.59496,-0.190907,-0.0771139,0.51431,-0.0687434,0.0225535,-0.0747508,-0.0476458,0.657613,0.492482,-0.0395922,0,0,0,0,0,0,0,-0.0543282,-0.0476926,0.426913,-1.58039,-0.13761,1.53149,1.31476,-0.0862485,-0.000290672,-0.102969,-0.0465761,0.0766717,-0.00342408,-0.00217695,0.717655,-29.3807,-0.110155,26.4551,1.19171,3.93487,-0.143631,-0.902024,-0.975066,-0.93652,0.731301,-0.176278,-0.149791,-0.142234,0.146906,-0.175444,-0.28775,0.193005,-0.0265698,-0.147112,
-0.080974,-0.0208621,0.400985,-1.60006,-0.30835,-0.281613,0.505352,-0.229138,0.158148,-0.241355,-0.127087,-1.18318,-1.10743,-0.0911384,0,0,0,0,0,0,0,-0.0543282,-0.0476926,0.426913,-1.58039,-0.13761,1.53149,1.31476,-0.0862485,-0.000290672,-0.102969,-0.0465761,0.0766717,-0.00342408,-0.00217695,0.717655,-29.3807,-0.110155,26.4551,1.19171,3.93487,-0.143631,-0.902024,-0.975066,-0.93652,0.731301,-0.176278,-0.149791,-0.142234,0.146906,-0.175444,-0.28775,0.193005,-0.0265698,-0.147112,
-0.0874428,-0.0337407,0.392156,-1.59567,-0.137823,-0.0996586,0.516374,-0.155787,0.0572099,-0.164614,-0.0845711,1.01236,-0.0576051,-0.0554492,0,0,0,0,0,0,0,-0.0543282,-0.0476926,0.426913,-1.58039,-0.13761,1.53149,1.31476,-0.0862485,-0.000290672,-0.102969,-0.0465761,0.0766717,-0.00342408,-0.00217695,0.717655,-29.3807,-0.110155,26.4551,1.19171,3.93487,-0.143631,-0.893215,0.162775,-1.67811,0.164451,0.0500007,0.461511,0.468248,0.359564,0.445877,-0.369243,0.545969,0.221056,-0.149906,
-0.0880345,-0.0335243,0.391529,-1.59602,-0.133735,-0.0996276,0.516139,-0.147933,0.0540887,-0.156594,-0.0888665,1.02199,0.00774094,-0.0587981,0,0,0,0,0,0,0,-0.0543282,-0.0476926,0.426913,-1.58039,-0.13761,1.53149,1.31476,-0.0862485,-0.000290672,-0.102969,-0.0465761,0.0766717,-0.00342408,-0.00217695,0.717655,-29.3807,-0.110155,26.4551,1.19171,3.93487,-0.143631,-0.893215,0.162775,-1.67811,0.164451,0.0500007,0.461511,0.468248,0.359564,0.445877,-0.369243,0.545969,0.221056,-0.149906,
-0.0885901,-0.0333181,0.39094,-1.59639,-0.129627,-0.0992936,0.515885,-0.138903,0.0515371,-0.147272,-0.0922591,1.02703,0.0835034,-0.0634251,0,0,0,0,0,0,0,-0.0543282,-0.0476926,0.426913,-1.58039,-0.13761,1.53149,1.31476,-0.0862485,-0.000290672,-0.102969,-0.0465761,0.0766717,-0.00342408,-0.00217695,0.717655,-29.3807,-0.110155,26.4551,1.19171,3.93487,-0.143631,-0.506386,2.16274,-2.48108,-1.04139,0.656755,1.41772,1.42312,0.806017,1.42831,-0.594521,0.940079,0.412919,-0.151752,
-0.0890971,-0.0331089,0.390402,-1.59675,-0.125563,-0.0986693,0.515672,-0.126747,0.0523085,-0.134596,-0.0893721,1.01584,0.156073,-0.0531957,0,0,0,0,0,0,0,-0.0543282,-0.0476926,0.426913,-1.58039,-0.13761,1.53149,1.31476,-0.0862485,-0.000290672,-0.102969,-0.0465761,0.0766717,-0.00342408,-0.00217695,0.717655,-29.3807,-0.110155,26.4551,1.19171,3.93487,-0.143631,0.745204,4.07382,-3.40796,-2.36963,1.99141,2.14923,2.14958,1.68048,2.201,-1.03311,1.18511,0.509228,-0.155142,
-0.0895635,-0.0329,0.389905,-1.59709,-0.121519,-0.0978046,0.515461,-0.116602,0.0522324,-0.12423,-0.0859686,1.01116,0.216189,-0.0527861,0,0,0,0,0,0,0,-0.058631,-0.0480341,0.421966,-1.58209,-0.136256,1.5288,1.31445,-0.122463,-0.0256567,-0.142018,-0.0412546,0.0821327,-0.16534,-0.011219,-2.04754,-26.5599,-2.71269,25.983,1.99829,3.12554,-0.163772,0.745204,4.07382,-3.40796,-2.36963,1.99141,2.14923,2.14958,1.68048,2.201,-1.03311,1.18511,0.509228,-0.155142,
-0.089996,-0.0326941,0.389443,-1.59742,-0.117475,-0.0967397,0.515249,-0.108112,0.0514724,-0.115586,-0.0824776,1.01077,0.266229,-0.0530305,0,0,0,0,0,0,0,-0.058631,-0.0480341,0.421966,-1.58209,-0.136256,1.5288,1.31445,-0.122463,-0.0256567,-0.142018,-0.0412546,0.0821327,-0.16534,-0.011219,-2.04754,-26.5599,-2.71269,25.983,1.99829,3.12554,-0.163772,0.429083,1.48901,-2.72839,-0.547034,1.50665,0.906878,0.898144,1.35774,0.922131,-0.795116,0.980187,0.362093,-0.170202,
-0.0903997,-0.0324933,0.389009,-1.59774,-0.113423,-0.0955077,0.515036,-0.100931,0.0502102,-0.108298,-0.079086,1.01312,0.307992,-0.0532685,0,0,0,0,0,0,0,-0.058631,-0.0480341,0.421966,-1.58209,-0.136256,1.5288,1.31445,-0.122463,-0.0256567,-0.142018,-0.0412546,0.0821327,-0.16534,-0.011219,-2.04754,-26.5599,-2.71269,25.983,1.99829,3.12554,-0.163772,0.429083,1.48901,-2.72839,-0.547034,1.50665,0.906878,0.898144,1.35774,0.922131,-0.795116,0.980187,0.362093,-0.170202,
-0.0907789,-0.0322988,0.388601,-1.59804,-0.109355,-0.0941361,0.514822,-0.0947952,0.0486041,-0.102087,-0.0758784,1.01711,0.342908,-0.0534636,0,0,0,0,0,0,0,-0.058631,-0.0480341,0.421966,-1.58209,-0.136256,1.5288,1.31445,-0.122463,-0.0256567,-0.142018,-0.0412546,0.0821327,-0.16534,-0.011219,-2.04754,-26.5599,-2.71269,25.983,1.99829,3.12554,-0.163772,0.451124,-0.139493,-1.57894,0.773292,1.02416,0.0790066,0.0845159,0.917114,0.0427463,-0.33524,0.885701,0.324199,-0.181031,
-0.0911369,-0.0321117,0.388214,-1.59834,-0.105267,-0.0926475,0.514607,-0.0895031,0.0467802,-0.0967427,-0.0728931,1.02198,0.372139,-0.0536223,0,0,0,0,0,0,0,-0.058631,-0.0480341,0.421966,-1.58209,-0.136256,1.5288,1.31445,-0.122463,-0.0256567,-0.142018,-0.0412546,0.0821327,-0.16534,-0.011219,-2.04754,-26.5599,-2.71269,25.983,1.99829,3.12554,-0.163772,0.451124,-0.139493,-1.57894,0.773292,1.02416,0.0790066,0.0845159,0.917114,0.0427463,-0.33524,0.885701,0.324199,-0.181031,
-0.0914765,-0.0319324,0.387846,-1.59862,-0.101158,-0.0910609,0.514392,-0.084901,0.0448347,-0.0921057,-0.0701443,1.02723,0.396638,-0.0537524,0,0,0,0,0,0,0,-0.0630966,-0.04815,0.417157,-1.58376,-0.121758,1.52598,1.31408,-0.142234,0.00252989,-0.168937,-0.0551842,0.549432,-0.0475292,-0.0015125,1.34845,-28.0556,0.564283,26.4551,1.90673,3.47069,-0.183914,0.258314,-0.506522,-1.41118,1.18993,0.838778,-0.0645217,-0.0629569,0.81589,-0.111082,-0.234994,1.00178,0.32973,-0.190079,
-0.0918,-0.031761,0.387494,-1.59889,-0.0970277,-0.0893922,0.514177,-0.0808707,0.0428396,-0.0880525,-0.0676327,1.03252,0.417189,-0.0538598,0,0,0,0,0,0,0,-0.0630966,-0.04815,0.417157,-1.58376,-0.121758,1.52598,1.31408,-0.142234,0.00252989,-0.168937,-0.0551842,0.549432,-0.0475292,-0.0015125,1.34845,-28.0556,0.564283,26.4551,1.90673,3.47069,-0.183914,-0.721599,0.969951,-1.58714,0.256014,0.391794,0.845862,0.848208,0.668,0.818474,-0.381526,1.26137,0.213324,-0.193824,
-0.0921093,-0.0315976,0.387156,-1.59915,-0.0928771,-0.0876544,0.513961,-0.0773198,0.0408477,-0.0844875,-0.0653508,1.03763,0.434441,-0.0539491,0,0,0,0,0,0,0,-0.0630966,-0.04815,0.417157,-1.58376,-0.121758,1.52598,1.31408,-0.142234,0.00252989,-0.168937,-0.0551842,0.549432,-0.0475292,-0.0015125,1.34845,-28.0556,0.564283,26.4551,1.90673,3.47069,-0.183914,-0.721599,0.969951,-1.58714,0.256014,0.391794,0.845862,0.848208,0.668,0.818474,-0.381526,1.26137,0.213324,-0.193824,
-0.092406,-0.031442,0.38683,-1.5994,-0.0887075,-0.0858587,0.513745,-0.0741755,0.0388971,-0.0813353,-0.0632869,1.04242,0.448932,-0.0540239,0,0,0,0,0,0,0,-0.0630966,-0.04815,0.417157,-1.58376,-0.121758,1.52598,1.31408,-0.142234,0.00252989,-0.168937,-0.0551842,0.549432,-0.0475292,-0.0015125,1.34845,-28.0556,0.564283,26.4551,1.90673,3.47069,-0.183914,-0.721599,0.969951,-1.58714,0.256014,0.391794,0.845862,0.848208,0.668,0.818474,-0.381526,1.26137,0.213324,-0.193824,
-0.0926915,-0.031294,0.386516,-1.59965,-0.0845202,-0.0840143,0.513529,-0.0713798,0.0370143,-0.0785361,-0.0614266,1.04681,0.461107,-0.054087,0,0,0,0,0,0,0,-0.0630966,-0.04815,0.417157,-1.58376,-0.121758,1.52598,1.31408,-0.142234,0.00252989,-0.168937,-0.0551842,0.549432,-0.0475292,-0.0015125,1.34845,-28.0556,0.564283,26.4551,1.90673,3.47069,-0.183914,-0.094752,1.12598,-1.51861,0.11195,0.958545,0.784635,0.785918,1.01983,0.764095,-0.553817,1.2656,0.0723681,-0.195015,
