PerkyPenguin/Analysis-on-Approximated-Derivatives/Code_and_Data/PaperData/Real_Robot/Scene_1/contact_change/13/trajectory.csv
Commanded Joint 0 Position,Commanded Joint 1 Position,Commanded Joint 2 Position,Commanded Joint 3 Position,Commanded Joint 4 Position,Commanded Joint 5 Position,Commanded Joint 6 Position,Commanded Joint 0 Velocity,Commanded Joint 1 Velocity,Commanded Joint 2 Velocity,Commanded Joint 3 Velocity,Commanded Joint 4 Velocity,Commanded Joint 5 Velocity,Commanded Joint 6 Velocity,Commanded Joint 0 Torque,Commanded Joint 1 Torque,Commanded Joint 2 Torque,Commanded Joint 3 Torque,Commanded Joint 4 Torque,Commanded Joint 5 Torque,Commanded Joint 6 Torque,Actual Joint 0 Position,Actual Joint 1 Position,Actual Joint 2 Position,Actual Joint 3 Position,Actual Joint 4 Position,Actual Joint 5 Position,Actual Joint 6 Position,Actual Joint 0 Velocity,Actual Joint 1 Velocity,Actual Joint 2 Velocity,Actual Joint 3 Velocity,Actual Joint 4 Velocity,Actual Joint 5 Velocity,Actual Joint 6 Velocity,Actual Joint 0 Torque,Actual Joint 1 Torque,Actual Joint 2 Torque,Actual Joint 3 Torque,Actual Joint 4 Torque,Actual Joint 5 Torque,Actual Joint 6 Torque,EE ext force 0,EE ext force 1,EE ext force 2,EE ext force 3,EE ext force 4,EE ext force 5,joint ext torque 0,joint ext torque 1,joint ext torque 2,joint ext torque 3,joint ext torque 4,joint ext torque 5,joint ext torque 6,
0.0102933,-0.202107,-0.333692,-1.6642,-0.097411,-0.0933423,-0.383254,-0.00240969,0.0143641,-0.01276,-0.150415,0.0101344,0.19947,-0.00213224,0,0,0,0,0,0,0,0.010316,-0.202093,-0.333585,-1.66269,-0.0975743,1.47547,0.402168,-0.000691224,0.000307279,-0.000736263,-0.000269584,-0.00281519,0.000312096,-0.000565322,-0.0956386,-25.3856,1.93696,26.0544,0.635983,2.91405,-0.00996382,-1.13224,-0.0539166,0.0855981,0.0271648,-0.562091,-0.192922,-0.109327,-0.190886,-0.261158,-0.161893,-0.128247,-0.332606,-0.0323625,
0.0102789,-0.201976,-0.333755,-1.66484,-0.0973772,-0.0925161,-0.383262,-0.003601,0.0329363,-0.0156226,-0.15959,0.00846067,0.206543,-0.002034,0,0,0,0,0,0,0,0.010316,-0.202093,-0.333585,-1.66269,-0.0975743,1.47547,0.402168,-0.000691224,0.000307279,-0.000736263,-0.000269584,-0.00281519,0.000312096,-0.000565322,-0.0956386,-25.3856,1.93696,26.0544,0.635983,2.91405,-0.00996382,-1.13224,-0.0539166,0.0855981,0.0271648,-0.562091,-0.192922,-0.109327,-0.190886,-0.261158,-0.161893,-0.128247,-0.332606,-0.0323625,
0.0103083,-0.20209,-0.333594,-1.66269,-0.097608,-0.0953292,-0.38323,-0.000391999,0.000101589,-0.000467034,-9.15085e-05,-0.00173843,-4.9258e-05,1.14842e-05,0,0,0,0,0,0,0,0.0103096,-0.202095,-0.333585,-1.66269,-0.0975329,1.47546,0.402168,-9.82729e-06,-0.00108972,0.000842685,-0.0057226,0.00108533,0.00427865,0.00521329,-0.0440639,-25.338,1.93696,25.9076,0.306393,2.97356,-0.0163725,-0.930207,-0.0391056,-0.0839936,0.0558252,-0.336054,-0.150464,-0.0682319,-0.0323622,-0.225484,-0.260945,-0.115722,-0.343451,-0.0320024,
0.0103069,-0.20209,-0.333595,-1.66269,-0.0976142,-0.0953295,-0.38323,-0.000344281,5.83703e-05,-0.000415577,-7.18074e-05,-0.0015356,-8.64959e-05,1.02005e-05,0,0,0,0,0,0,0,0.0103096,-0.202095,-0.333585,-1.66269,-0.0975329,1.47546,0.402168,-9.82729e-06,-0.00108972,0.000842685,-0.0057226,0.00108533,0.00427865,0.00521329,-0.0440639,-25.338,1.93696,25.9076,0.306393,2.97356,-0.0163725,-0.930207,-0.0391056,-0.0839936,0.0558252,-0.336054,-0.150464,-0.0682319,-0.0323622,-0.225484,-0.260945,-0.115722,-0.343451,-0.0320024,
0.0103057,-0.20209,-0.333597,-1.66269,-0.0976196,-0.09533,-0.38323,-0.00030249,2.01568e-05,-0.000370634,-5.45099e-05,-0.00135547,-0.000115705,9.07433e-06,0,0,0,0,0,0,0,0.0103096,-0.202095,-0.333585,-1.66269,-0.0975329,1.47546,0.402168,-9.82729e-06,-0.00108972,0.000842685,-0.0057226,0.00108533,0.00427865,0.00521329,-0.0440639,-25.338,1.93696,25.9076,0.306393,2.97356,-0.0163725,-1.14762,0.00902951,0.0318962,-0.0116112,-0.554362,-0.168566,-0.0832877,-0.177933,-0.235167,-0.180103,-0.126216,-0.33319,-0.0307975,
0.0103047,-0.20209,-0.333598,-1.66269,-0.0976244,-0.0953306,-0.38323,-0.000265856,-1.35591e-05,-0.00033131,-3.91308e-05,-0.00119587,-0.000138906,8.09727e-06,0,0,0,0,0,0,0,0.0103096,-0.202095,-0.333585,-1.66269,-0.0975329,1.47546,0.402168,-9.82729e-06,-0.00108972,0.000842685,-0.0057226,0.00108533,0.00427865,0.00521329,-0.0440639,-25.338,1.93696,25.9076,0.306393,2.97356,-0.0163725,-1.14762,0.00902951,0.0318962,-0.0116112,-0.554362,-0.168566,-0.0832877,-0.177933,-0.235167,-0.180103,-0.126216,-0.33319,-0.0307975,
0.0103037,-0.20209,-0.333599,-1.66269,-0.0976286,-0.0953312,-0.38323,-0.000233717,-4.32968e-05,-0.000296855,-2.54018e-05,-0.00105469,-0.000157508,7.24898e-06,0,0,0,0,0,0,0,0.0103096,-0.202095,-0.333585,-1.66269,-0.0975329,1.47546,0.402168,-9.82729e-06,-0.00108972,0.000842685,-0.0057226,0.00108533,0.00427865,0.00521329,-0.0440639,-25.338,1.93696,25.9076,0.306393,2.97356,-0.0163725,-2.40498,0.373281,-0.697764,-0.188437,-1.26976,-0.227292,-0.135046,-0.474321,-0.286876,-0.28892,-0.129698,-0.327991,-0.0304235,
0.0103029,-0.20209,-0.333601,-1.66269,-0.0976323,-0.0953319,-0.38323,-0.000205499,-6.95343e-05,-0.000266635,-1.31367e-05,-0.000929959,-0.000172548,6.51098e-06,0,0,0,0,0,0,0,0.0103168,-0.202101,-0.333585,-1.66312,-0.0975339,1.47629,0.402166,0.00195853,-0.00384321,0.000221968,0.00432971,0.00328854,0.001597,-0.0015288,-0.147213,-25.4094,1.93696,26.5305,0.324703,3.25188,0.00376909,-1.55869,0.0794898,-0.997398,0.0815127,-0.542095,-0.205133,-0.108924,-0.0305489,-0.303941,-0.4684,-0.12106,-0.288532,-0.0302982,
0.0101849,-0.202035,-0.333687,-1.66257,-0.0960323,-0.096302,-0.383229,-0.0122465,0.00409401,-0.0110446,0.0100115,0.17647,-0.110206,0.000405688,0,0,0,0,0,0,0,0.0103168,-0.202101,-0.333585,-1.66312,-0.0975339,1.47629,0.402166,0.00195853,-0.00384321,0.000221968,0.00432971,0.00328854,0.001597,-0.0015288,-0.147213,-25.4094,1.93696,26.5305,0.324703,3.25188,0.00376909,-1.55869,0.0794898,-0.997398,0.0815127,-0.542095,-0.205133,-0.108924,-0.0305489,-0.303941,-0.4684,-0.12106,-0.288532,-0.0302982,
0.0102006,-0.202086,-0.333669,-1.66297,-0.0959499,-0.0954359,-0.383232,-0.0111714,0.000854412,-0.00970114,0.0119583,0.178908,-0.105942,0.00036347,0,0,0,0,0,0,0,0.0103168,-0.202101,-0.333585,-1.66312,-0.0975339,1.47629,0.402166,0.00195853,-0.00384321,0.000221968,0.00432971,0.00328854,0.001597,-0.0015288,-0.147213,-25.4094,1.93696,26.5305,0.324703,3.25188,0.00376909,-0.666514,-0.199572,-0.812914,0.256758,0.0387735,-0.170516,-0.078773,0.252584,-0.283283,-0.464499,-0.118781,-0.240645,-0.0302041,
0.010156,-0.202087,-0.333711,-1.66293,-0.0951057,-0.0959449,-0.38323,-0.0111582,-0.000163824,-0.0105023,0.0100701,0.211052,-0.12723,0.000498717,0,0,0,0,0,0,0,0.0103168,-0.202101,-0.333585,-1.66312,-0.0975339,1.47629,0.402166,0.00195853,-0.00384321,0.000221968,0.00432971,0.00328854,0.001597,-0.0015288,-0.147213,-25.4094,1.93696,26.5305,0.324703,3.25188,0.00376909,-0.666514,-0.199572,-0.812914,0.256758,0.0387735,-0.170516,-0.078773,0.252584,-0.283283,-0.464499,-0.118781,-0.240645,-0.0302041,
0.0101135,-0.202091,-0.333753,-1.6629,-0.0941627,-0.0965239,-0.383227,-0.0106072,-0.00107965,-0.0104833,0.00829122,0.235753,-0.14476,0.000573585,0,0,0,0,0,0,0,0.0103168,-0.202101,-0.333585,-1.66312,-0.0975339,1.47629,0.402166,0.00195853,-0.00384321,0.000221968,0.00432971,0.00328854,0.001597,-0.0015288,-0.147213,-25.4094,1.93696,26.5305,0.324703,3.25188,0.00376909,-0.567651,-0.147352,-0.633473,0.186359,0.0254341,-0.129003,-0.0425569,0.20721,-0.227394,-0.385224,-0.111851,-0.216204,-0.0310527,
0.0100745,-0.202099,-0.333793,-1.66287,-0.0931431,-0.0971608,-0.383225,-0.00974842,-0.00180577,-0.00995724,0.00674777,0.254881,-0.159224,0.000611744,0,0,0,0,0,0,0,0.0103168,-0.202101,-0.333585,-1.66312,-0.0975339,1.47629,0.402166,0.00195853,-0.00384321,0.000221968,0.00432971,0.00328854,0.001597,-0.0015288,-0.147213,-25.4094,1.93696,26.5305,0.324703,3.25188,0.00376909,-0.711066,-0.168927,-0.654368,0.22564,-0.0754958,-0.163974,-0.0710146,0.15328,-0.273438,-0.384348,-0.0963211,-0.225541,-0.0305741,
0.0100396,-0.202108,-0.333829,-1.66285,-0.092064,-0.0978453,-0.383222,-0.00872842,-0.00233791,-0.00913285,0.00544111,0.269784,-0.17112,0.000626544,0,0,0,0,0,0,0,0.0102683,-0.202071,-0.333618,-1.66302,-0.0969996,1.47631,0.402168,-0.00203301,0.00122766,-0.00187835,0.00667682,0.0552575,-0.00510467,-0.0010634,0.336795,-25.7109,2.23848,25.7806,0.740353,2.9937,-0.00996382,-0.711066,-0.168927,-0.654368,0.22564,-0.0754958,-0.163974,-0.0710146,0.15328,-0.273438,-0.384348,-0.0963211,-0.225541,-0.0305741,
0.0100091,-0.202119,-0.333862,-1.66283,-0.0909382,-0.0985687,-0.38322,-0.00764157,-0.00269819,-0.00814903,0.00434057,0.281446,-0.180848,0.000626302,0,0,0,0,0,0,0,0.0102683,-0.202071,-0.333618,-1.66302,-0.0969996,1.47631,0.402168,-0.00203301,0.00122766,-0.00187835,0.00667682,0.0552575,-0.00510467,-0.0010634,0.336795,-25.7109,2.23848,25.7806,0.740353,2.9937,-0.00996382,-1.53113,-0.212793,-0.567547,0.282594,-0.734183,-0.330021,-0.221151,-0.233805,-0.457144,-0.272711,-0.0714315,-0.248622,-0.0294033,
0.0100311,-0.20199,-0.333778,-1.66265,-0.0929361,-0.0982613,-0.383201,-0.0262234,0.0058379,-0.0212721,0.036996,0.524893,-0.421305,0.00330075,0,0,0,0,0,0,0,0.0102683,-0.202071,-0.333618,-1.66302,-0.0969996,1.47631,0.402168,-0.00203301,0.00122766,-0.00187835,0.00667682,0.0552575,-0.00510467,-0.0010634,0.336795,-25.7109,2.23848,25.7806,0.740353,2.9937,-0.00996382,-1.53113,-0.212793,-0.567547,0.282594,-0.734183,-0.330021,-0.221151,-0.233805,-0.457144,-0.272711,-0.0714315,-0.248622,-0.0294033,
0.0099828,-0.201943,-0.33382,-1.66258,-0.0920302,-0.0980562,-0.383202,-0.0255928,0.00700171,-0.0212429,0.0335766,0.548558,-0.400393,0.00318492,0,0,0,0,0,0,0,0.0102683,-0.202071,-0.333618,-1.66302,-0.0969996,1.47631,0.402168,-0.00203301,0.00122766,-0.00187835,0.00667682,0.0552575,-0.00510467,-0.0010634,0.336795,-25.7109,2.23848,25.7806,0.740353,2.9937,-0.00996382,-1.07296,-0.257956,-0.407331,0.401476,-0.449988,-0.267481,-0.153395,-0.10365,-0.421286,-0.290622,0.0347073,-0.270144,-0.0297516,
0.00988675,-0.201934,-0.333906,-1.66248,-0.089453,-0.0999484,-0.383188,-0.0240141,0.00214491,-0.0213943,0.0269262,0.644304,-0.473067,0.00348803,0,0,0,0,0,0,0,0.0102683,-0.202071,-0.333618,-1.66302,-0.0969996,1.47631,0.402168,-0.00203301,0.00122766,-0.00187835,0.00667682,0.0552575,-0.00510467,-0.0010634,0.336795,-25.7109,2.23848,25.7806,0.740353,2.9937,-0.00996382,-1.07296,-0.257956,-0.407331,0.401476,-0.449988,-0.267481,-0.153395,-0.10365,-0.421286,-0.290622,0.0347073,-0.270144,-0.0297516,
0.00980148,-0.201941,-0.333985,-1.66239,-0.0865723,-0.102071,-0.383173,-0.0213165,-0.0018368,-0.0198274,0.0206111,0.720179,-0.53056,0.00364709,0,0,0,0,0,0,0,0.0102269,-0.202045,-0.333681,-1.66291,-0.094083,1.4762,0.402167,-0.0051158,0.00102668,-0.00480705,0.0112866,0.150325,-0.0155436,-0.0012014,0.487552,-25.6355,2.33766,25.983,1.30157,2.78771,-0.0026396,-1.07304,-0.129133,-0.387312,0.369031,-0.455599,-0.209682,-0.0931174,-0.109496,-0.368732,-0.305752,0.10151,-0.294267,-0.0294789,
0.00972935,-0.201961,-0.334054,-1.66233,-0.0834486,-0.104375,-0.383158,-0.0180327,-0.00480935,-0.0172425,0.0151024,0.780922,-0.576032,0.00372033,0,0,0,0,0,0,0,0.0102269,-0.202045,-0.333681,-1.66291,-0.094083,1.4762,0.402167,-0.0051158,0.00102668,-0.00480705,0.0112866,0.150325,-0.0155436,-0.0012014,0.487552,-25.6355,2.33766,25.983,1.30157,2.78771,-0.0026396,-1.27936,-0.35159,-0.224515,0.543046,-0.677615,-0.345193,-0.225764,-0.264005,-0.523497,-0.227717,0.123362,-0.301259,-0.0304944,
0.00967138,-0.201988,-0.33411,-1.66229,-0.0801287,-0.106822,-0.383143,-0.0144913,-0.00687519,-0.0140995,0.0104285,0.829985,-0.611751,0.00373903,0,0,0,0,0,0,0,0.0102269,-0.202045,-0.333681,-1.66291,-0.094083,1.4762,0.402167,-0.0051158,0.00102668,-0.00480705,0.0112866,0.150325,-0.0155436,-0.0012014,0.487552,-25.6355,2.33766,25.983,1.30157,2.78771,-0.0026396,-1.27936,-0.35159,-0.224515,0.543046,-0.677615,-0.345193,-0.225764,-0.264005,-0.523497,-0.227717,0.123362,-0.301259,-0.0304944,
0.00962779,-0.202021,-0.334153,-1.66227,-0.076649,-0.10938,-0.383128,-0.0108995,-0.00819333,-0.0107015,0.00649634,0.869934,-0.639483,0.00372209,0,0,0,0,0,0,0,0.0102269,-0.202045,-0.333681,-1.66291,-0.094083,1.4762,0.402167,-0.0051158,0.00102668,-0.00480705,0.0112866,0.150325,-0.0155436,-0.0012014,0.487552,-25.6355,2.33766,25.983,1.30157,2.78771,-0.0026396,-1.21934,-0.194919,0.841736,0.402955,-1.03896,-0.263855,-0.142229,-0.644699,-0.42747,0.136309,0.264815,-0.329873,-0.0320237,
0.0108768,-0.202193,-0.332899,-1.66287,-0.093692,-0.0999901,-0.383085,0.0735811,-0.017184,0.0863449,0.004136,0.375103,-0.634032,0.0120633,0,0,0,0,0,0,0,0.0102269,-0.202045,-0.333681,-1.66291,-0.094083,1.4762,0.402167,-0.0051158,0.00102668,-0.00480705,0.0112866,0.150325,-0.0155436,-0.0012014,0.487552,-25.6355,2.33766,25.983,1.30157,2.78771,-0.0026396,-1.21934,-0.194919,0.841736,0.402955,-1.03896,-0.263855,-0.142229,-0.644699,-0.42747,0.136309,0.264815,-0.329873,-0.0320237,
0.0108446,-0.202199,-0.332968,-1.66278,-0.09006,-0.100144,-0.383081,0.0749472,-0.0198419,0.0867848,0.00353467,0.421812,-0.636916,0.0124547,0,0,0,0,0,0,0,0.0102269,-0.202045,-0.333681,-1.66291,-0.094083,1.4762,0.402167,-0.0051158,0.00102668,-0.00480705,0.0112866,0.150325,-0.0155436,-0.0012014,0.487552,-25.6355,2.33766,25.983,1.30157,2.78771,-0.0026396,-0.106512,-0.238381,0.818729,0.652581,-0.122406,-0.0813644,0.0452317,-0.1013,-0.300885,-0.116758,0.453787,-0.437343,-0.0340454,
0.0112206,-0.202295,-0.332534,-1.6628,-0.0880623,-0.103215,-0.383033,0.0939937,-0.0240015,0.108431,-0.00608528,0.499424,-0.767894,0.012037,0,0,0,0,0,0,0,0.00979204,-0.201929,-0.333933,-1.66257,-0.0854986,1.47433,0.40217,-0.0236756,0.000216107,-0.0111311,0.0166672,0.353602,-0.0878058,5.7724e-05,0.840641,-25.5602,2.51222,25.7568,2.33429,2.03148,-0.0301054,0.202715,-0.315482,0.664589,0.95568,0.269662,-0.0591614,0.0803253,0.184496,-0.345989,-0.372083,0.628842,-0.597878,-0.0335071,
0.0116621,-0.202399,-0.332027,-1.66286,-0.0857825,-0.106715,-0.382986,0.11038,-0.0260791,0.126798,-0.0151564,0.569962,-0.874944,0.0116517,0,0,0,0,0,0,0,0.00979204,-0.201929,-0.333933,-1.66257,-0.0854986,1.47433,0.40217,-0.0236756,0.000216107,-0.0111311,0.0166672,0.353602,-0.0878058,5.7724e-05,0.840641,-25.5602,2.51222,25.7568,2.33429,2.03148,-0.0301054,0.202715,-0.315482,0.664589,0.95568,0.269662,-0.0591614,0.0803253,0.184496,-0.345989,-0.372083,0.628842,-0.597878,-0.0335071,
0.0121603,-0.202505,-0.331457,-1.66295,-0.0832485,-0.110566,-0.382941,0.124541,-0.0264937,0.142498,-0.023388,0.633505,-0.962685,0.0113008,0,0,0,0,0,0,0,0.00979204,-0.201929,-0.333933,-1.66257,-0.0854986,1.47433,0.40217,-0.0236756,0.000216107,-0.0111311,0.0166672,0.353602,-0.0878058,5.7724e-05,0.840641,-25.5602,2.51222,25.7568,2.33429,2.03148,-0.0301054,-0.522633,-0.226269,0.920948,0.953206,-0.287289,-0.156194,0.00146296,-0.132473,-0.461258,-0.314347,0.691125,-0.728,-0.0244443,
0.0127076,-0.202608,-0.330833,-1.66308,-0.080487,-0.114705,-0.382897,0.13683,-0.0256567,0.156001,-0.0307329,0.690354,-1.03469,0.0109787,0,0,0,0,0,0,0,0.00979204,-0.201929,-0.333933,-1.66257,-0.0854986,1.47433,0.40217,-0.0236756,0.000216107,-0.0111311,0.0166672,0.353602,-0.0878058,5.7724e-05,0.840641,-25.5602,2.51222,25.7568,2.33429,2.03148,-0.0301054,-0.522633,-0.226269,0.920948,0.953206,-0.287289,-0.156194,0.00146296,-0.132473,-0.461258,-0.314347,0.691125,-0.728,-0.0244443,
0.0132977,-0.202703,-0.330162,-1.66323,-0.0775233,-0.11908,-0.382854,0.147529,-0.0239173,0.167673,-0.037227,0.740946,-1.09381,0.0106795,0,0,0,0,0,0,0,0.00979204,-0.201929,-0.333933,-1.66257,-0.0854986,1.47433,0.40217,-0.0236756,0.000216107,-0.0111311,0.0166672,0.353602,-0.0878058,5.7724e-05,0.840641,-25.5602,2.51222,25.7568,2.33429,2.03148,-0.0301054,-0.146092,-0.152984,1.19651,0.810211,-0.0332123,-0.0646775,0.0706279,-0.0011595,-0.329436,-0.301661,0.634678,-0.771657,-0.0184513,
0.0115752,-0.202567,-0.332228,-1.66334,-0.0914018,-0.0998994,-0.383053,0.155573,-0.05445,0.172595,-0.0501726,0.282789,-0.619629,0.0145384,0,0,0,0,0,0,0,0.00964378,-0.202051,-0.333817,-1.66221,-0.0758484,1.47057,0.402169,0.00122713,-0.00315288,0.0210792,0.0079554,0.254662,-0.166031,-0.00072399,1.40003,-24.8103,3.8611,25.3085,1.55883,1.68084,0.0239107,0.11921,-0.0481461,1.3765,0.661442,0.207501,0.0182932,0.103125,0.155813,-0.183169,-0.348087,0.575049,-0.852561,-0.0135953,
0.0111284,-0.202611,-0.332213,-1.66275,-0.0722264,-0.106656,-0.383035,0.165246,-0.0560856,0.182736,-0.058497,0.350381,-0.692438,0.0153644,0,0,0,0,0,0,0,0.00964378,-0.202051,-0.333817,-1.66221,-0.0758484,1.47057,0.402169,0.00122713,-0.00315288,0.0210792,0.0079554,0.254662,-0.166031,-0.00072399,1.40003,-24.8103,3.8611,25.3085,1.55883,1.68084,0.0239107,0.11921,-0.0481461,1.3765,0.661442,0.207501,0.0182932,0.103125,0.155813,-0.183169,-0.348087,0.575049,-0.852561,-0.0135953,
0.0119143,-0.202845,-0.331335,-1.66302,-0.0705784,-0.109909,-0.382977,0.196477,-0.0584079,0.219393,-0.0681308,0.411999,-0.813274,0.0145001,0,0,0,0,0,0,0,0.00964378,-0.202051,-0.333817,-1.66221,-0.0758484,1.47057,0.402169,0.00122713,-0.00315288,0.0210792,0.0079554,0.254662,-0.166031,-0.00072399,1.40003,-24.8103,3.8611,25.3085,1.55883,1.68084,0.0239107,-0.124339,1.11864,1.74023,-0.175012,-0.0562457,0.491841,0.547558,-0.0207178,0.395455,-0.266625,0.689688,-0.947739,-0.0104749,
0.012804,-0.203077,-0.330338,-1.66332,-0.0686745,-0.113556,-0.382922,0.222413,-0.0579728,0.249399,-0.0764963,0.47597,-0.911821,0.0137963,0,0,0,0,0,0,0,0.00964378,-0.202051,-0.333817,-1.66221,-0.0758484,1.47057,0.402169,0.00122713,-0.00315288,0.0210792,0.0079554,0.254662,-0.166031,-0.00072399,1.40003,-24.8103,3.8611,25.3085,1.55883,1.68084,0.0239107,-0.124339,1.11864,1.74023,-0.175012,-0.0562457,0.491841,0.547558,-0.0207178,0.395455,-0.266625,0.689688,-0.947739,-0.0104749,
0.0137807,-0.2033,-0.329241,-1.66366,-0.0665183,-0.117525,-0.382869,0.244182,-0.0557564,0.274247,-0.0839688,0.539036,-0.992038,0.0132065,0,0,0,0,0,0,0,0.00964378,-0.202051,-0.333817,-1.66221,-0.0758484,1.47057,0.402169,0.00122713,-0.00315288,0.0210792,0.0079554,0.254662,-0.166031,-0.00072399,1.40003,-24.8103,3.8611,25.3085,1.55883,1.68084,0.0239107,-0.582988,2.08089,1.22201,-0.706836,-0.124273,0.83639,0.893911,0.0659293,0.773828,-0.531311,0.795535,-1.08568,-0.00462354,
0.0148311,-0.203509,-0.328061,-1.66402,-0.0641213,-0.121754,-0.382818,0.2626,-0.0523854,0.295027,-0.0906628,0.599253,-1.05731,0.0127006,0,0,0,0,0,0,0,0.00964378,-0.202051,-0.333817,-1.66221,-0.0758484,1.47057,0.402169,0.00122713,-0.00315288,0.0210792,0.0079554,0.254662,-0.166031,-0.00072399,1.40003,-24.8103,3.8611,25.3085,1.55883,1.68084,0.0239107,-0.582988,2.08089,1.22201,-0.706836,-0.124273,0.83639,0.893911,0.0659293,0.773828,-0.531311,0.795535,-1.08568,-0.00462354,
0.0159442,-0.203702,-0.326811,-1.66441,-0.0614992,-0.126196,-0.382769,0.27828,-0.0482791,0.312544,-0.0965957,0.655537,-1.11044,0.0122563,0,0,0,0,0,0,0,0.00998121,-0.202419,-0.333015,-1.66214,-0.067625,1.4632,0.402179,0.024902,-0.0094156,0.0460374,-0.0139611,0.165342,-0.207255,-4.87521e-05,2.03479,-25.5126,4.43635,25.856,1.03973,2.19079,0.017502,-1.68562,0.694357,1.36863,0.106877,-0.982315,0.0157987,0.0879579,-0.42949,-0.112192,-0.326828,0.531753,-1.0592,0.0019836,
0.0118168,-0.202889,-0.331516,-1.66324,-0.0734777,-0.106415,-0.38304,0.241222,-0.0810548,0.263602,-0.105672,0.22076,-0.674193,0.0151412,0,0,0,0,0,0,0,0.00998121,-0.202419,-0.333015,-1.66214,-0.067625,1.4632,0.402179,0.024902,-0.0094156,0.0460374,-0.0139611,0.165342,-0.207255,-4.87521e-05,2.03479,-25.5126,4.43635,25.856,1.03973,2.19079,0.017502,-1.66853,-1.15459,1.44369,1.18327,-0.938999,-0.806275,-0.721786,-0.397621,-1.02061,-0.26242,0.165039,-1.00163,0.00480713,
0.0122667,-0.203216,-0.330573,-1.66327,-0.0656929,-0.114158,-0.383006,0.246782,-0.0759981,0.270319,-0.111802,0.200511,-0.69926,0.0165732,0,0,0,0,0,0,0,0.00998121,-0.202419,-0.333015,-1.66214,-0.067625,1.4632,0.402179,0.024902,-0.0094156,0.0460374,-0.0139611,0.165342,-0.207255,-4.87521e-05,2.03479,-25.5126,4.43635,25.856,1.03973,2.19079,0.017502,-1.66853,-1.15459,1.44369,1.18327,-0.938999,-0.806275,-0.721786,-0.397621,-1.02061,-0.26242,0.165039,-1.00163,0.00480713,
0.0134212,-0.203521,-0.329294,-1.66376,-0.0646333,-0.11743,-0.382944,0.288644,-0.0761506,0.319708,-0.121628,0.2649,-0.818191,0.0154674,0,0,0,0,0,0,0,0.00998121,-0.202419,-0.333015,-1.66214,-0.067625,1.4632,0.402179,0.024902,-0.0094156,0.0460374,-0.0139611,0.165342,-0.207255,-4.87521e-05,2.03479,-25.5126,4.43635,25.856,1.03973,2.19079,0.017502,-1.33763,-0.68005,1.27514,0.823953,-0.580751,-0.531737,-0.459861,-0.146985,-0.701255,-0.394214,0.146576,-1.03318,0.0044688,
0.0147139,-0.203814,-0.327855,-1.66428,-0.0632882,-0.12109,-0.382886,0.323161,-0.0732186,0.359871,-0.129856,0.336271,-0.914929,0.0145927,0,0,0,0,0,0,0,0.00998121,-0.202419,-0.333015,-1.66214,-0.067625,1.4632,0.402179,0.024902,-0.0094156,0.0460374,-0.0139611,0.165342,-0.207255,-4.87521e-05,2.03479,-25.5126,4.43635,25.856,1.03973,2.19079,0.017502,-1.33763,-0.68005,1.27514,0.823953,-0.580751,-0.531737,-0.459861,-0.146985,-0.701255,-0.394214,0.146576,-1.03318,0.0044688,
0.0161216,-0.204088,-0.326283,-1.66483,-0.0616507,-0.125063,-0.38283,0.351937,-0.0684729,0.392923,-0.137133,0.409382,-0.99325,0.0139124,0,0,0,0,0,0,0,0.0123375,-0.203669,-0.329757,-1.66298,-0.0580917,1.45093,0.402187,0.0860579,-0.0439441,0.0907307,-0.0327678,0.150183,-0.290742,0.000807929,2.01099,-25.2864,4.63869,25.3085,0.97839,2.42333,-0.00996382,-1.05267,1.28457,0.808465,-0.428832,-0.205449,0.397356,0.444771,0.141763,0.349203,-0.633372,0.370392,-1.08169,0.00443643,
0.0176262,-0.204338,-0.324602,-1.6654,-0.0597267,-0.12929,-0.382777,0.376148,-0.0625421,0.420357,-0.143382,0.480993,-1.05674,0.0132455,0,0,0,0,0,0,0,0.0123375,-0.203669,-0.329757,-1.66298,-0.0580917,1.45093,0.402187,0.0860579,-0.0439441,0.0907307,-0.0327678,0.150183,-0.290742,0.000807929,2.01099,-25.2864,4.63869,25.3085,0.97839,2.42333,-0.00996382,-2.16592,1.40499,0.511345,-0.541665,-0.975098,0.252677,0.290024,-0.255567,0.231751,-0.573842,0.315293,-1.0501,0.00945089,
0.0192122,-0.204565,-0.322828,-1.66601,-0.0575293,-0.133665,-0.382726,0.396499,-0.0567956,0.443386,-0.151543,0.549346,-1.09381,0.0127274,0,0,0,0,0,0,0,0.0123375,-0.203669,-0.329757,-1.66298,-0.0580917,1.45093,0.402187,0.0860579,-0.0439441,0.0907307,-0.0327678,0.150183,-0.290742,0.000807929,2.01099,-25.2864,4.63869,25.3085,0.97839,2.42333,-0.00996382,-2.16592,1.40499,0.511345,-0.541665,-0.975098,0.252677,0.290024,-0.255567,0.231751,-0.573842,0.315293,-1.0501,0.00945089,
0.0128711,-0.203483,-0.329969,-1.66373,-0.066777,-0.113921,-0.383026,0.313256,-0.100213,0.340331,-0.15575,0.0885021,-0.681091,0.0152745,0,0,0,0,0,0,0,0.0123375,-0.203669,-0.329757,-1.66298,-0.0580917,1.45093,0.402187,0.0860579,-0.0439441,0.0907307,-0.0327678,0.150183,-0.290742,0.000807929,2.01099,-25.2864,4.63869,25.3085,0.97839,2.42333,-0.00996382,-2.9744,-0.0318353,0.738887,0.188943,-1.70883,-0.524355,-0.460906,-0.725358,-0.600732,-0.272984,-0.030347,-0.919492,0.0147351,
0.0155567,-0.204893,-0.326326,-1.6646,-0.0568385,-0.126887,-0.382993,0.333894,-0.108427,0.364242,-0.155623,0.133556,-0.725134,0.0167812,0,0,0,0,0,0,0,0.0123375,-0.203669,-0.329757,-1.66298,-0.0580917,1.45093,0.402187,0.0860579,-0.0439441,0.0907307,-0.0327678,0.150183,-0.290742,0.000807929,2.01099,-25.2864,4.63869,25.3085,0.97839,2.42333,-0.00996382,-2.9744,-0.0318353,0.738887,0.188943,-1.70883,-0.524355,-0.460906,-0.725358,-0.600732,-0.272984,-0.030347,-0.919492,0.0147351,
0.0170866,-0.205311,-0.324639,-1.66526,-0.0560543,-0.130231,-0.38293,0.382463,-0.10448,0.421632,-0.166141,0.196048,-0.836157,0.0156535,0,0,0,0,0,0,0,0.0161122,-0.205258,-0.325423,-1.66452,-0.0526073,1.43945,0.402191,0.137045,-0.0567545,0.16495,-0.0559393,0.167805,-0.427027,-0.00138139,3.78437,-24.9373,6.28908,24.761,2.07153,2.29058,0.0440523,-2.28948,-0.806367,0.504581,0.689858,-1.13979,-0.746997,-0.669791,-0.389341,-0.880602,-0.362932,-0.148995,-0.829615,0.0169814,
0.0187758,-0.205702,-0.322767,-1.66597,-0.0549776,-0.13392,-0.382872,0.422304,-0.0977031,0.468076,-0.175172,0.269164,-0.922227,0.0146655,0,0,0,0,0,0,0,0.0161122,-0.205258,-0.325423,-1.66452,-0.0526073,1.43945,0.402191,0.137045,-0.0567545,0.16495,-0.0559393,0.167805,-0.427027,-0.00138139,3.78437,-24.9373,6.28908,24.761,2.07153,2.29058,0.0440523,-2.28948,-0.806367,0.504581,0.689858,-1.13979,-0.746997,-0.669791,-0.389341,-0.880602,-0.362932,-0.148995,-0.829615,0.0169814,
0.0205966,-0.206063,-0.320743,-1.66671,-0.0535917,-0.1378,-0.382816,0.455205,-0.0903121,0.506134,-0.186481,0.346496,-0.969928,0.0139001,0,0,0,0,0,0,0,0.0161122,-0.205258,-0.325423,-1.66452,-0.0526073,1.43945,0.402191,0.137045,-0.0567545,0.16495,-0.0559393,0.167805,-0.427027,-0.00138139,3.78437,-24.9373,6.28908,24.761,2.07153,2.29058,0.0440523,-0.729412,1.12007,-0.211292,-0.382683,0.260731,0.376888,0.434739,0.499768,0.320452,-0.831435,0.206834,-0.856096,0.0169954,
0.0225273,-0.206392,-0.318593,-1.6675,-0.0518968,-0.141741,-0.382763,0.482656,-0.0821101,0.537431,-0.198048,0.423724,-0.985151,0.0133029,0,0,0,0,0,0,0,0.0161122,-0.205258,-0.325423,-1.66452,-0.0526073,1.43945,0.402191,0.137045,-0.0567545,0.16495,-0.0559393,0.167805,-0.427027,-0.00138139,3.78437,-24.9373,6.28908,24.761,2.07153,2.29058,0.0440523,-1.41424,0.301277,-0.321791,0.260384,-0.229044,-0.112495,-0.0640451,0.231717,-0.225637,-0.792018,0.192124,-0.853868,0.0210826,
0.0245503,-0.206682,-0.31634,-1.66833,-0.049905,-0.145672,-0.382712,0.505762,-0.0726719,0.563289,-0.206979,0.497929,-0.982966,0.0127744,0,0,0,0,0,0,0,0.0161122,-0.205258,-0.325423,-1.66452,-0.0526073,1.43945,0.402191,0.137045,-0.0567545,0.16495,-0.0559393,0.167805,-0.427027,-0.00138139,3.78437,-24.9373,6.28908,24.761,2.07153,2.29058,0.0440523,-1.41424,0.301277,-0.321791,0.260384,-0.229044,-0.112495,-0.0640451,0.231717,-0.225637,-0.792018,0.192124,-0.853868,0.0210826,
0.0163513,-0.205095,-0.326275,-1.665,-0.0575772,-0.126651,-0.38303,0.408174,-0.126169,0.383991,-0.194598,0.058552,-0.705275,0.0142731,0,0,0,0,0,0,0,0.0161122,-0.205258,-0.325423,-1.66452,-0.0526073,1.43945,0.402191,0.137045,-0.0567545,0.16495,-0.0559393,0.167805,-0.427027,-0.00138139,3.78437,-24.9373,6.28908,24.761,2.07153,2.29058,0.0440523,-2.44835,-1.53044,-0.804879,1.46925,-0.832639,-1.09155,-0.986739,-0.044354,-1.35327,-0.796479,-0.109023,-0.79109,0.0226758,
0.0205041,-0.206676,-0.321347,-1.66666,-0.0514279,-0.139257,-0.382997,0.433164,-0.122252,0.424022,-0.202232,0.122679,-0.777271,0.0160289,0,0,0,0,0,0,0,0.0212163,-0.207707,-0.3189,-1.66688,-0.050957,1.42688,0.402206,0.189741,-0.0830882,0.248628,-0.0866657,0.0866815,-0.420385,-0.00125752,5.00232,-24.4612,7.511,25.1578,2.03491,2.09191,0.0303194,-2.44835,-1.53044,-0.804879,1.46925,-0.832639,-1.09155,-0.986739,-0.044354,-1.35327,-0.796479,-0.109023,-0.79109,0.0226758,
0.0224317,-0.207143,-0.319397,-1.66753,-0.0506961,-0.142621,-0.382938,0.481909,-0.116827,0.487442,-0.21856,0.182952,-0.840769,0.0148926,0,0,0,0,0,0,0,0.0212163,-0.207707,-0.3189,-1.66688,-0.050957,1.42688,0.402206,0.189741,-0.0830882,0.248628,-0.0866657,0.0866815,-0.420385,-0.00125752,5.00232,-24.4612,7.511,25.1578,2.03491,2.09191,0.0303194,-2.40641,-0.434216,-0.400266,0.618284,-1.03147,-0.582726,-0.479024,-0.248057,-0.753891,-0.581973,-0.0138438,-0.730847,0.0182921,
0.0245187,-0.207576,-0.31724,-1.66847,-0.0496768,-0.146084,-0.382881,0.52175,-0.108233,0.539318,-0.23277,0.254827,-0.865945,0.0140636,0,0,0,0,0,0,0,0.0212163,-0.207707,-0.3189,-1.66688,-0.050957,1.42688,0.402206,0.189741,-0.0830882,0.248628,-0.0866657,0.0866815,-0.420385,-0.00125752,5.00232,-24.4612,7.511,25.1578,2.03491,2.09191,0.0303194,-2.40641,-0.434216,-0.400266,0.618284,-1.03147,-0.582726,-0.479024,-0.248057,-0.753891,-0.581973,-0.0138438,-0.730847,0.0182921,
0.0267375,-0.207965,-0.314911,-1.66944,-0.0483528,-0.149566,-0.382828,0.55469,-0.0971544,0.582307,-0.243037,0.331001,-0.870299,0.0133854,0,0,0,0,0,0,0,0.0212163,-0.207707,-0.3189,-1.66688,-0.050957,1.42688,0.402206,0.189741,-0.0830882,0.248628,-0.0866657,0.0866815,-0.420385,-0.00125752,5.00232,-24.4612,7.511,25.1578,2.03491,2.09191,0.0303194,-1.43046,3.01278,0.0476594,-1.74222,-0.520293,1.118,1.15653,-0.0278412,1.21494,-0.543587,0.42361,-0.763261,0.01139,
0.0290659,-0.208304,-0.312437,-1.67044,-0.0467253,-0.153015,-0.382776,0.582102,-0.0848328,0.618489,-0.249988,0.406877,-0.862464,0.0128164,0,0,0,0,0,0,0,0.0212163,-0.207707,-0.3189,-1.66688,-0.050957,1.42688,0.402206,0.189741,-0.0830882,0.248628,-0.0866657,0.0866815,-0.420385,-0.00125752,5.00232,-24.4612,7.511,25.1578,2.03491,2.09191,0.0303194,-1.61384,2.38208,-0.142069,-1.21438,-0.53527,0.805168,0.821535,0.0126539,0.861597,-0.652424,0.419771,-0.818593,0.00979648,
0.031486,-0.208593,-0.309839,-1.67146,-0.0448064,-0.156404,-0.382727,0.605029,-0.0722254,0.649339,-0.254516,0.479716,-0.847202,0.0123291,0,0,0,0,0,0,0,0.0283172,-0.210534,-0.311673,-1.67013,-0.0496348,1.41407,0.402215,0.246168,-0.0932526,0.258831,-0.117885,0.018295,-0.366375,0.0034931,5.28003,-23.8622,7.31264,24.1382,1.53412,2.12487,-0.0026396,-1.61384,2.38208,-0.142069,-1.21438,-0.53527,0.805168,0.821535,0.0126539,0.861597,-0.652424,0.419771,-0.818593,0.00979648,
0.0209666,-0.206806,-0.321548,-1.66701,-0.0516392,-0.139034,-0.383052,0.478097,-0.133215,0.407801,-0.235877,0.101512,-0.760326,0.0122494,0,0,0,0,0,0,0,0.0283172,-0.210534,-0.311673,-1.67013,-0.0496348,1.41407,0.402215,0.246168,-0.0932526,0.258831,-0.117885,0.018295,-0.366375,0.0034931,5.28003,-23.8622,7.31264,24.1382,1.53412,2.12487,-0.0026396,-3.42005,-0.761526,-0.549371,0.990967,-1.73503,-0.872517,-0.757532,-0.626254,-1.09987,-0.568179,0.078578,-0.786677,0.0153045,
0.0338594,-0.212075,-0.30699,-1.67277,-0.0490117,-0.163658,-0.383009,0.523295,-0.12797,0.461172,-0.248609,0.108562,-0.643896,0.0134261,0,0,0,0,0,0,0,0.0283172,-0.210534,-0.311673,-1.67013,-0.0496348,1.41407,0.402215,0.246168,-0.0932526,0.258831,-0.117885,0.018295,-0.366375,0.0034931,5.28003,-23.8622,7.31264,24.1382,1.53412,2.12487,-0.0026396,-3.42005,-0.761526,-0.549371,0.990967,-1.73503,-0.872517,-0.757532,-0.626254,-1.09987,-0.568179,0.078578,-0.786677,0.0153045,
0.0361382,-0.212547,-0.304929,-1.67382,-0.0482724,-0.166344,-0.382958,0.569703,-0.11816,0.515304,-0.263869,0.184847,-0.671461,0.0126913,0,0,0,0,0,0,0,0.0283172,-0.210534,-0.311673,-1.67013,-0.0496348,1.41407,0.402215,0.246168,-0.0932526,0.258831,-0.117885,0.018295,-0.366375,0.0034931,5.28003,-23.8622,7.31264,24.1382,1.53412,2.12487,-0.0026396,-3.88767,-1.48874,-1.10197,1.6003,-1.87637,-1.26101,-1.12015,-0.627594,-1.57852,-0.728459,0.0407835,-0.795461,0.0160722,
0.0385731,-0.21297,-0.302688,-1.67492,-0.0472118,-0.169075,-0.38291,0.608724,-0.105578,0.560233,-0.27364,0.265148,-0.682669,0.0121148,0,0,0,0,0,0,0,0.0283172,-0.210534,-0.311673,-1.67013,-0.0496348,1.41407,0.402215,0.246168,-0.0932526,0.258831,-0.117885,0.018295,-0.366375,0.0034931,5.28003,-23.8622,7.31264,24.1382,1.53412,2.12487,-0.0026396,-3.88767,-1.48874,-1.10197,1.6003,-1.87637,-1.26101,-1.12015,-0.627594,-1.57852,-0.728459,0.0407835,-0.795461,0.0160722,
0.0411408,-0.213337,-0.300295,-1.67604,-0.0458323,-0.171807,-0.382863,0.641925,-0.091994,0.598059,-0.27994,0.344865,-0.682956,0.0116429,0,0,0,0,0,0,0,0.0283172,-0.210534,-0.311673,-1.67013,-0.0496348,1.41407,0.402215,0.246168,-0.0932526,0.258831,-0.117885,0.018295,-0.366375,0.0034931,5.28003,-23.8622,7.31264,24.1382,1.53412,2.12487,-0.0026396,-1.6212,2.63047,-0.666915,-1.2178,-0.39735,0.928744,0.993276,0.150731,0.924865,-0.825733,0.560178,-0.79468,0.0091696,
0.0438225,-0.213651,-0.297774,-1.67717,-0.0441472,-0.17451,-0.382818,0.67044,-0.0784059,0.630278,-0.283957,0.421285,-0.675832,0.0112464,0,0,0,0,0,0,0,0.0370104,-0.21352,-0.302163,-1.67407,-0.0488578,1.40265,0.402224,0.305764,-0.0965725,0.248641,-0.138419,0.0135624,-0.326551,-0.000658677,1.17389,-24.6874,3.58735,25.0586,1.33819,2.33727,0.00376909,-1.6212,2.63047,-0.666915,-1.2178,-0.39735,0.928744,0.993276,0.150731,0.924865,-0.825733,0.560178,-0.79468,0.0091696,
0.0317662,-0.211563,-0.308835,-1.67177,-0.049446,-0.161083,-0.383062,0.467157,-0.13196,0.394922,-0.224474,0.0438438,-0.591246,0.0144367,0,0,0,0,0,0,0,0.0370104,-0.21352,-0.302163,-1.67407,-0.0488578,1.40265,0.402224,0.305764,-0.0965725,0.248641,-0.138419,0.0135624,-0.326551,-0.000658677,1.17389,-24.6874,3.58735,25.0586,1.33819,2.33727,0.00376909,-1.27547,2.53047,-0.0951864,-1.22958,-0.378408,0.933335,0.954677,0.0603923,0.976006,-0.611807,0.566038,-0.74842,0.00767033,
0.0427253,-0.215,-0.29731,-1.67685,-0.048041,-0.173613,-0.382982,0.53496,-0.119612,0.473215,-0.25281,0.127015,-0.508104,0.014975,0,0,0,0,0,0,0,0.0370104,-0.21352,-0.302163,-1.67407,-0.0488578,1.40265,0.402224,0.305764,-0.0965725,0.248641,-0.138419,0.0135624,-0.326551,-0.000658677,1.17389,-24.6874,3.58735,25.0586,1.33819,2.33727,0.00376909,-2.92952,-0.50722,-1.17962,0.961884,-1.18618,-0.652356,-0.53338,-0.253257,-0.903865,-0.816174,0.214167,-0.741002,0.011154,
0.0450449,-0.215434,-0.295207,-1.6779,-0.0472302,-0.175775,-0.382926,0.579918,-0.108533,0.525765,-0.261924,0.202699,-0.540389,0.0139886,0,0,0,0,0,0,0,0.0370104,-0.21352,-0.302163,-1.67407,-0.0488578,1.40265,0.402224,0.305764,-0.0965725,0.248641,-0.138419,0.0135624,-0.326551,-0.000658677,1.17389,-24.6874,3.58735,25.0586,1.33819,2.33727,0.00376909,-2.92952,-0.50722,-1.17962,0.961884,-1.18618,-0.652356,-0.53338,-0.253257,-0.903865,-0.816174,0.214167,-0.741002,0.011154,
0.047516,-0.215818,-0.292929,-1.67897,-0.0461037,-0.178015,-0.382873,0.617773,-0.0959607,0.569557,-0.267752,0.281612,-0.560086,0.0132104,0,0,0,0,0,0,0,0.0370104,-0.21352,-0.302163,-1.67407,-0.0488578,1.40265,0.402224,0.305764,-0.0965725,0.248641,-0.138419,0.0135624,-0.326551,-0.000658677,1.17389,-24.6874,3.58735,25.0586,1.33819,2.33727,0.00376909,-2.72604,0.266558,-1.74405,0.536302,-0.832448,-0.263374,-0.130323,0.0364484,-0.503233,-1.06113,0.337868,-0.752298,0.00662097,
0.050116,-0.21615,-0.290503,-1.68006,-0.044665,-0.180295,-0.382823,0.649997,-0.0831088,0.606487,-0.271687,0.359679,-0.569928,0.0125771,0,0,0,0,0,0,0,0.0487198,-0.217062,-0.291984,-1.6792,-0.0484983,1.39271,0.402228,0.363462,-0.111039,0.303473,-0.163759,0.00185892,-0.261072,-0.00188506,-0.147213,-24.4136,2.43684,25.9076,1.41784,2.52221,0.0376436,-2.72604,0.266558,-1.74405,0.536302,-0.832448,-0.263374,-0.130323,0.0364484,-0.503233,-1.06113,0.337868,-0.752298,0.00662097,
0.0528267,-0.216433,-0.287951,-1.68116,-0.0429272,-0.182583,-0.382774,0.677659,-0.0705855,0.637943,-0.274364,0.434452,-0.572174,0.0120521,0,0,0,0,0,0,0,0.0487198,-0.217062,-0.291984,-1.6792,-0.0484983,1.39271,0.402228,0.363462,-0.111039,0.303473,-0.163759,0.00185892,-0.261072,-0.00188506,-0.147213,-24.4136,2.43684,25.9076,1.41784,2.52221,0.0376436,-1.32548,2.59287,-0.909799,-1.13688,-0.122378,0.970549,1.00177,0.330921,0.977004,-0.905373,0.629216,-0.737651,0.00111858,
0.0405854,-0.214521,-0.299203,-1.67584,-0.048549,-0.171581,-0.383042,0.480739,-0.126633,0.409275,-0.23706,0.0611665,-0.460567,0.0162328,0,0,0,0,0,0,0,0.0487198,-0.217062,-0.291984,-1.6792,-0.0484983,1.39271,0.402228,0.363462,-0.111039,0.303473,-0.163759,0.00185892,-0.261072,-0.00188506,-0.147213,-24.4136,2.43684,25.9076,1.41784,2.52221,0.0376436,-2.02065,1.12998,-1.03837,-0.160165,-0.593053,0.228701,0.301925,0.0629739,0.114396,-0.847533,0.441314,-0.713795,0.00520972,
0.0548434,-0.21851,-0.286658,-1.68199,-0.0473525,-0.182586,-0.382974,0.562861,-0.113286,0.505267,-0.247572,0.164113,-0.425293,0.0153476,0,0,0,0,0,0,0,0.0487198,-0.217062,-0.291984,-1.6792,-0.0484983,1.39271,0.402228,0.363462,-0.111039,0.303473,-0.163759,0.00185892,-0.261072,-0.00188506,-0.147213,-24.4136,2.43684,25.9076,1.41784,2.52221,0.0376436,-2.02065,1.12998,-1.03837,-0.160165,-0.593053,0.228701,0.301925,0.0629739,0.114396,-0.847533,0.441314,-0.713795,0.00520972,
0.0572578,-0.218916,-0.284447,-1.68301,-0.0463812,-0.184422,-0.382917,0.603606,-0.101338,0.552759,-0.254353,0.242806,-0.459072,0.0143509,0,0,0,0,0,0,0,0.0487198,-0.217062,-0.291984,-1.6792,-0.0484983,1.39271,0.402228,0.363462,-0.111039,0.303473,-0.163759,0.00185892,-0.261072,-0.00188506,-0.147213,-24.4136,2.43684,25.9076,1.41784,2.52221,0.0376436,-2.64226,-1.05503,-1.91328,1.38039,-0.705771,-0.820256,-0.676777,0.102666,-1.14657,-1.08144,0.164566,-0.695845,0.0103875,
0.0598102,-0.219271,-0.282077,-1.68404,-0.0450929,-0.186348,-0.382863,0.638099,-0.0887615,0.592595,-0.258972,0.322081,-0.481535,0.0135505,0,0,0,0,0,0,0,0.0609074,-0.220458,-0.280823,-1.68485,-0.0475672,1.38582,0.402238,0.388854,-0.100695,0.374823,-0.168374,0.0687543,-0.203183,-0.000431264,2.38788,-23.7154,4.73787,24.8602,1.52771,2.39037,0.00376909,-2.64226,-1.05503,-1.91328,1.38039,-0.705771,-0.820256,-0.676777,0.102666,-1.14657,-1.08144,0.164566,-0.695845,0.0103875,
0.0624805,-0.219576,-0.279571,-1.68509,-0.0434972,-0.188327,-0.382811,0.667577,-0.0763433,0.626356,-0.262312,0.398922,-0.494668,0.0129226,0,0,0,0,0,0,0,0.0609074,-0.220458,-0.280823,-1.68485,-0.0475672,1.38582,0.402238,0.388854,-0.100695,0.374823,-0.168374,0.0687543,-0.203183,-0.000431264,2.38788,-23.7154,4.73787,24.8602,1.52771,2.39037,0.00376909,-1.05574,1.23268,-1.77838,-0.204417,0.426313,0.411955,0.489894,0.758201,0.280882,-1.22075,0.422693,-0.689042,0.00626719,
0.0652444,-0.219833,-0.276946,-1.68615,-0.0416077,-0.190328,-0.382762,0.690969,-0.0643439,0.65635,-0.264745,0.47237,-0.500274,0.0123412,0,0,0,0,0,0,0,0.0609074,-0.220458,-0.280823,-1.68485,-0.0475672,1.38582,0.402238,0.388854,-0.100695,0.374823,-0.168374,0.0687543,-0.203183,-0.000431264,2.38788,-23.7154,4.73787,24.8602,1.52771,2.39037,0.00376909,-0.677494,1.80029,-0.41503,-0.744619,0.181168,0.708807,0.722513,0.415044,0.705807,-0.737169,0.494193,-0.665817,0.00581026,
0.0525919,-0.218057,-0.288679,-1.681,-0.0480089,-0.180885,-0.383036,0.514088,-0.122853,0.447972,-0.236305,0.0909406,-0.378692,0.0165685,0,0,0,0,0,0,0,0.0609074,-0.220458,-0.280823,-1.68485,-0.0475672,1.38582,0.402238,0.388854,-0.100695,0.374823,-0.168374,0.0687543,-0.203183,-0.000431264,2.38788,-23.7154,4.73787,24.8602,1.52771,2.39037,0.00376909,-0.677494,1.80029,-0.41503,-0.744619,0.181168,0.708807,0.722513,0.415044,0.705807,-0.737169,0.494193,-0.665817,0.00581026,
0.0674327,-0.221754,-0.27503,-1.6876,-0.045593,-0.188717,-0.382963,0.591668,-0.100596,0.537834,-0.242017,0.232318,-0.360819,0.0153682,0,0,0,0,0,0,0,0.0609074,-0.220458,-0.280823,-1.68485,-0.0475672,1.38582,0.402238,0.388854,-0.100695,0.374823,-0.168374,0.0687543,-0.203183,-0.000431264,2.38788,-23.7154,4.73787,24.8602,1.52771,2.39037,0.00376909,-1.68701,-0.330029,-0.215114,0.620847,-0.677777,-0.352914,-0.257049,-0.159009,-0.53481,-0.47921,0.205475,-0.608784,0.00778995,
0.069947,-0.222111,-0.272706,-1.68859,-0.044363,-0.190298,-0.382905,0.628574,-0.0894126,0.580889,-0.247947,0.3075,-0.395317,0.0144175,0,0,0,0,0,0,0,0.0609074,-0.220458,-0.280823,-1.68485,-0.0475672,1.38582,0.402238,0.388854,-0.100695,0.374823,-0.168374,0.0687543,-0.203183,-0.000431264,2.38788,-23.7154,4.73787,24.8602,1.52771,2.39037,0.00376909,-1.68701,-0.330029,-0.215114,0.620847,-0.677777,-0.352914,-0.257049,-0.159009,-0.53481,-0.47921,0.205475,-0.608784,0.00778995,
0.0725785,-0.222422,-0.270233,-1.6896,-0.0428304,-0.191974,-0.382851,0.65787,-0.0776997,0.618205,-0.25207,0.383145,-0.419023,0.0135962,0,0,0,0,0,0,0,0.0739465,-0.223625,-0.269022,-1.69049,-0.0462754,1.38075,0.402244,0.410487,-0.0782244,0.399246,-0.165333,0.0910898,-0.161976,-0.000395456,3.47889,-23.6638,5.26155,25.0586,1.94336,2.23107,-0.00996382,-1.11389,0.107374,-0.975341,0.400662,0.0517944,-0.0747472,0.0664547,0.378839,-0.294546,-0.840164,0.256038,-0.614408,0.00438816,
0.0753017,-0.222687,-0.26763,-1.69062,-0.0410031,-0.193709,-0.382799,0.680808,-0.0661042,0.650788,-0.255102,0.456832,-0.433656,0.0128654,0,0,0,0,0,0,0,0.0739465,-0.223625,-0.269022,-1.69049,-0.0462754,1.38075,0.402244,0.410487,-0.0782244,0.399246,-0.165333,0.0910898,-0.161976,-0.000395456,3.47889,-23.6638,5.26155,25.0586,1.94336,2.23107,-0.00996382,-1.02896,0.537516,-0.0297627,0.0992744,-0.207995,0.114512,0.179791,0.107376,-0.00697576,-0.546498,0.391133,-0.661986,0.00465893,
0.0781004,-0.222907,-0.264916,-1.69165,-0.038897,-0.195472,-0.38275,0.699675,-0.0550122,0.678666,-0.257316,0.526524,-0.440918,0.0122408,0,0,0,0,0,0,0,0.0739465,-0.223625,-0.269022,-1.69049,-0.0462754,1.38075,0.402244,0.410487,-0.0782244,0.399246,-0.165333,0.0910898,-0.161976,-0.000395456,3.47889,-23.6638,5.26155,25.0586,1.94336,2.23107,-0.00996382,-1.02896,0.537516,-0.0297627,0.0992744,-0.207995,0.114512,0.179791,0.107376,-0.00697576,-0.546498,0.391133,-0.661986,0.00465893,
0.0650661,-0.221351,-0.277181,-1.68663,-0.0465223,-0.187273,-0.383024,0.547519,-0.109854,0.486075,-0.232209,0.16091,-0.314571,0.0165962,0,0,0,0,0,0,0,0.0739465,-0.223625,-0.269022,-1.69049,-0.0462754,1.38075,0.402244,0.410487,-0.0782244,0.399246,-0.165333,0.0910898,-0.161976,-0.000395456,3.47889,-23.6638,5.26155,25.0586,1.94336,2.23107,-0.00996382,-1.70532,-0.760174,0.358641,0.909402,-0.843038,-0.539889,-0.486145,-0.334228,-0.711605,-0.318415,0.22165,-0.665764,0.00607845,
0.0806584,-0.224708,-0.263009,-1.69321,-0.043982,-0.193208,-0.382952,0.603654,-0.0848141,0.554401,-0.239052,0.259695,-0.312086,0.0157078,0,0,0,0,0,0,0,0.0739465,-0.223625,-0.269022,-1.69049,-0.0462754,1.38075,0.402244,0.410487,-0.0782244,0.399246,-0.165333,0.0910898,-0.161976,-0.000395456,3.47889,-23.6638,5.26155,25.0586,1.94336,2.23107,-0.00996382,-1.70532,-0.760174,0.358641,0.909402,-0.843038,-0.539889,-0.486145,-0.334228,-0.711605,-0.318415,0.22165,-0.665764,0.00607845,
0.0831983,-0.225009,-0.26062,-1.69419,-0.0426399,-0.194595,-0.382893,0.634976,-0.0751366,0.597408,-0.244349,0.335537,-0.346745,0.0146199,0,0,0,0,0,0,0,0.0917539,-0.226443,-0.252254,-1.69705,-0.0425803,1.37627,0.402256,0.441813,-0.0526196,0.428942,-0.1393,0.159423,-0.08615,0.000795075,2.79651,-24.2629,4.68629,24.4635,1.70532,2.07177,-0.0301054,-2.4044,-0.4511,-0.467127,0.688466,-1.0679,-0.440953,-0.330469,-0.321508,-0.636224,-0.541937,0.169168,-0.662066,0.00289634,
0.0858406,-0.225268,-0.258085,-1.69518,-0.0409964,-0.196079,-0.382839,0.660578,-0.0648827,0.63359,-0.247886,0.410862,-0.370955,0.013726,0,0,0,0,0,0,0,0.0917539,-0.226443,-0.252254,-1.69705,-0.0425803,1.37627,0.402256,0.441813,-0.0526196,0.428942,-0.1393,0.159423,-0.08615,0.000795075,2.79651,-24.2629,4.68629,24.4635,1.70532,2.07177,-0.0301054,-2.4044,-0.4511,-0.467127,0.688466,-1.0679,-0.440953,-0.330469,-0.321508,-0.636224,-0.541937,0.169168,-0.662066,0.00289634,
0.0885671,-0.225487,-0.255428,-1.69618,-0.0390636,-0.197624,-0.382787,0.68163,-0.0547275,0.664282,-0.250422,0.483198,-0.386248,0.0129689,0,0,0,0,0,0,0,0.0917539,-0.226443,-0.252254,-1.69705,-0.0425803,1.37627,0.402256,0.441813,-0.0526196,0.428942,-0.1393,0.159423,-0.08615,0.000795075,2.79651,-24.2629,4.68629,24.4635,1.70532,2.07177,-0.0301054,-2.3362,1.49144,-1.01818,-0.559343,-0.774949,0.461063,0.550916,0.00410945,0.3886,-0.831628,0.403258,-0.724482,-0.00212819,
0.0913629,-0.225667,-0.252666,-1.69719,-0.0368591,-0.199201,-0.382737,0.698953,-0.0449807,0.690531,-0.252235,0.551124,-0.394218,0.0123151,0,0,0,0,0,0,0,0.0917539,-0.226443,-0.252254,-1.69705,-0.0425803,1.37627,0.402256,0.441813,-0.0526196,0.428942,-0.1393,0.159423,-0.08615,0.000795075,2.79651,-24.2629,4.68629,24.4635,1.70532,2.07177,-0.0301054,-1.92538,1.69993,-0.440125,-0.664334,-0.649553,0.58649,0.618552,-0.000190888,0.567245,-0.70234,0.519795,-0.759262,-0.00252703,
0.0782438,-0.224369,-0.265227,-1.69225,-0.0450208,-0.19196,-0.383015,0.563591,-0.0923041,0.503857,-0.229867,0.187698,-0.266303,0.0169965,0,0,0,0,0,0,0,0.0917539,-0.226443,-0.252254,-1.69705,-0.0425803,1.37627,0.402256,0.441813,-0.0526196,0.428942,-0.1393,0.159423,-0.08615,0.000795075,2.79651,-24.2629,4.68629,24.4635,1.70532,2.07177,-0.0301054,-1.92538,1.69993,-0.440125,-0.664334,-0.649553,0.58649,0.618552,-0.000190888,0.567245,-0.70234,0.519795,-0.759262,-0.00252703,
0.0986641,-0.227335,-0.245912,-1.69963,-0.0395336,-0.196737,-0.382942,0.61464,-0.0713115,0.57963,-0.229841,0.318956,-0.235296,0.0155068,0,0,0,0,0,0,0,0.0917539,-0.226443,-0.252254,-1.69705,-0.0425803,1.37627,0.402256,0.441813,-0.0526196,0.428942,-0.1393,0.159423,-0.08615,0.000795075,2.79651,-24.2629,4.68629,24.4635,1.70532,2.07177,-0.0301054,-1.71814,-0.124871,-0.498721,0.553041,-0.493481,-0.214634,-0.125243,0.019442,-0.399956,-0.676682,0.31018,-0.698978,0.00227344,
0.101236,-0.227588,-0.243434,-1.70057,-0.0379731,-0.197833,-0.382884,0.643074,-0.0632241,0.619562,-0.235755,0.390144,-0.273956,0.0144296,0,0,0,0,0,0,0,0.106182,-0.227961,-0.238632,-1.70168,-0.0392089,1.37527,0.402262,0.463751,-0.0479195,0.453475,-0.140887,0.154716,-0.0250646,-0.00117688,2.97107,-24.0883,4.46412,24.2136,1.63208,2.21734,0.00376909,-1.71814,-0.124871,-0.498721,0.553041,-0.493481,-0.214634,-0.125243,0.019442,-0.399956,-0.676682,0.31018,-0.698978,0.00227344,
0.103901,-0.227805,-0.240821,-1.70153,-0.0361305,-0.199041,-0.38283,0.666257,-0.0543331,0.653097,-0.2396,0.460633,-0.302022,0.0135406,0,0,0,0,0,0,0,0.106182,-0.227961,-0.238632,-1.70168,-0.0392089,1.37527,0.402262,0.463751,-0.0479195,0.453475,-0.140887,0.154716,-0.0250646,-0.00117688,2.97107,-24.0883,4.46412,24.2136,1.63208,2.21734,0.00376909,-2.24684,-0.735773,-1.45186,1.03836,-0.531442,-0.521721,-0.379915,0.120061,-0.809699,-0.964962,0.252445,-0.697603,0.00313444,
0.106642,-0.227987,-0.238095,-1.7025,-0.0340178,-0.200324,-0.382778,0.685224,-0.0453892,0.681529,-0.242321,0.52819,-0.320866,0.0127865,0,0,0,0,0,0,0,0.106182,-0.227961,-0.238632,-1.70168,-0.0392089,1.37527,0.402262,0.463751,-0.0479195,0.453475,-0.140887,0.154716,-0.0250646,-0.00117688,2.97107,-24.0883,4.46412,24.2136,1.63208,2.21734,0.00376909,-2.47145,0.240108,-1.08076,0.449276,-0.821057,-0.102939,-0.0194108,-0.0633618,-0.288657,-0.852171,0.466313,-0.741394,0.00510997,
0.109445,-0.228134,-0.235272,-1.70348,-0.0316517,-0.201652,-0.38273,0.700737,-0.0367312,0.705832,-0.244261,0.591528,-0.332058,0.0121342,0,0,0,0,0,0,0,0.106182,-0.227961,-0.238632,-1.70168,-0.0392089,1.37527,0.402262,0.463751,-0.0479195,0.453475,-0.140887,0.154716,-0.0250646,-0.00117688,2.97107,-24.0883,4.46412,24.2136,1.63208,2.21734,0.00376909,-2.47145,0.240108,-1.08076,0.449276,-0.821057,-0.102939,-0.0194108,-0.0633618,-0.288657,-0.852171,0.466313,-0.741394,0.00510997,
0.112299,-0.228248,-0.232365,-1.70446,-0.0290517,-0.203001,-0.382684,0.713384,-0.028523,0.726751,-0.245564,0.649983,-0.337031,0.0115621,0,0,0,0,0,0,0,0.106182,-0.227961,-0.238632,-1.70168,-0.0392089,1.37527,0.402262,0.463751,-0.0479195,0.453475,-0.140887,0.154716,-0.0250646,-0.00117688,2.97107,-24.0883,4.46412,24.2136,1.63208,2.21734,0.00376909,-2.04391,-0.028973,-0.664687,0.570363,-0.644502,-0.187031,-0.124087,-0.0346722,-0.361454,-0.737115,0.418432,-0.732599,0.0074323,
0.0962055,-0.22705,-0.248231,-1.69871,-0.0408095,-0.195796,-0.383004,0.579408,-0.0767859,0.531606,-0.219154,0.250771,-0.185967,0.0168354,0,0,0,0,0,0,0,0.12099,-0.229092,-0.223862,-1.70613,-0.0350835,1.37514,0.402268,0.466378,-0.0382541,0.464935,-0.146452,0.155082,-0.00757769,-0.000469685,3.91132,-24.3144,5.26155,24.0628,1.65039,2.07177,-0.00996382,-2.04391,-0.028973,-0.664687,0.570363,-0.644502,-0.187031,-0.124087,-0.0346722,-0.361454,-0.737115,0.418432,-0.732599,0.0074323,
0.128026,-0.22977,-0.217202,-1.70867,-0.0318334,-0.197099,-0.382935,0.621285,-0.0541077,0.601588,-0.225022,0.34113,-0.174983,0.0152324,0,0,0,0,0,0,0,0.12099,-0.229092,-0.223862,-1.70613,-0.0350835,1.37514,0.402268,0.466378,-0.0382541,0.464935,-0.146452,0.155082,-0.00757769,-0.000469685,3.91132,-24.3144,5.26155,24.0628,1.65039,2.07177,-0.00996382,-2.04431,0.286436,-1.19224,0.285399,-0.460721,-0.0122753,0.0920391,0.165614,-0.190406,-0.912286,0.356907,-0.704866,0.00351128,
0.130614,-0.229959,-0.214649,-1.70959,-0.0301778,-0.197963,-0.382878,0.647024,-0.047413,0.638365,-0.230672,0.413896,-0.216028,0.0142036,0,0,0,0,0,0,0,0.12099,-0.229092,-0.223862,-1.70613,-0.0350835,1.37514,0.402268,0.466378,-0.0382541,0.464935,-0.146452,0.155082,-0.00757769,-0.000469685,3.91132,-24.3144,5.26155,24.0628,1.65039,2.07177,-0.00996382,-2.5473,1.01283,-1.67311,-0.142477,-0.612807,0.301787,0.408343,0.203046,0.154492,-1.1018,0.477117,-0.76333,0.000468398,
0.133286,-0.230119,-0.211971,-1.71053,-0.0282399,-0.198948,-0.382824,0.668032,-0.0399716,0.669398,-0.234408,0.484479,-0.246225,0.0133407,0,0,0,0,0,0,0,0.12099,-0.229092,-0.223862,-1.70613,-0.0350835,1.37514,0.402268,0.466378,-0.0382541,0.464935,-0.146452,0.155082,-0.00757769,-0.000469685,3.91132,-24.3144,5.26155,24.0628,1.65039,2.07177,-0.00996382,-2.5473,1.01283,-1.67311,-0.142477,-0.612807,0.301787,0.408343,0.203046,0.154492,-1.1018,0.477117,-0.76333,0.000468398,
0.136027,-0.230249,-0.209188,-1.71147,-0.0260351,-0.200016,-0.382774,0.685207,-0.0324254,0.695807,-0.237042,0.551212,-0.267056,0.0126009,0,0,0,0,0,0,0,0.12099,-0.229092,-0.223862,-1.70613,-0.0350835,1.37514,0.402268,0.466378,-0.0382541,0.464935,-0.146452,0.155082,-0.00757769,-0.000469685,3.91132,-24.3144,5.26155,24.0628,1.65039,2.07177,-0.00996382,-2.60698,1.77772,-1.18861,-0.610745,-0.779944,0.650815,0.721723,0.0865845,0.576443,-0.993329,0.643529,-0.832295,0.00167675,
0.138824,-0.230349,-0.206314,-1.71243,-0.0235823,-0.201136,-0.382726,0.699225,-0.025074,0.71845,-0.23889,0.613182,-0.28012,0.0119565,0,0,0,0,0,0,0,0.135635,-0.229904,-0.209244,-1.71049,-0.0288962,1.37538,0.402272,0.478416,-0.019756,0.477169,-0.138126,0.1514,0.0104222,0.00109002,0.638309,-25.1357,2.31386,24.6103,1.21643,1.75316,-0.00996382,-2.60698,1.77772,-1.18861,-0.610745,-0.779944,0.650815,0.721723,0.0865845,0.576443,-0.993329,0.643529,-0.832295,0.00167675,
0.125541,-0.229553,-0.219609,-1.70777,-0.0331979,-0.196399,-0.382996,0.58949,-0.0585424,0.557619,-0.215182,0.268998,-0.122632,0.0164621,0,0,0,0,0,0,0,0.135635,-0.229904,-0.209244,-1.71049,-0.0288962,1.37538,0.402272,0.478416,-0.019756,0.477169,-0.138126,0.1514,0.0104222,0.00109002,0.638309,-25.1357,2.31386,24.6103,1.21643,1.75316,-0.00996382,-2.63918,0.0909669,-1.24905,0.492158,-0.751944,-0.113094,-0.0413978,0.0496581,-0.291275,-1.00148,0.440131,-0.839521,0.00389896,
0.142664,-0.230417,-0.20243,-1.71298,-0.025558,-0.196505,-0.382931,0.61866,-0.0419542,0.612362,-0.221631,0.350847,-0.142538,0.0152009,0,0,0,0,0,0,0,0.135635,-0.229904,-0.209244,-1.71049,-0.0288962,1.37538,0.402272,0.478416,-0.019756,0.477169,-0.138126,0.1514,0.0104222,0.00109002,0.638309,-25.1357,2.31386,24.6103,1.21643,1.75316,-0.00996382,-2.63918,0.0909669,-1.24905,0.492158,-0.751944,-0.113094,-0.0413978,0.0496581,-0.291275,-1.00148,0.440131,-0.839521,0.00389896,
0.145236,-0.230563,-0.19984,-1.71389,-0.023861,-0.197234,-0.382875,0.643082,-0.0365167,0.647588,-0.227071,0.424255,-0.182076,0.0141701,0,0,0,0,0,0,0,0.135635,-0.229904,-0.209244,-1.71049,-0.0288962,1.37538,0.402272,0.478416,-0.019756,0.477169,-0.138126,0.1514,0.0104222,0.00109002,0.638309,-25.1357,2.31386,24.6103,1.21643,1.75316,-0.00996382,-2.87793,-0.708581,-1.54762,0.941313,-0.864945,-0.459126,-0.333709,-0.014825,-0.713276,-1.01932,0.263423,-0.780869,0.00210548,
0.147888,-0.230683,-0.19713,-1.71481,-0.0218819,-0.198079,-0.382821,0.663019,-0.0302046,0.677388,-0.230506,0.494768,-0.211298,0.0133,0,0,0,0,0,0,0,0.135635,-0.229904,-0.209244,-1.71049,-0.0288962,1.37538,0.402272,0.478416,-0.019756,0.477169,-0.138126,0.1514,0.0104222,0.00109002,0.638309,-25.1357,2.31386,24.6103,1.21643,1.75316,-0.00996382,-2.92264,0.459414,-1.70341,0.144103,-0.829422,0.093346,0.216315,0.0927641,-0.0832919,-1.10266,0.382637,-0.793815,-0.00102241,
0.150605,-0.230778,-0.194319,-1.71575,-0.0196379,-0.199005,-0.382771,0.679312,-0.0236872,0.702802,-0.232827,0.560993,-0.231523,0.0125506,0,0,0,0,0,0,0,0.135635,-0.229904,-0.209244,-1.71049,-0.0288962,1.37538,0.402272,0.478416,-0.019756,0.477169,-0.138126,0.1514,0.0104222,0.00109002,0.638309,-25.1357,2.31386,24.6103,1.21643,1.75316,-0.00996382,-2.92264,0.459414,-1.70341,0.144103,-0.829422,0.093346,0.216315,0.0927641,-0.0832919,-1.10266,0.382637,-0.793815,-0.00102241,
0.153376,-0.230847,-0.191421,-1.71668,-0.0171491,-0.199982,-0.382724,0.692596,-0.0172748,0.724628,-0.234379,0.622196,-0.244253,0.0118957,0,0,0,0,0,0,0,0.149127,-0.230304,-0.195089,-1.71425,-0.0226551,1.37552,0.402273,0.493442,-0.00654323,0.487335,-0.129872,0.203208,0.0239927,-0.00144057,-0.829586,-25.4372,0.786451,25.4315,1.25305,1.5545,0.0303194,-2.28868,2.28614,-1.02116,-1.06954,-0.53856,0.959513,0.9888,0.267543,0.971681,-1.01251,0.644845,-0.858393,-0.00154046,
0.140189,-0.230249,-0.20488,-1.7121,-0.0269614,-0.195935,-0.382992,0.588527,-0.0449223,0.570366,-0.211703,0.27695,-0.0925602,0.0164196,0,0,0,0,0,0,0,0.149127,-0.230304,-0.195089,-1.71425,-0.0226551,1.37552,0.402273,0.493442,-0.00654323,0.487335,-0.129872,0.203208,0.0239927,-0.00144057,-0.829586,-25.4372,0.786451,25.4315,1.25305,1.5545,0.0303194,-2.28868,2.28614,-1.02116,-1.06954,-0.53856,0.959513,0.9888,0.267543,0.971681,-1.01251,0.644845,-0.858393,-0.00154046,
0.156167,-0.230697,-0.188105,-1.71669,-0.0187871,-0.196046,-0.382934,0.617934,-0.0330684,0.625007,-0.217201,0.390046,-0.112934,0.0150016,0,0,0,0,0,0,0,0.149127,-0.230304,-0.195089,-1.71425,-0.0226551,1.37552,0.402273,0.493442,-0.00654323,0.487335,-0.129872,0.203208,0.0239927,-0.00144057,-0.829586,-25.4372,0.786451,25.4315,1.25305,1.5545,0.0303194,-2.30846,0.267519,-0.865698,0.207469,-0.711076,0.0501162,0.123796,0.00649677,-0.0810951,-0.811517,0.36343,-0.74496,1.03032e-05,
0.158732,-0.230811,-0.18547,-1.71758,-0.0169517,-0.196647,-0.382878,0.641094,-0.0284614,0.658849,-0.222475,0.458853,-0.150315,0.0139778,0,0,0,0,0,0,0,0.149127,-0.230304,-0.195089,-1.71425,-0.0226551,1.37552,0.402273,0.493442,-0.00654323,0.487335,-0.129872,0.203208,0.0239927,-0.00144057,-0.829586,-25.4372,0.786451,25.4315,1.25305,1.5545,0.0303194,-2.30846,0.267519,-0.865698,0.207469,-0.711076,0.0501162,0.123796,0.00649677,-0.0810951,-0.811517,0.36343,-0.74496,1.03032e-05,
0.161371,-0.230903,-0.18272,-1.71848,-0.0148511,-0.197359,-0.382825,0.659934,-0.0229027,0.687451,-0.225687,0.525147,-0.178025,0.0131098,0,0,0,0,0,0,0,0.149127,-0.230304,-0.195089,-1.71425,-0.0226551,1.37552,0.402273,0.493442,-0.00654323,0.487335,-0.129872,0.203208,0.0239927,-0.00144057,-0.829586,-25.4372,0.786451,25.4315,1.25305,1.5545,0.0303194,-2.07095,-1.30094,-1.11417,1.25012,-0.519208,-0.649742,-0.516843,0.0276046,-0.933598,-0.812692,0.185699,-0.648246,0.00143599,
0.164072,-0.230971,-0.179872,-1.71939,-0.012501,-0.198148,-0.382776,0.675267,-0.0170827,0.711821,-0.227787,0.587543,-0.197221,0.0123612,0,0,0,0,0,0,0,0.16649,-0.230371,-0.177062,-1.71891,-0.0150659,1.376,0.402283,0.486122,0.00324935,0.528933,-0.128229,0.244272,0.00913465,0.0011202,-1.3374,-25.8339,0.139784,25.5069,1.18621,1.83922,-0.0163725,-2.04628,1.02574,-0.712736,-0.294212,-0.632791,0.424211,0.473047,0.0379991,0.359975,-0.724203,0.481798,-0.669702,-0.00119041,
0.166823,-0.231016,-0.176942,-1.72031,-0.00991977,-0.198985,-0.382729,0.687707,-0.0113182,0.73273,-0.229135,0.645295,-0.209299,0.0117071,0,0,0,0,0,0,0,0.16649,-0.230371,-0.177062,-1.71891,-0.0150659,1.376,0.402283,0.486122,0.00324935,0.528933,-0.128229,0.244272,0.00913465,0.0011202,-1.3374,-25.8339,0.139784,25.5069,1.18621,1.83922,-0.0163725,-2.04628,1.02574,-0.712736,-0.294212,-0.632791,0.424211,0.473047,0.0379991,0.359975,-0.724203,0.481798,-0.669702,-0.00119041,
0.169614,-0.231039,-0.173938,-1.72123,-0.00712742,-0.199848,-0.382685,0.697731,-0.00577004,0.750778,-0.229892,0.698089,-0.215564,0.0111276,0,0,0,0,0,0,0,0.16649,-0.230371,-0.177062,-1.71891,-0.0150659,1.376,0.402283,0.486122,0.00324935,0.528933,-0.128229,0.244272,0.00913465,0.0011202,-1.3374,-25.8339,0.139784,25.5069,1.18621,1.83922,-0.0163725,-1.54644,0.458543,-0.835878,0.0274684,-0.246223,0.182626,0.226369,0.231256,0.0905033,-0.766976,0.373405,-0.617563,-0.00164372,
0.153695,-0.230565,-0.190605,-1.71582,-0.0203473,-0.195594,-0.382994,0.58929,-0.035065,0.584612,-0.207226,0.321076,-0.0660543,0.0161811,0,0,0,0,0,0,0,0.16649,-0.230371,-0.177062,-1.71891,-0.0150659,1.376,0.402283,0.486122,0.00324935,0.528933,-0.128229,0.244272,0.00913465,0.0011202,-1.3374,-25.8339,0.139784,25.5069,1.18621,1.83922,-0.0163725,-1.54644,0.458543,-0.835878,0.0274684,-0.246223,0.182626,0.226369,0.231256,0.0905033,-0.766976,0.373405,-0.617563,-0.00164372,
0.173578,-0.230654,-0.169842,-1.72132,-0.0107436,-0.195526,-0.382927,0.61986,-0.0242845,0.641495,-0.214588,0.426326,-0.101851,0.0146266,0,0,0,0,0,0,0,0.16649,-0.230371,-0.177062,-1.71891,-0.0150659,1.376,0.402283,0.486122,0.00324935,0.528933,-0.128229,0.244272,0.00913465,0.0011202,-1.3374,-25.8339,0.139784,25.5069,1.18621,1.83922,-0.0163725,-2.02585,-0.491098,-1.31323,0.623499,-0.498382,-0.238233,-0.135205,0.0864794,-0.42808,-0.80879,0.229315,-0.547327,-0.00165662,
0.176143,-0.230735,-0.167149,-1.7222,-0.00877364,-0.196062,-0.382872,0.641202,-0.0201535,0.673157,-0.219506,0.492485,-0.133977,0.0136368,0,0,0,0,0,0,0,0.16649,-0.230371,-0.177062,-1.71891,-0.0150659,1.376,0.402283,0.486122,0.00324935,0.528933,-0.128229,0.244272,0.00913465,0.0011202,-1.3374,-25.8339,0.139784,25.5069,1.18621,1.83922,-0.0163725,-2.67221,-0.428993,-1.21633,0.60226,-1.05535,-0.201033,-0.101342,-0.251478,-0.374668,-0.676725,0.26809,-0.520383,-0.00207685,
0.178777,-0.230795,-0.164349,-1.72309,-0.00655039,-0.196692,-0.382821,0.658531,-0.0151198,0.699977,-0.22236,0.555811,-0.157604,0.0127955,0,0,0,0,0,0,0,0.187448,-0.230067,-0.154686,-1.72436,-0.00335721,1.37626,0.402287,0.500541,0.0094861,0.540235,-0.126069,0.300656,0.003665,0.0021162,0.25745,-26.7107,1.43709,25.6815,1.39953,1.81267,-0.050247,-2.67221,-0.428993,-1.21633,0.60226,-1.05535,-0.201033,-0.101342,-0.251478,-0.374668,-0.676725,0.26809,-0.520383,-0.00207685,
0.181468,-0.230835,-0.161458,-1.72399,-0.00408981,-0.197387,-0.382773,0.672596,-0.00985012,0.722868,-0.224119,0.615147,-0.173652,0.0120655,0,0,0,0,0,0,0,0.187448,-0.230067,-0.154686,-1.72436,-0.00335721,1.37626,0.402287,0.500541,0.0094861,0.540235,-0.126069,0.300656,0.003665,0.0021162,0.25745,-26.7107,1.43709,25.6815,1.39953,1.81267,-0.050247,-2.07138,1.60233,-1.39497,-0.744097,-0.457648,0.738471,0.770465,0.267224,0.729537,-0.903931,0.521665,-0.57615,-0.00452035,
0.184204,-0.230853,-0.158487,-1.72489,-0.00141025,-0.19812,-0.382727,0.68396,-0.00464322,0.742534,-0.225155,0.66989,-0.183339,0.0114292,0,0,0,0,0,0,0,0.187448,-0.230067,-0.154686,-1.72436,-0.00335721,1.37626,0.402287,0.500541,0.0094861,0.540235,-0.126069,0.300656,0.003665,0.0021162,0.25745,-26.7107,1.43709,25.6815,1.39953,1.81267,-0.050247,-2.07138,1.60233,-1.39497,-0.744097,-0.457648,0.738471,0.770465,0.267224,0.729537,-0.903931,0.521665,-0.57615,-0.00452035,
0.171099,-0.230557,-0.172408,-1.72047,-0.0124489,-0.195118,-0.382986,0.593401,-0.0258813,0.603849,-0.204919,0.359317,-0.0617054,0.0157929,0,0,0,0,0,0,0,0.187448,-0.230067,-0.154686,-1.72436,-0.00335721,1.37626,0.402287,0.500541,0.0094861,0.540235,-0.126069,0.300656,0.003665,0.0021162,0.25745,-26.7107,1.43709,25.6815,1.39953,1.81267,-0.050247,-1.8839,0.656151,-1.23023,-0.193513,-0.438403,0.313275,0.325027,0.180095,0.281648,-0.787087,0.351876,-0.51603,-0.002798,
0.194546,-0.230265,-0.147288,-1.72673,0.00153763,-0.195143,-0.382928,0.618895,-0.0172638,0.654692,-0.210945,0.468449,-0.0854042,0.0142943,0,0,0,0,0,0,0,0.187448,-0.230067,-0.154686,-1.72436,-0.00335721,1.37626,0.402287,0.500541,0.0094861,0.540235,-0.126069,0.300656,0.003665,0.0021162,0.25745,-26.7107,1.43709,25.6815,1.39953,1.81267,-0.050247,-1.8839,0.656151,-1.23023,-0.193513,-0.438403,0.313275,0.325027,0.180095,0.281648,-0.787087,0.351876,-0.51603,-0.002798,
0.197102,-0.230319,-0.144548,-1.7276,0.00365522,-0.195595,-0.382875,0.639045,-0.0134037,0.685006,-0.215571,0.5294,-0.113119,0.013326,0,0,0,0,0,0,0,0.203503,-0.229863,-0.137218,-1.72835,0.00605969,1.37636,0.402284,0.505174,0.0097918,0.566497,-0.121176,0.346574,0.0057211,-0.00136379,0.285221,-26.5599,1.03639,25.3323,2.07794,1.73394,0.0239107,-1.84513,-0.950117,-1.73915,0.812341,-0.284947,-0.401461,-0.305152,0.219847,-0.596791,-0.888671,0.11531,-0.450039,-0.00302774,
0.199723,-0.230354,-0.141705,-1.72847,0.00600708,-0.196129,-0.382825,0.655345,-0.00871486,0.710665,-0.218167,0.587964,-0.133368,0.0125016,0,0,0,0,0,0,0,0.203503,-0.229863,-0.137218,-1.72835,0.00605969,1.37636,0.402284,0.505174,0.0097918,0.566497,-0.121176,0.346574,0.0057211,-0.00136379,0.285221,-26.5599,1.03639,25.3323,2.07794,1.73394,0.0239107,-1.56207,0.429861,-2.05462,-0.0463273,0.139192,0.229627,0.302648,0.622933,0.110029,-1.13424,0.352659,-0.51831,-0.00596828,
0.202397,-0.230369,-0.138775,-1.72935,0.00857908,-0.196716,-0.382778,0.668509,-0.00383205,0.732544,-0.219696,0.643,-0.146879,0.0117758,0,0,0,0,0,0,0,0.203503,-0.229863,-0.137218,-1.72835,0.00605969,1.37636,0.402284,0.505174,0.0097918,0.566497,-0.121176,0.346574,0.0057211,-0.00136379,0.285221,-26.5599,1.03639,25.3323,2.07794,1.73394,0.0239107,-1.56207,0.429861,-2.05462,-0.0463273,0.139192,0.229627,0.302648,0.622933,0.110029,-1.13424,0.352659,-0.51831,-0.00596828,
0.205114,-0.230365,-0.13577,-1.73023,0.0113546,-0.197335,-0.382733,0.679079,0.000966434,0.751322,-0.220528,0.693888,-0.154707,0.0111551,0,0,0,0,0,0,0,0.203503,-0.229863,-0.137218,-1.72835,0.00605969,1.37636,0.402284,0.505174,0.0097918,0.566497,-0.121176,0.346574,0.0057211,-0.00136379,0.285221,-26.5599,1.03639,25.3323,2.07794,1.73394,0.0239107,-1.51405,0.770574,-1.62117,-0.217847,0.0681155,0.379122,0.405066,0.550474,0.31163,-1.03143,0.461187,-0.565503,-0.00395896,
0.207863,-0.230343,-0.1327,-1.73111,0.0143161,-0.197967,-0.382691,0.687466,0.00554882,0.767534,-0.220828,0.740374,-0.157878,0.0105937,0,0,0,0,0,0,0,0.203503,-0.229863,-0.137218,-1.72835,0.00605969,1.37636,0.402284,0.505174,0.0097918,0.566497,-0.121176,0.346574,0.0057211,-0.00136379,0.285221,-26.5599,1.03639,25.3323,2.07794,1.73394,0.0239107,-1.51405,0.770574,-1.62117,-0.217847,0.0681155,0.379122,0.405066,0.550474,0.31163,-1.03143,0.461187,-0.565503,-0.00395896,
0.19207,-0.230196,-0.149907,-1.72589,-0.000336172,-0.194801,-0.382985,0.593866,-0.0187216,0.618622,-0.201636,0.407016,-0.0509214,0.015413,0,0,0,0,0,0,0,0.203503,-0.229863,-0.137218,-1.72835,0.00605969,1.37636,0.402284,0.505174,0.0097918,0.566497,-0.121176,0.346574,0.0057211,-0.00136379,0.285221,-26.5599,1.03639,25.3323,2.07794,1.73394,0.0239107,-1.65412,-0.552717,-1.56389,0.593107,-0.128214,-0.202511,-0.133357,0.321893,-0.366499,-0.914661,0.251637,-0.510239,-0.00410036,
0.21063,-0.230036,-0.129611,-1.73065,0.011449,-0.194866,-0.382938,0.619416,-0.0146958,0.669567,-0.205147,0.506493,-0.0655224,0.013858,0,0,0,0,0,0,0,0.219529,-0.229835,-0.119322,-1.73254,0.0157662,1.37698,0.402291,0.48021,6.26132e-05,0.574139,-0.136575,0.358897,0.0128331,1.24203e-05,1.55078,-26.1592,2.1631,24.9118,1.52221,1.95275,0.00376909,-1.65412,-0.552717,-1.56389,0.593107,-0.128214,-0.202511,-0.133357,0.321893,-0.366499,-0.914661,0.251637,-0.510239,-0.00410036,
0.213182,-0.230079,-0.126819,-1.73149,0.0137042,-0.195224,-0.382887,0.638013,-0.0106733,0.698019,-0.209742,0.563803,-0.0896563,0.012924,0,0,0,0,0,0,0,0.219529,-0.229835,-0.119322,-1.73254,0.0157662,1.37698,0.402291,0.48021,6.26132e-05,0.574139,-0.136575,0.358897,0.0128331,1.24203e-05,1.55078,-26.1592,2.1631,24.9118,1.52221,1.95275,0.00376909,-1.42608,-0.771539,-1.92141,0.66834,0.152124,-0.294586,-0.204859,0.517784,-0.484648,-1.04295,0.176925,-0.482776,-0.00514701,
0.215794,-0.230103,-0.123931,-1.73234,0.016179,-0.195653,-0.382838,0.653009,-0.00594496,0.722132,-0.212311,0.618715,-0.107223,0.0121361,0,0,0,0,0,0,0,0.219529,-0.229835,-0.119322,-1.73254,0.0157662,1.37698,0.402291,0.48021,6.26132e-05,0.574139,-0.136575,0.358897,0.0128331,1.24203e-05,1.55078,-26.1592,2.1631,24.9118,1.52221,1.95275,0.00376909,-1.70116,0.398904,-1.94493,-0.0846198,0.0406205,0.260963,0.315037,0.578992,0.167029,-1.12005,0.358944,-0.554346,-0.00894401,
0.218455,-0.230107,-0.12096,-1.73319,0.0188599,-0.196128,-0.382792,0.665054,-0.00110594,0.742716,-0.213813,0.670229,-0.118778,0.0114385,0,0,0,0,0,0,0,0.219529,-0.229835,-0.119322,-1.73254,0.0157662,1.37698,0.402291,0.48021,6.26132e-05,0.574139,-0.136575,0.358897,0.0128331,1.24203e-05,1.55078,-26.1592,2.1631,24.9118,1.52221,1.95275,0.00376909,-1.70116,0.398904,-1.94493,-0.0846198,0.0406205,0.260963,0.315037,0.578992,0.167029,-1.12005,0.358944,-0.554346,-0.00894401,
0.22116,-0.230093,-0.117927,-1.73405,0.0217332,-0.196629,-0.382749,0.676305,0.00361394,0.75819,-0.21459,0.718324,-0.125262,0.0107945,0,0,0,0,0,0,0,0.219529,-0.229835,-0.119322,-1.73254,0.0157662,1.37698,0.402291,0.48021,6.26132e-05,0.574139,-0.136575,0.358897,0.0128331,1.24203e-05,1.55078,-26.1592,2.1631,24.9118,1.52221,1.95275,0.00376909,-1.7204,2.57938,-1.94471,-1.53975,0.0744697,1.26512,1.2567,0.788185,1.356,-1.18738,0.61254,-0.57632,-0.0127975,
0.208153,-0.229977,-0.13229,-1.72983,0.00942299,-0.194604,-0.382994,0.596264,-0.0165022,0.635779,-0.195899,0.448442,-0.0357101,0.0149056,0,0,0,0,0,0,0,0.235059,-0.229817,-0.101884,-1.73664,0.0269942,1.37778,0.402295,0.479838,-0.000226684,0.547132,-0.136741,0.336823,0.0302836,0.000839002,2.2887,-26.31,2.6114,24.8602,1.22833,1.99212,-0.0365141,-1.7204,2.57938,-1.94471,-1.53975,0.0744697,1.26512,1.2567,0.788185,1.356,-1.18738,0.61254,-0.57632,-0.0127975,
0.241912,-0.229985,-0.0944171,-1.73892,0.0321906,-0.193211,-0.382921,0.598579,-0.012506,0.66065,-0.200652,0.488333,-0.0443255,0.0142158,0,0,0,0,0,0,0,0.235059,-0.229817,-0.101884,-1.73664,0.0269942,1.37778,0.402295,0.479838,-0.000226684,0.547132,-0.136741,0.336823,0.0302836,0.000839002,2.2887,-26.31,2.6114,24.8602,1.22833,1.99212,-0.0365141,-1.52592,0.519346,-2.00344,-0.215497,0.153985,0.326238,0.376747,0.652364,0.24947,-1.11877,0.34748,-0.507276,-0.0101757,
0.244387,-0.230017,-0.0916527,-1.73974,0.03437,-0.193475,-0.382868,0.618758,-0.00800972,0.691098,-0.204714,0.544832,-0.0658782,0.0132111,0,0,0,0,0,0,0,0.235059,-0.229817,-0.101884,-1.73664,0.0269942,1.37778,0.402295,0.479838,-0.000226684,0.547132,-0.136741,0.336823,0.0302836,0.000839002,2.2887,-26.31,2.6114,24.8602,1.22833,1.99212,-0.0365141,-1.49056,-1.05614,-2.14018,0.848821,0.180803,-0.386926,-0.285734,0.534455,-0.608427,-1.09912,0.207911,-0.464483,-0.00959895,
0.246934,-0.230029,-0.0887942,-1.74057,0.0367703,-0.1938,-0.382819,0.636705,-0.00309068,0.71463,-0.207099,0.60008,-0.0813774,0.0123125,0,0,0,0,0,0,0,0.235059,-0.229817,-0.101884,-1.73664,0.0269942,1.37778,0.402295,0.479838,-0.000226684,0.547132,-0.136741,0.336823,0.0302836,0.000839002,2.2887,-26.31,2.6114,24.8602,1.22833,1.99212,-0.0365141,-1.49056,-1.05614,-2.14018,0.848821,0.180803,-0.386926,-0.285734,0.534455,-0.608427,-1.09912,0.207911,-0.464483,-0.00959895,
0.249541,-0.230022,-0.0858619,-1.7414,0.0393827,-0.194166,-0.382773,0.651836,0.00180406,0.733072,-0.208553,0.653095,-0.0914346,0.0115084,0,0,0,0,0,0,0,0.235059,-0.229817,-0.101884,-1.73664,0.0269942,1.37778,0.402295,0.479838,-0.000226684,0.547132,-0.136741,0.336823,0.0302836,0.000839002,2.2887,-26.31,2.6114,24.8602,1.22833,1.99212,-0.0365141,-1.60575,0.605834,-1.67038,-0.151776,-0.0251018,0.37336,0.418659,0.480594,0.286125,-0.969514,0.490341,-0.486348,-0.0113769,
0.252198,-0.229996,-0.0828704,-1.74224,0.0421945,-0.194554,-0.38273,0.664021,0.0064743,0.747882,-0.209373,0.702963,-0.0968999,0.0107956,0,0,0,0,0,0,0,0.235059,-0.229817,-0.101884,-1.73664,0.0269942,1.37778,0.402295,0.479838,-0.000226684,0.547132,-0.136741,0.336823,0.0302836,0.000839002,2.2887,-26.31,2.6114,24.8602,1.22833,1.99212,-0.0365141,-1.60575,0.605834,-1.67038,-0.151776,-0.0251018,0.37336,0.418659,0.480594,0.286125,-0.969514,0.490341,-0.486348,-0.0113769,
0.239518,-0.229935,-0.0970597,-1.73812,0.0302373,-0.193034,-0.382978,0.573528,-0.0154896,0.624411,-0.193018,0.431988,-0.0170848,0.0153346,0,0,0,0,0,0,0,0.251052,-0.229651,-0.0832966,-1.74056,0.0386175,1.37847,0.402299,0.518123,0.00368783,0.569536,-0.12076,0.311,0.0243689,0.000420122,0.158268,-26.6591,0.639662,25.0586,0.911556,2.13769,-0.0301054,-1.13661,-0.584311,-1.44222,0.619155,0.172238,-0.197541,-0.151866,0.42462,-0.35531,-0.84859,0.335899,-0.428965,-0.00822373,
0.258016,-0.229793,-0.0755367,-1.74276,0.04387,-0.192353,-0.382928,0.604704,-0.010282,0.678963,-0.194739,0.500905,-0.024828,0.0134905,0,0,0,0,0,0,0,0.251052,-0.229651,-0.0832966,-1.74056,0.0386175,1.37847,0.402299,0.518123,0.00368783,0.569536,-0.12076,0.311,0.0243689,0.000420122,0.158268,-26.6591,0.639662,25.0586,0.911556,2.13769,-0.0301054,-1.13661,-0.584311,-1.44222,0.619155,0.172238,-0.197541,-0.151866,0.42462,-0.35531,-0.84859,0.335899,-0.428965,-0.00822373,
0.260513,-0.229816,-0.0727265,-1.74355,0.0461174,-0.192526,-0.382878,0.624223,-0.00560127,0.70253,-0.199135,0.561849,-0.0432234,0.0125366,0,0,0,0,0,0,0,0.251052,-0.229651,-0.0832966,-1.74056,0.0386175,1.37847,0.402299,0.518123,0.00368783,0.569536,-0.12076,0.311,0.0243689,0.000420122,0.158268,-26.6591,0.639662,25.0586,0.911556,2.13769,-0.0301054,-1.3381,0.116689,-1.46167,0.0567115,-0.0690106,0.165688,0.267338,0.337573,0.0330225,-0.762974,0.29893,-0.340408,-0.0105224,
0.263073,-0.229818,-0.06984,-1.74436,0.048596,-0.192752,-0.382832,0.640101,-0.000598973,0.721646,-0.201685,0.619666,-0.0565225,0.0116912,0,0,0,0,0,0,0,0.251052,-0.229651,-0.0832966,-1.74056,0.0386175,1.37847,0.402299,0.518123,0.00368783,0.569536,-0.12076,0.311,0.0243689,0.000420122,0.158268,-26.6591,0.639662,25.0586,0.911556,2.13769,-0.0301054,-1.40961,1.05325,-1.33,-0.548483,-0.154994,0.595905,0.655253,0.35458,0.55513,-0.726396,0.421381,-0.338355,-0.0109769,
0.265685,-0.229801,-0.0668914,-1.74517,0.0512902,-0.193012,-0.382788,0.652945,0.00426906,0.73714,-0.203217,0.673548,-0.0650743,0.010944,0,0,0,0,0,0,0,0.251052,-0.229651,-0.0832966,-1.74056,0.0386175,1.37847,0.402299,0.518123,0.00368783,0.569536,-0.12076,0.311,0.0243689,0.000420122,0.158268,-26.6591,0.639662,25.0586,0.911556,2.13769,-0.0301054,-1.40961,1.05325,-1.33,-0.548483,-0.154994,0.595905,0.655253,0.35458,0.55513,-0.726396,0.421381,-0.338355,-0.0109769,
0.268338,-0.229766,-0.0638928,-1.74599,0.0541825,-0.19329,-0.382747,0.66326,0.00882604,0.749643,-0.204067,0.723075,-0.0695579,0.01028,0,0,0,0,0,0,0,0.266735,-0.229444,-0.0652214,-1.74444,0.0498043,1.379,0.402299,0.511132,0.00661064,0.553669,-0.119322,0.340652,0.0267153,0.000771025,-1.66668,-27.0082,-1.08611,25.733,1.13128,2.03148,-0.0227812,-0.897098,0.715853,-1.37065,-0.298089,0.284164,0.38229,0.376154,0.577728,0.355559,-0.811514,0.443277,-0.362522,-0.00812222,
0.255597,-0.229752,-0.0782525,-1.74198,0.0418663,-0.192253,-0.382982,0.581473,-0.0134365,0.649318,-0.186251,0.43799,-0.00224848,0.01449,0,0,0,0,0,0,0,0.266735,-0.229444,-0.0652214,-1.74444,0.0498043,1.379,0.402299,0.511132,0.00661064,0.553669,-0.119322,0.340652,0.0267153,0.000771025,-1.66668,-27.0082,-1.08611,25.733,1.13128,2.03148,-0.0227812,-0.897098,0.715853,-1.37065,-0.298089,0.284164,0.38229,0.376154,0.577728,0.355559,-0.811514,0.443277,-0.362522,-0.00812222,
0.27356,-0.229545,-0.0575674,-1.74659,0.0552761,-0.191688,-0.38293,0.594698,-0.00690938,0.669429,-0.191019,0.514694,-0.00910707,0.0134143,0,0,0,0,0,0,0,0.266735,-0.229444,-0.0652214,-1.74444,0.0498043,1.379,0.402299,0.511132,0.00661064,0.553669,-0.119322,0.340652,0.0267153,0.000771025,-1.66668,-27.0082,-1.08611,25.733,1.13128,2.03148,-0.0227812,-1.08507,-0.70267,-1.56254,0.585992,0.142143,-0.228641,-0.187513,0.387594,-0.364918,-0.792125,0.249272,-0.321209,-0.00353154,
0.276017,-0.229554,-0.0547948,-1.74737,0.0575662,-0.191787,-0.38288,0.614327,-0.00243624,0.693136,-0.195189,0.572523,-0.0247137,0.0124227,0,0,0,0,0,0,0,0.266735,-0.229444,-0.0652214,-1.74444,0.0498043,1.379,0.402299,0.511132,0.00661064,0.553669,-0.119322,0.340652,0.0267153,0.000771025,-1.66668,-27.0082,-1.08611,25.733,1.13128,2.03148,-0.0227812,-1.08507,-0.70267,-1.56254,0.585992,0.142143,-0.228641,-0.187513,0.387594,-0.364918,-0.792125,0.249272,-0.321209,-0.00353154,
0.278538,-0.229545,-0.0519454,-1.74816,0.0600773,-0.191931,-0.382834,0.630231,0.00231293,0.712355,-0.197558,0.627785,-0.0359201,0.0115487,0,0,0,0,0,0,0,0.266735,-0.229444,-0.0652214,-1.74444,0.0498043,1.379,0.402299,0.511132,0.00661064,0.553669,-0.119322,0.340652,0.0267153,0.000771025,-1.66668,-27.0082,-1.08611,25.733,1.13128,2.03148,-0.0227812,-1.59438,-0.484919,-1.75405,0.377082,-0.215905,-0.0568188,0.0240298,0.241739,-0.190007,-0.782955,0.220256,-0.284514,-0.00572168,
0.281111,-0.229518,-0.0490338,-1.74896,0.0627956,-0.192103,-0.382791,0.643068,0.00690417,0.727904,-0.198939,0.679558,-0.0429417,0.0107794,0,0,0,0,0,0,0,0.266735,-0.229444,-0.0652214,-1.74444,0.0498043,1.379,0.402299,0.511132,0.00661064,0.553669,-0.119322,0.340652,0.0267153,0.000771025,-1.66668,-27.0082,-1.08611,25.733,1.13128,2.03148,-0.0227812,-1.90898,1.74697,-1.90015,-1.08739,-0.294615,0.983488,1.02093,0.470348,1.01471,-0.910506,0.513824,-0.333207,-0.0113242,
0.283724,-0.229473,-0.0460721,-1.74976,0.0657049,-0.192288,-0.38275,0.653355,0.0111735,0.740427,-0.199661,0.727335,-0.0463445,0.0100984,0,0,0,0,0,0,0,0.288272,-0.228892,-0.0397508,-1.74936,0.0657638,1.37972,0.402303,0.500453,0.0174144,0.575167,-0.105569,0.348136,0.0213136,9.28381e-05,0.412174,-26.9844,0.588087,25.4593,1.52221,2.09191,-0.0163725,-1.90898,1.74697,-1.90015,-1.08739,-0.294615,0.983488,1.02093,0.470348,1.01471,-0.910506,0.513824,-0.333207,-0.0113242,
0.28637,-0.229413,-0.0430704,-1.75056,0.0687885,-0.192475,-0.382712,0.661507,0.0150622,0.750437,-0.199878,0.77091,-0.0467394,0.00949197,0,0,0,0,0,0,0,0.288272,-0.228892,-0.0397508,-1.74936,0.0657638,1.37972,0.402303,0.500453,0.0174144,0.575167,-0.105569,0.348136,0.0213136,9.28381e-05,0.412174,-26.9844,0.588087,25.4593,1.52221,2.09191,-0.0163725,-1.32893,0.273054,-1.94969,-0.090282,0.142663,0.251403,0.277782,0.559986,0.1847,-0.946032,0.401451,-0.325675,-0.00701707,
0.271181,-0.229517,-0.0602451,-1.74583,0.0532173,-0.191652,-0.382983,0.570511,-0.00994615,0.640196,-0.182874,0.455733,0.00985778,0.0144623,0,0,0,0,0,0,0,0.288272,-0.228892,-0.0397508,-1.74936,0.0657638,1.37972,0.402303,0.500453,0.0174144,0.575167,-0.105569,0.348136,0.0213136,9.28381e-05,0.412174,-26.9844,0.588087,25.4593,1.52221,2.09191,-0.0163725,-1.32893,0.273054,-1.94969,-0.090282,0.142663,0.251403,0.277782,0.559986,0.1847,-0.946032,0.401451,-0.325675,-0.00701707,
0.295088,-0.228917,-0.03206,-1.75145,0.0713853,-0.190803,-0.382931,0.59239,-0.00144511,0.669946,-0.187256,0.528505,0.00954604,0.0129486,0,0,0,0,0,0,0,0.288272,-0.228892,-0.0397508,-1.74936,0.0657638,1.37972,0.402303,0.500453,0.0174144,0.575167,-0.105569,0.348136,0.0213136,9.28381e-05,0.412174,-26.9844,0.588087,25.4593,1.52221,2.09191,-0.0163725,-0.477142,-1.81694,-2.33653,1.23334,0.814216,-0.779252,-0.714455,0.744878,-1.01374,-1.05278,0.151813,-0.251227,-0.00540156,
0.29753,-0.228906,-0.0292919,-1.75222,0.0737293,-0.190817,-0.382883,0.610704,0.00256748,0.692025,-0.191596,0.586003,-0.00338484,0.011995,0,0,0,0,0,0,0,0.288272,-0.228892,-0.0397508,-1.74936,0.0657638,1.37972,0.402303,0.500453,0.0174144,0.575167,-0.105569,0.348136,0.0213136,9.28381e-05,0.412174,-26.9844,0.588087,25.4593,1.52221,2.09191,-0.0163725,-0.477142,-1.81694,-2.33653,1.23334,0.814216,-0.779252,-0.714455,0.744878,-1.01374,-1.05278,0.151813,-0.251227,-0.00540156,
0.300033,-0.228879,-0.026452,-1.753,0.0762906,-0.190868,-0.382839,0.625548,0.0068949,0.709959,-0.193927,0.640315,-0.0127928,0.011149,0,0,0,0,0,0,0,0.305008,-0.228395,-0.0197654,-1.75272,0.0790044,1.38032,0.402299,0.514967,0.0133921,0.583509,-0.092036,0.361262,0.027155,-0.0017047,-1.86902,-26.8852,-1.96288,25.5069,1.24664,2.06536,0.017502,-1.32109,-0.0177554,-2.41681,0.0513176,0.283032,0.135814,0.201423,0.675929,0.0185174,-1.07579,0.382895,-0.281228,-0.00877406,
0.302583,-0.228834,-0.0235541,-1.75378,0.0790538,-0.190942,-0.382797,0.63752,0.0110634,0.724476,-0.195202,0.690799,-0.0186144,0.0104014,0,0,0,0,0,0,0,0.305008,-0.228395,-0.0197654,-1.75272,0.0790044,1.38032,0.402299,0.514967,0.0133921,0.583509,-0.092036,0.361262,0.027155,-0.0017047,-1.86902,-26.8852,-1.96288,25.5069,1.24664,2.06536,0.017502,-1.31093,1.46633,-2.35988,-0.899723,0.351345,0.786594,0.810981,0.875919,0.780373,-1.12476,0.59405,-0.312552,-0.00932803,
0.305171,-0.228775,-0.0206095,-1.75456,0.0820023,-0.191028,-0.382758,0.647097,0.014905,0.736159,-0.1958,0.737125,-0.0212563,0.00973835,0,0,0,0,0,0,0,0.305008,-0.228395,-0.0197654,-1.75272,0.0790044,1.38032,0.402299,0.514967,0.0133921,0.583509,-0.092036,0.361262,0.027155,-0.0017047,-1.86902,-26.8852,-1.96288,25.5069,1.24664,2.06536,0.017502,-1.31093,1.46633,-2.35988,-0.899723,0.351345,0.786594,0.810981,0.875919,0.780373,-1.12476,0.59405,-0.312552,-0.00932803,
0.30779,-0.228701,-0.0176276,-1.75534,0.0851191,-0.191112,-0.382722,0.65466,0.0183662,0.745478,-0.195896,0.779199,-0.0212239,0.00914785,0,0,0,0,0,0,0,0.305008,-0.228395,-0.0197654,-1.75272,0.0790044,1.38032,0.402299,0.514967,0.0133921,0.583509,-0.092036,0.361262,0.027155,-0.0017047,-1.86902,-26.8852,-1.96288,25.5069,1.24664,2.06536,0.017502,-1.39272,0.520662,-2.20025,-0.296346,0.132274,0.389472,0.415126,0.604886,0.343146,-0.968003,0.450151,-0.247257,-0.00894813,
0.292718,-0.228911,-0.0347398,-1.7507,0.0692713,-0.190842,-0.382983,0.569831,-0.0038311,0.642842,-0.178348,0.4688,0.0243867,0.0139554,0,0,0,0,0,0,0,0.305008,-0.228395,-0.0197654,-1.75272,0.0790044,1.38032,0.402299,0.514967,0.0133921,0.583509,-0.092036,0.361262,0.027155,-0.0017047,-1.86902,-26.8852,-1.96288,25.5069,1.24664,2.06536,0.017502,-1.39272,0.520662,-2.20025,-0.296346,0.132274,0.389472,0.415126,0.604886,0.343146,-0.968003,0.450151,-0.247257,-0.00894813,
0.311855,-0.228462,-0.012006,-1.75471,0.0848818,-0.189979,-0.382944,0.592611,-0.00437561,0.672941,-0.179712,0.550689,0.0312342,0.0123707,0,0,0,0,0,0,0,0.320733,-0.228011,-0.00126179,-1.75578,0.0903597,1.38127,0.4023,0.508186,0.0123817,0.612769,-0.10043,0.415143,0.0318619,-0.00108515,-0.274166,-26.5361,-0.463243,24.8602,1.96167,2.04522,0.0101778,-1.11826,-1.55976,-2.52902,1.05439,0.415245,-0.559808,-0.489822,0.579377,-0.774383,-1.06403,0.257396,-0.24166,-0.00603577,
0.314292,-0.228461,-0.00923402,-1.75545,0.0873111,-0.189898,-0.382898,0.609274,0.000186691,0.693006,-0.184471,0.607313,0.0203543,0.011474,0,0,0,0,0,0,0,0.320733,-0.228011,-0.00126179,-1.75578,0.0903597,1.38127,0.4023,0.508186,0.0123817,0.612769,-0.10043,0.415143,0.0318619,-0.00108515,-0.274166,-26.5361,-0.463243,24.8602,1.96167,2.04522,0.0101778,-1.11826,-1.55976,-2.52902,1.05439,0.415245,-0.559808,-0.489822,0.579377,-0.774383,-1.06403,0.257396,-0.24166,-0.00603577,
0.316783,-0.228442,-0.00639672,-1.7562,0.0899516,-0.189849,-0.382855,0.622779,0.00493984,0.709324,-0.18709,0.660124,0.0123044,0.0106701,0,0,0,0,0,0,0,0.320733,-0.228011,-0.00126179,-1.75578,0.0903597,1.38127,0.4023,0.508186,0.0123817,0.612769,-0.10043,0.415143,0.0318619,-0.00108515,-0.274166,-26.5361,-0.463243,24.8602,1.96167,2.04522,0.0101778,-1.58486,-0.602301,-2.31878,0.52397,0.068034,-0.0701994,-0.0137638,0.461215,-0.22757,-0.990896,0.466192,-0.266808,-0.00948575,
0.319318,-0.228404,-0.00350661,-1.75695,0.0927866,-0.189819,-0.382816,0.633652,0.00941977,0.722527,-0.188587,0.708771,0.00733026,0.00995662,0,0,0,0,0,0,0,0.320733,-0.228011,-0.00126179,-1.75578,0.0903597,1.38127,0.4023,0.508186,0.0123817,0.612769,-0.10043,0.415143,0.0318619,-0.00108515,-0.274166,-26.5361,-0.463243,24.8602,1.96167,2.04522,0.0101778,-1.81289,1.57416,-2.39306,-0.921639,0.0325242,0.916862,0.934261,0.731049,0.917359,-1.09388,0.729903,-0.306697,-0.0128482,
0.321887,-0.22835,-0.000574106,-1.75771,0.0957991,-0.189799,-0.382778,0.642317,0.0134782,0.733127,-0.189372,0.753116,0.00514776,0.00932399,0,0,0,0,0,0,0,0.320733,-0.228011,-0.00126179,-1.75578,0.0903597,1.38127,0.4023,0.508186,0.0123817,0.612769,-0.10043,0.415143,0.0318619,-0.00108515,-0.274166,-26.5361,-0.463243,24.8602,1.96167,2.04522,0.0101778,-1.81289,1.57416,-2.39306,-0.921639,0.0325242,0.916862,0.934261,0.731049,0.917359,-1.09388,0.729903,-0.306697,-0.0128482,
0.309485,-0.228445,-0.0146978,-1.75399,0.082679,-0.190104,-0.382993,0.57213,-0.00740314,0.648376,-0.170079,0.490763,0.0430112,0.0132817,0,0,0,0,0,0,0,0.320733,-0.228011,-0.00126179,-1.75578,0.0903597,1.38127,0.4023,0.508186,0.0123817,0.612769,-0.10043,0.415143,0.0318619,-0.00108515,-0.274166,-26.5361,-0.463243,24.8602,1.96167,2.04522,0.0101778,-1.46234,1.11655,-2.61446,-0.768106,0.289138,0.677366,0.687469,0.863578,0.678813,-1.16036,0.561331,-0.267613,-0.0114121,
0.327637,-0.228043,0.00659897,-1.75776,0.0967638,-0.188946,-0.382951,0.595367,-0.000948457,0.678412,-0.177521,0.590852,0.0417151,0.0116813,0,0,0,0,0,0,0,0.336598,-0.22765,0.0177669,-1.75914,0.102509,1.38274,0.402302,0.487151,0.00907949,0.589538,-0.10182,0.424168,0.042902,0.000193702,1.34845,-26.5599,0.461134,24.8087,1.54052,2.24389,-0.00996382,-1.46234,1.11655,-2.61446,-0.768106,0.289138,0.677366,0.687469,0.863578,0.678813,-1.16036,0.561331,-0.267613,-0.0114121,
0.330078,-0.228029,0.00938443,-1.75849,0.099338,-0.188811,-0.382907,0.610222,0.00345212,0.696364,-0.181698,0.643541,0.0336829,0.0108423,0,0,0,0,0,0,0,0.336598,-0.22765,0.0177669,-1.75914,0.102509,1.38274,0.402302,0.487151,0.00907949,0.589538,-0.10182,0.424168,0.042902,0.000193702,1.34845,-26.5599,0.461134,24.8087,1.54052,2.24389,-0.00996382,-0.933325,-0.835394,-2.45859,0.524275,0.508613,-0.242672,-0.174836,0.690394,-0.407035,-1.03898,0.324203,-0.20391,-0.00882315,
0.332566,-0.227997,0.0122281,-1.75923,0.102108,-0.188699,-0.382867,0.622207,0.00791802,0.71091,-0.183946,0.692451,0.0279472,0.0100915,0,0,0,0,0,0,0,0.336598,-0.22765,0.0177669,-1.75914,0.102509,1.38274,0.402302,0.487151,0.00907949,0.589538,-0.10182,0.424168,0.042902,0.000193702,1.34845,-26.5599,0.461134,24.8087,1.54052,2.24389,-0.00996382,-0.933325,-0.835394,-2.45859,0.524275,0.508613,-0.242672,-0.174836,0.690394,-0.407035,-1.03898,0.324203,-0.20391,-0.00882315,
0.335094,-0.227949,0.0151186,-1.75997,0.105055,-0.1886,-0.382829,0.631844,0.0120593,0.72264,-0.185151,0.736847,0.0247632,0.00943093,0,0,0,0,0,0,0,0.336598,-0.22765,0.0177669,-1.75914,0.102509,1.38274,0.402302,0.487151,0.00907949,0.589538,-0.10182,0.424168,0.042902,0.000193702,1.34845,-26.5599,0.461134,24.8087,1.54052,2.24389,-0.00996382,-0.964138,0.290664,-2.68085,-0.189297,0.690528,0.238531,0.286947,0.983307,0.134199,-1.20665,0.549461,-0.258053,-0.0110973,
0.337655,-0.227886,0.0180482,-1.76071,0.108134,-0.188505,-0.382794,0.6403,0.0157435,0.732405,-0.185407,0.76967,0.02383,0.0088476,0,0,0,0,0,0,0,0.336598,-0.22765,0.0177669,-1.75914,0.102509,1.38274,0.402302,0.487151,0.00907949,0.589538,-0.10182,0.424168,0.042902,0.000193702,1.34845,-26.5599,0.461134,24.8087,1.54052,2.24389,-0.00996382,-1.29325,0.49013,-2.72455,-0.304054,0.526289,0.379631,0.395271,0.947188,0.312917,-1.24108,0.637634,-0.299833,-0.0126197,
0.325255,-0.228039,0.00388532,-1.75705,0.0944004,-0.189113,-0.382998,0.577018,-0.00412737,0.656424,-0.169005,0.534729,0.0502976,0.0125544,0,0,0,0,0,0,0,0.352494,-0.227434,0.0368585,-1.76268,0.115221,1.38467,0.402307,0.479271,0.00842153,0.593338,-0.108315,0.378004,0.0756392,0.000938881,1.83246,-26.6075,0.814222,24.9356,1.45446,2.15783,-0.0429228,-1.29325,0.49013,-2.72455,-0.304054,0.526289,0.379631,0.395271,0.947188,0.312917,-1.24108,0.637634,-0.299833,-0.0126197,
0.359152,-0.227441,0.0444829,-1.76464,0.121218,-0.185141,-0.382941,0.576297,0.00187327,0.660351,-0.173419,0.559096,0.074214,0.011784,0,0,0,0,0,0,0,0.352494,-0.227434,0.0368585,-1.76268,0.115221,1.38467,0.402307,0.479271,0.00842153,0.593338,-0.108315,0.378004,0.0756392,0.000938881,1.83246,-26.6075,0.814222,24.9356,1.45446,2.15783,-0.0429228,-1.60723,-0.204258,-2.39444,0.135591,0.048237,0.166654,0.215184,0.523691,0.0619631,-0.997246,0.474405,-0.229795,-0.01416,
0.361521,-0.227416,0.0472016,-1.76535,0.123671,-0.184879,-0.382897,0.59236,0.00625297,0.67969,-0.177389,0.613403,0.0654532,0.0109078,0,0,0,0,0,0,0,0.352494,-0.227434,0.0368585,-1.76268,0.115221,1.38467,0.402307,0.479271,0.00842153,0.593338,-0.108315,0.378004,0.0756392,0.000938881,1.83246,-26.6075,0.814222,24.9356,1.45446,2.15783,-0.0429228,-1.60723,-0.204258,-2.39444,0.135591,0.048237,0.166654,0.215184,0.523691,0.0619631,-0.997246,0.474405,-0.229795,-0.01416,
0.363946,-0.227374,0.0499849,-1.76606,0.126297,-0.184644,-0.382857,0.606222,0.010517,0.695824,-0.179305,0.656333,0.0588806,0.0101309,0,0,0,0,0,0,0,0.352494,-0.227434,0.0368585,-1.76268,0.115221,1.38467,0.402307,0.479271,0.00842153,0.593338,-0.108315,0.378004,0.0756392,0.000938881,1.83246,-26.6075,0.814222,24.9356,1.45446,2.15783,-0.0429228,-0.818185,-0.585907,-2.31116,0.367128,0.538739,-0.13698,-0.0805395,0.698223,-0.281607,-0.97659,0.392618,-0.176521,-0.0137242,
0.366419,-0.227316,0.0528234,-1.76678,0.129036,-0.184425,-0.382819,0.618336,0.0143122,0.709611,-0.179948,0.684854,0.0547094,0.00942776,0,0,0,0,0,0,0,0.352494,-0.227434,0.0368585,-1.76268,0.115221,1.38467,0.402307,0.479271,0.00842153,0.593338,-0.108315,0.378004,0.0756392,0.000938881,1.83246,-26.6075,0.814222,24.9356,1.45446,2.15783,-0.0429228,-1.29751,1.34609,-2.4899,-0.934781,0.376296,0.767628,0.779932,0.929463,0.775203,-1.11065,0.640741,-0.235388,-0.0164043,
0.368932,-0.227246,0.0557084,-1.7675,0.131852,-0.184214,-0.382784,0.628248,0.0175136,0.721253,-0.179996,0.703989,0.052826,0.00880184,0,0,0,0,0,0,0,0.352494,-0.227434,0.0368585,-1.76268,0.115221,1.38467,0.402307,0.479271,0.00842153,0.593338,-0.108315,0.378004,0.0756392,0.000938881,1.83246,-26.6075,0.814222,24.9356,1.45446,2.15783,-0.0429228,-1.29751,1.34609,-2.4899,-0.934781,0.376296,0.767628,0.779932,0.929463,0.775203,-1.11065,0.640741,-0.235388,-0.0164043,
0.371477,-0.227166,0.0586315,-1.76822,0.13472,-0.184002,-0.382751,0.636104,0.0201623,0.730773,-0.179696,0.716918,0.0528758,0.00823849,0,0,0,0,0,0,0,0.367904,-0.227185,0.0550739,-1.76598,0.127997,1.38684,0.402307,0.479036,0.00598282,0.580824,-0.102882,0.352041,0.0890819,-0.000240041,1.37622,-26.6075,0.286573,25.4315,2.10174,2.11114,-0.00996382,-1.17519,0.453712,-2.16328,-0.26611,0.337735,0.371407,0.402963,0.72147,0.300227,-0.970673,0.590197,-0.229763,-0.0138859,
0.359152,-0.227441,0.0444829,-1.76464,0.121217,-0.185141,-0.382941,0.576304,0.00187162,0.660357,-0.17342,0.558993,0.0742446,0.0117835,0,0,0,0,0,0,0,0.367904,-0.227185,0.0550739,-1.76598,0.127997,1.38684,0.402307,0.479036,0.00598282,0.580824,-0.102882,0.352041,0.0890819,-0.000240041,1.37622,-26.6075,0.286573,25.4315,2.10174,2.11114,-0.00996382,-1.17519,0.453712,-2.16328,-0.26611,0.337735,0.371407,0.402963,0.72147,0.300227,-0.970673,0.590197,-0.229763,-0.0138859,
0.374455,-0.227208,0.0626017,-1.76787,0.133781,-0.182749,-0.382945,0.567461,0.000948622,0.652121,-0.16802,0.539161,0.0937867,0.0115687,0,0,0,0,0,0,0,0.367904,-0.227185,0.0550739,-1.76598,0.127997,1.38684,0.402307,0.479036,0.00598282,0.580824,-0.102882,0.352041,0.0890819,-0.000240041,1.37622,-26.6075,0.286573,25.4315,2.10174,2.11114,-0.00996382,-1.04048,-0.180459,-2.01803,0.136688,0.278743,0.0913462,0.143118,0.553818,-0.0220136,-0.843534,0.460673,-0.162322,-0.0137121,
0.376795,-0.227186,0.0652905,-1.76856,0.136092,-0.182405,-0.382902,0.584903,0.00548923,0.672177,-0.171425,0.577658,0.0858961,0.0106949,0,0,0,0,0,0,0,0.367904,-0.227185,0.0550739,-1.76598,0.127997,1.38684,0.402307,0.479036,0.00598282,0.580824,-0.102882,0.352041,0.0890819,-0.000240041,1.37622,-26.6075,0.286573,25.4315,2.10174,2.11114,-0.00996382,-1.04048,-0.180459,-2.01803,0.136688,0.278743,0.0913462,0.143118,0.553818,-0.0220136,-0.843534,0.460673,-0.162322,-0.0137121,
0.379192,-0.227147,0.0680469,-1.76925,0.138518,-0.182086,-0.382862,0.59933,0.00969517,0.689109,-0.173158,0.60651,0.0799505,0.00990686,0,0,0,0,0,0,0,0.367904,-0.227185,0.0550739,-1.76598,0.127997,1.38684,0.402307,0.479036,0.00598282,0.580824,-0.102882,0.352041,0.0890819,-0.000240041,1.37622,-26.6075,0.286573,25.4315,2.10174,2.11114,-0.00996382,-0.586242,-0.868362,-1.86593,0.624785,0.540735,-0.289706,-0.243963,0.557905,-0.452123,-0.796867,0.40976,-0.148699,-0.0120515,
0.381636,-0.227094,0.0708593,-1.76995,0.141033,-0.181781,-0.382826,0.611027,0.0133401,0.703103,-0.174063,0.628755,0.0761651,0.00920013,0,0,0,0,0,0,0,0.383808,-0.226834,0.0743213,-1.76934,0.141148,1.38949,0.402309,0.515309,0.0162288,0.589925,-0.107222,0.398059,0.082309,0.000523698,-0.829586,-26.7583,-1.8875,25.9552,1.98639,2.11114,-0.0301054,-1.41413,1.35744,-1.94049,-0.845226,0.0779372,0.801849,0.798927,0.657027,0.819588,-0.84628,0.688387,-0.185548,-0.0153833,
0.384117,-0.227028,0.0737169,-1.77065,0.143622,-0.181484,-0.382791,0.62017,0.016415,0.714395,-0.17451,0.647266,0.0743689,0.0086128,0,0,0,0,0,0,0,0.383808,-0.226834,0.0743213,-1.76934,0.141148,1.38949,0.402309,0.515309,0.0162288,0.589925,-0.107222,0.398059,0.082309,0.000523698,-0.829586,-26.7583,-1.8875,25.9552,1.98639,2.11114,-0.0301054,-1.41413,1.35744,-1.94049,-0.845226,0.0779372,0.801849,0.798927,0.657027,0.819588,-0.84628,0.688387,-0.185548,-0.0153833,
0.386627,-0.226952,0.0766104,-1.77134,0.146263,-0.181187,-0.382759,0.627498,0.0189974,0.723387,-0.174463,0.660284,0.0742242,0.0080267,0,0,0,0,0,0,0,0.383808,-0.226834,0.0743213,-1.76934,0.141148,1.38949,0.402309,0.515309,0.0162288,0.589925,-0.107222,0.398059,0.082309,0.000523698,-0.829586,-26.7583,-1.8875,25.9552,1.98639,2.11114,-0.0301054,-1.54661,1.16461,-2.02721,-0.7721,-0.0246921,0.764401,0.776708,0.600528,0.772683,-0.850938,0.631524,-0.174147,-0.0169378,
0.374456,-0.227208,0.0626023,-1.76787,0.133772,-0.182746,-0.382945,0.567536,0.000932175,0.652186,-0.168023,0.538077,0.0940807,0.0115635,0,0,0,0,0,0,0,0.383808,-0.226834,0.0743213,-1.76934,0.141148,1.38949,0.402309,0.515309,0.0162288,0.589925,-0.107222,0.398059,0.082309,0.000523698,-0.829586,-26.7583,-1.8875,25.9552,1.98639,2.11114,-0.0301054,-1.54661,1.16461,-2.02721,-0.7721,-0.0246921,0.764401,0.776708,0.600528,0.772683,-0.850938,0.631524,-0.174147,-0.0169378,
0.390511,-0.22676,0.0820365,-1.77124,0.147187,-0.180093,-0.382955,0.577696,0.00796551,0.665238,-0.167525,0.540995,0.0982365,0.010662,0,0,0,0,0,0,0,0.383808,-0.226834,0.0743213,-1.76934,0.141148,1.38949,0.402309,0.515309,0.0162288,0.589925,-0.107222,0.398059,0.082309,0.000523698,-0.829586,-26.7583,-1.8875,25.9552,1.98639,2.11114,-0.0301054,-1.29312,-0.248733,-2.1241,0.136672,0.135542,0.141341,0.1972,0.502147,0.0306376,-0.86178,0.484529,-0.160525,-0.0145759,
0.392881,-0.226715,0.0847675,-1.77193,0.14946,-0.17972,-0.382916,0.592372,0.0113752,0.682746,-0.170408,0.568279,0.093242,0.00988114,0,0,0,0,0,0,0,0.383808,-0.226834,0.0743213,-1.76934,0.141148,1.38949,0.402309,0.515309,0.0162288,0.589925,-0.107222,0.398059,0.082309,0.000523698,-0.829586,-26.7583,-1.8875,25.9552,1.98639,2.11114,-0.0301054,-0.435053,-0.53254,-2.28385,0.288352,0.824205,-0.176343,-0.118339,0.849044,-0.328592,-0.986602,0.463844,-0.152198,-0.0120666,
0.395297,-0.226656,0.0875555,-1.77261,0.151827,-0.179362,-0.382879,0.604045,0.014578,0.697008,-0.171872,0.59171,0.0895808,0.00921056,0,0,0,0,0,0,0,0.40401,-0.22611,0.0987525,-1.77302,0.156565,1.39291,0.40231,0.488335,0.016431,0.604964,-0.0813723,0.349691,0.0762931,0.000632387,-0.424923,-26.6075,-1.68517,25.2332,1.78405,2.02508,-0.0429228,-0.435053,-0.53254,-2.28385,0.288352,0.824205,-0.176343,-0.118339,0.849044,-0.328592,-0.986602,0.463844,-0.152198,-0.0120666,
0.397751,-0.226587,0.0903896,-1.7733,0.154265,-0.179012,-0.382845,0.613522,0.0173833,0.708508,-0.172449,0.609495,0.0875006,0.00854818,0,0,0,0,0,0,0,0.40401,-0.22611,0.0987525,-1.77302,0.156565,1.39291,0.40231,0.488335,0.016431,0.604964,-0.0813723,0.349691,0.0762931,0.000632387,-0.424923,-26.6075,-1.68517,25.2332,1.78405,2.02508,-0.0429228,-1.01681,0.334207,-2.47254,-0.332678,0.549524,0.310127,0.331349,0.9036,0.251438,-1.08658,0.592152,-0.208891,-0.01426,
0.400234,-0.226508,0.0932602,-1.77399,0.156761,-0.178664,-0.382813,0.620712,0.019723,0.717661,-0.172579,0.62398,0.0870147,0.00804166,0,0,0,0,0,0,0,0.40401,-0.22611,0.0987525,-1.77302,0.156565,1.39291,0.40231,0.488335,0.016431,0.604964,-0.0813723,0.349691,0.0762931,0.000632387,-0.424923,-26.6075,-1.68517,25.2332,1.78405,2.02508,-0.0429228,-1.01681,0.334207,-2.47254,-0.332678,0.549524,0.310127,0.331349,0.9036,0.251438,-1.08658,0.592152,-0.208891,-0.01426,
0.402741,-0.226421,0.0961602,-1.77468,0.15928,-0.178312,-0.382782,0.626742,0.0216726,0.725001,-0.172058,0.62974,0.0878376,0.00757859,0,0,0,0,0,0,0,0.40401,-0.22611,0.0987525,-1.77302,0.156565,1.39291,0.40231,0.488335,0.016431,0.604964,-0.0813723,0.349691,0.0762931,0.000632387,-0.424923,-26.6075,-1.68517,25.2332,1.78405,2.02508,-0.0429228,-1.69355,0.00894265,-2.45578,-0.153645,0.0141459,0.360394,0.386789,0.590672,0.308402,-1.01949,0.536252,-0.217974,-0.0139347,
0.390519,-0.226762,0.0820421,-1.77124,0.14709,-0.18007,-0.382956,0.578467,0.00780681,0.665894,-0.167503,0.529786,0.100842,0.0106116,0,0,0,0,0,0,0,0.40401,-0.22611,0.0987525,-1.77302,0.156565,1.39291,0.40231,0.488335,0.016431,0.604964,-0.0813723,0.349691,0.0762931,0.000632387,-0.424923,-26.6075,-1.68517,25.2332,1.78405,2.02508,-0.0429228,-1.69355,0.00894265,-2.45578,-0.153645,0.0141459,0.360394,0.386789,0.590672,0.308402,-1.01949,0.536252,-0.217974,-0.0139347,
0.410644,-0.22609,0.106422,-1.77479,0.161781,-0.176478,-0.382957,0.571328,0.0030864,0.660609,-0.159517,0.469642,0.119114,0.0103772,0,0,0,0,0,0,0,0.420219,-0.225487,0.118241,-1.77568,0.16803,1.39603,0.402307,0.4882,0.0177234,0.583573,-0.0861421,0.359959,0.094627,0.000927139,0.562931,-26.187,-0.963121,25.4315,2.29126,1.89965,-0.0365141,-1.86465,0.179823,-2.12326,-0.226112,-0.248567,0.49114,0.546805,0.409292,0.432141,-0.864341,0.522124,-0.200646,-0.0144834,
0.412985,-0.226062,0.109132,-1.77545,0.163766,-0.176014,-0.382919,0.585281,0.00684491,0.67739,-0.163403,0.49621,0.116003,0.00959386,0,0,0,0,0,0,0,0.420219,-0.225487,0.118241,-1.77568,0.16803,1.39603,0.402307,0.4882,0.0177234,0.583573,-0.0861421,0.359959,0.094627,0.000927139,0.562931,-26.187,-0.963121,25.4315,2.29126,1.89965,-0.0365141,-1.86465,0.179823,-2.12326,-0.226112,-0.248567,0.49114,0.546805,0.409292,0.432141,-0.864341,0.522124,-0.200646,-0.0144834,
0.41537,-0.226021,0.111896,-1.77611,0.165842,-0.175561,-0.382883,0.59628,0.0104481,0.691022,-0.165452,0.519019,0.113378,0.00895767,0,0,0,0,0,0,0,0.420219,-0.225487,0.118241,-1.77568,0.16803,1.39603,0.402307,0.4882,0.0177234,0.583573,-0.0861421,0.359959,0.094627,0.000927139,0.562931,-26.187,-0.963121,25.4315,2.29126,1.89965,-0.0365141,-0.651764,-0.410459,-2.13159,0.167223,0.672759,-0.0528715,-0.00490938,0.799364,-0.179801,-0.974817,0.500214,-0.212881,-0.010988,
0.417793,-0.225966,0.114704,-1.77677,0.167973,-0.175114,-0.382849,0.605551,0.0136386,0.702152,-0.166232,0.532657,0.111806,0.00837697,0,0,0,0,0,0,0,0.420219,-0.225487,0.118241,-1.77568,0.16803,1.39603,0.402307,0.4882,0.0177234,0.583573,-0.0861421,0.359959,0.094627,0.000927139,0.562931,-26.187,-0.963121,25.4315,2.29126,1.89965,-0.0365141,-0.695931,-0.0566114,-2.77531,-0.244079,0.909098,0.0917975,0.104694,1.14725,0.0264161,-1.27758,0.544854,-0.262887,-0.0105937,
0.420244,-0.225901,0.117549,-1.77744,0.170135,-0.174668,-0.382818,0.612774,0.0162649,0.711152,-0.166439,0.540595,0.111519,0.00784877,0,0,0,0,0,0,0,0.420219,-0.225487,0.118241,-1.77568,0.16803,1.39603,0.402307,0.4882,0.0177234,0.583573,-0.0861421,0.359959,0.094627,0.000927139,0.562931,-26.187,-0.963121,25.4315,2.29126,1.89965,-0.0365141,-0.695931,-0.0566114,-2.77531,-0.244079,0.909098,0.0917975,0.104694,1.14725,0.0264161,-1.27758,0.544854,-0.262887,-0.0105937,
0.410707,-0.226098,0.106465,-1.77478,0.161005,-0.176362,-0.382962,0.577326,0.00202923,0.665674,-0.158552,0.380274,0.132619,0.00997084,0,0,0,0,0,0,0,0.420219,-0.225487,0.118241,-1.77568,0.16803,1.39603,0.402307,0.4882,0.0177234,0.583573,-0.0861421,0.359959,0.094627,0.000927139,0.562931,-26.187,-0.963121,25.4315,2.29126,1.89965,-0.0365141,-1.52992,-0.413839,-2.85688,-0.0897862,0.252832,0.197695,0.231656,0.788417,0.139079,-1.22179,0.447824,-0.261391,-0.0125368,
0.426803,-0.225439,0.125836,-1.77741,0.172299,-0.173046,-0.382967,0.56803,0.00489049,0.656889,-0.155313,0.356601,0.149658,0.00983528,0,0,0,0,0,0,0,0.435882,-0.22496,0.137274,-1.77792,0.178558,1.39923,0.402305,0.49078,0.0184896,0.593559,-0.0664773,0.328315,0.0988665,-8.19086e-05,0.487552,-26.5599,-1.463,25.4831,2.12646,1.91887,0.00376909,-1.52992,-0.413839,-2.85688,-0.0897862,0.252832,0.197695,0.231656,0.788417,0.139079,-1.22179,0.447824,-0.261391,-0.0125368,
0.429133,-0.225407,0.128536,-1.77805,0.173722,-0.172446,-0.382931,0.582464,0.00791754,0.674756,-0.158848,0.355541,0.149912,0.00910784,0,0,0,0,0,0,0,0.435882,-0.22496,0.137274,-1.77792,0.178558,1.39923,0.402305,0.49078,0.0184896,0.593559,-0.0664773,0.328315,0.0988665,-8.19086e-05,0.487552,-26.5599,-1.463,25.4831,2.12646,1.91887,0.00376909,-1.29663,-0.841186,-2.40783,0.29554,0.224489,-0.014008,0.0623471,0.58969,-0.143387,-1.01996,0.394396,-0.221337,-0.0107948,
0.431508,-0.225364,0.131291,-1.77869,0.175136,-0.171847,-0.382897,0.593718,0.010828,0.688981,-0.160664,0.35349,0.14972,0.00844645,0,0,0,0,0,0,0,0.435882,-0.22496,0.137274,-1.77792,0.178558,1.39923,0.402305,0.49078,0.0184896,0.593559,-0.0664773,0.328315,0.0988665,-8.19086e-05,0.487552,-26.5599,-1.463,25.4831,2.12646,1.91887,0.00376909,-1.97383,0.841454,-2.49418,-0.831015,-0.129774,0.81456,0.877178,0.715489,0.801484,-1.0738,0.605807,-0.254695,-0.013456,
0.433917,-0.22531,0.134092,-1.77934,0.176539,-0.171248,-0.382865,0.602289,0.0133418,0.700078,-0.161631,0.350972,0.149913,0.00786209,0,0,0,0,0,0,0,0.435882,-0.22496,0.137274,-1.77792,0.178558,1.39923,0.402305,0.49078,0.0184896,0.593559,-0.0664773,0.328315,0.0988665,-8.19086e-05,0.487552,-26.5599,-1.463,25.4831,2.12646,1.91887,0.00376909,-1.97383,0.841454,-2.49418,-0.831015,-0.129774,0.81456,0.877178,0.715489,0.801484,-1.0738,0.605807,-0.254695,-0.013456,
0.436351,-0.225249,0.136926,-1.77999,0.177931,-0.170645,-0.382836,0.608645,0.0154226,0.708547,-0.162064,0.347879,0.150747,0.00735871,0,0,0,0,0,0,0,0.435882,-0.22496,0.137274,-1.77792,0.178558,1.39923,0.402305,0.49078,0.0184896,0.593559,-0.0664773,0.328315,0.0988665,-8.19086e-05,0.487552,-26.5599,-1.463,25.4831,2.12646,1.91887,0.00376909,-0.758401,-0.301035,-2.71878,-0.134383,0.8197,0.0367111,0.0704156,1.06893,-0.0491283,-1.24545,0.520733,-0.262561,-0.0106857,
0.427022,-0.225456,0.125982,-1.77735,0.169465,-0.172832,-0.382982,0.588249,0.00201247,0.673898,-0.149669,0.0341196,0.174359,0.0086299,0,0,0,0,0,0,0,0.450556,-0.224611,0.154799,-1.77996,0.186831,1.40252,0.402308,0.496638,0.00514118,0.58648,-0.0640732,0.228219,0.111666,0.000528519,-0.730404,-26.5361,-2.41118,25.1855,1.22833,2.16424,-0.0227812,-0.758401,-0.301035,-2.71878,-0.134383,0.8197,0.0367111,0.0704156,1.06893,-0.0491283,-1.24545,0.520733,-0.262561,-0.0106857,
0.457304,-0.224718,0.162535,-1.78147,0.187202,-0.166057,-0.38298,0.58202,-0.00811997,0.670963,-0.1392,-0.0450549,0.198249,0.00872803,0,0,0,0,0,0,0,0.450556,-0.224611,0.154799,-1.77996,0.186831,1.40252,0.402308,0.496638,0.00514118,0.58648,-0.0640732,0.228219,0.111666,0.000528519,-0.730404,-26.5361,-2.41118,25.1855,1.22833,2.16424,-0.0227812,-0.959441,-0.817527,-2.74776,0.145377,0.598681,-0.0818263,-0.0380486,0.882295,-0.18099,-1.20615,0.40934,-0.24582,-0.0119772,
0.459683,-0.224738,0.16529,-1.78205,0.186811,-0.165249,-0.382947,0.59465,-0.00502506,0.68868,-0.14471,-0.0977902,0.201955,0.00810437,0,0,0,0,0,0,0,0.450556,-0.224611,0.154799,-1.77996,0.186831,1.40252,0.402308,0.496638,0.00514118,0.58648,-0.0640732,0.228219,0.111666,0.000528519,-0.730404,-26.5361,-2.41118,25.1855,1.22833,2.16424,-0.0227812,-1.34775,-0.36071,-2.58316,-0.16221,0.21597,0.219049,0.289283,0.72385,0.144671,-1.09388,0.391221,-0.219103,-0.0124762,
0.462097,-0.224746,0.168096,-1.78265,0.186258,-0.164437,-0.382917,0.603552,-0.00186986,0.701528,-0.148292,-0.138214,0.203104,0.00758243,0,0,0,0,0,0,0,0.450556,-0.224611,0.154799,-1.77996,0.186831,1.40252,0.402308,0.496638,0.00514118,0.58648,-0.0640732,0.228219,0.111666,0.000528519,-0.730404,-26.5361,-2.41118,25.1855,1.22833,2.16424,-0.0227812,-1.34775,-0.36071,-2.58316,-0.16221,0.21597,0.219049,0.289283,0.72385,0.144671,-1.09388,0.391221,-0.219103,-0.0124762,
0.464535,-0.224742,0.170938,-1.78325,0.185579,-0.163624,-0.382889,0.609563,0.00103033,0.710598,-0.150765,-0.169706,0.203143,0.00710501,0,0,0,0,0,0,0,0.450556,-0.224611,0.154799,-1.77996,0.186831,1.40252,0.402308,0.496638,0.00514118,0.58648,-0.0640732,0.228219,0.111666,0.000528519,-0.730404,-26.5361,-2.41118,25.1855,1.22833,2.16424,-0.0227812,-1.34743,0.597478,-2.78116,-0.879753,0.336899,0.569077,0.607203,1.00959,0.579152,-1.22169,0.484927,-0.243193,-0.0100804,
