PerkyPenguin/Analysis-on-Approximated-Derivatives/Code_and_Data/PaperData/Real_Robot/Scene_2/contact_change/2/trajectory.csv
Commanded Joint 0 Position,Commanded Joint 1 Position,Commanded Joint 2 Position,Commanded Joint 3 Position,Commanded Joint 4 Position,Commanded Joint 5 Position,Commanded Joint 6 Position,Commanded Joint 0 Velocity,Commanded Joint 1 Velocity,Commanded Joint 2 Velocity,Commanded Joint 3 Velocity,Commanded Joint 4 Velocity,Commanded Joint 5 Velocity,Commanded Joint 6 Velocity,Commanded Joint 0 Torque,Commanded Joint 1 Torque,Commanded Joint 2 Torque,Commanded Joint 3 Torque,Commanded Joint 4 Torque,Commanded Joint 5 Torque,Commanded Joint 6 Torque,Actual Joint 0 Position,Actual Joint 1 Position,Actual Joint 2 Position,Actual Joint 3 Position,Actual Joint 4 Position,Actual Joint 5 Position,Actual Joint 6 Position,Actual Joint 0 Velocity,Actual Joint 1 Velocity,Actual Joint 2 Velocity,Actual Joint 3 Velocity,Actual Joint 4 Velocity,Actual Joint 5 Velocity,Actual Joint 6 Velocity,Actual Joint 0 Torque,Actual Joint 1 Torque,Actual Joint 2 Torque,Actual Joint 3 Torque,Actual Joint 4 Torque,Actual Joint 5 Torque,Actual Joint 6 Torque,EE ext force 0,EE ext force 1,EE ext force 2,EE ext force 3,EE ext force 4,EE ext force 5,joint ext torque 0,joint ext torque 1,joint ext torque 2,joint ext torque 3,joint ext torque 4,joint ext torque 5,joint ext torque 6,
0.021622,-0.0523751,0.511849,-1.56245,0.0363539,-0.0123181,0.532137,0.0112981,0.0311347,0.0154485,-0.143681,-0.066373,0.200641,-0.00123657,0,0,0,0,0,0,0,0.0215525,-0.052528,0.511738,-1.56102,0.0367495,1.55649,1.31755,2.06858e-05,7.92484e-06,-0.000666362,-0.00133264,0.00133198,-0.000281093,0.000245084,0.182071,-27.4327,-0.76079,26.9788,1.15509,3.07244,0.0843355,2.26789,1.99884,2.20656,-0.979829,1.27032,0.199566,0.231438,0.522127,0.184787,0.199643,0.205044,-0.332547,0.0882378,
0.0216811,-0.0521697,0.511928,-1.56307,0.0360106,-0.0114824,0.532132,0.014794,0.051345,0.0197092,-0.154573,-0.0858208,0.208918,-0.00133032,0,0,0,0,0,0,0,0.0215525,-0.052528,0.511738,-1.56102,0.0367495,1.55649,1.31755,2.06858e-05,7.92484e-06,-0.000666362,-0.00133264,0.00133198,-0.000281093,0.000245084,0.182071,-27.4327,-0.76079,26.9788,1.15509,3.07244,0.0843355,2.2975,2.01316,2.16807,-0.993174,1.31215,0.198914,0.229576,0.554229,0.185768,0.180825,0.213291,-0.333375,0.0873801,
0.0215502,-0.0525229,0.511737,-1.56103,0.0367553,-0.0143236,0.532153,-0.000107631,0.00027529,-4.66736e-05,-0.000224227,0.000122292,-0.000774544,1.9248e-06,0,0,0,0,0,0,0,0.0215525,-0.052528,0.511738,-1.56102,0.0367495,1.55649,1.31755,2.06858e-05,7.92484e-06,-0.000666362,-0.00133264,0.00133198,-0.000281093,0.000245084,0.182071,-27.4327,-0.76079,26.9788,1.15509,3.07244,0.0843355,2.2975,2.01316,2.16807,-0.993174,1.31215,0.198914,0.229576,0.554229,0.185768,0.180825,0.213291,-0.333375,0.0873801,
0.0215498,-0.052522,0.511737,-1.56103,0.0367555,-0.0143265,0.532153,-9.90323e-05,0.000222842,-3.20323e-05,-0.000191153,5.11299e-05,-0.000701177,1.19362e-06,0,0,0,0,0,0,0,0.0215525,-0.052528,0.511738,-1.56102,0.0367495,1.55649,1.31755,2.06858e-05,7.92484e-06,-0.000666362,-0.00133264,0.00133198,-0.000281093,0.000245084,0.182071,-27.4327,-0.76079,26.9788,1.15509,3.07244,0.0843355,2.43714,1.79951,2.33669,-0.802942,1.31737,0.0610817,0.0933809,0.510575,0.0402816,0.266123,0.183784,-0.307568,0.0873989,
0.0215495,-0.0525213,0.511737,-1.56103,0.0367555,-0.014329,0.532153,-9.25213e-05,0.000173253,-2.0413e-05,-0.000163696,1.12953e-06,-0.000637642,9.28084e-07,0,0,0,0,0,0,0,0.0215588,-0.0525722,0.511745,-1.56116,0.0367289,1.5566,1.31755,0.00262819,-0.0149598,0.00234613,-0.0261429,-0.00333267,0.0197771,-0.00094493,0.182071,-26.7107,-0.76079,24.9118,1.08825,3.07976,0.104477,2.43714,1.79951,2.33669,-0.802942,1.31737,0.0610817,0.0933809,0.510575,0.0402816,0.266123,0.183784,-0.307568,0.0873989,
0.0215491,-0.0525208,0.511737,-1.56103,0.0367553,-0.0143313,0.532153,-8.71408e-05,0.000127668,-1.06954e-05,-0.000139361,-3.41188e-05,-0.000584119,8.46876e-07,0,0,0,0,0,0,0,0.0215588,-0.0525722,0.511745,-1.56116,0.0367289,1.5566,1.31755,0.00262819,-0.0149598,0.00234613,-0.0261429,-0.00333267,0.0197771,-0.00094493,0.182071,-26.7107,-0.76079,24.9118,1.08825,3.07976,0.104477,1.68092,1.34563,2.04438,-0.519473,0.84434,0.0685716,0.0985282,0.286419,0.0434636,0.262123,0.185827,-0.292556,0.0855363,
0.0215488,-0.0525205,0.511737,-1.56103,0.0367551,-0.0143335,0.532153,-8.24239e-05,8.61824e-05,-2.27329e-06,-0.000117391,-5.86767e-05,-0.000539394,8.49821e-07,0,0,0,0,0,0,0,0.0215588,-0.0525722,0.511745,-1.56116,0.0367289,1.5566,1.31755,0.00262819,-0.0149598,0.00234613,-0.0261429,-0.00333267,0.0197771,-0.00094493,0.182071,-26.7107,-0.76079,24.9118,1.08825,3.07976,0.104477,1.42951,1.48892,1.20836,-0.831876,0.974107,0.203742,0.22821,0.505513,0.197233,-0.0422728,0.183037,-0.298527,0.0851509,
0.0220508,-0.0525907,0.512228,-1.56059,0.0243561,-0.0218229,0.532113,0.00695814,-0.00583883,0.0070994,0.00274754,-0.36704,-0.229781,-0.00107109,0,0,0,0,0,0,0,0.0215588,-0.0525722,0.511745,-1.56116,0.0367289,1.5566,1.31755,0.00262819,-0.0149598,0.00234613,-0.0261429,-0.00333267,0.0197771,-0.00094493,0.182071,-26.7107,-0.76079,24.9118,1.08825,3.07976,0.104477,1.42951,1.48892,1.20836,-0.831876,0.974107,0.203742,0.22821,0.505513,0.197233,-0.0422728,0.183037,-0.298527,0.0851509,
0.0221283,-0.0527159,0.512313,-1.56081,0.0248706,-0.0214359,0.532113,0.00754506,-0.00640939,0.0077472,0.00269964,-0.347846,-0.220567,-0.000996184,0,0,0,0,0,0,0,0.0215588,-0.0525722,0.511745,-1.56116,0.0367289,1.5566,1.31755,0.00262819,-0.0149598,0.00234613,-0.0261429,-0.00333267,0.0197771,-0.00094493,0.182071,-26.7107,-0.76079,24.9118,1.08825,3.07976,0.104477,2.13679,2.36826,0.950505,-1.52672,1.59991,0.407238,0.428434,0.904189,0.424085,-0.223066,0.208314,-0.277579,0.0833945,
0.0221538,-0.0527407,0.512339,-1.5608,0.0234607,-0.0223338,0.53211,0.00635809,-0.00620994,0.00655966,0.0020274,-0.352461,-0.224482,-0.000973782,0,0,0,0,0,0,0,0.021534,-0.0526041,0.511723,-1.56156,0.0367218,1.55726,1.31754,0.00154186,0.000312035,0.000706338,0.00249491,-0.00571124,0.000318353,-0.00051602,0.309024,-27.5319,-0.586229,27.2287,0.97839,3.26562,0.0980684,2.13679,2.36826,0.950505,-1.52672,1.59991,0.407238,0.428434,0.904189,0.424085,-0.223066,0.208314,-0.277579,0.0833945,
0.0221748,-0.0527644,0.512361,-1.56079,0.0220368,-0.0232438,0.532106,0.00525423,-0.00592585,0.00545332,0.00144203,-0.355973,-0.227502,-0.000951512,0,0,0,0,0,0,0,0.021534,-0.0526041,0.511723,-1.56156,0.0367218,1.55726,1.31754,0.00154186,0.000312035,0.000706338,0.00249491,-0.00571124,0.000318353,-0.00051602,0.309024,-27.5319,-0.586229,27.2287,0.97839,3.26562,0.0980684,2.55425,2.36261,1.50148,-1.37423,1.66953,0.284553,0.301075,0.831385,0.298341,-0.0131141,0.204129,-0.236449,0.0857191,
0.0221917,-0.0527867,0.512378,-1.56079,0.0206025,-0.024163,0.532102,0.00423461,-0.00558413,0.00443009,0.000929967,-0.358587,-0.229777,-0.000929793,0,0,0,0,0,0,0,0.021534,-0.0526041,0.511723,-1.56156,0.0367218,1.55726,1.31754,0.00154186,0.000312035,0.000706338,0.00249491,-0.00571124,0.000318353,-0.00051602,0.309024,-27.5319,-0.586229,27.2287,0.97839,3.26562,0.0980684,2.8552,2.6482,1.75127,-1.55509,1.77389,0.325557,0.335581,0.837193,0.349932,0.0529026,0.169632,-0.224275,0.0877538,
0.0222049,-0.0528076,0.512392,-1.56079,0.0191607,-0.0250887,0.532098,0.00329765,-0.00520587,0.00348888,0.000480521,-0.360463,-0.231433,-0.000908863,0,0,0,0,0,0,0,0.021534,-0.0526041,0.511723,-1.56156,0.0367218,1.55726,1.31754,0.00154186,0.000312035,0.000706338,0.00249491,-0.00571124,0.000318353,-0.00051602,0.309024,-27.5319,-0.586229,27.2287,0.97839,3.26562,0.0980684,2.8552,2.6482,1.75127,-1.55509,1.77389,0.325557,0.335581,0.837193,0.349932,0.0529026,0.169632,-0.224275,0.0877538,
0.0222147,-0.0528268,0.512403,-1.56079,0.0177137,-0.026019,0.532095,0.00244006,-0.00480737,0.00262672,8.51579e-05,-0.361728,-0.232574,-0.000888838,0,0,0,0,0,0,0,0.021534,-0.0526041,0.511723,-1.56156,0.0367218,1.55726,1.31754,0.00154186,0.000312035,0.000706338,0.00249491,-0.00571124,0.000318353,-0.00051602,0.309024,-27.5319,-0.586229,27.2287,0.97839,3.26562,0.0980684,2.37556,2.70113,1.72314,-1.6832,1.40944,0.479686,0.476688,0.634709,0.522176,0.0549438,0.0951306,-0.255115,0.0883197,
0.0226346,-0.0527673,0.51274,-1.55945,-0.00466819,-0.0563844,0.531625,0.00339845,-0.0106894,0.00248066,0.00127715,-1.133,-1.15399,-0.0108709,0,0,0,0,0,0,0,0.021534,-0.0526041,0.511723,-1.56156,0.0367218,1.55726,1.31754,0.00154186,0.000312035,0.000706338,0.00249491,-0.00571124,0.000318353,-0.00051602,0.309024,-27.5319,-0.586229,27.2287,0.97839,3.26562,0.0980684,2.37556,2.70113,1.72314,-1.6832,1.40944,0.479686,0.476688,0.634709,0.522176,0.0549438,0.0951306,-0.255115,0.0883197,
0.0225922,-0.0527368,0.512703,-1.55992,-0.00477454,-0.0517037,0.531679,0.00447127,-0.0100759,0.0036978,0.00123444,-1.13652,-1.04614,-0.00966961,0,0,0,0,0,0,0,0.0216977,-0.0526021,0.511873,-1.56152,0.0319376,1.55705,1.31755,0.00252316,8.80154e-05,0.00263729,-0.0027611,-0.179834,-0.0146328,2.98787e-05,-0.424923,-27.5597,-1.38762,27.0026,0.318295,2.87377,0.0779268,2.20721,2.12811,2.0828,-1.31836,1.12771,0.259926,0.249256,0.405011,0.301141,0.169001,-0.0476878,-0.317465,0.0882532,
0.0225974,-0.0527698,0.512706,-1.55992,-0.00938949,-0.0559334,0.531641,0.00129429,-0.00824168,0.000552713,-0.00208279,-1.15374,-1.05743,-0.0095333,0,0,0,0,0,0,0,0.0216977,-0.0526021,0.511873,-1.56152,0.0319376,1.55705,1.31755,0.00252316,8.80154e-05,0.00263729,-0.0027611,-0.179834,-0.0146328,2.98787e-05,-0.424923,-27.5597,-1.38762,27.0026,0.318295,2.87377,0.0779268,2.24342,2.1304,2.26668,-1.35075,1.07802,0.248214,0.237775,0.344137,0.29104,0.203541,-0.115405,-0.348952,0.0870197,
0.0225907,-0.0527949,0.512696,-1.55994,-0.0140619,-0.0601935,0.531603,-0.00166073,-0.00626575,-0.00237828,-0.0049756,-1.1681,-1.06503,-0.0093976,0,0,0,0,0,0,0,0.0216977,-0.0526021,0.511873,-1.56152,0.0319376,1.55705,1.31755,0.00252316,8.80154e-05,0.00263729,-0.0027611,-0.179834,-0.0146328,2.98787e-05,-0.424923,-27.5597,-1.38762,27.0026,0.318295,2.87377,0.0779268,2.24342,2.1304,2.26668,-1.35075,1.07802,0.248214,0.237775,0.344137,0.29104,0.203541,-0.115405,-0.348952,0.0870197,
0.0225731,-0.0528118,0.512676,-1.55997,-0.0187824,-0.0644718,0.531566,-0.00439624,-0.00422747,-0.00509616,-0.00749643,-1.18012,-1.06957,-0.00926319,0,0,0,0,0,0,0,0.0216977,-0.0526021,0.511873,-1.56152,0.0319376,1.55705,1.31755,0.00252316,8.80154e-05,0.00263729,-0.0027611,-0.179834,-0.0146328,2.98787e-05,-0.424923,-27.5597,-1.38762,27.0026,0.318295,2.87377,0.0779268,3.41371,2.96362,2.45458,-1.9173,1.83081,0.290241,0.284256,0.714277,0.343937,0.188912,-0.130281,-0.286923,0.0916523,
0.0225454,-0.0528205,0.512645,-1.56001,-0.0235432,-0.0687581,0.53153,-0.00691902,-0.00218608,-0.00760669,-0.00968985,-1.1902,-1.07158,-0.00913045,0,0,0,0,0,0,0,0.0216977,-0.0526021,0.511873,-1.56152,0.0319376,1.55705,1.31755,0.00252316,8.80154e-05,0.00263729,-0.0027611,-0.179834,-0.0146328,2.98787e-05,-0.424923,-27.5597,-1.38762,27.0026,0.318295,2.87377,0.0779268,3.41371,2.96362,2.45458,-1.9173,1.83081,0.290241,0.284256,0.714277,0.343937,0.188912,-0.130281,-0.286923,0.0916523,
0.0225085,-0.0528213,0.512606,-1.56006,-0.0283378,-0.073044,0.531494,-0.00923854,-0.000184965,-0.00991853,-0.011594,-1.19866,-1.07148,-0.00899955,0,0,0,0,0,0,0,0.0222018,-0.0526148,0.512356,-1.56092,0.0184459,1.55166,1.31754,0.0313462,0.00357912,0.0264186,0.0333246,-0.645705,-0.29226,0.001185,-1.53973,-27.6073,-2.26042,25.5069,-1.77643,0.918204,0.0577852,3.96106,2.82548,3.07161,-1.92696,2.02974,0.0542286,0.0405157,0.732232,0.118778,0.226779,-0.346951,-0.435808,0.096536,
0.0168317,-0.0515034,0.506569,-1.56347,0.00232847,-0.0560598,0.527519,-0.161462,0.0537107,-0.170961,-0.0842592,-1.03112,-1.22342,-0.0911383,0,0,0,0,0,0,0,0.0222018,-0.0526148,0.512356,-1.56092,0.0184459,1.55166,1.31754,0.0313462,0.00357912,0.0264186,0.0333246,-0.645705,-0.29226,0.001185,-1.53973,-27.6073,-2.26042,25.5069,-1.77643,0.918204,0.0577852,3.96106,2.82548,3.07161,-1.92696,2.02974,0.0542286,0.0405157,0.732232,0.118778,0.226779,-0.346951,-0.435808,0.096536,
0.0172957,-0.0518658,0.507057,-1.563,-0.024687,-0.065888,0.527997,-0.163675,0.0521412,-0.172517,-0.0800839,-1.07904,-1.2473,-0.0804938,0,0,0,0,0,0,0,0.0222018,-0.0526148,0.512356,-1.56092,0.0184459,1.55166,1.31754,0.0313462,0.00357912,0.0264186,0.0333246,-0.645705,-0.29226,0.001185,-1.53973,-27.6073,-2.26042,25.5069,-1.77643,0.918204,0.0577852,3.49865,2.43458,3.02721,-2.17935,1.85586,-0.0157223,-0.0383946,0.720834,0.0768153,-0.14033,-0.728964,-0.846816,0.0942152,
0.0166164,-0.0516323,0.506342,-1.56334,-0.0290867,-0.0709538,0.527679,-0.169823,0.0583621,-0.178666,-0.0840678,-1.09992,-1.26645,-0.0794479,0,0,0,0,0,0,0,0.0222018,-0.0526148,0.512356,-1.56092,0.0184459,1.55166,1.31754,0.0313462,0.00357912,0.0264186,0.0333246,-0.645705,-0.29226,0.001185,-1.53973,-27.6073,-2.26042,25.5069,-1.77643,0.918204,0.0577852,2.97728,3.0021,3.23044,-2.70214,1.42691,0.381483,0.354906,0.473769,0.495258,-0.147086,-0.825654,-0.954173,0.0892834,
0.0159152,-0.0513757,0.505606,-1.56369,-0.0335609,-0.076083,0.527366,-0.175305,0.0641688,-0.184147,-0.0875592,-1.11856,-1.28231,-0.0784123,0,0,0,0,0,0,0,0.0222018,-0.0526148,0.512356,-1.56092,0.0184459,1.55166,1.31754,0.0313462,0.00357912,0.0264186,0.0333246,-0.645705,-0.29226,0.001185,-1.53973,-27.6073,-2.26042,25.5069,-1.77643,0.918204,0.0577852,2.97728,3.0021,3.23044,-2.70214,1.42691,0.381483,0.354906,0.473769,0.495258,-0.147086,-0.825654,-0.954173,0.0892834,
0.0151944,-0.0510975,0.50485,-1.56405,-0.0381017,-0.0812648,0.527056,-0.180191,0.069552,-0.189033,-0.0905975,-1.13518,-1.29543,-0.0773846,0,0,0,0,0,0,0,0.0222018,-0.0526148,0.512356,-1.56092,0.0184459,1.55166,1.31754,0.0313462,0.00357912,0.0264186,0.0333246,-0.645705,-0.29226,0.001185,-1.53973,-27.6073,-2.26042,25.5069,-1.77643,0.918204,0.0577852,1.44825,3.40977,4.23714,-2.67547,-0.023321,1.01355,0.996278,-0.470088,1.11099,0.337049,-0.692394,-0.976306,0.0672226,
0.0144562,-0.0507994,0.504076,-1.56442,-0.0427016,-0.0864897,0.526751,-0.184542,0.0745122,-0.193387,-0.093221,-1.14997,-1.30624,-0.0763633,0,0,0,0,0,0,0,0.0226793,-0.0527774,0.512903,-1.56026,-0.00513307,1.53902,1.31728,0.000819371,-0.00985067,-0.0029214,-0.00209217,-0.780158,-0.466251,-0.0236914,-4.05102,-25.4372,-5.21208,25.011,-0.805057,0.977713,0.00376909,1.44825,3.40977,4.23714,-2.67547,-0.023321,1.01355,0.996278,-0.470088,1.11099,0.337049,-0.692394,-0.976306,0.0672226,
0.0137026,-0.0504832,0.503287,-1.5648,-0.047354,-0.0917501,0.526449,-0.188411,0.0790578,-0.197261,-0.0954661,-1.16312,-1.3151,-0.075347,0,0,0,0,0,0,0,0.0226793,-0.0527774,0.512903,-1.56026,-0.00513307,1.53902,1.31728,0.000819371,-0.00985067,-0.0029214,-0.00209217,-0.780158,-0.466251,-0.0236914,-4.05102,-25.4372,-5.21208,25.011,-0.805057,0.977713,0.00376909,2.05741,1.91711,4.08336,-1.81746,0.663559,0.167663,0.172914,0.00589629,0.225172,0.0209479,-0.817181,-1.24401,0.0445113,
0.011883,-0.0508229,0.501477,-1.56631,-0.0182272,-0.0639415,0.524095,-0.31859,0.108612,-0.331842,-0.156118,-0.98508,-1.21178,-0.156623,0,0,0,0,0,0,0,0.0226793,-0.0527774,0.512903,-1.56026,-0.00513307,1.53902,1.31728,0.000819371,-0.00985067,-0.0029214,-0.00209217,-0.780158,-0.466251,-0.0236914,-4.05102,-25.4372,-5.21208,25.011,-0.805057,0.977713,0.00376909,2.05741,1.91711,4.08336,-1.81746,0.663559,0.167663,0.172914,0.00589629,0.225172,0.0209479,-0.817181,-1.24401,0.0445113,
0.0121255,-0.0508973,0.501834,-1.56549,-0.0452877,-0.0798143,0.524786,-0.312615,0.105919,-0.324874,-0.144344,-1.01553,-1.22985,-0.136547,0,0,0,0,0,0,0,0.0226793,-0.0527774,0.512903,-1.56026,-0.00513307,1.53902,1.31728,0.000819371,-0.00985067,-0.0029214,-0.00209217,-0.780158,-0.466251,-0.0236914,-4.05102,-25.4372,-5.21208,25.011,-0.805057,0.977713,0.00376909,4.13404,0.20003,3.58302,-0.963101,2.47225,-1.19692,-1.18555,1.11619,-1.1597,-0.501102,-1.08534,-1.46104,0.0245338,
0.0108405,-0.0504371,0.5005,-1.56608,-0.0494586,-0.0847982,0.524248,-0.321241,0.115047,-0.333545,-0.14826,-1.04274,-1.24599,-0.134604,0,0,0,0,0,0,0,0.0226793,-0.0527774,0.512903,-1.56026,-0.00513307,1.53902,1.31728,0.000819371,-0.00985067,-0.0029214,-0.00209217,-0.780158,-0.466251,-0.0236914,-4.05102,-25.4372,-5.21208,25.011,-0.805057,0.977713,0.00376909,3.19919,-0.491907,3.78208,-0.377483,1.77413,-1.23867,-1.23335,0.721042,-1.21374,-0.371123,-1.02922,-1.52716,0.00293527,
0.00952513,-0.0499436,0.499135,-1.56669,-0.0537289,-0.0898357,0.523717,-0.328844,0.123388,-0.341187,-0.151654,-1.06757,-1.25938,-0.132677,0,0,0,0,0,0,0,0.022653,-0.053146,0.512863,-1.56032,-0.0293175,1.52237,1.31628,-0.0122832,-0.00878154,-0.0161808,-0.0118024,-0.770911,-0.557931,-0.0299423,-4.99127,-25.2348,-6.06108,24.3127,-0.297855,1.30273,-0.130813,3.19919,-0.491907,3.78208,-0.377483,1.77413,-1.23867,-1.23335,0.721042,-1.21374,-0.371123,-1.02922,-1.52716,0.00293527,
0.00818297,-0.0494197,0.497744,-1.5673,-0.0580894,-0.0949176,0.523194,-0.33554,0.130978,-0.347919,-0.15456,-1.09013,-1.27046,-0.130764,0,0,0,0,0,0,0,0.022653,-0.053146,0.512863,-1.56032,-0.0293175,1.52237,1.31628,-0.0122832,-0.00878154,-0.0161808,-0.0118024,-0.770911,-0.557931,-0.0299423,-4.99127,-25.2348,-6.06108,24.3127,-0.297855,1.30273,-0.130813,1.54407,0.0959131,3.47087,-0.738147,0.794745,-0.489733,-0.482475,0.296685,-0.458612,-0.407313,-0.807272,-1.57247,-0.0203741,
0.00681725,-0.0488682,0.496328,-1.56793,-0.0625316,-0.100036,0.522678,-0.34143,0.137857,-0.353845,-0.157012,-1.11054,-1.27959,-0.12886,0,0,0,0,0,0,0,0.022653,-0.053146,0.512863,-1.56032,-0.0293175,1.52237,1.31628,-0.0122832,-0.00878154,-0.0161808,-0.0118024,-0.770911,-0.557931,-0.0299423,-4.99127,-25.2348,-6.06108,24.3127,-0.297855,1.30273,-0.130813,1.54407,0.0959131,3.47087,-0.738147,0.794745,-0.489733,-0.482475,0.296685,-0.458612,-0.407313,-0.807272,-1.57247,-0.0203741,
0.00543087,-0.048292,0.494892,-1.56857,-0.0670474,-0.105184,0.52217,-0.346597,0.144067,-0.359049,-0.159046,-1.12896,-1.28708,-0.126964,0,0,0,0,0,0,0,0.022653,-0.053146,0.512863,-1.56032,-0.0293175,1.52237,1.31628,-0.0122832,-0.00878154,-0.0161808,-0.0118024,-0.770911,-0.557931,-0.0299423,-4.99127,-25.2348,-6.06108,24.3127,-0.297855,1.30273,-0.130813,0.507482,-0.110569,3.06649,-0.599728,0.261798,-0.275228,-0.272135,0.106862,-0.244119,-0.495662,-0.687708,-1.61335,-0.0474118,
0.00714079,-0.0500055,0.496769,-1.56851,-0.0394645,-0.0779114,0.521058,-0.454454,0.156257,-0.469191,-0.21299,-0.932015,-1.19509,-0.209099,0,0,0,0,0,0,0,0.022653,-0.053146,0.512863,-1.56032,-0.0293175,1.52237,1.31628,-0.0122832,-0.00878154,-0.0161808,-0.0118024,-0.770911,-0.557931,-0.0299423,-4.99127,-25.2348,-6.06108,24.3127,-0.297855,1.30273,-0.130813,0.507482,-0.110569,3.06649,-0.599728,0.261798,-0.275228,-0.272135,0.106862,-0.244119,-0.495662,-0.687708,-1.61335,-0.0474118,
0.00757543,-0.05047,0.497256,-1.56778,-0.0646618,-0.0962188,0.521473,-0.436234,0.144996,-0.449525,-0.190345,-0.944358,-1.20396,-0.179646,0,0,0,0,0,0,0,0.0211953,-0.0535749,0.510849,-1.56149,-0.0524871,1.50379,1.31484,-0.0613046,-0.0126314,-0.0808827,-0.0500817,-0.727687,-0.635573,-0.0392687,-5.82837,-23.513,-6.8109,24.5349,-0.823368,1.72021,-0.163772,1.32724,0.206376,3.37598,-0.643402,0.697834,-0.337374,-0.331237,0.268328,-0.312143,-0.349025,-0.615572,-1.49201,-0.0739499,
0.00578636,-0.049844,0.495413,-1.56856,-0.0685787,-0.101094,0.520766,-0.447267,0.156503,-0.460638,-0.194195,-0.979218,-1.2187,-0.176814,0,0,0,0,0,0,0,0.0211953,-0.0535749,0.510849,-1.56149,-0.0524871,1.50379,1.31484,-0.0613046,-0.0126314,-0.0808827,-0.0500817,-0.727687,-0.635573,-0.0392687,-5.82837,-23.513,-6.8109,24.5349,-0.823368,1.72021,-0.163772,2.78366,0.833542,2.65672,-1.13316,2.0123,-0.424355,-0.416985,1.10339,-0.385972,-0.655966,-0.5128,-1.36068,-0.1017,
0.00395861,-0.0491763,0.493532,-1.56935,-0.0726237,-0.106017,0.52007,-0.456936,0.166937,-0.470375,-0.1975,-1.01125,-1.23091,-0.174005,0,0,0,0,0,0,0,0.0211953,-0.0535749,0.510849,-1.56149,-0.0524871,1.50379,1.31484,-0.0613046,-0.0126314,-0.0808827,-0.0500817,-0.727687,-0.635573,-0.0392687,-5.82837,-23.513,-6.8109,24.5349,-0.823368,1.72021,-0.163772,2.78366,0.833542,2.65672,-1.13316,2.0123,-0.424355,-0.416985,1.10339,-0.385972,-0.655966,-0.5128,-1.36068,-0.1017,
0.00209701,-0.0484708,0.491616,-1.57015,-0.0767857,-0.110981,0.519385,-0.4654,0.176361,-0.478901,-0.200288,-1.04052,-1.24099,-0.171214,0,0,0,0,0,0,0,0.0211953,-0.0535749,0.510849,-1.56149,-0.0524871,1.50379,1.31484,-0.0613046,-0.0126314,-0.0808827,-0.0500817,-0.727687,-0.635573,-0.0392687,-5.82837,-23.513,-6.8109,24.5349,-0.823368,1.72021,-0.163772,2.4869,0.523164,1.82227,-0.924381,2.08984,-0.444262,-0.444146,1.27638,-0.404818,-0.829828,-0.372882,-1.25944,-0.132838,
0.000205841,-0.0477314,0.489671,-1.57096,-0.0810543,-0.115978,0.518711,-0.472794,0.184844,-0.486353,-0.202594,-1.06715,-1.24928,-0.168439,0,0,0,0,0,0,0,0.0211953,-0.0535749,0.510849,-1.56149,-0.0524871,1.50379,1.31484,-0.0613046,-0.0126314,-0.0808827,-0.0500817,-0.727687,-0.635573,-0.0392687,-5.82837,-23.513,-6.8109,24.5349,-0.823368,1.72021,-0.163772,2.4869,0.523164,1.82227,-0.924381,2.08984,-0.444262,-0.444146,1.27638,-0.404818,-0.829828,-0.372882,-1.25944,-0.132838,
0.00291595,-0.0496674,0.49257,-1.57058,-0.0593228,-0.0943602,0.517875,-0.568189,0.191348,-0.582784,-0.253311,-0.868561,-1.1701,-0.249518,0,0,0,0,0,0,0,0.0211953,-0.0535749,0.510849,-1.56149,-0.0524871,1.50379,1.31484,-0.0613046,-0.0126314,-0.0808827,-0.0500817,-0.727687,-0.635573,-0.0392687,-5.82837,-23.513,-6.8109,24.5349,-0.823368,1.72021,-0.163772,0.381686,-0.00780349,2.26168,-0.122917,0.269145,-0.0754622,-0.0841825,0.143962,-0.0603951,-0.235684,-0.143158,-1.04954,-0.157076,
0.00137468,-0.0498498,0.49053,-1.57076,-0.0848117,-0.114923,0.518318,-0.551003,0.181748,-0.564002,-0.225818,-0.904984,-1.18136,-0.210705,0,0,0,0,0,0,0,0.0177758,-0.0540298,0.506877,-1.56362,-0.0763958,1.48108,1.31251,-0.138111,0.0023213,-0.145993,-0.0780821,-0.706702,-0.722949,-0.0783277,-5.90374,-24.2391,-7.08464,24.9832,-0.676884,2.08459,-0.26448,0.381686,-0.00780349,2.26168,-0.122917,0.269145,-0.0754622,-0.0841825,0.143962,-0.0603951,-0.235684,-0.143158,-1.04954,-0.157076,
-0.000878268,-0.0490715,0.488225,-1.57168,-0.0885904,-0.119701,0.51749,-0.563236,0.194573,-0.576338,-0.229412,-0.944675,-1.1943,-0.207029,0,0,0,0,0,0,0,0.0177758,-0.0540298,0.506877,-1.56362,-0.0763958,1.48108,1.31251,-0.138111,0.0023213,-0.145993,-0.0780821,-0.706702,-0.722949,-0.0783277,-5.90374,-24.2391,-7.08464,24.9832,-0.676884,2.08459,-0.26448,0.505373,0.942122,2.32709,-0.587269,0.271099,0.355393,0.349985,0.107451,0.374869,-0.0843485,0.0346781,-0.863451,-0.18316,
-0.00317384,-0.0482471,0.485876,-1.57261,-0.0925152,-0.12452,0.516676,-0.573894,0.206116,-0.587085,-0.232455,-0.981213,-1.20498,-0.203384,0,0,0,0,0,0,0,0.0177758,-0.0540298,0.506877,-1.56362,-0.0763958,1.48108,1.31251,-0.138111,0.0023213,-0.145993,-0.0780821,-0.706702,-0.722949,-0.0783277,-5.90374,-24.2391,-7.08464,24.9832,-0.676884,2.08459,-0.26448,0.505373,0.942122,2.32709,-0.587269,0.271099,0.355393,0.349985,0.107451,0.374869,-0.0843485,0.0346781,-0.863451,-0.18316,
-0.00550649,-0.0473812,0.483491,-1.57355,-0.0965738,-0.129375,0.515877,-0.583162,0.216465,-0.596432,-0.234974,-1.01466,-1.21376,-0.199765,0,0,0,0,0,0,0,0.0177758,-0.0540298,0.506877,-1.56362,-0.0763958,1.48108,1.31251,-0.138111,0.0023213,-0.145993,-0.0780821,-0.706702,-0.722949,-0.0783277,-5.90374,-24.2391,-7.08464,24.9832,-0.676884,2.08459,-0.26448,0.0530288,1.10849,1.52909,-0.867559,0.239167,0.584927,0.574232,0.228849,0.620883,-0.338741,0.065594,-0.844987,-0.210402,
-0.00787128,-0.0464784,0.481073,-1.5745,-0.100754,-0.134259,0.515093,-0.591196,0.225703,-0.604539,-0.236999,-1.04513,-1.22093,-0.19617,0,0,0,0,0,0,0,0.0177758,-0.0540298,0.506877,-1.56362,-0.0763958,1.48108,1.31251,-0.138111,0.0023213,-0.145993,-0.0780821,-0.706702,-0.722949,-0.0783277,-5.90374,-24.2391,-7.08464,24.9832,-0.676884,2.08459,-0.26448,-0.114385,0.902706,0.847462,-0.78958,0.339886,0.561449,0.541776,0.383916,0.605165,-0.503732,0.116832,-0.774029,-0.228812,
-0.0102638,-0.0455427,0.478626,-1.57545,-0.105046,-0.139166,0.514322,-0.598128,0.233912,-0.61154,-0.238564,-1.07279,-1.22675,-0.192595,0,0,0,0,0,0,0,0.0124378,-0.0541834,0.500273,-1.56687,-0.0982958,1.45702,1.30969,-0.20173,0.00030026,-0.242681,-0.107729,-0.631447,-0.7599,-0.0963654,-6.10608,-23.4377,-7.2354,25.0348,-0.621952,1.99853,-0.278213,-0.114385,0.902706,0.847462,-0.78958,0.339886,0.561449,0.541776,0.383916,0.605165,-0.503732,0.116832,-0.774029,-0.228812,
-0.00304325,-0.0490546,0.486634,-1.57343,-0.0800446,-0.113077,0.514814,-0.672631,0.225381,-0.686746,-0.285919,-0.831008,-1.14793,-0.278715,0,0,0,0,0,0,0,0.0124378,-0.0541834,0.500273,-1.56687,-0.0982958,1.45702,1.30969,-0.20173,0.00030026,-0.242681,-0.107729,-0.631447,-0.7599,-0.0963654,-6.10608,-23.4377,-7.2354,25.0348,-0.621952,1.99853,-0.278213,0.613379,0.827562,0.663224,-0.687104,0.88533,0.356432,0.338428,0.685235,0.394551,-0.531685,0.153845,-0.668017,-0.246166,
-0.0134766,-0.0483672,0.473858,-1.57787,-0.130457,-0.16238,0.512011,-0.670091,0.228609,-0.682796,-0.258064,-0.915307,-1.15145,-0.230912,0,0,0,0,0,0,0,0.0124378,-0.0541834,0.500273,-1.56687,-0.0982958,1.45702,1.30969,-0.20173,0.00030026,-0.242681,-0.107729,-0.631447,-0.7599,-0.0963654,-6.10608,-23.4377,-7.2354,25.0348,-0.621952,1.99853,-0.278213,0.613379,0.827562,0.663224,-0.687104,0.88533,0.356432,0.338428,0.685235,0.394551,-0.531685,0.153845,-0.668017,-0.246166,
-0.0162019,-0.0474036,0.471081,-1.57891,-0.134277,-0.167027,0.511105,-0.681311,0.240889,-0.694118,-0.26087,-0.95482,-1.16162,-0.226503,0,0,0,0,0,0,0,0.0124378,-0.0541834,0.500273,-1.56687,-0.0982958,1.45702,1.30969,-0.20173,0.00030026,-0.242681,-0.107729,-0.631447,-0.7599,-0.0963654,-6.10608,-23.4377,-7.2354,25.0348,-0.621952,1.99853,-0.278213,0.632594,0.968113,0.736269,-0.7602,0.858205,0.430872,0.417373,0.651043,0.466078,-0.491906,0.159957,-0.6451,-0.262347,
-0.0189657,-0.0463965,0.468266,-1.57996,-0.138241,-0.171707,0.510216,-0.690954,0.251777,-0.703849,-0.263117,-0.991102,-1.17002,-0.222134,0,0,0,0,0,0,0,0.0124378,-0.0541834,0.500273,-1.56687,-0.0982958,1.45702,1.30969,-0.20173,0.00030026,-0.242681,-0.107729,-0.631447,-0.7599,-0.0963654,-6.10608,-23.4377,-7.2354,25.0348,-0.621952,1.99853,-0.278213,0.33534,1.70584,0.423582,-1.45999,0.779693,0.867989,0.85834,0.672679,0.923391,-0.667221,0.106561,-0.688876,-0.278052,
-0.0217625,-0.045351,0.465417,-1.58102,-0.142338,-0.176415,0.509345,-0.699195,0.261378,-0.712169,-0.264831,-1.02425,-1.17693,-0.217804,0,0,0,0,0,0,0,0.0124378,-0.0541834,0.500273,-1.56687,-0.0982958,1.45702,1.30969,-0.20173,0.00030026,-0.242681,-0.107729,-0.631447,-0.7599,-0.0963654,-6.10608,-23.4377,-7.2354,25.0348,-0.621952,1.99853,-0.278213,0.33534,1.70584,0.423582,-1.45999,0.779693,0.867989,0.85834,0.672679,0.923391,-0.667221,0.106561,-0.688876,-0.278052,
-0.0245872,-0.0442719,0.46254,-1.58208,-0.146556,-0.181145,0.508491,-0.706184,0.269792,-0.719231,-0.266042,-1.05441,-1.18256,-0.213508,0,0,0,0,0,0,0,0.00431092,-0.054059,0.491541,-1.57076,-0.119017,1.43256,1.30729,-0.298886,0.00135108,-0.313954,-0.132623,-0.581043,-0.729414,-0.0863723,-7.1455,-23.2393,-8.15978,23.6383,-0.976261,1.5078,-0.338638,-0.57909,1.69304,-0.507823,-1.6715,0.553178,1.10584,1.09281,0.748193,1.17519,-1.02914,0.135427,-0.776194,-0.289119,
-0.0274354,-0.0431634,0.459639,-1.58315,-0.150883,-0.185893,0.507654,-0.712047,0.27711,-0.725163,-0.26678,-1.08176,-1.18713,-0.209248,0,0,0,0,0,0,0,0.00431092,-0.054059,0.491541,-1.57076,-0.119017,1.43256,1.30729,-0.298886,0.00135108,-0.313954,-0.132623,-0.581043,-0.729414,-0.0863723,-7.1455,-23.2393,-8.15978,23.6383,-0.976261,1.5078,-0.338638,-0.57909,1.69304,-0.507823,-1.6715,0.553178,1.10584,1.09281,0.748193,1.17519,-1.02914,0.135427,-0.776194,-0.289119,
-0.0150788,-0.0471155,0.473308,-1.58038,-0.129046,-0.160874,0.508687,-0.723739,0.273429,-0.715063,-0.319509,-0.874431,-1.12612,-0.296059,0,0,0,0,0,0,0,0.00431092,-0.054059,0.491541,-1.57076,-0.119017,1.43256,1.30729,-0.298886,0.00135108,-0.313954,-0.132623,-0.581043,-0.729414,-0.0863723,-7.1455,-23.2393,-8.15978,23.6383,-0.976261,1.5078,-0.338638,-1.00043,-0.226546,-0.0999958,-0.27603,0.0139945,0.320221,0.300915,0.346046,0.356099,-0.772905,-0.0290755,-0.800454,-0.291635,
-0.0249058,-0.0472077,0.462856,-1.58274,-0.15161,-0.184811,0.508979,-0.744103,0.244014,-0.735696,-0.294278,-0.903685,-1.00642,-0.241032,0,0,0,0,0,0,0,0.00431092,-0.054059,0.491541,-1.57076,-0.119017,1.43256,1.30729,-0.298886,0.00135108,-0.313954,-0.132623,-0.581043,-0.729414,-0.0863723,-7.1455,-23.2393,-8.15978,23.6383,-0.976261,1.5078,-0.338638,-1.00043,-0.226546,-0.0999958,-0.27603,0.0139945,0.320221,0.300915,0.346046,0.356099,-0.772905,-0.0290755,-0.800454,-0.291635,
-0.02794,-0.0461906,0.459854,-1.58395,-0.155359,-0.188589,0.508035,-0.75855,0.254279,-0.750413,-0.302404,-0.937291,-0.944627,-0.235892,0,0,0,0,0,0,0,0.00431092,-0.054059,0.491541,-1.57076,-0.119017,1.43256,1.30729,-0.298886,0.00135108,-0.313954,-0.132623,-0.581043,-0.729414,-0.0863723,-7.1455,-23.2393,-8.15978,23.6383,-0.976261,1.5078,-0.338638,0.284908,-2.32975,0.18539,1.03016,0.801365,-0.983241,-0.996521,0.706874,-0.9831,-0.803812,-0.372258,-0.920828,-0.294511,
-0.0310123,-0.0451337,0.456791,-1.58518,-0.159236,-0.192093,0.507112,-0.768077,0.264226,-0.765734,-0.307932,-0.969342,-0.875974,-0.230916,0,0,0,0,0,0,0,-0.0055171,-0.053303,0.4808,-1.5752,-0.137871,1.41033,1.30404,-0.333929,0.0323536,-0.358254,-0.157303,-0.614689,-0.683356,-0.108394,-7.55017,-23.0409,-8.43749,23.8882,-1.45874,1.32928,-0.291031,0.810496,-2.25414,-0.0860566,0.785691,1.32624,-1.07514,-1.08654,1.05593,-1.06468,-1.03605,-0.483982,-0.995167,-0.298353,
-0.0341148,-0.0440408,0.453673,-1.58643,-0.163232,-0.195297,0.506207,-0.775643,0.273229,-0.779577,-0.311934,-0.99903,-0.800881,-0.22606,0,0,0,0,0,0,0,-0.0055171,-0.053303,0.4808,-1.5752,-0.137871,1.41033,1.30404,-0.333929,0.0323536,-0.358254,-0.157303,-0.614689,-0.683356,-0.108394,-7.55017,-23.0409,-8.43749,23.8882,-1.45874,1.32928,-0.291031,0.810496,-2.25414,-0.0860566,0.785691,1.32624,-1.07514,-1.08654,1.05593,-1.06468,-1.03605,-0.483982,-0.995167,-0.298353,
-0.0372413,-0.0429164,0.450505,-1.58769,-0.167336,-0.198176,0.505322,-0.781617,0.281091,-0.79208,-0.314889,-1.02608,-0.719865,-0.221302,0,0,0,0,0,0,0,-0.0055171,-0.053303,0.4808,-1.5752,-0.137871,1.41033,1.30404,-0.333929,0.0323536,-0.358254,-0.157303,-0.614689,-0.683356,-0.108394,-7.55017,-23.0409,-8.43749,23.8882,-1.45874,1.32928,-0.291031,1.34227,-0.527841,-0.927851,-0.608078,2.10973,-0.378394,-0.383499,1.65211,-0.331724,-1.47185,-0.397927,-0.980891,-0.303709,
-0.0403943,-0.0417645,0.447303,-1.58896,-0.171542,-0.20071,0.504456,-0.788259,0.287985,-0.800407,-0.316846,-1.05144,-0.633486,-0.216593,0,0,0,0,0,0,0,-0.0055171,-0.053303,0.4808,-1.5752,-0.137871,1.41033,1.30404,-0.333929,0.0323536,-0.358254,-0.157303,-0.614689,-0.683356,-0.108394,-7.55017,-23.0409,-8.43749,23.8882,-1.45874,1.32928,-0.291031,1.34227,-0.527841,-0.927851,-0.608078,2.10973,-0.378394,-0.383499,1.65211,-0.331724,-1.47185,-0.397927,-0.980891,-0.303709,
-0.024679,-0.045452,0.463043,-1.58496,-0.151759,-0.184373,0.505731,-0.737746,0.305248,-0.729624,-0.337181,-0.907629,-1.10675,-0.304753,0,0,0,0,0,0,0,-0.0055171,-0.053303,0.4808,-1.5752,-0.137871,1.41033,1.30404,-0.333929,0.0323536,-0.358254,-0.157303,-0.614689,-0.683356,-0.108394,-7.55017,-23.0409,-8.43749,23.8882,-1.45874,1.32928,-0.291031,-0.653872,-0.258114,-0.937446,-0.82196,0.738058,0.215024,0.198743,0.939463,0.277179,-1.41048,-0.363613,-1.07303,-0.30672,
-0.0357645,-0.0452528,0.45105,-1.58895,-0.171827,-0.191374,0.505433,-0.758934,0.263007,-0.75086,-0.335788,-0.907126,-0.242137,-0.244932,0,0,0,0,0,0,0,-0.0055171,-0.053303,0.4808,-1.5752,-0.137871,1.41033,1.30404,-0.333929,0.0323536,-0.358254,-0.157303,-0.614689,-0.683356,-0.108394,-7.55017,-23.0409,-8.43749,23.8882,-1.45874,1.32928,-0.291031,-0.653872,-0.258114,-0.937446,-0.82196,0.738058,0.215024,0.198743,0.939463,0.277179,-1.41048,-0.363613,-1.07303,-0.30672,
-0.0388499,-0.0441546,0.447996,-1.59028,-0.175577,-0.19201,0.504474,-0.771354,0.27455,-0.763512,-0.332918,-0.937483,-0.159016,-0.239776,0,0,0,0,0,0,0,-0.0231551,-0.0516993,0.462586,-1.58317,-0.162188,1.3859,1.29895,-0.458731,0.0556015,-0.471117,-0.201818,-0.586123,-0.456303,-0.120927,-6.08227,-24.1875,-7.00926,24.3881,-2.11792,1.95916,-0.230606,-3.09051,1.22055,-0.380194,-1.70841,-1.23689,1.46841,1.44645,-0.23709,1.55284,-1.03788,-0.245707,-1.05229,-0.305171,
-0.0419794,-0.0430188,0.444897,-1.5916,-0.179436,-0.192363,0.503535,-0.78237,0.28395,-0.774779,-0.329023,-0.96474,-0.0883681,-0.234831,0,0,0,0,0,0,0,-0.0231551,-0.0516993,0.462586,-1.58317,-0.162188,1.3859,1.29895,-0.458731,0.0556015,-0.471117,-0.201818,-0.586123,-0.456303,-0.120927,-6.08227,-24.1875,-7.00926,24.3881,-2.11792,1.95916,-0.230606,0.316906,-0.379267,0.136227,-0.61297,0.82744,-0.0462639,-0.0685006,0.700699,0.0131238,-0.931635,-0.56333,-0.91817,-0.299111,
-0.0451482,-0.0418541,0.441757,-1.5929,-0.183392,-0.192474,0.502615,-0.792203,0.291179,-0.784873,-0.32479,-0.989023,-0.0278327,-0.229977,0,0,0,0,0,0,0,-0.0231551,-0.0516993,0.462586,-1.58317,-0.162188,1.3859,1.29895,-0.458731,0.0556015,-0.471117,-0.201818,-0.586123,-0.456303,-0.120927,-6.08227,-24.1875,-7.00926,24.3881,-2.11792,1.95916,-0.230606,0.316906,-0.379267,0.136227,-0.61297,0.82744,-0.0462639,-0.0685006,0.700699,0.0131238,-0.931635,-0.56333,-0.91817,-0.299111,
-0.0483522,-0.0406685,0.438581,-1.59418,-0.187434,-0.192377,0.501714,-0.801001,0.296379,-0.793936,-0.320501,-1.01057,0.0242872,-0.225198,0,0,0,0,0,0,0,-0.0231551,-0.0516993,0.462586,-1.58317,-0.162188,1.3859,1.29895,-0.458731,0.0556015,-0.471117,-0.201818,-0.586123,-0.456303,-0.120927,-6.08227,-24.1875,-7.00926,24.3881,-2.11792,1.95916,-0.230606,2.88876,-2.14592,0.840282,0.72762,2.30504,-1.46,-1.47578,1.34182,-1.44189,-0.74127,-0.742563,-0.856738,-0.29618,
-0.0515877,-0.0394697,0.435373,-1.59545,-0.191553,-0.1921,0.500832,-0.808886,0.299705,-0.802088,-0.316334,-1.02964,0.0693737,-0.220491,0,0,0,0,0,0,0,-0.0231551,-0.0516993,0.462586,-1.58317,-0.162188,1.3859,1.29895,-0.458731,0.0556015,-0.471117,-0.201818,-0.586123,-0.456303,-0.120927,-6.08227,-24.1875,-7.00926,24.3881,-2.11792,1.95916,-0.230606,2.88876,-2.14592,0.840282,0.72762,2.30504,-1.46,-1.47578,1.34182,-1.44189,-0.74127,-0.742563,-0.856738,-0.29618,
-0.035483,-0.0435978,0.451294,-1.59059,-0.172215,-0.201188,0.502268,-0.754011,0.311465,-0.746367,-0.385662,-0.916674,-0.665751,-0.306773,0,0,0,0,0,0,0,-0.0386436,-0.0498177,0.446761,-1.59122,-0.181225,1.37553,1.29464,-0.494955,0.0822195,-0.501777,-0.259638,-0.611052,-0.16548,-0.13338,-4.9635,-25.9847,-5.73577,25.2847,-1.97785,2.7813,-0.304764,0.129168,0.0249659,1.47897,-0.436148,-0.0207181,0.191921,0.178855,-0.0805171,0.225098,-0.166834,-0.436695,-0.665554,-0.295421,
-0.0718804,-0.0393748,0.413918,-1.60587,-0.219095,-0.199098,0.495981,-0.783895,0.283681,-0.777377,-0.30976,-0.960119,0.0106304,-0.244214,0,0,0,0,0,0,0,-0.0386436,-0.0498177,0.446761,-1.59122,-0.181225,1.37553,1.29464,-0.494955,0.0822195,-0.501777,-0.259638,-0.611052,-0.16548,-0.13338,-4.9635,-25.9847,-5.73577,25.2847,-1.97785,2.7813,-0.304764,0.129168,0.0249659,1.47897,-0.436148,-0.0207181,0.191921,0.178855,-0.0805171,0.225098,-0.166834,-0.436695,-0.665554,-0.295421,
-0.075054,-0.0382225,0.410769,-1.6071,-0.223024,-0.198982,0.495025,-0.793401,0.288093,-0.787201,-0.307498,-0.982205,0.0288926,-0.238921,0,0,0,0,0,0,0,-0.0386436,-0.0498177,0.446761,-1.59122,-0.181225,1.37553,1.29464,-0.494955,0.0822195,-0.501777,-0.259638,-0.611052,-0.16548,-0.13338,-4.9635,-25.9847,-5.73577,25.2847,-1.97785,2.7813,-0.304764,-1.27354,-0.172996,1.3496,-0.274142,-1.13613,0.425229,0.408485,-0.726206,0.455045,0.0474966,-0.449749,-0.519397,-0.291453,
-0.0782633,-0.0370617,0.407584,-1.60833,-0.22703,-0.198741,0.494089,-0.802317,0.290187,-0.796406,-0.308026,-1.00148,0.0601676,-0.234103,0,0,0,0,0,0,0,-0.0386436,-0.0498177,0.446761,-1.59122,-0.181225,1.37553,1.29464,-0.494955,0.0822195,-0.501777,-0.259638,-0.611052,-0.16548,-0.13338,-4.9635,-25.9847,-5.73577,25.2847,-1.97785,2.7813,-0.304764,-0.772578,0.909578,1.07369,-1.01837,-0.7017,0.855524,0.837694,-0.47935,0.904512,-0.0351711,-0.369083,-0.409176,-0.287242,
-0.0814893,-0.0358926,0.404356,-1.60956,-0.231112,-0.198386,0.493171,-0.8065,0.292273,-0.80688,-0.306682,-1.02046,0.0889273,-0.229355,0,0,0,0,0,0,0,-0.0386436,-0.0498177,0.446761,-1.59122,-0.181225,1.37553,1.29464,-0.494955,0.0822195,-0.501777,-0.259638,-0.611052,-0.16548,-0.13338,-4.9635,-25.9847,-5.73577,25.2847,-1.97785,2.7813,-0.304764,-0.772578,0.909578,1.07369,-1.01837,-0.7017,0.855524,0.837694,-0.47935,0.904512,-0.0351711,-0.369083,-0.409176,-0.287242,
-0.0847204,-0.034717,0.40109,-1.61077,-0.23527,-0.19792,0.492273,-0.80778,0.293896,-0.816478,-0.304558,-1.03955,0.116429,-0.224687,0,0,0,0,0,0,0,-0.0386436,-0.0498177,0.446761,-1.59122,-0.181225,1.37553,1.29464,-0.494955,0.0822195,-0.501777,-0.259638,-0.611052,-0.16548,-0.13338,-4.9635,-25.9847,-5.73577,25.2847,-1.97785,2.7813,-0.304764,2.74212,1.01936,-0.55535,-1.3336,2.50561,0.233677,0.222666,1.53546,0.293781,-0.868612,-0.3564,-0.331624,-0.283657,
-0.0716788,-0.0379922,0.414092,-1.60763,-0.219474,-0.20624,0.493012,-0.781712,0.327722,-0.775466,-0.365042,-0.966261,-0.122635,-0.302,0,0,0,0,0,0,0,-0.0554725,-0.0467667,0.429699,-1.59926,-0.201464,1.37365,1.28992,-0.520625,0.094685,-0.536721,-0.250678,-0.670487,-0.00697091,-0.129724,-6.56231,-26.4092,-7.18779,25.3601,-2.09412,2.66869,-0.270889,2.74212,1.01936,-0.55535,-1.3336,2.50561,0.233677,0.222666,1.53546,0.293781,-0.868612,-0.3564,-0.331624,-0.283657,
-0.0894782,-0.0368918,0.395989,-1.61373,-0.240706,-0.188847,0.491432,-0.780726,0.267445,-0.788858,-0.295705,-0.976114,0.291527,-0.241812,0,0,0,0,0,0,0,-0.0554725,-0.0467667,0.429699,-1.59926,-0.201464,1.37365,1.28992,-0.520625,0.094685,-0.536721,-0.250678,-0.670487,-0.00697091,-0.129724,-6.56231,-26.4092,-7.18779,25.3601,-2.09412,2.66869,-0.270889,3.13489,0.0366628,-0.990038,-0.726541,2.80179,-0.260383,-0.283874,1.71056,-0.200615,-0.891493,-0.470928,-0.190631,-0.278739,
-0.0926152,-0.0358024,0.392818,-1.61489,-0.244721,-0.187709,0.490486,-0.784256,0.272353,-0.792831,-0.290728,-1.0037,0.284413,-0.236694,0,0,0,0,0,0,0,-0.0554725,-0.0467667,0.429699,-1.59926,-0.201464,1.37365,1.28992,-0.520625,0.094685,-0.536721,-0.250678,-0.670487,-0.00697091,-0.129724,-6.56231,-26.4092,-7.18779,25.3601,-2.09412,2.66869,-0.270889,3.13489,0.0366628,-0.990038,-0.726541,2.80179,-0.260383,-0.283874,1.71056,-0.200615,-0.891493,-0.470928,-0.190631,-0.278739,
-0.0957638,-0.0347054,0.389635,-1.61606,-0.248833,-0.186538,0.489557,-0.787158,0.27424,-0.79583,-0.290434,-1.02815,0.292663,-0.23206,0,0,0,0,0,0,0,-0.0554725,-0.0467667,0.429699,-1.59926,-0.201464,1.37365,1.28992,-0.520625,0.094685,-0.536721,-0.250678,-0.670487,-0.00697091,-0.129724,-6.56231,-26.4092,-7.18779,25.3601,-2.09412,2.66869,-0.270889,2.2712,-0.150819,-1.01529,-0.563006,2.1522,-0.166892,-0.183846,1.35133,-0.11963,-0.787945,-0.459946,-0.151639,-0.273636,
-0.0989196,-0.0336057,0.386444,-1.61722,-0.253035,-0.185292,0.488647,-0.788931,0.274933,-0.797677,-0.291409,-1.05048,0.3116,-0.227546,0,0,0,0,0,0,0,-0.0554725,-0.0467667,0.429699,-1.59926,-0.201464,1.37365,1.28992,-0.520625,0.094685,-0.536721,-0.250678,-0.670487,-0.00697091,-0.129724,-6.56231,-26.4092,-7.18779,25.3601,-2.09412,2.66869,-0.270889,2.2712,-0.150819,-1.01529,-0.563006,2.1522,-0.166892,-0.183846,1.35133,-0.11963,-0.787945,-0.459946,-0.151639,-0.273636,
-0.102078,-0.0325058,0.383251,-1.61839,-0.257319,-0.183935,0.487755,-0.7895,0.274979,-0.798311,-0.292588,-1.07104,0.339159,-0.22317,0,0,0,0,0,0,0,-0.0739722,-0.0429327,0.410823,-1.60728,-0.224644,1.37483,1.28564,-0.581759,0.122519,-0.598231,-0.235899,-0.741215,0.0965929,-0.12425,-3.44403,-28.131,-4.11315,25.983,-1.26282,2.52221,-0.284622,1.29493,0.403702,-1.65958,-0.971505,1.90276,0.259787,0.247769,1.40624,0.310226,-1.11216,-0.310265,-0.28616,-0.272209,
-0.105232,-0.0314056,0.380061,-1.61956,-0.261681,-0.182467,0.486879,-0.788632,0.275037,-0.797504,-0.292296,-1.09044,0.367151,-0.218977,0,0,0,0,0,0,0,-0.0739722,-0.0429327,0.410823,-1.60728,-0.224644,1.37483,1.28564,-0.581759,0.122519,-0.598231,-0.235899,-0.741215,0.0965929,-0.12425,-3.44403,-28.131,-4.11315,25.983,-1.26282,2.52221,-0.284622,1.14956,1.01977,-2.11273,-1.36907,1.98616,0.611601,0.600249,1.5165,0.668331,-1.23852,-0.211439,-0.224549,-0.269933,
-0.0893154,-0.0355558,0.396183,-1.61537,-0.241096,-0.196459,0.488574,-0.789315,0.307958,-0.783776,-0.348143,-0.975169,0.126566,-0.297801,0,0,0,0,0,0,0,-0.0739722,-0.0429327,0.410823,-1.60728,-0.224644,1.37483,1.28564,-0.581759,0.122519,-0.598231,-0.235899,-0.741215,0.0965929,-0.12425,-3.44403,-28.131,-4.11315,25.983,-1.26282,2.52221,-0.284622,1.14956,1.01977,-2.11273,-1.36907,1.98616,0.611601,0.600249,1.5165,0.668331,-1.23852,-0.211439,-0.224549,-0.269933,
-0.109176,-0.0330514,0.375703,-1.62154,-0.266672,-0.182135,0.487288,-0.77934,0.258577,-0.78934,-0.291046,-1.02874,0.409552,-0.240945,0,0,0,0,0,0,0,-0.0739722,-0.0429327,0.410823,-1.60728,-0.224644,1.37483,1.28564,-0.581759,0.122519,-0.598231,-0.235899,-0.741215,0.0965929,-0.12425,-3.44403,-28.131,-4.11315,25.983,-1.26282,2.52221,-0.284622,0.83957,-1.27338,-1.16629,0.283497,1.25404,-0.48842,-0.510147,0.95847,-0.459229,-0.763344,-0.414937,-0.221346,-0.260875,
-0.112286,-0.0320007,0.372553,-1.62268,-0.270898,-0.180494,0.486344,-0.777462,0.262676,-0.787365,-0.287022,-1.05631,0.410162,-0.23604,0,0,0,0,0,0,0,-0.0739722,-0.0429327,0.410823,-1.60728,-0.224644,1.37483,1.28564,-0.581759,0.122519,-0.598231,-0.235899,-0.741215,0.0965929,-0.12425,-3.44403,-28.131,-4.11315,25.983,-1.26282,2.52221,-0.284622,0.83957,-1.27338,-1.16629,0.283497,1.25404,-0.48842,-0.510147,0.95847,-0.459229,-0.763344,-0.414937,-0.221346,-0.260875,
-0.115389,-0.0309446,0.369411,-1.62383,-0.27521,-0.178814,0.485417,-0.775712,0.264038,-0.785543,-0.286358,-1.07813,0.420134,-0.231713,0,0,0,0,0,0,0,-0.0922446,-0.0380695,0.392081,-1.61461,-0.24811,1.38086,1.28196,-0.596441,0.182578,-0.60504,-0.236267,-0.753384,0.271939,-0.118008,-2.12292,-29.1069,-2.83568,25.2332,-0.805057,1.68084,-0.190323,-1.56582,-0.740385,0.453868,0.0915282,-1.10321,0.127598,0.115443,-0.59372,0.142505,-0.0667409,-0.421704,-0.307136,-0.262419,
-0.118492,-0.0298916,0.366269,-1.62498,-0.279499,-0.177061,0.484507,-0.775826,0.263249,-0.785451,-0.286906,-1.07221,0.438147,-0.227511,0,0,0,0,0,0,0,-0.0922446,-0.0380695,0.392081,-1.61461,-0.24811,1.38086,1.28196,-0.596441,0.182578,-0.60504,-0.236267,-0.753384,0.271939,-0.118008,-2.12292,-29.1069,-2.83568,25.2332,-0.805057,1.68084,-0.190323,-0.648243,-0.317502,0.0947436,-0.266838,-0.244054,0.185562,0.180431,-0.0644911,0.20288,-0.309465,-0.416633,-0.327448,-0.259929,
-0.121599,-0.0288457,0.363125,-1.62613,-0.283682,-0.175212,0.483613,-0.776584,0.261467,-0.7861,-0.287316,-1.04579,0.46226,-0.2234,0,0,0,0,0,0,0,-0.0922446,-0.0380695,0.392081,-1.61461,-0.24811,1.38086,1.28196,-0.596441,0.182578,-0.60504,-0.236267,-0.753384,0.271939,-0.118008,-2.12292,-29.1069,-2.83568,25.2332,-0.805057,1.68084,-0.190323,-0.648243,-0.317502,0.0947436,-0.266838,-0.244054,0.185562,0.180431,-0.0644911,0.20288,-0.309465,-0.416633,-0.327448,-0.259929,
-0.109246,-0.0319269,0.37582,-1.62325,-0.266786,-0.186525,0.484533,-0.803868,0.290307,-0.799267,-0.342966,-0.999356,0.327053,-0.295415,0,0,0,0,0,0,0,-0.0922446,-0.0380695,0.392081,-1.61461,-0.24811,1.38086,1.28196,-0.596441,0.182578,-0.60504,-0.236267,-0.753384,0.271939,-0.118008,-2.12292,-29.1069,-2.83568,25.2332,-0.805057,1.68084,-0.190323,-0.332248,1.48505,-1.0621,-1.58688,0.573092,1.06416,1.06326,0.566413,1.10247,-0.838886,-0.268713,-0.318892,-0.2587,
-0.127505,-0.0277568,0.356624,-1.62902,-0.287694,-0.168136,0.483645,-0.776416,0.244437,-0.787364,-0.289469,-0.772759,0.533515,-0.241593,0,0,0,0,0,0,0,-0.0922446,-0.0380695,0.392081,-1.61461,-0.24811,1.38086,1.28196,-0.596441,0.182578,-0.60504,-0.236267,-0.753384,0.271939,-0.118008,-2.12292,-29.1069,-2.83568,25.2332,-0.805057,1.68084,-0.190323,-0.332248,1.48505,-1.0621,-1.58688,0.573092,1.06416,1.06326,0.566413,1.10247,-0.838886,-0.268713,-0.318892,-0.2587,
-0.130606,-0.0267732,0.353478,-1.63016,-0.290613,-0.165965,0.482698,-0.775424,0.245881,-0.786272,-0.285842,-0.729821,0.542669,-0.236824,0,0,0,0,0,0,0,-0.0922446,-0.0380695,0.392081,-1.61461,-0.24811,1.38086,1.28196,-0.596441,0.182578,-0.60504,-0.236267,-0.753384,0.271939,-0.118008,-2.12292,-29.1069,-2.83568,25.2332,-0.805057,1.68084,-0.190323,-0.191402,-1.69367,-1.66464,0.343745,0.929782,-0.579995,-0.585082,0.963192,-0.566036,-1.09843,-0.575272,-0.440519,-0.253144,
-0.133703,-0.0257908,0.350338,-1.6313,-0.29334,-0.16374,0.481767,-0.77423,0.245614,-0.785002,-0.28405,-0.681817,0.556189,-0.232681,0,0,0,0,0,0,0,-0.111266,-0.0323369,0.372426,-1.6213,-0.271535,1.39175,1.27751,-0.617467,0.195548,-0.624295,-0.202324,-0.754872,0.423715,-0.151856,-2.09912,-30.3526,-2.58574,25.3601,-1.39099,1.8731,-0.123489,-0.134246,-1.95779,-1.75679,0.480876,0.996398,-0.72202,-0.712513,1.01399,-0.72392,-1.12179,-0.637123,-0.428566,-0.248371,
-0.136792,-0.0248105,0.347206,-1.63242,-0.295862,-0.161482,0.480852,-0.772293,0.245057,-0.783004,-0.281187,-0.630578,0.564624,-0.228693,0,0,0,0,0,0,0,-0.111266,-0.0323369,0.372426,-1.6213,-0.271535,1.39175,1.27751,-0.617467,0.195548,-0.624295,-0.202324,-0.754872,0.423715,-0.151856,-2.09912,-30.3526,-2.58574,25.3601,-1.39099,1.8731,-0.123489,-0.134246,-1.95779,-1.75679,0.480876,0.996398,-0.72202,-0.712513,1.01399,-0.72392,-1.12179,-0.637123,-0.428566,-0.248371,
-0.139871,-0.0238345,0.344085,-1.63354,-0.298169,-0.159208,0.479953,-0.769626,0.244006,-0.78029,-0.277805,-0.576581,0.568418,-0.224851,0,0,0,0,0,0,0,-0.111266,-0.0323369,0.372426,-1.6213,-0.271535,1.39175,1.27751,-0.617467,0.195548,-0.624295,-0.202324,-0.754872,0.423715,-0.151856,-2.09912,-30.3526,-2.58574,25.3601,-1.39099,1.8731,-0.123489,0.326342,-0.821621,-2.37874,-0.302576,1.65459,-0.186059,-0.169492,1.46281,-0.182595,-1.42101,-0.542201,-0.411753,-0.253002,
-0.124681,-0.0278619,0.359863,-1.62928,-0.28616,-0.17352,0.482153,-0.801278,0.268987,-0.797442,-0.345693,-0.974687,0.459563,-0.307793,0,0,0,0,0,0,0,-0.111266,-0.0323369,0.372426,-1.6213,-0.271535,1.39175,1.27751,-0.617467,0.195548,-0.624295,-0.202324,-0.754872,0.423715,-0.151856,-2.09912,-30.3526,-2.58574,25.3601,-1.39099,1.8731,-0.123489,0.326342,-0.821621,-2.37874,-0.302576,1.65459,-0.186059,-0.169492,1.46281,-0.182595,-1.42101,-0.542201,-0.411753,-0.253002,
-0.143585,-0.0234223,0.339674,-1.63415,-0.300087,-0.153803,0.479957,-0.77393,0.224036,-0.785855,-0.289434,-0.447466,0.593716,-0.25692,0,0,0,0,0,0,0,-0.111266,-0.0323369,0.372426,-1.6213,-0.271535,1.39175,1.27751,-0.617467,0.195548,-0.624295,-0.202324,-0.754872,0.423715,-0.151856,-2.09912,-30.3526,-2.58574,25.3601,-1.39099,1.8731,-0.123489,-0.0140623,0.243304,-2.54888,-0.910195,1.47699,0.420297,0.435663,1.36117,0.429819,-1.42016,-0.394835,-0.328284,-0.25595,
-0.146669,-0.0225198,0.33654,-1.6353,-0.30172,-0.151437,0.478934,-0.771076,0.225619,-0.783347,-0.287114,-0.408063,0.591502,-0.255731,0,0,0,0,0,0,0,-0.131596,-0.0260852,0.351341,-1.62794,-0.291977,1.40723,1.27233,-0.641269,0.199427,-0.661477,-0.201085,-0.527916,0.520122,-0.155386,-2.30145,-31.3524,-2.53813,24.6103,-0.969852,1.85296,-0.224197,-0.0140623,0.243304,-2.54888,-0.910195,1.47699,0.420297,0.435663,1.36117,0.429819,-1.42016,-0.394835,-0.328284,-0.25595,
-0.149729,-0.0216004,0.333432,-1.63642,-0.303217,-0.149112,0.47796,-0.764846,0.229857,-0.776957,-0.278892,-0.374475,0.581107,-0.243456,0,0,0,0,0,0,0,-0.131596,-0.0260852,0.351341,-1.62794,-0.291977,1.40723,1.27233,-0.641269,0.199427,-0.661477,-0.201085,-0.527916,0.520122,-0.155386,-2.30145,-31.3524,-2.53813,24.6103,-0.969852,1.85296,-0.224197,-1.23809,-2.42986,-1.8143,0.975219,0.183004,-0.858131,-0.855681,0.612768,-0.863874,-0.960075,-0.535494,-0.322129,-0.248395,
-0.152766,-0.0206769,0.330348,-1.63751,-0.304568,-0.146823,0.477005,-0.759201,0.230872,-0.77116,-0.274728,-0.337544,0.572301,-0.238951,0,0,0,0,0,0,0,-0.131596,-0.0260852,0.351341,-1.62794,-0.291977,1.40723,1.27233,-0.641269,0.199427,-0.661477,-0.201085,-0.527916,0.520122,-0.155386,-2.30145,-31.3524,-2.53813,24.6103,-0.969852,1.85296,-0.224197,-1.23809,-2.42986,-1.8143,0.975219,0.183004,-0.858131,-0.855681,0.612768,-0.863874,-0.960075,-0.535494,-0.322129,-0.248395,
-0.15578,-0.0197554,0.327286,-1.6386,-0.305762,-0.144573,0.476064,-0.753686,0.230384,-0.765513,-0.271783,-0.298523,0.562543,-0.235055,0,0,0,0,0,0,0,-0.131596,-0.0260852,0.351341,-1.62794,-0.291977,1.40723,1.27233,-0.641269,0.199427,-0.661477,-0.201085,-0.527916,0.520122,-0.155386,-2.30145,-31.3524,-2.53813,24.6103,-0.969852,1.85296,-0.224197,-0.837075,-0.99437,-2.57364,0.0534666,0.837982,-0.143324,-0.127772,1.06542,-0.150532,-1.27499,-0.377957,-0.262643,-0.249884,
-0.144243,-0.0226807,0.339507,-1.63553,-0.306835,-0.156078,0.477603,-0.811462,0.248205,-0.824552,-0.33183,-0.695812,0.556198,-0.307558,0,0,0,0,0,0,0,-0.131596,-0.0260852,0.351341,-1.62794,-0.291977,1.40723,1.27233,-0.641269,0.199427,-0.661477,-0.201085,-0.527916,0.520122,-0.155386,-2.30145,-31.3524,-2.53813,24.6103,-0.969852,1.85296,-0.224197,-1.85899,0.864136,-2.01423,-0.961002,-0.117083,0.901731,0.920719,0.394216,0.895986,-0.985722,-0.137825,-0.196945,-0.248272,
-0.163888,-0.0174313,0.318499,-1.64047,-0.30459,-0.137974,0.474609,-0.753133,0.212099,-0.765627,-0.282095,-0.0916745,0.53051,-0.259081,0,0,0,0,0,0,0,-0.131596,-0.0260852,0.351341,-1.62794,-0.291977,1.40723,1.27233,-0.641269,0.199427,-0.661477,-0.201085,-0.527916,0.520122,-0.155386,-2.30145,-31.3524,-2.53813,24.6103,-0.969852,1.85296,-0.224197,-1.85899,0.864136,-2.01423,-0.961002,-0.117083,0.901731,0.920719,0.394216,0.895986,-0.985722,-0.137825,-0.196945,-0.248272,
-0.166884,-0.016583,0.315452,-1.6416,-0.304835,-0.135903,0.473581,-0.749137,0.212082,-0.761797,-0.281222,-0.061245,0.517864,-0.257013,0,0,0,0,0,0,0,-0.153388,-0.0193917,0.328888,-1.63505,-0.306795,1.42643,1.26751,-0.685558,0.211504,-0.715546,-0.207621,-0.356765,0.592202,-0.13357,-0.325741,-33.1972,-0.538622,25.5585,-0.17609,1.77331,-0.170181,-2.02482,-0.805186,-1.41061,0.320346,-0.53563,-0.0257786,-0.0134526,0.14586,-0.0394283,-0.694534,-0.112294,-0.210715,-0.241906,
-0.169856,-0.0157343,0.312428,-1.64272,-0.304982,-0.133882,0.472558,-0.742847,0.212177,-0.755788,-0.279395,-0.0367704,0.505113,-0.255867,0,0,0,0,0,0,0,-0.153388,-0.0193917,0.328888,-1.63505,-0.306795,1.42643,1.26751,-0.685558,0.211504,-0.715546,-0.207621,-0.356765,0.592202,-0.13357,-0.325741,-33.1972,-0.538622,25.5585,-0.17609,1.77331,-0.170181,-2.02482,-0.805186,-1.41061,0.320346,-0.53563,-0.0257786,-0.0134526,0.14586,-0.0394283,-0.694534,-0.112294,-0.210715,-0.241906,
-0.172792,-0.0148757,0.309441,-1.64381,-0.305054,-0.131924,0.47158,-0.734019,0.214652,-0.746752,-0.272646,-0.0180523,0.489691,-0.244484,0,0,0,0,0,0,0,-0.153388,-0.0193917,0.328888,-1.63505,-0.306795,1.42643,1.26751,-0.685558,0.211504,-0.715546,-0.207621,-0.356765,0.592202,-0.13357,-0.325741,-33.1972,-0.538622,25.5585,-0.17609,1.77331,-0.170181,-0.267428,-0.734307,-0.91557,0.428309,0.425155,-0.161028,-0.144768,0.537972,-0.178618,-0.528851,-0.0112053,-0.136423,-0.240126,
-0.175697,-0.0140196,0.306486,-1.64489,-0.30504,-0.129994,0.470619,-0.726254,0.214014,-0.738831,-0.270448,0.00364524,0.482489,-0.240224,0,0,0,0,0,0,0,-0.153388,-0.0193917,0.328888,-1.63505,-0.306795,1.42643,1.26751,-0.685558,0.211504,-0.715546,-0.207621,-0.356765,0.592202,-0.13357,-0.325741,-33.1972,-0.538622,25.5585,-0.17609,1.77331,-0.170181,-0.267428,-0.734307,-0.91557,0.428309,0.425155,-0.161028,-0.144768,0.537972,-0.178618,-0.528851,-0.0112053,-0.136423,-0.240126,
-0.184039,-0.0112432,0.29828,-1.64925,-0.318099,-0.126857,0.465406,-0.779739,0.235142,-0.793463,-0.304954,-0.102281,0.502427,-0.276545,0,0,0,0,0,0,0,-0.153388,-0.0193917,0.328888,-1.63505,-0.306795,1.42643,1.26751,-0.685558,0.211504,-0.715546,-0.207621,-0.356765,0.592202,-0.13357,-0.325741,-33.1972,-0.538622,25.5585,-0.17609,1.77331,-0.170181,1.28909,0.162317,-1.22747,-0.116828,1.77408,0.174782,0.20071,1.31339,0.152998,-0.832382,0.100625,-0.206501,-0.24355,
-0.168231,-0.0159757,0.314368,-1.64308,-0.31471,-0.136833,0.471145,-0.804641,0.233293,-0.818761,-0.317288,-0.265602,0.515083,-0.304064,0,0,0,0,0,0,0,-0.175562,-0.0126512,0.306057,-1.64216,-0.316554,1.44634,1.26294,-0.683976,0.206426,-0.711976,-0.204349,-0.185428,0.603927,-0.145668,1.04694,-34.1969,0.786451,25.983,0.354916,1.32928,-0.284622,-0.577467,1.49699,-0.461988,-0.813991,0.198969,0.96332,0.993082,0.327789,0.937732,-0.512707,0.299136,-0.260211,-0.245062,
-0.210301,-0.00333719,0.270638,-1.65563,-0.315051,-0.096195,0.464253,-0.714418,0.197749,-0.728096,-0.280991,0.19531,0.567076,-0.258788,0,0,0,0,0,0,0,-0.175562,-0.0126512,0.306057,-1.64216,-0.316554,1.44634,1.26294,-0.683976,0.206426,-0.711976,-0.204349,-0.185428,0.603927,-0.145668,1.04694,-34.1969,0.786451,25.983,0.354916,1.32928,-0.284622,-0.577467,1.49699,-0.461988,-0.813991,0.198969,0.96332,0.993082,0.327789,0.937732,-0.512707,0.299136,-0.260211,-0.245062,
-0.213126,-0.00255006,0.267758,-1.65674,-0.314199,-0.0939582,0.463219,-0.706346,0.196782,-0.720167,-0.278539,0.213019,0.55918,-0.258576,0,0,0,0,0,0,0,-0.175562,-0.0126512,0.306057,-1.64216,-0.316554,1.44634,1.26294,-0.683976,0.206426,-0.711976,-0.204349,-0.185428,0.603927,-0.145668,1.04694,-34.1969,0.786451,25.983,0.354916,1.32928,-0.284622,-0.822533,0.594609,-1.16235,-0.130906,0.339394,0.483757,0.507272,0.615301,0.46062,-0.749591,0.368983,-0.263336,-0.239556,
-0.21591,-0.00175901,0.264919,-1.65783,-0.313302,-0.0917648,0.462233,-0.696111,0.197764,-0.709578,-0.272002,0.224265,0.548351,-0.246451,0,0,0,0,0,0,0,-0.175562,-0.0126512,0.306057,-1.64216,-0.316554,1.44634,1.26294,-0.683976,0.206426,-0.711976,-0.204349,-0.185428,0.603927,-0.145668,1.04694,-34.1969,0.786451,25.983,0.354916,1.32928,-0.284622,-0.822533,0.594609,-1.16235,-0.130906,0.339394,0.483757,0.507272,0.615301,0.46062,-0.749591,0.368983,-0.263336,-0.239556,
-0.218658,-0.000974397,0.262118,-1.65891,-0.312352,-0.0895862,0.461264,-0.686922,0.196152,-0.700263,-0.269526,0.237507,0.544653,-0.242295,0,0,0,0,0,0,0,-0.175562,-0.0126512,0.306057,-1.64216,-0.316554,1.44634,1.26294,-0.683976,0.206426,-0.711976,-0.204349,-0.185428,0.603927,-0.145668,1.04694,-34.1969,0.786451,25.983,0.354916,1.32928,-0.284622,-0.884523,0.619615,-1.78655,-0.18672,0.678474,0.483047,0.510706,0.958551,0.456529,-1.0847,0.350807,-0.356145,-0.236512,
-0.221371,-0.000198962,0.259352,-1.65998,-0.311344,-0.0874254,0.460309,-0.678279,0.193859,-0.691501,-0.267322,0.251837,0.540209,-0.238782,0,0,0,0,0,0,0,-0.175562,-0.0126512,0.306057,-1.64216,-0.316554,1.44634,1.26294,-0.683976,0.206426,-0.711976,-0.204349,-0.185428,0.603927,-0.145668,1.04694,-34.1969,0.786451,25.983,0.354916,1.32928,-0.284622,-0.395465,1.24473,-2.09949,-0.654433,1.25662,0.79512,0.826906,1.31152,0.765671,-1.32679,0.31638,-0.43004,-0.241234,
-0.224051,0.000566131,0.25662,-1.66104,-0.310276,-0.0852953,0.459367,-0.669955,0.191273,-0.683062,-0.264648,0.267144,0.532528,-0.235403,0,0,0,0,0,0,0,-0.203762,-0.00395324,0.276799,-1.64981,-0.319608,1.47159,1.25669,-0.691382,0.20027,-0.710045,-0.190833,0.0144155,0.671909,-0.170903,0.562931,-34.1216,0.314344,25.5347,0.343014,1.93261,-0.117081,-0.395465,1.24473,-2.09949,-0.654433,1.25662,0.79512,0.826906,1.31152,0.765671,-1.32679,0.31638,-0.43004,-0.241234,
-0.212068,-0.00296988,0.268816,-1.65662,-0.312935,-0.0975475,0.461984,-0.767908,0.213979,-0.782826,-0.30664,0.270156,0.535661,-0.302597,0,0,0,0,0,0,0,-0.203762,-0.00395324,0.276799,-1.64981,-0.319608,1.47159,1.25669,-0.691382,0.20027,-0.710045,-0.190833,0.0144155,0.671909,-0.170903,0.562931,-34.1216,0.314344,25.5347,0.343014,1.93261,-0.117081,0.0868194,0.250772,-2.40297,0.0585097,1.66274,0.250799,0.283875,1.62783,0.218266,-1.39363,0.317092,-0.379414,-0.236542,
-0.237209,0.00437866,0.242661,-1.66248,-0.302842,-0.0705202,0.458029,-0.666221,0.170779,-0.679939,-0.263968,0.473693,0.493094,-0.258689,0,0,0,0,0,0,0,-0.203762,-0.00395324,0.276799,-1.64981,-0.319608,1.47159,1.25669,-0.691382,0.20027,-0.710045,-0.190833,0.0144155,0.671909,-0.170903,0.562931,-34.1216,0.314344,25.5347,0.343014,1.93261,-0.117081,0.0868194,0.250772,-2.40297,0.0585097,1.66274,0.250799,0.283875,1.62783,0.218266,-1.39363,0.317092,-0.379414,-0.236542,
-0.239834,0.00505491,0.23998,-1.66353,-0.300942,-0.0686127,0.456995,-0.65645,0.169062,-0.670267,-0.262516,0.475062,0.476889,-0.258462,0,0,0,0,0,0,0,-0.203762,-0.00395324,0.276799,-1.64981,-0.319608,1.47159,1.25669,-0.691382,0.20027,-0.710045,-0.190833,0.0144155,0.671909,-0.170903,0.562931,-34.1216,0.314344,25.5347,0.343014,1.93261,-0.117081,-0.709936,-1.74176,-2.5352,1.33092,1.14441,-0.813303,-0.788476,1.51108,-0.837766,-1.3854,0.184881,-0.412515,-0.232078,
-0.242415,0.00573309,0.237345,-1.66456,-0.299054,-0.0667766,0.456007,-0.645159,0.169546,-0.658599,-0.256566,0.472075,0.459016,-0.247009,0,0,0,0,0,0,0,-0.203762,-0.00395324,0.276799,-1.64981,-0.319608,1.47159,1.25669,-0.691382,0.20027,-0.710045,-0.190833,0.0144155,0.671909,-0.170903,0.562931,-34.1216,0.314344,25.5347,0.343014,1.93261,-0.117081,-0.709936,-1.74176,-2.5352,1.33092,1.14441,-0.813303,-0.788476,1.51108,-0.837766,-1.3854,0.184881,-0.412515,-0.232078,
-0.244956,0.00640357,0.234751,-1.66557,-0.297165,-0.0649795,0.455035,-0.635183,0.167619,-0.648545,-0.254568,0.472184,0.449285,-0.243047,0,0,0,0,0,0,0,-0.224948,0.00248011,0.254862,-1.65562,-0.317338,1.49196,1.25118,-0.678844,0.206911,-0.712693,-0.195391,0.162144,0.668559,-0.159513,0.689884,-35.645,0.738844,25.0348,-0.340885,1.74676,-0.217789,-2.01577,1.04499,-1.93493,-0.471568,-0.00272717,0.723314,0.758664,0.624668,0.687138,-1.1379,0.280047,-0.385423,-0.235657,
-0.247461,0.00706275,0.232193,-1.66659,-0.295267,-0.0631998,0.454076,-0.626193,0.164796,-0.639479,-0.253821,0.474425,0.444929,-0.239669,0,0,0,0,0,0,0,-0.224948,0.00248011,0.254862,-1.65562,-0.317338,1.49196,1.25118,-0.678844,0.206911,-0.712693,-0.195391,0.162144,0.668559,-0.159513,0.689884,-35.645,0.738844,25.0348,-0.340885,1.74676,-0.217789,-1.08025,0.744773,-1.77391,-0.358866,0.480287,0.574703,0.610965,0.792421,0.537149,-1.03081,0.157974,-0.298932,-0.234636,
-0.249932,0.00771007,0.229669,-1.6676,-0.293354,-0.0614335,0.453131,-0.617814,0.161831,-0.631018,-0.252746,0.478251,0.441573,-0.23641,0,0,0,0,0,0,0,-0.224948,0.00248011,0.254862,-1.65562,-0.317338,1.49196,1.25118,-0.678844,0.206911,-0.712693,-0.195391,0.162144,0.668559,-0.159513,0.689884,-35.645,0.738844,25.0348,-0.340885,1.74676,-0.217789,-1.08025,0.744773,-1.77391,-0.358866,0.480287,0.574703,0.610965,0.792421,0.537149,-1.03081,0.157974,-0.298932,-0.234636,
-0.238548,0.00442824,0.241252,-1.66349,-0.299877,-0.0722556,0.455895,-0.705238,0.177467,-0.720199,-0.290034,0.552558,0.452183,-0.299925,0,0,0,0,0,0,0,-0.224948,0.00248011,0.254862,-1.65562,-0.317338,1.49196,1.25118,-0.678844,0.206911,-0.712693,-0.195391,0.162144,0.668559,-0.159513,0.689884,-35.645,0.738844,25.0348,-0.340885,1.74676,-0.217789,-0.704755,-0.340467,-1.77437,0.380579,0.677237,-0.0199306,0.0139746,0.949603,-0.0532381,-0.984352,0.130132,-0.261127,-0.23384,
-0.256506,0.0100188,0.222612,-1.66799,-0.294941,-0.0539477,0.452609,-0.615379,0.141859,-0.629179,-0.255642,0.58674,0.406554,-0.257828,0,0,0,0,0,0,0,-0.224948,0.00248011,0.254862,-1.65562,-0.317338,1.49196,1.25118,-0.678844,0.206911,-0.712693,-0.195391,0.162144,0.668559,-0.159513,0.689884,-35.645,0.738844,25.0348,-0.340885,1.74676,-0.217789,-0.704755,-0.340467,-1.77437,0.380579,0.677237,-0.0199306,0.0139746,0.949603,-0.0532381,-0.984352,0.130132,-0.261127,-0.23384,
-0.258927,0.0105761,0.220136,-1.669,-0.292584,-0.0523896,0.451579,-0.60524,0.139321,-0.619121,-0.253562,0.589337,0.389537,-0.257417,0,0,0,0,0,0,0,-0.224948,0.00248011,0.254862,-1.65562,-0.317338,1.49196,1.25118,-0.678844,0.206911,-0.712693,-0.195391,0.162144,0.668559,-0.159513,0.689884,-35.645,0.738844,25.0348,-0.340885,1.74676,-0.217789,-1.11574,-1.1648,-1.84469,0.965704,0.433842,-0.497023,-0.46419,0.922275,-0.526542,-1.00222,0.135645,-0.292022,-0.229679,
-0.261302,0.0111316,0.217707,-1.66999,-0.290243,-0.0509062,0.450591,-0.593729,0.138862,-0.607259,-0.247654,0.585297,0.370854,-0.246925,0,0,0,0,0,0,0,-0.245932,0.00849209,0.233091,-1.66185,-0.30949,1.51133,1.24678,-0.678566,0.202316,-0.700672,-0.188398,0.28546,0.590654,-0.132841,2.49103,-36.2917,2.31386,25.8798,-0.517582,1.60119,-0.224197,-0.944934,0.332516,-0.979287,-0.00703477,0.0787589,0.329649,0.36772,0.406921,0.291659,-0.613521,0.18145,-0.197076,-0.231687,
-0.263636,0.0116771,0.21532,-1.67098,-0.287915,-0.0494693,0.449619,-0.58334,0.136394,-0.596812,-0.245354,0.581846,0.359205,-0.243183,0,0,0,0,0,0,0,-0.245932,0.00849209,0.233091,-1.66185,-0.30949,1.51133,1.24678,-0.678566,0.202316,-0.700672,-0.188398,0.28546,0.590654,-0.132841,2.49103,-36.2917,2.31386,25.8798,-0.517582,1.60119,-0.224197,-0.944934,0.332516,-0.979287,-0.00703477,0.0787589,0.329649,0.36772,0.406921,0.291659,-0.613521,0.18145,-0.197076,-0.231687,
-0.265931,0.01221,0.21297,-1.67195,-0.285601,-0.0480606,0.448659,-0.573853,0.133226,-0.587268,-0.244247,0.578679,0.352187,-0.239986,0,0,0,0,0,0,0,-0.245932,0.00849209,0.233091,-1.66185,-0.30949,1.51133,1.24678,-0.678566,0.202316,-0.700672,-0.188398,0.28546,0.590654,-0.132841,2.49103,-36.2917,2.31386,25.8798,-0.517582,1.60119,-0.224197,-0.355188,-0.0124886,-0.95602,0.258107,0.505996,0.126257,0.167821,0.6686,0.0859598,-0.663673,0.20167,-0.242664,-0.230965,
-0.273016,0.013659,0.205688,-1.67525,-0.271812,-0.0476635,0.443801,-0.601457,0.138739,-0.615697,-0.26621,0.7073,0.321054,-0.270437,0,0,0,0,0,0,0,-0.245932,0.00849209,0.233091,-1.66185,-0.30949,1.51133,1.24678,-0.678566,0.202316,-0.700672,-0.188398,0.28546,0.590654,-0.132841,2.49103,-36.2917,2.31386,25.8798,-0.517582,1.60119,-0.224197,-0.355188,-0.0124886,-0.95602,0.258107,0.505996,0.126257,0.167821,0.6686,0.0859598,-0.663673,0.20167,-0.242664,-0.230965,
-0.258046,0.0101662,0.221006,-1.6688,-0.289079,-0.0555145,0.450543,-0.65805,0.151419,-0.672974,-0.277416,0.731061,0.365571,-0.297687,0,0,0,0,0,0,0,-0.245932,0.00849209,0.233091,-1.66185,-0.30949,1.51133,1.24678,-0.678566,0.202316,-0.700672,-0.188398,0.28546,0.590654,-0.132841,2.49103,-36.2917,2.31386,25.8798,-0.517582,1.60119,-0.224197,-1.11225,-1.90341,-0.289835,1.456,-0.269975,-0.995925,-0.961376,0.313457,-1.0189,-0.434474,0.126916,-0.360086,-0.224127,
-0.276047,0.0151991,0.202291,-1.67385,-0.282117,-0.0385486,0.448259,-0.575238,0.119158,-0.589091,-0.248854,0.661747,0.359221,-0.258318,0,0,0,0,0,0,0,-0.26628,0.0145838,0.21208,-1.66772,-0.299228,1.52809,1.24291,-0.636465,0.202812,-0.647435,-0.177566,0.344698,0.507891,-0.121607,2.79651,-37.2398,2.68678,26.0544,0.0564539,1.69366,-0.177505,-1.5433,-1.89322,-0.608622,1.48364,-0.36954,-1.02403,-0.988092,0.369206,-1.04639,-0.589948,0.14608,-0.405704,-0.221586,
-0.278307,0.0156646,0.199975,-1.67483,-0.279449,-0.0371568,0.447227,-0.565121,0.116376,-0.578997,-0.246039,0.666986,0.347952,-0.258059,0,0,0,0,0,0,0,-0.26628,0.0145838,0.21208,-1.66772,-0.299228,1.52809,1.24291,-0.636465,0.202812,-0.647435,-0.177566,0.344698,0.507891,-0.121607,2.79651,-37.2398,2.68678,26.0544,0.0564539,1.69366,-0.177505,-1.5433,-1.89322,-0.608622,1.48364,-0.36954,-1.02403,-0.988092,0.369206,-1.04639,-0.589948,0.14608,-0.405704,-0.221586,
-0.280522,0.0161268,0.197706,-1.67579,-0.276793,-0.0358199,0.446236,-0.553719,0.115566,-0.567208,-0.239728,0.664011,0.334224,-0.247745,0,0,0,0,0,0,0,-0.26628,0.0145838,0.21208,-1.66772,-0.299228,1.52809,1.24291,-0.636465,0.202812,-0.647435,-0.177566,0.344698,0.507891,-0.121607,2.79651,-37.2398,2.68678,26.0544,0.0564539,1.69366,-0.177505,-1.21938,1.62546,-1.03094,-0.568654,0.0795246,0.918687,0.966592,0.458952,0.867551,-0.817408,0.440052,-0.371501,-0.222469,
-0.282695,0.0165786,0.195479,-1.67674,-0.274153,-0.0345145,0.44526,-0.543264,0.112938,-0.556709,-0.236949,0.659935,0.32636,-0.244143,0,0,0,0,0,0,0,-0.26628,0.0145838,0.21208,-1.66772,-0.299228,1.52809,1.24291,-0.636465,0.202812,-0.647435,-0.177566,0.344698,0.507891,-0.121607,2.79651,-37.2398,2.68678,26.0544,0.0564539,1.69366,-0.177505,-1.21938,1.62546,-1.03094,-0.568654,0.0795246,0.918687,0.966592,0.458952,0.867551,-0.817408,0.440052,-0.371501,-0.222469,
-0.28483,0.0170174,0.193291,-1.67768,-0.271534,-0.0332257,0.444295,-0.533642,0.109707,-0.547047,-0.235403,0.654953,0.322197,-0.241084,0,0,0,0,0,0,0,-0.26628,0.0145838,0.21208,-1.66772,-0.299228,1.52809,1.24291,-0.636465,0.202812,-0.647435,-0.177566,0.344698,0.507891,-0.121607,2.79651,-37.2398,2.68678,26.0544,0.0564539,1.69366,-0.177505,-1.03941,-0.055163,-1.80955,0.595906,0.674172,-0.0389068,0.00397588,1.14227,-0.0755902,-1.23353,0.414425,-0.514211,-0.218387,
-0.274823,0.0146166,0.203508,-1.67362,-0.278725,-0.0412963,0.447467,-0.615574,0.124179,-0.630509,-0.272838,0.811938,0.330852,-0.298001,0,0,0,0,0,0,0,-0.26628,0.0145838,0.21208,-1.66772,-0.299228,1.52809,1.24291,-0.636465,0.202812,-0.647435,-0.177566,0.344698,0.507891,-0.121607,2.79651,-37.2398,2.68678,26.0544,0.0564539,1.69366,-0.177505,-1.03941,-0.055163,-1.80955,0.595906,0.674172,-0.0389068,0.00397588,1.14227,-0.0755902,-1.23353,0.414425,-0.514211,-0.218387,
-0.292103,0.0199975,0.185621,-1.67863,-0.270997,-0.025117,0.445283,-0.537165,0.0994529,-0.551085,-0.24364,0.707182,0.316204,-0.261363,0,0,0,0,0,0,0,-0.292626,0.0224599,0.184732,-1.67488,-0.282315,1.54824,1.23602,-0.589507,0.170974,-0.615688,-0.157124,0.421121,0.443034,-0.169017,2.76874,-37.5176,2.73836,25.9314,0.306393,1.85937,-0.143631,-0.329717,-1.53692,-2.4316,1.60958,1.4141,-0.811834,-0.779481,1.77623,-0.829235,-1.46422,0.385601,-0.50344,-0.214444,
-0.294216,0.0203802,0.183452,-1.67959,-0.268157,-0.0239031,0.444246,-0.528147,0.0956738,-0.542058,-0.241725,0.710055,0.303463,-0.259322,0,0,0,0,0,0,0,-0.292626,0.0224599,0.184732,-1.67488,-0.282315,1.54824,1.23602,-0.589507,0.170974,-0.615688,-0.157124,0.421121,0.443034,-0.169017,2.76874,-37.5176,2.73836,25.9314,0.306393,1.85937,-0.143631,-0.761561,-1.32489,-2.39417,1.49204,1.05737,-0.719632,-0.687365,1.56289,-0.735794,-1.39764,0.396676,-0.460835,-0.208509,
-0.296293,0.020748,0.18132,-1.68055,-0.2653,-0.0227382,0.443214,-0.519202,0.0919473,-0.533144,-0.239724,0.714125,0.291218,-0.258123,0,0,0,0,0,0,0,-0.292626,0.0224599,0.184732,-1.67488,-0.282315,1.54824,1.23602,-0.589507,0.170974,-0.615688,-0.157124,0.421121,0.443034,-0.169017,2.76874,-37.5176,2.73836,25.9314,0.306393,1.85937,-0.143631,-0.761561,-1.32489,-2.39417,1.49204,1.05737,-0.719632,-0.687365,1.56289,-0.735794,-1.39764,0.396676,-0.460835,-0.208509,
-0.298332,0.0211033,0.179225,-1.6815,-0.262443,-0.0216232,0.442183,-0.509666,0.0888298,-0.523621,-0.23685,0.714308,0.278766,-0.257559,0,0,0,0,0,0,0,-0.292626,0.0224599,0.184732,-1.67488,-0.282315,1.54824,1.23602,-0.589507,0.170974,-0.615688,-0.157124,0.421121,0.443034,-0.169017,2.76874,-37.5176,2.73836,25.9314,0.306393,1.85937,-0.143631,-1.61308,0.848901,-2.07455,0.137959,0.331897,0.411171,0.452616,0.955506,0.373694,-1.26882,0.493295,-0.440967,-0.209015,
-0.300328,0.0214546,0.177175,-1.68242,-0.259615,-0.0205663,0.441191,-0.499048,0.0878088,-0.512631,-0.23045,0.706971,0.264213,-0.24817,0,0,0,0,0,0,0,-0.292626,0.0224599,0.184732,-1.67488,-0.282315,1.54824,1.23602,-0.589507,0.170974,-0.615688,-0.157124,0.421121,0.443034,-0.169017,2.76874,-37.5176,2.73836,25.9314,0.306393,1.85937,-0.143631,-1.61308,0.848901,-2.07455,0.137959,0.331897,0.411171,0.452616,0.955506,0.373694,-1.26882,0.493295,-0.440967,-0.209015,
-0.293318,0.0199174,0.184347,-1.67923,-0.262917,-0.0262881,0.443504,-0.5713,0.101758,-0.586165,-0.261562,0.924057,0.278615,-0.299014,0,0,0,0,0,0,0,-0.3118,0.027795,0.16497,-1.68008,-0.268343,1.56083,1.23064,-0.589653,0.153498,-0.596435,-0.168582,0.442909,0.350999,-0.164048,3.3797,-38.3666,3.38899,25.9076,0.202938,1.85296,-0.157364,-1.75447,0.636663,-2.0818,0.291242,0.194168,0.276766,0.32242,0.895403,0.237916,-1.22878,0.491641,-0.405443,-0.204446,
-0.335717,0.0317745,0.140414,-1.6905,-0.236494,0.0031861,0.432887,-0.496937,0.0739144,-0.510834,-0.235749,0.770846,0.257045,-0.263781,0,0,0,0,0,0,0,-0.3118,0.027795,0.16497,-1.68008,-0.268343,1.56083,1.23064,-0.589653,0.153498,-0.596435,-0.168582,0.442909,0.350999,-0.164048,3.3797,-38.3666,3.38899,25.9076,0.202938,1.85296,-0.157364,-1.75447,0.636663,-2.0818,0.291242,0.194168,0.276766,0.32242,0.895403,0.237916,-1.22878,0.491641,-0.405443,-0.204446,
-0.337671,0.0320604,0.138405,-1.69144,-0.23342,0.00420208,0.431842,-0.488507,0.0714742,-0.502377,-0.233851,0.768398,0.253997,-0.26136,0,0,0,0,0,0,0,-0.3118,0.027795,0.16497,-1.68008,-0.268343,1.56083,1.23064,-0.589653,0.153498,-0.596435,-0.168582,0.442909,0.350999,-0.164048,3.3797,-38.3666,3.38899,25.9076,0.202938,1.85296,-0.157364,-1.47002,-1.20307,-2.24998,1.3824,0.410702,-0.70444,-0.665092,1.1625,-0.723701,-1.23129,0.337463,-0.365969,-0.199605,
-0.339592,0.0323361,0.136428,-1.69237,-0.230352,0.00520017,0.430804,-0.480244,0.0689237,-0.494116,-0.23179,0.766956,0.249521,-0.259482,0,0,0,0,0,0,0,-0.3118,0.027795,0.16497,-1.68008,-0.268343,1.56083,1.23064,-0.589653,0.153498,-0.596435,-0.168582,0.442909,0.350999,-0.164048,3.3797,-38.3666,3.38899,25.9076,0.202938,1.85296,-0.157364,-1.21328,-0.995699,-1.98342,1.21553,0.406809,-0.563625,-0.522046,1.05016,-0.586651,-1.08664,0.322042,-0.312536,-0.198708,
-0.341479,0.0326015,0.134486,-1.69328,-0.227294,0.00617661,0.42977,-0.471846,0.0663513,-0.485711,-0.229604,0.764505,0.24411,-0.258385,0,0,0,0,0,0,0,-0.3118,0.027795,0.16497,-1.68008,-0.268343,1.56083,1.23064,-0.589653,0.153498,-0.596435,-0.168582,0.442909,0.350999,-0.164048,3.3797,-38.3666,3.38899,25.9076,0.202938,1.85296,-0.157364,-1.21328,-0.995699,-1.98342,1.21553,0.406809,-0.563625,-0.522046,1.05016,-0.586651,-1.08664,0.322042,-0.312536,-0.198708,
-0.34333,0.0328585,0.13258,-1.69419,-0.224274,0.00712675,0.428739,-0.462661,0.0642415,-0.476461,-0.226639,0.755171,0.237535,-0.257867,0,0,0,0,0,0,0,-0.329459,0.0319749,0.146657,-1.68585,-0.253242,1.57076,1.22613,-0.55501,0.131431,-0.588044,-0.193971,0.547791,0.316141,-0.16305,2.16175,-38.188,2.08772,26.9272,0.367733,2.08459,-0.190323,-1.93188,1.99971,-1.53292,-0.607276,-0.346518,1.00438,1.05516,0.299677,0.951602,-0.873759,0.511036,-0.241278,-0.197594,
-0.338262,0.0316069,0.137746,-1.69197,-0.225172,0.00232663,0.43012,-0.504868,0.0610417,-0.519788,-0.247337,1.04717,0.204839,-0.294556,0,0,0,0,0,0,0,-0.329459,0.0319749,0.146657,-1.68585,-0.253242,1.57076,1.22613,-0.55501,0.131431,-0.588044,-0.193971,0.547791,0.316141,-0.16305,2.16175,-38.188,2.08772,26.9272,0.367733,2.08459,-0.190323,-2.19192,-0.593587,-1.69477,0.948735,-0.445041,-0.458776,-0.41934,0.51625,-0.477054,-0.903241,0.332994,-0.260813,-0.19326,
-0.353056,0.0351377,0.122384,-1.69688,-0.21356,0.0117185,0.427491,-0.428851,0.0427011,-0.442693,-0.221731,0.852976,0.207999,-0.260154,0,0,0,0,0,0,0,-0.329459,0.0319749,0.146657,-1.68585,-0.253242,1.57076,1.22613,-0.55501,0.131431,-0.588044,-0.193971,0.547791,0.316141,-0.16305,2.16175,-38.188,2.08772,26.9272,0.367733,2.08459,-0.190323,-2.19192,-0.593587,-1.69477,0.948735,-0.445041,-0.458776,-0.41934,0.51625,-0.477054,-0.903241,0.332994,-0.260813,-0.19326,
-0.354733,0.0352964,0.120651,-1.69776,-0.210173,0.0125299,0.426455,-0.419256,0.0396842,-0.433175,-0.219317,0.8469,0.202853,-0.25906,0,0,0,0,0,0,0,-0.329459,0.0319749,0.146657,-1.68585,-0.253242,1.57076,1.22613,-0.55501,0.131431,-0.588044,-0.193971,0.547791,0.316141,-0.16305,2.16175,-38.188,2.08772,26.9272,0.367733,2.08459,-0.190323,-0.855199,-1.03384,-2.10497,1.32005,0.601426,-0.553614,-0.509859,1.16181,-0.574931,-1.06502,0.365029,-0.229375,-0.193045,
-0.356372,0.0354449,0.118956,-1.69862,-0.206806,0.0133169,0.425421,-0.40974,0.0371153,-0.423766,-0.216185,0.841758,0.196727,-0.258548,0,0,0,0,0,0,0,-0.329459,0.0319749,0.146657,-1.68585,-0.253242,1.57076,1.22613,-0.55501,0.131431,-0.588044,-0.193971,0.547791,0.316141,-0.16305,2.16175,-38.188,2.08772,26.9272,0.367733,2.08459,-0.190323,-0.855199,-1.03384,-2.10497,1.32005,0.601426,-0.553614,-0.509859,1.16181,-0.574931,-1.06502,0.365029,-0.229375,-0.193045,
-0.357973,0.0355897,0.1173,-1.69946,-0.203458,0.0140696,0.42442,-0.400069,0.036218,-0.413876,-0.210086,0.836884,0.188196,-0.250257,0,0,0,0,0,0,0,-0.329459,0.0319749,0.146657,-1.68585,-0.253242,1.57076,1.22613,-0.55501,0.131431,-0.588044,-0.193971,0.547791,0.316141,-0.16305,2.16175,-38.188,2.08772,26.9272,0.367733,2.08459,-0.190323,-0.826784,-2.37347,-1.36299,2.00894,0.257508,-1.29426,-1.2524,0.91517,-1.30047,-0.743551,0.24911,-0.223547,-0.192517,
-0.359536,0.0357257,0.115681,-1.70029,-0.200146,0.0148038,0.423431,-0.390947,0.0339915,-0.404741,-0.207031,0.827993,0.18353,-0.247169,0,0,0,0,0,0,0,-0.346168,0.0354921,0.12918,-1.69176,-0.235153,1.5794,1.22063,-0.527077,0.10719,-0.543411,-0.190001,0.614001,0.248214,-0.174364,2.43946,-38.6125,2.41304,27.2009,0.557247,2.19079,-0.217789,-0.826784,-2.37347,-1.36299,2.00894,0.257508,-1.29426,-1.2524,0.91517,-1.30047,-0.743551,0.24911,-0.223547,-0.192517,
-0.361066,0.0358512,0.114097,-1.70111,-0.196882,0.0155284,0.422453,-0.382368,0.0313758,-0.39616,-0.205149,0.816036,0.181157,-0.244531,0,0,0,0,0,0,0,-0.346168,0.0354921,0.12918,-1.69176,-0.235153,1.5794,1.22063,-0.527077,0.10719,-0.543411,-0.190001,0.614001,0.248214,-0.174364,2.43946,-38.6125,2.41304,27.2009,0.557247,2.19079,-0.217789,0.102605,-1.09268,-1.43614,1.27985,0.86671,-0.469093,-0.417022,1.09753,-0.499588,-0.773631,0.345516,-0.178527,-0.195315,
-0.353432,0.0346927,0.12194,-1.69744,-0.210042,0.0109143,0.425825,-0.442988,0.0317305,-0.458049,-0.234384,1.03,0.188555,-0.292394,0,0,0,0,0,0,0,-0.346168,0.0354921,0.12918,-1.69176,-0.235153,1.5794,1.22063,-0.527077,0.10719,-0.543411,-0.190001,0.614001,0.248214,-0.174364,2.43946,-38.6125,2.41304,27.2009,0.557247,2.19079,-0.217789,-0.346465,0.343523,-1.13207,0.399148,0.386426,0.252216,0.308986,0.649685,0.206528,-0.63495,0.435622,-0.148755,-0.192827,
-0.367297,0.0374076,0.107377,-1.70228,-0.193805,0.0179952,0.422099,-0.373393,0.015376,-0.387504,-0.208178,0.895824,0.151246,-0.259756,0,0,0,0,0,0,0,-0.346168,0.0354921,0.12918,-1.69176,-0.235153,1.5794,1.22063,-0.527077,0.10719,-0.543411,-0.190001,0.614001,0.248214,-0.174364,2.43946,-38.6125,2.41304,27.2009,0.557247,2.19079,-0.217789,-0.346465,0.343523,-1.13207,0.399148,0.386426,0.252216,0.308986,0.649685,0.206528,-0.63495,0.435622,-0.148755,-0.192827,
-0.368749,0.037459,0.105868,-1.7031,-0.190268,0.018558,0.421064,-0.363005,0.0128538,-0.37723,-0.204796,0.884304,0.140701,-0.258863,0,0,0,0,0,0,0,-0.346168,0.0354921,0.12918,-1.69176,-0.235153,1.5794,1.22063,-0.527077,0.10719,-0.543411,-0.190001,0.614001,0.248214,-0.174364,2.43946,-38.6125,2.41304,27.2009,0.557247,2.19079,-0.217789,-0.710527,-0.0555936,-1.22151,0.611113,0.196137,-0.0146258,0.0463497,0.615075,-0.0602595,-0.662271,0.368408,-0.156458,-0.190065,
-0.37016,0.0375069,0.104401,-1.70389,-0.18678,0.0190679,0.420058,-0.352724,0.0119729,-0.366799,-0.19863,0.872066,0.127476,-0.251412,0,0,0,0,0,0,0,-0.363359,0.038762,0.111304,-1.69774,-0.214291,1.58639,1.21445,-0.514225,0.0883956,-0.52731,-0.175688,0.623508,0.177181,-0.196514,3.53046,-38.6125,3.58735,27.0026,1.20453,2.36382,-0.210464,-0.710527,-0.0555936,-1.22151,0.611113,0.196137,-0.0146258,0.0463497,0.615075,-0.0602595,-0.662271,0.368408,-0.156458,-0.190065,
-0.371534,0.037546,0.102971,-1.70468,-0.183339,0.0195381,0.419064,-0.343445,0.00977661,-0.357622,-0.195421,0.86002,0.117556,-0.248515,0,0,0,0,0,0,0,-0.363359,0.038762,0.111304,-1.69774,-0.214291,1.58639,1.21445,-0.514225,0.0883956,-0.52731,-0.175688,0.623508,0.177181,-0.196514,3.53046,-38.6125,3.58735,27.0026,1.20453,2.36382,-0.210464,-0.245256,0.119157,-2.14826,0.662655,0.962071,0.151813,0.213423,1.22661,0.101268,-1.07075,0.396706,-0.186685,-0.19045,
-0.372873,0.0375751,0.101575,-1.70545,-0.179965,0.0199744,0.41808,-0.334766,0.00726516,-0.348952,-0.193289,0.843681,0.109072,-0.245931,0,0,0,0,0,0,0,-0.363359,0.038762,0.111304,-1.69774,-0.214291,1.58639,1.21445,-0.514225,0.0883956,-0.52731,-0.175688,0.623508,0.177181,-0.196514,3.53046,-38.6125,3.58735,27.0026,1.20453,2.36382,-0.210464,-0.245256,0.119157,-2.14826,0.662655,0.962071,0.151813,0.213423,1.22661,0.101268,-1.07075,0.396706,-0.186685,-0.19045,
-0.374179,0.0375939,0.100212,-1.70622,-0.176669,0.0203825,0.417106,-0.326607,0.00471186,-0.34081,-0.191698,0.824017,0.102027,-0.243441,0,0,0,0,0,0,0,-0.363359,0.038762,0.111304,-1.69774,-0.214291,1.58639,1.21445,-0.514225,0.0883956,-0.52731,-0.175688,0.623508,0.177181,-0.196514,3.53046,-38.6125,3.58735,27.0026,1.20453,2.36382,-0.210464,-0.512244,-1.09855,-2.45621,1.45966,0.923978,-0.554082,-0.50269,1.41865,-0.579514,-1.17528,0.353688,-0.193759,-0.186593,
-0.367477,0.0369501,0.107134,-1.70285,-0.192083,0.0178885,0.420507,-0.382557,0.00374141,-0.397939,-0.220142,1.01763,0.150981,-0.290708,0,0,0,0,0,0,0,-0.363359,0.038762,0.111304,-1.69774,-0.214291,1.58639,1.21445,-0.514225,0.0883956,-0.52731,-0.175688,0.623508,0.177181,-0.196514,3.53046,-38.6125,3.58735,27.0026,1.20453,2.36382,-0.210464,-0.512244,-1.09855,-2.45621,1.45966,0.923978,-0.554082,-0.50269,1.41865,-0.579514,-1.17528,0.353688,-0.193759,-0.186593,
-0.382643,0.0396171,0.091361,-1.70777,-0.17517,0.0214988,0.416056,-0.327127,-0.00842402,-0.341467,-0.204839,0.813424,0.117403,-0.25772,0,0,0,0,0,0,0,-0.363359,0.038762,0.111304,-1.69774,-0.214291,1.58639,1.21445,-0.514225,0.0883956,-0.52731,-0.175688,0.623508,0.177181,-0.196514,3.53046,-38.6125,3.58735,27.0026,1.20453,2.36382,-0.210464,-0.698198,0.404199,-2.38556,0.571625,0.708686,0.23503,0.291132,1.1357,0.191679,-1.11924,0.445048,-0.148056,-0.18902,
-0.383909,0.0395747,0.0900369,-1.70858,-0.172003,0.0220333,0.41503,-0.316528,-0.0106029,-0.33104,-0.20376,0.791846,0.133614,-0.2567,0,0,0,0,0,0,0,-0.378972,0.0413247,0.0952596,-1.70281,-0.19329,1.59088,1.20915,-0.47618,0.074251,-0.49578,-0.151953,0.612846,0.100983,-0.135163,4.56989,-39.1402,4.36098,26.828,0.923458,2.24389,-0.170181,-1.50932,-0.382989,-2.21972,0.95025,0.126287,-0.325514,-0.272621,0.891412,-0.355762,-1.04364,0.32499,-0.165173,-0.185208,
-0.385133,0.0395309,0.0887548,-1.70938,-0.16893,0.0226032,0.41403,-0.306093,-0.010961,-0.320506,-0.198912,0.768152,0.142476,-0.249793,0,0,0,0,0,0,0,-0.378972,0.0413247,0.0952596,-1.70281,-0.19329,1.59088,1.20915,-0.47618,0.074251,-0.49578,-0.151953,0.612846,0.100983,-0.135163,4.56989,-39.1402,4.36098,26.828,0.923458,2.24389,-0.170181,-1.50932,-0.382989,-2.21972,0.95025,0.126287,-0.325514,-0.272621,0.891412,-0.355762,-1.04364,0.32499,-0.165173,-0.185208,
-0.38632,0.0394823,0.0875097,-1.71016,-0.165947,0.0231991,0.413042,-0.296718,-0.0121454,-0.311281,-0.195379,0.745848,0.148978,-0.247074,0,0,0,0,0,0,0,-0.378972,0.0413247,0.0952596,-1.70281,-0.19329,1.59088,1.20915,-0.47618,0.074251,-0.49578,-0.151953,0.612846,0.100983,-0.135163,4.56989,-39.1402,4.36098,26.828,0.923458,2.24389,-0.170181,-1.65775,-0.657238,-2.12222,1.07655,-0.0189747,-0.503668,-0.449299,0.818431,-0.53233,-0.99295,0.281202,-0.159165,-0.183401,
-0.387473,0.0394275,0.0862975,-1.71093,-0.163047,0.0238118,0.412063,-0.288367,-0.0137087,-0.303063,-0.192461,0.725062,0.153171,-0.244677,0,0,0,0,0,0,0,-0.378972,0.0413247,0.0952596,-1.70281,-0.19329,1.59088,1.20915,-0.47618,0.074251,-0.49578,-0.151953,0.612846,0.100983,-0.135163,4.56989,-39.1402,4.36098,26.828,0.923458,2.24389,-0.170181,-1.65775,-0.657238,-2.12222,1.07655,-0.0189747,-0.503668,-0.449299,0.818431,-0.53233,-0.99295,0.281202,-0.159165,-0.183401,
-0.388597,0.0393656,0.0851145,-1.71169,-0.160222,0.024434,0.411094,-0.280918,-0.0154575,-0.295733,-0.189928,0.70613,0.155548,-0.24233,0,0,0,0,0,0,0,-0.378972,0.0413247,0.0952596,-1.70281,-0.19329,1.59088,1.20915,-0.47618,0.074251,-0.49578,-0.151953,0.612846,0.100983,-0.135163,4.56989,-39.1402,4.36098,26.828,0.923458,2.24389,-0.170181,-1.0233,0.28833,-2.79489,0.693216,0.685662,0.109694,0.166504,1.25066,0.0673644,-1.2834,0.390774,-0.160935,-0.186871,
-0.382839,0.0391272,0.0910964,-1.70833,-0.1726,0.0222389,0.414532,-0.338448,-0.0210928,-0.354253,-0.215699,0.99594,0.136434,-0.287446,0,0,0,0,0,0,0,-0.393177,0.0430441,0.080371,-1.70802,-0.17361,1.59337,1.20466,-0.432964,0.0362156,-0.435705,-0.174138,0.573224,0.0667578,-0.127986,3.96289,-38.6641,3.83729,27.0026,0.764157,2.37023,-0.230606,-1.0233,0.28833,-2.79489,0.693216,0.685662,0.109694,0.166504,1.25066,0.0673644,-1.2834,0.390774,-0.160935,-0.186871,
-0.409506,0.0423774,0.0633369,-1.71776,-0.135587,0.0299397,0.40641,-0.280852,-0.0304071,-0.29616,-0.190073,0.837892,0.148866,-0.254136,0,0,0,0,0,0,0,-0.393177,0.0430441,0.080371,-1.70802,-0.17361,1.59337,1.20466,-0.432964,0.0362156,-0.435705,-0.174138,0.573224,0.0667578,-0.127986,3.96289,-38.6641,3.83729,27.0026,0.764157,2.37023,-0.230606,-1.49562,-1.18107,-2.45569,1.46424,0.233803,-0.766502,-0.719558,1.08993,-0.782055,-1.12161,0.260949,-0.158491,-0.184831,
-0.410599,0.04225,0.0621818,-1.71851,-0.132208,0.0304995,0.405402,-0.273356,-0.0318274,-0.288774,-0.186605,0.844695,0.139968,-0.252201,0,0,0,0,0,0,0,-0.393177,0.0430441,0.080371,-1.70802,-0.17361,1.59337,1.20466,-0.432964,0.0362156,-0.435705,-0.174138,0.573224,0.0667578,-0.127986,3.96289,-38.6641,3.83729,27.0026,0.764157,2.37023,-0.230606,-1.1958,-0.0892905,-2.53986,0.817557,0.473057,-0.124333,-0.0715706,1.1103,-0.159971,-1.1793,0.284829,-0.165412,-0.189069,
-0.411663,0.0421223,0.0610564,-1.71923,-0.12881,0.0310117,0.404412,-0.266045,-0.0319491,-0.28136,-0.181115,0.849628,0.128037,-0.247289,0,0,0,0,0,0,0,-0.393177,0.0430441,0.080371,-1.70802,-0.17361,1.59337,1.20466,-0.432964,0.0362156,-0.435705,-0.174138,0.573224,0.0667578,-0.127986,3.96289,-38.6641,3.83729,27.0026,0.764157,2.37023,-0.230606,-1.1958,-0.0892905,-2.53986,0.817557,0.473057,-0.124333,-0.0715706,1.1103,-0.159971,-1.1793,0.284829,-0.165412,-0.189069,
-0.4127,0.0419896,0.0599591,-1.71994,-0.125414,0.0314821,0.403434,-0.25904,-0.0331552,-0.274327,-0.178059,0.849094,0.117612,-0.244705,0,0,0,0,0,0,0,-0.393177,0.0430441,0.080371,-1.70802,-0.17361,1.59337,1.20466,-0.432964,0.0362156,-0.435705,-0.174138,0.573224,0.0667578,-0.127986,3.96289,-38.6641,3.83729,27.0026,0.764157,2.37023,-0.230606,-0.92404,-0.0170132,-2.62433,0.821154,0.670397,-0.0413027,0.0182118,1.2209,-0.0849209,-1.21143,0.311574,-0.159673,-0.190482,
-0.413709,0.0418508,0.0588883,-1.72065,-0.122034,0.031913,0.402464,-0.252415,-0.0347146,-0.267704,-0.176003,0.844902,0.107706,-0.242351,0,0,0,0,0,0,0,-0.393177,0.0430441,0.080371,-1.70802,-0.17361,1.59337,1.20466,-0.432964,0.0362156,-0.435705,-0.174138,0.573224,0.0667578,-0.127986,3.96289,-38.6641,3.83729,27.0026,0.764157,2.37023,-0.230606,-0.92404,-0.0170132,-2.62433,0.821154,0.670397,-0.0413027,0.0182118,1.2209,-0.0849209,-1.21143,0.311574,-0.159673,-0.190482,
-0.414693,0.0417054,0.0578432,-1.72135,-0.118692,0.0323063,0.401504,-0.246008,-0.0363494,-0.261267,-0.174442,0.835522,0.0983434,-0.240041,0,0,0,0,0,0,0,-0.409861,0.0439576,0.0629086,-1.71511,-0.149952,1.59557,1.19819,-0.367746,0.00409546,-0.390681,-0.169221,0.587272,0.0427344,-0.179883,3.1496,-38.0412,3.0359,27.3279,0.862118,2.48284,-0.183914,-0.825868,-1.47333,-2.28719,1.617,0.557643,-0.801679,-0.743144,1.21302,-0.828572,-1.03044,0.234329,-0.125977,-0.188495,
-0.409282,0.0418445,0.0635259,-1.71819,-0.132422,0.0312531,0.405022,-0.275056,-0.044441,-0.291003,-0.197162,0.991796,0.180494,-0.281016,0,0,0,0,0,0,0,-0.409861,0.0439576,0.0629086,-1.71511,-0.149952,1.59557,1.19819,-0.367746,0.00409546,-0.390681,-0.169221,0.587272,0.0427344,-0.179883,3.1496,-38.0412,3.0359,27.3279,0.862118,2.48284,-0.183914,-0.914662,-1.56886,-1.86435,1.60788,0.274454,-0.877263,-0.816848,0.967311,-0.903265,-0.83678,0.23966,-0.101181,-0.186715,
-0.423658,0.0421574,0.048399,-1.72421,-0.110365,0.0290308,0.400152,-0.226491,-0.0522741,-0.241608,-0.183293,0.825816,0.101757,-0.251365,0,0,0,0,0,0,0,-0.409861,0.0439576,0.0629086,-1.71511,-0.149952,1.59557,1.19819,-0.367746,0.00409546,-0.390681,-0.169221,0.587272,0.0427344,-0.179883,3.1496,-38.0412,3.0359,27.3279,0.862118,2.48284,-0.183914,-0.914662,-1.56886,-1.86435,1.60788,0.274454,-0.877263,-0.816848,0.967311,-0.903265,-0.83678,0.23966,-0.101181,-0.186715,
-0.424527,0.0419435,0.0474688,-1.72494,-0.107173,0.0295057,0.399152,-0.217284,-0.0534864,-0.232552,-0.182882,0.798004,0.118745,-0.250129,0,0,0,0,0,0,0,-0.409861,0.0439576,0.0629086,-1.71511,-0.149952,1.59557,1.19819,-0.367746,0.00409546,-0.390681,-0.169221,0.587272,0.0427344,-0.179883,3.1496,-38.0412,3.0359,27.3279,0.862118,2.48284,-0.183914,-0.0640494,-0.740729,-1.55957,1.1135,0.594851,-0.278331,-0.211082,0.915196,-0.321778,-0.67009,0.343611,-0.0368756,-0.183318,
-0.425361,0.0417305,0.0465744,-1.72566,-0.104102,0.0300396,0.398174,-0.208374,-0.053246,-0.223595,-0.179831,0.767741,0.133476,-0.244356,0,0,0,0,0,0,0,-0.409861,0.0439576,0.0629086,-1.71511,-0.149952,1.59557,1.19819,-0.367746,0.00409546,-0.390681,-0.169221,0.587272,0.0427344,-0.179883,3.1496,-38.0412,3.0359,27.3279,0.862118,2.48284,-0.183914,-0.0640494,-0.740729,-1.55957,1.1135,0.594851,-0.278331,-0.211082,0.915196,-0.321778,-0.67009,0.343611,-0.0368756,-0.183318,
-0.426162,0.041517,0.0457117,-1.72637,-0.101151,0.0306115,0.397206,-0.200324,-0.053365,-0.215692,-0.176838,0.737764,0.142957,-0.241931,0,0,0,0,0,0,0,-0.421422,0.0441414,0.0508371,-1.72028,-0.130364,1.5961,1.19229,-0.331858,3.00338e-05,-0.360843,-0.161374,0.603846,1.45943e-05,-0.196593,3.1258,-38.315,3.11128,27.4509,1.44897,2.60186,-0.190323,-0.0640494,-0.740729,-1.55957,1.1135,0.594851,-0.278331,-0.211082,0.915196,-0.321778,-0.67009,0.343611,-0.0368756,-0.183318,
-0.426935,0.0413018,0.0448771,-1.72707,-0.0983171,0.0312055,0.396247,-0.193144,-0.0538016,-0.20865,-0.174088,0.708509,0.148513,-0.239765,0,0,0,0,0,0,0,-0.421422,0.0441414,0.0508371,-1.72028,-0.130364,1.5961,1.19229,-0.331858,3.00338e-05,-0.360843,-0.161374,0.603846,1.45943e-05,-0.196593,3.1258,-38.315,3.11128,27.4509,1.44897,2.60186,-0.190323,-0.734217,-1.57628,-1.26895,1.63609,0.00164461,-0.877958,-0.825923,0.682678,-0.88885,-0.546661,0.388683,-0.0436849,-0.18248,
-0.427682,0.0410839,0.0440675,-1.72775,-0.0955951,0.0318103,0.395297,-0.186759,-0.0544769,-0.202392,-0.171638,0.68049,0.151186,-0.237638,0,0,0,0,0,0,0,-0.421422,0.0441414,0.0508371,-1.72028,-0.130364,1.5961,1.19229,-0.331858,3.00338e-05,-0.360843,-0.161374,0.603846,1.45943e-05,-0.196593,3.1258,-38.315,3.11128,27.4509,1.44897,2.60186,-0.190323,-0.734217,-1.57628,-1.26895,1.63609,0.00164461,-0.877958,-0.825923,0.682678,-0.88885,-0.546661,0.388683,-0.0436849,-0.18248,
-0.423523,0.0415685,0.0484826,-1.72476,-0.108588,0.0320955,0.398813,-0.228085,-0.0677741,-0.2446,-0.191598,0.991112,0.177281,-0.277659,0,0,0,0,0,0,0,-0.421422,0.0441414,0.0508371,-1.72028,-0.130364,1.5961,1.19229,-0.331858,3.00338e-05,-0.360843,-0.161374,0.603846,1.45943e-05,-0.196593,3.1258,-38.315,3.11128,27.4509,1.44897,2.60186,-0.190323,-0.959618,-0.105509,-1.83931,0.937398,0.0923587,-0.159846,-0.104402,0.749821,-0.186445,-0.808431,0.5141,-0.070663,-0.185915,
-0.433227,0.0417737,0.0382993,-1.72938,-0.094075,0.032528,0.394416,-0.186573,-0.0649903,-0.202763,-0.17569,0.755134,0.172863,-0.247196,0,0,0,0,0,0,0,-0.421422,0.0441414,0.0508371,-1.72028,-0.130364,1.5961,1.19229,-0.331858,3.00338e-05,-0.360843,-0.161374,0.603846,1.45943e-05,-0.196593,3.1258,-38.315,3.11128,27.4509,1.44897,2.60186,-0.190323,-0.959618,-0.105509,-1.83931,0.937398,0.0923587,-0.159846,-0.104402,0.749821,-0.186445,-0.808431,0.5141,-0.070663,-0.185915,
-0.433947,0.0415097,0.037514,-1.73007,-0.0910417,0.033205,0.393435,-0.17997,-0.066006,-0.196331,-0.17237,0.75832,0.169257,-0.24531,0,0,0,0,0,0,0,-0.421422,0.0441414,0.0508371,-1.72028,-0.130364,1.5961,1.19229,-0.331858,3.00338e-05,-0.360843,-0.161374,0.603846,1.45943e-05,-0.196593,3.1258,-38.315,3.11128,27.4509,1.44897,2.60186,-0.190323,-1.67619,0.182659,-2.15832,0.811959,-0.210833,-0.161077,-0.102414,0.681173,-0.190737,-0.951566,0.501346,-0.0924477,-0.189876,
-0.434642,0.0412466,0.0367528,-1.73074,-0.0879866,0.0338507,0.392469,-0.173925,-0.0657718,-0.19031,-0.167082,0.763781,0.161414,-0.241356,0,0,0,0,0,0,0,-0.431828,0.044133,0.039933,-1.72477,-0.112824,1.59621,1.18747,-0.298885,0.00155777,-0.328455,-0.125324,0.504233,-0.00108067,-0.140826,3.73279,-38.2396,3.56355,27.3001,1.63757,2.64855,-0.163772,-1.67619,0.182659,-2.15832,0.811959,-0.210833,-0.161077,-0.102414,0.681173,-0.190737,-0.951566,0.501346,-0.0924477,-0.189876,
-0.435314,0.0409807,0.0360156,-1.73139,-0.0849417,0.0344651,0.391513,-0.167969,-0.0664876,-0.184287,-0.163871,0.76122,0.153601,-0.239044,0,0,0,0,0,0,0,-0.431828,0.044133,0.039933,-1.72477,-0.112824,1.59621,1.18747,-0.298885,0.00155777,-0.328455,-0.125324,0.504233,-0.00108067,-0.140826,3.73279,-38.2396,3.56355,27.3001,1.63757,2.64855,-0.163772,-1.83002,-0.0659129,-2.18472,0.955547,-0.311536,-0.326425,-0.264386,0.663748,-0.35638,-0.944313,0.482319,-0.0778807,-0.192276,
-0.435963,0.0407105,0.0353017,-1.73204,-0.0819306,0.0350468,0.390565,-0.162169,-0.0675463,-0.178465,-0.161611,0.752789,0.145416,-0.236915,0,0,0,0,0,0,0,-0.431828,0.044133,0.039933,-1.72477,-0.112824,1.59621,1.18747,-0.298885,0.00155777,-0.328455,-0.125324,0.504233,-0.00108067,-0.140826,3.73279,-38.2396,3.56355,27.3001,1.63757,2.64855,-0.163772,-1.44811,0.0455407,-2.27634,0.938423,-0.0770517,-0.182579,-0.118761,0.771691,-0.215829,-0.949723,0.525025,-0.0424352,-0.20227,
-0.436589,0.0404356,0.0346101,-1.73268,-0.0789701,0.035596,0.389626,-0.15662,-0.0687151,-0.172922,-0.159932,0.740123,0.137316,-0.234864,0,0,0,0,0,0,0,-0.431828,0.044133,0.039933,-1.72477,-0.112824,1.59621,1.18747,-0.298885,0.00155777,-0.328455,-0.125324,0.504233,-0.00108067,-0.140826,3.73279,-38.2396,3.56355,27.3001,1.63757,2.64855,-0.163772,-1.44811,0.0455407,-2.27634,0.938423,-0.0770517,-0.182579,-0.118761,0.771691,-0.215829,-0.949723,0.525025,-0.0424352,-0.20227,
-0.433003,0.0412278,0.0384913,-1.72986,-0.0894907,0.0354991,0.393144,-0.181553,-0.0791502,-0.198334,-0.182172,0.979951,0.241899,-0.271862,0,0,0,0,0,0,0,-0.431828,0.044133,0.039933,-1.72477,-0.112824,1.59621,1.18747,-0.298885,0.00155777,-0.328455,-0.125324,0.504233,-0.00108067,-0.140826,3.73279,-38.2396,3.56355,27.3001,1.63757,2.64855,-0.163772,-0.928739,0.324615,-2.43712,0.831966,0.240274,0.0830874,0.148226,0.898535,0.0449403,-0.951219,0.583853,0.0255616,-0.211534,
-0.441943,0.0411704,0.0290795,-1.73335,-0.0778871,0.0315824,0.389801,-0.145031,-0.0778342,-0.161049,-0.169824,0.694789,0.15224,-0.245142,0,0,0,0,0,0,0,-0.440992,0.0438495,0.0298576,-1.72879,-0.0963591,1.59633,1.1829,-0.277976,-0.013123,-0.290523,-0.12405,0.483413,0.00193986,-0.122263,3.17737,-36.9939,3.0121,26.828,1.35101,2.6751,-0.224197,-0.928739,0.324615,-2.43712,0.831966,0.240274,0.0830874,0.148226,0.898535,0.0449403,-0.951219,0.583853,0.0255616,-0.211534,
-0.442486,0.0408589,0.0284723,-1.73402,-0.0752492,0.0322321,0.388839,-0.135775,-0.077873,-0.151797,-0.166707,0.659478,0.162411,-0.240426,0,0,0,0,0,0,0,-0.440992,0.0438495,0.0298576,-1.72879,-0.0963591,1.59633,1.1829,-0.277976,-0.013123,-0.290523,-0.12405,0.483413,0.00193986,-0.122263,3.17737,-36.9939,3.0121,26.828,1.35101,2.6751,-0.224197,-1.26588,-0.993392,-2.90801,1.66141,0.278418,-0.664565,-0.602646,1.20396,-0.686186,-1.13419,0.470512,0.0166718,-0.216978,
-0.442996,0.0405462,0.0278979,-1.73468,-0.0727605,0.0329031,0.387887,-0.127418,-0.0781628,-0.143595,-0.163723,0.622179,0.167752,-0.238201,0,0,0,0,0,0,0,-0.440992,0.0438495,0.0298576,-1.72879,-0.0963591,1.59633,1.1829,-0.277976,-0.013123,-0.290523,-0.12405,0.483413,0.00193986,-0.122263,3.17737,-36.9939,3.0121,26.828,1.35101,2.6751,-0.224197,-1.26588,-0.993392,-2.90801,1.66141,0.278418,-0.664565,-0.602646,1.20396,-0.686186,-1.13419,0.470512,0.0166718,-0.216978,
-0.443476,0.0402316,0.0273527,-1.73532,-0.0704254,0.0335816,0.386942,-0.119988,-0.078672,-0.136313,-0.161054,0.583774,0.169636,-0.236149,0,0,0,0,0,0,0,-0.440992,0.0438495,0.0298576,-1.72879,-0.0963591,1.59633,1.1829,-0.277976,-0.013123,-0.290523,-0.12405,0.483413,0.00193986,-0.122263,3.17737,-36.9939,3.0121,26.828,1.35101,2.6751,-0.224197,-1.83741,-1.52814,-2.71619,1.8976,-0.159648,-1.0659,-1.00315,1.0083,-1.08131,-1.04763,0.401098,0.0212914,-0.223396,
-0.44393,0.0399142,0.026833,-1.73595,-0.068244,0.0342584,0.386006,-0.11345,-0.0793287,-0.129918,-0.158766,0.545343,0.1692,-0.234096,0,0,0,0,0,0,0,-0.440992,0.0438495,0.0298576,-1.72879,-0.0963591,1.59633,1.1829,-0.277976,-0.013123,-0.290523,-0.12405,0.483413,0.00193986,-0.122263,3.17737,-36.9939,3.0121,26.828,1.35101,2.6751,-0.224197,-1.69164,-0.991068,-2.83146,1.64584,-0.0680524,-0.76423,-0.698352,1.01784,-0.787396,-1.07601,0.475118,0.0423721,-0.224874,
-0.444361,0.039594,0.0263354,-1.73658,-0.0662109,0.0349284,0.385078,-0.107795,-0.0800567,-0.124406,-0.156893,0.508285,0.167494,-0.232021,0,0,0,0,0,0,0,-0.448822,0.0432982,0.0214532,-1.73252,-0.0804662,1.5966,1.17901,-0.23991,-0.014521,-0.254436,-0.116013,0.466245,0.00286894,-0.137076,3.47889,-37.216,3.23823,26.4035,0.635983,2.622,-0.210464,-1.69164,-0.991068,-2.83146,1.64584,-0.0680524,-0.76423,-0.698352,1.01784,-0.787396,-1.07601,0.475118,0.0423721,-0.224874,
-0.441875,0.040576,0.029095,-1.73394,-0.073832,0.0356954,0.388563,-0.148007,-0.0929968,-0.165103,-0.177828,0.943346,0.249779,-0.269273,0,0,0,0,0,0,0,-0.448822,0.0432982,0.0214532,-1.73252,-0.0804662,1.5966,1.17901,-0.23991,-0.014521,-0.254436,-0.116013,0.466245,0.00286894,-0.137076,3.47889,-37.216,3.23823,26.4035,0.635983,2.622,-0.210464,-2.03732,-0.482598,-2.55635,1.23515,-0.408735,-0.578669,-0.511119,0.71179,-0.609377,-0.963643,0.438193,0.0476411,-0.227203,
-0.456494,0.0396668,0.0129933,-1.74091,-0.0517865,0.034652,0.38153,-0.114831,-0.0871359,-0.132471,-0.161585,0.622294,0.205619,-0.239212,0,0,0,0,0,0,0,-0.448822,0.0432982,0.0214532,-1.73252,-0.0804662,1.5966,1.17901,-0.23991,-0.014521,-0.254436,-0.116013,0.466245,0.00286894,-0.137076,3.47889,-37.216,3.23823,26.4035,0.635983,2.622,-0.210464,-2.03732,-0.482598,-2.55635,1.23515,-0.408735,-0.578669,-0.511119,0.71179,-0.609377,-0.963643,0.438193,0.0476411,-0.227203,
-0.456938,0.0393178,0.0124798,-1.74154,-0.0492527,0.0354567,0.380582,-0.111017,-0.0872398,-0.12836,-0.158466,0.63346,0.20117,-0.236976,0,0,0,0,0,0,0,-0.448822,0.0432982,0.0214532,-1.73252,-0.0804662,1.5966,1.17901,-0.23991,-0.014521,-0.254436,-0.116013,0.466245,0.00286894,-0.137076,3.47889,-37.216,3.23823,26.4035,0.635983,2.622,-0.210464,-2.0166,0.46395,-2.74862,0.681441,-0.25283,-0.0787852,-0.00219713,0.743212,-0.131365,-1.10121,0.409399,-0.00911419,-0.233168,
-0.457365,0.0389672,0.0119848,-1.74216,-0.0467287,0.0362336,0.379643,-0.10662,-0.0876524,-0.123767,-0.155835,0.630988,0.194212,-0.234783,0,0,0,0,0,0,0,-0.448822,0.0432982,0.0214532,-1.73252,-0.0804662,1.5966,1.17901,-0.23991,-0.014521,-0.254436,-0.116013,0.466245,0.00286894,-0.137076,3.47889,-37.216,3.23823,26.4035,0.635983,2.622,-0.210464,-2.0166,0.46395,-2.74862,0.681441,-0.25283,-0.0787852,-0.00219713,0.743212,-0.131365,-1.10121,0.409399,-0.00911419,-0.233168,
-0.457773,0.0386142,0.0115086,-1.74278,-0.0442543,0.0369759,0.378712,-0.101999,-0.0882526,-0.119037,-0.153632,0.618612,0.185596,-0.232647,0,0,0,0,0,0,0,-0.448822,0.0432982,0.0214532,-1.73252,-0.0804662,1.5966,1.17901,-0.23991,-0.014521,-0.254436,-0.116013,0.466245,0.00286894,-0.137076,3.47889,-37.216,3.23823,26.4035,0.635983,2.622,-0.210464,-2.28766,0.892745,-2.74031,0.440518,-0.402615,0.0698831,0.152151,0.647878,0.00836486,-1.14254,0.420245,-0.0527163,-0.237392,
-0.458162,0.0382584,0.011051,-1.74339,-0.0418566,0.0376807,0.37779,-0.0974233,-0.0889493,-0.114413,-0.151842,0.599428,0.17618,-0.230552,0,0,0,0,0,0,0,-0.456041,0.0425663,0.0140091,-1.73632,-0.0673597,1.5975,1.1747,-0.212538,-0.032998,-0.233667,-0.121965,0.426274,0.0542442,-0.141207,2.89569,-36.9423,2.73836,26.1813,1.1615,2.47643,-0.311172,-1.95948,0.603724,-2.91386,0.697699,-0.160337,-0.0041874,0.0752545,0.839358,-0.0590257,-1.1862,0.465994,-0.0280431,-0.244802,
-0.458129,0.036663,0.0109266,-1.74514,-0.023475,0.0455025,0.374329,-0.0657728,-0.106722,-0.0831204,-0.151226,0.762738,0.239826,-0.246542,0,0,0,0,0,0,0,-0.456041,0.0425663,0.0140091,-1.73632,-0.0673597,1.5975,1.1747,-0.212538,-0.032998,-0.233667,-0.121965,0.426274,0.0542442,-0.141207,2.89569,-36.9423,2.73836,26.1813,1.1615,2.47643,-0.311172,-1.95948,0.603724,-2.91386,0.697699,-0.160337,-0.0041874,0.0752545,0.839358,-0.0590257,-1.1862,0.465994,-0.0280431,-0.244802,
-0.456209,0.0391558,0.0132627,-1.74139,-0.0434781,0.0390112,0.380389,-0.100978,-0.100511,-0.118742,-0.166413,0.876484,0.306506,-0.261192,0,0,0,0,0,0,0,-0.456041,0.0425663,0.0140091,-1.73632,-0.0673597,1.5975,1.1747,-0.212538,-0.032998,-0.233667,-0.121965,0.426274,0.0542442,-0.141207,2.89569,-36.9423,2.73836,26.1813,1.1615,2.47643,-0.311172,-2.4499,-0.510688,-2.99299,1.3739,-0.41959,-0.692878,-0.626045,0.890087,-0.721288,-1.21389,0.415289,-0.03115,-0.251319,
-0.462471,0.0385117,0.0068011,-1.74436,-0.0392413,0.0354269,0.377487,-0.085943,-0.0949,-0.103253,-0.157745,0.584939,0.198635,-0.23449,0,0,0,0,0,0,0,-0.456041,0.0425663,0.0140091,-1.73632,-0.0673597,1.5975,1.1747,-0.212538,-0.032998,-0.233667,-0.121965,0.426274,0.0542442,-0.141207,2.89569,-36.9423,2.73836,26.1813,1.1615,2.47643,-0.311172,-2.4499,-0.510688,-2.99299,1.3739,-0.41959,-0.692878,-0.626045,0.890087,-0.721288,-1.21389,0.415289,-0.03115,-0.251319,
-0.462796,0.0381332,0.00640688,-1.74498,-0.0369073,0.0362214,0.376558,-0.0814181,-0.0946306,-0.0985542,-0.154945,0.583511,0.19863,-0.232402,0,0,0,0,0,0,0,-0.456041,0.0425663,0.0140091,-1.73632,-0.0673597,1.5975,1.1747,-0.212538,-0.032998,-0.233667,-0.121965,0.426274,0.0542442,-0.141207,2.89569,-36.9423,2.73836,26.1813,1.1615,2.47643,-0.311172,-3.45276,-1.52962,-2.51736,1.79824,-1.18598,-1.44794,-1.39005,0.542848,-1.45563,-1.05209,0.274186,-0.0626811,-0.257893,
-0.463103,0.0377546,0.00603206,-1.74559,-0.0346208,0.037001,0.375636,-0.0766726,-0.0946388,-0.0937052,-0.152339,0.571613,0.19489,-0.230358,0,0,0,0,0,0,0,-0.461642,0.041456,0.00733712,-1.74012,-0.0541892,1.59908,1.17087,-0.166912,-0.0372355,-0.183835,-0.113194,0.451715,0.0608701,-0.109557,2.99884,-37.4144,2.88911,26.6772,1.56433,2.52221,-0.26448,-3.48791,-0.909748,-2.4573,1.45347,-1.22595,-1.14173,-1.07882,0.457644,-1.15978,-1.06814,0.316975,-0.0987107,-0.269269,
-0.463391,0.0373751,0.00567625,-1.74619,-0.032412,0.0377555,0.374723,-0.0719637,-0.0948763,-0.0889514,-0.150075,0.552204,0.188638,-0.228351,0,0,0,0,0,0,0,-0.461642,0.041456,0.00733712,-1.74012,-0.0541892,1.59908,1.17087,-0.166912,-0.0372355,-0.183835,-0.113194,0.451715,0.0608701,-0.109557,2.99884,-37.4144,2.88911,26.6772,1.56433,2.52221,-0.26448,-3.48791,-0.909748,-2.4573,1.45347,-1.22595,-1.14173,-1.07882,0.457644,-1.15978,-1.06814,0.316975,-0.0987107,-0.269269,
-0.463661,0.0369941,0.00533838,-1.74678,-0.0303008,0.0384793,0.373817,-0.0674826,-0.0952657,-0.084468,-0.148208,0.527804,0.180945,-0.226365,0,0,0,0,0,0,0,-0.461642,0.041456,0.00733712,-1.74012,-0.0541892,1.59908,1.17087,-0.166912,-0.0372355,-0.183835,-0.113194,0.451715,0.0608701,-0.109557,2.99884,-37.4144,2.88911,26.6772,1.56433,2.52221,-0.26448,-2.60628,0.934893,-2.27277,0.461511,-0.912861,-0.00974768,0.0605901,0.307094,-0.0513243,-0.946526,0.568256,-0.0404573,-0.278499,
-0.463914,0.0366111,0.00501681,-1.74737,-0.0282978,0.0391708,0.37292,-0.0633783,-0.0957294,-0.0803942,-0.146781,0.500747,0.172883,-0.224382,0,0,0,0,0,0,0,-0.461642,0.041456,0.00733712,-1.74012,-0.0541892,1.59908,1.17087,-0.166912,-0.0372355,-0.183835,-0.113194,0.451715,0.0608701,-0.109557,2.99884,-37.4144,2.88911,26.6772,1.56433,2.52221,-0.26448,-2.60628,0.934893,-2.27277,0.461511,-0.912861,-0.00974768,0.0605901,0.307094,-0.0513243,-0.946526,0.568256,-0.0404573,-0.278499,
-0.462434,0.0379188,0.00680328,-1.74498,-0.0306088,0.040505,0.376367,-0.080842,-0.110147,-0.0985256,-0.164787,0.868118,0.316785,-0.256034,0,0,0,0,0,0,0,-0.461642,0.041456,0.00733712,-1.74012,-0.0541892,1.59908,1.17087,-0.166912,-0.0372355,-0.183835,-0.113194,0.451715,0.0608701,-0.109557,2.99884,-37.4144,2.88911,26.6772,1.56433,2.52221,-0.26448,-2.06907,0.541448,-2.39619,0.724333,-0.542217,-0.0708806,-0.00464504,0.538857,-0.107139,-0.962616,0.561953,-0.00898269,-0.284754,
-0.466493,0.0370359,0.0016814,-1.74808,-0.0264104,0.0381468,0.373865,-0.06267,-0.10236,-0.0803871,-0.156038,0.572058,0.22151,-0.230612,0,0,0,0,0,0,0,-0.461642,0.041456,0.00733712,-1.74012,-0.0541892,1.59908,1.17087,-0.166912,-0.0372355,-0.183835,-0.113194,0.451715,0.0608701,-0.109557,2.99884,-37.4144,2.88911,26.6772,1.56433,2.52221,-0.26448,-2.06907,0.541448,-2.39619,0.724333,-0.542217,-0.0708806,-0.00464504,0.538857,-0.107139,-0.962616,0.561953,-0.00898269,-0.284754,
