PerkyPenguin/Analysis-on-Approximated-Derivatives/Code_and_Data/PaperData/Real_Robot/Scene_1/set_interval/6/trajectory.csv
Commanded Joint 0 Position,Commanded Joint 1 Position,Commanded Joint 2 Position,Commanded Joint 3 Position,Commanded Joint 4 Position,Commanded Joint 5 Position,Commanded Joint 6 Position,Commanded Joint 0 Velocity,Commanded Joint 1 Velocity,Commanded Joint 2 Velocity,Commanded Joint 3 Velocity,Commanded Joint 4 Velocity,Commanded Joint 5 Velocity,Commanded Joint 6 Velocity,Commanded Joint 0 Torque,Commanded Joint 1 Torque,Commanded Joint 2 Torque,Commanded Joint 3 Torque,Commanded Joint 4 Torque,Commanded Joint 5 Torque,Commanded Joint 6 Torque,Actual Joint 0 Position,Actual Joint 1 Position,Actual Joint 2 Position,Actual Joint 3 Position,Actual Joint 4 Position,Actual Joint 5 Position,Actual Joint 6 Position,Actual Joint 0 Velocity,Actual Joint 1 Velocity,Actual Joint 2 Velocity,Actual Joint 3 Velocity,Actual Joint 4 Velocity,Actual Joint 5 Velocity,Actual Joint 6 Velocity,Actual Joint 0 Torque,Actual Joint 1 Torque,Actual Joint 2 Torque,Actual Joint 3 Torque,Actual Joint 4 Torque,Actual Joint 5 Torque,Actual Joint 6 Torque,EE ext force 0,EE ext force 1,EE ext force 2,EE ext force 3,EE ext force 4,EE ext force 5,joint ext torque 0,joint ext torque 1,joint ext torque 2,joint ext torque 3,joint ext torque 4,joint ext torque 5,joint ext torque 6,
0.0133714,-0.196859,-0.331529,-1.66265,-0.0944197,-0.0908767,-0.383524,-0.00238123,0.0173857,-0.0123666,-0.151247,0.00211525,0.200576,-0.00215063,0,0,0,0,0,0,0,0.0133826,-0.196895,-0.331434,-1.66112,-0.0944043,1.47791,0.401896,-0.000617485,-0.00232177,-0.00143422,0.00121183,0.00267159,-0.000819981,0.000643847,-0.0718349,-25.6593,1.88936,25.9076,0.489498,2.97997,-0.0703886,-1.55597,0.0631036,-0.465869,0.0155625,-0.69794,-0.194823,-0.0993915,-0.186516,-0.278831,-0.306609,-0.12599,-0.321263,-0.0458577,
0.0133569,-0.196715,-0.33159,-1.66329,-0.0944137,-0.0900454,-0.383532,-0.0036318,0.0358385,-0.0152558,-0.160334,0.0014912,0.207839,-0.00204617,0,0,0,0,0,0,0,0.0133807,-0.196902,-0.331433,-1.66112,-0.0943936,1.47791,0.401896,-0.00282909,-0.000666397,-0.000637657,-0.00134669,0.000539361,0.00124906,0.000873324,-0.0440639,-25.5602,1.88936,25.9552,0.397946,2.9406,-0.0630644,-1.24096,0.130745,-0.651693,0.00608119,-0.383231,-0.107297,-0.0129824,0.0232012,-0.195164,-0.420132,-0.110163,-0.327,-0.046977,
0.0133656,-0.196906,-0.331451,-1.66113,-0.0944079,-0.092884,-0.383502,-0.000696648,-0.000253188,-0.000840736,-1.51007e-05,-0.00123808,-0.000274587,2.71727e-05,0,0,0,0,0,0,0,0.0133807,-0.196902,-0.331433,-1.66112,-0.0943936,1.47791,0.401896,-0.00282909,-0.000666397,-0.000637657,-0.00134669,0.000539361,0.00124906,0.000873324,-0.0440639,-25.5602,1.88936,25.9552,0.397946,2.9406,-0.0630644,-1.24096,0.130745,-0.651693,0.00608119,-0.383231,-0.107297,-0.0129824,0.0232012,-0.195164,-0.420132,-0.110163,-0.327,-0.046977,
0.0133632,-0.196907,-0.331454,-1.66113,-0.094413,-0.0928852,-0.383502,-0.000588823,-0.000259094,-0.000711453,1.32673e-05,-0.00129085,-0.000293877,2.2643e-05,0,0,0,0,0,0,0,0.0133807,-0.196902,-0.331433,-1.66112,-0.0943936,1.47791,0.401896,-0.00282909,-0.000666397,-0.000637657,-0.00134669,0.000539361,0.00124906,0.000873324,-0.0440639,-25.5602,1.88936,25.9552,0.397946,2.9406,-0.0630644,-1.76453,0.0337628,-0.438157,0.029572,-0.87611,-0.24446,-0.146534,-0.29544,-0.330182,-0.263998,-0.129753,-0.31445,-0.0458193,
0.0133612,-0.196908,-0.331456,-1.66112,-0.0944182,-0.0928864,-0.383501,-0.000501143,-0.000265297,-0.00060836,3.0813e-05,-0.00128728,-0.000299155,1.90423e-05,0,0,0,0,0,0,0,0.0133807,-0.196902,-0.331433,-1.66112,-0.0943936,1.47791,0.401896,-0.00282909,-0.000666397,-0.000637657,-0.00134669,0.000539361,0.00124906,0.000873324,-0.0440639,-25.5602,1.88936,25.9552,0.397946,2.9406,-0.0630644,-1.80157,0.111497,-1.06153,0.0512293,-0.695925,-0.213409,-0.117283,-0.103344,-0.307996,-0.468589,-0.132197,-0.290676,-0.0461714,
0.0133595,-0.196909,-0.331458,-1.66112,-0.0944232,-0.0928876,-0.383501,-0.000429193,-0.00027068,-0.000525178,4.28846e-05,-0.00124831,-0.000298446,1.61869e-05,0,0,0,0,0,0,0,0.0133807,-0.196902,-0.331433,-1.66112,-0.0943936,1.47791,0.401896,-0.00282909,-0.000666397,-0.000637657,-0.00134669,0.000539361,0.00124906,0.000873324,-0.0440639,-25.5602,1.88936,25.9552,0.397946,2.9406,-0.0630644,-1.80157,0.111497,-1.06153,0.0512293,-0.695925,-0.213409,-0.117283,-0.103344,-0.307996,-0.468589,-0.132197,-0.290676,-0.0461714,
0.013358,-0.19691,-0.33146,-1.66112,-0.0944279,-0.0928888,-0.383501,-0.000369568,-0.000275185,-0.000457268,5.17648e-05,-0.00118843,-0.000295495,1.39136e-05,0,0,0,0,0,0,0,0.0133806,-0.196882,-0.33143,-1.6615,-0.0943957,1.47854,0.401891,0.000429237,0.00152989,0.002338,-0.00109401,0.00187031,0.0110466,-0.000774542,-0.0440639,-25.8855,1.83778,26.5543,0.416256,3.19237,-0.0227812,-2.85061,0.328501,-1.29213,-0.0739329,-1.41862,-0.299841,-0.19841,-0.476217,-0.385978,-0.434258,-0.127732,-0.300525,-0.0456242,
0.0133567,-0.196912,-0.331462,-1.66112,-0.0944324,-0.0928899,-0.383501,-0.000319686,-0.000279,-0.000401204,5.85647e-05,-0.00111744,-0.000292145,1.20884e-05,0,0,0,0,0,0,0,0.0133806,-0.196882,-0.33143,-1.6615,-0.0943957,1.47854,0.401891,0.000429237,0.00152989,0.002338,-0.00109401,0.00187031,0.0110466,-0.000774542,-0.0440639,-25.8855,1.83778,26.5543,0.416256,3.19237,-0.0227812,-2.85061,0.328501,-1.29213,-0.0739329,-1.41862,-0.299841,-0.19841,-0.476217,-0.385978,-0.434258,-0.127732,-0.300525,-0.0456242,
0.0133556,-0.196913,-0.331463,-1.66112,-0.0944366,-0.0928911,-0.383501,-0.000277593,-0.000282319,-0.000354446,6.39045e-05,-0.00104185,-0.000289303,1.06081e-05,0,0,0,0,0,0,0,0.0133806,-0.196882,-0.33143,-1.6615,-0.0943957,1.47854,0.401891,0.000429237,0.00152989,0.002338,-0.00109401,0.00187031,0.0110466,-0.000774542,-0.0440639,-25.8855,1.83778,26.5543,0.416256,3.19237,-0.0227812,-1.26432,-0.191415,-1.57541,0.352055,-0.12124,-0.253331,-0.152229,0.289468,-0.391437,-0.694921,-0.1341,-0.256924,-0.0453224,
0.0133546,-0.196914,-0.331465,-1.66112,-0.0944404,-0.0928922,-0.383501,-0.000241802,-0.000285285,-0.000315094,6.81712e-05,-0.00096587,-0.000287378,9.39468e-06,0,0,0,0,0,0,0,0.0133806,-0.196882,-0.33143,-1.6615,-0.0943957,1.47854,0.401891,0.000429237,0.00152989,0.002338,-0.00109401,0.00187031,0.0110466,-0.000774542,-0.0440639,-25.8855,1.83778,26.5543,0.416256,3.19237,-0.0227812,-1.09251,0.031772,-1.19011,0.137353,-0.17195,-0.11903,-0.0188647,0.183403,-0.231232,-0.535237,-0.103248,-0.221299,-0.0483188,
0.0133538,-0.196915,-0.331466,-1.66112,-0.094444,-0.0928934,-0.383501,-0.000211169,-0.000287999,-0.00028171,7.16256e-05,-0.000892164,-0.0002865,8.39015e-06,0,0,0,0,0,0,0,0.0133806,-0.196882,-0.33143,-1.6615,-0.0943957,1.47854,0.401891,0.000429237,0.00152989,0.002338,-0.00109401,0.00187031,0.0110466,-0.000774542,-0.0440639,-25.8855,1.83778,26.5543,0.416256,3.19237,-0.0227812,-1.09251,0.031772,-1.19011,0.137353,-0.17195,-0.11903,-0.0188647,0.183403,-0.231232,-0.535237,-0.103248,-0.221299,-0.0483188,
0.0133531,-0.196916,-0.331467,-1.66112,-0.0944473,-0.0928945,-0.383501,-0.000184804,-0.000290521,-0.000253196,7.44524e-05,-0.00082231,-0.00028665,7.55087e-06,0,0,0,0,0,0,0,0.0133806,-0.196882,-0.33143,-1.6615,-0.0943957,1.47854,0.401891,0.000429237,0.00152989,0.002338,-0.00109401,0.00187031,0.0110466,-0.000774542,-0.0440639,-25.8855,1.83778,26.5543,0.416256,3.19237,-0.0227812,-1.14911,0.113279,-1.0997,0.0543617,-0.245315,-0.0922841,0.0143335,0.129217,-0.199471,-0.495694,-0.111074,-0.223092,-0.0475345,
0.0133524,-0.196917,-0.331468,-1.66112,-0.0944503,-0.0928957,-0.383501,-0.000162006,-0.000292889,-0.000228702,7.6786e-05,-0.00075717,-0.000287724,6.84387e-06,0,0,0,0,0,0,0,0.0133715,-0.19689,-0.331436,-1.66142,-0.0943882,1.47855,0.401897,0.000144713,-0.00374521,-0.000152914,0.00466367,0.00310551,-0.00314455,0.000995383,0.0551182,-25.6355,1.93696,25.6339,0.349423,3.11913,-0.0703886,-1.14911,0.113279,-1.0997,0.0543617,-0.245315,-0.0922841,0.0143335,0.129217,-0.199471,-0.495694,-0.111074,-0.223092,-0.0475345,
0.0133518,-0.196919,-0.331468,-1.66112,-0.0944531,-0.0928968,-0.383501,-0.000142215,-0.000295125,-0.000207559,7.87269e-05,-0.000697128,-0.000289583,6.24402e-06,0,0,0,0,0,0,0,0.0133715,-0.19689,-0.331436,-1.66142,-0.0943882,1.47855,0.401897,0.000144713,-0.00374521,-0.000152914,0.00466367,0.00310551,-0.00314455,0.000995383,0.0551182,-25.6355,1.93696,25.6339,0.349423,3.11913,-0.0703886,-2.10815,0.239367,-1.03155,-0.0684889,-0.988785,-0.204529,-0.0849119,-0.294638,-0.303651,-0.372671,-0.137176,-0.244322,-0.0464901,
0.0133513,-0.19692,-0.331469,-1.66112,-0.0944557,-0.092898,-0.383501,-0.000124979,-0.000297242,-0.000189236,8.03511e-05,-0.000642256,-0.000292075,5.73191e-06,0,0,0,0,0,0,0,0.0133715,-0.19689,-0.331436,-1.66142,-0.0943882,1.47855,0.401897,0.000144713,-0.00374521,-0.000152914,0.00466367,0.00310551,-0.00314455,0.000995383,0.0551182,-25.6355,1.93696,25.6339,0.349423,3.11913,-0.0703886,-2.10815,0.239367,-1.03155,-0.0684889,-0.988785,-0.204529,-0.0849119,-0.294638,-0.303651,-0.372671,-0.137176,-0.244322,-0.0464901,
0.0133509,-0.196921,-0.33147,-1.66112,-0.094458,-0.0928992,-0.383501,-0.000109928,-0.000299247,-0.000173306,8.17175e-05,-0.000592429,-0.000295054,5.29236e-06,0,0,0,0,0,0,0,0.0133715,-0.19689,-0.331436,-1.66142,-0.0943882,1.47855,0.401897,0.000144713,-0.00374521,-0.000152914,0.00466367,0.00310551,-0.00314455,0.000995383,0.0551182,-25.6355,1.93696,25.6339,0.349423,3.11913,-0.0703886,-1.8677,0.289916,-0.963486,-0.0918411,-0.818295,-0.141025,-0.0225304,-0.204043,-0.23942,-0.392469,-0.114252,-0.260625,-0.0454456,
0.0133505,-0.196922,-0.331471,-1.66112,-0.0944602,-0.0929004,-0.383501,-9.67562e-05,-0.000301146,-0.000159419,8.28721e-05,-0.000547404,-0.000298384,4.9134e-06,0,0,0,0,0,0,0,0.0133715,-0.19689,-0.331436,-1.66142,-0.0943882,1.47855,0.401897,0.000144713,-0.00374521,-0.000152914,0.00466367,0.00310551,-0.00314455,0.000995383,0.0551182,-25.6355,1.93696,25.6339,0.349423,3.11913,-0.0703886,-1.62751,0.227384,-0.784447,-0.057462,-0.693848,-0.128526,-0.0148751,-0.159494,-0.22579,-0.362921,-0.102852,-0.268228,-0.04524,
0.0133502,-0.196923,-0.331471,-1.66112,-0.0944623,-0.0929016,-0.383501,-8.52086e-05,-0.000302942,-0.000147288,8.38513e-05,-0.000506869,-0.000301947,4.58543e-06,0,0,0,0,0,0,0,0.013379,-0.19681,-0.331435,-1.66137,-0.0944071,1.47856,0.401895,-0.0010044,-0.00363003,-0.000544035,0.00651049,0.00271814,-0.0034081,-0.000171828,-0.0202602,-25.6871,1.91316,25.7568,0.514218,3.09258,-0.0566557,-1.62751,0.227384,-0.784447,-0.057462,-0.693848,-0.128526,-0.0148751,-0.159494,-0.22579,-0.362921,-0.102852,-0.268228,-0.04524,
0.0133499,-0.196925,-0.331472,-1.66112,-0.0944641,-0.0929028,-0.383501,-7.507e-05,-0.000304639,-0.000136674,8.46846e-05,-0.000470482,-0.000305643,4.30068e-06,0,0,0,0,0,0,0,0.013379,-0.19681,-0.331435,-1.66137,-0.0944071,1.47856,0.401895,-0.0010044,-0.00363003,-0.000544035,0.00651049,0.00271814,-0.0034081,-0.000171828,-0.0202602,-25.6871,1.91316,25.7568,0.514218,3.09258,-0.0566557,-1.39982,0.126236,-1.16388,0.074607,-0.361316,-0.132861,-0.0229247,0.096142,-0.246765,-0.547388,-0.109918,-0.28213,-0.0464643,
0.0133496,-0.196926,-0.331472,-1.66112,-0.0944659,-0.092904,-0.383501,-6.61577e-05,-0.000306242,-0.000127373,8.53958e-05,-0.000437893,-0.000309389,4.05279e-06,0,0,0,0,0,0,0,0.013379,-0.19681,-0.331435,-1.66137,-0.0944071,1.47856,0.401895,-0.0010044,-0.00363003,-0.000544035,0.00651049,0.00271814,-0.0034081,-0.000171828,-0.0202602,-25.6871,1.91316,25.7568,0.514218,3.09258,-0.0566557,-1.39982,0.126236,-1.16388,0.074607,-0.361316,-0.132861,-0.0229247,0.096142,-0.246765,-0.547388,-0.109918,-0.28213,-0.0464643,
0.0133494,-0.196927,-0.331473,-1.66112,-0.0944675,-0.0929053,-0.383501,-5.83157e-05,-0.000307754,-0.000119216,8.60047e-05,-0.000408757,-0.000313118,3.83652e-06,0,0,0,0,0,0,0,0.013379,-0.19681,-0.331435,-1.66137,-0.0944071,1.47856,0.401895,-0.0010044,-0.00363003,-0.000544035,0.00651049,0.00271814,-0.0034081,-0.000171828,-0.0202602,-25.6871,1.91316,25.7568,0.514218,3.09258,-0.0566557,-2.18617,0.0112105,-0.738527,0.0695949,-1.11526,-0.325858,-0.215557,-0.395395,-0.426641,-0.296872,-0.146855,-0.28644,-0.0456124,
0.0133492,-0.196928,-0.331473,-1.66112,-0.0944691,-0.0929066,-0.383501,-5.14098e-05,-0.00030918,-0.000112057,8.65275e-05,-0.000382744,-0.000316777,3.64747e-06,0,0,0,0,0,0,0,0.013379,-0.19681,-0.331435,-1.66137,-0.0944071,1.47856,0.401895,-0.0010044,-0.00363003,-0.000544035,0.00651049,0.00271814,-0.0034081,-0.000171828,-0.0202602,-25.6871,1.91316,25.7568,0.514218,3.09258,-0.0566557,-2.06561,0.133996,-0.440845,-0.0676005,-1.13868,-0.251425,-0.151713,-0.456986,-0.325666,-0.193149,-0.139288,-0.279822,-0.0453561,
0.013349,-0.196929,-0.331474,-1.66112,-0.0944705,-0.0929078,-0.383501,-4.53241e-05,-0.000310526,-0.000105769,8.69779e-05,-0.000359546,-0.000320326,3.48197e-06,0,0,0,0,0,0,0,0.0134072,-0.196773,-0.331402,-1.66138,-0.0944261,1.47858,0.401895,0.00229152,0.00334331,0.0042707,-0.000268786,-0.00686528,-0.000793749,-0.00130298,-0.274166,-25.9847,1.7386,26.3281,0.6488,3.03948,-0.0163725,-2.06561,0.133996,-0.440845,-0.0676005,-1.13868,-0.251425,-0.151713,-0.456986,-0.325666,-0.193149,-0.139288,-0.279822,-0.0453561,
0.0133488,-0.196931,-0.331474,-1.66112,-0.0944718,-0.0929091,-0.383501,-3.99583e-05,-0.000311796,-0.000100246,8.73673e-05,-0.000338875,-0.000323735,3.33688e-06,0,0,0,0,0,0,0,0.0134072,-0.196773,-0.331402,-1.66138,-0.0944261,1.47858,0.401895,0.00229152,0.00334331,0.0042707,-0.000268786,-0.00686528,-0.000793749,-0.00130298,-0.274166,-25.9847,1.7386,26.3281,0.6488,3.03948,-0.0163725,-1.31103,0.0898977,-0.900714,0.0646111,-0.37433,-0.138865,-0.054304,0.055522,-0.226694,-0.474665,-0.109708,-0.296506,-0.0461589,
0.0133487,-0.196932,-0.331474,-1.66112,-0.0944731,-0.0929104,-0.383501,-3.52249e-05,-0.000312996,-9.53932e-05,8.77054e-05,-0.000320468,-0.000326984,3.20955e-06,0,0,0,0,0,0,0,0.0134072,-0.196773,-0.331402,-1.66138,-0.0944261,1.47858,0.401895,0.00229152,0.00334331,0.0042707,-0.000268786,-0.00686528,-0.000793749,-0.00130298,-0.274166,-25.9847,1.7386,26.3281,0.6488,3.03948,-0.0163725,-1.31103,0.0898977,-0.900714,0.0646111,-0.37433,-0.138865,-0.054304,0.055522,-0.226694,-0.474665,-0.109708,-0.296506,-0.0461589,
0.0133486,-0.196933,-0.331475,-1.66112,-0.0944743,-0.0929118,-0.383501,-3.10478e-05,-0.000314131,-9.1129e-05,8.80003e-05,-0.000304087,-0.000330059,3.09769e-06,0,0,0,0,0,0,0,0.0134072,-0.196773,-0.331402,-1.66138,-0.0944261,1.47858,0.401895,0.00229152,0.00334331,0.0042707,-0.000268786,-0.00686528,-0.000793749,-0.00130298,-0.274166,-25.9847,1.7386,26.3281,0.6488,3.03948,-0.0163725,-1.34336,0.105651,-0.711604,0.0282303,-0.472387,-0.138373,-0.0624865,-0.0307846,-0.212547,-0.398142,-0.103444,-0.294652,-0.046958,
0.0133485,-0.196934,-0.331475,-1.66112,-0.0944755,-0.0929131,-0.383501,-2.73603e-05,-0.000315207,-8.73826e-05,8.82591e-05,-0.000289513,-0.000332953,2.99936e-06,0,0,0,0,0,0,0,0.0134072,-0.196773,-0.331402,-1.66138,-0.0944261,1.47858,0.401895,0.00229152,0.00334331,0.0042707,-0.000268786,-0.00686528,-0.000793749,-0.00130298,-0.274166,-25.9847,1.7386,26.3281,0.6488,3.03948,-0.0163725,-1.34336,0.105651,-0.711604,0.0282303,-0.472387,-0.138373,-0.0624865,-0.0307846,-0.212547,-0.398142,-0.103444,-0.294652,-0.046958,
0.013249,-0.196852,-0.331539,-1.66101,-0.0928913,-0.0938105,-0.383501,-0.0121253,0.00348841,-0.0111261,0.00947497,0.170923,-0.105339,0.000386254,0,0,0,0,0,0,0,0.0134072,-0.196773,-0.331402,-1.66138,-0.0944261,1.47858,0.401895,0.00229152,0.00334331,0.0042707,-0.000268786,-0.00686528,-0.000793749,-0.00130298,-0.274166,-25.9847,1.7386,26.3281,0.6488,3.03948,-0.0163725,-1.31108,-0.00854673,-0.698531,0.0939514,-0.447462,-0.183399,-0.112255,-0.016679,-0.258114,-0.396245,-0.124663,-0.292603,-0.0486611,
0.0133133,-0.196691,-0.331464,-1.66127,-0.0929663,-0.0931375,-0.383504,-0.00954371,0.0058223,-0.00814904,0.00861947,0.16866,-0.104079,0.000264977,0,0,0,0,0,0,0,0.0133946,-0.196828,-0.331398,-1.66134,-0.0944134,1.47858,0.401897,-0.000872819,0.000812155,0.000435048,0.00131631,-0.00289015,0.00013247,0.000768829,-0.0956386,-25.338,1.86159,25.8798,0.575558,3.01293,-0.0630644,-1.06657,0.0156877,-0.773929,0.0851764,-0.242064,-0.128967,-0.0632805,0.107661,-0.200298,-0.442028,-0.120078,-0.280172,-0.0492046,
0.0132743,-0.196674,-0.331501,-1.66124,-0.0921628,-0.0936352,-0.383503,-0.00974318,0.0042713,-0.00914441,0.0071128,0.200874,-0.124414,0.000408961,0,0,0,0,0,0,0,0.0133946,-0.196828,-0.331398,-1.66134,-0.0944134,1.47858,0.401897,-0.000872819,0.000812155,0.000435048,0.00131631,-0.00289015,0.00013247,0.000768829,-0.0956386,-25.338,1.86159,25.8798,0.575558,3.01293,-0.0630644,-1.06657,0.0156877,-0.773929,0.0851764,-0.242064,-0.128967,-0.0632805,0.107661,-0.200298,-0.442028,-0.120078,-0.280172,-0.0492046,
0.0132368,-0.196663,-0.331538,-1.66122,-0.0912602,-0.0941998,-0.383501,-0.0093756,0.00288047,-0.00929509,0.00567961,0.225635,-0.141157,0.00049189,0,0,0,0,0,0,0,0.0133946,-0.196828,-0.331398,-1.66134,-0.0944134,1.47858,0.401897,-0.000872819,0.000812155,0.000435048,0.00131631,-0.00289015,0.00013247,0.000768829,-0.0956386,-25.338,1.86159,25.8798,0.575558,3.01293,-0.0630644,-1.37677,-0.00977169,-0.467314,0.0632478,-0.604995,-0.197628,-0.132118,-0.151564,-0.260816,-0.28246,-0.114852,-0.273416,-0.0474225,
0.0132021,-0.196656,-0.331574,-1.6612,-0.0902809,-0.0948197,-0.383498,-0.00867537,0.00172931,-0.00891752,0.0044454,0.244822,-0.154975,0.000537072,0,0,0,0,0,0,0,0.0133946,-0.196828,-0.331398,-1.66134,-0.0944134,1.47858,0.401897,-0.000872819,0.000812155,0.000435048,0.00131631,-0.00289015,0.00013247,0.000768829,-0.0956386,-25.338,1.86159,25.8798,0.575558,3.01293,-0.0630644,-1.37677,-0.00977169,-0.467314,0.0632478,-0.604995,-0.197628,-0.132118,-0.151564,-0.260816,-0.28246,-0.114852,-0.273416,-0.0474225,
0.0131709,-0.196652,-0.331607,-1.66119,-0.0892418,-0.0954851,-0.383496,-0.00779287,0.000816578,-0.00822336,0.00341392,0.259789,-0.166343,0.000557959,0,0,0,0,0,0,0,0.0133946,-0.196828,-0.331398,-1.66134,-0.0944134,1.47858,0.401897,-0.000872819,0.000812155,0.000435048,0.00131631,-0.00289015,0.00013247,0.000768829,-0.0956386,-25.338,1.86159,25.8798,0.575558,3.01293,-0.0630644,-1.04074,-0.282003,-0.486244,0.299588,-0.3437,-0.261057,-0.191157,-0.00441287,-0.355485,-0.333306,-0.0939294,-0.274454,-0.0470025,
0.0131436,-0.196652,-0.331636,-1.66118,-0.0881557,-0.0961876,-0.383494,-0.00682585,0.000115611,-0.00735404,0.00255763,0.271524,-0.175646,0.000562971,0,0,0,0,0,0,0,0.0133523,-0.196786,-0.331422,-1.66126,-0.0937995,1.47857,0.401894,-0.00134098,0.00814746,-0.000431284,-0.00055305,0.0538179,0.00153958,0.000359702,0.285221,-25.8617,2.08772,26.1298,1.11847,2.95983,-0.0429228,-1.04074,-0.282003,-0.486244,0.299588,-0.3437,-0.261057,-0.191157,-0.00441287,-0.355485,-0.333306,-0.0939294,-0.274454,-0.0470025,
0.0131203,-0.196654,-0.331662,-1.66117,-0.0870326,-0.0969205,-0.383492,-0.00583748,-0.000406188,-0.00640327,0.00184558,0.280758,-0.183208,0.000557845,0,0,0,0,0,0,0,0.0133523,-0.196786,-0.331422,-1.66126,-0.0937995,1.47857,0.401894,-0.00134098,0.00814746,-0.000431284,-0.00055305,0.0538179,0.00153958,0.000359702,0.285221,-25.8617,2.08772,26.1298,1.11847,2.95983,-0.0429228,-0.992808,-0.191737,-0.427117,0.306981,-0.353985,-0.21035,-0.127601,-0.0320099,-0.323864,-0.318386,-0.00569248,-0.277244,-0.0462755,
0.0131008,-0.196657,-0.331684,-1.66116,-0.0858805,-0.0976777,-0.38349,-0.00486782,-0.000780473,-0.00543223,0.00125085,0.288032,-0.189306,0.000546096,0,0,0,0,0,0,0,0.0133523,-0.196786,-0.331422,-1.66126,-0.0937995,1.47857,0.401894,-0.00134098,0.00814746,-0.000431284,-0.00055305,0.0538179,0.00153958,0.000359702,0.285221,-25.8617,2.08772,26.1298,1.11847,2.95983,-0.0429228,-1.39405,-0.270374,-0.223662,0.374173,-0.755182,-0.314346,-0.211939,-0.301443,-0.449775,-0.191552,0.0282273,-0.275763,-0.0459022,
0.013085,-0.196661,-0.331701,-1.66116,-0.0847055,-0.0984544,-0.383487,-0.00394136,-0.00103561,-0.00447982,0.000751701,0.293757,-0.194176,0.000530485,0,0,0,0,0,0,0,0.0133523,-0.196786,-0.331422,-1.66126,-0.0937995,1.47857,0.401894,-0.00134098,0.00814746,-0.000431284,-0.00055305,0.0538179,0.00153958,0.000359702,0.285221,-25.8617,2.08772,26.1298,1.11847,2.95983,-0.0429228,-1.39405,-0.270374,-0.223662,0.374173,-0.755182,-0.314346,-0.211939,-0.301443,-0.449775,-0.191552,0.0282273,-0.275763,-0.0459022,
0.0130728,-0.196666,-0.331716,-1.66116,-0.0835125,-0.0992465,-0.383485,-0.00307208,-0.00119608,-0.00356979,0.000330989,0.298241,-0.19802,0.00051267,0,0,0,0,0,0,0,0.0133523,-0.196786,-0.331422,-1.66126,-0.0937995,1.47857,0.401894,-0.00134098,0.00814746,-0.000431284,-0.00055305,0.0538179,0.00153958,0.000359702,0.285221,-25.8617,2.08772,26.1298,1.11847,2.95983,-0.0429228,-0.938021,-0.316237,-0.370435,0.503427,-0.356583,-0.252502,-0.139521,-0.0569309,-0.420913,-0.315278,0.0982869,-0.288967,-0.0458887,
0.0130637,-0.196671,-0.331727,-1.66116,-0.0823056,-0.100051,-0.383483,-0.00226697,-0.00128257,-0.0027157,-2.48154e-05,0.301724,-0.201008,0.000493988,0,0,0,0,0,0,0,0.0133287,-0.196794,-0.331461,-1.66126,-0.0912402,1.4785,0.401888,7.96232e-05,8.55211e-05,4.60244e-05,-0.000570919,0.104013,-0.00225869,-0.00163064,0.336795,-25.6871,2.1869,26.1298,1.03332,2.9406,0.00376909,-0.938021,-0.316237,-0.370435,0.503427,-0.356583,-0.252502,-0.139521,-0.0569309,-0.420913,-0.315278,0.0982869,-0.288967,-0.0458887,
0.0130576,-0.196676,-0.331734,-1.66116,-0.0810881,-0.100864,-0.383482,-0.00152838,-0.00131226,-0.00192427,-0.000326419,0.30439,-0.203283,0.000475026,0,0,0,0,0,0,0,0.0133287,-0.196794,-0.331461,-1.66126,-0.0912402,1.4785,0.401888,7.96232e-05,8.55211e-05,4.60244e-05,-0.000570919,0.104013,-0.00225869,-0.00163064,0.336795,-25.6871,2.1869,26.1298,1.03332,2.9406,0.00376909,-0.939569,-0.0868222,-0.191484,0.38844,-0.44056,-0.150488,-0.0327952,-0.140198,-0.317067,-0.257812,0.189271,-0.301015,-0.0437833,
0.0130542,-0.196681,-0.331739,-1.66116,-0.0798625,-0.101684,-0.38348,-0.000855728,-0.00129925,-0.00119771,-0.000582378,0.306383,-0.204967,0.00045634,0,0,0,0,0,0,0,0.0133287,-0.196794,-0.331461,-1.66126,-0.0912402,1.4785,0.401888,7.96232e-05,8.55211e-05,4.60244e-05,-0.000570919,0.104013,-0.00225869,-0.00163064,0.336795,-25.6871,2.1869,26.1298,1.03332,2.9406,0.00376909,-0.801651,-0.0389194,-0.173026,0.420593,-0.334138,-0.104938,0.0164498,-0.0806034,-0.285008,-0.295211,0.255589,-0.329387,-0.0429219,
0.0130532,-0.196686,-0.331741,-1.66117,-0.0786313,-0.102508,-0.383478,-0.000246561,-0.00125496,-0.000535362,-0.000799601,0.307817,-0.206159,0.000438333,0,0,0,0,0,0,0,0.0133287,-0.196794,-0.331461,-1.66126,-0.0912402,1.4785,0.401888,7.96232e-05,8.55211e-05,4.60244e-05,-0.000570919,0.104013,-0.00225869,-0.00163064,0.336795,-25.6871,2.1869,26.1298,1.03332,2.9406,0.00376909,-0.801651,-0.0389194,-0.173026,0.420593,-0.334138,-0.104938,0.0164498,-0.0806034,-0.285008,-0.295211,0.255589,-0.329387,-0.0429219,
0.0130544,-0.196691,-0.331741,-1.66117,-0.0773961,-0.103336,-0.383476,0.000302662,-0.00118858,6.52338e-05,-0.00098372,0.308785,-0.206944,0.000421129,0,0,0,0,0,0,0,0.0133287,-0.196794,-0.331461,-1.66126,-0.0912402,1.4785,0.401888,7.96232e-05,8.55211e-05,4.60244e-05,-0.000570919,0.104013,-0.00225869,-0.00163064,0.336795,-25.6871,2.1869,26.1298,1.03332,2.9406,0.00376909,-0.530229,0.0986595,-0.173023,0.400125,-0.107557,0.00601999,0.129708,0.055094,-0.183408,-0.368684,0.333847,-0.371115,-0.0437155,
0.0130576,-0.196695,-0.331739,-1.66117,-0.0761587,-0.104165,-0.383475,0.000796048,-0.00110739,0.000607576,-0.00113938,0.309359,-0.207391,0.000404861,0,0,0,0,0,0,0,0.0133287,-0.196794,-0.331461,-1.66126,-0.0912402,1.4785,0.401888,7.96232e-05,8.55211e-05,4.60244e-05,-0.000570919,0.104013,-0.00225869,-0.00163064,0.336795,-25.6871,2.1869,26.1298,1.03332,2.9406,0.00376909,-0.530229,0.0986595,-0.173023,0.400125,-0.107557,0.00601999,0.129708,0.055094,-0.183408,-0.368684,0.333847,-0.371115,-0.0437155,
0.0130625,-0.196699,-0.331734,-1.66118,-0.0749203,-0.104996,-0.383473,0.00123793,-0.00101713,0.00109571,-0.00127045,0.3096,-0.207558,0.000389461,0,0,0,0,0,0,0,0.0133182,-0.196787,-0.331475,-1.66125,-0.0862531,1.47829,0.401892,-0.000435924,0.000701238,0.00128551,0.000920106,0.124676,-0.0108491,-0.00109146,0.435978,-25.7863,2.1869,25.983,1.35742,2.70806,-0.0301054,-0.941595,0.234424,0.0842161,0.294337,-0.516914,-0.0042321,0.125844,-0.216916,-0.186321,-0.23768,0.36708,-0.387982,-0.0440441,
0.013069,-0.196703,-0.331728,-1.66118,-0.0736821,-0.105826,-0.383472,0.00163268,-0.000922219,0.0015339,-0.00138018,0.309558,-0.207494,0.00037518,0,0,0,0,0,0,0,0.0133182,-0.196787,-0.331475,-1.66125,-0.0862531,1.47829,0.401892,-0.000435924,0.000701238,0.00128551,0.000920106,0.124676,-0.0108491,-0.00109146,0.435978,-25.7863,2.1869,25.983,1.35742,2.70806,-0.0301054,-0.658175,0.211823,-0.123335,0.394153,-0.188377,0.0361244,0.163137,0.0162127,-0.162726,-0.396021,0.406941,-0.434125,-0.0449627,
0.013077,-0.196706,-0.33172,-1.66119,-0.072445,-0.106655,-0.38347,0.00198451,-0.000826051,0.00192641,-0.00147131,0.309273,-0.207238,0.000361816,0,0,0,0,0,0,0,0.0133182,-0.196787,-0.331475,-1.66125,-0.0862531,1.47829,0.401892,-0.000435924,0.000701238,0.00128551,0.000920106,0.124676,-0.0108491,-0.00109146,0.435978,-25.7863,2.1869,25.983,1.35742,2.70806,-0.0301054,-0.658175,0.211823,-0.123335,0.394153,-0.188377,0.0361244,0.163137,0.0162127,-0.162726,-0.396021,0.406941,-0.434125,-0.0449627,
0.0130862,-0.196709,-0.331711,-1.6612,-0.0712098,-0.107482,-0.383469,0.00229743,-0.000731165,0.00227736,-0.00154619,0.30878,-0.206824,0.000349293,0,0,0,0,0,0,0,0.0133182,-0.196787,-0.331475,-1.66125,-0.0862531,1.47829,0.401892,-0.000435924,0.000701238,0.00128551,0.000920106,0.124676,-0.0108491,-0.00109146,0.435978,-25.7863,2.1869,25.983,1.35742,2.70806,-0.0301054,-0.93612,0.337839,0.0994382,0.306075,-0.459838,0.0414203,0.159679,-0.161513,-0.140637,-0.316096,0.440865,-0.472786,-0.0440171,
0.0130965,-0.196712,-0.331701,-1.6612,-0.0699774,-0.108307,-0.383467,0.0025752,-0.000639419,0.00259067,-0.00160682,0.308108,-0.206279,0.000337643,0,0,0,0,0,0,0,0.0133182,-0.196787,-0.331475,-1.66125,-0.0862531,1.47829,0.401892,-0.000435924,0.000701238,0.00128551,0.000920106,0.124676,-0.0108491,-0.00109146,0.435978,-25.7863,2.1869,25.983,1.35742,2.70806,-0.0301054,-0.93612,0.337839,0.0994382,0.306075,-0.459838,0.0414203,0.159679,-0.161513,-0.140637,-0.316096,0.440865,-0.472786,-0.0440171,
0.0131078,-0.196714,-0.331689,-1.66121,-0.0687483,-0.10913,-0.383466,0.0028213,-0.000552128,0.00286999,-0.00165493,0.30728,-0.205624,0.000326767,0,0,0,0,0,0,0,0.0133728,-0.19679,-0.331422,-1.66125,-0.0820612,1.47817,0.401894,0.00223041,0.00249667,0.00167691,-0.00102963,0.136264,-0.000169951,0.000489915,-0.119442,-25.7347,1.78621,26.0544,1.29608,2.66137,-0.0429228,-0.98359,0.0672445,0.143294,0.48818,-0.486591,-0.0906614,0.0176995,-0.173052,-0.279663,-0.314549,0.411691,-0.491244,-0.0440801,
0.0131199,-0.196716,-0.331677,-1.66122,-0.067523,-0.109949,-0.383465,0.00303892,-0.000470188,0.00311869,-0.00169203,0.306319,-0.20488,0.000316634,0,0,0,0,0,0,0,0.0133728,-0.19679,-0.331422,-1.66125,-0.0820612,1.47817,0.401894,0.00223041,0.00249667,0.00167691,-0.00102963,0.136264,-0.000169951,0.000489915,-0.119442,-25.7347,1.78621,26.0544,1.29608,2.66137,-0.0429228,-0.98359,0.0672445,0.143294,0.48818,-0.486591,-0.0906614,0.0176995,-0.173052,-0.279663,-0.314549,0.411691,-0.491244,-0.0440801,
0.0131328,-0.196718,-0.331664,-1.66122,-0.0663021,-0.110765,-0.383464,0.00323095,-0.00039415,0.00333987,-0.00171941,0.305241,-0.204061,0.000307167,0,0,0,0,0,0,0,0.0133728,-0.19679,-0.331422,-1.66125,-0.0820612,1.47817,0.401894,0.00223041,0.00249667,0.00167691,-0.00102963,0.136264,-0.000169951,0.000489915,-0.119442,-25.7347,1.78621,26.0544,1.29608,2.66137,-0.0429228,-0.653273,0.0709997,0.110747,0.499308,-0.197995,-0.0318224,0.0595671,0.00649573,-0.210483,-0.388836,0.418011,-0.512706,-0.0449336,
0.0131464,-0.196719,-0.331649,-1.66123,-0.0650858,-0.111578,-0.383462,0.00340005,-0.000324323,0.00353636,-0.00173823,0.304061,-0.20318,0.00029826,0,0,0,0,0,0,0,0.0133728,-0.19679,-0.331422,-1.66125,-0.0820612,1.47817,0.401894,0.00223041,0.00249667,0.00167691,-0.00102963,0.136264,-0.000169951,0.000489915,-0.119442,-25.7347,1.78621,26.0544,1.29608,2.66137,-0.0429228,-0.653273,0.0709997,0.110747,0.499308,-0.197995,-0.0318224,0.0595671,0.00649573,-0.210483,-0.388836,0.418011,-0.512706,-0.0449336,
0.0131403,-0.196597,-0.331581,-1.66095,-0.0898954,-0.0959174,-0.383473,-0.024991,0.0106454,-0.0204779,0.0329697,0.521091,-0.41451,0.00326646,0,0,0,0,0,0,0,0.0133728,-0.19679,-0.331422,-1.66125,-0.0820612,1.47817,0.401894,0.00223041,0.00249667,0.00167691,-0.00102963,0.136264,-0.000169951,0.000489915,-0.119442,-25.7347,1.78621,26.0544,1.29608,2.66137,-0.0429228,-0.99451,-0.167571,0.235393,0.631516,-0.480355,-0.201744,-0.120195,-0.162294,-0.378646,-0.319207,0.375207,-0.52938,-0.0443431,
0.0131504,-0.196636,-0.331571,-1.66087,-0.0764653,-0.0961267,-0.383475,-0.0203927,0.00920023,-0.0165644,0.0304319,0.589773,-0.39329,0.00311181,0,0,0,0,0,0,0,0.0133728,-0.19679,-0.331422,-1.66125,-0.0820612,1.47817,0.401894,0.00223041,0.00249667,0.00167691,-0.00102963,0.136264,-0.000169951,0.000489915,-0.119442,-25.7347,1.78621,26.0544,1.29608,2.66137,-0.0429228,-0.75997,0.000774383,0.115344,0.519412,-0.244923,-0.0852792,-0.0176293,-0.00328264,-0.242077,-0.399997,0.37755,-0.537609,-0.0444712,
0.0130742,-0.196619,-0.331638,-1.66077,-0.0737551,-0.0979857,-0.383461,-0.0190506,0.0042972,-0.0167498,0.0243043,0.677558,-0.464745,0.00339674,0,0,0,0,0,0,0,0.0133792,-0.1968,-0.331394,-1.66123,-0.0772931,1.4781,0.401895,-0.000141515,0.00302564,0.00164894,-0.00175338,0.149452,-2.78319e-05,0.000705503,-0.0718349,-25.6355,1.81398,25.9076,1.09466,2.64214,-0.0566557,-0.75997,0.000774383,0.115344,0.519412,-0.244923,-0.0852792,-0.0176293,-0.00328264,-0.242077,-0.399997,0.37755,-0.537609,-0.0444712,
0.0130076,-0.196618,-0.3317,-1.6607,-0.0707668,-0.100071,-0.383447,-0.0166505,0.000239011,-0.0153494,0.0183999,0.747056,-0.521218,0.0035469,0,0,0,0,0,0,0,0.0133792,-0.1968,-0.331394,-1.66123,-0.0772931,1.4781,0.401895,-0.000141515,0.00302564,0.00164894,-0.00175338,0.149452,-2.78319e-05,0.000705503,-0.0718349,-25.6355,1.81398,25.9076,1.09466,2.64214,-0.0566557,-0.937346,-0.189986,0.122003,0.641404,-0.356989,-0.20403,-0.146533,-0.0563678,-0.361124,-0.396501,0.344679,-0.556538,-0.0441049,
0.0129529,-0.196629,-0.331752,-1.66065,-0.0675563,-0.102334,-0.383433,-0.0136927,-0.00282833,-0.0130074,0.0132291,0.802634,-0.565891,0.00361701,0,0,0,0,0,0,0,0.0133792,-0.1968,-0.331394,-1.66123,-0.0772931,1.4781,0.401895,-0.000141515,0.00302564,0.00164894,-0.00175338,0.149452,-2.78319e-05,0.000705503,-0.0718349,-25.6355,1.81398,25.9076,1.09466,2.64214,-0.0566557,-0.937346,-0.189986,0.122003,0.641404,-0.356989,-0.20403,-0.146533,-0.0563678,-0.361124,-0.396501,0.344679,-0.556538,-0.0441049,
0.0129109,-0.196649,-0.331792,-1.66061,-0.0641664,-0.104738,-0.383418,-0.0104846,-0.00500148,-0.0101469,0.00883907,0.847474,-0.601018,0.00363604,0,0,0,0,0,0,0,0.0133792,-0.1968,-0.331394,-1.66123,-0.0772931,1.4781,0.401895,-0.000141515,0.00302564,0.00164894,-0.00175338,0.149452,-2.78319e-05,0.000705503,-0.0718349,-25.6355,1.81398,25.9076,1.09466,2.64214,-0.0566557,-0.779646,-0.531872,0.591351,0.810399,-0.414469,-0.32874,-0.268622,-0.167266,-0.496157,-0.228941,0.318897,-0.541853,-0.0446758,
0.012882,-0.196675,-0.33182,-1.66059,-0.0606307,-0.107252,-0.383404,-0.00721998,-0.00643528,-0.00704679,0.00514824,0.883935,-0.628349,0.00362132,0,0,0,0,0,0,0,0.0133792,-0.1968,-0.331394,-1.66123,-0.0772931,1.4781,0.401895,-0.000141515,0.00302564,0.00164894,-0.00175338,0.149452,-2.78319e-05,0.000705503,-0.0718349,-25.6355,1.81398,25.9076,1.09466,2.64214,-0.0566557,-0.340353,-0.918511,0.89701,1.11744,-0.169128,-0.421868,-0.348967,-0.0713831,-0.633405,-0.204133,0.359119,-0.574317,-0.0453477,
0.012866,-0.196704,-0.331836,-1.66058,-0.0569755,-0.109849,-0.383389,-0.00402069,-0.00728288,-0.00388916,0.00205181,0.91379,-0.649292,0.0035845,0,0,0,0,0,0,0,0.013253,-0.196736,-0.331525,-1.66108,-0.0686369,1.47692,0.401893,-0.00627156,0.00192922,-0.00662856,0.00177638,0.371761,-0.0622099,-0.00143382,0.94379,-26.0085,2.6114,25.9552,1.85821,2.13769,-0.00996382,-0.340353,-0.918511,0.89701,1.11744,-0.169128,-0.421868,-0.348967,-0.0713831,-0.633405,-0.204133,0.359119,-0.574317,-0.0453477,
0.0128621,-0.196735,-0.331839,-1.66058,-0.053222,-0.112509,-0.383375,-0.000961397,-0.00767824,-0.000790767,-0.000547101,0.938383,-0.665004,0.00353305,0,0,0,0,0,0,0,0.013253,-0.196736,-0.331525,-1.66108,-0.0686369,1.47692,0.401893,-0.00627156,0.00192922,-0.00662856,0.00177638,0.371761,-0.0622099,-0.00143382,0.94379,-26.0085,2.6114,25.9552,1.85821,2.13769,-0.00996382,-0.597161,-0.66081,1.14807,1.01396,-0.408766,-0.34427,-0.24659,-0.226885,-0.574469,-0.168158,0.466996,-0.666169,-0.0450467,
0.0128698,-0.196766,-0.331831,-1.66059,-0.049387,-0.115215,-0.383361,0.00191473,-0.00773282,0.00217605,-0.00273053,0.958744,-0.676434,0.00347298,0,0,0,0,0,0,0,0.013253,-0.196736,-0.331525,-1.66108,-0.0686369,1.47692,0.401893,-0.00627156,0.00192922,-0.00662856,0.00177638,0.371761,-0.0622099,-0.00143382,0.94379,-26.0085,2.6114,25.9552,1.85821,2.13769,-0.00996382,-0.597161,-0.66081,1.14807,1.01396,-0.408766,-0.34427,-0.24659,-0.226885,-0.574469,-0.168158,0.466996,-0.666169,-0.0450467,
0.0128881,-0.196796,-0.331811,-1.66061,-0.0454843,-0.117952,-0.383348,0.00458547,-0.00753713,0.00496919,-0.00456614,0.975671,-0.684365,0.00340738,0,0,0,0,0,0,0,0.013253,-0.196736,-0.331525,-1.66108,-0.0686369,1.47692,0.401893,-0.00627156,0.00192922,-0.00662856,0.00177638,0.371761,-0.0622099,-0.00143382,0.94379,-26.0085,2.6114,25.9552,1.85821,2.13769,-0.00996382,-0.530352,-0.328515,1.34172,0.837533,-0.392713,-0.174056,-0.0564344,-0.233543,-0.411605,-0.169434,0.560407,-0.734666,-0.0459866,
0.0129163,-0.196825,-0.33178,-1.66064,-0.0415252,-0.12071,-0.383334,0.00704262,-0.0071634,0.00756686,-0.00610934,0.989785,-0.689439,0.00333907,0,0,0,0,0,0,0,0.013253,-0.196736,-0.331525,-1.66108,-0.0686369,1.47692,0.401893,-0.00627156,0.00192922,-0.00662856,0.00177638,0.371761,-0.0622099,-0.00143382,0.94379,-26.0085,2.6114,25.9552,1.85821,2.13769,-0.00996382,-0.530352,-0.328515,1.34172,0.837533,-0.392713,-0.174056,-0.0564344,-0.233543,-0.411605,-0.169434,0.560407,-0.734666,-0.0459866,
0.0129534,-0.196851,-0.331741,-1.66067,-0.0375189,-0.123479,-0.383321,0.0092871,-0.00666858,0.00996081,-0.00740558,1.00158,-0.692185,0.00326972,0,0,0,0,0,0,0,0.013253,-0.196736,-0.331525,-1.66108,-0.0686369,1.47692,0.401893,-0.00627156,0.00192922,-0.00662856,0.00177638,0.371761,-0.0622099,-0.00143382,0.94379,-26.0085,2.6114,25.9552,1.85821,2.13769,-0.00996382,-0.525662,-0.155414,1.62316,0.763848,-0.454091,-0.0874188,0.0404062,-0.296915,-0.332058,-0.13239,0.645681,-0.803808,-0.0469604,
0.0129987,-0.196876,-0.331692,-1.6607,-0.0334731,-0.126251,-0.383308,0.0113255,-0.00609696,0.0121517,-0.00849221,1.01144,-0.693038,0.00320064,0,0,0,0,0,0,0,0.0129554,-0.196754,-0.3319,-1.66095,-0.0527612,1.47354,0.401897,-0.0169425,-0.00269529,-0.0137328,0.00193867,0.582391,-0.139357,-0.000143861,1.40003,-25.6593,3.06367,25.733,1.92505,2.07177,-0.0301054,-0.404817,-0.0635322,1.76505,0.766719,-0.388635,-0.018073,0.120693,-0.272812,-0.279933,-0.146009,0.728113,-0.856566,-0.0458197,
0.0130514,-0.196897,-0.331635,-1.66074,-0.0293944,-0.12902,-0.383296,0.0131682,-0.00548256,0.0141458,-0.00940013,1.01968,-0.692352,0.00313289,0,0,0,0,0,0,0,0.0129554,-0.196754,-0.3319,-1.66095,-0.0527612,1.47354,0.401897,-0.0169425,-0.00269529,-0.0137328,0.00193867,0.582391,-0.139357,-0.000143861,1.40003,-25.6593,3.06367,25.733,1.92505,2.07177,-0.0301054,-0.404817,-0.0635322,1.76505,0.766719,-0.388635,-0.018073,0.120693,-0.272812,-0.279933,-0.146009,0.728113,-0.856566,-0.0458197,
0.0131107,-0.196917,-0.331572,-1.66078,-0.0252882,-0.131782,-0.383284,0.0148273,-0.00485118,0.0159528,-0.0101552,1.02655,-0.69042,0.00306643,0,0,0,0,0,0,0,0.0129554,-0.196754,-0.3319,-1.66095,-0.0527612,1.47354,0.401897,-0.0169425,-0.00269529,-0.0137328,0.00193867,0.582391,-0.139357,-0.000143861,1.40003,-25.6593,3.06367,25.733,1.92505,2.07177,-0.0301054,-0.0326693,0.278665,1.55797,0.683858,-0.00600135,0.207903,0.36026,-0.0153579,-0.0764489,-0.32945,0.868271,-0.921306,-0.0434563,
0.013176,-0.196934,-0.331501,-1.66082,-0.0211591,-0.134532,-0.383272,0.0163158,-0.00422195,0.0175844,-0.0107789,1.03227,-0.687481,0.00300209,0,0,0,0,0,0,0,0.0129554,-0.196754,-0.3319,-1.66095,-0.0527612,1.47354,0.401897,-0.0169425,-0.00269529,-0.0137328,0.00193867,0.582391,-0.139357,-0.000143861,1.40003,-25.6593,3.06367,25.733,1.92505,2.07177,-0.0301054,-0.0326693,0.278665,1.55797,0.683858,-0.00600135,0.207903,0.36026,-0.0153579,-0.0764489,-0.32945,0.868271,-0.921306,-0.0434563,
0.0132466,-0.196948,-0.331425,-1.66087,-0.0170112,-0.137267,-0.38326,0.0176472,-0.00360881,0.0190529,-0.0112894,1.037,-0.683731,0.00293997,0,0,0,0,0,0,0,0.0129554,-0.196754,-0.3319,-1.66095,-0.0527612,1.47354,0.401897,-0.0169425,-0.00269529,-0.0137328,0.00193867,0.582391,-0.139357,-0.000143861,1.40003,-25.6593,3.06367,25.733,1.92505,2.07177,-0.0301054,-0.486698,0.327018,1.72998,0.691011,-0.383039,0.153083,0.314595,-0.242041,-0.141963,-0.268487,0.920475,-0.980271,-0.0389431,
0.0133219,-0.19696,-0.331343,-1.66091,-0.0128477,-0.139984,-0.383248,0.0188346,-0.00302153,0.0203713,-0.0117021,1.04088,-0.679329,0.00287984,0,0,0,0,0,0,0,0.012597,-0.196779,-0.332255,-1.66089,-0.0332325,1.46779,0.401897,-0.0126033,-0.00348797,-0.00831571,0.00312046,0.640486,-0.209435,-0.000415854,1.32465,-25.3856,2.96449,25.5069,1.88842,2.05804,-0.0365141,-0.486698,0.327018,1.72998,0.691011,-0.383039,0.153083,0.314595,-0.242041,-0.141963,-0.268487,0.920475,-0.980271,-0.0389431,
0.0134015,-0.19697,-0.331257,-1.66096,-0.00867154,-0.142682,-0.383237,0.0198904,-0.00246675,0.021552,-0.0120303,1.04403,-0.674408,0.00282186,0,0,0,0,0,0,0,0.012597,-0.196779,-0.332255,-1.66089,-0.0332325,1.46779,0.401897,-0.0126033,-0.00348797,-0.00831571,0.00312046,0.640486,-0.209435,-0.000415854,1.32465,-25.3856,2.96449,25.5069,1.88842,2.05804,-0.0365141,-0.733703,-0.0840622,1.80833,0.9906,-0.569746,-0.0691029,0.101645,-0.349004,-0.399178,-0.243205,0.897339,-1.00869,-0.0376919,
0.0134848,-0.196978,-0.331167,-1.66101,-0.00448535,-0.145358,-0.383226,0.0208267,-0.0019486,0.022607,-0.012285,1.04655,-0.669076,0.00276601,0,0,0,0,0,0,0,0.012597,-0.196779,-0.332255,-1.66089,-0.0332325,1.46779,0.401897,-0.0126033,-0.00348797,-0.00831571,0.00312046,0.640486,-0.209435,-0.000415854,1.32465,-25.3856,2.96449,25.5069,1.88842,2.05804,-0.0365141,-0.353715,0.167762,1.64959,0.891466,-0.195878,0.117839,0.29077,-0.101578,-0.21528,-0.388768,0.963002,-1.05155,-0.0370384,
0.0135714,-0.196984,-0.331073,-1.66106,-0.000291256,-0.148012,-0.383215,0.0216546,-0.00146934,0.0235476,-0.0124761,1.04852,-0.663418,0.00271217,0,0,0,0,0,0,0,0.012597,-0.196779,-0.332255,-1.66089,-0.0332325,1.46779,0.401897,-0.0126033,-0.00348797,-0.00831571,0.00312046,0.640486,-0.209435,-0.000415854,1.32465,-25.3856,2.96449,25.5069,1.88842,2.05804,-0.0365141,-0.353715,0.167762,1.64959,0.891466,-0.195878,0.117839,0.29077,-0.101578,-0.21528,-0.388768,0.963002,-1.05155,-0.0370384,
0.0136609,-0.196988,-0.330975,-1.66111,0.00390884,-0.150642,-0.383204,0.0223842,-0.0010298,0.0243845,-0.012612,1.05002,-0.657507,0.00266062,0,0,0,0,0,0,0,0.012597,-0.196779,-0.332255,-1.66089,-0.0332325,1.46779,0.401897,-0.0126033,-0.00348797,-0.00831571,0.00312046,0.640486,-0.209435,-0.000415854,1.32465,-25.3856,2.96449,25.5069,1.88842,2.05804,-0.0365141,-0.518375,0.207395,1.78263,0.846984,-0.351812,0.113866,0.291345,-0.202555,-0.216728,-0.341067,0.96206,-1.07338,-0.0360387,
0.013753,-0.19699,-0.330875,-1.66116,0.00811328,-0.153247,-0.383194,0.0230251,-0.000629798,0.0251275,-0.0126999,1.05111,-0.651401,0.00261034,0,0,0,0,0,0,0,0.0123259,-0.196786,-0.332345,-1.66089,-0.0125316,1.46063,0.401898,-0.0153529,-0.00149867,-0.000815285,0.00133975,0.690842,-0.248559,0.00138108,1.32465,-25.3856,2.93672,25.5585,2.06512,1.87951,-0.0703886,-0.518375,0.207395,1.78263,0.846984,-0.351812,0.113866,0.291345,-0.202555,-0.216728,-0.341067,0.96206,-1.07338,-0.0360387,
0.0138474,-0.196992,-0.330771,-1.66121,0.0123206,-0.155828,-0.383184,0.0235859,-0.000268333,0.0257855,-0.0127463,1.05184,-0.645146,0.00256212,0,0,0,0,0,0,0,0.0123259,-0.196786,-0.332345,-1.66089,-0.0125316,1.46063,0.401898,-0.0153529,-0.00149867,-0.000815285,0.00133975,0.690842,-0.248559,0.00138108,1.32465,-25.3856,2.93672,25.5585,2.06512,1.87951,-0.0703886,-0.00331694,0.224703,1.57793,0.84022,0.141603,0.220821,0.397676,0.119417,-0.111855,-0.490467,0.936309,-1.08373,-0.0373499,
0.0139437,-0.196991,-0.330666,-1.66126,0.0165296,-0.158383,-0.383174,0.0240747,5.61148e-05,0.0263669,-0.0127568,1.05224,-0.638779,0.00251542,0,0,0,0,0,0,0,0.0123259,-0.196786,-0.332345,-1.66089,-0.0125316,1.46063,0.401898,-0.0153529,-0.00149867,-0.000815285,0.00133975,0.690842,-0.248559,0.00138108,1.32465,-25.3856,2.93672,25.5585,2.06512,1.87951,-0.0703886,-0.521706,0.0499263,1.61296,0.896347,-0.238872,0.058173,0.235469,-0.0884254,-0.270854,-0.426562,0.852981,-1.0924,-0.0365085,
0.0140495,-0.196884,-0.330665,-1.66115,-0.0781196,-0.0981099,-0.383358,0.0791673,-0.0148102,0.0895643,0.00195561,0.417048,-0.632444,0.0120393,0,0,0,0,0,0,0,0.0123259,-0.196786,-0.332345,-1.66089,-0.0125316,1.46063,0.401898,-0.0153529,-0.00149867,-0.000815285,0.00133975,0.690842,-0.248559,0.00138108,1.32465,-25.3856,2.93672,25.5585,2.06512,1.87951,-0.0703886,-0.521706,0.0499263,1.61296,0.896347,-0.238872,0.058173,0.235469,-0.0884254,-0.270854,-0.426562,0.852981,-1.0924,-0.0365085,
0.0131229,-0.197005,-0.331522,-1.66094,-0.00448101,-0.117451,-0.383342,0.0928752,-0.0239413,0.10044,-0.0104574,0.681563,-0.748638,0.0126342,0,0,0,0,0,0,0,0.0123259,-0.196786,-0.332345,-1.66089,-0.0125316,1.46063,0.401898,-0.0153529,-0.00149867,-0.000815285,0.00133975,0.690842,-0.248559,0.00138108,1.32465,-25.3856,2.93672,25.5585,2.06512,1.87951,-0.0703886,-1.08155,0.18067,1.67306,0.692333,-0.678273,0.0259002,0.191041,-0.338724,-0.260184,-0.322995,0.761702,-1.08008,-0.0366551,
0.0135735,-0.19711,-0.331026,-1.66101,-0.00165842,-0.120874,-0.383294,0.112654,-0.0262083,0.12401,-0.0179821,0.705647,-0.855655,0.012001,0,0,0,0,0,0,0,0.0123259,-0.196786,-0.332345,-1.66089,-0.0125316,1.46063,0.401898,-0.0153529,-0.00149867,-0.000815285,0.00133975,0.690842,-0.248559,0.00138108,1.32465,-25.3856,2.93672,25.5585,2.06512,1.87951,-0.0703886,-1.08155,0.18067,1.67306,0.692333,-0.678273,0.0259002,0.191041,-0.338724,-0.260184,-0.322995,0.761702,-1.08008,-0.0366551,
0.0140894,-0.197216,-0.330454,-1.66111,0.00127785,-0.124647,-0.383248,0.128956,-0.0265977,0.143109,-0.0251764,0.734069,-0.94326,0.0114766,0,0,0,0,0,0,0,0.0124031,-0.196795,-0.332246,-1.66093,0.0181615,1.44885,0.4019,0.0150373,-0.00692774,0.0162787,-0.00346684,0.617832,-0.277567,0.00095273,0.741459,-25.338,2.93672,26.2051,0.373226,2.66137,-0.0630644,-0.530329,0.316458,1.38205,0.580463,-0.174685,0.182509,0.328426,-0.0165675,-0.0781325,-0.451959,0.730374,-1.03594,-0.0358858,
0.0146595,-0.197319,-0.329819,-1.66124,0.00433425,-0.128708,-0.383204,0.142535,-0.0256213,0.158777,-0.0318275,0.764099,-1.01518,0.0110346,0,0,0,0,0,0,0,0.0124031,-0.196795,-0.332246,-1.66093,0.0181615,1.44885,0.4019,0.0150373,-0.00692774,0.0162787,-0.00346684,0.617832,-0.277567,0.00095273,0.741459,-25.338,2.93672,26.2051,0.373226,2.66137,-0.0630644,-0.530329,0.316458,1.38205,0.580463,-0.174685,0.182509,0.328426,-0.0165675,-0.0781325,-0.451959,0.730374,-1.03594,-0.0358858,
0.0152753,-0.197414,-0.329131,-1.66139,0.00751023,-0.133005,-0.383161,0.15395,-0.0236931,0.171775,-0.037862,0.793996,-1.07434,0.0106534,0,0,0,0,0,0,0,0.0124031,-0.196795,-0.332246,-1.66093,0.0181615,1.44885,0.4019,0.0150373,-0.00692774,0.0162787,-0.00346684,0.617832,-0.277567,0.00095273,0.741459,-25.338,2.93672,26.2051,0.373226,2.66137,-0.0630644,-1.11351,-0.0385503,1.40976,0.722677,-0.643735,-0.0874239,0.0545888,-0.291548,-0.34368,-0.327331,0.605827,-0.985857,-0.0262579,
0.0159298,-0.197498,-0.328401,-1.66156,0.010801,-0.137497,-0.38312,0.163618,-0.0211329,0.182661,-0.0432684,0.822693,-1.12304,0.0103171,0,0,0,0,0,0,0,0.0124031,-0.196795,-0.332246,-1.66093,0.0181615,1.44885,0.4019,0.0150373,-0.00692774,0.0162787,-0.00346684,0.617832,-0.277567,0.00095273,0.741459,-25.338,2.93672,26.2051,0.373226,2.66137,-0.0630644,-1.07944,-1.65238,1.21067,1.59816,-0.518074,-0.813132,-0.695119,-0.180031,-1.10141,-0.318604,0.203752,-0.872868,-0.0217664,
0.0166172,-0.197571,-0.327633,-1.66175,0.0141993,-0.14215,-0.38308,0.171854,-0.0181822,0.191852,-0.0480652,0.849575,-1.16318,0.010014,0,0,0,0,0,0,0,0.0124031,-0.196795,-0.332246,-1.66093,0.0181615,1.44885,0.4019,0.0150373,-0.00692774,0.0162787,-0.00346684,0.617832,-0.277567,0.00095273,0.741459,-25.338,2.93672,26.2051,0.373226,2.66137,-0.0630644,-1.07944,-1.65238,1.21067,1.59816,-0.518074,-0.813132,-0.695119,-0.180031,-1.10141,-0.318604,0.203752,-0.872868,-0.0217664,
0.0173328,-0.197631,-0.326835,-1.66196,0.0176966,-0.146935,-0.383041,0.178901,-0.0150211,0.19966,-0.052286,0.874331,-1.19624,0.00973649,0,0,0,0,0,0,0,0.0135204,-0.196828,-0.33085,-1.66089,0.0356681,1.43805,0.401899,0.042353,-0.00356669,0.049584,0.00614532,0.556829,-0.414637,-0.000340265,1.83246,-25.2348,4.08723,24.9356,1.47918,1.58745,-0.0227812,-0.886597,-1.09017,1.55417,0.995059,-0.54018,-0.526871,-0.440101,-0.259164,-0.712971,-0.130343,0.119304,-0.799264,-0.020759,
0.0180726,-0.197678,-0.326009,-1.66219,0.021284,-0.151829,-0.383003,0.184946,-0.0117818,0.206323,-0.0559715,0.896846,-1.22346,0.00947821,0,0,0,0,0,0,0,0.0135204,-0.196828,-0.33085,-1.66089,0.0356681,1.43805,0.401899,0.042353,-0.00356669,0.049584,0.00614532,0.556829,-0.414637,-0.000340265,1.83246,-25.2348,4.08723,24.9356,1.47918,1.58745,-0.0227812,-0.886597,-1.09017,1.55417,0.995059,-0.54018,-0.526871,-0.440101,-0.259164,-0.712971,-0.130343,0.119304,-0.799264,-0.020759,
0.0188332,-0.197715,-0.325161,-1.66243,0.0249528,-0.156766,-0.382966,0.190149,-0.00928923,0.212151,-0.0614701,0.917198,-1.23424,0.00929123,0,0,0,0,0,0,0,0.0135204,-0.196828,-0.33085,-1.66089,0.0356681,1.43805,0.401899,0.042353,-0.00356669,0.049584,0.00614532,0.556829,-0.414637,-0.000340265,1.83246,-25.2348,4.08723,24.9356,1.47918,1.58745,-0.0227812,-0.910573,-0.763716,1.64535,0.724363,-0.530837,-0.375859,-0.313213,-0.238306,-0.512824,-0.148213,0.104457,-0.859612,-0.0186701,
0.0196118,-0.197742,-0.324292,-1.6627,0.0286945,-0.161704,-0.38293,0.194656,-0.00669393,0.217106,-0.066597,0.935437,-1.23464,0.00910703,0,0,0,0,0,0,0,0.0135204,-0.196828,-0.33085,-1.66089,0.0356681,1.43805,0.401899,0.042353,-0.00356669,0.049584,0.00614532,0.556829,-0.414637,-0.000340265,1.83246,-25.2348,4.08723,24.9356,1.47918,1.58745,-0.0227812,-0.632476,-0.627469,1.13069,0.713726,-0.0386567,-0.258212,-0.205295,0.16118,-0.396912,-0.461153,0.100588,-0.949309,-0.0172034,
0.0204059,-0.197757,-0.323407,-1.66298,0.032501,-0.166618,-0.382894,0.198529,-0.00387535,0.22132,-0.0707507,0.951624,-1.22847,0.00892184,0,0,0,0,0,0,0,0.0135204,-0.196828,-0.33085,-1.66089,0.0356681,1.43805,0.401899,0.042353,-0.00356669,0.049584,0.00614532,0.556829,-0.414637,-0.000340265,1.83246,-25.2348,4.08723,24.9356,1.47918,1.58745,-0.0227812,-0.632476,-0.627469,1.13069,0.713726,-0.0386567,-0.258212,-0.205295,0.16118,-0.396912,-0.461153,0.100588,-0.949309,-0.0172034,
0.0212133,-0.197761,-0.322508,-1.66328,0.0363645,-0.17149,-0.382859,0.20184,-0.000946887,0.224914,-0.0739493,0.965863,-1.21788,0.00874056,0,0,0,0,0,0,0,0.0135204,-0.196828,-0.33085,-1.66089,0.0356681,1.43805,0.401899,0.042353,-0.00356669,0.049584,0.00614532,0.556829,-0.414637,-0.000340265,1.83246,-25.2348,4.08723,24.9356,1.47918,1.58745,-0.0227812,-0.984056,-0.647792,1.04329,0.686709,-0.261666,-0.320063,-0.268594,0.0554791,-0.449473,-0.451378,0.043078,-0.94893,-0.0170025,
0.0220319,-0.197753,-0.321596,-1.66358,0.0402777,-0.176307,-0.382825,0.204661,0.00196229,0.227981,-0.0763485,0.978298,-1.20425,0.00856168,0,0,0,0,0,0,0,0.0152593,-0.197023,-0.328695,-1.66088,0.0539068,1.42225,0.401901,0.064003,-0.0101553,0.0744595,-0.000408921,0.607341,-0.556328,-0.000481917,2.23713,-24.8103,4.2856,24.8364,1.5094,1.65429,-0.0227812,-0.984056,-0.647792,1.04329,0.686709,-0.261666,-0.320063,-0.268594,0.0554791,-0.449473,-0.451378,0.043078,-0.94893,-0.0170025,
0.0228601,-0.197734,-0.320673,-1.6639,0.044234,-0.181061,-0.382791,0.20705,0.00475639,0.230593,-0.0781066,0.989089,-1.1885,0.0083876,0,0,0,0,0,0,0,0.0152593,-0.197023,-0.328695,-1.66088,0.0539068,1.42225,0.401901,0.064003,-0.0101553,0.0744595,-0.000408921,0.607341,-0.556328,-0.000481917,2.23713,-24.8103,4.2856,24.8364,1.5094,1.65429,-0.0227812,-1.19891,-0.712912,0.899508,0.742935,-0.331266,-0.375367,-0.321359,0.0563823,-0.5125,-0.517299,0.015336,-0.985809,-0.0166357,
0.0236963,-0.197705,-0.319742,-1.66421,0.0482277,-0.185746,-0.382758,0.209056,0.00737472,0.232807,-0.0793563,0.998403,-1.17128,0.00821765,0,0,0,0,0,0,0,0.0152593,-0.197023,-0.328695,-1.66088,0.0539068,1.42225,0.401901,0.064003,-0.0101553,0.0744595,-0.000408921,0.607341,-0.556328,-0.000481917,2.23713,-24.8103,4.2856,24.8364,1.5094,1.65429,-0.0227812,-1.19891,-0.712912,0.899508,0.742935,-0.331266,-0.375367,-0.321359,0.0563823,-0.5125,-0.517299,0.015336,-0.985809,-0.0166357,
0.0245392,-0.197666,-0.318803,-1.66453,0.0522533,-0.190358,-0.382726,0.210721,0.00978463,0.234667,-0.0802006,1.0064,-1.15305,0.00805199,0,0,0,0,0,0,0,0.0152593,-0.197023,-0.328695,-1.66088,0.0539068,1.42225,0.401901,0.064003,-0.0101553,0.0744595,-0.000408921,0.607341,-0.556328,-0.000481917,2.23713,-24.8103,4.2856,24.8364,1.5094,1.65429,-0.0227812,-1.63992,-1.03393,0.972634,1.03032,-0.626734,-0.578035,-0.520657,-0.0957764,-0.748884,-0.524914,0.0373845,-1.06717,-0.0165009,
0.0253876,-0.197618,-0.317858,-1.66486,0.0563061,-0.194895,-0.382694,0.212082,0.0119722,0.236211,-0.0807205,1.01322,-1.13414,0.00789055,0,0,0,0,0,0,0,0.0152593,-0.197023,-0.328695,-1.66088,0.0539068,1.42225,0.401901,0.064003,-0.0101553,0.0744595,-0.000408921,0.607341,-0.556328,-0.000481917,2.23713,-24.8103,4.2856,24.8364,1.5094,1.65429,-0.0227812,-2.3041,-0.877716,1.04124,1.00496,-1.16804,-0.614338,-0.554183,-0.417112,-0.790945,-0.448505,0.138811,-1.09712,-0.0150974,
0.0262402,-0.197562,-0.316909,-1.66518,0.0603822,-0.199354,-0.382664,0.21317,0.0139364,0.237473,-0.0809779,1.01901,-1.1148,0.00773378,0,0,0,0,0,0,0,0.0175998,-0.197053,-0.325371,-1.66103,0.0739971,1.40341,0.401904,0.0715117,-0.000361848,0.122407,-0.0109615,0.613504,-0.603994,0.00113933,1.90784,-24.9611,3.91267,24.6619,2.30316,1.60119,-0.050247,-2.3041,-0.877716,1.04124,1.00496,-1.16804,-0.614338,-0.554183,-0.417112,-0.790945,-0.448505,0.138811,-1.09712,-0.0150974,
0.0270963,-0.197499,-0.315955,-1.66551,0.0644777,-0.203735,-0.382633,0.214012,0.0156843,0.238482,-0.0810214,1.02388,-1.09519,0.00758154,0,0,0,0,0,0,0,0.0175998,-0.197053,-0.325371,-1.66103,0.0739971,1.40341,0.401904,0.0715117,-0.000361848,0.122407,-0.0109615,0.613504,-0.603994,0.00113933,1.90784,-24.9611,3.91267,24.6619,2.30316,1.60119,-0.050247,-1.66095,-0.30904,0.478741,0.775177,-0.466157,-0.253106,-0.205358,0.0714515,-0.419807,-0.764481,0.274296,-1.13557,-0.0148998,
0.0279548,-0.19743,-0.314998,-1.66583,0.0685894,-0.208036,-0.382603,0.214635,0.0172276,0.239262,-0.0808895,1.02793,-1.07545,0.00743218,0,0,0,0,0,0,0,0.0175998,-0.197053,-0.325371,-1.66103,0.0739971,1.40341,0.401904,0.0715117,-0.000361848,0.122407,-0.0109615,0.613504,-0.603994,0.00113933,1.90784,-24.9611,3.91267,24.6619,2.30316,1.60119,-0.050247,-1.66095,-0.30904,0.478741,0.775177,-0.466157,-0.253106,-0.205358,0.0714515,-0.419807,-0.764481,0.274296,-1.13557,-0.0148998,
0.0288151,-0.197356,-0.314038,-1.66615,0.0727145,-0.212259,-0.382574,0.21506,0.0185807,0.239837,-0.0806126,1.03127,-1.05566,0.00728766,0,0,0,0,0,0,0,0.0175998,-0.197053,-0.325371,-1.66103,0.0739971,1.40341,0.401904,0.0715117,-0.000361848,0.122407,-0.0109615,0.613504,-0.603994,0.00113933,1.90784,-24.9611,3.91267,24.6619,2.30316,1.60119,-0.050247,-1.81387,0.133646,0.351041,0.579695,-0.53095,-0.0811426,-0.0466994,0.0587265,-0.230321,-0.833617,0.403055,-1.18188,-0.0118784,
0.0296763,-0.197277,-0.313077,-1.66647,0.0768504,-0.216403,-0.382546,0.215308,0.0197591,0.240227,-0.0802155,1.03397,-1.03591,0.00714591,0,0,0,0,0,0,0,0.0175998,-0.197053,-0.325371,-1.66103,0.0739971,1.40341,0.401904,0.0715117,-0.000361848,0.122407,-0.0109615,0.613504,-0.603994,0.00113933,1.90784,-24.9611,3.91267,24.6619,2.30316,1.60119,-0.050247,-1.74107,0.80106,0.505302,0.213258,-0.633256,0.216294,0.246982,-0.0654509,0.0931775,-0.731197,0.605342,-1.13833,-0.00993067,
0.0305379,-0.197194,-0.312116,-1.66679,0.0809948,-0.220468,-0.382518,0.215398,0.0207783,0.240451,-0.0797183,1.03611,-1.01624,0.00700793,0,0,0,0,0,0,0,0.0175998,-0.197053,-0.325371,-1.66103,0.0739971,1.40341,0.401904,0.0715117,-0.000361848,0.122407,-0.0109615,0.613504,-0.603994,0.00113933,1.90784,-24.9611,3.91267,24.6619,2.30316,1.60119,-0.050247,-1.74107,0.80106,0.505302,0.213258,-0.633256,0.216294,0.246982,-0.0654509,0.0931775,-0.731197,0.605342,-1.13833,-0.00993067,
0.0313993,-0.197107,-0.311153,-1.66711,0.0851458,-0.224454,-0.38249,0.215345,0.0216538,0.240526,-0.0791375,1.03775,-0.996679,0.00687297,0,0,0,0,0,0,0,0.0203966,-0.197043,-0.321564,-1.66134,0.092721,1.38399,0.401907,0.0989938,0.00356359,0.127941,-0.0154186,0.573102,-0.628596,0.000726635,1.93164,-25.0603,3.68654,24.9832,2.96325,1.84655,-0.0365141,-1.38092,0.987851,0.431187,0.223419,-0.438742,0.338133,0.379187,0.0063712,0.189279,-0.732515,0.776896,-1.06893,-0.00917345,
0.0138674,-0.197371,-0.330772,-1.66149,-0.00580971,-0.117101,-0.383327,0.17496,-0.0582663,0.187537,-0.0619158,0.543749,-0.720023,0.0138538,0,0,0,0,0,0,0,0.0203966,-0.197043,-0.321564,-1.66134,0.092721,1.38399,0.401907,0.0989938,0.00356359,0.127941,-0.0154186,0.573102,-0.628596,0.000726635,1.93164,-25.0603,3.68654,24.9832,2.96325,1.84655,-0.0365141,-1.38092,0.987851,0.431187,0.223419,-0.438742,0.338133,0.379187,0.0063712,0.189279,-0.732515,0.776896,-1.06893,-0.00917345,
0.0227724,-0.197438,-0.318977,-1.66223,0.0994274,-0.196418,-0.383331,0.230603,-0.0383423,0.25393,-0.0864825,0.574877,-0.885354,0.0129733,0,0,0,0,0,0,0,0.0203966,-0.197043,-0.321564,-1.66134,0.092721,1.38399,0.401907,0.0989938,0.00356359,0.127941,-0.0154186,0.573102,-0.628596,0.000726635,1.93164,-25.0603,3.68654,24.9832,2.96325,1.84655,-0.0365141,-1.6484,1.04023,0.195816,0.297224,-0.590199,0.308785,0.358176,-0.05919,0.136126,-0.778364,0.863473,-1.05649,-0.00958488,
0.0237915,-0.19759,-0.317847,-1.6626,0.101849,-0.200239,-0.383282,0.254778,-0.0378984,0.282396,-0.0928726,0.605375,-0.955325,0.0124431,0,0,0,0,0,0,0,0.0203966,-0.197043,-0.321564,-1.66134,0.092721,1.38399,0.401907,0.0989938,0.00356359,0.127941,-0.0154186,0.573102,-0.628596,0.000726635,1.93164,-25.0603,3.68654,24.9832,2.96325,1.84655,-0.0365141,-1.6484,1.04023,0.195816,0.297224,-0.590199,0.308785,0.358176,-0.05919,0.136126,-0.778364,0.863473,-1.05649,-0.00958488,
0.0248902,-0.197733,-0.316625,-1.66299,0.10441,-0.204295,-0.383234,0.274673,-0.035733,0.305578,-0.0980251,0.640382,-1.01405,0.0119732,0,0,0,0,0,0,0,0.0203966,-0.197043,-0.321564,-1.66134,0.092721,1.38399,0.401907,0.0989938,0.00356359,0.127941,-0.0154186,0.573102,-0.628596,0.000726635,1.93164,-25.0603,3.68654,24.9832,2.96325,1.84655,-0.0365141,-1.61912,1.71198,-0.163431,-0.0823657,-0.506264,0.599245,0.647571,0.0180924,0.452025,-0.865073,0.978552,-1.01561,-0.0115359,
0.026055,-0.197863,-0.315326,-1.6634,0.107118,-0.208547,-0.383187,0.291211,-0.0326455,0.324653,-0.102496,0.676946,-1.06294,0.011548,0,0,0,0,0,0,0,0.0237431,-0.197008,-0.31708,-1.66193,0.110757,1.36381,0.401902,0.121284,-0.00319057,0.134727,-0.029696,0.466568,-0.577288,-0.00160291,-0.0202602,-25.6355,2.03615,25.8322,1.46728,3.02666,0.0101778,-2.07836,2.60915,0.0811107,-0.766145,-1.06004,0.910176,0.944024,-0.372908,0.845789,-0.619184,1.0624,-0.93097,-0.0082381,
0.0272752,-0.19798,-0.313964,-1.66383,0.109971,-0.212961,-0.383143,0.305051,-0.0290747,0.34048,-0.106445,0.713188,-1.10352,0.0111593,0,0,0,0,0,0,0,0.0237431,-0.197008,-0.31708,-1.66193,0.110757,1.36381,0.401902,0.121284,-0.00319057,0.134727,-0.029696,0.466568,-0.577288,-0.00160291,-0.0202602,-25.6355,2.03615,25.8322,1.46728,3.02666,0.0101778,-2.07836,2.60915,0.0811107,-0.766145,-1.06004,0.910176,0.944024,-0.372908,0.845789,-0.619184,1.0624,-0.93097,-0.0082381,
0.0285425,-0.198084,-0.312549,-1.66428,0.112963,-0.217463,-0.383099,0.316821,-0.0260659,0.353892,-0.112145,0.747923,-1.12559,0.0108674,0,0,0,0,0,0,0,0.0237431,-0.197008,-0.31708,-1.66193,0.110757,1.36381,0.401902,0.121284,-0.00319057,0.134727,-0.029696,0.466568,-0.577288,-0.00160291,-0.0202602,-25.6355,2.03615,25.8322,1.46728,3.02666,0.0101778,-2.23922,0.801002,-0.343073,0.347024,-0.991323,0.0803009,0.130306,-0.26509,-0.081816,-0.705127,0.706104,-0.844574,-0.00512783,
0.0298497,-0.198175,-0.311088,-1.66475,0.116085,-0.222013,-0.383057,0.326801,-0.0226606,0.365128,-0.116943,0.780472,-1.13749,0.0105355,0,0,0,0,0,0,0,0.0237431,-0.197008,-0.31708,-1.66193,0.110757,1.36381,0.401902,0.121284,-0.00319057,0.134727,-0.029696,0.466568,-0.577288,-0.00160291,-0.0202602,-25.6355,2.03615,25.8322,1.46728,3.02666,0.0101778,-2.23922,0.801002,-0.343073,0.347024,-0.991323,0.0803009,0.130306,-0.26509,-0.081816,-0.705127,0.706104,-0.844574,-0.00512783,
0.0311911,-0.198253,-0.309589,-1.66524,0.119326,-0.226543,-0.383016,0.335352,-0.01965,0.37474,-0.122572,0.810435,-1.13233,0.0102759,0,0,0,0,0,0,0,0.0237431,-0.197008,-0.31708,-1.66193,0.110757,1.36381,0.401902,0.121284,-0.00319057,0.134727,-0.029696,0.466568,-0.577288,-0.00160291,-0.0202602,-25.6355,2.03615,25.8322,1.46728,3.02666,0.0101778,-2.56257,0.780169,-0.179741,0.178786,-1.32636,0.033148,0.0916632,-0.489075,-0.0998493,-0.536776,0.559471,-0.777466,-0.00492442,
0.0325616,-0.198319,-0.308058,-1.66575,0.122677,-0.231012,-0.382976,0.342616,-0.0163491,0.382843,-0.127111,0.837657,-1.1174,0.0100239,0,0,0,0,0,0,0,0.0281474,-0.197079,-0.311713,-1.66301,0.12279,1.34618,0.401903,0.14829,-0.00186499,0.178837,-0.0410984,0.382732,-0.570361,-0.0011475,1.98322,-25.2626,4.03566,24.9594,2.56591,1.8731,0.00376909,-2.56257,0.780169,-0.179741,0.178786,-1.32636,0.033148,0.0916632,-0.489075,-0.0998493,-0.536776,0.559471,-0.777466,-0.00492442,
0.0339565,-0.19837,-0.306499,-1.66627,0.126125,-0.2354,-0.382937,0.348723,-0.0127784,0.389644,-0.130248,0.862125,-1.09694,0.00977355,0,0,0,0,0,0,0,0.0281474,-0.197079,-0.311713,-1.66301,0.12279,1.34618,0.401903,0.14829,-0.00186499,0.178837,-0.0410984,0.382732,-0.570361,-0.0011475,1.98322,-25.2626,4.03566,24.9594,2.56591,1.8731,0.00376909,-2.08322,1.14476,0.346801,-0.15806,-1.24568,0.263519,0.298046,-0.560836,0.188814,-0.306883,0.610547,-0.694359,-0.00607635,
0.0353718,-0.198406,-0.304918,-1.6668,0.129661,-0.239693,-0.382899,0.353814,-0.00913659,0.395333,-0.132202,0.883929,-1.07324,0.00953399,0,0,0,0,0,0,0,0.0281474,-0.197079,-0.311713,-1.66301,0.12279,1.34618,0.401903,0.14829,-0.00186499,0.178837,-0.0410984,0.382732,-0.570361,-0.0011475,1.98322,-25.2626,4.03566,24.9594,2.56591,1.8731,0.00376909,-2.08322,1.14476,0.346801,-0.15806,-1.24568,0.263519,0.298046,-0.560836,0.188814,-0.306883,0.610547,-0.694359,-0.00607635,
0.0368038,-0.198429,-0.303318,-1.66733,0.133274,-0.243884,-0.382862,0.358021,-0.00559521,0.400066,-0.133257,0.903223,-1.04765,0.00930113,0,0,0,0,0,0,0,0.0281474,-0.197079,-0.311713,-1.66301,0.12279,1.34618,0.401903,0.14829,-0.00186499,0.178837,-0.0410984,0.382732,-0.570361,-0.0011475,1.98322,-25.2626,4.03566,24.9594,2.56591,1.8731,0.00376909,-2.01258,0.505656,-0.353289,0.305774,-0.809317,0.0122417,0.0599144,-0.157111,-0.11979,-0.661478,0.45717,-0.767908,-0.00708284,
0.0382497,-0.198438,-0.301702,-1.66786,0.136955,-0.247968,-0.382825,0.361456,-0.00226548,0.403967,-0.133647,0.920194,-1.02103,0.00907929,0,0,0,0,0,0,0,0.0281474,-0.197079,-0.311713,-1.66301,0.12279,1.34618,0.401903,0.14829,-0.00186499,0.178837,-0.0410984,0.382732,-0.570361,-0.0011475,1.98322,-25.2626,4.03566,24.9594,2.56591,1.8731,0.00376909,-1.9434,-0.341393,-0.847905,0.858228,-0.528567,-0.345295,-0.283467,0.0901494,-0.536736,-0.854001,0.280219,-0.752566,-0.00681507,
0.0397065,-0.198435,-0.300073,-1.6684,0.140695,-0.251943,-0.38279,0.364215,0.000791761,0.407145,-0.133547,0.935044,-0.993894,0.0088675,0,0,0,0,0,0,0,0.0281474,-0.197079,-0.311713,-1.66301,0.12279,1.34618,0.401903,0.14829,-0.00186499,0.178837,-0.0410984,0.382732,-0.570361,-0.0011475,1.98322,-25.2626,4.03566,24.9594,2.56591,1.8731,0.00376909,-1.9434,-0.341393,-0.847905,0.858228,-0.528567,-0.345295,-0.283467,0.0901494,-0.536736,-0.854001,0.280219,-0.752566,-0.00681507,
0.041172,-0.19842,-0.298435,-1.66893,0.144487,-0.25581,-0.382755,0.366378,0.0035513,0.409687,-0.133082,0.947969,-0.966607,0.0086657,0,0,0,0,0,0,0,0.0331889,-0.197181,-0.30493,-1.66438,0.138047,1.32666,0.401909,0.157916,-0.00582425,0.22088,-0.0479174,0.5399,-0.587638,-5.32865e-05,2.69336,-24.7389,4.56331,24.6857,2.31598,1.80627,-0.0227812,-2.74402,-0.0931265,-0.805185,0.605169,-1.14162,-0.332193,-0.268209,-0.251835,-0.490098,-0.748794,0.227568,-0.763896,-0.00738071,
0.0426441,-0.198396,-0.296788,-1.66946,0.148323,-0.259567,-0.382721,0.368019,0.00601009,0.411669,-0.132343,0.95916,-0.939384,0.00847321,0,0,0,0,0,0,0,0.0331889,-0.197181,-0.30493,-1.66438,0.138047,1.32666,0.401909,0.157916,-0.00582425,0.22088,-0.0479174,0.5399,-0.587638,-5.32865e-05,2.69336,-24.7389,4.56331,24.6857,2.31598,1.80627,-0.0227812,-2.74402,-0.0931265,-0.805185,0.605169,-1.14162,-0.332193,-0.268209,-0.251835,-0.490098,-0.748794,0.227568,-0.763896,-0.00738071,
0.0441209,-0.198364,-0.295135,-1.66998,0.152199,-0.263217,-0.382688,0.369198,0.00817886,0.413158,-0.131397,0.968796,-0.912367,0.00828964,0,0,0,0,0,0,0,0.0331889,-0.197181,-0.30493,-1.66438,0.138047,1.32666,0.401909,0.157916,-0.00582425,0.22088,-0.0479174,0.5399,-0.587638,-5.32865e-05,2.69336,-24.7389,4.56331,24.6857,2.31598,1.80627,-0.0227812,-2.46564,0.273452,-0.94599,0.371918,-0.794543,-0.0990629,-0.0371174,0.00549161,-0.239549,-0.917278,0.25044,-0.854769,-0.00954402,
0.0456008,-0.198323,-0.293478,-1.67051,0.156107,-0.266759,-0.382656,0.36997,0.010076,0.414211,-0.130289,0.977039,-0.885646,0.00811516,0,0,0,0,0,0,0,0.0331889,-0.197181,-0.30493,-1.66438,0.138047,1.32666,0.401909,0.157916,-0.00582425,0.22088,-0.0479174,0.5399,-0.587638,-5.32865e-05,2.69336,-24.7389,4.56331,24.6857,2.31598,1.80627,-0.0227812,-3.02161,-0.427659,-0.715751,0.894999,-1.29119,-0.490682,-0.42122,-0.318253,-0.684364,-0.789213,0.250777,-0.861385,-0.00670176,
0.0470823,-0.198276,-0.291819,-1.67102,0.160043,-0.270196,-0.382624,0.370382,0.0117233,0.41488,-0.129057,0.984041,-0.859275,0.00794703,0,0,0,0,0,0,0,0.0331889,-0.197181,-0.30493,-1.66438,0.138047,1.32666,0.401909,0.157916,-0.00582425,0.22088,-0.0479174,0.5399,-0.587638,-5.32865e-05,2.69336,-24.7389,4.56331,24.6857,2.31598,1.80627,-0.0227812,-3.02161,-0.427659,-0.715751,0.894999,-1.29119,-0.490682,-0.42122,-0.318253,-0.684364,-0.789213,0.250777,-0.861385,-0.00670176,
0.0485642,-0.198224,-0.290158,-1.67153,0.164003,-0.27353,-0.382593,0.370477,0.0131442,0.415207,-0.127727,0.989936,-0.833287,0.007788,0,0,0,0,0,0,0,0.0413294,-0.197148,-0.295155,-1.66659,0.162776,1.3033,0.401911,0.222799,0.00457412,0.248191,-0.0589432,0.581791,-0.530087,0.000291226,2.16175,-25.1634,3.83729,24.7849,3.09784,1.53435,-0.0365141,-2.7876,-0.547673,-0.900103,1.03611,-1.076,-0.522174,-0.453933,-0.186756,-0.734711,-0.855954,0.288528,-0.825667,-0.00572014,
0.0500454,-0.198166,-0.288497,-1.67204,0.167982,-0.27676,-0.382562,0.370292,0.0143617,0.415235,-0.12632,0.994848,-0.807704,0.00763405,0,0,0,0,0,0,0,0.0413294,-0.197148,-0.295155,-1.66659,0.162776,1.3033,0.401911,0.222799,0.00457412,0.248191,-0.0589432,0.581791,-0.530087,0.000291226,2.16175,-25.1634,3.83729,24.7849,3.09784,1.53435,-0.0365141,-2.7876,-0.547673,-0.900103,1.03611,-1.076,-0.522174,-0.453933,-0.186756,-0.734711,-0.855954,0.288528,-0.825667,-0.00572014,
0.0515248,-0.198105,-0.286837,-1.67254,0.171978,-0.279891,-0.382532,0.369859,0.0153977,0.414996,-0.124852,0.998885,-0.782532,0.00748696,0,0,0,0,0,0,0,0.0413294,-0.197148,-0.295155,-1.66659,0.162776,1.3033,0.401911,0.222799,0.00457412,0.248191,-0.0589432,0.581791,-0.530087,0.000291226,2.16175,-25.1634,3.83729,24.7849,3.09784,1.53435,-0.0365141,-2.66699,-0.348506,-0.941355,0.987424,-0.999499,-0.427388,-0.363344,-0.152966,-0.641799,-0.87488,0.401355,-0.813268,-0.00591677,
0.0530017,-0.19804,-0.285179,-1.67303,0.175986,-0.282922,-0.382503,0.369209,0.016273,0.414523,-0.123337,1.00215,-0.757776,0.00734535,0,0,0,0,0,0,0,0.0413294,-0.197148,-0.295155,-1.66659,0.162776,1.3033,0.401911,0.222799,0.00457412,0.248191,-0.0589432,0.581791,-0.530087,0.000291226,2.16175,-25.1634,3.83729,24.7849,3.09784,1.53435,-0.0365141,-2.54541,0.763145,-0.706953,0.302587,-1.03403,0.0822758,0.146333,-0.215557,-0.0798492,-0.804512,0.621695,-0.831105,-0.00721953,
0.0544751,-0.197972,-0.283524,-1.67352,0.180005,-0.285855,-0.382474,0.368366,0.0170064,0.413842,-0.121785,1.00472,-0.733438,0.00720873,0,0,0,0,0,0,0,0.0413294,-0.197148,-0.295155,-1.66659,0.162776,1.3033,0.401911,0.222799,0.00457412,0.248191,-0.0589432,0.581791,-0.530087,0.000291226,2.16175,-25.1634,3.83729,24.7849,3.09784,1.53435,-0.0365141,-2.54541,0.763145,-0.706953,0.302587,-1.03403,0.0822758,0.146333,-0.215557,-0.0798492,-0.804512,0.621695,-0.831105,-0.00721953,
0.0559445,-0.197901,-0.281872,-1.674,0.184032,-0.288693,-0.382446,0.367355,0.0176148,0.412979,-0.120205,1.00669,-0.709514,0.00707814,0,0,0,0,0,0,0,0.0413294,-0.197148,-0.295155,-1.66659,0.162776,1.3033,0.401911,0.222799,0.00457412,0.248191,-0.0589432,0.581791,-0.530087,0.000291226,2.16175,-25.1634,3.83729,24.7849,3.09784,1.53435,-0.0365141,-2.05702,1.38475,-0.528801,-0.0337423,-0.790815,0.409999,0.483279,-0.130821,0.258187,-0.762507,0.806068,-0.802706,-0.00899614,
0.0233949,-0.197745,-0.318328,-1.66272,0.0983889,-0.195561,-0.383345,0.299811,-0.0676732,0.329183,-0.135878,0.466737,-0.776721,0.0119307,0,0,0,0,0,0,0,0.0482854,-0.197084,-0.28639,-1.66854,0.181722,1.28791,0.401912,0.211844,-0.000321963,0.276313,-0.0734656,0.571176,-0.438277,0.000769347,2.3125,-25.6117,3.76192,24.9118,3.41552,1.63415,-0.0365141,-2.05702,1.38475,-0.528801,-0.0337423,-0.790815,0.409999,0.483279,-0.130821,0.258187,-0.762507,0.806068,-0.802706,-0.00899614,
0.052223,-0.197477,-0.28203,-1.67008,0.188309,-0.289501,-0.383352,0.363778,-0.0372459,0.405006,-0.141344,0.561598,-0.600977,0.0110035,0,0,0,0,0,0,0,0.0482854,-0.197084,-0.28639,-1.66854,0.181722,1.28791,0.401912,0.211844,-0.000321963,0.276313,-0.0734656,0.571176,-0.438277,0.000769347,2.3125,-25.6117,3.76192,24.9118,3.41552,1.63415,-0.0365141,-1.83422,2.00725,-0.751718,-0.347983,-0.569643,0.700856,0.783013,0.0198315,0.555373,-0.862959,0.959142,-0.797077,-0.00947852,
0.0537828,-0.197621,-0.280287,-1.67067,0.190667,-0.29205,-0.38331,0.38993,-0.0360634,0.43591,-0.14755,0.589465,-0.637171,0.0107053,0,0,0,0,0,0,0,0.0482854,-0.197084,-0.28639,-1.66854,0.181722,1.28791,0.401912,0.211844,-0.000321963,0.276313,-0.0734656,0.571176,-0.438277,0.000769347,2.3125,-25.6117,3.76192,24.9118,3.41552,1.63415,-0.0365141,-1.83422,2.00725,-0.751718,-0.347983,-0.569643,0.700856,0.783013,0.0198315,0.555373,-0.862959,0.959142,-0.797077,-0.00947852,
0.0554274,-0.197753,-0.278443,-1.67128,0.193157,-0.294717,-0.383268,0.411165,-0.0329919,0.460816,-0.151456,0.62245,-0.666682,0.0103636,0,0,0,0,0,0,0,0.0482854,-0.197084,-0.28639,-1.66854,0.181722,1.28791,0.401912,0.211844,-0.000321963,0.276313,-0.0734656,0.571176,-0.438277,0.000769347,2.3125,-25.6117,3.76192,24.9118,3.41552,1.63415,-0.0365141,-2.1657,2.70981,-0.82267,-0.754334,-0.801634,0.969071,1.0483,-0.092987,0.855572,-0.869936,1.09559,-0.821749,-0.0101794,
0.0571423,-0.197872,-0.276518,-1.6719,0.195787,-0.297437,-0.383227,0.428732,-0.0298249,0.481256,-0.156077,0.657403,-0.680132,0.0101589,0,0,0,0,0,0,0,0.0482854,-0.197084,-0.28639,-1.66854,0.181722,1.28791,0.401912,0.211844,-0.000321963,0.276313,-0.0734656,0.571176,-0.438277,0.000769347,2.3125,-25.6117,3.76192,24.9118,3.41552,1.63415,-0.0365141,-2.1657,2.70981,-0.82267,-0.754334,-0.801634,0.969071,1.0483,-0.092987,0.855572,-0.869936,1.09559,-0.821749,-0.0101794,
0.058915,-0.197976,-0.274527,-1.67254,0.198556,-0.300185,-0.383188,0.443169,-0.025861,0.497935,-0.159071,0.692332,-0.68697,0.00985911,0,0,0,0,0,0,0,0.0560827,-0.19706,-0.277278,-1.67047,0.196982,1.27581,0.401909,0.245866,0.000878497,0.310856,-0.0618651,0.359944,-0.317595,-0.00110813,1.95942,-25.9371,3.23823,24.1144,1.97998,1.60119,-0.00996382,-2.17179,2.13217,-0.809909,-0.353062,-0.791318,0.706834,0.762127,-0.0912856,0.577714,-0.869133,1.05365,-0.813392,-0.00769947,
0.0607359,-0.198064,-0.272479,-1.67319,0.20146,-0.302905,-0.383149,0.455222,-0.0222241,0.511777,-0.162549,0.725914,-0.68004,0.00963368,0,0,0,0,0,0,0,0.0560827,-0.19706,-0.277278,-1.67047,0.196982,1.27581,0.401909,0.245866,0.000878497,0.310856,-0.0618651,0.359944,-0.317595,-0.00110813,1.95942,-25.9371,3.23823,24.1144,1.97998,1.60119,-0.00996382,-2.96958,-0.0618162,-1.1396,1.02494,-1.22462,-0.351988,-0.260047,-0.298925,-0.615916,-0.879938,0.682973,-0.759371,-0.00401136,
0.0625966,-0.198138,-0.270387,-1.67385,0.204489,-0.305568,-0.383112,0.465174,-0.0183845,0.523178,-0.164987,0.757401,-0.665759,0.00942467,0,0,0,0,0,0,0,0.0560827,-0.19706,-0.277278,-1.67047,0.196982,1.27581,0.401909,0.245866,0.000878497,0.310856,-0.0618651,0.359944,-0.317595,-0.00110813,1.95942,-25.9371,3.23823,24.1144,1.97998,1.60119,-0.00996382,-2.96958,-0.0618162,-1.1396,1.02494,-1.22462,-0.351988,-0.260047,-0.298925,-0.615916,-0.879938,0.682973,-0.759371,-0.00401136,
0.0644899,-0.198196,-0.268257,-1.67451,0.207635,-0.308159,-0.383075,0.473313,-0.0144055,0.532515,-0.166225,0.78641,-0.647659,0.00921912,0,0,0,0,0,0,0,0.0560827,-0.19706,-0.277278,-1.67047,0.196982,1.27581,0.401909,0.245866,0.000878497,0.310856,-0.0618651,0.359944,-0.317595,-0.00110813,1.95942,-25.9371,3.23823,24.1144,1.97998,1.60119,-0.00996382,-3.37522,-0.814037,-1.2701,1.45493,-1.46833,-0.714715,-0.595726,-0.422372,-1.0282,-0.864659,0.51755,-0.73219,-0.0040901,
0.0664095,-0.198238,-0.266096,-1.67518,0.210886,-0.310669,-0.383039,0.479906,-0.0104803,0.540115,-0.166523,0.812784,-0.627496,0.00902864,0,0,0,0,0,0,0,0.0560827,-0.19706,-0.277278,-1.67047,0.196982,1.27581,0.401909,0.245866,0.000878497,0.310856,-0.0618651,0.359944,-0.317595,-0.00110813,1.95942,-25.9371,3.23823,24.1144,1.97998,1.60119,-0.00996382,-3.37522,-0.814037,-1.2701,1.45493,-1.46833,-0.714715,-0.595726,-0.422372,-1.0282,-0.864659,0.51755,-0.73219,-0.0040901,
0.0683502,-0.198265,-0.263911,-1.67585,0.214232,-0.313094,-0.383003,0.485183,-0.00675907,0.546249,-0.16615,0.836514,-0.606225,0.00884584,0,0,0,0,0,0,0,0.0560827,-0.19706,-0.277278,-1.67047,0.196982,1.27581,0.401909,0.245866,0.000878497,0.310856,-0.0618651,0.359944,-0.317595,-0.00110813,1.95942,-25.9371,3.23823,24.1144,1.97998,1.60119,-0.00996382,-3.00396,0.0779883,-0.96278,0.830181,-1.27855,-0.248606,-0.168364,-0.336766,-0.474922,-0.828174,0.629921,-0.78373,-0.00653391,
0.0703076,-0.198278,-0.261707,-1.67651,0.217663,-0.315431,-0.382969,0.489338,-0.00332871,0.551135,-0.165309,0.85768,-0.584391,0.00867555,0,0,0,0,0,0,0,0.0642818,-0.197104,-0.266634,-1.67259,0.208602,1.26678,0.401908,0.28457,-0.00376259,0.339189,-0.0726952,0.399423,-0.262996,-0.000969649,3.1258,-25.4372,4.61091,24.5865,2.62725,1.36864,-0.0026396,-2.86145,0.234945,-0.884882,0.625883,-1.15415,-0.122931,-0.0490468,-0.251939,-0.317474,-0.842274,0.560699,-0.818976,-0.00684321,
0.0722777,-0.198279,-0.259487,-1.67716,0.221169,-0.317681,-0.382935,0.49253,-0.000228249,0.554958,-0.164141,0.876418,-0.562317,0.00851601,0,0,0,0,0,0,0,0.0642818,-0.197104,-0.266634,-1.67259,0.208602,1.26678,0.401908,0.28457,-0.00376259,0.339189,-0.0726952,0.399423,-0.262996,-0.000969649,3.1258,-25.4372,4.61091,24.5865,2.62725,1.36864,-0.0026396,-2.86145,0.234945,-0.884882,0.625883,-1.15415,-0.122931,-0.0490468,-0.251939,-0.317474,-0.842274,0.560699,-0.818976,-0.00684321,
0.0742573,-0.198269,-0.257255,-1.67781,0.22474,-0.319842,-0.382901,0.494893,0.00253507,0.557867,-0.162739,0.892896,-0.540201,0.0083677,0,0,0,0,0,0,0,0.0642818,-0.197104,-0.266634,-1.67259,0.208602,1.26678,0.401908,0.28457,-0.00376259,0.339189,-0.0726952,0.399423,-0.262996,-0.000969649,3.1258,-25.4372,4.61091,24.5865,2.62725,1.36864,-0.0026396,-2.60419,-0.040245,-1.53357,0.685993,-0.662886,-0.178865,-0.103662,0.152715,-0.372414,-1.11541,0.353607,-0.823747,-0.00807522,
0.0762434,-0.198249,-0.255015,-1.67846,0.228369,-0.321914,-0.382868,0.496541,0.00497221,0.55999,-0.161167,0.907293,-0.518163,0.00822772,0,0,0,0,0,0,0,0.0642818,-0.197104,-0.266634,-1.67259,0.208602,1.26678,0.401908,0.28457,-0.00376259,0.339189,-0.0726952,0.399423,-0.262996,-0.000969649,3.1258,-25.4372,4.61091,24.5865,2.62725,1.36864,-0.0026396,-2.60419,-0.040245,-1.53357,0.685993,-0.662886,-0.178865,-0.103662,0.152715,-0.372414,-1.11541,0.353607,-0.823747,-0.00807522,
0.0782337,-0.19822,-0.25277,-1.6791,0.232048,-0.323899,-0.382836,0.497568,0.00710417,0.561433,-0.159466,0.919793,-0.496283,0.00809654,0,0,0,0,0,0,0,0.0642818,-0.197104,-0.266634,-1.67259,0.208602,1.26678,0.401908,0.28457,-0.00376259,0.339189,-0.0726952,0.399423,-0.262996,-0.000969649,3.1258,-25.4372,4.61091,24.5865,2.62725,1.36864,-0.0026396,-2.84477,0.120979,-1.80096,0.503128,-0.694616,-0.093728,-0.0264522,0.208737,-0.257573,-1.22201,0.27904,-0.865616,-0.00950622,
0.0802259,-0.198185,-0.250521,-1.67973,0.235771,-0.325798,-0.382804,0.498057,0.00895696,0.562288,-0.157668,0.930578,-0.474612,0.00797463,0,0,0,0,0,0,0,0.0737043,-0.197099,-0.255266,-1.67487,0.224782,1.25928,0.401914,0.291132,0.0019632,0.370537,-0.0684365,0.572729,-0.210944,0.000566408,2.84412,-25.6117,4.23799,24.2889,2.81677,1.40893,-0.0566557,-2.84477,0.120979,-1.80096,0.503128,-0.694616,-0.093728,-0.0264522,0.208737,-0.257573,-1.22201,0.27904,-0.865616,-0.00950622,
0.0822182,-0.198142,-0.24827,-1.68035,0.23953,-0.327611,-0.382773,0.498079,0.0105574,0.562632,-0.155794,0.939818,-0.453187,0.00785774,0,0,0,0,0,0,0,0.0737043,-0.197099,-0.255266,-1.67487,0.224782,1.25928,0.401914,0.291132,0.0019632,0.370537,-0.0684365,0.572729,-0.210944,0.000566408,2.84412,-25.6117,4.23799,24.2889,2.81677,1.40893,-0.0566557,-2.46169,0.886048,-1.62132,-0.0250611,-0.472076,0.31186,0.381165,0.322291,0.190188,-1.20846,0.375565,-0.887032,-0.0128132,
0.084209,-0.198095,-0.24602,-1.68097,0.243321,-0.329339,-0.382742,0.497693,0.0119327,0.562531,-0.153861,0.947675,-0.432037,0.00774992,0,0,0,0,0,0,0,0.0737043,-0.197099,-0.255266,-1.67487,0.224782,1.25928,0.401914,0.291132,0.0019632,0.370537,-0.0684365,0.572729,-0.210944,0.000566408,2.84412,-25.6117,4.23799,24.2889,2.81677,1.40893,-0.0566557,-2.35909,0.170897,-1.61788,0.513323,-0.394187,-0.00585451,0.0780318,0.340192,-0.193368,-1.21233,0.366649,-0.863624,-0.0115521,
0.0861968,-0.198042,-0.243772,-1.68157,0.247138,-0.330983,-0.382711,0.496953,0.013108,0.562043,-0.151882,0.9543,-0.411182,0.00764602,0,0,0,0,0,0,0,0.0737043,-0.197099,-0.255266,-1.67487,0.224782,1.25928,0.401914,0.291132,0.0019632,0.370537,-0.0684365,0.572729,-0.210944,0.000566408,2.84412,-25.6117,4.23799,24.2889,2.81677,1.40893,-0.0566557,-2.35909,0.170897,-1.61788,0.513323,-0.394187,-0.00585451,0.0780318,0.340192,-0.193368,-1.21233,0.366649,-0.863624,-0.0115521,
0.0881804,-0.197986,-0.241527,-1.68217,0.250977,-0.332546,-0.382681,0.495903,0.0141066,0.561218,-0.149868,0.959827,-0.390637,0.00754844,0,0,0,0,0,0,0,0.0737043,-0.197099,-0.255266,-1.67487,0.224782,1.25928,0.401914,0.291132,0.0019632,0.370537,-0.0684365,0.572729,-0.210944,0.000566408,2.84412,-25.6117,4.23799,24.2889,2.81677,1.40893,-0.0566557,-3.01812,-1.25446,-1.83074,1.53881,-0.81264,-0.726826,-0.643295,0.0938917,-1.00405,-1.20133,0.275942,-0.819739,-0.00887019,
0.0901588,-0.197926,-0.239286,-1.68276,0.254835,-0.334028,-0.382651,0.494584,0.01495,0.560099,-0.147828,0.964383,-0.370417,0.007455,0,0,0,0,0,0,0,0.0843397,-0.197081,-0.242483,-1.67758,0.243961,1.25414,0.401913,0.332472,0.00330095,0.410206,-0.0795304,0.612097,-0.119602,0.000307683,1.47541,-25.7863,2.68678,24.3881,3.20129,1.46844,-0.0429228,-3.01812,-1.25446,-1.83074,1.53881,-0.81264,-0.726826,-0.643295,0.0938917,-1.00405,-1.20133,0.275942,-0.819739,-0.00887019,
0.0921309,-0.197863,-0.237052,-1.68335,0.258707,-0.33543,-0.382621,0.49303,0.015657,0.558724,-0.145768,0.968079,-0.350531,0.00736563,0,0,0,0,0,0,0,0.0843397,-0.197081,-0.242483,-1.67758,0.243961,1.25414,0.401913,0.332472,0.00330095,0.410206,-0.0795304,0.612097,-0.119602,0.000307683,1.47541,-25.7863,2.68678,24.3881,3.20129,1.46844,-0.0429228,-2.72716,-1.08724,-1.73359,1.51846,-0.660052,-0.643239,-0.564056,0.142836,-0.926178,-1.17796,0.408467,-0.792381,-0.00989058,
0.0940988,-0.197799,-0.234822,-1.68392,0.262566,-0.336753,-0.382593,0.491969,0.0160533,0.557476,-0.143422,0.964611,-0.330922,0.00719642,0,0,0,0,0,0,0,0.0843397,-0.197081,-0.242483,-1.67758,0.243961,1.25414,0.401913,0.332472,0.00330095,0.410206,-0.0795304,0.612097,-0.119602,0.000307683,1.47541,-25.7863,2.68678,24.3881,3.20129,1.46844,-0.0429228,-2.72716,-1.08724,-1.73359,1.51846,-0.660052,-0.643239,-0.564056,0.142836,-0.926178,-1.17796,0.408467,-0.792381,-0.00989058,
0.0960633,-0.197734,-0.232596,-1.68448,0.266381,-0.338,-0.382565,0.491131,0.0161643,0.556484,-0.140868,0.953928,-0.31162,0.007006,0,0,0,0,0,0,0,0.0843397,-0.197081,-0.242483,-1.67758,0.243961,1.25414,0.401913,0.332472,0.00330095,0.410206,-0.0795304,0.612097,-0.119602,0.000307683,1.47541,-25.7863,2.68678,24.3881,3.20129,1.46844,-0.0429228,-2.31014,0.355507,-1.06638,0.626108,-0.65781,0.0373278,0.12347,0.0395266,-0.182513,-0.955256,0.70343,-0.7831,-0.0115094,
0.0980239,-0.19767,-0.230374,-1.68504,0.270137,-0.339171,-0.382537,0.490143,0.0161059,0.555547,-0.138279,0.938922,-0.292697,0.00684037,0,0,0,0,0,0,0,0.0843397,-0.197081,-0.242483,-1.67758,0.243961,1.25414,0.401913,0.332472,0.00330095,0.410206,-0.0795304,0.612097,-0.119602,0.000307683,1.47541,-25.7863,2.68678,24.3881,3.20129,1.46844,-0.0429228,-2.74714,0.489978,-0.95316,0.624277,-1.0172,0.064858,0.161279,-0.180936,-0.168548,-0.893225,0.818546,-0.805964,-0.0121544,
0.0999796,-0.197606,-0.228156,-1.68558,0.273822,-0.340267,-0.382511,0.488924,0.0159517,0.554486,-0.13573,0.921308,-0.274195,0.00669062,0,0,0,0,0,0,0,0.0843397,-0.197081,-0.242483,-1.67758,0.243961,1.25414,0.401913,0.332472,0.00330095,0.410206,-0.0795304,0.612097,-0.119602,0.000307683,1.47541,-25.7863,2.68678,24.3881,3.20129,1.46844,-0.0429228,-2.74714,0.489978,-0.95316,0.624277,-1.0172,0.064858,0.161279,-0.180936,-0.168548,-0.893225,0.818546,-0.805964,-0.0121544,
0.0527094,-0.197792,-0.281518,-1.67067,0.187588,-0.286526,-0.383357,0.417175,-0.063862,0.463404,-0.190815,0.485668,-0.275879,0.0106128,0,0,0,0,0,0,0,0.0984951,-0.196952,-0.225059,-1.68141,0.267536,1.25176,0.401915,0.342288,0.00675354,0.42688,-0.0933535,0.573459,-0.0167151,0.00101007,1.78089,-26.1592,2.68678,24.4635,3.37249,1.21667,-0.0566557,-2.34405,0.65142,-1.16713,0.601391,-0.610679,0.161356,0.249271,0.0848267,-0.0777063,-1.03603,0.914192,-0.816054,-0.0130234,
0.103868,-0.197285,-0.219013,-1.68336,0.274349,-0.319191,-0.383369,0.479486,-0.0306817,0.540828,-0.173548,0.581789,-0.0306268,0.0094929,0,0,0,0,0,0,0,0.0984951,-0.196952,-0.225059,-1.68141,0.267536,1.25176,0.401915,0.342288,0.00675354,0.42688,-0.0933535,0.573459,-0.0167151,0.00101007,1.78089,-26.1592,2.68678,24.4635,3.37249,1.21667,-0.0566557,-2.34405,0.65142,-1.16713,0.601391,-0.610679,0.161356,0.249271,0.0848267,-0.0777063,-1.03603,0.914192,-0.816054,-0.0130234,
0.105879,-0.1974,-0.216741,-1.68407,0.276777,-0.319367,-0.383331,0.502605,-0.0288318,0.568203,-0.177689,0.607104,-0.0441753,0.00948693,0,0,0,0,0,0,0,0.0984951,-0.196952,-0.225059,-1.68141,0.267536,1.25176,0.401915,0.342288,0.00675354,0.42688,-0.0933535,0.573459,-0.0167151,0.00101007,1.78089,-26.1592,2.68678,24.4635,3.37249,1.21667,-0.0566557,-2.69008,2.23241,-0.837537,-0.450828,-0.99507,0.880661,0.962934,-0.132619,0.739688,-0.907791,1.12113,-0.868639,-0.0153953,
0.107963,-0.197502,-0.21438,-1.68479,0.279322,-0.319594,-0.383294,0.521111,-0.025368,0.590066,-0.179101,0.636148,-0.0567397,0.00932472,0,0,0,0,0,0,0,0.0984951,-0.196952,-0.225059,-1.68141,0.267536,1.25176,0.401915,0.342288,0.00675354,0.42688,-0.0933535,0.573459,-0.0167151,0.00101007,1.78089,-26.1592,2.68678,24.4635,3.37249,1.21667,-0.0566557,-1.20157,3.12925,-1.36581,-1.0429,0.367652,1.39443,1.46409,0.760166,1.2932,-1.28866,1.20349,-0.89077,-0.0167963,
0.110108,-0.19759,-0.211949,-1.68551,0.281988,-0.319831,-0.383257,0.536221,-0.021986,0.607764,-0.180811,0.66649,-0.0591356,0.0092204,0,0,0,0,0,0,0,0.0984951,-0.196952,-0.225059,-1.68141,0.267536,1.25176,0.401915,0.342288,0.00675354,0.42688,-0.0933535,0.573459,-0.0167151,0.00101007,1.78089,-26.1592,2.68678,24.4635,3.37249,1.21667,-0.0566557,-1.20157,3.12925,-1.36581,-1.0429,0.367652,1.39443,1.46409,0.760166,1.2932,-1.28866,1.20349,-0.89077,-0.0167963,
0.112302,-0.197663,-0.209461,-1.68624,0.284774,-0.320056,-0.38322,0.548425,-0.0183807,0.622049,-0.181692,0.696536,-0.0562884,0.00913388,0,0,0,0,0,0,0,0.110223,-0.196867,-0.211146,-1.68432,0.282203,1.25209,0.401908,0.376318,0.00424256,0.481873,-0.0905917,0.402706,0.0232882,-0.00156166,3.30432,-26.5599,3.93648,24.1144,2.69409,1.35583,0.00376909,-2.40524,-0.979079,-1.25869,1.71242,-0.526193,-0.55359,-0.495092,0.118955,-0.866578,-1.1102,0.785543,-0.837255,-0.00807248,
0.114535,-0.197722,-0.206927,-1.68696,0.287675,-0.320259,-0.383184,0.558196,-0.0146763,0.633514,-0.181678,0.725325,-0.0507434,0.00904144,0,0,0,0,0,0,0,0.110223,-0.196867,-0.211146,-1.68432,0.282203,1.25209,0.401908,0.376318,0.00424256,0.481873,-0.0905917,0.402706,0.0232882,-0.00156166,3.30432,-26.5599,3.93648,24.1144,2.69409,1.35583,0.00376909,-2.40524,-0.979079,-1.25869,1.71242,-0.526193,-0.55359,-0.495092,0.118955,-0.866578,-1.1102,0.785543,-0.837255,-0.00807248,
0.116799,-0.197767,-0.204356,-1.68769,0.290677,-0.320433,-0.383148,0.566139,-0.0111182,0.642747,-0.180918,0.750487,-0.0435962,0.00893707,0,0,0,0,0,0,0,0.110223,-0.196867,-0.211146,-1.68432,0.282203,1.25209,0.401908,0.376318,0.00424256,0.481873,-0.0905917,0.402706,0.0232882,-0.00156166,3.30432,-26.5599,3.93648,24.1144,2.69409,1.35583,0.00376909,-3.18242,-1.80314,-1.37751,2.14017,-1.0884,-0.938466,-0.809846,-0.208515,-1.32705,-1.02607,0.576467,-0.792447,-0.00686638,
0.119094,-0.197799,-0.201753,-1.6884,0.293719,-0.320574,-0.383113,0.573718,-0.00815307,0.650765,-0.17911,0.76046,-0.0352692,0.00868806,0,0,0,0,0,0,0,0.110223,-0.196867,-0.211146,-1.68432,0.282203,1.25209,0.401908,0.376318,0.00424256,0.481873,-0.0905917,0.402706,0.0232882,-0.00156166,3.30432,-26.5599,3.93648,24.1144,2.69409,1.35583,0.00376909,-2.38595,-0.155477,-1.70645,0.953359,-0.34548,-0.113016,-0.0118091,0.335991,-0.38144,-1.25228,0.669827,-0.830313,-0.0109483,
0.121414,-0.197822,-0.199122,-1.68911,0.296763,-0.320679,-0.38308,0.579995,-0.00568114,0.65773,-0.176889,0.76106,-0.0261649,0.00847418,0,0,0,0,0,0,0,0.110223,-0.196867,-0.211146,-1.68432,0.282203,1.25209,0.401908,0.376318,0.00424256,0.481873,-0.0905917,0.402706,0.0232882,-0.00156166,3.30432,-26.5599,3.93648,24.1144,2.69409,1.35583,0.00376909,-2.38595,-0.155477,-1.70645,0.953359,-0.34548,-0.113016,-0.0118091,0.335991,-0.38144,-1.25228,0.669827,-0.830313,-0.0109483,
0.123754,-0.197836,-0.196468,-1.68981,0.299786,-0.320745,-0.383046,0.584953,-0.00360275,0.663486,-0.174523,0.755705,-0.0165456,0.00828752,0,0,0,0,0,0,0,0.110223,-0.196867,-0.211146,-1.68432,0.282203,1.25209,0.401908,0.376318,0.00424256,0.481873,-0.0905917,0.402706,0.0232882,-0.00156166,3.30432,-26.5599,3.93648,24.1144,2.69409,1.35583,0.00376909,-3.45233,0.405554,-1.47802,0.442813,-1.22488,0.144375,0.19742,-0.14694,-0.0126068,-1.07315,0.627335,-0.875603,-0.0125791,
0.126108,-0.197844,-0.193796,-1.6905,0.302772,-0.320772,-0.383014,0.588683,-0.0018372,0.668018,-0.172128,0.746483,-0.00657571,0.00812283,0,0,0,0,0,0,0,0.122425,-0.196824,-0.195998,-1.68752,0.295249,1.25439,0.401912,0.392834,-0.00118642,0.457414,-0.101452,0.454002,0.0905827,-0.000360289,3.09803,-26.8337,3.98805,24.6103,2.62085,1.54168,-0.0365141,-3.45233,0.405554,-1.47802,0.442813,-1.22488,0.144375,0.19742,-0.14694,-0.0126068,-1.07315,0.627335,-0.875603,-0.0125791,
0.128474,-0.197845,-0.191111,-1.69118,0.305711,-0.320757,-0.382982,0.591311,-0.000324635,0.671397,-0.169753,0.734695,0.00364728,0.00797179,0,0,0,0,0,0,0,0.122425,-0.196824,-0.195998,-1.68752,0.295249,1.25439,0.401912,0.392834,-0.00118642,0.457414,-0.101452,0.454002,0.0905827,-0.000360289,3.09803,-26.8337,3.98805,24.6103,2.62085,1.54168,-0.0365141,-2.86835,0.666912,-1.9965,0.0588737,-0.674876,0.310152,0.369377,0.240388,0.19358,-1.21428,0.446931,-0.769495,-0.0150012,
0.130846,-0.197841,-0.188416,-1.69185,0.308595,-0.320701,-0.382951,0.592966,0.00097908,0.673732,-0.167414,0.721175,0.0140593,0.00783005,0,0,0,0,0,0,0,0.122425,-0.196824,-0.195998,-1.68752,0.295249,1.25439,0.401912,0.392834,-0.00118642,0.457414,-0.101452,0.454002,0.0905827,-0.000360289,3.09803,-26.8337,3.98805,24.6103,2.62085,1.54168,-0.0365141,-2.86835,0.666912,-1.9965,0.0588737,-0.674876,0.310152,0.369377,0.240388,0.19358,-1.21428,0.446931,-0.769495,-0.0150012,
0.133221,-0.197833,-0.185715,-1.69251,0.311421,-0.320602,-0.38292,0.593776,0.00210765,0.675144,-0.165114,0.706477,0.0246124,0.00769935,0,0,0,0,0,0,0,0.122425,-0.196824,-0.195998,-1.68752,0.295249,1.25439,0.401912,0.392834,-0.00118642,0.457414,-0.101452,0.454002,0.0905827,-0.000360289,3.09803,-26.8337,3.98805,24.6103,2.62085,1.54168,-0.0365141,-2.77502,-0.228699,-2.25597,0.597686,-0.560564,-0.104977,-0.0555097,0.291006,-0.254054,-1.24081,0.30122,-0.678083,-0.0134788,
0.135596,-0.19782,-0.183012,-1.69316,0.314185,-0.320461,-0.38289,0.593857,0.00308668,0.675749,-0.16285,0.690994,0.0352695,0.00757072,0,0,0,0,0,0,0,0.122425,-0.196824,-0.195998,-1.68752,0.295249,1.25439,0.401912,0.392834,-0.00118642,0.457414,-0.101452,0.454002,0.0905827,-0.000360289,3.09803,-26.8337,3.98805,24.6103,2.62085,1.54168,-0.0365141,-2.87396,0.440822,-2.04945,0.125411,-0.777328,0.202134,0.253183,0.139828,0.0984692,-1.09927,0.370878,-0.63015,-0.0150382,
0.137969,-0.197804,-0.180309,-1.6938,0.316885,-0.320277,-0.38286,0.593309,0.00393823,0.675655,-0.160619,0.675035,0.0459932,0.00745043,0,0,0,0,0,0,0,0.135042,-0.196738,-0.180992,-1.69051,0.310824,1.25663,0.40191,0.414547,0.00872745,0.496705,-0.0872039,0.471973,0.0629809,-0.000512621,2.0586,-27.0082,2.91292,24.6381,3.02459,1.50139,-0.0227812,-2.87396,0.440822,-2.04945,0.125411,-0.777328,0.202134,0.253183,0.139828,0.0984692,-1.09927,0.370878,-0.63015,-0.0150382,
0.140338,-0.197786,-0.17761,-1.69443,0.319521,-0.32005,-0.382831,0.592217,0.00468162,0.674954,-0.158421,0.658899,0.0567492,0.00733059,0,0,0,0,0,0,0,0.135042,-0.196738,-0.180992,-1.69051,0.310824,1.25663,0.40191,0.414547,0.00872745,0.496705,-0.0872039,0.471973,0.0629809,-0.000512621,2.0586,-27.0082,2.91292,24.6381,3.02459,1.50139,-0.0227812,-2.49459,-0.214488,-2.182,0.580553,-0.522256,-0.119133,-0.0587226,0.232812,-0.274114,-1.08811,0.329908,-0.510475,-0.0129035,
0.142701,-0.197764,-0.174915,-1.69506,0.322093,-0.31978,-0.382802,0.590643,0.00533736,0.67372,-0.15626,0.642955,0.067502,0.00721414,0,0,0,0,0,0,0,0.135042,-0.196738,-0.180992,-1.69051,0.310824,1.25663,0.40191,0.414547,0.00872745,0.496705,-0.0872039,0.471973,0.0629809,-0.000512621,2.0586,-27.0082,2.91292,24.6381,3.02459,1.50139,-0.0227812,-2.49459,-0.214488,-2.182,0.580553,-0.522256,-0.119133,-0.0587226,0.232812,-0.274114,-1.08811,0.329908,-0.510475,-0.0129035,
0.145055,-0.197741,-0.172227,-1.69568,0.324604,-0.319467,-0.382773,0.588617,0.00593141,0.671995,-0.154154,0.627802,0.0782095,0.00709895,0,0,0,0,0,0,0,0.135042,-0.196738,-0.180992,-1.69051,0.310824,1.25663,0.40191,0.414547,0.00872745,0.496705,-0.0872039,0.471973,0.0629809,-0.000512621,2.0586,-27.0082,2.91292,24.6381,3.02459,1.50139,-0.0227812,-2.6045,-0.541428,-2.43312,0.775823,-0.585574,-0.296268,-0.24352,0.192173,-0.457244,-1.08242,0.281503,-0.413321,-0.0119438,
0.1474,-0.197715,-0.169548,-1.69628,0.327062,-0.319112,-0.382745,0.586082,0.0065021,0.669801,-0.152154,0.614583,0.0888228,0.0070612,0,0,0,0,0,0,0,0.135042,-0.196738,-0.180992,-1.69051,0.310824,1.25663,0.40191,0.414547,0.00872745,0.496705,-0.0872039,0.471973,0.0629809,-0.000512621,2.0586,-27.0082,2.91292,24.6381,3.02459,1.50139,-0.0227812,-2.6045,-0.541428,-2.43312,0.775823,-0.585574,-0.296268,-0.24352,0.192173,-0.457244,-1.08242,0.281503,-0.413321,-0.0119438,
0.149735,-0.197687,-0.166878,-1.69688,0.329452,-0.318715,-0.382717,0.583784,0.00690791,0.667474,-0.149906,0.597404,0.0993888,0.00697809,0,0,0,0,0,0,0,0.135042,-0.196738,-0.180992,-1.69051,0.310824,1.25663,0.40191,0.414547,0.00872745,0.496705,-0.0872039,0.471973,0.0629809,-0.000512621,2.0586,-27.0082,2.91292,24.6381,3.02459,1.50139,-0.0227812,-2.6045,-0.541428,-2.43312,0.775823,-0.585574,-0.296268,-0.24352,0.192173,-0.457244,-1.08242,0.281503,-0.413321,-0.0119438,
0.152061,-0.197659,-0.164217,-1.69747,0.331756,-0.318275,-0.38269,0.58155,0.00712841,0.665192,-0.147499,0.5759,0.109905,0.00684755,0,0,0,0,0,0,0,0.149011,-0.196409,-0.16439,-1.69314,0.325146,1.25813,0.401911,0.455357,0.0127778,0.521074,-0.0752915,0.396792,0.0456699,-0.000292847,0.590702,-27.3097,1.28633,24.6619,3.51257,1.49499,-0.0227812,-2.88686,0.425127,-2.41063,0.29131,-0.87411,0.0946747,0.1284,0.0191733,-0.0207398,-0.983871,0.574206,-0.335017,-0.0104972,
0.154377,-0.19763,-0.161565,-1.69805,0.333965,-0.317794,-0.382663,0.579098,0.00723222,0.662841,-0.145119,0.552444,0.120312,0.00672727,0,0,0,0,0,0,0,0.149011,-0.196409,-0.16439,-1.69314,0.325146,1.25813,0.401911,0.455357,0.0127778,0.521074,-0.0752915,0.396792,0.0456699,-0.000292847,0.590702,-27.3097,1.28633,24.6619,3.51257,1.49499,-0.0227812,-2.88686,0.425127,-2.41063,0.29131,-0.87411,0.0946747,0.1284,0.0191733,-0.0207398,-0.983871,0.574206,-0.335017,-0.0104972,
0.156683,-0.197601,-0.158924,-1.69863,0.336078,-0.317272,-0.382636,0.576407,0.00727208,0.660312,-0.142817,0.528248,0.130557,0.00661594,0,0,0,0,0,0,0,0.149011,-0.196409,-0.16439,-1.69314,0.325146,1.25813,0.401911,0.455357,0.0127778,0.521074,-0.0752915,0.396792,0.0456699,-0.000292847,0.590702,-27.3097,1.28633,24.6619,3.51257,1.49499,-0.0227812,-2.63557,1.15355,-2.47126,-0.184355,-0.69428,0.425372,0.463908,0.148656,0.341437,-1.00052,0.672173,-0.299484,-0.0124855,
0.104308,-0.197492,-0.218576,-1.68362,0.272251,-0.317078,-0.38337,0.525798,-0.0481696,0.590647,-0.19331,0.346272,0.197076,0.0092974,0,0,0,0,0,0,0,0.149011,-0.196409,-0.16439,-1.69314,0.325146,1.25813,0.401911,0.455357,0.0127778,0.521074,-0.0752915,0.396792,0.0456699,-0.000292847,0.590702,-27.3097,1.28633,24.6619,3.51257,1.49499,-0.0227812,-2.63557,1.15355,-2.47126,-0.184355,-0.69428,0.425372,0.463908,0.148656,0.341437,-1.00052,0.672173,-0.299484,-0.0124855,
0.155443,-0.196769,-0.157102,-1.69521,0.329161,-0.310367,-0.383377,0.564744,-0.0325378,0.641707,-0.185435,0.315413,0.221948,0.00929161,0,0,0,0,0,0,0,0.149011,-0.196409,-0.16439,-1.69314,0.325146,1.25813,0.401911,0.455357,0.0127778,0.521074,-0.0752915,0.396792,0.0456699,-0.000292847,0.590702,-27.3097,1.28633,24.6619,3.51257,1.49499,-0.0227812,-2.98359,0.416449,-2.59982,0.339095,-0.925629,0.0740639,0.113845,-0.0115011,-0.053962,-0.978824,0.639533,-0.253294,-0.0111461,
0.157785,-0.196886,-0.154437,-1.69596,0.330385,-0.309412,-0.383341,0.585405,-0.0290831,0.666462,-0.187368,0.305911,0.238862,0.00905358,0,0,0,0,0,0,0,0.16344,-0.195968,-0.147144,-1.69536,0.336039,1.25981,0.401912,0.451722,0.0185964,0.549814,-0.0593485,0.30956,0.0631547,-0.00102794,-0.0718349,-27.3335,0.461134,24.5111,3.25622,1.60119,0.00376909,-2.64186,1.73827,-2.80847,-0.528202,-0.56955,0.682462,0.702035,0.297085,0.633878,-1.1139,0.809816,-0.273052,-0.0131873,
0.160191,-0.196985,-0.151693,-1.69671,0.331587,-0.308401,-0.383306,0.601625,-0.0247058,0.68593,-0.187197,0.300549,0.252726,0.00883901,0,0,0,0,0,0,0,0.16344,-0.195968,-0.147144,-1.69536,0.336039,1.25981,0.401912,0.451722,0.0185964,0.549814,-0.0593485,0.30956,0.0631547,-0.00102794,-0.0718349,-27.3335,0.461134,24.5111,3.25622,1.60119,0.00376909,-2.64186,1.73827,-2.80847,-0.528202,-0.56955,0.682462,0.702035,0.297085,0.633878,-1.1139,0.809816,-0.273052,-0.0131873,
0.162648,-0.197065,-0.148888,-1.69745,0.332781,-0.307345,-0.383271,0.614152,-0.0201343,0.701093,-0.18611,0.298602,0.264011,0.00864516,0,0,0,0,0,0,0,0.16344,-0.195968,-0.147144,-1.69536,0.336039,1.25981,0.401912,0.451722,0.0185964,0.549814,-0.0593485,0.30956,0.0631547,-0.00102794,-0.0718349,-27.3335,0.461134,24.5111,3.25622,1.60119,0.00376909,-2.07016,1.91083,-2.66805,-0.632207,-0.212749,0.753817,0.754578,0.469111,0.723121,-1.09088,0.853696,-0.237248,-0.0145937,
0.165143,-0.197128,-0.146037,-1.69819,0.333977,-0.306252,-0.383237,0.623666,-0.0157356,0.712778,-0.184643,0.298852,0.273281,0.00858976,0,0,0,0,0,0,0,0.16344,-0.195968,-0.147144,-1.69536,0.336039,1.25981,0.401912,0.451722,0.0185964,0.549814,-0.0593485,0.30956,0.0631547,-0.00102794,-0.0718349,-27.3335,0.461134,24.5111,3.25622,1.60119,0.00376909,-2.07016,1.91083,-2.66805,-0.632207,-0.212749,0.753817,0.754578,0.469111,0.723121,-1.09088,0.853696,-0.237248,-0.0145937,
0.16767,-0.197176,-0.143149,-1.69892,0.335134,-0.305127,-0.383203,0.63193,-0.0119326,0.722166,-0.182397,0.289349,0.281176,0.00839791,0,0,0,0,0,0,0,0.16344,-0.195968,-0.147144,-1.69536,0.336039,1.25981,0.401912,0.451722,0.0185964,0.549814,-0.0593485,0.30956,0.0631547,-0.00102794,-0.0718349,-27.3335,0.461134,24.5111,3.25622,1.60119,0.00376909,-2.49044,-1.24797,-2.92198,1.46928,-0.424297,-0.691805,-0.668039,0.212348,-0.913112,-1.1076,0.535786,-0.183896,-0.00977876,
0.170224,-0.197211,-0.14023,-1.69964,0.336234,-0.303975,-0.38317,0.638281,-0.00869595,0.729698,-0.180036,0.27498,0.288075,0.00822622,0,0,0,0,0,0,0,0.178115,-0.195804,-0.129525,-1.69768,0.342637,1.26319,0.401909,0.451302,0.00278008,0.587491,-0.0753552,0.152984,0.146171,-0.000843173,3.09803,-27.5081,2.91292,24.3881,2.99987,1.74035,-0.00996382,-2.49044,-1.24797,-2.92198,1.46928,-0.424297,-0.691805,-0.668039,0.212348,-0.913112,-1.1076,0.535786,-0.183896,-0.00977876,
0.172795,-0.197234,-0.137288,-1.70035,0.337267,-0.302798,-0.383138,0.642904,-0.00593255,0.735455,-0.177751,0.258217,0.294226,0.00807374,0,0,0,0,0,0,0,0.178115,-0.195804,-0.129525,-1.69768,0.342637,1.26319,0.401909,0.451302,0.00278008,0.587491,-0.0753552,0.152984,0.146171,-0.000843173,3.09803,-27.5081,2.91292,24.3881,2.99987,1.74035,-0.00996382,-3.0608,-0.707505,-3.01911,1.03194,-0.809486,-0.389644,-0.294903,0.0593873,-0.622115,-1.10224,0.528194,-0.210502,-0.00881672,
0.175379,-0.197249,-0.13433,-1.70105,0.338228,-0.301599,-0.383106,0.646034,-0.00355474,0.739603,-0.175576,0.240339,0.299821,0.00793911,0,0,0,0,0,0,0,0.178115,-0.195804,-0.129525,-1.69768,0.342637,1.26319,0.401909,0.451302,0.00278008,0.587491,-0.0753552,0.152984,0.146171,-0.000843173,3.09803,-27.5081,2.91292,24.3881,2.99987,1.74035,-0.00996382,-2.99943,-0.451666,-3.17104,0.804865,-0.68338,-0.251895,-0.199598,0.186958,-0.427248,-1.1851,0.526296,-0.234377,-0.00953855,
0.177971,-0.197255,-0.13136,-1.70175,0.339116,-0.300379,-0.383075,0.647898,-0.00149418,0.742348,-0.173496,0.222005,0.305017,0.00781508,0,0,0,0,0,0,0,0.178115,-0.195804,-0.129525,-1.69768,0.342637,1.26319,0.401909,0.451302,0.00278008,0.587491,-0.0753552,0.152984,0.146171,-0.000843173,3.09803,-27.5081,2.91292,24.3881,2.99987,1.74035,-0.00996382,-2.99943,-0.451666,-3.17104,0.804865,-0.68338,-0.251895,-0.199598,0.186958,-0.427248,-1.1851,0.526296,-0.234377,-0.00953855,
0.180566,-0.197253,-0.128385,-1.70243,0.339931,-0.299139,-0.383044,0.648697,0.0003007,0.743895,-0.171485,0.203553,0.309931,0.00769494,0,0,0,0,0,0,0,0.178115,-0.195804,-0.129525,-1.69768,0.342637,1.26319,0.401909,0.451302,0.00278008,0.587491,-0.0753552,0.152984,0.146171,-0.000843173,3.09803,-27.5081,2.91292,24.3881,2.99987,1.74035,-0.00996382,-3.24895,0.267647,-3.02509,0.219689,-0.972772,0.114947,0.116221,0.0485117,0.0496639,-1.07327,0.51654,-0.217869,-0.0118794,
0.18316,-0.197246,-0.125407,-1.70311,0.340671,-0.29788,-0.383014,0.648608,0.00186973,0.744432,-0.169519,0.185154,0.314648,0.007586,0,0,0,0,0,0,0,0.178115,-0.195804,-0.129525,-1.69768,0.342637,1.26319,0.401909,0.451302,0.00278008,0.587491,-0.0753552,0.152984,0.146171,-0.000843173,3.09803,-27.5081,2.91292,24.3881,2.99987,1.74035,-0.00996382,-3.24895,0.267647,-3.02509,0.219689,-0.972772,0.114947,0.116221,0.0485117,0.0496639,-1.07327,0.51654,-0.217869,-0.0118794,
0.185751,-0.197233,-0.12243,-1.70378,0.341339,-0.296603,-0.382984,0.647779,0.00324341,0.744124,-0.167579,0.166904,0.31923,0.00747402,0,0,0,0,0,0,0,0.198389,-0.195841,-0.105544,-1.70104,0.346744,1.27176,0.401913,0.486257,0.000909558,0.569277,-0.0739899,0.0784325,0.231773,0.000133701,1.4278,-26.7345,1.78621,24.2612,2.76733,1.77971,-0.0429228,-2.54728,0.594019,-3.63501,-0.198854,-0.292425,0.245157,0.230812,0.546139,0.232674,-1.29434,0.376757,-0.139113,-0.0127018,
0.188337,-0.197215,-0.119458,-1.70444,0.341934,-0.295308,-0.382954,0.646338,0.00444786,0.743112,-0.165653,0.14887,0.323711,0.00737059,0,0,0,0,0,0,0,0.198389,-0.195841,-0.105544,-1.70104,0.346744,1.27176,0.401913,0.486257,0.000909558,0.569277,-0.0739899,0.0784325,0.231773,0.000133701,1.4278,-26.7345,1.78621,24.2612,2.76733,1.77971,-0.0429228,-2.37128,0.662889,-3.74077,-0.327903,-0.16431,0.281136,0.270077,0.635021,0.281995,-1.31024,0.317984,-0.0986267,-0.0134994,
0.190914,-0.197193,-0.116492,-1.7051,0.342459,-0.293996,-0.382925,0.644383,0.00550576,0.741509,-0.163734,0.131155,0.328113,0.0072646,0,0,0,0,0,0,0,0.198389,-0.195841,-0.105544,-1.70104,0.346744,1.27176,0.401913,0.486257,0.000909558,0.569277,-0.0739899,0.0784325,0.231773,0.000133701,1.4278,-26.7345,1.78621,24.2612,2.76733,1.77971,-0.0429228,-2.37128,0.662889,-3.74077,-0.327903,-0.16431,0.281136,0.270077,0.635021,0.281995,-1.31024,0.317984,-0.0986267,-0.0134994,
0.193482,-0.197167,-0.113534,-1.70575,0.342915,-0.292666,-0.382897,0.641986,0.00644167,0.7394,-0.161829,0.114018,0.332441,0.00715875,0,0,0,0,0,0,0,0.198389,-0.195841,-0.105544,-1.70104,0.346744,1.27176,0.401913,0.486257,0.000909558,0.569277,-0.0739899,0.0784325,0.231773,0.000133701,1.4278,-26.7345,1.78621,24.2612,2.76733,1.77971,-0.0429228,-2.15405,1.27036,-3.38142,-0.716132,-0.179537,0.557997,0.563299,0.587251,0.57753,-1.1604,0.39621,-0.0599841,-0.0156924,
0.196039,-0.197138,-0.110587,-1.70639,0.343308,-0.29132,-0.382869,0.639164,0.00728905,0.73682,-0.159968,0.0981636,0.336675,0.00699017,0,0,0,0,0,0,0,0.198389,-0.195841,-0.105544,-1.70104,0.346744,1.27176,0.401913,0.486257,0.000909558,0.569277,-0.0739899,0.0784325,0.231773,0.000133701,1.4278,-26.7345,1.78621,24.2612,2.76733,1.77971,-0.0429228,-2.15405,1.27036,-3.38142,-0.716132,-0.179537,0.557997,0.563299,0.587251,0.57753,-1.1604,0.39621,-0.0599841,-0.0156924,
0.198582,-0.197106,-0.107652,-1.70702,0.34365,-0.289956,-0.382841,0.635755,0.00810259,0.733762,-0.158262,0.0855216,0.340772,0.00693793,0,0,0,0,0,0,0,0.213607,-0.195819,-0.0873602,-1.70335,0.347617,1.27902,0.401912,0.503742,0.00197381,0.607974,-0.0680805,-0.00107543,0.229035,-0.000512776,-0.246395,-27.032,-0.213304,24.162,2.7005,1.6607,-0.00996382,-1.83092,0.310106,-3.68027,-0.0829654,0.169475,0.0928076,0.119466,0.757254,0.0328459,-1.27866,0.315246,-0.0218839,-0.0141524,
0.201112,-0.197071,-0.10473,-1.70764,0.343932,-0.288577,-0.382813,0.632502,0.00879223,0.730513,-0.156319,0.0705271,0.344766,0.00689817,0,0,0,0,0,0,0,0.213607,-0.195819,-0.0873602,-1.70335,0.347617,1.27902,0.401912,0.503742,0.00197381,0.607974,-0.0680805,-0.00107543,0.229035,-0.000512776,-0.246395,-27.032,-0.213304,24.162,2.7005,1.6607,-0.00996382,-1.83092,0.310106,-3.68027,-0.0829654,0.169475,0.0928076,0.119466,0.757254,0.0328459,-1.27866,0.315246,-0.0218839,-0.0141524,
0.203629,-0.197033,-0.101821,-1.70826,0.344142,-0.287183,-0.382786,0.62929,0.00932272,0.727259,-0.154224,0.0525964,0.348704,0.00680105,0,0,0,0,0,0,0,0.213607,-0.195819,-0.0873602,-1.70335,0.347617,1.27902,0.401912,0.503742,0.00197381,0.607974,-0.0680805,-0.00107543,0.229035,-0.000512776,-0.246395,-27.032,-0.213304,24.162,2.7005,1.6607,-0.00996382,-1.25695,-2.1173,-4.03544,1.54582,0.748019,-1.06683,-1.03699,0.95633,-1.28015,-1.44501,0.115977,0.0168613,-0.00894038,
0.206132,-0.196994,-0.0989252,-1.70887,0.344277,-0.285772,-0.382759,0.625877,0.00973603,0.723926,-0.152166,0.0337524,0.352567,0.00670221,0,0,0,0,0,0,0,0.213607,-0.195819,-0.0873602,-1.70335,0.347617,1.27902,0.401912,0.503742,0.00197381,0.607974,-0.0680805,-0.00107543,0.229035,-0.000512776,-0.246395,-27.032,-0.213304,24.162,2.7005,1.6607,-0.00996382,-1.77214,-1.29118,-3.63154,1.00676,0.193746,-0.633489,-0.606679,0.636482,-0.78666,-1.24297,0.212204,0.00586558,-0.0122302,
