PerkyPenguin/Analysis-on-Approximated-Derivatives/Code_and_Data/PaperData/Real_Robot/Scene_2/set_interval/19/trajectory.csv
Commanded Joint 0 Position,Commanded Joint 1 Position,Commanded Joint 2 Position,Commanded Joint 3 Position,Commanded Joint 4 Position,Commanded Joint 5 Position,Commanded Joint 6 Position,Commanded Joint 0 Velocity,Commanded Joint 1 Velocity,Commanded Joint 2 Velocity,Commanded Joint 3 Velocity,Commanded Joint 4 Velocity,Commanded Joint 5 Velocity,Commanded Joint 6 Velocity,Commanded Joint 0 Torque,Commanded Joint 1 Torque,Commanded Joint 2 Torque,Commanded Joint 3 Torque,Commanded Joint 4 Torque,Commanded Joint 5 Torque,Commanded Joint 6 Torque,Actual Joint 0 Position,Actual Joint 1 Position,Actual Joint 2 Position,Actual Joint 3 Position,Actual Joint 4 Position,Actual Joint 5 Position,Actual Joint 6 Position,Actual Joint 0 Velocity,Actual Joint 1 Velocity,Actual Joint 2 Velocity,Actual Joint 3 Velocity,Actual Joint 4 Velocity,Actual Joint 5 Velocity,Actual Joint 6 Velocity,Actual Joint 0 Torque,Actual Joint 1 Torque,Actual Joint 2 Torque,Actual Joint 3 Torque,Actual Joint 4 Torque,Actual Joint 5 Torque,Actual Joint 6 Torque,EE ext force 0,EE ext force 1,EE ext force 2,EE ext force 3,EE ext force 4,EE ext force 5,joint ext torque 0,joint ext torque 1,joint ext torque 2,joint ext torque 3,joint ext torque 4,joint ext torque 5,joint ext torque 6,
0.0202528,-0.0550587,0.51015,-1.5676,0.0372947,-0.00688584,0.531417,0.0108089,0.029969,0.0152242,-0.144363,-0.0783466,0.200346,-0.00128072,0,0,0,0,0,0,0,0.0201692,-0.0551799,0.510031,-1.56616,0.0380205,1.56194,1.31683,0.000291657,0.000626311,0.000154109,0.000754748,0.00601259,0.00122253,0.000536861,0.209842,-27.5319,-0.836168,27.0026,0.495907,3.06603,0.0779268,2.10261,1.85217,2.00081,-0.926064,1.14531,0.173253,0.19933,0.451554,0.164736,0.208205,0.158259,-0.271697,0.0947902,
0.0203093,-0.0548572,0.510227,-1.56822,0.0369155,-0.00605058,0.531411,0.0141251,0.0503812,0.0193216,-0.155094,-0.0947798,0.208816,-0.00135975,0,0,0,0,0,0,0,0.0201692,-0.0551799,0.510031,-1.56616,0.0380205,1.56194,1.31683,0.000291657,0.000626311,0.000154109,0.000754748,0.00601259,0.00122253,0.000536861,0.209842,-27.5319,-0.836168,27.0026,0.495907,3.06603,0.0779268,2.23666,1.88879,2.02966,-0.960616,1.22876,0.150405,0.177603,0.490839,0.141947,0.203862,0.142668,-0.272688,0.0961483,
0.0201735,-0.0551772,0.510035,-1.56616,0.0380775,-0.00883703,0.531434,0.000277527,3.16333e-05,0.000327375,0.000123725,0.00245537,0.000822496,-1.04704e-06,0,0,0,0,0,0,0,0.0201692,-0.0551799,0.510031,-1.56616,0.0380205,1.56194,1.31683,0.000291657,0.000626311,0.000154109,0.000754748,0.00601259,0.00122253,0.000536861,0.209842,-27.5319,-0.836168,27.0026,0.495907,3.06603,0.0779268,2.13662,1.82471,2.08183,-0.892332,1.13054,0.149968,0.174974,0.424932,0.141164,0.24213,0.147939,-0.266359,0.0955503,
0.0201746,-0.0551773,0.510037,-1.56616,0.0380854,-0.00883437,0.531434,0.000268857,-2.63155e-05,0.000327161,0.000104514,0.00196693,0.000664008,-1.97531e-06,0,0,0,0,0,0,0,0.0201692,-0.0551799,0.510031,-1.56616,0.0380205,1.56194,1.31683,0.000291657,0.000626311,0.000154109,0.000754748,0.00601259,0.00122253,0.000536861,0.209842,-27.5319,-0.836168,27.0026,0.495907,3.06603,0.0779268,2.13662,1.82471,2.08183,-0.892332,1.13054,0.149968,0.174974,0.424932,0.141164,0.24213,0.147939,-0.266359,0.0955503,
0.0201756,-0.0551776,0.510038,-1.56616,0.0380917,-0.00883228,0.531434,0.000254921,-7.42458e-05,0.000320008,9.27277e-05,0.0015799,0.000524317,-2.51377e-06,0,0,0,0,0,0,0,0.0201692,-0.0551799,0.510031,-1.56616,0.0380205,1.56194,1.31683,0.000291657,0.000626311,0.000154109,0.000754748,0.00601259,0.00122253,0.000536861,0.209842,-27.5319,-0.836168,27.0026,0.495907,3.06603,0.0779268,1.88594,1.58949,2.04886,-0.708899,0.934707,0.113381,0.138067,0.3106,0.0993197,0.28639,0.149624,-0.243236,0.0949187,
0.0201765,-0.055178,0.510039,-1.56616,0.0380968,-0.00883067,0.531434,0.000237998,-0.000114149,0.000308601,8.53799e-05,0.0012708,0.000402873,-2.74477e-06,0,0,0,0,0,0,0,0.0201731,-0.0552664,0.510032,-1.56651,0.0379024,1.56234,1.31684,-0.00703213,-0.0058994,-0.0025923,-0.0302023,0.00402647,0.0471942,0.00107579,0.209842,-26.4092,-0.788561,25.3085,0.60577,2.81426,0.0641939,1.88594,1.58949,2.04886,-0.708899,0.934707,0.113381,0.138067,0.3106,0.0993197,0.28639,0.149624,-0.243236,0.0949187,
0.0201774,-0.0551786,0.51004,-1.56616,0.0381008,-0.00882947,0.531434,0.000219696,-0.000147401,0.000294846,8.08452e-05,0.00102179,0.000298048,-2.76036e-06,0,0,0,0,0,0,0,0.0201731,-0.0552664,0.510032,-1.56651,0.0379024,1.56234,1.31684,-0.00703213,-0.0058994,-0.0025923,-0.0302023,0.00402647,0.0471942,0.00107579,0.209842,-26.4092,-0.788561,25.3085,0.60577,2.81426,0.0641939,0.780579,1.24492,1.46518,-0.60146,0.332497,0.266676,0.286025,0.0764707,0.25808,0.167,0.143438,-0.2608,0.0931908,
0.0201782,-0.0551793,0.510042,-1.56616,0.0381041,-0.00882864,0.531434,0.000201102,-0.00017509,0.000280048,7.81267e-05,0.000819414,0.000207938,-2.63611e-06,0,0,0,0,0,0,0,0.0201731,-0.0552664,0.510032,-1.56651,0.0379024,1.56234,1.31684,-0.00703213,-0.0058994,-0.0025923,-0.0302023,0.00402647,0.0471942,0.00107579,0.209842,-26.4092,-0.788561,25.3085,0.60577,2.81426,0.0641939,1.51043,1.73412,0.824999,-1.10673,1.11069,0.285452,0.301643,0.618385,0.298034,-0.143885,0.148574,-0.239898,0.0922047,
0.0201789,-0.0551801,0.510043,-1.56616,0.0381067,-0.00882812,0.531434,0.000182916,-0.000198122,0.000265072,7.65746e-05,0.000653498,0.000130653,-2.42745e-06,0,0,0,0,0,0,0,0.0201731,-0.0552664,0.510032,-1.56651,0.0379024,1.56234,1.31684,-0.00703213,-0.0058994,-0.0025923,-0.0302023,0.00402647,0.0471942,0.00107579,0.209842,-26.4092,-0.788561,25.3085,0.60577,2.81426,0.0641939,1.51043,1.73412,0.824999,-1.10673,1.11069,0.285452,0.301643,0.618385,0.298034,-0.143885,0.148574,-0.239898,0.0922047,
0.0201796,-0.055181,0.510044,-1.56616,0.0381088,-0.00882786,0.531434,0.000165573,-0.000217262,0.000250473,7.57546e-05,0.000516326,6.44388e-05,-2.17295e-06,0,0,0,0,0,0,0,0.0201731,-0.0552664,0.510032,-1.56651,0.0379024,1.56234,1.31684,-0.00703213,-0.0058994,-0.0025923,-0.0302023,0.00402647,0.0471942,0.00107579,0.209842,-26.4092,-0.788561,25.3085,0.60577,2.81426,0.0641939,2.38146,2.07792,0.998092,-1.3269,1.66543,0.197429,0.217986,0.885223,0.211449,-0.143501,0.127639,-0.20836,0.0920304,
0.0201802,-0.0551819,0.510045,-1.56616,0.0381104,-0.00882783,0.531434,0.000149318,-0.000233155,0.000236591,7.53764e-05,0.000402013,7.71657e-06,-1.8986e-06,0,0,0,0,0,0,0,0.0201731,-0.0552664,0.510032,-1.56651,0.0379024,1.56234,1.31684,-0.00703213,-0.0058994,-0.0025923,-0.0302023,0.00402647,0.0471942,0.00107579,0.209842,-26.4092,-0.788561,25.3085,0.60577,2.81426,0.0641939,2.38146,2.07792,0.998092,-1.3269,1.66543,0.197429,0.217986,0.885223,0.211449,-0.143501,0.127639,-0.20836,0.0920304,
0.0201807,-0.0551829,0.510045,-1.56616,0.0381116,-0.00882799,0.531434,0.000134272,-0.000246347,0.000223616,7.52471e-05,0.000306036,-4.0905e-05,-1.62138e-06,0,0,0,0,0,0,0,0.0201731,-0.0552422,0.510023,-1.56664,0.0377946,1.56261,1.31684,0.00317206,0.000251958,0.00107037,0.000834438,-0.0126958,-0.000512658,0.00183439,0.0828892,-27.5597,-0.812364,27.2763,1.36291,3.29857,0.0641939,2.61452,1.97063,1.52806,-1.10783,1.60277,0.0806875,0.0893423,0.740845,0.0963216,0.0787268,0.119841,-0.169011,0.0938666,
0.0201812,-0.0551839,0.510046,-1.56616,0.0381125,-0.00882832,0.531434,0.000120473,-0.000257296,0.00021164,7.52416e-05,0.000224902,-8.26344e-05,-1.35201e-06,0,0,0,0,0,0,0,0.0201731,-0.0552422,0.510023,-1.56664,0.0377946,1.56261,1.31684,0.00317206,0.000251958,0.00107037,0.000834438,-0.0126958,-0.000512658,0.00183439,0.0828892,-27.5597,-0.812364,27.2763,1.36291,3.29857,0.0641939,2.61452,1.97063,1.52806,-1.10783,1.60277,0.0806875,0.0893423,0.740845,0.0963216,0.0787268,0.119841,-0.169011,0.0938666,
0.0201816,-0.055185,0.510047,-1.56616,0.0381132,-0.0088288,0.531434,0.000107903,-0.000266385,0.000200688,7.52807e-05,0.000155884,-0.000118511,-1.09687e-06,0,0,0,0,0,0,0,0.0201731,-0.0552422,0.510023,-1.56664,0.0377946,1.56261,1.31684,0.00317206,0.000251958,0.00107037,0.000834438,-0.0126958,-0.000512658,0.00183439,0.0828892,-27.5597,-0.812364,27.2763,1.36291,3.29857,0.0641939,2.28381,2.02177,1.43253,-1.16489,1.41323,0.195362,0.187841,0.661851,0.228524,0.0530986,0.137342,-0.187741,0.0952068,
0.020182,-0.0551861,0.510048,-1.56615,0.0381135,-0.0088294,0.531434,9.65106e-05,-0.000273935,0.000190741,7.53168e-05,9.68412e-05,-0.000149423,-8.59448e-07,0,0,0,0,0,0,0,0.0201731,-0.0552422,0.510023,-1.56664,0.0377946,1.56261,1.31684,0.00317206,0.000251958,0.00107037,0.000834438,-0.0126958,-0.000512658,0.00183439,0.0828892,-27.5597,-0.812364,27.2763,1.36291,3.29857,0.0641939,2.28381,2.02177,1.43253,-1.16489,1.41323,0.195362,0.187841,0.661851,0.228524,0.0530986,0.137342,-0.187741,0.0952068,
0.0201824,-0.0551872,0.510049,-1.56615,0.0381137,-0.0088301,0.531434,8.62266e-05,-0.000280213,0.000181757,7.53235e-05,4.60777e-05,-0.000176122,-6.41249e-07,0,0,0,0,0,0,0,0.0201731,-0.0552422,0.510023,-1.56664,0.0377946,1.56261,1.31684,0.00317206,0.000251958,0.00107037,0.000834438,-0.0126958,-0.000512658,0.00183439,0.0828892,-27.5597,-0.812364,27.2763,1.36291,3.29857,0.0641939,2.07563,1.79022,1.67456,-0.958497,1.15983,0.146025,0.141885,0.475232,0.169099,0.165023,0.112504,-0.196741,0.0966958,
0.0201827,-0.0551884,0.510049,-1.56615,0.0381137,-0.0088309,0.531434,7.69699e-05,-0.000285441,0.000173675,7.5288e-05,2.23776e-06,-0.000199246,-4.42535e-07,0,0,0,0,0,0,0,0.0201749,-0.0552419,0.510028,-1.56663,0.0377973,1.56262,1.31683,0.000659785,5.32632e-05,0.00121654,-0.00944671,-0.00355015,-0.000667792,-0.000366042,0.0828892,-27.5597,-0.887743,27.2763,1.22833,3.26562,0.0980684,1.94044,1.61658,1.88865,-0.761947,0.969349,0.105844,0.0989415,0.326856,0.124246,0.279941,0.121724,-0.182847,0.0960084,
0.020183,-0.0551895,0.51005,-1.56615,0.0381136,-0.00883178,0.531434,6.86565e-05,-0.000289805,0.000166428,7.52068e-05,-3.57709e-05,-0.00021933,-2.62767e-07,0,0,0,0,0,0,0,0.0201749,-0.0552419,0.510028,-1.56663,0.0377973,1.56262,1.31683,0.000659785,5.32632e-05,0.00121654,-0.00944671,-0.00355015,-0.000667792,-0.000366042,0.0828892,-27.5597,-0.887743,27.2763,1.22833,3.26562,0.0980684,1.94044,1.61658,1.88865,-0.761947,0.969349,0.105844,0.0989415,0.326856,0.124246,0.279941,0.121724,-0.182847,0.0960084,
0.0201832,-0.0551907,0.510051,-1.56615,0.0381133,-0.00883272,0.531434,6.12027e-05,-0.000293456,0.000159947,7.50815e-05,-6.88357e-05,-0.000236826,-1.00936e-07,0,0,0,0,0,0,0,0.0201749,-0.0552419,0.510028,-1.56663,0.0377973,1.56262,1.31683,0.000659785,5.32632e-05,0.00121654,-0.00944671,-0.00355015,-0.000667792,-0.000366042,0.0828892,-27.5597,-0.887743,27.2763,1.22833,3.26562,0.0980684,2.35739,1.81761,1.59271,-0.982272,1.41032,0.0818756,0.0682197,0.631899,0.114836,0.108579,0.129999,-0.194223,0.0947193,
0.0201834,-0.0551919,0.510051,-1.56615,0.0381129,-0.00883373,0.531434,5.45279e-05,-0.000296521,0.000154164,7.49169e-05,-9.76839e-05,-0.000252113,4.42236e-08,0,0,0,0,0,0,0,0.0201749,-0.0552419,0.510028,-1.56663,0.0377973,1.56262,1.31683,0.000659785,5.32632e-05,0.00121654,-0.00944671,-0.00355015,-0.000667792,-0.000366042,0.0828892,-27.5597,-0.887743,27.2763,1.22833,3.26562,0.0980684,2.35739,1.81761,1.59271,-0.982272,1.41032,0.0818756,0.0682197,0.631899,0.114836,0.108579,0.129999,-0.194223,0.0947193,
0.0201836,-0.0551931,0.510052,-1.56615,0.0381124,-0.00883479,0.531434,4.85562e-05,-0.000299105,0.000149011,7.47196e-05,-0.000122916,-0.000265511,1.74089e-07,0,0,0,0,0,0,0,0.0201749,-0.0552419,0.510028,-1.56663,0.0377973,1.56262,1.31683,0.000659785,5.32632e-05,0.00121654,-0.00944671,-0.00355015,-0.000667792,-0.000366042,0.0828892,-27.5597,-0.887743,27.2763,1.22833,3.26562,0.0980684,2.15132,1.87054,1.59939,-1.035,1.26079,0.166002,0.154208,0.551762,0.198991,0.113924,0.122683,-0.209052,0.0922559,
0.0201838,-0.0551943,0.510052,-1.56615,0.0381119,-0.0088359,0.531434,4.32169e-05,-0.000301295,0.000144428,7.44966e-05,-0.000145031,-0.000277286,2.90057e-07,0,0,0,0,0,0,0,0.0201749,-0.0552419,0.510028,-1.56663,0.0377973,1.56262,1.31683,0.000659785,5.32632e-05,0.00121654,-0.00944671,-0.00355015,-0.000667792,-0.000366042,0.0828892,-27.5597,-0.887743,27.2763,1.22833,3.26562,0.0980684,2.15132,1.87054,1.59939,-1.035,1.26079,0.166002,0.154208,0.551762,0.198991,0.113924,0.122683,-0.209052,0.0922559,
0.0201839,-0.0551955,0.510053,-1.56615,0.0381112,-0.00883705,0.531434,3.84452e-05,-0.000303163,0.000140355,7.42548e-05,-0.000164449,-0.000287665,3.93484e-07,0,0,0,0,0,0,0,0.0201703,-0.0552472,0.51002,-1.5666,0.0377977,1.56264,1.31683,0.00109352,-0.000392291,0.000218022,-0.000656233,-0.0136306,-0.000923796,0.00014584,0.158268,-27.4843,-0.812364,26.8518,1.22284,3.17864,0.0907442,1.92029,1.87312,1.70504,-1.00387,1.04954,0.23376,0.229713,0.417035,0.257732,0.177133,0.13159,-0.207794,0.0912692,
0.0201841,-0.0551967,0.510053,-1.56615,0.0381105,-0.00883824,0.531434,3.41818e-05,-0.000304766,0.000136741,7.40007e-05,-0.000181521,-0.000296837,4.85654e-07,0,0,0,0,0,0,0,0.0201703,-0.0552472,0.51002,-1.5666,0.0377977,1.56264,1.31683,0.00109352,-0.000392291,0.000218022,-0.000656233,-0.0136306,-0.000923796,0.00014584,0.158268,-27.4843,-0.812364,26.8518,1.22284,3.17864,0.0907442,2.02571,1.98747,1.32226,-1.19367,1.29764,0.256562,0.267034,0.633555,0.27473,-0.00944958,0.131111,-0.234614,0.0916282,
0.0201842,-0.0551979,0.510054,-1.56615,0.0381097,-0.00883946,0.531434,3.03731e-05,-0.000306153,0.000133537,7.37401e-05,-0.000196548,-0.000304964,5.67759e-07,0,0,0,0,0,0,0,0.0201703,-0.0552472,0.51002,-1.5666,0.0377977,1.56264,1.31683,0.00109352,-0.000392291,0.000218022,-0.000656233,-0.0136306,-0.000923796,0.00014584,0.158268,-27.4843,-0.812364,26.8518,1.22284,3.17864,0.0907442,2.02571,1.98747,1.32226,-1.19367,1.29764,0.256562,0.267034,0.633555,0.27473,-0.00944958,0.131111,-0.234614,0.0916282,
0.0201843,-0.0551992,0.510055,-1.56615,0.0381088,-0.00884071,0.531434,2.69709e-05,-0.000307366,0.000130699,7.34781e-05,-0.000209785,-0.000312181,6.40888e-07,0,0,0,0,0,0,0,0.0201703,-0.0552472,0.51002,-1.5666,0.0377977,1.56264,1.31683,0.00109352,-0.000392291,0.000218022,-0.000656233,-0.0136306,-0.000923796,0.00014584,0.158268,-27.4843,-0.812364,26.8518,1.22284,3.17864,0.0907442,1.68317,1.89304,1.46705,-1.05901,0.983487,0.311546,0.336278,0.431829,0.310617,0.0971597,0.155672,-0.219356,0.0912437,
0.0201844,-0.0552004,0.510055,-1.56615,0.038108,-0.00884198,0.531434,2.39316e-05,-0.000308435,0.000128188,7.3219e-05,-0.000221452,-0.000318604,7.06031e-07,0,0,0,0,0,0,0,0.0201703,-0.0552472,0.51002,-1.5666,0.0377977,1.56264,1.31683,0.00109352,-0.000392291,0.000218022,-0.000656233,-0.0136306,-0.000923796,0.00014584,0.158268,-27.4843,-0.812364,26.8518,1.22284,3.17864,0.0907442,1.68317,1.89304,1.46705,-1.05901,0.983487,0.311546,0.336278,0.431829,0.310617,0.0971597,0.155672,-0.219356,0.0912437,
0.0201845,-0.0552016,0.510056,-1.56615,0.038107,-0.00884328,0.531434,2.12163e-05,-0.000309389,0.000125969,7.29664e-05,-0.000231737,-0.000324331,7.6408e-07,0,0,0,0,0,0,0,0.0201464,-0.0552615,0.509964,-1.56662,0.0378814,1.56263,1.31683,-0.00127174,-0.00144736,-0.000806619,0.00111192,0.0115424,0.00119737,0.000127896,0.134464,-27.5081,-0.986925,27.3001,0.440975,3.21892,0.0907442,1.87024,1.63083,1.62577,-0.819438,1.04177,0.139857,0.177706,0.425155,0.118429,0.172024,0.145561,-0.197315,0.0913682,
0.0203936,-0.0554437,0.510258,-1.56592,-0.0181899,-0.0448543,0.531279,-0.00517016,0.000914274,-0.00513841,-0.00233576,-0.336058,-0.217401,-0.00069815,0,0,0,0,0,0,0,0.0201464,-0.0552615,0.509964,-1.56662,0.0378814,1.56263,1.31683,-0.00127174,-0.00144736,-0.000806619,0.00111192,0.0115424,0.00119737,0.000127896,0.134464,-27.5081,-0.986925,27.3001,0.440975,3.21892,0.0907442,1.87024,1.63083,1.62577,-0.819438,1.04177,0.139857,0.177706,0.425155,0.118429,0.172024,0.145561,-0.197315,0.0913682,
0.0203372,-0.0555774,0.51017,-1.56638,-0.00808675,-0.0382329,0.531349,-0.00442637,0.000201795,-0.00431033,-0.00212964,-0.257557,-0.174261,-0.000340672,0,0,0,0,0,0,0,0.0201464,-0.0552615,0.509964,-1.56662,0.0378814,1.56263,1.31683,-0.00127174,-0.00144736,-0.000806619,0.00111192,0.0115424,0.00119737,0.000127896,0.134464,-27.5081,-0.986925,27.3001,0.440975,3.21892,0.0907442,2.39461,1.87261,1.50121,-1.05486,1.48448,0.102364,0.14612,0.69654,0.0834805,0.0536776,0.124331,-0.208734,0.0915046,
0.0203192,-0.0555765,0.510153,-1.56639,-0.00910163,-0.0389211,0.531348,-0.00448822,0.000215188,-0.00437441,-0.00214493,-0.25372,-0.172067,-0.000338833,0,0,0,0,0,0,0,0.0201464,-0.0552615,0.509964,-1.56662,0.0378814,1.56263,1.31683,-0.00127174,-0.00144736,-0.000806619,0.00111192,0.0115424,0.00119737,0.000127896,0.134464,-27.5081,-0.986925,27.3001,0.440975,3.21892,0.0907442,2.12398,1.74409,1.5455,-0.9359,1.27088,0.120986,0.159598,0.571403,0.103052,0.10072,0.138579,-0.209398,0.0904992,
0.020301,-0.0555756,0.510135,-1.5664,-0.0101002,-0.0396,0.531346,-0.00455102,0.00022218,-0.00443919,-0.00216631,-0.249641,-0.16971,-0.000338117,0,0,0,0,0,0,0,0.0201464,-0.0552615,0.509964,-1.56662,0.0378814,1.56263,1.31683,-0.00127174,-0.00144736,-0.000806619,0.00111192,0.0115424,0.00119737,0.000127896,0.134464,-27.5081,-0.986925,27.3001,0.440975,3.21892,0.0907442,2.12398,1.74409,1.5455,-0.9359,1.27088,0.120986,0.159598,0.571403,0.103052,0.10072,0.138579,-0.209398,0.0904992,
0.0202826,-0.0555747,0.510117,-1.56641,-0.0110813,-0.0402686,0.531345,-0.00461659,0.00022328,-0.00450642,-0.00219587,-0.245287,-0.167158,-0.000338438,0,0,0,0,0,0,0,0.0201986,-0.0552803,0.509996,-1.56656,0.0364718,1.5626,1.31683,0.0020076,0.00138896,0.00313031,-0.000399813,-0.130955,0.000796059,0.000345474,-0.476498,-27.4565,-1.38762,26.5305,0.00152227,2.76757,0.0577852,1.93756,1.97124,1.64277,-1.0778,1.11687,0.276167,0.310368,0.480732,0.265998,0.128893,0.157877,-0.226696,0.091237,
0.0202638,-0.0555738,0.510099,-1.56642,-0.0120438,-0.0409261,0.531344,-0.00468704,0.000219015,-0.00457818,-0.00223605,-0.240617,-0.164377,-0.000340005,0,0,0,0,0,0,0,0.0201986,-0.0552803,0.509996,-1.56656,0.0364718,1.5626,1.31683,0.0020076,0.00138896,0.00313031,-0.000399813,-0.130955,0.000796059,0.000345474,-0.476498,-27.4565,-1.38762,26.5305,0.00152227,2.76757,0.0577852,1.93756,1.97124,1.64277,-1.0778,1.11687,0.276167,0.310368,0.480732,0.265998,0.128893,0.157877,-0.226696,0.091237,
0.0202448,-0.055573,0.51008,-1.56643,-0.0129861,-0.0415714,0.531342,-0.00476497,0.000209955,-0.00465695,-0.00228976,-0.235581,-0.161323,-0.000342715,0,0,0,0,0,0,0,0.0201986,-0.0552803,0.509996,-1.56656,0.0364718,1.5626,1.31683,0.0020076,0.00138896,0.00313031,-0.000399813,-0.130955,0.000796059,0.000345474,-0.476498,-27.4565,-1.38762,26.5305,0.00152227,2.76757,0.0577852,1.72079,2.03756,1.59104,-1.25352,0.994958,0.363153,0.378373,0.433556,0.379249,0.0506866,0.0730865,-0.303397,0.090322,
0.0202253,-0.0555722,0.510061,-1.56644,-0.0139066,-0.0422032,0.531341,-0.00485352,0.000196722,-0.00474581,-0.00236046,-0.230118,-0.157944,-0.00034674,0,0,0,0,0,0,0,0.0201986,-0.0552803,0.509996,-1.56656,0.0364718,1.5626,1.31683,0.0020076,0.00138896,0.00313031,-0.000399813,-0.130955,0.000796059,0.000345474,-0.476498,-27.4565,-1.38762,26.5305,0.00152227,2.76757,0.0577852,1.37028,2.04192,1.6328,-1.32332,0.708579,0.459078,0.451591,0.264625,0.500539,0.065953,0.00641252,-0.337167,0.0899134,
0.0202055,-0.0555715,0.510042,-1.56645,-0.0148032,-0.0428199,0.531339,-0.00495667,0.000180017,-0.00484862,-0.00245225,-0.224151,-0.154176,-0.000351831,0,0,0,0,0,0,0,0.0201986,-0.0552803,0.509996,-1.56656,0.0364718,1.5626,1.31683,0.0020076,0.00138896,0.00313031,-0.000399813,-0.130955,0.000796059,0.000345474,-0.476498,-27.4565,-1.38762,26.5305,0.00152227,2.76757,0.0577852,1.37028,2.04192,1.6328,-1.32332,0.708579,0.459078,0.451591,0.264625,0.500539,0.065953,0.00641252,-0.337167,0.0899134,
0.0201852,-0.0555708,0.510022,-1.56646,-0.0156736,-0.0434197,0.531338,-0.00507946,0.000160629,-0.00497028,-0.00257003,-0.217587,-0.149945,-0.00035803,0,0,0,0,0,0,0,0.0201986,-0.0552803,0.509996,-1.56656,0.0364718,1.5626,1.31683,0.0020076,0.00138896,0.00313031,-0.000399813,-0.130955,0.000796059,0.000345474,-0.476498,-27.4565,-1.38762,26.5305,0.00152227,2.76757,0.0577852,1.65415,2.01605,1.85237,-1.30395,0.793537,0.362784,0.338589,0.254269,0.419664,0.136768,-0.061495,-0.323676,0.0901911,
0.0201643,-0.0555703,0.510001,-1.56647,-0.0165148,-0.0440003,0.531336,-0.00522838,0.000139452,-0.00511708,-0.00271963,-0.210308,-0.145158,-0.000364937,0,0,0,0,0,0,0,0.0202541,-0.0552896,0.510049,-1.5666,0.0310568,1.56205,1.31683,-0.000381741,-0.000140748,-0.000154577,-0.00128744,-0.200962,-0.0313582,-0.000848227,-0.551876,-27.3811,-1.463,27.1771,0.569149,2.96715,0.110886,1.65415,2.01605,1.85237,-1.30395,0.793537,0.362784,0.338589,0.254269,0.419664,0.136768,-0.061495,-0.323676,0.0901911,
0.0201426,-0.0555698,0.50998,-1.56648,-0.0173234,-0.0445591,0.531335,-0.00541186,0.000117504,-0.00529723,-0.00290797,-0.202165,-0.139709,-0.000372096,0,0,0,0,0,0,0,0.0202541,-0.0552896,0.510049,-1.5666,0.0310568,1.56205,1.31683,-0.000381741,-0.000140748,-0.000154577,-0.00128744,-0.200962,-0.0313582,-0.000848227,-0.551876,-27.3811,-1.463,27.1771,0.569149,2.96715,0.110886,2.01957,1.88209,1.9744,-1.23529,1.02608,0.195533,0.162667,0.364354,0.25949,0.120292,-0.11374,-0.357167,0.0907402,
0.0201201,-0.0555694,0.509958,-1.56649,-0.0180953,-0.045093,0.531333,-0.00564095,9.58849e-05,-0.00552152,-0.0031433,-0.19297,-0.133467,-0.000378465,0,0,0,0,0,0,0,0.0202541,-0.0552896,0.510049,-1.5666,0.0310568,1.56205,1.31683,-0.000381741,-0.000140748,-0.000154577,-0.00128744,-0.200962,-0.0313582,-0.000848227,-0.551876,-27.3811,-1.463,27.1771,0.569149,2.96715,0.110886,2.49253,1.60913,2.11054,-1.11212,1.33497,-0.0659454,-0.104294,0.514864,0.00162316,0.0770853,-0.213075,-0.418398,0.0902337,
0.0200964,-0.0555691,0.509935,-1.56651,-0.0188252,-0.0455981,0.531332,-0.00593033,7.57178e-05,-0.00580422,-0.00343546,-0.182478,-0.12628,-0.000382599,0,0,0,0,0,0,0,0.0202541,-0.0552896,0.510049,-1.5666,0.0310568,1.56205,1.31683,-0.000381741,-0.000140748,-0.000154577,-0.00128744,-0.200962,-0.0313582,-0.000848227,-0.551876,-27.3811,-1.463,27.1771,0.569149,2.96715,0.110886,2.49253,1.60913,2.11054,-1.11212,1.33497,-0.0659454,-0.104294,0.514864,0.00162316,0.0770853,-0.213075,-0.418398,0.0902337,
0.0200712,-0.0555689,0.50991,-1.56652,-0.0195067,-0.04607,0.53133,-0.0062996,5.78887e-05,-0.00616448,-0.00379659,-0.170377,-0.117966,-0.000381923,0,0,0,0,0,0,0,0.0202541,-0.0552896,0.510049,-1.5666,0.0310568,1.56205,1.31683,-0.000381741,-0.000140748,-0.000154577,-0.00128744,-0.200962,-0.0313582,-0.000848227,-0.551876,-27.3811,-1.463,27.1771,0.569149,2.96715,0.110886,2.36869,1.39397,2.21322,-0.97623,1.21793,-0.130314,-0.172987,0.437627,-0.0620153,0.097622,-0.249288,-0.457493,0.0888456,
0.0200441,-0.0555687,0.509884,-1.56654,-0.0201318,-0.0465032,0.531329,-0.00677545,4.22149e-05,-0.00662836,-0.00424284,-0.156253,-0.108305,-0.000371304,0,0,0,0,0,0,0,0.0202533,-0.0552972,0.510057,-1.56658,0.0262781,1.56136,1.31683,0.000883281,0.000241464,4.94355e-06,-7.69806e-05,-0.151139,-0.0204976,0.000968094,-0.40112,-27.4089,-1.33605,26.9034,0.410763,2.92046,0.0641939,2.36869,1.39397,2.21322,-0.97623,1.21793,-0.130314,-0.172987,0.437627,-0.0620153,0.097622,-0.249288,-0.457493,0.0888456,
0.0200145,-0.0555686,0.509855,-1.56656,-0.02069,-0.0468913,0.531328,-0.00739534,2.47706e-05,-0.00723242,-0.0047999,-0.139555,-0.0970245,-0.000339413,0,0,0,0,0,0,0,0.0202533,-0.0552972,0.510057,-1.56658,0.0262781,1.56136,1.31683,0.000883281,0.000241464,4.94355e-06,-7.69806e-05,-0.151139,-0.0204976,0.000968094,-0.40112,-27.4089,-1.33605,26.9034,0.410763,2.92046,0.0641939,2.47828,1.45426,2.16979,-1.05663,1.35079,-0.132731,-0.165142,0.535502,-0.0709758,0.0268314,-0.254118,-0.499132,0.0870824,
0.0199816,-0.0555687,0.509823,-1.56658,-0.021168,-0.0472263,0.531327,-0.00821526,-1.08939e-05,-0.00803115,-0.00552137,-0.119517,-0.0837461,-0.000262725,0,0,0,0,0,0,0,0.0202533,-0.0552972,0.510057,-1.56658,0.0262781,1.56136,1.31683,0.000883281,0.000241464,4.94355e-06,-7.69806e-05,-0.151139,-0.0204976,0.000968094,-0.40112,-27.4089,-1.33605,26.9034,0.410763,2.92046,0.0641939,2.66982,1.38621,2.3068,-1.01688,1.45061,-0.218141,-0.231872,0.571735,-0.175115,0.0350319,-0.290185,-0.527703,0.0861169,
0.0199443,-0.0555692,0.509786,-1.56661,-0.021548,-0.0474976,0.531326,-0.0093289,-0.000123172,-0.00911642,-0.00655083,-0.0949931,-0.0678193,-0.000147531,0,0,0,0,0,0,0,0.0202533,-0.0552972,0.510057,-1.56658,0.0262781,1.56136,1.31683,0.000883281,0.000241464,4.94355e-06,-7.69806e-05,-0.151139,-0.0204976,0.000968094,-0.40112,-27.4089,-1.33605,26.9034,0.410763,2.92046,0.0641939,2.66982,1.38621,2.3068,-1.01688,1.45061,-0.218141,-0.231872,0.571735,-0.175115,0.0350319,-0.290185,-0.527703,0.0861169,
0.0199061,-0.0555669,0.509749,-1.56663,-0.0218551,-0.0477216,0.531326,-0.00955073,0.000579171,-0.00943326,-0.00591664,-0.0767617,-0.0560154,-5.01408e-05,0,0,0,0,0,0,0,0.0202533,-0.0552972,0.510057,-1.56658,0.0262781,1.56136,1.31683,0.000883281,0.000241464,4.94355e-06,-7.69806e-05,-0.151139,-0.0204976,0.000968094,-0.40112,-27.4089,-1.33605,26.9034,0.410763,2.92046,0.0641939,2.4558,1.59147,2.34861,-1.1246,1.30941,-0.0632559,-0.0614564,0.503039,-0.0329792,0.0504517,-0.239203,-0.539987,0.0862981,
0.0198686,-0.0555615,0.509711,-1.56665,-0.0221059,-0.0479078,0.531326,-0.00937563,0.00132791,-0.00932671,-0.00498253,-0.0626997,-0.0465336,-8.69081e-06,0,0,0,0,0,0,0,0.0202533,-0.0552972,0.510057,-1.56658,0.0262781,1.56136,1.31683,0.000883281,0.000241464,4.94355e-06,-7.69806e-05,-0.151139,-0.0204976,0.000968094,-0.40112,-27.4089,-1.33605,26.9034,0.410763,2.92046,0.0641939,2.4558,1.59147,2.34861,-1.1246,1.30941,-0.0632559,-0.0614564,0.503039,-0.0329792,0.0504517,-0.239203,-0.539987,0.0862981,
0.0198326,-0.0555538,0.509675,-1.56667,-0.0223124,-0.0480625,0.531326,-0.00899033,0.00193321,-0.00898741,-0.00410479,-0.0516259,-0.0386821,6.7724e-06,0,0,0,0,0,0,0,0.0201756,-0.0553024,0.509989,-1.56658,0.0210449,1.56104,1.31683,-0.0027823,-0.000261297,-0.00531858,-0.000610084,-0.1552,-0.00313236,0.000352167,0.182071,-27.3811,-0.859972,26.8796,0.6488,2.94701,0.0843355,2.40448,1.91311,2.28589,-1.30998,1.32456,0.0991639,0.111077,0.53713,0.123906,0.0289302,-0.160925,-0.529266,0.0875141,
0.0197987,-0.0555443,0.509641,-1.56668,-0.0224835,-0.048191,0.531326,-0.00849188,0.00237053,-0.00851895,-0.00335356,-0.0427801,-0.0321159,1.02358e-05,0,0,0,0,0,0,0,0.0201756,-0.0553024,0.509989,-1.56658,0.0210449,1.56104,1.31683,-0.0027823,-0.000261297,-0.00531858,-0.000610084,-0.1552,-0.00313236,0.000352167,0.182071,-27.3811,-0.859972,26.8796,0.6488,2.94701,0.0843355,2.31284,1.94977,2.33496,-1.28842,1.2569,0.142817,0.162902,0.499546,0.157843,0.056439,-0.118327,-0.527577,0.0874743,
0.0197669,-0.0555337,0.509609,-1.56669,-0.022626,-0.0482974,0.531326,-0.00793761,0.00265901,-0.00798369,-0.00272371,-0.0356316,-0.0266098,7.66343e-06,0,0,0,0,0,0,0,0.0201756,-0.0553024,0.509989,-1.56658,0.0210449,1.56104,1.31683,-0.0027823,-0.000261297,-0.00531858,-0.000610084,-0.1552,-0.00313236,0.000352167,0.182071,-27.3811,-0.859972,26.8796,0.6488,2.94701,0.0843355,2.31284,1.94977,2.33496,-1.28842,1.2569,0.142817,0.162902,0.499546,0.157843,0.056439,-0.118327,-0.527577,0.0874743,
0.0197375,-0.0555224,0.50958,-1.5667,-0.0227452,-0.0483854,0.531326,-0.00736358,0.00282614,-0.00742124,-0.00219471,-0.0297944,-0.0219907,1.9222e-06,0,0,0,0,0,0,0,0.0201756,-0.0553024,0.509989,-1.56658,0.0210449,1.56104,1.31683,-0.0027823,-0.000261297,-0.00531858,-0.000610084,-0.1552,-0.00313236,0.000352167,0.182071,-27.3811,-0.859972,26.8796,0.6488,2.94701,0.0843355,2.1932,2.01169,2.49511,-1.21329,1.12287,0.206612,0.234842,0.403604,0.208776,0.153778,-0.036976,-0.499679,0.0886161,
0.0197103,-0.0555108,0.509552,-1.56671,-0.0228451,-0.0484578,0.531326,-0.00679283,0.00289787,-0.00685716,-0.00174648,-0.0249814,-0.0181159,-5.42173e-06,0,0,0,0,0,0,0,0.0201756,-0.0553024,0.509989,-1.56658,0.0210449,1.56104,1.31683,-0.0027823,-0.000261297,-0.00531858,-0.000610084,-0.1552,-0.00313236,0.000352167,0.182071,-27.3811,-0.859972,26.8796,0.6488,2.94701,0.0843355,2.1932,2.01169,2.49511,-1.21329,1.12287,0.206612,0.234842,0.403604,0.208776,0.153778,-0.036976,-0.499679,0.0886161,
0.0196853,-0.0554992,0.509527,-1.56671,-0.022929,-0.0485173,0.531326,-0.00623991,0.00289637,-0.00630771,-0.0013627,-0.0209766,-0.0148653,-1.34418e-05,0,0,0,0,0,0,0,0.0200218,-0.0553031,0.509769,-1.56662,0.015387,1.56097,1.31683,-0.00709061,0.000339107,-0.0057194,-0.00278211,-0.123574,-0.000463432,0.000677397,0.233646,-27.5081,-0.859972,27.2763,1.15509,3.09258,0.0706026,2.37412,2.20363,2.45711,-1.32008,1.28267,0.246331,0.28282,0.504185,0.242798,0.130658,0.00800933,-0.483408,0.0875332,
0.0186007,-0.0537448,0.508227,-1.56693,-0.154421,-0.199527,0.529814,-0.0311338,0.0215825,-0.0321869,-0.020366,-1.20302,-1.07209,-0.00711666,0,0,0,0,0,0,0,0.0200218,-0.0553031,0.509769,-1.56662,0.015387,1.56097,1.31683,-0.00709061,0.000339107,-0.0057194,-0.00278211,-0.123574,-0.000463432,0.000677397,0.233646,-27.5081,-0.859972,27.2763,1.15509,3.09258,0.0706026,2.43742,2.18818,2.51843,-1.22635,1.32066,0.224654,0.263113,0.51936,0.214466,0.171106,0.0729983,-0.460891,0.0869991,
0.0181051,-0.0541273,0.507746,-1.56674,-0.12228,-0.151515,0.530633,-0.0253379,0.0130424,-0.025997,-0.011852,-0.634726,-0.806857,-0.00265923,0,0,0,0,0,0,0,0.0200218,-0.0553031,0.509769,-1.56662,0.015387,1.56097,1.31683,-0.00709061,0.000339107,-0.0057194,-0.00278211,-0.123574,-0.000463432,0.000677397,0.233646,-27.5081,-0.859972,27.2763,1.15509,3.09258,0.0706026,2.43742,2.18818,2.51843,-1.22635,1.32066,0.224654,0.263113,0.51936,0.214466,0.171106,0.0729983,-0.460891,0.0869991,
0.0180036,-0.0540767,0.507642,-1.56679,-0.124765,-0.154713,0.530623,-0.0253741,0.0126476,-0.0260425,-0.0118001,-0.621368,-0.799513,-0.00260152,0,0,0,0,0,0,0,0.0200218,-0.0553031,0.509769,-1.56662,0.015387,1.56097,1.31683,-0.00709061,0.000339107,-0.0057194,-0.00278211,-0.123574,-0.000463432,0.000677397,0.233646,-27.5081,-0.859972,27.2763,1.15509,3.09258,0.0706026,2.89515,2.02042,2.61453,-1.0527,1.61124,0.0189678,0.0616222,0.65559,-0.00122636,0.198935,0.0826756,-0.433097,0.088602,
0.0179018,-0.0540279,0.507537,-1.56684,-0.127193,-0.157877,0.530612,-0.0254382,0.01221,-0.0261153,-0.0117941,-0.607001,-0.791014,-0.00254883,0,0,0,0,0,0,0,0.0200218,-0.0553031,0.509769,-1.56662,0.015387,1.56097,1.31683,-0.00709061,0.000339107,-0.0057194,-0.00278211,-0.123574,-0.000463432,0.000677397,0.233646,-27.5081,-0.859972,27.2763,1.15509,3.09258,0.0706026,2.89515,2.02042,2.61453,-1.0527,1.61124,0.0189678,0.0616222,0.65559,-0.00122636,0.198935,0.0826756,-0.433097,0.088602,
0.0177997,-0.0539809,0.507433,-1.56688,-0.129559,-0.161002,0.530602,-0.0255381,0.0117279,-0.026223,-0.0118455,-0.591453,-0.781105,-0.00250274,0,0,0,0,0,0,0,0.0200218,-0.0553031,0.509769,-1.56662,0.015387,1.56097,1.31683,-0.00709061,0.000339107,-0.0057194,-0.00278211,-0.123574,-0.000463432,0.000677397,0.233646,-27.5081,-0.859972,27.2763,1.15509,3.09258,0.0706026,3.99041,3.77767,3.21444,-2.12137,2.15783,0.505932,0.558185,0.848302,0.502496,0.354194,0.160454,-0.326604,0.0968015,
0.0176969,-0.0539361,0.507327,-1.56693,-0.131857,-0.16408,0.530592,-0.0256823,0.0111994,-0.0263743,-0.0119682,-0.574524,-0.769482,-0.00246435,0,0,0,0,0,0,0,0.0199789,-0.0553319,0.509643,-1.56629,0.00805757,1.55791,1.31683,0.0115127,-0.0130711,0.00740615,0.026142,-0.534304,-0.329965,8.05806e-05,-1.36517,-26.9844,-2.16124,24.4357,0.159909,1.32287,0.0706026,3.99041,3.77767,3.21444,-2.12137,2.15783,0.505932,0.558185,0.848302,0.502496,0.354194,0.160454,-0.326604,0.0968015,
0.0175934,-0.0538937,0.507221,-1.56698,-0.134081,-0.167103,0.530583,-0.0258813,0.0106227,-0.0265793,-0.0121785,-0.555986,-0.755783,-0.00243428,0,0,0,0,0,0,0,0.0199789,-0.0553319,0.509643,-1.56629,0.00805757,1.55791,1.31683,0.0115127,-0.0130711,0.00740615,0.026142,-0.534304,-0.329965,8.05806e-05,-1.36517,-26.9844,-2.16124,24.4357,0.159909,1.32287,0.0706026,3.91241,4.88607,3.38539,-2.87601,2.01636,1.02376,1.05214,0.740167,1.06385,0.416989,0.193748,-0.286845,0.100801,
0.0174888,-0.0538537,0.507113,-1.56703,-0.136224,-0.170061,0.530573,-0.0261464,0.00999597,-0.0268493,-0.0124962,-0.535579,-0.73957,-0.00241416,0,0,0,0,0,0,0,0.0199789,-0.0553319,0.509643,-1.56629,0.00805757,1.55791,1.31683,0.0115127,-0.0130711,0.00740615,0.026142,-0.534304,-0.329965,8.05806e-05,-1.36517,-26.9844,-2.16124,24.4357,0.159909,1.32287,0.0706026,2.70983,4.42281,3.23591,-2.80279,1.22986,1.13428,1.13456,0.355167,1.20571,0.315178,0.0208442,-0.463367,0.0986111,
0.0173829,-0.0538164,0.507005,-1.56708,-0.138276,-0.172942,0.530563,-0.0264906,0.00931781,-0.0271971,-0.0129443,-0.513009,-0.720328,-0.00240621,0,0,0,0,0,0,0,0.0199789,-0.0553319,0.509643,-1.56629,0.00805757,1.55791,1.31683,0.0115127,-0.0130711,0.00740615,0.026142,-0.534304,-0.329965,8.05806e-05,-1.36517,-26.9844,-2.16124,24.4357,0.159909,1.32287,0.0706026,2.70983,4.42281,3.23591,-2.80279,1.22986,1.13428,1.13456,0.355167,1.20571,0.315178,0.0208442,-0.463367,0.0986111,
0.0172751,-0.0537821,0.506894,-1.56714,-0.140227,-0.175732,0.530554,-0.0269282,0.00858763,-0.0276368,-0.0135501,-0.487946,-0.697441,-0.00241196,0,0,0,0,0,0,0,0.0199789,-0.0553319,0.509643,-1.56629,0.00805757,1.55791,1.31683,0.0115127,-0.0130711,0.00740615,0.026142,-0.534304,-0.329965,8.05806e-05,-1.36517,-26.9844,-2.16124,24.4357,0.159909,1.32287,0.0706026,3.11825,2.63893,3.68578,-1.91936,1.39237,0.180417,0.163914,0.37488,0.253217,0.211019,-0.466351,-0.777533,0.0947411,
0.0171652,-0.0537508,0.506781,-1.56719,-0.142068,-0.178413,0.530544,-0.0274743,0.00780593,-0.0281834,-0.0143459,-0.460027,-0.670183,-0.00243544,0,0,0,0,0,0,0,0.0201936,-0.0554325,0.509842,-1.56531,-0.0114912,1.5413,1.31682,0.0116268,-0.00758191,0.00817491,0.0130881,-0.575491,-0.568227,-0.00147758,-1.44055,-26.6075,-2.26042,25.6815,-0.255741,1.46203,0.104477,3.11825,2.63893,3.68578,-1.91936,1.39237,0.180417,0.163914,0.37488,0.253217,0.211019,-0.466351,-0.777533,0.0947411,
0.0170527,-0.0537229,0.506666,-1.56725,-0.143783,-0.180964,0.530534,-0.0281444,0.00697514,-0.0288522,-0.0153692,-0.428862,-0.637698,-0.00247974,0,0,0,0,0,0,0,0.0201936,-0.0554325,0.509842,-1.56531,-0.0114912,1.5413,1.31682,0.0116268,-0.00758191,0.00817491,0.0130881,-0.575491,-0.568227,-0.00147758,-1.44055,-26.6075,-2.26042,25.6815,-0.255741,1.46203,0.104477,3.3803,1.5767,4.40359,-1.20953,1.42282,-0.392994,-0.418949,0.310522,-0.329578,0.278976,-0.64412,-1.00446,0.0905496,
0.0169369,-0.0536985,0.506547,-1.56732,-0.145359,-0.183359,0.530524,-0.028953,0.00610027,-0.0296574,-0.0166644,-0.394043,-0.598979,-0.00255036,0,0,0,0,0,0,0,0.0201936,-0.0554325,0.509842,-1.56531,-0.0114912,1.5413,1.31682,0.0116268,-0.00758191,0.00817491,0.0130881,-0.575491,-0.568227,-0.00147758,-1.44055,-26.6075,-2.26042,25.6815,-0.255741,1.46203,0.104477,3.3803,1.5767,4.40359,-1.20953,1.42282,-0.392994,-0.418949,0.310522,-0.329578,0.278976,-0.64412,-1.00446,0.0905496,
0.0168172,-0.0536778,0.506425,-1.56739,-0.14678,-0.185571,0.530513,-0.0299123,0.00518986,-0.0306113,-0.0182836,-0.355162,-0.552847,-0.00265419,0,0,0,0,0,0,0,0.0201936,-0.0554325,0.509842,-1.56531,-0.0114912,1.5413,1.31682,0.0116268,-0.00758191,0.00817491,0.0130881,-0.575491,-0.568227,-0.00147758,-1.44055,-26.6075,-2.26042,25.6815,-0.255741,1.46203,0.104477,3.4615,1.53283,4.48171,-1.24163,1.63488,-0.44817,-0.479957,0.49625,-0.376826,0.104634,-0.62582,-1.20344,0.0878015,
0.0166931,-0.0536607,0.506298,-1.56748,-0.148027,-0.187563,0.530502,-0.03103,0.00425703,-0.0317214,-0.0202897,-0.311832,-0.497918,-0.00279165,0,0,0,0,0,0,0,0.0201936,-0.0554325,0.509842,-1.56531,-0.0114912,1.5413,1.31682,0.0116268,-0.00758191,0.00817491,0.0130881,-0.575491,-0.568227,-0.00147758,-1.44055,-26.6075,-2.26042,25.6815,-0.255741,1.46203,0.104477,2.11141,0.525999,4.4273,-0.739514,0.835308,-0.547471,-0.586898,0.14241,-0.477824,-0.0425835,-0.737834,-1.5022,0.0831512,
0.0165639,-0.0536475,0.506166,-1.56757,-0.149082,-0.189293,0.530491,-0.0323072,0.00332078,-0.0329887,-0.0227594,-0.263714,-0.432555,-0.00286066,0,0,0,0,0,0,0,0.02034,-0.055599,0.509965,-1.56525,-0.0294962,1.52339,1.31683,0.00145158,-0.00375607,-0.000192173,-0.0015053,-0.489443,-0.516101,0.000342215,-1.36517,-27.159,-2.18505,25.8798,-0.493778,1.4016,0.0706026,2.11141,0.525999,4.4273,-0.739514,0.835308,-0.547471,-0.586898,0.14241,-0.477824,-0.0425835,-0.737834,-1.5022,0.0831512,
0.016429,-0.0536378,0.506028,-1.56767,-0.149924,-0.190712,0.530486,-0.0337246,0.00240961,-0.0344138,-0.0257879,-0.21054,-0.354808,-0.00128192,0,0,0,0,0,0,0,0.02034,-0.055599,0.509965,-1.56525,-0.0294962,1.52339,1.31683,0.00145158,-0.00375607,-0.000192173,-0.0015053,-0.489443,-0.516101,0.000342215,-1.36517,-27.159,-2.18505,25.8798,-0.493778,1.4016,0.0706026,2.35559,0.20547,3.86598,-0.790958,1.29394,-0.767691,-0.805691,0.522969,-0.69101,-0.399849,-0.848365,-1.63926,0.0785301,
0.0162965,-0.0536211,0.505893,-1.56776,-0.150606,-0.191893,0.530481,-0.033106,0.00417961,-0.0339249,-0.0233194,-0.170572,-0.295148,-0.00112246,0,0,0,0,0,0,0,0.02034,-0.055599,0.509965,-1.56525,-0.0294962,1.52339,1.31683,0.00145158,-0.00375607,-0.000192173,-0.0015053,-0.489443,-0.516101,0.000342215,-1.36517,-27.159,-2.18505,25.8798,-0.493778,1.4016,0.0706026,2.38506,0.735123,3.40126,-1.22041,1.647,-0.53813,-0.550983,0.871998,-0.472189,-0.693361,-0.701036,-1.7303,0.0741051,
0.0161699,-0.0535964,0.505762,-1.56784,-0.151163,-0.19288,0.530476,-0.0316579,0.00617287,-0.0325686,-0.0197521,-0.139199,-0.246867,-0.00115911,0,0,0,0,0,0,0,0.02034,-0.055599,0.509965,-1.56525,-0.0294962,1.52339,1.31683,0.00145158,-0.00375607,-0.000192173,-0.0015053,-0.489443,-0.516101,0.000342215,-1.36517,-27.159,-2.18505,25.8798,-0.493778,1.4016,0.0706026,2.38506,0.735123,3.40126,-1.22041,1.647,-0.53813,-0.550983,0.871998,-0.472189,-0.693361,-0.701036,-1.7303,0.0741051,
0.0160505,-0.0535654,0.505639,-1.56791,-0.151619,-0.193708,0.530471,-0.0298397,0.00776196,-0.0308094,-0.0163091,-0.113982,-0.206954,-0.00123438,0,0,0,0,0,0,0,0.02034,-0.055599,0.509965,-1.56525,-0.0294962,1.52339,1.31683,0.00145158,-0.00375607,-0.000192173,-0.0015053,-0.489443,-0.516101,0.000342215,-1.36517,-27.159,-2.18505,25.8798,-0.493778,1.4016,0.0706026,2.61205,0.757082,3.31832,-1.20196,1.96364,-0.598905,-0.58278,1.11323,-0.562238,-0.817873,-0.599344,-1.80241,0.0711683,
0.0159391,-0.0535299,0.505524,-1.56796,-0.151993,-0.194403,0.530466,-0.0278681,0.00885688,-0.0288734,-0.013271,-0.0934037,-0.173683,-0.00131523,0,0,0,0,0,0,0,0.0201642,-0.0558701,0.509821,-1.5653,-0.0440117,1.50771,1.31683,-0.00637017,-0.00155887,-0.00241957,-0.00121212,-0.414271,-0.444643,0.000294774,-0.528073,-27.2582,-1.61376,26.2051,-0.194401,1.84655,0.0577852,2.61205,0.757082,3.31832,-1.20196,1.96364,-0.598905,-0.58278,1.11323,-0.562238,-0.817873,-0.599344,-1.80241,0.0711683,
0.0158356,-0.0534919,0.505416,-1.568,-0.152298,-0.194986,0.530461,-0.0258605,0.00951307,-0.0268859,-0.0106525,-0.0764161,-0.145853,-0.00139228,0,0,0,0,0,0,0,0.0201642,-0.0558701,0.509821,-1.5653,-0.0440117,1.50771,1.31683,-0.00637017,-0.00155887,-0.00241957,-0.00121212,-0.414271,-0.444643,0.000294774,-0.528073,-27.2582,-1.61376,26.2051,-0.194401,1.84655,0.0577852,2.02142,-0.195253,3.52357,-0.430905,1.40231,-0.870602,-0.844871,0.739663,-0.867312,-0.610802,-0.61871,-1.773,0.0702802,
0.0157401,-0.0534526,0.505316,-1.56804,-0.152547,-0.195476,0.530455,-0.0238863,0.00981472,-0.0249213,-0.0084032,-0.0622553,-0.122535,-0.00146274,0,0,0,0,0,0,0,0.0201642,-0.0558701,0.509821,-1.5653,-0.0440117,1.50771,1.31683,-0.00637017,-0.00155887,-0.00241957,-0.00121212,-0.414271,-0.444643,0.000294774,-0.528073,-27.2582,-1.61376,26.2051,-0.194401,1.84655,0.0577852,0.817108,0.208134,3.29964,-0.641916,0.654394,-0.35368,-0.325771,0.39438,-0.348637,-0.589944,-0.449336,-1.76031,0.0676991,
0.0156521,-0.0534133,0.505224,-1.56806,-0.152749,-0.195888,0.530449,-0.0219871,0.00984172,-0.0230253,-0.00646524,-0.0503478,-0.102975,-0.00152598,0,0,0,0,0,0,0,0.0201642,-0.0558701,0.509821,-1.5653,-0.0440117,1.50771,1.31683,-0.00637017,-0.00155887,-0.00241957,-0.00121212,-0.414271,-0.444643,0.000294774,-0.528073,-27.2582,-1.61376,26.2051,-0.194401,1.84655,0.0577852,0.817108,0.208134,3.29964,-0.641916,0.654394,-0.35368,-0.325771,0.39438,-0.348637,-0.589944,-0.449336,-1.76031,0.0676991,
0.0155714,-0.0533746,0.505139,-1.56808,-0.15291,-0.196234,0.530442,-0.0201876,0.00966191,-0.0212249,-0.00478743,-0.040256,-0.0865507,-0.00158218,0,0,0,0,0,0,0,0.0201642,-0.0558701,0.509821,-1.5653,-0.0440117,1.50771,1.31683,-0.00637017,-0.00155887,-0.00241957,-0.00121212,-0.414271,-0.444643,0.000294774,-0.528073,-27.2582,-1.61376,26.2051,-0.194401,1.84655,0.0577852,0.617891,0.504675,3.09132,-0.776024,0.611646,-0.164899,-0.129256,0.418634,-0.165664,-0.616703,-0.314063,-1.71345,0.0673049,
-0.00811129,-0.0424632,0.480047,-1.58047,-0.165971,-0.211735,0.518491,-0.203455,0.110836,-0.213259,-0.0985287,-1.23974,-1.3226,-0.0578122,0,0,0,0,0,0,0,0.0201642,-0.0558701,0.509821,-1.5653,-0.0440117,1.50771,1.31683,-0.00637017,-0.00155887,-0.00241957,-0.00121212,-0.414271,-0.444643,0.000294774,-0.528073,-27.2582,-1.61376,26.2051,-0.194401,1.84655,0.0577852,0.617891,0.504675,3.09132,-0.776024,0.611646,-0.164899,-0.129256,0.418634,-0.165664,-0.616703,-0.314063,-1.71345,0.0673049,
-0.00234503,-0.0477601,0.486224,-1.57601,-0.223013,-0.187581,0.52477,-0.171618,0.0588245,-0.178387,-0.0674721,-0.868218,-0.00448489,-0.0210728,0,0,0,0,0,0,0,0.0198415,-0.0558321,0.509393,-1.56538,-0.05523,1.49562,1.31683,-0.014346,0.000588959,-0.017461,-0.0143116,-0.293322,-0.319417,0.0023162,0.0828892,-27.6827,-1.08611,27.0541,0.477596,2.9406,0.0577852,0.762492,1.07886,3.67121,-0.705598,0.269686,0.0758927,0.119513,0.0234746,0.053354,-0.0486264,-0.110926,-1.32561,0.0664714,
-0.00303793,-0.0475308,0.485504,-1.57628,-0.226215,-0.18741,0.524689,-0.173225,0.05731,-0.180032,-0.066342,-0.800579,0.0428251,-0.0202908,0,0,0,0,0,0,0,0.0198415,-0.0558321,0.509393,-1.56538,-0.05523,1.49562,1.31683,-0.014346,0.000588959,-0.017461,-0.0143116,-0.293322,-0.319417,0.0023162,0.0828892,-27.6827,-1.08611,27.0541,0.477596,2.9406,0.0577852,0.762492,1.07886,3.67121,-0.705598,0.269686,0.0758927,0.119513,0.0234746,0.053354,-0.0486264,-0.110926,-1.32561,0.0664714,
-0.00373689,-0.047308,0.484778,-1.57654,-0.229126,-0.187043,0.524611,-0.174739,0.0557131,-0.18158,-0.0652632,-0.727765,0.0916729,-0.0195405,0,0,0,0,0,0,0,0.0198415,-0.0558321,0.509393,-1.56538,-0.05523,1.49562,1.31683,-0.014346,0.000588959,-0.017461,-0.0143116,-0.293322,-0.319417,0.0023162,0.0828892,-27.6827,-1.08611,27.0541,0.477596,2.9406,0.0577852,0.284337,3.37688,3.97192,-1.70671,-0.454523,1.28401,1.33504,-0.535516,1.26707,0.566167,0.348545,-0.75997,0.0661513,
-0.00444161,-0.0470919,0.484045,-1.57679,-0.231724,-0.186474,0.524535,-0.17618,0.0540177,-0.183047,-0.0642436,-0.649409,0.14221,-0.0188191,0,0,0,0,0,0,0,0.0198415,-0.0558321,0.509393,-1.56538,-0.05523,1.49562,1.31683,-0.014346,0.000588959,-0.017461,-0.0143116,-0.293322,-0.319417,0.0023162,0.0828892,-27.6827,-1.08611,27.0541,0.477596,2.9406,0.0577852,-0.208472,6.11165,2.47071,-3.63888,-0.26986,2.68596,2.73988,-0.1667,2.72048,0.18781,0.774549,-0.482475,0.0615628,
-0.00515189,-0.0468831,0.483308,-1.57705,-0.233984,-0.185696,0.524463,-0.17757,0.0522091,-0.184455,-0.0632879,-0.565028,0.194579,-0.0181353,0,0,0,0,0,0,0,0.0198415,-0.0558321,0.509393,-1.56538,-0.05523,1.49562,1.31683,-0.014346,0.000588959,-0.017461,-0.0143116,-0.293322,-0.319417,0.0023162,0.0828892,-27.6827,-1.08611,27.0541,0.477596,2.9406,0.0577852,-0.208472,6.11165,2.47071,-3.63888,-0.26986,2.68596,2.73988,-0.1667,2.72048,0.18781,0.774549,-0.482475,0.0615628,
-0.0058676,-0.046682,0.482564,-1.5773,-0.23588,-0.1847,0.524393,-0.178928,0.0502749,-0.185824,-0.0623985,-0.474045,0.248901,-0.0174907,0,0,0,0,0,0,0,0.0186587,-0.0558038,0.508102,-1.56614,-0.0796879,1.47614,1.31655,-0.0258749,0.0105099,-0.030192,-0.0348244,-0.80354,-0.444321,-0.00967896,-2.98779,-26.187,-4.01,27.1533,-1.66657,3.72246,0.0706026,-0.865156,3.59964,2.01242,-2.08388,-0.644473,1.74308,1.78116,-0.338263,1.75418,0.107508,0.537818,-0.56714,0.0375659,
-0.00658868,-0.0464891,0.481816,-1.57754,-0.237383,-0.183479,0.524325,-0.180271,0.048206,-0.187168,-0.0615752,-0.375833,0.305256,-0.0168927,0,0,0,0,0,0,0,0.0186587,-0.0558038,0.508102,-1.56614,-0.0796879,1.47614,1.31655,-0.0258749,0.0105099,-0.030192,-0.0348244,-0.80354,-0.444321,-0.00967896,-2.98779,-26.187,-4.01,27.1533,-1.66657,3.72246,0.0706026,-0.865156,3.59964,2.01242,-2.08388,-0.644473,1.74308,1.78116,-0.338263,1.75418,0.107508,0.537818,-0.56714,0.0375659,
-0.00731509,-0.0463051,0.481062,-1.57779,-0.238462,-0.182025,0.52426,-0.181601,0.0459996,-0.18849,-0.0608127,-0.269776,0.363649,-0.0163468,0,0,0,0,0,0,0,0.0186587,-0.0558038,0.508102,-1.56614,-0.0796879,1.47614,1.31655,-0.0258749,0.0105099,-0.030192,-0.0348244,-0.80354,-0.444321,-0.00967896,-2.98779,-26.187,-4.01,27.1533,-1.66657,3.72246,0.0706026,2.3207,1.6464,2.53943,-0.894676,1.00615,0.027655,0.0759668,0.24067,0.00128857,0.360648,-0.107092,-0.316135,0.0250819,
-0.00804666,-0.0461305,0.480303,-1.57803,-0.239084,-0.180329,0.524197,-0.182893,0.0436642,-0.189765,-0.060096,-0.155395,0.423942,-0.0158622,0,0,0,0,0,0,0,0.0186587,-0.0558038,0.508102,-1.56614,-0.0796879,1.47614,1.31655,-0.0258749,0.0105099,-0.030192,-0.0348244,-0.80354,-0.444321,-0.00967896,-2.98779,-26.187,-4.01,27.1533,-1.66657,3.72246,0.0706026,2.3207,1.6464,2.53943,-0.894676,1.00615,0.027655,0.0759668,0.24067,0.00128857,0.360648,-0.107092,-0.316135,0.0250819,
-0.00878297,-0.0459656,0.479539,-1.57827,-0.239214,-0.178386,0.524135,-0.184078,0.0412269,-0.190926,-0.0593917,-0.0325645,0.48575,-0.0154488,0,0,0,0,0,0,0,0.0186587,-0.0558038,0.508102,-1.56614,-0.0796879,1.47614,1.31655,-0.0258749,0.0105099,-0.030192,-0.0348244,-0.80354,-0.444321,-0.00967896,-2.98779,-26.187,-4.01,27.1533,-1.66657,3.72246,0.0706026,4.78326,2.31151,2.04728,-1.38613,2.71023,-0.291267,-0.246893,1.1291,-0.299057,0.274333,-0.169093,0.0403817,0.0168657,
-0.009523,-0.0458106,0.478772,-1.5785,-0.238822,-0.176193,0.524074,-0.185006,0.0387489,-0.191822,-0.0586293,0.0981016,0.548245,-0.0151254,0,0,0,0,0,0,0,0.0170523,-0.056423,0.506196,-1.56828,-0.102577,1.4635,1.31637,-0.0692578,-0.0139855,-0.0843901,-0.0715702,-0.577679,-0.305432,-0.0013839,-2.35302,-25.9371,-3.46251,27.3279,-1.26923,4.00811,-0.0026396,3.65765,2.86097,1.87111,-1.68972,1.91466,0.292744,0.33079,0.70984,0.297554,0.380502,-0.0364422,0.13913,0.00511292,
-0.0102645,-0.0456652,0.478003,-1.57873,-0.237883,-0.173753,0.524015,-0.185381,0.0363489,-0.192166,-0.0576708,0.234587,0.609851,-0.0149189,0,0,0,0,0,0,0,0.0170523,-0.056423,0.506196,-1.56828,-0.102577,1.4635,1.31637,-0.0692578,-0.0139855,-0.0843901,-0.0715702,-0.577679,-0.305432,-0.0013839,-2.35302,-25.9371,-3.46251,27.3279,-1.26923,4.00811,-0.0026396,3.65765,2.86097,1.87111,-1.68972,1.91466,0.292744,0.33079,0.70984,0.297554,0.380502,-0.0364422,0.13913,0.00511292,
-0.0110032,-0.0455282,0.477237,-1.57896,-0.236394,-0.171082,0.523955,-0.184671,0.0342414,-0.191435,-0.0562593,0.37242,0.667759,-0.0148894,0,0,0,0,0,0,0,0.0170523,-0.056423,0.506196,-1.56828,-0.102577,1.4635,1.31637,-0.0692578,-0.0139855,-0.0843901,-0.0715702,-0.577679,-0.305432,-0.0013839,-2.35302,-25.9371,-3.46251,27.3279,-1.26923,4.00811,-0.0026396,4.0608,1.34354,1.90778,-0.847986,1.92523,-0.463094,-0.427404,0.579982,-0.474198,0.505668,-0.448391,0.215249,-0.00470216,
-0.0117311,-0.0453971,0.476482,-1.57917,-0.234381,-0.168213,0.523894,-0.181979,0.0327898,-0.188744,-0.0539411,0.503198,0.7173,-0.0151546,0,0,0,0,0,0,0,0.0170523,-0.056423,0.506196,-1.56828,-0.102577,1.4635,1.31637,-0.0692578,-0.0139855,-0.0843901,-0.0715702,-0.577679,-0.305432,-0.0013839,-2.35302,-25.9371,-3.46251,27.3279,-1.26923,4.00811,-0.0026396,4.0608,1.34354,1.90778,-0.847986,1.92523,-0.463094,-0.427404,0.579982,-0.474198,0.505668,-0.448391,0.215249,-0.00470216,
-0.0124347,-0.0452667,0.475751,-1.57937,-0.231929,-0.165208,0.52383,-0.175902,0.0325901,-0.182705,-0.0499259,0.612913,0.751209,-0.0159894,0,0,0,0,0,0,0,0.0170523,-0.056423,0.506196,-1.56828,-0.102577,1.4635,1.31637,-0.0692578,-0.0139855,-0.0843901,-0.0715702,-0.577679,-0.305432,-0.0013839,-2.35302,-25.9371,-3.46251,27.3279,-1.26923,4.00811,-0.0026396,4.20316,0.134599,1.5257,-0.210276,2.04534,-1.02457,-0.995926,0.648633,-1.04191,0.420078,-0.676049,0.229735,-0.00883932,
-0.0130923,-0.045128,0.475066,-1.57954,-0.229207,-0.162174,0.523758,-0.164395,0.0346739,-0.171288,-0.042691,0.680598,0.758592,-0.0179889,0,0,0,0,0,0,0,0.0170523,-0.056423,0.506196,-1.56828,-0.102577,1.4635,1.31637,-0.0692578,-0.0139855,-0.0843901,-0.0715702,-0.577679,-0.305432,-0.0013839,-2.35302,-25.9371,-3.46251,27.3279,-1.26923,4.00811,-0.0026396,4.20316,0.134599,1.5257,-0.210276,2.04534,-1.02457,-0.995926,0.648633,-1.04191,0.420078,-0.676049,0.229735,-0.00883932,
-0.0136703,-0.0449629,0.47446,-1.57966,-0.226499,-0.159288,0.523672,-0.144494,0.0412883,-0.151528,-0.0284465,0.676885,0.721454,-0.02163,0,0,0,0,0,0,0,0.014129,-0.0568372,0.502193,-1.57091,-0.110327,1.45893,1.31631,-0.105393,-0.0103391,-0.144174,-0.076937,-0.033579,-0.00304898,-0.00204411,-1.5675,-26.1116,-2.63732,27.0264,0.251461,3.60345,0.017502,3.83546,1.29725,0.693281,-1.09669,2.28359,-0.395242,-0.362658,1.01637,-0.389158,0.0132405,-0.413285,0.160935,-0.0145241,
-0.014115,-0.0447274,0.473988,-1.57964,-0.224269,-0.156889,0.523621,-0.111173,0.0588723,-0.118038,0.00460543,0.557498,0.599893,-0.0128325,0,0,0,0,0,0,0,0.014129,-0.0568372,0.502193,-1.57091,-0.110327,1.45893,1.31631,-0.105393,-0.0103391,-0.144174,-0.076937,-0.033579,-0.00304898,-0.00204411,-1.5675,-26.1116,-2.63732,27.0264,0.251461,3.60345,0.017502,3.79985,0.251247,0.383212,-0.384823,2.41286,-0.859523,-0.826725,1.15225,-0.873414,-0.0949961,-0.402175,0.11553,-0.0182258,
-0.0144751,-0.0444928,0.473604,-1.5796,-0.22234,-0.154784,0.523568,-0.0900208,0.058638,-0.096016,0.0089807,0.482264,0.526052,-0.0130522,0,0,0,0,0,0,0,0.014129,-0.0568372,0.502193,-1.57091,-0.110327,1.45893,1.31631,-0.105393,-0.0103391,-0.144174,-0.076937,-0.033579,-0.00304898,-0.00204411,-1.5675,-26.1116,-2.63732,27.0264,0.251461,3.60345,0.017502,3.79985,0.251247,0.383212,-0.384823,2.41286,-0.859523,-0.826725,1.15225,-0.873414,-0.0949961,-0.402175,0.11553,-0.0182258,
-0.0147754,-0.0442785,0.473282,-1.57958,-0.220609,-0.152891,0.523514,-0.0750842,0.0535672,-0.0804363,0.00615551,0.43289,0.473259,-0.0134874,0,0,0,0,0,0,0,0.014129,-0.0568372,0.502193,-1.57091,-0.110327,1.45893,1.31631,-0.105393,-0.0103391,-0.144174,-0.076937,-0.033579,-0.00304898,-0.00204411,-1.5675,-26.1116,-2.63732,27.0264,0.251461,3.60345,0.017502,2.38974,-1.01127,0.465442,0.623444,1.39722,-1.06939,-1.04317,0.598807,-1.10942,0.0678871,-0.331369,0.0590132,-0.0167581,
-0.0150313,-0.044088,0.473007,-1.57957,-0.219008,-0.151163,0.523459,-0.0639795,0.0476277,-0.0688757,0.00229672,0.400107,0.432197,-0.0137558,0,0,0,0,0,0,0,0.014129,-0.0568372,0.502193,-1.57091,-0.110327,1.45893,1.31631,-0.105393,-0.0103391,-0.144174,-0.076937,-0.033579,-0.00304898,-0.00204411,-1.5675,-26.1116,-2.63732,27.0264,0.251461,3.60345,0.017502,2.38974,-1.01127,0.465442,0.623444,1.39722,-1.06939,-1.04317,0.598807,-1.10942,0.0678871,-0.331369,0.0590132,-0.0167581,
-0.0152532,-0.0439201,0.472767,-1.57957,-0.217494,-0.149566,0.523404,-0.0554758,0.0419925,-0.0600511,-0.00102685,0.378477,0.399092,-0.0139248,0,0,0,0,0,0,0,0.0105802,-0.0564767,0.497842,-1.57252,-0.108663,1.46038,1.31627,-0.12426,0.0272216,-0.142703,-0.0228947,0.025362,0.0503472,0.000101112,0.793033,-27.8056,-0.237108,26.9272,0.697323,3.31139,-0.0163725,1.5547,-0.468824,0.30516,0.432283,0.942646,-0.606301,-0.58259,0.42269,-0.643584,0.0900043,-0.0504591,0.0912584,-0.0146378,
-0.0154485,-0.0437722,0.472554,-1.57959,-0.216036,-0.148078,0.523348,-0.0488323,0.0369654,-0.0531824,-0.00357159,0.364488,0.372035,-0.0140379,0,0,0,0,0,0,0,0.0105802,-0.0564767,0.497842,-1.57252,-0.108663,1.46038,1.31627,-0.12426,0.0272216,-0.142703,-0.0228947,0.025362,0.0503472,0.000101112,0.793033,-27.8056,-0.237108,26.9272,0.697323,3.31139,-0.0163725,0.872167,0.588475,-0.637068,-0.329248,0.925616,0.0618203,0.0833755,0.637074,0.0485849,-0.240976,0.23681,0.106486,-0.0154574,
-0.0156228,-0.0436419,0.472363,-1.57961,-0.214613,-0.146679,0.523291,-0.0435584,0.0325805,-0.0477504,-0.00543491,0.355758,0.349814,-0.0141167,0,0,0,0,0,0,0,0.0105802,-0.0564767,0.497842,-1.57252,-0.108663,1.46038,1.31627,-0.12426,0.0272216,-0.142703,-0.0228947,0.025362,0.0503472,0.000101112,0.793033,-27.8056,-0.237108,26.9272,0.697323,3.31139,-0.0163725,0.872167,0.588475,-0.637068,-0.329248,0.925616,0.0618203,0.0833755,0.637074,0.0485849,-0.240976,0.23681,0.106486,-0.0154574,
-0.01578,-0.0435267,0.472189,-1.57963,-0.213211,-0.145353,0.523234,-0.0393115,0.0287916,-0.0433923,-0.00677077,0.350635,0.331539,-0.014173,0,0,0,0,0,0,0,0.0105802,-0.0564767,0.497842,-1.57252,-0.108663,1.46038,1.31627,-0.12426,0.0272216,-0.142703,-0.0228947,0.025362,0.0503472,0.000101112,0.793033,-27.8056,-0.237108,26.9272,0.697323,3.31139,-0.0163725,0.259979,1.03201,-1.53779,-0.716293,0.946245,0.425191,0.443158,0.863232,0.428064,-0.588121,0.434222,0.066913,-0.0160359,
-0.0282195,-0.0333696,0.459042,-1.58633,-0.216161,-0.258871,0.513248,-0.338231,0.177671,-0.353596,-0.13785,-1.23572,-1.20795,-0.0762201,0,0,0,0,0,0,0,0.0105802,-0.0564767,0.497842,-1.57252,-0.108663,1.46038,1.31627,-0.12426,0.0272216,-0.142703,-0.0228947,0.025362,0.0503472,0.000101112,0.793033,-27.8056,-0.237108,26.9272,0.697323,3.31139,-0.0163725,0.259979,1.03201,-1.53779,-0.716293,0.946245,0.425191,0.443158,0.863232,0.428064,-0.588121,0.434222,0.066913,-0.0160359,
-0.0229114,-0.042992,0.462871,-1.58416,-0.228908,-0.174643,0.522192,-0.199505,0.0780891,-0.207451,-0.0666216,-0.254707,-0.268002,-0.0337099,0,0,0,0,0,0,0,0.0105802,-0.0564767,0.497842,-1.57252,-0.108663,1.46038,1.31627,-0.12426,0.0272216,-0.142703,-0.0228947,0.025362,0.0503472,0.000101112,0.793033,-27.8056,-0.237108,26.9272,0.697323,3.31139,-0.0163725,-0.963154,1.60765,-1.25344,-0.992819,0.116093,0.98627,1.00712,0.440432,0.990436,-0.519849,0.613161,-0.0567558,-0.0158245,
-0.0237095,-0.0426851,0.462041,-1.58443,-0.22967,-0.175626,0.52206,-0.199542,0.0767347,-0.207493,-0.0659633,-0.190572,-0.245933,-0.0329622,0,0,0,0,0,0,0,0.00664136,-0.055413,0.493647,-1.57259,-0.109124,1.46224,1.31625,-0.133013,0.0334707,-0.140511,-0.00245939,-0.0330387,0.0933604,0.00165602,1.72931,-28.2063,0.687269,26.3281,1.13128,2.5689,-0.0566557,-0.963154,1.60765,-1.25344,-0.992819,0.116093,0.98627,1.00712,0.440432,0.990436,-0.519849,0.613161,-0.0567558,-0.0158245,
-0.024508,-0.042384,0.461211,-1.58469,-0.23016,-0.176518,0.521931,-0.199622,0.0752746,-0.207573,-0.0653006,-0.122453,-0.222881,-0.0322296,0,0,0,0,0,0,0,0.00664136,-0.055413,0.493647,-1.57259,-0.109124,1.46224,1.31625,-0.133013,0.0334707,-0.140511,-0.00245939,-0.0330387,0.0933604,0.00165602,1.72931,-28.2063,0.687269,26.3281,1.13128,2.5689,-0.0566557,-2.04332,2.79348,-0.984908,-1.69539,-0.612469,1.79219,1.81817,0.0729468,1.80653,-0.466605,0.819869,-0.147921,-0.0141598,
-0.0253071,-0.0420892,0.46038,-1.58495,-0.230359,-0.177313,0.521805,-0.199758,0.0736983,-0.207708,-0.0646393,-0.049822,-0.198766,-0.0315159,0,0,0,0,0,0,0,0.00664136,-0.055413,0.493647,-1.57259,-0.109124,1.46224,1.31625,-0.133013,0.0334707,-0.140511,-0.00245939,-0.0330387,0.0933604,0.00165602,1.72931,-28.2063,0.687269,26.3281,1.13128,2.5689,-0.0566557,-3.46507,4.71512,-1.07287,-2.94685,-1.60638,3.05612,3.07536,-0.445807,3.10778,-0.375324,1.03557,-0.0587414,-0.0133147,
-0.0261069,-0.0418012,0.459548,-1.5852,-0.230248,-0.178007,0.521682,-0.199968,0.0719952,-0.207913,-0.0639869,0.0279089,-0.173487,-0.0308226,0,0,0,0,0,0,0,0.00664136,-0.055413,0.493647,-1.57259,-0.109124,1.46224,1.31625,-0.133013,0.0334707,-0.140511,-0.00245939,-0.0330387,0.0933604,0.00165602,1.72931,-28.2063,0.687269,26.3281,1.13128,2.5689,-0.0566557,-3.46507,4.71512,-1.07287,-2.94685,-1.60638,3.05612,3.07536,-0.445807,3.10778,-0.375324,1.03557,-0.0587414,-0.0133147,
-0.026908,-0.0415206,0.458715,-1.58546,-0.229802,-0.178595,0.521561,-0.200268,0.0701545,-0.208204,-0.0633529,0.111384,-0.146918,-0.0301514,0,0,0,0,0,0,0,0.00664136,-0.055413,0.493647,-1.57259,-0.109124,1.46224,1.31625,-0.133013,0.0334707,-0.140511,-0.00245939,-0.0330387,0.0933604,0.00165602,1.72931,-28.2063,0.687269,26.3281,1.13128,2.5689,-0.0566557,-0.845898,2.66885,-1.63815,-1.90718,0.463216,1.44371,1.45595,0.747765,1.48473,-0.831232,0.633638,-0.160976,-0.0212357,
-0.0277107,-0.0412479,0.457881,-1.58571,-0.228997,-0.17907,0.521443,-0.20067,0.068166,-0.208594,-0.0627497,0.201298,-0.118902,-0.0295088,0,0,0,0,0,0,0,0.00209278,-0.0543614,0.488768,-1.57273,-0.115996,1.46177,1.31591,-0.140233,0.0139185,-0.153609,-0.0259654,-0.285114,-0.0541623,-0.00746127,-0.29797,-27.2582,-1.38762,26.2289,-0.0598181,2.12487,-0.00996382,-0.845898,2.66885,-1.63815,-1.90718,0.463216,1.44371,1.45595,0.747765,1.48473,-0.831232,0.633638,-0.160976,-0.0212357,
-0.0285154,-0.0409838,0.457045,-1.58595,-0.227804,-0.179427,0.521328,-0.201185,0.0660201,-0.209095,-0.0621944,0.298367,-0.0892429,-0.0288976,0,0,0,0,0,0,0,0.00209278,-0.0543614,0.488768,-1.57273,-0.115996,1.46177,1.31591,-0.140233,0.0139185,-0.153609,-0.0259654,-0.285114,-0.0541623,-0.00746127,-0.29797,-27.2582,-1.38762,26.2289,-0.0598181,2.12487,-0.00996382,0.491619,1.3422,-0.869648,-1.11594,1.09967,0.488574,0.515969,0.937516,0.497403,-0.731101,0.258845,-0.293763,-0.0356661,
-0.0293227,-0.040729,0.456206,-1.5862,-0.22619,-0.179658,0.521214,-0.201813,0.0637094,-0.209705,-0.0617096,0.403289,-0.0577025,-0.0283264,0,0,0,0,0,0,0,0.00209278,-0.0543614,0.488768,-1.57273,-0.115996,1.46177,1.31591,-0.140233,0.0139185,-0.153609,-0.0259654,-0.285114,-0.0541623,-0.00746127,-0.29797,-27.2582,-1.38762,26.2289,-0.0598181,2.12487,-0.00996382,0.44623,-0.891771,0.210056,0.346256,0.613176,-0.551986,-0.524681,0.465375,-0.580013,-0.420744,-0.165923,-0.500133,-0.0432963,
-0.0301328,-0.0404841,0.455364,-1.58645,-0.224124,-0.179754,0.521103,-0.20254,0.0612311,-0.210413,-0.0613242,0.51666,-0.0239885,-0.0278063,0,0,0,0,0,0,0,0.00209278,-0.0543614,0.488768,-1.57273,-0.115996,1.46177,1.31591,-0.140233,0.0139185,-0.153609,-0.0259654,-0.285114,-0.0541623,-0.00746127,-0.29797,-27.2582,-1.38762,26.2289,-0.0598181,2.12487,-0.00996382,0.44623,-0.891771,0.210056,0.346256,0.613176,-0.551986,-0.524681,0.465375,-0.580013,-0.420744,-0.165923,-0.500133,-0.0432963,
-0.0309461,-0.0402497,0.45452,-1.58669,-0.221568,-0.179705,0.520994,-0.203323,0.0585911,-0.211175,-0.0610736,0.638819,0.0122397,-0.0273522,0,0,0,0,0,0,0,0.00209278,-0.0543614,0.488768,-1.57273,-0.115996,1.46177,1.31591,-0.140233,0.0139185,-0.153609,-0.0259654,-0.285114,-0.0541623,-0.00746127,-0.29797,-27.2582,-1.38762,26.2289,-0.0598181,2.12487,-0.00996382,0.802544,-2.35565,0.27892,1.02343,0.948421,-1.34651,-1.32168,0.682447,-1.38114,-0.662051,-0.517826,-0.801908,-0.0479214,
-0.0317478,-0.0400199,0.453685,-1.58693,-0.218639,-0.179508,0.520886,-0.200428,0.0574573,-0.208617,-0.0600329,0.732427,0.0492375,-0.0269503,0,0,0,0,0,0,0,0.00209278,-0.0543614,0.488768,-1.57273,-0.115996,1.46177,1.31591,-0.140233,0.0139185,-0.153609,-0.0259654,-0.285114,-0.0541623,-0.00746127,-0.29797,-27.2582,-1.38762,26.2289,-0.0598181,2.12487,-0.00996382,0.802544,-2.35565,0.27892,1.02343,0.948421,-1.34651,-1.32168,0.682447,-1.38114,-0.662051,-0.517826,-0.801908,-0.0479214,
-0.0325293,-0.0397936,0.45287,-1.58717,-0.215419,-0.179149,0.520779,-0.195359,0.0565621,-0.203756,-0.0595942,0.804957,0.0897249,-0.0267408,0,0,0,0,0,0,0,-0.00216051,-0.0534568,0.483596,-1.57337,-0.119705,1.46063,1.31583,-0.131501,0.0267885,-0.166335,-0.0151359,0.0183716,-0.00872901,-0.00074051,-1.49212,-27.5081,-2.21282,25.3085,-0.212711,1.74676,0.00376909,0.84606,-2.38354,-0.0412291,0.881561,1.20686,-1.38401,-1.36511,0.926088,-1.40487,-0.918025,-0.557097,-0.933018,-0.0473222,
-0.0332846,-0.0395718,0.452081,-1.58741,-0.211973,-0.17861,0.520672,-0.188839,0.0554684,-0.19734,-0.0599676,0.861587,0.134878,-0.0267435,0,0,0,0,0,0,0,-0.00216051,-0.0534568,0.483596,-1.57337,-0.119705,1.46063,1.31583,-0.131501,0.0267885,-0.166335,-0.0151359,0.0183716,-0.00872901,-0.00074051,-1.49212,-27.5081,-2.21282,25.3085,-0.212711,1.74676,0.00376909,0.37375,-2.20098,0.0764547,0.757037,0.823192,-1.17772,-1.16494,0.699465,-1.18948,-0.855838,-0.560768,-0.947206,-0.0511028,
-0.0340097,-0.0393556,0.451321,-1.58765,-0.208349,-0.17787,0.520564,-0.181279,0.0540337,-0.189803,-0.0610248,0.905948,0.184996,-0.027021,0,0,0,0,0,0,0,-0.00216051,-0.0534568,0.483596,-1.57337,-0.119705,1.46063,1.31583,-0.131501,0.0267885,-0.166335,-0.0151359,0.0183716,-0.00872901,-0.00074051,-1.49212,-27.5081,-2.21282,25.3085,-0.212711,1.74676,0.00376909,0.37375,-2.20098,0.0764547,0.757037,0.823192,-1.17772,-1.16494,0.699465,-1.18948,-0.855838,-0.560768,-0.947206,-0.0511028,
-0.0347012,-0.0391466,0.450596,-1.5879,-0.204587,-0.176913,0.520453,-0.172864,0.0522603,-0.181331,-0.0624677,0.94055,0.239166,-0.0277435,0,0,0,0,0,0,0,-0.00216051,-0.0534568,0.483596,-1.57337,-0.119705,1.46063,1.31583,-0.131501,0.0267885,-0.166335,-0.0151359,0.0183716,-0.00872901,-0.00074051,-1.49212,-27.5081,-2.21282,25.3085,-0.212711,1.74676,0.00376909,0.674073,-1.32924,-0.167762,0.116875,1.1846,-0.835874,-0.821209,0.958476,-0.831187,-1.01028,-0.484059,-0.941166,-0.0568502,
-0.0353554,-0.0389454,0.449909,-1.58816,-0.200719,-0.175736,0.520336,-0.163558,0.0503041,-0.171868,-0.063725,0.966983,0.294341,-0.0292554,0,0,0,0,0,0,0,-0.00216051,-0.0534568,0.483596,-1.57337,-0.119705,1.46063,1.31583,-0.131501,0.0267885,-0.166335,-0.0151359,0.0183716,-0.00872901,-0.00074051,-1.49212,-27.5081,-2.21282,25.3085,-0.212711,1.74676,0.00376909,0.674073,-1.32924,-0.167762,0.116875,1.1846,-0.835874,-0.821209,0.958476,-0.831187,-1.01028,-0.484059,-0.941166,-0.0568502,
-0.0359676,-0.0387508,0.449264,-1.58841,-0.196775,-0.17436,0.520207,-0.153038,0.048635,-0.161057,-0.0635961,0.985949,0.343975,-0.0321987,0,0,0,0,0,0,0,-0.00894926,-0.0526256,0.476155,-1.57424,-0.111688,1.46072,1.31578,-0.184135,0.0193059,-0.195651,-0.0233002,0.345213,0.00511282,-0.00185288,-0.246395,-27.6589,-1.21306,25.2847,0.764157,1.90606,-0.0767973,1.00372,-0.963742,-0.741777,-0.166497,1.75051,-0.744476,-0.726521,1.41267,-0.734082,-1.30157,-0.346049,-0.968614,-0.0603473,
-0.0365297,-0.0385563,0.448672,-1.58865,-0.192787,-0.172859,0.52006,-0.140522,0.0486195,-0.148064,-0.0591067,0.99707,0.375241,-0.036807,0,0,0,0,0,0,0,-0.00894926,-0.0526256,0.476155,-1.57424,-0.111688,1.46072,1.31578,-0.184135,0.0193059,-0.195651,-0.0233002,0.345213,0.00511282,-0.00185288,-0.246395,-27.6589,-1.21306,25.2847,0.764157,1.90606,-0.0767973,-0.548813,-1.34306,-0.624778,0.303913,0.674869,-0.556873,-0.542644,0.856732,-0.561177,-1.14926,-0.144742,-1.01689,-0.06063,
-0.0369958,-0.0383243,0.448177,-1.58881,-0.189114,-0.171442,0.519951,-0.116521,0.0580129,-0.123826,-0.0389755,0.918171,0.3542,-0.0271579,0,0,0,0,0,0,0,-0.00894926,-0.0526256,0.476155,-1.57424,-0.111688,1.46072,1.31578,-0.184135,0.0193059,-0.195651,-0.0233002,0.345213,0.00511282,-0.00185288,-0.246395,-27.6589,-1.21306,25.2847,0.764157,1.90606,-0.0767973,-0.548813,-1.34306,-0.624778,0.303913,0.674869,-0.556873,-0.542644,0.856732,-0.561177,-1.14926,-0.144742,-1.01689,-0.06063,
-0.0373959,-0.0380941,0.44775,-1.58894,-0.185643,-0.170037,0.519843,-0.100037,0.0575399,-0.106824,-0.0341678,0.867695,0.351222,-0.0270399,0,0,0,0,0,0,0,-0.00894926,-0.0526256,0.476155,-1.57424,-0.111688,1.46072,1.31578,-0.184135,0.0193059,-0.195651,-0.0233002,0.345213,0.00511282,-0.00185288,-0.246395,-27.6589,-1.21306,25.2847,0.764157,1.90606,-0.0767973,-1.40878,-1.86829,-0.351061,0.924151,0.0440922,-0.614787,-0.60341,0.517585,-0.639498,-0.983428,0.0555561,-1.05591,-0.0608959,
-0.037747,-0.0378775,0.447373,-1.58908,-0.182305,-0.168623,0.519734,-0.0877706,0.0541598,-0.0941793,-0.0333295,0.834555,0.353477,-0.0273618,0,0,0,0,0,0,0,-0.00894926,-0.0526256,0.476155,-1.57424,-0.111688,1.46072,1.31578,-0.184135,0.0193059,-0.195651,-0.0233002,0.345213,0.00511282,-0.00185288,-0.246395,-27.6589,-1.21306,25.2847,0.764157,1.90606,-0.0767973,-1.40878,-1.86829,-0.351061,0.924151,0.0440922,-0.614787,-0.60341,0.517585,-0.639498,-0.983428,0.0555561,-1.05591,-0.0608959,
-0.0380601,-0.0376772,0.447035,-1.58921,-0.179054,-0.167195,0.519623,-0.0782737,0.0500808,-0.0844159,-0.0331971,0.812769,0.357024,-0.0275979,0,0,0,0,0,0,0,-0.00894926,-0.0526256,0.476155,-1.57424,-0.111688,1.46072,1.31578,-0.184135,0.0193059,-0.195651,-0.0233002,0.345213,0.00511282,-0.00185288,-0.246395,-27.6589,-1.21306,25.2847,0.764157,1.90606,-0.0767973,-1.80464,-2.36281,-0.651309,1.3139,-0.0458392,-0.762415,-0.751711,0.563335,-0.797409,-1.08831,0.160914,-1.10268,-0.0619338,
-0.038343,-0.0374931,0.446728,-1.58934,-0.175859,-0.165752,0.519512,-0.070739,0.0460124,-0.0766954,-0.0329427,0.798669,0.360676,-0.0277645,0,0,0,0,0,0,0,-0.0141749,-0.0517518,0.46997,-1.57502,-0.0995055,1.46311,1.31574,-0.161272,0.0343508,-0.193199,-0.0175693,0.391237,0.119312,0.000654821,0.995365,-28.4047,0.238966,25.6815,1.21643,2.3565,-0.0767973,-1.80464,-2.36281,-0.651309,1.3139,-0.0458392,-0.762415,-0.751711,0.563335,-0.797409,-1.08831,0.160914,-1.10268,-0.0619338,
-0.0386017,-0.0373244,0.446446,-1.58947,-0.1727,-0.164296,0.519401,-0.0646535,0.0421817,-0.0704812,-0.0324394,0.789833,0.364098,-0.0278871,0,0,0,0,0,0,0,-0.0141749,-0.0517518,0.46997,-1.57502,-0.0995055,1.46311,1.31574,-0.161272,0.0343508,-0.193199,-0.0175693,0.391237,0.119312,0.000654821,0.995365,-28.4047,0.238966,25.6815,1.21643,2.3565,-0.0767973,-2.34729,-1.78947,-1.11296,0.983139,-0.223464,-0.361847,-0.3604,0.564957,-0.380894,-1.18955,0.353194,-1.05191,-0.0609093,
-0.0425615,-0.0355173,0.442488,-1.59595,-0.276148,-0.284988,0.510866,-0.319575,0.142502,-0.332315,-0.151063,-1.21068,-0.840595,-0.0859576,0,0,0,0,0,0,0,-0.0141749,-0.0517518,0.46997,-1.57502,-0.0995055,1.46311,1.31574,-0.161272,0.0343508,-0.193199,-0.0175693,0.391237,0.119312,0.000654821,0.995365,-28.4047,0.238966,25.6815,1.21643,2.3565,-0.0767973,-2.00468,0.271208,-1.31,-0.176178,-0.0981025,0.568074,0.56469,0.567836,0.576518,-0.989896,0.648194,-0.660718,-0.0617956,
-0.0444769,-0.0435501,0.438303,-1.58955,-0.204012,-0.0950169,0.519841,-0.159809,0.0342613,-0.167018,-0.0807566,-0.415956,0.554204,-0.0464556,0,0,0,0,0,0,0,-0.0141749,-0.0517518,0.46997,-1.57502,-0.0995055,1.46311,1.31574,-0.161272,0.0343508,-0.193199,-0.0175693,0.391237,0.119312,0.000654821,0.995365,-28.4047,0.238966,25.6815,1.21643,2.3565,-0.0767973,-2.00468,0.271208,-1.31,-0.176178,-0.0981025,0.568074,0.56469,0.567836,0.576518,-0.989896,0.648194,-0.660718,-0.0617956,
-0.0451145,-0.043417,0.437637,-1.58987,-0.205543,-0.0926574,0.519658,-0.1594,0.0332782,-0.166609,-0.0805562,-0.382889,0.589876,-0.0457628,0,0,0,0,0,0,0,-0.0141749,-0.0517518,0.46997,-1.57502,-0.0995055,1.46311,1.31574,-0.161272,0.0343508,-0.193199,-0.0175693,0.391237,0.119312,0.000654821,0.995365,-28.4047,0.238966,25.6815,1.21643,2.3565,-0.0767973,-1.14804,2.54189,-2.034,-1.60541,0.639803,1.47907,1.4747,1.0067,1.5214,-1.06338,0.945797,-0.289877,-0.0600152,
-0.0457507,-0.0432877,0.436972,-1.59019,-0.206934,-0.0901476,0.519477,-0.159049,0.0323053,-0.166255,-0.0804121,-0.347681,0.627441,-0.0450919,0,0,0,0,0,0,0,-0.0196687,-0.0508052,0.463979,-1.57543,-0.0898771,1.46463,1.31566,-0.18644,0.0160758,-0.193785,-0.0211503,0.199448,-0.0154363,-0.0117496,1.4516,-27.8334,0.43733,25.257,0.91705,2.59545,-0.0630644,-1.14804,2.54189,-2.034,-1.60541,0.639803,1.47907,1.4747,1.0067,1.5214,-1.06338,0.945797,-0.289877,-0.0600152,
-0.0463857,-0.0431624,0.436308,-1.59052,-0.208174,-0.0874797,0.5193,-0.158764,0.0313366,-0.165964,-0.0803232,-0.309969,0.666977,-0.044444,0,0,0,0,0,0,0,-0.0196687,-0.0508052,0.463979,-1.57543,-0.0898771,1.46463,1.31566,-0.18644,0.0160758,-0.193785,-0.0211503,0.199448,-0.0154363,-0.0117496,1.4516,-27.8334,0.43733,25.257,0.91705,2.59545,-0.0630644,-2.54045,5.59913,-1.88565,-3.41604,-0.507568,3.27588,3.27352,0.305875,3.35237,-0.747553,1.34299,-0.0314913,-0.0572189,
-0.04702,-0.0430409,0.435645,-1.59084,-0.209251,-0.0846455,0.519124,-0.158554,0.0303662,-0.165744,-0.0802885,-0.269328,0.708553,-0.0438264,0,0,0,0,0,0,0,-0.0196687,-0.0508052,0.463979,-1.57543,-0.0898771,1.46463,1.31566,-0.18644,0.0160758,-0.193785,-0.0211503,0.199448,-0.0154363,-0.0117496,1.4516,-27.8334,0.43733,25.257,0.91705,2.59545,-0.0630644,-2.54045,5.59913,-1.88565,-3.41604,-0.507568,3.27588,3.27352,0.305875,3.35237,-0.747553,1.34299,-0.0314913,-0.0572189,
-0.0476537,-0.0429234,0.434983,-1.59116,-0.210152,-0.0816366,0.518951,-0.158428,0.0293888,-0.165605,-0.0803061,-0.225268,0.752217,-0.0432431,0,0,0,0,0,0,0,-0.0196687,-0.0508052,0.463979,-1.57543,-0.0898771,1.46463,1.31566,-0.18644,0.0160758,-0.193785,-0.0211503,0.199448,-0.0154363,-0.0117496,1.4516,-27.8334,0.43733,25.257,0.91705,2.59545,-0.0630644,-1.91082,2.12545,-2.34651,-1.28928,0.204865,1.46072,1.44413,0.827865,1.50501,-1.0862,0.999973,-0.278448,-0.0638266,
-0.0482873,-0.0428098,0.43432,-1.59148,-0.210861,-0.0784447,0.51878,-0.158397,0.0283995,-0.165557,-0.0803729,-0.177224,0.79799,-0.0426969,0,0,0,0,0,0,0,-0.0196687,-0.0508052,0.463979,-1.57543,-0.0898771,1.46463,1.31566,-0.18644,0.0160758,-0.193785,-0.0211503,0.199448,-0.0154363,-0.0117496,1.4516,-27.8334,0.43733,25.257,0.91705,2.59545,-0.0630644,-0.901563,-0.72285,-1.85882,0.317438,0.526339,-0.098125,-0.0970898,0.828925,-0.1023,-0.951443,0.3188,-0.348397,-0.0834732,
-0.0489198,-0.0426973,0.433659,-1.59179,-0.211362,-0.0751051,0.518612,-0.158134,0.0281196,-0.165259,-0.0782622,-0.125208,0.8349,-0.0422164,0,0,0,0,0,0,0,-0.0247113,-0.0504312,0.458413,-1.57695,-0.0969261,1.46624,1.31519,-0.1248,-0.00386275,-0.153713,-0.0846705,-0.251806,0.193199,-0.00206752,-1.49212,-28.9046,-2.21282,26.3043,-1.84967,3.8955,-0.157364,-0.901563,-0.72285,-1.85882,0.317438,0.526339,-0.098125,-0.0970898,0.828925,-0.1023,-0.951443,0.3188,-0.348397,-0.0834732,
-0.0495512,-0.042586,0.433,-1.59209,-0.211634,-0.0716478,0.518444,-0.157839,0.0278284,-0.16493,-0.075347,-0.0679869,0.864322,-0.0418107,0,0,0,0,0,0,0,-0.0247113,-0.0504312,0.458413,-1.57695,-0.0969261,1.46624,1.31519,-0.1248,-0.00386275,-0.153713,-0.0846705,-0.251806,0.193199,-0.00206752,-1.49212,-28.9046,-2.21282,26.3043,-1.84967,3.8955,-0.157364,0.863903,-2.43603,-1.7187,1.13526,1.30224,-1.2653,-1.2642,1.02304,-1.28044,-0.767553,-0.342077,-0.123582,-0.0869395,
-0.0501817,-0.0424771,0.432341,-1.59238,-0.211652,-0.068095,0.518278,-0.157638,0.0272087,-0.164695,-0.0723916,-0.0044679,0.888197,-0.0414699,0,0,0,0,0,0,0,-0.0247113,-0.0504312,0.458413,-1.57695,-0.0969261,1.46624,1.31519,-0.1248,-0.00386275,-0.153713,-0.0846705,-0.251806,0.193199,-0.00206752,-1.49212,-28.9046,-2.21282,26.3043,-1.84967,3.8955,-0.157364,0.0753421,-1.97518,-1.69001,0.862379,0.283486,-0.802967,-0.816584,0.264215,-0.799649,-0.289828,-0.45079,0.29702,-0.0880784,
-0.050812,-0.0423723,0.431682,-1.59266,-0.211387,-0.0644643,0.518114,-0.157577,0.026219,-0.164598,-0.0696228,0.0663342,0.907679,-0.0411953,0,0,0,0,0,0,0,-0.0247113,-0.0504312,0.458413,-1.57695,-0.0969261,1.46624,1.31519,-0.1248,-0.00386275,-0.153713,-0.0846705,-0.251806,0.193199,-0.00206752,-1.49212,-28.9046,-2.21282,26.3043,-1.84967,3.8955,-0.157364,0.0753421,-1.97518,-1.69001,0.862379,0.283486,-0.802967,-0.816584,0.264215,-0.799649,-0.289828,-0.45079,0.29702,-0.0880784,
-0.0514427,-0.0422727,0.431024,-1.59293,-0.210805,-0.06077,0.51795,-0.157669,0.0248915,-0.164651,-0.0671126,0.145358,0.923582,-0.0409989,0,0,0,0,0,0,0,-0.0247113,-0.0504312,0.458413,-1.57695,-0.0969261,1.46624,1.31519,-0.1248,-0.00386275,-0.153713,-0.0846705,-0.251806,0.193199,-0.00206752,-1.49212,-28.9046,-2.21282,26.3043,-1.84967,3.8955,-0.157364,0.312088,-1.34594,-1.75312,0.43313,0.202241,-0.504985,-0.515681,0.098121,-0.494013,-0.0714833,-0.516383,0.589417,-0.0950479,
-0.0520743,-0.0421796,0.430364,-1.59319,-0.209872,-0.0570238,0.517786,-0.157893,0.0232762,-0.164834,-0.0648979,0.233352,0.936535,-0.04089,0,0,0,0,0,0,0,-0.0247113,-0.0504312,0.458413,-1.57695,-0.0969261,1.46624,1.31519,-0.1248,-0.00386275,-0.153713,-0.0846705,-0.251806,0.193199,-0.00206752,-1.49212,-28.9046,-2.21282,26.3043,-1.84967,3.8955,-0.157364,0.312088,-1.34594,-1.75312,0.43313,0.202241,-0.504985,-0.515681,0.098121,-0.494013,-0.0714833,-0.516383,0.589417,-0.0950479,
-0.0527069,-0.0420939,0.429704,-1.59344,-0.20855,-0.0532357,0.517623,-0.158166,0.0214333,-0.165066,-0.0630188,0.330519,0.947029,-0.0408918,0,0,0,0,0,0,0,-0.028862,-0.0504502,0.453133,-1.58018,-0.104188,1.4743,1.31497,-0.130497,0.000843369,-0.166563,-0.104373,-0.172242,0.308947,-0.0057606,-1.15887,-28.5793,-1.78832,27.2009,-1.00647,3.80211,-0.050247,1.86738,-2.08904,-2.36611,0.524013,1.52123,-1.19189,-1.20574,0.894039,-1.16852,-0.479769,-0.874974,0.525793,-0.10431,
-0.0533401,-0.0420161,0.429044,-1.59369,-0.206806,-0.049414,0.517458,-0.158285,0.0194484,-0.165154,-0.0615254,0.435824,0.955429,-0.0410346,0,0,0,0,0,0,0,-0.028862,-0.0504502,0.453133,-1.58018,-0.104188,1.4743,1.31497,-0.130497,0.000843369,-0.166563,-0.104373,-0.172242,0.308947,-0.0057606,-1.15887,-28.5793,-1.78832,27.2009,-1.00647,3.80211,-0.050247,1.86738,-2.08904,-2.36611,0.524013,1.52123,-1.19189,-1.20574,0.894039,-1.16852,-0.479769,-0.874974,0.525793,-0.10431,
-0.0539714,-0.0419462,0.428385,-1.59393,-0.204623,-0.0455662,0.517293,-0.157834,0.0174706,-0.164701,-0.0604523,0.545902,0.961942,-0.0413929,0,0,0,0,0,0,0,-0.028862,-0.0504502,0.453133,-1.58018,-0.104188,1.4743,1.31497,-0.130497,0.000843369,-0.166563,-0.104373,-0.172242,0.308947,-0.0057606,-1.15887,-28.5793,-1.78832,27.2009,-1.00647,3.80211,-0.050247,2.35149,-1.53285,-3.22947,-0.167686,2.23522,-1.01468,-1.0251,1.43038,-0.968627,-0.912649,-0.976316,0.488672,-0.111291,
-0.0545957,-0.041883,0.427733,-1.59417,-0.202008,-0.0417001,0.517124,-0.15607,0.0157933,-0.162987,-0.0597136,0.653642,0.966531,-0.0421626,0,0,0,0,0,0,0,-0.028862,-0.0504502,0.453133,-1.58018,-0.104188,1.4743,1.31497,-0.130497,0.000843369,-0.166563,-0.104373,-0.172242,0.308947,-0.0057606,-1.15887,-28.5793,-1.78832,27.2009,-1.00647,3.80211,-0.050247,2.55855,-1.84322,-3.22834,0.172629,2.31569,-1.2014,-1.20588,1.44877,-1.17242,-0.808088,-0.910992,0.598732,-0.112929,
-0.0552013,-0.0418221,0.427099,-1.5944,-0.199037,-0.0378263,0.516949,-0.15141,0.0152178,-0.158504,-0.0586536,0.742885,0.968439,-0.043789,0,0,0,0,0,0,0,-0.028862,-0.0504502,0.453133,-1.58018,-0.104188,1.4743,1.31497,-0.130497,0.000843369,-0.166563,-0.104373,-0.172242,0.308947,-0.0057606,-1.15887,-28.5793,-1.78832,27.2009,-1.00647,3.80211,-0.050247,2.55855,-1.84322,-3.22834,0.172629,2.31569,-1.2014,-1.20588,1.44877,-1.17242,-0.808088,-0.910992,0.598732,-0.112929,
-0.0557732,-0.0417547,0.426498,-1.59463,-0.195821,-0.0339603,0.516762,-0.142967,0.0168495,-0.150255,-0.0555658,0.803811,0.966514,-0.0468302,0,0,0,0,0,0,0,-0.0335948,-0.0505662,0.447891,-1.58295,-0.104777,1.48763,1.31489,-0.146935,0.00549048,-0.156679,-0.0802011,0.039752,0.481096,-0.000315916,-0.655026,-28.5079,-1.463,27.0541,-0.554203,3.85522,-0.150955,2.45962,-2.97661,-2.35092,1.1747,1.88819,-1.74176,-1.74367,1.07579,-1.7463,-0.43864,-0.922915,0.580944,-0.117409,
-0.0562721,-0.0416332,0.42597,-1.59474,-0.192638,-0.0304451,0.516609,-0.124721,0.0303812,-0.132003,-0.0274893,0.795799,0.878807,-0.0382828,0,0,0,0,0,0,0,-0.0335948,-0.0505662,0.447891,-1.58295,-0.104777,1.48763,1.31489,-0.146935,0.00549048,-0.156679,-0.0802011,0.039752,0.481096,-0.000315916,-0.655026,-28.5079,-1.463,27.0541,-0.554203,3.85522,-0.150955,2.45962,-2.97661,-2.35092,1.1747,1.88819,-1.74176,-1.74367,1.07579,-1.7463,-0.43864,-0.922915,0.580944,-0.117409,
-0.056721,-0.0415062,0.425493,-1.59482,-0.189435,-0.0271403,0.516456,-0.11223,0.0317575,-0.119256,-0.0219348,0.800715,0.826197,-0.0382253,0,0,0,0,0,0,0,-0.0335948,-0.0505662,0.447891,-1.58295,-0.104777,1.48763,1.31489,-0.146935,0.00549048,-0.156679,-0.0802011,0.039752,0.481096,-0.000315916,-0.655026,-28.5079,-1.463,27.0541,-0.554203,3.85522,-0.150955,2.03455,-1.96883,-1.70729,0.745305,1.44303,-1.17638,-1.1788,0.76889,-1.17662,-0.225185,-0.680486,0.548854,-0.121967,
-0.0571309,-0.0413866,0.425056,-1.59491,-0.186194,-0.0239852,0.516302,-0.102483,0.0298864,-0.109295,-0.0226846,0.810369,0.788767,-0.0384878,0,0,0,0,0,0,0,-0.0335948,-0.0505662,0.447891,-1.58295,-0.104777,1.48763,1.31489,-0.146935,0.00549048,-0.156679,-0.0802011,0.039752,0.481096,-0.000315916,-0.655026,-28.5079,-1.463,27.0541,-0.554203,3.85522,-0.150955,2.03455,-1.96883,-1.70729,0.745305,1.44303,-1.17638,-1.1788,0.76889,-1.17662,-0.225185,-0.680486,0.548854,-0.121967,
-0.0575086,-0.041277,0.424651,-1.59501,-0.182907,-0.0209466,0.516147,-0.0944097,0.0274086,-0.101049,-0.0249079,0.821683,0.759647,-0.0386624,0,0,0,0,0,0,0,-0.0335948,-0.0505662,0.447891,-1.58295,-0.104777,1.48763,1.31489,-0.146935,0.00549048,-0.156679,-0.0802011,0.039752,0.481096,-0.000315916,-0.655026,-28.5079,-1.463,27.0541,-0.554203,3.85522,-0.150955,1.52918,-0.654905,-1.71745,0.0740592,1.22361,-0.437825,-0.443137,0.708629,-0.424004,-0.237244,-0.330371,0.544046,-0.122463,
-0.0578587,-0.0411768,0.424275,-1.59512,-0.179574,-0.0180022,0.515992,-0.0875345,0.0250656,-0.0940344,-0.0272234,0.833341,0.736093,-0.038783,0,0,0,0,0,0,0,-0.0396818,-0.0502522,0.440938,-1.58633,-0.0987758,1.51241,1.31475,-0.144975,0.0216745,-0.175099,-0.0559965,0.187707,0.629741,-0.00320732,1.09455,-30.0789,0.314344,27.9507,1.67419,3.86162,-0.117081,0.233217,-0.223643,-1.86523,0.032141,0.508878,0.0433184,0.0347465,0.42947,0.0546706,-0.244534,0.028488,0.495247,-0.126599,
-0.0498733,-0.0348405,0.432536,-1.595,-0.267841,-0.239368,0.512049,-0.193693,0.0997795,-0.203199,-0.124942,-1.19924,-0.339044,-0.0819076,0,0,0,0,0,0,0,-0.0396818,-0.0502522,0.440938,-1.58633,-0.0987758,1.51241,1.31475,-0.144975,0.0216745,-0.175099,-0.0559965,0.187707,0.629741,-0.00320732,1.09455,-30.0789,0.314344,27.9507,1.67419,3.86162,-0.117081,0.233217,-0.223643,-1.86523,0.032141,0.508878,0.0433184,0.0347465,0.42947,0.0546706,-0.244534,0.028488,0.495247,-0.126599,
-0.0569921,-0.0421846,0.42257,-1.59721,-0.184974,-0.0610293,0.518797,-0.0668342,0.0466523,-0.0723643,-0.0649111,-0.424692,-0.255753,-0.0517829,0,0,0,0,0,0,0,-0.0396818,-0.0502522,0.440938,-1.58633,-0.0987758,1.51241,1.31475,-0.144975,0.0216745,-0.175099,-0.0559965,0.187707,0.629741,-0.00320732,1.09455,-30.0789,0.314344,27.9507,1.67419,3.86162,-0.117081,-0.136703,-0.0964086,-1.33306,0.339134,0.107796,0.172646,0.165213,0.166024,0.165296,0.0196527,0.344649,0.526793,-0.123584,
-0.0572543,-0.0420007,0.422286,-1.59747,-0.18672,-0.0620717,0.518592,-0.0655603,0.0459761,-0.0710834,-0.0645533,-0.436588,-0.260622,-0.0512933,0,0,0,0,0,0,0,-0.0396818,-0.0502522,0.440938,-1.58633,-0.0987758,1.51241,1.31475,-0.144975,0.0216745,-0.175099,-0.0559965,0.187707,0.629741,-0.00320732,1.09455,-30.0789,0.314344,27.9507,1.67419,3.86162,-0.117081,-0.136703,-0.0964086,-1.33306,0.339134,0.107796,0.172646,0.165213,0.166024,0.165296,0.0196527,0.344649,0.526793,-0.123584,
-0.0575116,-0.0418196,0.422007,-1.59773,-0.188518,-0.0631347,0.518389,-0.064313,0.0452543,-0.06983,-0.0641627,-0.449459,-0.265748,-0.0508122,0,0,0,0,0,0,0,-0.0396818,-0.0502522,0.440938,-1.58633,-0.0987758,1.51241,1.31475,-0.144975,0.0216745,-0.175099,-0.0559965,0.187707,0.629741,-0.00320732,1.09455,-30.0789,0.314344,27.9507,1.67419,3.86162,-0.117081,0.197638,0.960363,-1.35648,-0.186828,0.462968,0.617534,0.613268,0.402475,0.615485,-0.0353339,0.628833,0.546509,-0.121683,
-0.0577639,-0.0416417,0.421732,-1.59798,-0.190371,-0.0642192,0.518188,-0.0630876,0.0444803,-0.0685989,-0.0637476,-0.463262,-0.271118,-0.0503397,0,0,0,0,0,0,0,-0.0396818,-0.0502522,0.440938,-1.58633,-0.0987758,1.51241,1.31475,-0.144975,0.0216745,-0.175099,-0.0559965,0.187707,0.629741,-0.00320732,1.09455,-30.0789,0.314344,27.9507,1.67419,3.86162,-0.117081,0.311413,3.01289,-1.61221,-1.42744,0.822703,1.60359,1.59841,0.699718,1.62929,-0.228092,1.00786,0.534817,-0.120958,
-0.0580114,-0.0414671,0.421463,-1.59823,-0.192283,-0.0653259,0.517988,-0.0618814,0.0436463,-0.0673871,-0.0633182,-0.477928,-0.276679,-0.0498783,0,0,0,0,0,0,0,-0.0442852,-0.0494267,0.43585,-1.58709,-0.0985059,1.52648,1.31448,-0.130379,0.0209448,-0.138949,0.00499729,-0.347057,0.19772,-0.0145058,0.463749,-29.0038,-0.213304,23.6145,0.354916,1.52794,-0.150955,0.311413,3.01289,-1.61221,-1.42744,0.822703,1.60359,1.59841,0.699718,1.62929,-0.228092,1.00786,0.534817,-0.120958,
-0.0582542,-0.0412962,0.421198,-1.59849,-0.194256,-0.0664552,0.51779,-0.0606953,0.042743,-0.0661952,-0.0628886,-0.493344,-0.282323,-0.0494268,0,0,0,0,0,0,0,-0.0442852,-0.0494267,0.43585,-1.58709,-0.0985059,1.52648,1.31448,-0.130379,0.0209448,-0.138949,0.00499729,-0.347057,0.19772,-0.0145058,0.463749,-29.0038,-0.213304,23.6145,0.354916,1.52794,-0.150955,1.54413,2.53094,-2.50684,-1.36339,2.326,1.08085,1.07656,1.78664,1.11301,-0.920325,0.95965,0.27278,-0.111225,
-0.0584924,-0.0411291,0.420938,-1.59874,-0.196293,-0.0676067,0.517594,-0.0595356,0.0417589,-0.0650287,-0.0624778,-0.509333,-0.287873,-0.0489898,0,0,0,0,0,0,0,-0.0442852,-0.0494267,0.43585,-1.58709,-0.0985059,1.52648,1.31448,-0.130379,0.0209448,-0.138949,0.00499729,-0.347057,0.19772,-0.0145058,0.463749,-29.0038,-0.213304,23.6145,0.354916,1.52794,-0.150955,1.54413,2.53094,-2.50684,-1.36339,2.326,1.08085,1.07656,1.78664,1.11301,-0.920325,0.95965,0.27278,-0.111225,
-0.058726,-0.0409664,0.420682,-1.59898,-0.198396,-0.0687789,0.5174,-0.0584158,0.0406799,-0.0639007,-0.0621127,-0.525618,-0.293047,-0.0485648,0,0,0,0,0,0,0,-0.0442852,-0.0494267,0.43585,-1.58709,-0.0985059,1.52648,1.31448,-0.130379,0.0209448,-0.138949,0.00499729,-0.347057,0.19772,-0.0145058,0.463749,-29.0038,-0.213304,23.6145,0.354916,1.52794,-0.150955,-0.236029,1.92487,-1.36999,-1.10189,0.630343,1.13503,1.13588,0.687023,1.15663,-0.554657,0.631749,0.0311579,-0.124717,
-0.0589555,-0.0408085,0.420431,-1.59923,-0.200563,-0.0699686,0.517208,-0.0573615,0.039488,-0.0628353,-0.0618304,-0.541771,-0.297419,-0.0481534,0,0,0,0,0,0,0,-0.0442852,-0.0494267,0.43585,-1.58709,-0.0985059,1.52648,1.31448,-0.130379,0.0209448,-0.138949,0.00499729,-0.347057,0.19772,-0.0145058,0.463749,-29.0038,-0.213304,23.6145,0.354916,1.52794,-0.150955,-0.236029,1.92487,-1.36999,-1.10189,0.630343,1.13503,1.13588,0.687023,1.15663,-0.554657,0.631749,0.0311579,-0.124717,
-0.0591811,-0.0406558,0.420183,-1.59948,-0.202791,-0.07117,0.517017,-0.0564152,0.0381601,-0.0618742,-0.0616829,-0.557136,-0.300368,-0.0477525,0,0,0,0,0,0,0,-0.0481573,-0.0486671,0.431755,-1.58707,-0.1141,1.52979,1.31423,-0.117029,0.0276188,-0.116035,0.00335904,-0.458084,0.0785951,-0.00242995,1.09455,-29.8052,0.389723,24.9832,-0.56702,1.44189,-0.123489,-1.07306,1.26515,-0.920688,-1.07093,0.0406061,0.940576,0.939356,0.366497,0.972309,-0.698924,0.209941,-0.379462,-0.135586,
-0.0594037,-0.0405092,0.419939,-1.59972,-0.205074,-0.0723741,0.516827,-0.0556458,0.0366664,-0.0610839,-0.0617402,-0.570719,-0.301005,-0.047359,0,0,0,0,0,0,0,-0.0481573,-0.0486671,0.431755,-1.58707,-0.1141,1.52979,1.31423,-0.117029,0.0276188,-0.116035,0.00335904,-0.458084,0.0785951,-0.00242995,1.09455,-29.8052,0.389723,24.9832,-0.56702,1.44189,-0.123489,-0.649937,0.228415,-0.742216,-0.646112,0.432552,0.302878,0.306712,0.620457,0.326766,-0.92355,-0.091801,-0.674037,-0.139797,
-0.0596244,-0.0403693,0.419697,-1.59997,-0.207398,-0.0735665,0.516639,-0.0551591,0.034969,-0.0605676,-0.0620938,-0.58103,-0.298103,-0.0469633,0,0,0,0,0,0,0,-0.0481573,-0.0486671,0.431755,-1.58707,-0.1141,1.52979,1.31423,-0.117029,0.0276188,-0.116035,0.00335904,-0.458084,0.0785951,-0.00242995,1.09455,-29.8052,0.389723,24.9832,-0.56702,1.44189,-0.123489,-0.649937,0.228415,-0.742216,-0.646112,0.432552,0.302878,0.306712,0.620457,0.326766,-0.92355,-0.091801,-0.674037,-0.139797,
-0.0598448,-0.0402372,0.419455,-1.60022,-0.209742,-0.0747266,0.516453,-0.0551147,0.0330205,-0.0604811,-0.0628555,-0.585861,-0.290024,-0.0465484,0,0,0,0,0,0,0,-0.0481573,-0.0486671,0.431755,-1.58707,-0.1141,1.52979,1.31423,-0.117029,0.0276188,-0.116035,0.00335904,-0.458084,0.0785951,-0.00242995,1.09455,-29.8052,0.389723,24.9832,-0.56702,1.44189,-0.123489,-0.513384,-1.09218,-0.429588,0.0313406,0.429693,-0.406285,-0.402043,0.583338,-0.393702,-0.939594,-0.42365,-0.846735,-0.140939,
-0.0600678,-0.0401141,0.419211,-1.60048,-0.21207,-0.0758253,0.516269,-0.0557444,0.0307649,-0.061051,-0.0641477,-0.582002,-0.274692,-0.0460902,0,0,0,0,0,0,0,-0.0481573,-0.0486671,0.431755,-1.58707,-0.1141,1.52979,1.31423,-0.117029,0.0276188,-0.116035,0.00335904,-0.458084,0.0785951,-0.00242995,1.09455,-29.8052,0.389723,24.9832,-0.56702,1.44189,-0.123489,-0.513384,-1.09218,-0.429588,0.0313406,0.429693,-0.406285,-0.402043,0.583338,-0.393702,-0.939594,-0.42365,-0.846735,-0.140939,
-0.0602973,-0.0400016,0.41896,-1.60075,-0.214329,-0.076824,0.516087,-0.0573724,0.028141,-0.0625953,-0.0660781,-0.564905,-0.249665,-0.0455422,0,0,0,0,0,0,0,-0.0481573,-0.0486671,0.431755,-1.58707,-0.1141,1.52979,1.31423,-0.117029,0.0276188,-0.116035,0.00335904,-0.458084,0.0785951,-0.00242995,1.09455,-29.8052,0.389723,24.9832,-0.56702,1.44189,-0.123489,-0.691541,-2.0247,-0.49393,0.290855,0.392392,-0.865007,-0.862246,0.602223,-0.848337,-1.14402,-0.797139,-1.07671,-0.141617,
-0.060539,-0.0399012,0.418698,-1.60102,-0.216443,-0.0776734,0.515907,-0.0604276,0.025091,-0.0655365,-0.0686972,-0.528382,-0.21235,-0.0448439,0,0,0,0,0,0,0,-0.0508353,-0.0478555,0.428452,-1.58704,-0.128627,1.53086,1.3142,-0.0737762,0.0277957,-0.101058,0.00633393,-0.427874,0.0255359,3.64091e-05,1.12232,-30.0789,0.43733,24.5111,-1.51368,1.03722,-0.177505,-0.785339,-2.28722,-0.87614,0.109849,0.614865,-1.00465,-0.995504,0.841719,-0.980971,-1.51194,-1.04076,-1.31621,-0.147785,
-0.0608007,-0.0398149,0.418416,-1.60131,-0.218301,-0.0783147,0.515732,-0.0654337,0.021571,-0.0703948,-0.0719569,-0.464538,-0.16032,-0.0439006,0,0,0,0,0,0,0,-0.0508353,-0.0478555,0.428452,-1.58704,-0.128627,1.53086,1.3142,-0.0737762,0.0277957,-0.101058,0.00633393,-0.427874,0.0255359,3.64091e-05,1.12232,-30.0789,0.43733,24.5111,-1.51368,1.03722,-0.177505,-0.785339,-2.28722,-0.87614,0.109849,0.614865,-1.00465,-0.995504,0.841719,-0.980971,-1.51194,-1.04076,-1.31621,-0.147785,
-0.0610926,-0.0397447,0.418105,-1.60161,-0.219758,-0.0786807,0.515561,-0.072963,0.0175536,-0.0777451,-0.075719,-0.36418,-0.0915157,-0.0425938,0,0,0,0,0,0,0,-0.0508353,-0.0478555,0.428452,-1.58704,-0.128627,1.53086,1.3142,-0.0737762,0.0277957,-0.101058,0.00633393,-0.427874,0.0255359,3.64091e-05,1.12232,-30.0789,0.43733,24.5111,-1.51368,1.03722,-0.177505,-1.0521,-2.71295,-0.983859,0.332598,0.532322,-1.18179,-1.17124,0.851777,-1.16374,-1.61129,-1.08884,-1.41421,-0.147878,
-0.0614269,-0.0396927,0.417753,-1.60193,-0.220629,-0.0786967,0.515398,-0.0835694,0.0130006,-0.0881547,-0.0798794,-0.217673,-0.00399971,-0.0408528,0,0,0,0,0,0,0,-0.0508353,-0.0478555,0.428452,-1.58704,-0.128627,1.53086,1.3142,-0.0737762,0.0277957,-0.101058,0.00633393,-0.427874,0.0255359,3.64091e-05,1.12232,-30.0789,0.43733,24.5111,-1.51368,1.03722,-0.177505,-1.0521,-2.71295,-0.983859,0.332598,0.532322,-1.18179,-1.17124,0.851777,-1.16374,-1.61129,-1.08884,-1.41421,-0.147878,
-0.0618181,-0.0396617,0.417344,-1.60227,-0.220689,-0.0782769,0.515237,-0.097811,0.0077417,-0.102216,-0.0846767,-0.0151081,0.104963,-0.0400741,0,0,0,0,0,0,0,-0.0508353,-0.0478555,0.428452,-1.58704,-0.128627,1.53086,1.3142,-0.0737762,0.0277957,-0.101058,0.00633393,-0.427874,0.0255359,3.64091e-05,1.12232,-30.0789,0.43733,24.5111,-1.51368,1.03722,-0.177505,0.293239,-3.29142,-1.39419,0.552673,1.65617,-1.74409,-1.73171,1.52788,-1.72681,-1.87792,-1.24228,-1.43165,-0.147303,
-0.0622334,-0.0396243,0.416908,-1.60259,-0.220149,-0.077543,0.51508,-0.103816,0.00936663,-0.108944,-0.0791254,0.135084,0.183467,-0.0393409,0,0,0,0,0,0,0,-0.0527523,-0.0473918,0.425885,-1.58715,-0.142428,1.5314,1.31416,-0.0571747,0.00820337,-0.0783656,-0.00828388,-0.426293,0.000248269,-0.000646821,0.384403,-29.6782,-0.312487,25.4831,-0.93964,1.98571,-0.177505,0.293239,-3.29142,-1.39419,0.552673,1.65617,-1.74409,-1.73171,1.52788,-1.72681,-1.87792,-1.24228,-1.43165,-0.147303,
-0.0626552,-0.0395745,0.416464,-1.60287,-0.219152,-0.0765629,0.514924,-0.105455,0.0124402,-0.111087,-0.0721887,0.249113,0.245036,-0.0389554,0,0,0,0,0,0,0,-0.0527523,-0.0473918,0.425885,-1.58715,-0.142428,1.5314,1.31416,-0.0571747,0.00820337,-0.0783656,-0.00828388,-0.426293,0.000248269,-0.000646821,0.384403,-29.6782,-0.312487,25.4831,-0.93964,1.98571,-0.177505,0.145138,-2.88626,-1.12207,0.303461,1.34278,-1.50238,-1.493,1.25787,-1.47723,-1.68381,-1.27062,-1.33732,-0.15165,
-0.063073,-0.039513,0.416022,-1.60314,-0.217804,-0.0753824,0.514769,-0.104464,0.0153787,-0.110427,-0.066135,0.33711,0.295113,-0.0387675,0,0,0,0,0,0,0,-0.0527523,-0.0473918,0.425885,-1.58715,-0.142428,1.5314,1.31416,-0.0571747,0.00820337,-0.0783656,-0.00828388,-0.426293,0.000248269,-0.000646821,0.384403,-29.6782,-0.312487,25.4831,-0.93964,1.98571,-0.177505,-0.461586,-2.5322,-1.16516,0.195392,0.845158,-1.18601,-1.18341,0.962735,-1.15549,-1.53463,-1.14229,-1.20819,-0.15353,
-0.0634805,-0.0394419,0.41559,-1.60338,-0.21618,-0.0740367,0.514614,-0.101873,0.017781,-0.108045,-0.0613036,0.405934,0.336435,-0.0386901,0,0,0,0,0,0,0,-0.0527523,-0.0473918,0.425885,-1.58715,-0.142428,1.5314,1.31416,-0.0571747,0.00820337,-0.0783656,-0.00828388,-0.426293,0.000248269,-0.000646821,0.384403,-29.6782,-0.312487,25.4831,-0.93964,1.98571,-0.177505,-0.461586,-2.5322,-1.16516,0.195392,0.845158,-1.18601,-1.18341,0.962735,-1.15549,-1.53463,-1.14229,-1.20819,-0.15353,
-0.0638739,-0.0393635,0.415171,-1.60361,-0.214338,-0.0725538,0.51446,-0.0983445,0.0196042,-0.104643,-0.0575399,0.460423,0.370729,-0.0386774,0,0,0,0,0,0,0,-0.0527523,-0.0473918,0.425885,-1.58715,-0.142428,1.5314,1.31416,-0.0571747,0.00820337,-0.0783656,-0.00828388,-0.426293,0.000248269,-0.000646821,0.384403,-29.6782,-0.312487,25.4831,-0.93964,1.98571,-0.177505,-1.09991,-3.11523,-1.45352,0.727458,0.500848,-1.33535,-1.33148,0.849478,-1.32157,-1.52846,-1.00486,-1.16669,-0.15983,
-0.0709829,-0.0315017,0.407825,-1.60333,-0.275662,-0.207452,0.510758,-0.179051,0.128944,-0.189257,-0.114078,-1.17059,-0.762419,-0.0854496,0,0,0,0,0,0,0,-0.0527523,-0.0473918,0.425885,-1.58715,-0.142428,1.5314,1.31416,-0.0571747,0.00820337,-0.0783656,-0.00828388,-0.426293,0.000248269,-0.000646821,0.384403,-29.6782,-0.312487,25.4831,-0.93964,1.98571,-0.177505,-1.09991,-3.11523,-1.45352,0.727458,0.500848,-1.33535,-1.33148,0.849478,-1.32157,-1.52846,-1.00486,-1.16669,-0.15983,
-0.0764331,-0.0372175,0.400885,-1.59916,-0.183729,-0.0759568,0.517854,-0.144456,0.0654037,-0.152628,-0.0667816,0.576478,0.0323422,-0.050987,0,0,0,0,0,0,0,-0.0555345,-0.0473445,0.422185,-1.58788,-0.149924,1.53286,1.31411,-0.0798035,-0.00104,-0.0875886,-0.0281689,0.00290654,0.0476849,-0.00416851,0.00751081,-29.8052,-0.812364,26.1575,0.697323,4.432,-0.0630644,-1.57985,-3.63195,-1.38888,1.30574,0.140189,-1.49383,-1.48526,0.671809,-1.50415,-1.40374,-0.829519,-1.12665,-0.161443,
-0.0770084,-0.0369611,0.400277,-1.59942,-0.18128,-0.0758353,0.517652,-0.143812,0.0641158,-0.151968,-0.0663166,0.612356,0.0303821,-0.0505584,0,0,0,0,0,0,0,-0.0555345,-0.0473445,0.422185,-1.58788,-0.149924,1.53286,1.31411,-0.0798035,-0.00104,-0.0875886,-0.0281689,0.00290654,0.0476849,-0.00416851,0.00751081,-29.8052,-0.812364,26.1575,0.697323,4.432,-0.0630644,-1.27691,-2.61104,-0.422984,1.24287,-0.329541,-0.989973,-0.97601,0.117031,-1.02006,-0.621642,-0.433597,-0.647886,-0.157546,
-0.0775817,-0.03671,0.399671,-1.59969,-0.178674,-0.075721,0.517451,-0.143332,0.0627779,-0.151471,-0.0658764,0.651546,0.0285673,-0.0501404,0,0,0,0,0,0,0,-0.0555345,-0.0473445,0.422185,-1.58788,-0.149924,1.53286,1.31411,-0.0798035,-0.00104,-0.0875886,-0.0281689,0.00290654,0.0476849,-0.00416851,0.00751081,-29.8052,-0.812364,26.1575,0.697323,4.432,-0.0630644,-1.27691,-2.61104,-0.422984,1.24287,-0.329541,-0.989973,-0.97601,0.117031,-1.02006,-0.621642,-0.433597,-0.647886,-0.157546,
-0.0781538,-0.0364644,0.399067,-1.59995,-0.175896,-0.075613,0.517252,-0.143015,0.0613844,-0.151136,-0.0654657,0.694491,0.0270046,-0.049736,0,0,0,0,0,0,0,-0.0555345,-0.0473445,0.422185,-1.58788,-0.149924,1.53286,1.31411,-0.0798035,-0.00104,-0.0875886,-0.0281689,0.00290654,0.0476849,-0.00416851,0.00751081,-29.8052,-0.812364,26.1575,0.697323,4.432,-0.0630644,-1.36891,0.0316971,0.190047,0.0237429,-0.969434,0.421404,0.436654,-0.510511,0.40325,0.0816203,0.0641176,-0.0833083,-0.155259,
-0.0787252,-0.0362247,0.398463,-1.60021,-0.172929,-0.0755097,0.517055,-0.142859,0.0599287,-0.150963,-0.0650929,0.741654,0.0258269,-0.0493512,0,0,0,0,0,0,0,-0.0555345,-0.0473445,0.422185,-1.58788,-0.149924,1.53286,1.31411,-0.0798035,-0.00104,-0.0875886,-0.0281689,0.00290654,0.0476849,-0.00416851,0.00751081,-29.8052,-0.812364,26.1575,0.697323,4.432,-0.0630644,-0.0352928,0.256545,-0.753795,-0.0681067,0.351629,0.312397,0.318525,0.363914,0.306674,-0.258052,0.258649,0.0616357,-0.161753,
-0.0792967,-0.0359911,0.397859,-1.60047,-0.169755,-0.0754089,0.516859,-0.142863,0.0584035,-0.150949,-0.0647709,0.793512,0.0252075,-0.0489884,0,0,0,0,0,0,0,-0.0585033,-0.047322,0.41903,-1.58903,-0.151386,1.53047,1.31387,-0.115117,0.00290995,-0.114418,-0.0323611,0.0797238,-0.102368,-0.00199533,0.182071,-27.9564,-0.788561,27.1255,1.1615,3.51006,-0.197647,-0.0352928,0.256545,-0.753795,-0.0681067,0.351629,0.312397,0.318525,0.363914,0.306674,-0.258052,0.258649,0.0616357,-0.161753,
-0.0798687,-0.0357639,0.397255,-1.60073,-0.166353,-0.0753073,0.516664,-0.14302,0.0568018,-0.151088,-0.064519,0.850525,0.0253788,-0.0486572,0,0,0,0,0,0,0,-0.0585033,-0.047322,0.41903,-1.58903,-0.151386,1.53047,1.31387,-0.115117,0.00290995,-0.114418,-0.0323611,0.0797238,-0.102368,-0.00199533,0.182071,-27.9564,-0.788561,27.1255,1.1615,3.51006,-0.197647,1.55245,0.622139,-0.791398,-0.141304,1.53602,0.206355,0.221036,1.02138,0.192357,-0.339196,0.444859,0.143041,-0.171099,
-0.0804404,-0.0355428,0.396651,-1.60098,-0.162718,-0.0752016,0.516471,-0.142914,0.0552791,-0.151002,-0.0642352,0.908853,0.0264408,-0.0483307,0,0,0,0,0,0,0,-0.0585033,-0.047322,0.41903,-1.58903,-0.151386,1.53047,1.31387,-0.115117,0.00290995,-0.114418,-0.0323611,0.0797238,-0.102368,-0.00199533,0.182071,-27.9564,-0.788561,27.1255,1.1615,3.51006,-0.197647,1.55245,0.622139,-0.791398,-0.141304,1.53602,0.206355,0.221036,1.02138,0.192357,-0.339196,0.444859,0.143041,-0.171099,
-0.0810048,-0.0353254,0.396053,-1.60124,-0.158906,-0.0750888,0.516279,-0.141102,0.0543347,-0.149343,-0.0635928,0.952967,0.0282011,-0.0479328,0,0,0,0,0,0,0,-0.0585033,-0.047322,0.41903,-1.58903,-0.151386,1.53047,1.31387,-0.115117,0.00290995,-0.114418,-0.0323611,0.0797238,-0.102368,-0.00199533,0.182071,-27.9564,-0.788561,27.1255,1.1615,3.51006,-0.197647,2.19776,1.64944,-1.39003,-0.680886,2.33517,0.611734,0.628566,1.59236,0.606753,-0.601536,0.772219,0.201302,-0.173039,
-0.0815579,-0.0351117,0.395467,-1.60149,-0.154959,-0.0749599,0.516089,-0.138265,0.0534294,-0.146606,-0.0632582,0.986656,0.0322091,-0.0476647,0,0,0,0,0,0,0,-0.0585033,-0.047322,0.41903,-1.58903,-0.151386,1.53047,1.31387,-0.115117,0.00290995,-0.114418,-0.0323611,0.0797238,-0.102368,-0.00199533,0.182071,-27.9564,-0.788561,27.1255,1.1615,3.51006,-0.197647,2.19776,1.64944,-1.39003,-0.680886,2.33517,0.611734,0.628566,1.59236,0.606753,-0.601536,0.772219,0.201302,-0.173039,
-0.0820969,-0.0349022,0.394894,-1.60174,-0.150909,-0.0748016,0.515899,-0.134751,0.0523745,-0.143154,-0.0633884,1.01254,0.0395768,-0.0475423,0,0,0,0,0,0,0,-0.0626567,-0.0475928,0.414454,-1.58987,-0.145674,1.5273,1.31383,-0.141911,-0.00595032,-0.168264,-0.010997,0.249971,-0.100999,-0.000906981,0.638309,-28.131,-0.0625476,26.0822,1.99188,3.33794,-0.163772,1.58422,2.79887,-2.46746,-1.32322,2.42543,1.32516,1.3376,1.86946,1.33731,-0.941262,1.17042,0.262257,-0.172181,
-0.08262,-0.0346978,0.394337,-1.602,-0.146779,-0.0745957,0.515708,-0.130777,0.0510934,-0.139215,-0.0640351,1.03247,0.0514782,-0.0476059,0,0,0,0,0,0,0,-0.0626567,-0.0475928,0.414454,-1.58987,-0.145674,1.5273,1.31383,-0.141911,-0.00595032,-0.168264,-0.010997,0.249971,-0.100999,-0.000906981,0.638309,-28.131,-0.0625476,26.0822,1.99188,3.33794,-0.163772,0.521098,3.0185,-2.06359,-1.20325,1.47223,1.63979,1.64783,1.2828,1.64509,-0.633344,1.37607,0.330035,-0.171837,
-0.0831259,-0.0344997,0.393798,-1.60226,-0.142588,-0.0743186,0.515516,-0.126475,0.0495476,-0.134923,-0.0652539,1.04781,0.069282,-0.0479379,0,0,0,0,0,0,0,-0.0626567,-0.0475928,0.414454,-1.58987,-0.145674,1.5273,1.31383,-0.141911,-0.00595032,-0.168264,-0.010997,0.249971,-0.100999,-0.000906981,0.638309,-28.131,-0.0625476,26.0822,1.99188,3.33794,-0.163772,0.521098,3.0185,-2.06359,-1.20325,1.47223,1.63979,1.64783,1.2828,1.64509,-0.633344,1.37607,0.330035,-0.171837,
-0.0836135,-0.0343088,0.393276,-1.60253,-0.13835,-0.0739407,0.515322,-0.121903,0.0477182,-0.130332,-0.0671127,1.0595,0.0944839,-0.0486913,0,0,0,0,0,0,0,-0.0626567,-0.0475928,0.414454,-1.58987,-0.145674,1.5273,1.31383,-0.141911,-0.00595032,-0.168264,-0.010997,0.249971,-0.100999,-0.000906981,0.638309,-28.131,-0.0625476,26.0822,1.99188,3.33794,-0.163772,-0.0831802,2.84173,-1.25086,-0.902394,0.707597,1.64938,1.65395,0.735953,1.64478,-0.282022,1.41969,0.308537,-0.172395,
-0.0840816,-0.0341263,0.392775,-1.60281,-0.134077,-0.073427,0.515121,-0.117037,0.0456224,-0.125407,-0.0696341,1.06811,0.128424,-0.0501232,0,0,0,0,0,0,0,-0.0626567,-0.0475928,0.414454,-1.58987,-0.145674,1.5273,1.31383,-0.141911,-0.00595032,-0.168264,-0.010997,0.249971,-0.100999,-0.000906981,0.638309,-28.131,-0.0625476,26.0822,1.99188,3.33794,-0.163772,-0.0831802,2.84173,-1.25086,-0.902394,0.707597,1.64938,1.65395,0.735953,1.64478,-0.282022,1.41969,0.308537,-0.172395,
-0.0845286,-0.0339527,0.392295,-1.6031,-0.129782,-0.0727403,0.514911,-0.111738,0.0433868,-0.119983,-0.0726236,1.07388,0.171659,-0.0526106,0,0,0,0,0,0,0,-0.0626567,-0.0475928,0.414454,-1.58987,-0.145674,1.5273,1.31383,-0.141911,-0.00595032,-0.168264,-0.010997,0.249971,-0.100999,-0.000906981,0.638309,-28.131,-0.0625476,26.0822,1.99188,3.33794,-0.163772,0.530878,2.02575,-1.31444,-0.422873,1.22335,1.1151,1.12101,1.06075,1.10107,-0.417262,1.31591,0.218552,-0.174669,
-0.0849513,-0.0337868,0.39184,-1.6034,-0.125476,-0.0718504,0.514687,-0.105672,0.0414797,-0.113694,-0.0751636,1.07654,0.222482,-0.0560021,0,0,0,0,0,0,0,-0.067561,-0.047536,0.408308,-1.59069,-0.131694,1.52473,1.31378,-0.15088,-0.000939822,-0.194821,-0.0248579,0.535408,-0.0352684,-0.00346328,1.14612,-28.6546,0.536512,25.8798,1.70532,3.0468,-0.143631,0.530878,2.02575,-1.31444,-0.422873,1.22335,1.1151,1.12101,1.06075,1.10107,-0.417262,1.31591,0.218552,-0.174669,
-0.0853314,-0.0336163,0.391429,-1.60369,-0.121308,-0.0707666,0.514492,-0.095027,0.0426371,-0.102899,-0.0728349,1.04183,0.270952,-0.0486462,0,0,0,0,0,0,0,-0.067561,-0.047536,0.408308,-1.59069,-0.131694,1.52473,1.31378,-0.15088,-0.000939822,-0.194821,-0.0248579,0.535408,-0.0352684,-0.00346328,1.14612,-28.6546,0.536512,25.8798,1.70532,3.0468,-0.143631,-0.196425,1.86653,-1.85211,-0.428926,1.04727,1.15623,1.15921,1.12294,1.14854,-0.702153,1.32109,0.0688576,-0.176716,
-0.0856788,-0.033446,0.391051,-1.60397,-0.117235,-0.0695192,0.514298,-0.0868608,0.0425797,-0.0944997,-0.0708158,1.01834,0.311836,-0.0484424,0,0,0,0,0,0,0,-0.067561,-0.047536,0.408308,-1.59069,-0.131694,1.52473,1.31378,-0.15088,-0.000939822,-0.194821,-0.0248579,0.535408,-0.0352684,-0.00346328,1.14612,-28.6546,0.536512,25.8798,1.70532,3.0468,-0.143631,-0.592022,1.68087,-1.71468,-0.29776,0.715695,1.12851,1.13022,0.928699,1.11791,-0.643499,1.29781,0.0323518,-0.177103,
-0.0860005,-0.0332785,0.390699,-1.60425,-0.113225,-0.0681352,0.514104,-0.0804167,0.04186,-0.0878917,-0.0687775,1.00257,0.346012,-0.0486764,0,0,0,0,0,0,0,-0.067561,-0.047536,0.408308,-1.59069,-0.131694,1.52473,1.31378,-0.15088,-0.000939822,-0.194821,-0.0248579,0.535408,-0.0352684,-0.00346328,1.14612,-28.6546,0.536512,25.8798,1.70532,3.0468,-0.143631,-0.592022,1.68087,-1.71468,-0.29776,0.715695,1.12851,1.13022,0.928699,1.11791,-0.643499,1.29781,0.0323518,-0.177103,
-0.0863015,-0.0331155,0.390369,-1.60452,-0.109256,-0.0666371,0.513908,-0.0752482,0.0407468,-0.0826107,-0.0667091,0.992157,0.374513,-0.0488813,0,0,0,0,0,0,0,-0.067561,-0.047536,0.408308,-1.59069,-0.131694,1.52473,1.31378,-0.15088,-0.000939822,-0.194821,-0.0248579,0.535408,-0.0352684,-0.00346328,1.14612,-28.6546,0.536512,25.8798,1.70532,3.0468,-0.143631,-1.0656,1.92773,-1.36462,-0.457442,0.340984,1.32151,1.32704,0.706903,1.30999,-0.605783,1.30737,-0.0995147,-0.181736,
