PerkyPenguin/Analysis-on-Approximated-Derivatives/Code_and_Data/PaperData/Real_Robot/Scene_2/contact_change/1/trajectory.csv
Commanded Joint 0 Position,Commanded Joint 1 Position,Commanded Joint 2 Position,Commanded Joint 3 Position,Commanded Joint 4 Position,Commanded Joint 5 Position,Commanded Joint 6 Position,Commanded Joint 0 Velocity,Commanded Joint 1 Velocity,Commanded Joint 2 Velocity,Commanded Joint 3 Velocity,Commanded Joint 4 Velocity,Commanded Joint 5 Velocity,Commanded Joint 6 Velocity,Commanded Joint 0 Torque,Commanded Joint 1 Torque,Commanded Joint 2 Torque,Commanded Joint 3 Torque,Commanded Joint 4 Torque,Commanded Joint 5 Torque,Commanded Joint 6 Torque,Actual Joint 0 Position,Actual Joint 1 Position,Actual Joint 2 Position,Actual Joint 3 Position,Actual Joint 4 Position,Actual Joint 5 Position,Actual Joint 6 Position,Actual Joint 0 Velocity,Actual Joint 1 Velocity,Actual Joint 2 Velocity,Actual Joint 3 Velocity,Actual Joint 4 Velocity,Actual Joint 5 Velocity,Actual Joint 6 Velocity,Actual Joint 0 Torque,Actual Joint 1 Torque,Actual Joint 2 Torque,Actual Joint 3 Torque,Actual Joint 4 Torque,Actual Joint 5 Torque,Actual Joint 6 Torque,EE ext force 0,EE ext force 1,EE ext force 2,EE ext force 3,EE ext force 4,EE ext force 5,joint ext torque 0,joint ext torque 1,joint ext torque 2,joint ext torque 3,joint ext torque 4,joint ext torque 5,joint ext torque 6,
0.0218066,-0.0557735,0.514757,-1.56014,0.0407639,-0.0121523,0.533207,0.010711,0.0299372,0.0151905,-0.143994,-0.076982,0.198691,-0.00125417,0,0,0,0,0,0,0,0.0217346,-0.0559012,0.514647,-1.5587,0.0414455,1.55667,1.31862,0.000729063,0.00227897,-0.000489008,0.000724697,0.0134473,0.00042907,-0.000420129,0.182071,-27.4089,-0.812364,26.8796,0.60577,3.07976,0.0843355,1.86008,1.6156,1.85276,-0.770118,1.09799,0.133988,0.1585,0.483818,0.122911,0.123883,0.206537,-0.323354,0.089304,
0.0218633,-0.055573,0.514835,-1.56076,0.0403854,-0.0113254,0.533201,0.0141595,0.0501203,0.019452,-0.154794,-0.0946257,0.206709,-0.0013389,0,0,0,0,0,0,0,0.0217327,-0.0559001,0.51465,-1.5587,0.0414114,1.55667,1.31862,-0.0005188,0.0013598,-0.000181243,0.000860803,0.00930097,0.000478456,-0.000734314,0.209842,-27.3811,-0.859972,26.8518,0.868527,3.07976,0.104477,1.86008,1.6156,1.85276,-0.770118,1.09799,0.133988,0.1585,0.483818,0.122911,0.123883,0.206537,-0.323354,0.089304,
0.0217321,-0.0558895,0.51465,-1.5587,0.0414933,-0.0141127,0.533224,7.65698e-05,0.000430379,0.000121455,-3.18878e-06,0.00334435,0.000561474,5.5475e-06,0,0,0,0,0,0,0,0.0217327,-0.0559001,0.51465,-1.5587,0.0414114,1.55667,1.31862,-0.0005188,0.0013598,-0.000181243,0.000860803,0.00930097,0.000478456,-0.000734314,0.209842,-27.3811,-0.859972,26.8518,0.868527,3.07976,0.104477,1.80674,1.66184,1.82002,-0.815776,1.07095,0.169649,0.194566,0.475215,0.159796,0.112365,0.204965,-0.325787,0.0895432,
0.0217325,-0.0558882,0.514651,-1.5587,0.0415037,-0.0141109,0.533224,0.000107287,0.000322916,0.000163277,-2.22853e-05,0.00259974,0.00043579,2.75627e-06,0,0,0,0,0,0,0,0.0217327,-0.0559001,0.51465,-1.5587,0.0414114,1.55667,1.31862,-0.0005188,0.0013598,-0.000181243,0.000860803,0.00930097,0.000478456,-0.000734314,0.209842,-27.3811,-0.859972,26.8518,0.868527,3.07976,0.104477,1.84276,1.46847,1.81939,-0.661162,1.07909,0.0722345,0.0985727,0.469577,0.0562132,0.137799,0.20096,-0.304865,0.0888956,
0.021733,-0.0558872,0.514651,-1.5587,0.0415119,-0.0141097,0.533224,0.000122711,0.000231788,0.000187192,-2.95863e-05,0.00202713,0.000320399,8.67118e-07,0,0,0,0,0,0,0,0.0217327,-0.0559001,0.51465,-1.5587,0.0414114,1.55667,1.31862,-0.0005188,0.0013598,-0.000181243,0.000860803,0.00930097,0.000478456,-0.000734314,0.209842,-27.3811,-0.859972,26.8518,0.868527,3.07976,0.104477,1.84276,1.46847,1.81939,-0.661162,1.07909,0.0722345,0.0985727,0.469577,0.0562132,0.137799,0.20096,-0.304865,0.0888956,
0.0217335,-0.0558866,0.514652,-1.5587,0.0415182,-0.0141088,0.533224,0.000127917,0.000154163,0.00019898,-3.00064e-05,0.0015838,0.000218109,-3.16965e-07,0,0,0,0,0,0,0,0.0217327,-0.0559001,0.51465,-1.5587,0.0414114,1.55667,1.31862,-0.0005188,0.0013598,-0.000181243,0.000860803,0.00930097,0.000478456,-0.000734314,0.209842,-27.3811,-0.859972,26.8518,0.868527,3.07976,0.104477,0.852911,0.928699,1.52709,-0.331469,0.422081,0.107167,0.134006,0.138959,0.082685,0.156054,0.183843,-0.295837,0.0880471,
0.021734,-0.0558863,0.514653,-1.5587,0.0415231,-0.0141083,0.533224,0.000126527,8.79854e-05,0.000202767,-2.63467e-05,0.00123791,0.000129297,-1.00064e-06,0,0,0,0,0,0,0,0.0217431,-0.0560029,0.514653,-1.55924,0.0413101,1.55736,1.31862,0.000622665,0.00185742,0.000125175,-0.0248235,-0.00596006,0.039609,-0.00100115,0.106693,-27.159,-0.859972,27.5024,1.32629,3.36449,0.11821,0.852911,0.928699,1.52709,-0.331469,0.422081,0.107167,0.134006,0.138959,0.082685,0.156054,0.183843,-0.295837,0.0880471,
0.0217345,-0.0558862,0.514654,-1.5587,0.041527,-0.0141081,0.533224,0.000121066,3.15695e-05,0.000201439,-2.03513e-05,0.000965852,5.32609e-05,-1.34385e-06,0,0,0,0,0,0,0,0.0217431,-0.0560029,0.514653,-1.55924,0.0413101,1.55736,1.31862,0.000622665,0.00185742,0.000125175,-0.0248235,-0.00596006,0.039609,-0.00100115,0.106693,-27.159,-0.859972,27.5024,1.32629,3.36449,0.11821,0.659355,1.40702,0.644744,-0.881915,0.633488,0.379147,0.396674,0.42306,0.384517,-0.190213,0.218689,-0.307386,0.0874697,
0.0222638,-0.0559827,0.515172,-1.55825,0.0275657,-0.022631,0.53318,0.00597445,-0.0058489,0.00612483,0.00214165,-0.373558,-0.236701,-0.00105597,0,0,0,0,0,0,0,0.0217431,-0.0560029,0.514653,-1.55924,0.0413101,1.55736,1.31862,0.000622665,0.00185742,0.000125175,-0.0248235,-0.00596006,0.039609,-0.00100115,0.106693,-27.159,-0.859972,27.5024,1.32629,3.36449,0.11821,1.85939,1.81365,0.553606,-1.21096,1.53812,0.220995,0.237828,0.932121,0.237418,-0.324624,0.197746,-0.272856,0.0890624,
0.0222376,-0.0558883,0.515149,-1.55896,0.0279147,-0.0213458,0.533182,0.0050451,-0.00382689,0.0052337,0.00104851,-0.355471,-0.225983,-0.000960458,0,0,0,0,0,0,0,0.0217431,-0.0560029,0.514653,-1.55924,0.0413101,1.55736,1.31862,0.000622665,0.00185742,0.000125175,-0.0248235,-0.00596006,0.039609,-0.00100115,0.106693,-27.159,-0.859972,27.5024,1.32629,3.36449,0.11821,1.85939,1.81365,0.553606,-1.21096,1.53812,0.220995,0.237828,0.932121,0.237418,-0.324624,0.197746,-0.272856,0.0890624,
0.0222538,-0.0559035,0.515166,-1.55896,0.0264792,-0.0222629,0.533178,0.00405635,-0.00381536,0.00423771,0.000553552,-0.358875,-0.229299,-0.000938251,0,0,0,0,0,0,0,0.0217431,-0.0560029,0.514653,-1.55924,0.0413101,1.55736,1.31862,0.000622665,0.00185742,0.000125175,-0.0248235,-0.00596006,0.039609,-0.00100115,0.106693,-27.159,-0.859972,27.5024,1.32629,3.36449,0.11821,1.82211,1.55239,1.17746,-0.848831,1.21952,0.111513,0.123289,0.619829,0.118004,-0.0183521,0.182411,-0.217051,0.0897794,
0.0222664,-0.0559184,0.515179,-1.55896,0.0250337,-0.0231901,0.533174,0.00314277,-0.0037077,0.00331639,0.000122105,-0.361368,-0.231792,-0.000916748,0,0,0,0,0,0,0,0.0217431,-0.0560029,0.514653,-1.55924,0.0413101,1.55736,1.31862,0.000622665,0.00185742,0.000125175,-0.0248235,-0.00596006,0.039609,-0.00100115,0.106693,-27.159,-0.859972,27.5024,1.32629,3.36449,0.11821,1.82211,1.55239,1.17746,-0.848831,1.21952,0.111513,0.123289,0.619829,0.118004,-0.0183521,0.182411,-0.217051,0.0897794,
0.0222756,-0.0559325,0.515189,-1.55896,0.0235813,-0.0241245,0.533171,0.0023032,-0.00353112,0.002469,-0.000255314,-0.363115,-0.233606,-0.000896137,0,0,0,0,0,0,0,0.0217522,-0.056007,0.514662,-1.55933,0.041234,1.55745,1.31863,0.00117872,-0.000746849,0.00224281,8.72028e-05,-0.0303082,-0.0089011,-0.00337584,-0.0440639,-27.5835,-1.0385,27.1255,0.886837,3.17223,0.050461,1.63168,2.18918,1.03636,-1.3252,1.16622,0.454806,0.458016,0.635502,0.483587,-0.0927184,0.239916,-0.229889,0.0901947,
0.0222817,-0.0559457,0.515196,-1.55897,0.0221243,-0.025064,0.533167,0.00153488,-0.00330693,0.00169299,-0.000586222,-0.364246,-0.234858,-0.000876496,0,0,0,0,0,0,0,0.0217522,-0.056007,0.514662,-1.55933,0.041234,1.55745,1.31863,0.00117872,-0.000746849,0.00224281,8.72028e-05,-0.0303082,-0.0089011,-0.00337584,-0.0440639,-27.5835,-1.0385,27.1255,0.886837,3.17223,0.050461,1.63168,2.18918,1.03636,-1.3252,1.16622,0.454806,0.458016,0.635502,0.483587,-0.0927184,0.239916,-0.229889,0.0901947,
0.0222851,-0.0559579,0.5152,-1.55897,0.0206648,-0.0260066,0.533164,0.000834043,-0.00305177,0.000984728,-0.000876674,-0.364867,-0.235647,-0.000857838,0,0,0,0,0,0,0,0.0217522,-0.056007,0.514662,-1.55933,0.041234,1.55745,1.31863,0.00117872,-0.000746849,0.00224281,8.72028e-05,-0.0303082,-0.0089011,-0.00337584,-0.0440639,-27.5835,-1.0385,27.1255,0.886837,3.17223,0.050461,1.47208,1.73927,1.27834,-1.06472,0.897742,0.287667,0.28383,0.417614,0.317449,0.0113248,0.0911174,-0.25191,0.0913167,
0.022713,-0.055911,0.515543,-1.55757,-0.000235506,-0.0562965,0.532693,0.00203135,-0.0081957,0.00109812,0.000641227,-1.13655,-1.18103,-0.0109264,0,0,0,0,0,0,0,0.0217522,-0.056007,0.514662,-1.55933,0.041234,1.55745,1.31863,0.00117872,-0.000746849,0.00224281,8.72028e-05,-0.0303082,-0.0089011,-0.00337584,-0.0440639,-27.5835,-1.0385,27.1255,0.886837,3.17223,0.050461,1.47208,1.73927,1.27834,-1.06472,0.897742,0.287667,0.28383,0.417614,0.317449,0.0113248,0.0911174,-0.25191,0.0913167,
0.0227815,-0.0561372,0.515613,-1.55767,-0.000651421,-0.0526963,0.532758,0.00390798,-0.00977351,0.00313981,0.00133624,-1.13948,-1.07587,-0.00972648,0,0,0,0,0,0,0,0.0217522,-0.056007,0.514662,-1.55933,0.041234,1.55745,1.31863,0.00117872,-0.000746849,0.00224281,8.72028e-05,-0.0303082,-0.0089011,-0.00337584,-0.0440639,-27.5835,-1.0385,27.1255,0.886837,3.17223,0.050461,0.976567,1.82156,1.62171,-1.15539,0.409963,0.461518,0.456124,0.0961921,0.496327,0.114884,0.00731257,-0.32327,0.0907624,
0.0227847,-0.0561688,0.515613,-1.55768,-0.00527712,-0.0570465,0.53272,0.000792472,-0.00789212,5.8313e-05,-0.00204375,-1.15642,-1.08755,-0.00959019,0,0,0,0,0,0,0,0.0219346,-0.0560382,0.514807,-1.55926,0.0341399,1.55691,1.31862,0.00556602,0.00098312,0.0028665,0.0138986,-0.247074,-0.0737745,-0.00880327,-0.500302,-27.2582,-1.51061,26.3043,-0.774845,2.26403,0.0706026,1.65922,1.76361,1.56962,-1.2123,0.922523,0.236774,0.23574,0.383412,0.271777,0.00686653,-0.0837972,-0.347207,0.0914574,
0.0227763,-0.0561923,0.515602,-1.5577,-0.00995935,-0.0614285,0.532682,-0.00210479,-0.00587299,-0.00281325,-0.00499353,-1.17056,-1.0955,-0.00945468,0,0,0,0,0,0,0,0.0219346,-0.0560382,0.514807,-1.55926,0.0341399,1.55691,1.31862,0.00556602,0.00098312,0.0028665,0.0138986,-0.247074,-0.0737745,-0.00880327,-0.500302,-27.2582,-1.51061,26.3043,-0.774845,2.26403,0.0706026,1.65922,1.76361,1.56962,-1.2123,0.922523,0.236774,0.23574,0.383412,0.271777,0.00686653,-0.0837972,-0.347207,0.0914574,
0.0227572,-0.0562075,0.51558,-1.55773,-0.0146889,-0.0658299,0.532644,-0.00478694,-0.00379557,-0.00547656,-0.00756566,-1.18238,-1.10034,-0.00932057,0,0,0,0,0,0,0,0.0219346,-0.0560382,0.514807,-1.55926,0.0341399,1.55691,1.31862,0.00556602,0.00098312,0.0028665,0.0138986,-0.247074,-0.0737745,-0.00880327,-0.500302,-27.2582,-1.51061,26.3043,-0.774845,2.26403,0.0706026,2.77106,2.78321,2.2131,-1.81994,1.42859,0.373339,0.379357,0.525917,0.416621,0.184872,-0.120961,-0.259695,0.0974304,
0.0227281,-0.0562144,0.515548,-1.55777,-0.0194581,-0.0702403,0.532608,-0.00726108,-0.00171908,-0.00793763,-0.00980494,-1.1923,-1.10261,-0.00918817,0,0,0,0,0,0,0,0.0219346,-0.0560382,0.514807,-1.55926,0.0341399,1.55691,1.31862,0.00556602,0.00098312,0.0028665,0.0138986,-0.247074,-0.0737745,-0.00880327,-0.500302,-27.2582,-1.51061,26.3043,-0.774845,2.26403,0.0706026,2.77106,2.78321,2.2131,-1.81994,1.42859,0.373339,0.379357,0.525917,0.416621,0.184872,-0.120961,-0.259695,0.0974304,
0.02269,-0.0562131,0.515507,-1.55782,-0.0242605,-0.0746513,0.532571,-0.00953669,0.000313256,-0.0102052,-0.0117499,-1.20062,-1.10274,-0.00905762,0,0,0,0,0,0,0,0.0219346,-0.0560382,0.514807,-1.55926,0.0341399,1.55691,1.31862,0.00556602,0.00098312,0.0028665,0.0138986,-0.247074,-0.0737745,-0.00880327,-0.500302,-27.2582,-1.51061,26.3043,-0.774845,2.26403,0.0706026,3.18528,2.83526,2.60056,-2.01466,1.65728,0.264793,0.266462,0.62078,0.322241,0.10962,-0.30368,-0.438259,0.0999469,
0.017037,-0.0548987,0.509481,-1.56135,0.00645739,-0.0561217,0.528578,-0.161481,0.0545943,-0.171338,-0.086411,-1.03425,-1.2268,-0.0915999,0,0,0,0,0,0,0,0.0219346,-0.0560382,0.514807,-1.55926,0.0341399,1.55691,1.31862,0.00556602,0.00098312,0.0028665,0.0138986,-0.247074,-0.0737745,-0.00880327,-0.500302,-27.2582,-1.51061,26.3043,-0.774845,2.26403,0.0706026,2.94876,2.10582,2.76473,-1.98641,1.51884,-0.0224632,-0.0268516,0.565819,0.0527449,-0.151211,-0.738252,-0.816098,0.0975312,
0.0172,-0.0551294,0.509643,-1.56101,-0.00405582,-0.0576087,0.529067,-0.157976,0.0499722,-0.167184,-0.0783979,-1.05763,-1.23309,-0.0809805,0,0,0,0,0,0,0,0.022642,-0.0560673,0.515526,-1.55826,0.0147479,1.54737,1.31862,0.0269421,-0.00144342,0.0209882,0.0349934,-0.712712,-0.366972,0.00120828,-1.23822,-27.4565,-2.18505,25.3601,-1.12275,1.614,0.0376436,2.94876,2.10582,2.76473,-1.98641,1.51884,-0.0224632,-0.0268516,0.565819,0.0527449,-0.151211,-0.738252,-0.816098,0.0975312,
0.0165423,-0.0549051,0.508948,-1.56134,-0.00838722,-0.0626316,0.528747,-0.164433,0.0560784,-0.17363,-0.0828478,-1.08285,-1.25571,-0.0799326,0,0,0,0,0,0,0,0.022642,-0.0560673,0.515526,-1.55826,0.0147479,1.54737,1.31862,0.0269421,-0.00144342,0.0209882,0.0349934,-0.712712,-0.366972,0.00120828,-1.23822,-27.4565,-2.18505,25.3601,-1.12275,1.614,0.0376436,2.27702,2.09329,2.97749,-2.13859,0.978729,0.151363,0.144238,0.253499,0.238109,-0.156567,-0.893577,-0.967231,0.0934097,
0.0158614,-0.0546577,0.508231,-1.56169,-0.0128075,-0.0677293,0.528432,-0.170225,0.061857,-0.179414,-0.0867426,-1.10507,-1.27444,-0.0788932,0,0,0,0,0,0,0,0.022642,-0.0560673,0.515526,-1.55826,0.0147479,1.54737,1.31862,0.0269421,-0.00144342,0.0209882,0.0349934,-0.712712,-0.366972,0.00120828,-1.23822,-27.4565,-2.18505,25.3601,-1.12275,1.614,0.0376436,2.27702,2.09329,2.97749,-2.13859,0.978729,0.151363,0.144238,0.253499,0.238109,-0.156567,-0.893577,-0.967231,0.0934097,
0.0151598,-0.0543886,0.507492,-1.56205,-0.0173062,-0.0728891,0.52812,-0.175415,0.0672764,-0.184598,-0.090133,-1.12467,-1.28994,-0.0778607,0,0,0,0,0,0,0,0.022642,-0.0560673,0.515526,-1.55826,0.0147479,1.54737,1.31862,0.0269421,-0.00144342,0.0209882,0.0349934,-0.712712,-0.366972,0.00120828,-1.23822,-27.4565,-2.18505,25.3601,-1.12275,1.614,0.0376436,1.42894,2.77008,3.71329,-2.41194,0.150754,0.706258,0.70393,-0.290155,0.791745,0.12922,-0.785183,-1.01031,0.0794184,
0.0144395,-0.0540993,0.506735,-1.56242,-0.021874,-0.0781,0.527813,-0.180059,0.0723198,-0.18924,-0.0930654,-1.14196,-1.30272,-0.0768338,0,0,0,0,0,0,0,0.022642,-0.0560673,0.515526,-1.55826,0.0147479,1.54737,1.31862,0.0269421,-0.00144342,0.0209882,0.0349934,-0.712712,-0.366972,0.00120828,-1.23822,-27.4565,-2.18505,25.3601,-1.12275,1.614,0.0376436,1.22744,1.84615,3.9127,-1.80983,0.0703137,0.354605,0.37158,-0.309959,0.405844,0.0634968,-0.839254,-1.21264,0.056666,
0.0137027,-0.0537914,0.505962,-1.5628,-0.0265028,-0.0833528,0.52751,-0.184205,0.0769817,-0.193388,-0.0955829,-1.15721,-1.31322,-0.0758116,0,0,0,0,0,0,0,0.0228933,-0.0563339,0.515759,-1.55803,-0.00751067,1.53388,1.3181,0.000288338,-0.00944107,-0.00381024,0.000958557,-0.710225,-0.479678,-0.0329787,-3.74554,-25.2348,-4.96214,25.011,-0.738224,1.12328,-0.00996382,1.22744,1.84615,3.9127,-1.80983,0.0703137,0.354605,0.37158,-0.309959,0.405844,0.0634968,-0.839254,-1.21264,0.056666,
0.0117764,-0.0540754,0.504028,-1.56445,0.00249397,-0.0557272,0.525132,-0.313176,0.107477,-0.327368,-0.15752,-0.962245,-1.19907,-0.157756,0,0,0,0,0,0,0,0.0228933,-0.0563339,0.515759,-1.55803,-0.00751067,1.53388,1.3181,0.000288338,-0.00944107,-0.00381024,0.000958557,-0.710225,-0.479678,-0.0329787,-3.74554,-25.2348,-4.96214,25.011,-0.738224,1.12328,-0.00996382,2.78067,0.23583,3.4051,-0.992934,1.51844,-0.8119,-0.771593,0.614605,-0.79807,-0.422982,-1.05519,-1.4329,0.038277,
0.012432,-0.0544233,0.504745,-1.56343,-0.0465274,-0.0850333,0.525561,-0.310861,0.107581,-0.323974,-0.148921,-1.00689,-1.22981,-0.137535,0,0,0,0,0,0,0,0.0228933,-0.0563339,0.515759,-1.55803,-0.00751067,1.53388,1.3181,0.000288338,-0.00944107,-0.00381024,0.000958557,-0.710225,-0.479678,-0.0329787,-3.74554,-25.2348,-4.96214,25.011,-0.738224,1.12328,-0.00996382,2.78067,0.23583,3.4051,-0.992934,1.51844,-0.8119,-0.771593,0.614605,-0.79807,-0.422982,-1.05519,-1.4329,0.038277,
0.0111536,-0.053956,0.503414,-1.56404,-0.0506675,-0.0900171,0.525018,-0.319614,0.116835,-0.332777,-0.152856,-1.03504,-1.24594,-0.135581,0,0,0,0,0,0,0,0.0228933,-0.0563339,0.515759,-1.55803,-0.00751067,1.53388,1.3181,0.000288338,-0.00944107,-0.00381024,0.000958557,-0.710225,-0.479678,-0.0329787,-3.74554,-25.2348,-4.96214,25.011,-0.738224,1.12328,-0.00996382,3.86495,-0.752915,2.99772,-0.459411,2.51454,-1.55489,-1.50245,1.24509,-1.56362,-0.718306,-1.15506,-1.51753,0.0180289,
0.00984423,-0.0534548,0.502051,-1.56467,-0.0549102,-0.0950544,0.524484,-0.327338,0.125292,-0.340544,-0.156259,-1.06067,-1.25932,-0.133643,0,0,0,0,0,0,0,0.0228933,-0.0563339,0.515759,-1.55803,-0.00751067,1.53388,1.3181,0.000288338,-0.00944107,-0.00381024,0.000958557,-0.710225,-0.479678,-0.0329787,-3.74554,-25.2348,-4.96214,25.011,-0.738224,1.12328,-0.00996382,1.31841,-0.133814,2.97587,-0.787664,0.74017,-0.53198,-0.48534,0.321618,-0.528738,-0.556141,-0.941343,-1.56116,-0.0113513,
0.00850763,-0.0529229,0.500662,-1.56531,-0.0592458,-0.100136,0.523957,-0.334148,0.132988,-0.347394,-0.159167,-1.08391,-1.2704,-0.131718,0,0,0,0,0,0,0,0.0228933,-0.0563339,0.515759,-1.55803,-0.00751067,1.53388,1.3181,0.000288338,-0.00944107,-0.00381024,0.000958557,-0.710225,-0.479678,-0.0329787,-3.74554,-25.2348,-4.96214,25.011,-0.738224,1.12328,-0.00996382,1.31841,-0.133814,2.97587,-0.787664,0.74017,-0.53198,-0.48534,0.321618,-0.528738,-0.556141,-0.941343,-1.56116,-0.0113513,
0.00714706,-0.052363,0.499248,-1.56595,-0.0636655,-0.105254,0.523438,-0.340143,0.139964,-0.353429,-0.161616,-1.10492,-1.27953,-0.129802,0,0,0,0,0,0,0,0.0225492,-0.0567618,0.515234,-1.55839,-0.0295548,1.51725,1.31676,-0.0320755,-0.0176269,-0.0509212,-0.0286109,-0.648174,-0.529642,-0.0518617,-6.2846,-24.1875,-7.33458,24.2136,-0.719913,1.28899,-0.0566557,-0.127372,0.0487098,2.8059,-0.826052,-0.206175,-0.0203688,0.0070897,-0.144825,-0.00048408,-0.48769,-0.769776,-1.55666,-0.0384632,
0.00576544,-0.051778,0.497813,-1.56661,-0.0681609,-0.110402,0.522926,-0.345407,0.146263,-0.358733,-0.163642,-1.12385,-1.28701,-0.127895,0,0,0,0,0,0,0,0.0225492,-0.0567618,0.515234,-1.55839,-0.0295548,1.51725,1.31676,-0.0320755,-0.0176269,-0.0509212,-0.0286109,-0.648174,-0.529642,-0.0518617,-6.2846,-24.1875,-7.33458,24.2136,-0.719913,1.28899,-0.0566557,-0.127372,0.0487098,2.8059,-0.826052,-0.206175,-0.0203688,0.0070897,-0.144825,-0.00048408,-0.48769,-0.769776,-1.55666,-0.0384632,
0.00741246,-0.0534972,0.49964,-1.5665,-0.0406656,-0.0831026,0.52182,-0.453555,0.159255,-0.469333,-0.218652,-0.922875,-1.19467,-0.210346,0,0,0,0,0,0,0,0.0225492,-0.0567618,0.515234,-1.55839,-0.0295548,1.51725,1.31676,-0.0320755,-0.0176269,-0.0509212,-0.0286109,-0.648174,-0.529642,-0.0518617,-6.2846,-24.1875,-7.33458,24.2136,-0.719913,1.28899,-0.0566557,1.22214,0.138095,3.01876,-0.77128,0.666098,-0.335281,-0.307738,0.275732,-0.319891,-0.443325,-0.746323,-1.45957,-0.0653033,
0.00715222,-0.0538633,0.499249,-1.56602,-0.0638747,-0.101049,0.521904,-0.438373,0.150073,-0.452761,-0.195612,-0.944009,-1.20163,-0.180714,0,0,0,0,0,0,0,0.0225492,-0.0567618,0.515234,-1.55839,-0.0295548,1.51725,1.31676,-0.0320755,-0.0176269,-0.0509212,-0.0286109,-0.648174,-0.529642,-0.0518617,-6.2846,-24.1875,-7.33458,24.2136,-0.719913,1.28899,-0.0566557,1.22214,0.138095,3.01876,-0.77128,0.666098,-0.335281,-0.307738,0.275732,-0.319891,-0.443325,-0.746323,-1.45957,-0.0653033,
0.00535543,-0.053217,0.497394,-1.56682,-0.067792,-0.105916,0.521193,-0.449196,0.161559,-0.463666,-0.199512,-0.979345,-1.21673,-0.177874,0,0,0,0,0,0,0,0.0225492,-0.0567618,0.515234,-1.55839,-0.0295548,1.51725,1.31676,-0.0320755,-0.0176269,-0.0509212,-0.0286109,-0.648174,-0.529642,-0.0518617,-6.2846,-24.1875,-7.33458,24.2136,-0.719913,1.28899,-0.0566557,2.75617,0.828857,2.48104,-1.25569,1.95891,-0.416975,-0.39088,1.0626,-0.3863,-0.676179,-0.639528,-1.30953,-0.0942173,
0.00352066,-0.0525291,0.495501,-1.56763,-0.0718388,-0.110833,0.520493,-0.458692,0.171971,-0.473233,-0.202842,-1.01169,-1.22926,-0.175055,0,0,0,0,0,0,0,0.0206569,-0.0573187,0.512864,-1.5598,-0.0520366,1.49738,1.31539,-0.0750836,-0.018027,-0.0904505,-0.0449081,-0.754782,-0.707639,-0.0330227,-5.70141,-23.5646,-6.7871,24.162,-0.707096,1.78612,-0.204056,2.75617,0.828857,2.48104,-1.25569,1.95891,-0.416975,-0.39088,1.0626,-0.3863,-0.676179,-0.639528,-1.30953,-0.0942173,
0.00165262,-0.0518036,0.493575,-1.56845,-0.0760035,-0.115792,0.519804,-0.467011,0.181375,-0.481617,-0.205636,-1.04116,-1.2396,-0.172254,0,0,0,0,0,0,0,0.0206569,-0.0573187,0.512864,-1.5598,-0.0520366,1.49738,1.31539,-0.0750836,-0.018027,-0.0904505,-0.0449081,-0.754782,-0.707639,-0.0330227,-5.70141,-23.5646,-6.7871,24.162,-0.707096,1.78612,-0.204056,2.15933,1.05259,1.83567,-1.3949,1.71801,-0.1116,-0.0944341,1.02061,-0.0690535,-0.748969,-0.494117,-1.18211,-0.121914,
-0.000244512,-0.0510443,0.491619,-1.56929,-0.0802751,-0.120784,0.519126,-0.474283,0.189838,-0.48895,-0.207931,-1.06792,-1.24811,-0.169468,0,0,0,0,0,0,0,0.0206569,-0.0573187,0.512864,-1.5598,-0.0520366,1.49738,1.31539,-0.0750836,-0.018027,-0.0904505,-0.0449081,-0.754782,-0.707639,-0.0330227,-5.70141,-23.5646,-6.7871,24.162,-0.707096,1.78612,-0.204056,0.479077,0.349697,1.70197,-0.726881,0.451925,0.0699966,0.072978,0.304029,0.101647,-0.48265,-0.369343,-1.05551,-0.148232,
-0.00216698,-0.0502546,0.489638,-1.57013,-0.0846436,-0.125804,0.518459,-0.480617,0.197422,-0.495345,-0.209768,-1.09212,-1.25507,-0.166694,0,0,0,0,0,0,0,0.0206569,-0.0573187,0.512864,-1.5598,-0.0520366,1.49738,1.31539,-0.0750836,-0.018027,-0.0904505,-0.0449081,-0.754782,-0.707639,-0.0330227,-5.70141,-23.5646,-6.7871,24.162,-0.707096,1.78612,-0.204056,0.479077,0.349697,1.70197,-0.726881,0.451925,0.0699966,0.072978,0.304029,0.101647,-0.48265,-0.369343,-1.05551,-0.148232,
0.00247696,-0.0530199,0.494526,-1.56888,-0.0585053,-0.0991621,0.518297,-0.570714,0.198027,-0.586905,-0.260111,-0.867842,-1.16732,-0.250756,0,0,0,0,0,0,0,0.0206569,-0.0573187,0.512864,-1.5598,-0.0520366,1.49738,1.31539,-0.0750836,-0.018027,-0.0904505,-0.0449081,-0.754782,-0.707639,-0.0330227,-5.70141,-23.5646,-6.7871,24.162,-0.707096,1.78612,-0.204056,-0.625694,0.168289,2.4556,-0.199399,-0.761699,0.317569,0.312107,-0.55092,0.331297,0.105349,-0.227092,-0.863179,-0.169532,
0.000532652,-0.0535138,0.492176,-1.56934,-0.0850745,-0.122284,0.518819,-0.554614,0.187566,-0.569096,-0.232127,-0.91279,-1.18519,-0.211746,0,0,0,0,0,0,0,0.016,-0.0577018,0.507339,-1.56286,-0.0786105,1.46925,1.31263,-0.15578,-0.00725145,-0.175582,-0.101787,-0.717368,-0.780677,-0.0766344,-5.97912,-22.7394,-7.16002,24.4873,-0.658573,1.98571,-0.204056,-0.00870921,0.326056,2.53416,-0.25846,-0.361066,0.236295,0.234863,-0.355631,0.246578,0.122572,-0.208782,-0.808834,-0.186552,
-0.0017337,-0.0527113,0.489851,-1.57028,-0.088881,-0.127073,0.517987,-0.566587,0.200631,-0.581172,-0.235689,-0.951629,-1.19716,-0.20806,0,0,0,0,0,0,0,0.016,-0.0577018,0.507339,-1.56286,-0.0786105,1.46925,1.31263,-0.15578,-0.00725145,-0.175582,-0.101787,-0.717368,-0.780677,-0.0766344,-5.97912,-22.7394,-7.16002,24.4873,-0.658573,1.98571,-0.204056,-0.00870921,0.326056,2.53416,-0.25846,-0.361066,0.236295,0.234863,-0.355631,0.246578,0.122572,-0.208782,-0.808834,-0.186552,
-0.00404175,-0.0518618,0.487484,-1.57123,-0.0928307,-0.131901,0.51717,-0.577012,0.212359,-0.591686,-0.238687,-0.987405,-1.20705,-0.204403,0,0,0,0,0,0,0,0.016,-0.0577018,0.507339,-1.56286,-0.0786105,1.46925,1.31263,-0.15578,-0.00725145,-0.175582,-0.101787,-0.717368,-0.780677,-0.0766344,-5.97912,-22.7394,-7.16002,24.4873,-0.658573,1.98571,-0.204056,1.12295,0.235432,1.58739,-0.419357,0.819201,-0.0793064,-0.0844958,0.450074,-0.0549193,-0.313323,-0.236421,-0.782082,-0.214509,
-0.00638603,-0.0509704,0.485081,-1.5722,-0.0969114,-0.136762,0.516367,-0.58607,0.222846,-0.600823,-0.24115,-1.02017,-1.21519,-0.200772,0,0,0,0,0,0,0,0.016,-0.0577018,0.507339,-1.56286,-0.0786105,1.46925,1.31263,-0.15578,-0.00725145,-0.175582,-0.101787,-0.717368,-0.780677,-0.0766344,-5.97912,-22.7394,-7.16002,24.4873,-0.658573,1.98571,-0.204056,1.12295,0.235432,1.58739,-0.419357,0.819201,-0.0793064,-0.0844958,0.450074,-0.0549193,-0.313323,-0.236421,-0.782082,-0.214509,
-0.00876168,-0.0500417,0.482646,-1.57317,-0.101112,-0.141649,0.515578,-0.593913,0.232187,-0.608739,-0.243112,-1.05004,-1.22183,-0.197163,0,0,0,0,0,0,0,0.016,-0.0577018,0.507339,-1.56286,-0.0786105,1.46925,1.31263,-0.15578,-0.00725145,-0.175582,-0.101787,-0.717368,-0.780677,-0.0766344,-5.97912,-22.7394,-7.16002,24.4873,-0.658573,1.98571,-0.204056,0.946484,0.8238,0.566427,-0.989535,1.07374,0.268723,0.250942,0.766937,0.325482,-0.649511,-0.138393,-0.716181,-0.233945,
-0.00118395,-0.0536092,0.491136,-1.57087,-0.0770059,-0.115821,0.516419,-0.657974,0.214042,-0.673389,-0.288898,-0.788384,-1.13663,-0.284757,0,0,0,0,0,0,0,0.016,-0.0577018,0.507339,-1.56286,-0.0786105,1.46925,1.31263,-0.15578,-0.00725145,-0.175582,-0.101787,-0.717368,-0.780677,-0.0766344,-5.97912,-22.7394,-7.16002,24.4873,-0.658573,1.98571,-0.204056,0.946484,0.8238,0.566427,-0.989535,1.07374,0.268723,0.250942,0.766937,0.325482,-0.649511,-0.138393,-0.716181,-0.233945,
-0.00639722,-0.0532168,0.484466,-1.57315,-0.106566,-0.146049,0.515612,-0.650321,0.212673,-0.664268,-0.261568,-0.852085,-1.15009,-0.240949,0,0,0,0,0,0,0,0.00932572,-0.0576081,0.499258,-1.56666,-0.102139,1.4417,1.30968,-0.230822,0.00979438,-0.2536,-0.126803,-0.653399,-0.772137,-0.0767187,-6.58612,-23.64,-7.68767,24.884,-0.884708,1.95275,-0.278213,-0.148754,0.813647,0.668666,-0.886211,0.244879,0.569314,0.545916,0.299996,0.6254,-0.501783,-0.0559949,-0.706194,-0.251313,
-0.00905507,-0.0523065,0.481752,-1.57421,-0.110154,-0.150697,0.514666,-0.664464,0.227578,-0.678558,-0.265127,-0.896884,-1.16194,-0.236441,0,0,0,0,0,0,0,0.00932572,-0.0576081,0.499258,-1.56666,-0.102139,1.4417,1.30968,-0.230822,0.00979438,-0.2536,-0.126803,-0.653399,-0.772137,-0.0767187,-6.58612,-23.64,-7.68767,24.884,-0.884708,1.95275,-0.278213,-0.0309146,1.03626,0.824757,-1.0127,0.269866,0.649739,0.630145,0.284768,0.705187,-0.455002,-0.0542242,-0.69471,-0.263944,
-0.0117618,-0.0513429,0.478988,-1.57528,-0.113907,-0.155384,0.513738,-0.676686,0.240889,-0.690901,-0.268114,-0.938474,-1.17171,-0.231981,0,0,0,0,0,0,0,0.00932572,-0.0576081,0.499258,-1.56666,-0.102139,1.4417,1.30968,-0.230822,0.00979438,-0.2536,-0.126803,-0.653399,-0.772137,-0.0767187,-6.58612,-23.64,-7.68767,24.884,-0.884708,1.95275,-0.278213,-0.0309146,1.03626,0.824757,-1.0127,0.269866,0.649739,0.630145,0.284768,0.705187,-0.455002,-0.0542242,-0.69471,-0.263944,
-0.0145107,-0.0503321,0.476182,-1.57636,-0.117815,-0.160103,0.512828,-0.68722,0.252723,-0.701538,-0.270539,-0.976804,-1.17973,-0.227561,0,0,0,0,0,0,0,0.00932572,-0.0576081,0.499258,-1.56666,-0.102139,1.4417,1.30968,-0.230822,0.00979438,-0.2536,-0.126803,-0.653399,-0.772137,-0.0767187,-6.58612,-23.64,-7.68767,24.884,-0.884708,1.95275,-0.278213,0.61129,1.2516,-0.122705,-1.50676,1.19007,0.597106,0.585209,0.991235,0.669234,-1.00103,-0.130155,-0.809019,-0.279611,
-0.0172957,-0.0492793,0.473339,-1.57745,-0.121862,-0.164848,0.511935,-0.69626,0.263191,-0.710669,-0.272423,-1.01193,-1.18628,-0.22318,0,0,0,0,0,0,0,0.00932572,-0.0576081,0.499258,-1.56666,-0.102139,1.4417,1.30968,-0.230822,0.00979438,-0.2536,-0.126803,-0.653399,-0.772137,-0.0767187,-6.58612,-23.64,-7.68767,24.884,-0.884708,1.95275,-0.278213,0.61129,1.2516,-0.122705,-1.50676,1.19007,0.597106,0.585209,0.991235,0.669234,-1.00103,-0.130155,-0.809019,-0.279611,
-0.0201116,-0.0481897,0.470465,-1.57855,-0.126038,-0.169614,0.51106,-0.70397,0.2724,-0.718461,-0.273794,-1.04397,-1.19158,-0.218835,0,0,0,0,0,0,0,0.000700214,-0.0573624,0.490252,-1.57071,-0.119175,1.41981,1.30695,-0.303418,0.0209207,-0.343087,-0.145794,-0.543119,-0.700721,-0.110292,-6.43536,-24.0645,-7.53691,24.2136,-1.27564,1.75316,-0.26448,-0.717429,0.666886,-0.128277,-1.01633,0.239186,0.671958,0.65639,0.478882,0.730248,-0.872721,-0.0685851,-0.825891,-0.287583,
-0.0105428,-0.0509919,0.481425,-1.57675,-0.108877,-0.149193,0.511303,-0.714509,0.273789,-0.704865,-0.327644,-0.857782,-1.13733,-0.302411,0,0,0,0,0,0,0,0.000700214,-0.0573624,0.490252,-1.57071,-0.119175,1.41981,1.30695,-0.303418,0.0209207,-0.343087,-0.145794,-0.543119,-0.700721,-0.110292,-6.43536,-24.0645,-7.53691,24.2136,-1.27564,1.75316,-0.26448,-0.923907,-0.666313,-0.0752739,-0.0577187,0.0166935,0.107749,0.0889007,0.323126,0.140623,-0.769307,-0.153275,-0.821748,-0.288934,
-0.0288334,-0.0496167,0.461274,-1.58313,-0.151748,-0.197754,0.508351,-0.746042,0.262339,-0.737165,-0.295073,-0.911678,-1.08725,-0.246843,0,0,0,0,0,0,0,0.000700214,-0.0573624,0.490252,-1.57071,-0.119175,1.41981,1.30695,-0.303418,0.0209207,-0.343087,-0.145794,-0.543119,-0.700721,-0.110292,-6.43536,-24.0645,-7.53691,24.2136,-1.27564,1.75316,-0.26448,-0.923907,-0.666313,-0.0752739,-0.0577187,0.0166935,0.107749,0.0889007,0.323126,0.140623,-0.769307,-0.153275,-0.821748,-0.288934,
-0.0318746,-0.0485317,0.458267,-1.58435,-0.155528,-0.201938,0.507384,-0.76031,0.271273,-0.751751,-0.304038,-0.944977,-1.046,-0.241619,0,0,0,0,0,0,0,0.000700214,-0.0573624,0.490252,-1.57071,-0.119175,1.41981,1.30695,-0.303418,0.0209207,-0.343087,-0.145794,-0.543119,-0.700721,-0.110292,-6.43536,-24.0645,-7.53691,24.2136,-1.27564,1.75316,-0.26448,-0.918965,-2.05497,0.0230771,0.775473,-0.0458918,-0.537588,-0.555181,0.25972,-0.525656,-0.764481,-0.384367,-0.913447,-0.291775,
-0.0349669,-0.0474125,0.455208,-1.58559,-0.159431,-0.20591,0.506438,-0.773057,0.279785,-0.764775,-0.310854,-0.975659,-0.992997,-0.236602,0,0,0,0,0,0,0,0.000700214,-0.0573624,0.490252,-1.57071,-0.119175,1.41981,1.30695,-0.303418,0.0209207,-0.343087,-0.145794,-0.543119,-0.700721,-0.110292,-6.43536,-24.0645,-7.53691,24.2136,-1.27564,1.75316,-0.26448,-0.918965,-2.05497,0.0230771,0.775473,-0.0458918,-0.537588,-0.555181,0.25972,-0.525656,-0.764481,-0.384367,-0.913447,-0.291775,
-0.0380971,-0.0462617,0.452097,-1.58685,-0.163447,-0.209631,0.505511,-0.782559,0.287712,-0.777777,-0.315956,-1.00418,-0.930399,-0.231651,0,0,0,0,0,0,0,0.000700214,-0.0573624,0.490252,-1.57071,-0.119175,1.41981,1.30695,-0.303418,0.0209207,-0.343087,-0.145794,-0.543119,-0.700721,-0.110292,-6.43536,-24.0645,-7.53691,24.2136,-1.27564,1.75316,-0.26448,0.287705,-2.24699,0.0223523,0.822803,0.807287,-0.922456,-0.934825,0.711374,-0.913549,-0.864675,-0.504091,-0.910131,-0.292171,
-0.0412534,-0.045082,0.448935,-1.58813,-0.16757,-0.21307,0.504604,-0.789078,0.294908,-0.790523,-0.319692,-1.0307,-0.859723,-0.22677,0,0,0,0,0,0,0,-0.00973316,-0.0563423,0.479223,-1.57562,-0.135969,1.39933,1.30337,-0.377794,0.0254995,-0.379755,-0.176741,-0.504305,-0.630919,-0.138711,-5.64984,-23.513,-6.66014,23.4637,-1.48255,1.30913,-0.318497,0.487452,-0.0274262,-0.686262,-0.837185,1.33362,0.0682061,0.060184,1.15979,0.123024,-1.24123,-0.322441,-0.895538,-0.296958,
-0.0256701,-0.0493302,0.464363,-1.58407,-0.14821,-0.192296,0.506369,-0.726102,0.301975,-0.71721,-0.344658,-0.875605,-1.0888,-0.315845,0,0,0,0,0,0,0,-0.00973316,-0.0563423,0.479223,-1.57562,-0.135969,1.39933,1.30337,-0.377794,0.0254995,-0.379755,-0.176741,-0.504305,-0.630919,-0.138711,-5.64984,-23.513,-6.66014,23.4637,-1.48255,1.30913,-0.318497,0.487452,-0.0274262,-0.686262,-0.837185,1.33362,0.0682061,0.060184,1.15979,0.123024,-1.24123,-0.322441,-0.895538,-0.296958,
-0.0373157,-0.0488157,0.452113,-1.58828,-0.165729,-0.203438,0.505306,-0.746706,0.264242,-0.738062,-0.34287,-0.882095,-0.462265,-0.260555,0,0,0,0,0,0,0,-0.00973316,-0.0563423,0.479223,-1.57562,-0.135969,1.39933,1.30337,-0.377794,0.0254995,-0.379755,-0.176741,-0.504305,-0.630919,-0.138711,-5.64984,-23.513,-6.66014,23.4637,-1.48255,1.30913,-0.318497,-0.0802136,0.0428925,-1.05208,-0.992895,1.10759,0.237732,0.218971,1.11655,0.309486,-1.38831,-0.333256,-0.947335,-0.297715,
-0.040361,-0.0477154,0.449102,-1.58968,-0.169386,-0.204838,0.504284,-0.76132,0.27509,-0.752942,-0.349062,-0.914319,-0.350037,-0.255475,0,0,0,0,0,0,0,-0.00973316,-0.0563423,0.479223,-1.57562,-0.135969,1.39933,1.30337,-0.377794,0.0254995,-0.379755,-0.176741,-0.504305,-0.630919,-0.138711,-5.64984,-23.513,-6.66014,23.4637,-1.48255,1.30913,-0.318497,-0.0802136,0.0428925,-1.05208,-0.992895,1.10759,0.237732,0.218971,1.11655,0.309486,-1.38831,-0.333256,-0.947335,-0.297715,
-0.0434592,-0.0465783,0.446036,-1.5911,-0.173159,-0.205739,0.503282,-0.77455,0.284256,-0.766436,-0.354443,-0.943061,-0.225123,-0.250518,0,0,0,0,0,0,0,-0.00973316,-0.0563423,0.479223,-1.57562,-0.135969,1.39933,1.30337,-0.377794,0.0254995,-0.379755,-0.176741,-0.504305,-0.630919,-0.138711,-5.64984,-23.513,-6.66014,23.4637,-1.48255,1.30913,-0.318497,-0.984411,0.274545,-0.714849,-1.14296,0.28095,0.564132,0.548369,0.5843,0.636023,-1.18595,-0.392444,-0.937806,-0.295524,
-0.046602,-0.0454013,0.442925,-1.59251,-0.177039,-0.206213,0.502307,-0.785692,0.294266,-0.777787,-0.352807,-0.970118,-0.11856,-0.243824,0,0,0,0,0,0,0,-0.0232906,-0.0552077,0.465446,-1.58174,-0.153899,1.38041,1.29913,-0.465465,0.0510444,-0.439052,-0.196096,-0.547212,-0.541003,-0.13284,-4.07879,-24.0645,-5.08513,24.2374,-0.976261,1.52794,-0.304764,0.70545,-0.085313,-0.72779,-0.921153,1.51557,0.00517766,0.00175243,1.25435,0.0612626,-1.31757,-0.465477,-0.931495,-0.294956,
-0.0497836,-0.0441897,0.439774,-1.5939,-0.181017,-0.206321,0.501352,-0.79542,0.302883,-0.787758,-0.348838,-0.994374,-0.0270511,-0.238685,0,0,0,0,0,0,0,-0.0232906,-0.0552077,0.465446,-1.58174,-0.153899,1.38041,1.29913,-0.465465,0.0510444,-0.439052,-0.196096,-0.547212,-0.541003,-0.13284,-4.07879,-24.0645,-5.08513,24.2374,-0.976261,1.52794,-0.304764,0.70545,-0.085313,-0.72779,-0.921153,1.51557,0.00517766,0.00175243,1.25435,0.0612626,-1.31757,-0.465477,-0.931495,-0.294956,
-0.0529998,-0.0429511,0.436587,-1.59528,-0.18508,-0.206113,0.500417,-0.804033,0.309654,-0.79663,-0.343965,-1.01577,0.0520534,-0.23375,0,0,0,0,0,0,0,-0.0232906,-0.0552077,0.465446,-1.58174,-0.153899,1.38041,1.29913,-0.465465,0.0510444,-0.439052,-0.196096,-0.547212,-0.541003,-0.13284,-4.07879,-24.0645,-5.08513,24.2374,-0.976261,1.52794,-0.304764,1.48229,-1.52592,0.0589406,0.308792,1.66785,-0.859622,-0.86937,1.16664,-0.837094,-0.941061,-0.527199,-0.850954,-0.290718,
-0.0400928,-0.0460011,0.449332,-1.59139,-0.16971,-0.211952,0.501155,-0.756456,0.326159,-0.7485,-0.398378,-0.921638,-0.684964,-0.316573,0,0,0,0,0,0,0,-0.0232906,-0.0552077,0.465446,-1.58174,-0.153899,1.38041,1.29913,-0.465465,0.0510444,-0.439052,-0.196096,-0.547212,-0.541003,-0.13284,-4.07879,-24.0645,-5.08513,24.2374,-0.976261,1.52794,-0.304764,1.48229,-1.52592,0.0589406,0.308792,1.66785,-0.859622,-0.86937,1.16664,-0.837094,-0.941061,-0.527199,-0.850954,-0.290718,
-0.0555988,-0.0457731,0.433602,-1.59695,-0.18956,-0.194094,0.500083,-0.775039,0.278424,-0.767129,-0.334102,-0.934574,0.168908,-0.255555,0,0,0,0,0,0,0,-0.0232906,-0.0552077,0.465446,-1.58174,-0.153899,1.38041,1.29913,-0.465465,0.0510444,-0.439052,-0.196096,-0.547212,-0.541003,-0.13284,-4.07879,-24.0645,-5.08513,24.2374,-0.976261,1.52794,-0.304764,-1.16664,-1.23658,1.43783,0.39871,-0.992087,-0.12108,-0.142084,-0.604471,-0.101754,-0.0507242,-0.536191,-0.695229,-0.289036,
-0.0587407,-0.0446398,0.430491,-1.59828,-0.1934,-0.193308,0.499073,-0.785461,0.283317,-0.777816,-0.332928,-0.959887,0.196461,-0.25254,0,0,0,0,0,0,0,-0.0232906,-0.0552077,0.465446,-1.58174,-0.153899,1.38041,1.29913,-0.465465,0.0510444,-0.439052,-0.196096,-0.547212,-0.541003,-0.13284,-4.07879,-24.0645,-5.08513,24.2374,-0.976261,1.52794,-0.304764,-1.16664,-1.23658,1.43783,0.39871,-0.992087,-0.12108,-0.142084,-0.604471,-0.101754,-0.0507242,-0.536191,-0.695229,-0.289036,
-0.0619113,-0.0434591,0.42735,-1.59953,-0.197347,-0.192622,0.49811,-0.792667,0.295171,-0.78518,-0.313546,-0.986742,0.171423,-0.240794,0,0,0,0,0,0,0,-0.0427592,-0.0525125,0.4455,-1.59222,-0.177657,1.36872,1.29275,-0.496237,0.095931,-0.515348,-0.270409,-0.589684,-0.135705,-0.168943,-4.48346,-24.4612,-5.38664,24.7095,-1.2143,1.77331,-0.224197,-1.50179,-0.0631833,1.19887,-0.449831,-1.16732,0.523437,0.503738,-0.687027,0.564402,-0.0899357,-0.478912,-0.617828,-0.28814,
-0.0651147,-0.0422654,0.424176,-1.60077,-0.201375,-0.191918,0.497167,-0.800842,0.298439,-0.793719,-0.309137,-1.00697,0.176085,-0.235591,0,0,0,0,0,0,0,-0.0427592,-0.0525125,0.4455,-1.59222,-0.177657,1.36872,1.29275,-0.496237,0.095931,-0.515348,-0.270409,-0.589684,-0.135705,-0.168943,-4.48346,-24.4612,-5.38664,24.7095,-1.2143,1.77331,-0.224197,1.6563,0.72159,0.163945,-1.13886,1.51017,0.26125,0.247653,0.913853,0.321976,-0.656589,-0.445559,-0.493409,-0.282408,
-0.0683451,-0.0410694,0.420965,-1.60201,-0.205473,-0.191127,0.496244,-0.807612,0.298981,-0.802713,-0.309089,-1.02455,0.197693,-0.2308,0,0,0,0,0,0,0,-0.0427592,-0.0525125,0.4455,-1.59222,-0.177657,1.36872,1.29275,-0.496237,0.095931,-0.515348,-0.270409,-0.589684,-0.135705,-0.168943,-4.48346,-24.4612,-5.38664,24.7095,-1.2143,1.77331,-0.224197,1.6563,0.72159,0.163945,-1.13886,1.51017,0.26125,0.247653,0.913853,0.321976,-0.656589,-0.445559,-0.493409,-0.282408,
-0.0522442,-0.0455173,0.43689,-1.59697,-0.186311,-0.208608,0.498294,-0.75977,0.318604,-0.751954,-0.388978,-0.918665,-0.2236,-0.319968,0,0,0,0,0,0,0,-0.0427592,-0.0525125,0.4455,-1.59222,-0.177657,1.36872,1.29275,-0.496237,0.095931,-0.515348,-0.270409,-0.589684,-0.135705,-0.168943,-4.48346,-24.4612,-5.38664,24.7095,-1.2143,1.77331,-0.224197,2.42062,2.56686,-0.439115,-2.42675,2.25219,1.04757,1.03793,1.36018,1.13836,-0.853564,-0.303475,-0.322883,-0.283108,
-0.0730645,-0.0431494,0.415585,-1.60636,-0.211469,-0.201243,0.494625,-0.777312,0.274222,-0.770169,-0.3336,-0.931349,0.182035,-0.261856,0,0,0,0,0,0,0,-0.0427592,-0.0525125,0.4455,-1.59222,-0.177657,1.36872,1.29275,-0.496237,0.095931,-0.515348,-0.270409,-0.589684,-0.135705,-0.168943,-4.48346,-24.4612,-5.38664,24.7095,-1.2143,1.77331,-0.224197,2.42062,2.56686,-0.439115,-2.42675,2.25219,1.04757,1.03793,1.36018,1.13836,-0.853564,-0.303475,-0.322883,-0.283108,
-0.0762155,-0.0420346,0.412462,-1.60769,-0.215292,-0.200377,0.493595,-0.78774,0.278712,-0.780858,-0.333325,-0.955816,0.216628,-0.257491,0,0,0,0,0,0,0,-0.0598347,-0.0495525,0.428261,-1.60066,-0.197652,1.36813,1.28824,-0.539697,0.12231,-0.544002,-0.257326,-0.636547,0.0225342,-0.121698,-4.22955,-26.7107,-4.96214,24.4357,-1.59882,1.6607,-0.204056,2.5048,-0.270918,-0.364326,-0.443721,2.02784,-0.300359,-0.323739,1.15939,-0.248011,-0.569948,-0.531258,-0.169682,-0.269872,
-0.0794033,-0.0409073,0.4093,-1.60902,-0.219204,-0.199392,0.492579,-0.796963,0.281818,-0.790339,-0.332147,-0.978018,0.246176,-0.253929,0,0,0,0,0,0,0,-0.0598347,-0.0495525,0.428261,-1.60066,-0.197652,1.36813,1.28824,-0.539697,0.12231,-0.544002,-0.257326,-0.636547,0.0225342,-0.121698,-4.22955,-26.7107,-4.96214,24.4357,-1.59882,1.6607,-0.204056,2.5048,-0.270918,-0.364326,-0.443721,2.02784,-0.300359,-0.323739,1.15939,-0.248011,-0.569948,-0.531258,-0.169682,-0.269872,
-0.0826234,-0.0397697,0.406106,-1.61034,-0.223197,-0.19831,0.491574,-0.805028,0.284406,-0.798651,-0.329001,-0.998237,0.270566,-0.251242,0,0,0,0,0,0,0,-0.0598347,-0.0495525,0.428261,-1.60066,-0.197652,1.36813,1.28824,-0.539697,0.12231,-0.544002,-0.257326,-0.636547,0.0225342,-0.121698,-4.22955,-26.7107,-4.96214,24.4357,-1.59882,1.6607,-0.204056,1.65365,-0.853089,-0.414979,-0.043571,1.39251,-0.403749,-0.420348,0.818118,-0.369329,-0.480574,-0.565778,-0.149765,-0.264995,
-0.0858201,-0.0385912,0.402875,-1.61157,-0.227308,-0.197347,0.49062,-0.799166,0.294613,-0.807617,-0.308843,-1.02757,0.240734,-0.238641,0,0,0,0,0,0,0,-0.0598347,-0.0495525,0.428261,-1.60066,-0.197652,1.36813,1.28824,-0.539697,0.12231,-0.544002,-0.257326,-0.636547,0.0225342,-0.121698,-4.22955,-26.7107,-4.96214,24.4357,-1.59882,1.6607,-0.204056,1.50007,-0.505134,-0.945965,-0.330147,1.55711,-0.195754,-0.201598,1.0192,-0.163906,-0.703985,-0.500406,-0.167386,-0.26592,
-0.0890245,-0.0374042,0.399635,-1.61279,-0.231511,-0.196398,0.489686,-0.801088,0.296764,-0.810046,-0.303048,-1.0509,0.237172,-0.233483,0,0,0,0,0,0,0,-0.0598347,-0.0495525,0.428261,-1.60066,-0.197652,1.36813,1.28824,-0.539697,0.12231,-0.544002,-0.257326,-0.636547,0.0225342,-0.121698,-4.22955,-26.7107,-4.96214,24.4357,-1.59882,1.6607,-0.204056,1.50007,-0.505134,-0.945965,-0.330147,1.55711,-0.195754,-0.201598,1.0192,-0.163906,-0.703985,-0.500406,-0.167386,-0.26592,
-0.076016,-0.0407126,0.412632,-1.60948,-0.215672,-0.207841,0.490707,-0.785468,0.32095,-0.778849,-0.38843,-0.962539,0.0645368,-0.313659,0,0,0,0,0,0,0,-0.0598347,-0.0495525,0.428261,-1.60066,-0.197652,1.36813,1.28824,-0.539697,0.12231,-0.544002,-0.257326,-0.636547,0.0225342,-0.121698,-4.22955,-26.7107,-4.96214,24.4357,-1.59882,1.6607,-0.204056,0.583363,1.66827,-2.26196,-1.87222,1.53273,1.0649,1.05219,1.23303,1.13872,-1.1709,-0.231274,-0.117487,-0.265445,
-0.0941774,-0.0393851,0.394279,-1.61589,-0.236642,-0.19126,0.489337,-0.793705,0.260412,-0.791584,-0.3215,-0.967991,0.378055,-0.254015,0,0,0,0,0,0,0,-0.0779262,-0.0453793,0.410011,-1.60869,-0.218685,1.36995,1.28407,-0.590888,0.139136,-0.6019,-0.235153,-0.681833,0.114184,-0.129963,-2.98779,-27.9326,-3.66088,24.7372,-1.51368,1.74676,-0.26448,0.583363,1.66827,-2.26196,-1.87222,1.53273,1.0649,1.05219,1.23303,1.13872,-1.1709,-0.231274,-0.117487,-0.265445,
-0.0973524,-0.0383323,0.391066,-1.61717,-0.240612,-0.189654,0.488334,-0.79375,0.263219,-0.803248,-0.320146,-0.992514,0.401476,-0.25073,0,0,0,0,0,0,0,-0.0779262,-0.0453793,0.410011,-1.60869,-0.218685,1.36995,1.28407,-0.590888,0.139136,-0.6019,-0.235153,-0.681833,0.114184,-0.129963,-2.98779,-27.9326,-3.66088,24.7372,-1.51368,1.74676,-0.26448,-0.120452,0.0387258,-2.04706,-0.745949,0.955452,0.361425,0.34097,0.93139,0.414855,-1.05948,-0.337626,-0.200604,-0.26283,
-0.100533,-0.0372661,0.387844,-1.61844,-0.244696,-0.187965,0.487341,-0.79506,0.26653,-0.805267,-0.316837,-1.02097,0.422311,-0.248181,0,0,0,0,0,0,0,-0.0779262,-0.0453793,0.410011,-1.60869,-0.218685,1.36995,1.28407,-0.590888,0.139136,-0.6019,-0.235153,-0.681833,0.114184,-0.129963,-2.98779,-27.9326,-3.66088,24.7372,-1.51368,1.74676,-0.26448,-0.825899,-0.683302,-0.423482,-0.047471,-0.213543,0.0650305,0.0487412,0.0364017,0.0915193,-0.427547,-0.40186,-0.276414,-0.258109,
-0.103696,-0.036164,0.384641,-1.61964,-0.248919,-0.186354,0.486399,-0.790845,0.275522,-0.800944,-0.30041,-1.0557,0.402584,-0.235743,0,0,0,0,0,0,0,-0.0779262,-0.0453793,0.410011,-1.60869,-0.218685,1.36995,1.28407,-0.590888,0.139136,-0.6019,-0.235153,-0.681833,0.114184,-0.129963,-2.98779,-27.9326,-3.66088,24.7372,-1.51368,1.74676,-0.26448,-0.825899,-0.683302,-0.423482,-0.047471,-0.213543,0.0650305,0.0487412,0.0364017,0.0915193,-0.427547,-0.40186,-0.276414,-0.258109,
-0.106848,-0.035054,0.381449,-1.62082,-0.253246,-0.184749,0.485475,-0.788005,0.277513,-0.798037,-0.295478,-1.08173,0.401347,-0.230879,0,0,0,0,0,0,0,-0.0779262,-0.0453793,0.410011,-1.60869,-0.218685,1.36995,1.28407,-0.590888,0.139136,-0.6019,-0.235153,-0.681833,0.114184,-0.129963,-2.98779,-27.9326,-3.66088,24.7372,-1.51368,1.74676,-0.26448,0.781044,-0.512904,-0.414917,-0.166254,0.994159,-0.128073,-0.129821,0.698287,-0.110952,-0.580909,-0.394609,-0.310198,-0.257334,
-0.109989,-0.0339459,0.378267,-1.622,-0.257656,-0.18311,0.484569,-0.785334,0.277027,-0.795327,-0.294031,-1.1027,0.409808,-0.226565,0,0,0,0,0,0,0,-0.0965863,-0.0400512,0.390842,-1.61657,-0.241252,1.37674,1.27983,-0.579576,0.172716,-0.617151,-0.240948,-0.710065,0.285921,-0.157766,-3.67016,-30.0789,-3.98619,26.4035,-1.61164,2.03148,-0.23793,0.781044,-0.512904,-0.414917,-0.166254,0.994159,-0.128073,-0.129821,0.698287,-0.110952,-0.580909,-0.394609,-0.310198,-0.257334,
-0.0939896,-0.0380544,0.394457,-1.61755,-0.237031,-0.197896,0.486535,-0.793659,0.302318,-0.787802,-0.372274,-0.974042,0.232223,-0.308525,0,0,0,0,0,0,0,-0.0965863,-0.0400512,0.390842,-1.61657,-0.241252,1.37674,1.27983,-0.579576,0.172716,-0.617151,-0.240948,-0.710065,0.285921,-0.157766,-3.67016,-30.0789,-3.98619,26.4035,-1.61164,2.03148,-0.23793,-0.960116,1.36551,-0.354101,-1.37509,-0.21506,1.0864,1.08132,0.0104458,1.12478,-0.490577,-0.232249,-0.302084,-0.259637,
-0.13199,-0.0292897,0.355465,-1.63148,-0.282581,-0.173768,0.481088,-0.787713,0.259773,-0.799593,-0.311585,-1.00621,0.504934,-0.252089,0,0,0,0,0,0,0,-0.0965863,-0.0400512,0.390842,-1.61657,-0.241252,1.37674,1.27983,-0.579576,0.172716,-0.617151,-0.240948,-0.710065,0.285921,-0.157766,-3.67016,-30.0789,-3.98619,26.4035,-1.61164,2.03148,-0.23793,-0.960116,1.36551,-0.354101,-1.37509,-0.21506,1.0864,1.08132,0.0104458,1.12478,-0.490577,-0.232249,-0.302084,-0.259637,
-0.135145,-0.0282446,0.352262,-1.63272,-0.286649,-0.171701,0.48009,-0.788704,0.261262,-0.800713,-0.309955,-1.01687,0.516755,-0.249525,0,0,0,0,0,0,0,-0.0965863,-0.0400512,0.390842,-1.61657,-0.241252,1.37674,1.27983,-0.579576,0.172716,-0.617151,-0.240948,-0.710065,0.285921,-0.157766,-3.67016,-30.0789,-3.98619,26.4035,-1.61164,2.03148,-0.23793,-1.50956,-1.12463,-0.785674,0.155559,-0.369873,-0.127336,-0.137789,0.108328,-0.110438,-0.689278,-0.444582,-0.454479,-0.25236,
-0.138298,-0.0271956,0.34906,-1.63395,-0.290693,-0.169592,0.479098,-0.788205,0.262258,-0.800433,-0.307005,-1.011,0.527231,-0.247838,0,0,0,0,0,0,0,-0.0965863,-0.0400512,0.390842,-1.61657,-0.241252,1.37674,1.27983,-0.579576,0.172716,-0.617151,-0.240948,-0.710065,0.285921,-0.157766,-3.67016,-30.0789,-3.98619,26.4035,-1.61164,2.03148,-0.23793,-0.042359,-2.81306,-1.03979,1.16211,0.791189,-1.20882,-1.21188,0.825694,-1.21099,-0.897702,-0.639106,-0.515213,-0.249191,
-0.141438,-0.0261318,0.345873,-1.63514,-0.294675,-0.167476,0.478157,-0.784957,0.265938,-0.796962,-0.297534,-0.995474,0.528929,-0.235221,0,0,0,0,0,0,0,-0.0965863,-0.0400512,0.390842,-1.61657,-0.241252,1.37674,1.27983,-0.579576,0.172716,-0.617151,-0.240948,-0.710065,0.285921,-0.157766,-3.67016,-30.0789,-3.98619,26.4035,-1.61164,2.03148,-0.23793,-0.042359,-2.81306,-1.03979,1.16211,0.791189,-1.20882,-1.21188,0.825694,-1.21099,-0.897702,-0.639106,-0.515213,-0.249191,
-0.14457,-0.0250695,0.342693,-1.63632,-0.298531,-0.165319,0.477235,-0.783036,0.265594,-0.794893,-0.293661,-0.964057,0.53921,-0.230487,0,0,0,0,0,0,0,-0.116017,-0.0336095,0.371085,-1.62368,-0.264637,1.38868,1.2749,-0.611639,0.18962,-0.630048,-0.219234,-0.71537,0.408663,-0.163191,-1.51593,-29.2815,-2.06206,23.7137,-1.07972,1.95275,-0.190323,1.07536,-0.496877,-2.24517,-0.440165,2.14389,-0.131013,-0.123031,1.69952,-0.114817,-1.42111,-0.444759,-0.410859,-0.253705,
-0.147696,-0.0240144,0.33952,-1.63748,-0.302217,-0.163109,0.47633,-0.781453,0.263765,-0.793209,-0.29112,-0.921478,0.552453,-0.226369,0,0,0,0,0,0,0,-0.116017,-0.0336095,0.371085,-1.62368,-0.264637,1.38868,1.2749,-0.611639,0.18962,-0.630048,-0.219234,-0.71537,0.408663,-0.163191,-1.51593,-29.2815,-2.06206,23.7137,-1.07972,1.95275,-0.190323,1.07536,-0.496877,-2.24517,-0.440165,2.14389,-0.131013,-0.123031,1.69952,-0.114817,-1.42111,-0.444759,-0.410859,-0.253705,
-0.132076,-0.0282945,0.355591,-1.63305,-0.282686,-0.175183,0.478487,-0.806364,0.289762,-0.802513,-0.355589,-0.987884,0.493055,-0.303137,0,0,0,0,0,0,0,-0.116017,-0.0336095,0.371085,-1.62368,-0.264637,1.38868,1.2749,-0.611639,0.18962,-0.630048,-0.219234,-0.71537,0.408663,-0.163191,-1.51593,-29.2815,-2.06206,23.7137,-1.07972,1.95275,-0.190323,-0.648819,0.940901,-2.3466,-1.33535,0.916275,0.85913,0.858368,0.992442,0.891396,-1.28679,-0.327602,-0.297417,-0.251286,
-0.151685,-0.0234304,0.335039,-1.63811,-0.298706,-0.153312,0.476333,-0.789762,0.235676,-0.802219,-0.292751,-0.501715,0.643954,-0.249602,0,0,0,0,0,0,0,-0.116017,-0.0336095,0.371085,-1.62368,-0.264637,1.38868,1.2749,-0.611639,0.18962,-0.630048,-0.219234,-0.71537,0.408663,-0.163191,-1.51593,-29.2815,-2.06206,23.7137,-1.07972,1.95275,-0.190323,-0.648819,0.940901,-2.3466,-1.33535,0.916275,0.85913,0.858368,0.992442,0.891396,-1.28679,-0.327602,-0.297417,-0.251286,
-0.154839,-0.0224867,0.331834,-1.63927,-0.300505,-0.150737,0.475343,-0.788535,0.235942,-0.801216,-0.290862,-0.449756,0.643786,-0.247459,0,0,0,0,0,0,0,-0.116017,-0.0336095,0.371085,-1.62368,-0.264637,1.38868,1.2749,-0.611639,0.18962,-0.630048,-0.219234,-0.71537,0.408663,-0.163191,-1.51593,-29.2815,-2.06206,23.7137,-1.07972,1.95275,-0.190323,-0.789227,-1.13241,-2.97141,-0.134541,1.07809,-0.17936,-0.183002,1.26045,-0.159354,-1.52153,-0.57391,-0.355486,-0.250421,
-0.157977,-0.0215412,0.328645,-1.64042,-0.302117,-0.14817,0.474358,-0.784442,0.236374,-0.797429,-0.287847,-0.402981,0.641602,-0.24629,0,0,0,0,0,0,0,-0.135459,-0.0274324,0.350967,-1.63053,-0.28708,1.40395,1.26968,-0.608602,0.208123,-0.634838,-0.213934,-0.690025,0.53691,-0.147435,-3.21392,-31.1778,-3.63707,24.7372,-1.13465,1.58105,-0.183914,-1.25499,-2.21571,-2.78269,0.612688,0.628837,-0.706466,-0.708646,1.01903,-0.69944,-1.37812,-0.651016,-0.346271,-0.244487,
-0.161085,-0.0205826,0.325485,-1.64154,-0.303564,-0.145653,0.473421,-0.777055,0.239644,-0.789853,-0.27866,-0.361793,0.629282,-0.234242,0,0,0,0,0,0,0,-0.135459,-0.0274324,0.350967,-1.63053,-0.28708,1.40395,1.26968,-0.608602,0.208123,-0.634838,-0.213934,-0.690025,0.53691,-0.147435,-3.21392,-31.1778,-3.63707,24.7372,-1.13465,1.58105,-0.183914,-1.25499,-2.21571,-2.78269,0.612688,0.628837,-0.706466,-0.708646,1.01903,-0.69944,-1.37812,-0.651016,-0.346271,-0.244487,
-0.164166,-0.0196242,0.322353,-1.64263,-0.304832,-0.143176,0.472501,-0.770364,0.23961,-0.783016,-0.27397,-0.31702,0.619289,-0.229873,0,0,0,0,0,0,0,-0.135459,-0.0274324,0.350967,-1.63053,-0.28708,1.40395,1.26968,-0.608602,0.208123,-0.634838,-0.213934,-0.690025,0.53691,-0.147435,-3.21392,-31.1778,-3.63707,24.7372,-1.13465,1.58105,-0.183914,-0.763021,-1.60832,-2.28501,0.364504,0.666149,-0.440424,-0.435636,0.885243,-0.439693,-1.09853,-0.551923,-0.206712,-0.244862,
-0.167222,-0.0186717,0.319247,-1.64372,-0.305912,-0.140741,0.471597,-0.763893,0.238107,-0.776422,-0.270693,-0.269949,0.608863,-0.226124,0,0,0,0,0,0,0,-0.135459,-0.0274324,0.350967,-1.63053,-0.28708,1.40395,1.26968,-0.608602,0.208123,-0.634838,-0.213934,-0.690025,0.53691,-0.147435,-3.21392,-31.1778,-3.63707,24.7372,-1.13465,1.58105,-0.183914,-0.763021,-1.60832,-2.28501,0.364504,0.666149,-0.440424,-0.435636,0.885243,-0.439693,-1.09853,-0.551923,-0.206712,-0.244862,
-0.152182,-0.0226891,0.335026,-1.63969,-0.303829,-0.155007,0.473833,-0.818907,0.257882,-0.832409,-0.336434,-0.726162,0.627721,-0.29873,0,0,0,0,0,0,0,-0.135459,-0.0274324,0.350967,-1.63053,-0.28708,1.40395,1.26968,-0.608602,0.208123,-0.634838,-0.213934,-0.690025,0.53691,-0.147435,-3.21392,-31.1778,-3.63707,24.7372,-1.13465,1.58105,-0.183914,-0.98313,1.10054,-1.51477,-1.14268,0.0977729,1.00074,1.01066,0.29981,1.00691,-0.678338,-0.22923,-0.0155628,-0.247138,
-0.170642,-0.0178988,0.31516,-1.64442,-0.300892,-0.136132,0.471216,-0.751081,0.211905,-0.764422,-0.281249,-0.0422494,0.596303,-0.251072,0,0,0,0,0,0,0,-0.15644,-0.0206844,0.329397,-1.63792,-0.30428,1.42251,1.26508,-0.673112,0.215491,-0.683997,-0.233337,-0.387928,0.611325,-0.143246,-0.984311,-32.8005,-1.26067,26.0822,-0.261234,1.70739,-0.278213,-0.98313,1.10054,-1.51477,-1.14268,0.0977729,1.00074,1.01066,0.29981,1.00691,-0.678338,-0.22923,-0.0155628,-0.247138,
-0.173621,-0.0170516,0.312126,-1.64554,-0.300947,-0.133788,0.470216,-0.744862,0.211804,-0.758473,-0.279344,-0.0137373,0.585906,-0.250092,0,0,0,0,0,0,0,-0.15644,-0.0206844,0.329397,-1.63792,-0.30428,1.42251,1.26508,-0.673112,0.215491,-0.683997,-0.233337,-0.387928,0.611325,-0.143246,-0.984311,-32.8005,-1.26067,26.0822,-0.261234,1.70739,-0.278213,-1.24424,-1.87188,-0.23786,0.949484,-0.730284,-0.608794,-0.603742,-0.258484,-0.621008,-0.104608,-0.362384,-0.0569378,-0.239699,
-0.176565,-0.0161953,0.309128,-1.64663,-0.300909,-0.131496,0.469262,-0.736119,0.214075,-0.749514,-0.272558,0.00951363,0.57307,-0.238483,0,0,0,0,0,0,0,-0.15644,-0.0206844,0.329397,-1.63792,-0.30428,1.42251,1.26508,-0.673112,0.215491,-0.683997,-0.233337,-0.387928,0.611325,-0.143246,-0.984311,-32.8005,-1.26067,26.0822,-0.261234,1.70739,-0.278213,-0.0803995,-1.65584,-0.32929,0.877656,0.170743,-0.621153,-0.609616,0.250023,-0.637346,-0.226157,-0.270303,-0.0719808,-0.239373,
-0.179479,-0.0153423,0.306161,-1.64771,-0.300764,-0.129221,0.468325,-0.728468,0.213264,-0.741698,-0.27034,0.0362183,0.568661,-0.234235,0,0,0,0,0,0,0,-0.15644,-0.0206844,0.329397,-1.63792,-0.30428,1.42251,1.26508,-0.673112,0.215491,-0.683997,-0.233337,-0.387928,0.611325,-0.143246,-0.984311,-32.8005,-1.26067,26.0822,-0.261234,1.70739,-0.278213,-0.0803995,-1.65584,-0.32929,0.877656,0.170743,-0.621153,-0.609616,0.250023,-0.637346,-0.226157,-0.270303,-0.0719808,-0.239373,
-0.182364,-0.0144962,0.303224,-1.64878,-0.300504,-0.126961,0.467403,-0.721245,0.211522,-0.73433,-0.268628,0.0650382,0.564946,-0.230576,0,0,0,0,0,0,0,-0.15644,-0.0206844,0.329397,-1.63792,-0.30428,1.42251,1.26508,-0.673112,0.215491,-0.683997,-0.233337,-0.387928,0.611325,-0.143246,-0.984311,-32.8005,-1.26067,26.0822,-0.261234,1.70739,-0.278213,1.93335,-0.790107,-1.30972,0.347043,2.12212,-0.319216,-0.305072,1.47011,-0.330612,-0.777946,-0.12153,-0.103643,-0.238419,
-0.185221,-0.0136583,0.300315,-1.64985,-0.300121,-0.124731,0.466494,-0.714143,0.209472,-0.727098,-0.266193,0.0955619,0.557648,-0.227045,0,0,0,0,0,0,0,-0.15644,-0.0206844,0.329397,-1.63792,-0.30428,1.42251,1.26508,-0.673112,0.215491,-0.683997,-0.233337,-0.387928,0.611325,-0.143246,-0.984311,-32.8005,-1.26067,26.0822,-0.261234,1.70739,-0.278213,1.93335,-0.790107,-1.30972,0.347043,2.12212,-0.319216,-0.305072,1.47011,-0.330612,-0.777946,-0.12153,-0.103643,-0.238419,
-0.171839,-0.0172727,0.314254,-1.64589,-0.311524,-0.136789,0.468807,-0.805041,0.23299,-0.819894,-0.316456,-0.265204,0.598045,-0.297641,0,0,0,0,0,0,0,-0.184693,-0.0115805,0.30003,-1.64716,-0.314437,1.44907,1.25917,-0.683717,0.226269,-0.702819,-0.185733,-0.103472,0.645014,-0.134166,0.0828892,-34.6214,-0.0625476,25.8798,0.349423,1.47484,-0.170181,0.369816,1.40677,-1.37864,-0.90399,1.25707,0.900145,0.918659,1.03497,0.889035,-0.897151,0.188243,-0.229691,-0.2404,
-0.219254,-0.00201887,0.264746,-1.6605,-0.310818,-0.0915927,0.460799,-0.70912,0.199894,-0.723644,-0.27613,0.20038,0.544577,-0.25161,0,0,0,0,0,0,0,-0.184693,-0.0115805,0.30003,-1.64716,-0.314437,1.44907,1.25917,-0.683717,0.226269,-0.702819,-0.185733,-0.103472,0.645014,-0.134166,0.0828892,-34.6214,-0.0625476,25.8798,0.349423,1.47484,-0.170181,-1.33447,-0.195324,-1.4119,0.271634,0.192062,0.0668432,0.0748031,0.664632,0.0582949,-0.926688,0.240417,-0.395269,-0.236609,
-0.222058,-0.00122522,0.261883,-1.6616,-0.30998,-0.0894724,0.459795,-0.701023,0.198413,-0.715693,-0.274324,0.209515,0.530091,-0.250991,0,0,0,0,0,0,0,-0.184693,-0.0115805,0.30003,-1.64716,-0.314437,1.44907,1.25917,-0.683717,0.226269,-0.702819,-0.185733,-0.103472,0.645014,-0.134166,0.0828892,-34.6214,-0.0625476,25.8798,0.349423,1.47484,-0.170181,-1.33447,-0.195324,-1.4119,0.271634,0.192062,0.0668432,0.0748031,0.664632,0.0582949,-0.926688,0.240417,-0.395269,-0.236609,
-0.224822,-0.00042862,0.259062,-1.66267,-0.309121,-0.0874165,0.458836,-0.691002,0.199149,-0.705335,-0.267993,0.214862,0.513961,-0.239753,0,0,0,0,0,0,0,-0.184693,-0.0115805,0.30003,-1.64716,-0.314437,1.44907,1.25917,-0.683717,0.226269,-0.702819,-0.185733,-0.103472,0.645014,-0.134166,0.0828892,-34.6214,-0.0625476,25.8798,0.349423,1.47484,-0.170181,-1.60006,1.29257,-2.04305,-0.569776,0.344927,0.866518,0.885973,0.833236,0.848838,-1.19079,0.447788,-0.381239,-0.236121,
-0.227551,0.000360335,0.256277,-1.66373,-0.308224,-0.0853903,0.457893,-0.682139,0.197239,-0.696354,-0.265857,0.224191,0.506546,-0.23576,0,0,0,0,0,0,0,-0.184693,-0.0115805,0.30003,-1.64716,-0.314437,1.44907,1.25917,-0.683717,0.226269,-0.702819,-0.185733,-0.103472,0.645014,-0.134166,0.0828892,-34.6214,-0.0625476,25.8798,0.349423,1.47484,-0.170181,-1.60006,1.29257,-2.04305,-0.569776,0.344927,0.866518,0.885973,0.833236,0.848838,-1.19079,0.447788,-0.381239,-0.236121,
-0.230247,0.00113747,0.253524,-1.66479,-0.307278,-0.0833693,0.456964,-0.674062,0.194283,-0.688169,-0.265113,0.236524,0.505253,-0.232366,0,0,0,0,0,0,0,-0.20744,-0.00410771,0.276427,-1.65309,-0.315863,1.47156,1.25429,-0.698131,0.214441,-0.719794,-0.188997,0.00767345,0.721338,-0.176907,-0.0202602,-34.3715,-0.0387439,25.2094,0.104977,1.62041,-0.123489,-2.19088,1.86898,-2.30051,-0.930225,0.176635,1.1643,1.18382,0.824129,1.1467,-1.38818,0.480377,-0.491967,-0.237726,
-0.232913,0.00190074,0.250802,-1.66585,-0.306272,-0.08133,0.456047,-0.666533,0.190819,-0.680542,-0.264925,0.251552,0.509822,-0.22913,0,0,0,0,0,0,0,-0.20744,-0.00410771,0.276427,-1.65309,-0.315863,1.47156,1.25429,-0.698131,0.214441,-0.719794,-0.188997,0.00767345,0.721338,-0.176907,-0.0202602,-34.3715,-0.0387439,25.2094,0.104977,1.62041,-0.123489,-2.19088,1.86898,-2.30051,-0.930225,0.176635,1.1643,1.18382,0.824129,1.1467,-1.38818,0.480377,-0.491967,-0.237726,
-0.220992,-0.0017202,0.262956,-1.66146,-0.307917,-0.0921191,0.458575,-0.760814,0.21413,-0.776394,-0.300249,0.294498,0.532676,-0.29458,0,0,0,0,0,0,0,-0.20744,-0.00410771,0.276427,-1.65309,-0.315863,1.47156,1.25429,-0.698131,0.214441,-0.719794,-0.188997,0.00767345,0.721338,-0.176907,-0.0202602,-34.3715,-0.0387439,25.2094,0.104977,1.62041,-0.123489,-1.34478,-0.424789,-2.61567,0.555634,0.86521,-0.115469,-0.103567,1.37168,-0.127557,-1.50616,0.352744,-0.504401,-0.233843,
-0.240952,0.00442984,0.242192,-1.66567,-0.299592,-0.069832,0.455936,-0.664624,0.170816,-0.679243,-0.261613,0.488729,0.522904,-0.256288,0,0,0,0,0,0,0,-0.20744,-0.00410771,0.276427,-1.65309,-0.315863,1.47156,1.25429,-0.698131,0.214441,-0.719794,-0.188997,0.00767345,0.721338,-0.176907,-0.0202602,-34.3715,-0.0387439,25.2094,0.104977,1.62041,-0.123489,-0.629635,-0.512285,-2.79351,0.65386,1.41099,-0.179192,-0.163995,1.68774,-0.194162,-1.57445,0.366663,-0.466695,-0.232103,
-0.243565,0.0051138,0.239522,-1.6667,-0.29762,-0.0678093,0.454957,-0.65319,0.170989,-0.66743,-0.25579,0.49292,0.505684,-0.244678,0,0,0,0,0,0,0,-0.20744,-0.00410771,0.276427,-1.65309,-0.315863,1.47156,1.25429,-0.698131,0.214441,-0.719794,-0.188997,0.00767345,0.721338,-0.176907,-0.0202602,-34.3715,-0.0387439,25.2094,0.104977,1.62041,-0.123489,-0.629635,-0.512285,-2.79351,0.65386,1.41099,-0.179192,-0.163995,1.68774,-0.194162,-1.57445,0.366663,-0.466695,-0.232103,
-0.246137,0.0057893,0.236894,-1.66771,-0.295625,-0.0658249,0.453994,-0.642934,0.168876,-0.657083,-0.253733,0.498871,0.496077,-0.240758,0,0,0,0,0,0,0,-0.20744,-0.00410771,0.276427,-1.65309,-0.315863,1.47156,1.25429,-0.698131,0.214441,-0.719794,-0.188997,0.00767345,0.721338,-0.176907,-0.0202602,-34.3715,-0.0387439,25.2094,0.104977,1.62041,-0.123489,-0.871543,0.0177264,-2.52345,0.29305,1.11157,0.117489,0.135168,1.43369,0.100108,-1.45849,0.341546,-0.450653,-0.234291,
-0.248671,0.00645288,0.234303,-1.66872,-0.2936,-0.0638583,0.453044,-0.633587,0.165895,-0.647651,-0.252909,0.506141,0.491649,-0.237449,0,0,0,0,0,0,0,-0.227863,0.0021466,0.255264,-1.65891,-0.314696,1.49242,1.24954,-0.677818,0.211303,-0.72873,-0.203713,0.0856398,0.683384,-0.138533,0.412174,-35.6212,0.512709,25.6577,-0.0662268,1.73394,-0.123489,-0.871543,0.0177264,-2.52345,0.29305,1.11157,0.117489,0.135168,1.43369,0.100108,-1.45849,0.341546,-0.450653,-0.234291,
-0.25117,0.0071044,0.231748,-1.66973,-0.291542,-0.0619127,0.452107,-0.624761,0.16288,-0.638736,-0.251425,0.514494,0.486416,-0.234276,0,0,0,0,0,0,0,-0.227863,0.0021466,0.255264,-1.65891,-0.314696,1.49242,1.24954,-0.677818,0.211303,-0.72873,-0.203713,0.0856398,0.683384,-0.138533,0.412174,-35.6212,0.512709,25.6577,-0.0662268,1.73394,-0.123489,-1.05826,2.21885,-1.89504,-1.12159,0.567566,1.35776,1.38248,0.805582,1.33058,-1.09262,0.403743,-0.27578,-0.233661,
-0.253635,0.00774387,0.229228,-1.67072,-0.289446,-0.0599998,0.451182,-0.616283,0.159866,-0.630171,-0.249124,0.524173,0.478231,-0.231238,0,0,0,0,0,0,0,-0.227863,0.0021466,0.255264,-1.65891,-0.314696,1.49242,1.24954,-0.677818,0.211303,-0.72873,-0.203713,0.0856398,0.683384,-0.138533,0.412174,-35.6212,0.512709,25.6577,-0.0662268,1.73394,-0.123489,-0.686714,-1.3245,-1.43114,1.03559,0.49855,-0.578347,-0.564314,0.849034,-0.589298,-0.822799,0.109819,-0.262178,-0.227318,
-0.242236,0.00446048,0.240839,-1.66669,-0.297338,-0.0711371,0.453828,-0.702182,0.176829,-0.718044,-0.287286,0.547401,0.49101,-0.297031,0,0,0,0,0,0,0,-0.227863,0.0021466,0.255264,-1.65891,-0.314696,1.49242,1.24954,-0.677818,0.211303,-0.72873,-0.203713,0.0856398,0.683384,-0.138533,0.412174,-35.6212,0.512709,25.6577,-0.0662268,1.73394,-0.123489,-0.686714,-1.3245,-1.43114,1.03559,0.49855,-0.578347,-0.564314,0.849034,-0.589298,-0.822799,0.109819,-0.262178,-0.227318,
-0.25951,0.00972912,0.222894,-1.67122,-0.292759,-0.0520427,0.451231,-0.609444,0.139579,-0.623958,-0.253589,0.579864,0.443259,-0.256562,0,0,0,0,0,0,0,-0.227863,0.0021466,0.255264,-1.65891,-0.314696,1.49242,1.24954,-0.677818,0.211303,-0.72873,-0.203713,0.0856398,0.683384,-0.138533,0.412174,-35.6212,0.512709,25.6577,-0.0662268,1.73394,-0.123489,-1.24759,-0.368658,-0.902899,0.468742,-0.173792,-0.0670785,-0.0474523,0.319792,-0.0840622,-0.561817,0.189494,-0.208475,-0.227166,
-0.261897,0.0102845,0.22045,-1.67222,-0.290456,-0.0503288,0.450248,-0.596912,0.138841,-0.611051,-0.247825,0.57568,0.428491,-0.245699,0,0,0,0,0,0,0,-0.249011,0.00851211,0.233391,-1.66502,-0.307253,1.51219,1.24548,-0.66177,0.210802,-0.694843,-0.188101,0.303958,0.598045,-0.11628,2.26093,-36.7915,2.31386,26.7288,-0.0598181,1.8731,-0.210464,-1.24759,-0.368658,-0.902899,0.468742,-0.173792,-0.0670785,-0.0474523,0.319792,-0.0840622,-0.561817,0.189494,-0.208475,-0.227166,
-0.26424,0.0108293,0.218051,-1.6732,-0.288162,-0.0486508,0.44928,-0.585642,0.136192,-0.599739,-0.245307,0.573541,0.419492,-0.242044,0,0,0,0,0,0,0,-0.249011,0.00851211,0.233391,-1.66502,-0.307253,1.51219,1.24548,-0.66177,0.210802,-0.694843,-0.188101,0.303958,0.598045,-0.11628,2.26093,-36.7915,2.31386,26.7288,-0.0598181,1.8731,-0.210464,-0.624061,0.0974788,-0.411058,0.167337,-0.0319467,0.193813,0.2165,0.22079,0.172851,-0.344667,0.204004,-0.146426,-0.22534,
-0.266541,0.0113619,0.215694,-1.67417,-0.285871,-0.0470149,0.448324,-0.575245,0.13317,-0.58929,-0.242821,0.572706,0.408967,-0.238988,0,0,0,0,0,0,0,-0.249011,0.00851211,0.233391,-1.66502,-0.307253,1.51219,1.24548,-0.66177,0.210802,-0.694843,-0.188101,0.303958,0.598045,-0.11628,2.26093,-36.7915,2.31386,26.7288,-0.0598181,1.8731,-0.210464,0.0226635,-0.308175,-0.78779,0.423083,0.647711,-0.0263152,0.00323741,0.701489,-0.0537331,-0.574215,0.168326,-0.212237,-0.224621,
-0.268803,0.0118814,0.213375,-1.67513,-0.283578,-0.0454258,0.447379,-0.565556,0.12987,-0.579551,-0.240349,0.573245,0.397279,-0.236072,0,0,0,0,0,0,0,-0.249011,0.00851211,0.233391,-1.66502,-0.307253,1.51219,1.24548,-0.66177,0.210802,-0.694843,-0.188101,0.303958,0.598045,-0.11628,2.26093,-36.7915,2.31386,26.7288,-0.0598181,1.8731,-0.210464,0.0226635,-0.308175,-0.78779,0.423083,0.647711,-0.0263152,0.00323741,0.701489,-0.0537331,-0.574215,0.168326,-0.212237,-0.224621,
-0.271029,0.0123868,0.211094,-1.67608,-0.281277,-0.0438866,0.446446,-0.556442,0.126345,-0.570391,-0.237917,0.575381,0.384806,-0.233314,0,0,0,0,0,0,0,-0.249011,0.00851211,0.233391,-1.66502,-0.307253,1.51219,1.24548,-0.66177,0.210802,-0.694843,-0.188101,0.303958,0.598045,-0.11628,2.26093,-36.7915,2.31386,26.7288,-0.0598181,1.8731,-0.210464,-1.34795,-2.61387,-0.845362,1.84177,-0.142327,-1.38713,-1.36838,0.554539,-1.39255,-0.661185,0.0154488,-0.392383,-0.215698,
-0.261074,0.00989433,0.22126,-1.67201,-0.286898,-0.0533525,0.449172,-0.652838,0.149606,-0.668522,-0.27455,0.724276,0.407489,-0.296276,0,0,0,0,0,0,0,-0.249011,0.00851211,0.233391,-1.66502,-0.307253,1.51219,1.24548,-0.66177,0.210802,-0.694843,-0.188101,0.303958,0.598045,-0.11628,2.26093,-36.7915,2.31386,26.7288,-0.0598181,1.8731,-0.210464,-1.34795,-2.61387,-0.845362,1.84177,-0.142327,-1.38713,-1.36838,0.554539,-1.39255,-0.661185,0.0154488,-0.392383,-0.215698,
-0.278508,0.0152609,0.203173,-1.67681,-0.279244,-0.0374148,0.447138,-0.556894,0.118223,-0.571215,-0.236507,0.661839,0.311122,-0.250624,0,0,0,0,0,0,0,-0.269353,0.0148846,0.212356,-1.67079,-0.296575,1.52944,1.24177,-0.637182,0.212117,-0.652081,-0.170756,0.367386,0.537342,-0.125717,3.58203,-37.9421,3.4366,26.2289,-0.224613,1.67351,-0.278213,-1.72343,-0.935943,-0.89303,0.814014,-0.350838,-0.489329,-0.460733,0.352067,-0.510403,-0.698589,0.110801,-0.384429,-0.213618,
-0.280691,0.0157218,0.200933,-1.67775,-0.276619,-0.0362225,0.44615,-0.545743,0.115209,-0.560042,-0.234169,0.656131,0.29807,-0.247071,0,0,0,0,0,0,0,-0.269353,0.0148846,0.212356,-1.67079,-0.296575,1.52944,1.24177,-0.637182,0.212117,-0.652081,-0.170756,0.367386,0.537342,-0.125717,3.58203,-37.9421,3.4366,26.2289,-0.224613,1.67351,-0.278213,-1.72343,-0.935943,-0.89303,0.814014,-0.350838,-0.489329,-0.460733,0.352067,-0.510403,-0.698589,0.110801,-0.384429,-0.213618,
-0.282834,0.0161682,0.198733,-1.67868,-0.274017,-0.0350627,0.445174,-0.535613,0.111622,-0.549887,-0.233055,0.650514,0.289955,-0.244045,0,0,0,0,0,0,0,-0.269353,0.0148846,0.212356,-1.67079,-0.296575,1.52944,1.24177,-0.637182,0.212117,-0.652081,-0.170756,0.367386,0.537342,-0.125717,3.58203,-37.9421,3.4366,26.2289,-0.224613,1.67351,-0.278213,-1.5064,1.15194,-1.37057,-0.359652,0.0694126,0.651392,0.684928,0.554995,0.615175,-0.954767,0.307084,-0.395764,-0.213091,
-0.284939,0.0165997,0.196571,-1.67961,-0.271437,-0.0339175,0.444209,-0.526302,0.107875,-0.540544,-0.232424,0.645107,0.286301,-0.241133,0,0,0,0,0,0,0,-0.269353,0.0148846,0.212356,-1.67079,-0.296575,1.52944,1.24177,-0.637182,0.212117,-0.652081,-0.170756,0.367386,0.537342,-0.125717,3.58203,-37.9421,3.4366,26.2289,-0.224613,1.67351,-0.278213,-1.07326,0.775991,-1.91137,-0.0327963,0.669497,0.445272,0.478444,1.0487,0.410648,-1.23507,0.335029,-0.456156,-0.210734,
-0.28701,0.0170161,0.194444,-1.68054,-0.268876,-0.0327678,0.443256,-0.517668,0.104093,-0.531877,-0.232091,0.640187,0.287411,-0.238339,0,0,0,0,0,0,0,-0.269353,0.0148846,0.212356,-1.67079,-0.296575,1.52944,1.24177,-0.637182,0.212117,-0.652081,-0.170756,0.367386,0.537342,-0.125717,3.58203,-37.9421,3.4366,26.2289,-0.224613,1.67351,-0.278213,-1.07326,0.775991,-1.91137,-0.0327963,0.669497,0.445272,0.478444,1.0487,0.410648,-1.23507,0.335029,-0.456156,-0.210734,
-0.289048,0.0174174,0.192349,-1.68147,-0.266332,-0.0315924,0.442313,-0.509595,0.100316,-0.523773,-0.232038,0.636115,0.293849,-0.235717,0,0,0,0,0,0,0,-0.295605,0.0229175,0.185204,-1.67773,-0.279937,1.55046,1.23496,-0.599418,0.173631,-0.60301,-0.164386,0.408283,0.452561,-0.161468,3.96289,-37.8151,3.8611,26.0068,0.715634,1.72021,-0.143631,-0.79276,-2.48262,-2.52656,2.01302,1.18105,-1.34686,-1.33019,1.72875,-1.3456,-1.49781,0.145966,-0.536571,-0.20668,
-0.281984,0.0156087,0.199569,-1.67871,-0.269813,-0.0372875,0.444035,-0.576469,0.117313,-0.591825,-0.256759,0.80185,0.275712,-0.284445,0,0,0,0,0,0,0,-0.295605,0.0229175,0.185204,-1.67773,-0.279937,1.55046,1.23496,-0.599418,0.173631,-0.60301,-0.164386,0.408283,0.452561,-0.161468,3.96289,-37.8151,3.8611,26.0068,0.715634,1.72021,-0.143631,-0.79276,-2.48262,-2.52656,2.01302,1.18105,-1.34686,-1.33019,1.72875,-1.3456,-1.49781,0.145966,-0.536571,-0.20668,
-0.323577,0.0282235,0.156453,-1.68985,-0.247269,-0.00171005,0.435758,-0.479404,0.0821227,-0.49374,-0.224262,0.641542,0.281664,-0.246263,0,0,0,0,0,0,0,-0.295605,0.0229175,0.185204,-1.67773,-0.279937,1.55046,1.23496,-0.599418,0.173631,-0.60301,-0.164386,0.408283,0.452561,-0.161468,3.96289,-37.8151,3.8611,26.0068,0.715634,1.72021,-0.143631,-0.802182,-0.773096,-2.3539,1.03624,1.0414,-0.407374,-0.382804,1.48134,-0.422403,-1.40103,0.305642,-0.469692,-0.205913,
-0.325459,0.0285394,0.154513,-1.69074,-0.244751,-0.000592962,0.434784,-0.470573,0.0789745,-0.48491,-0.223428,0.629625,0.279271,-0.243456,0,0,0,0,0,0,0,-0.295605,0.0229175,0.185204,-1.67773,-0.279937,1.55046,1.23496,-0.599418,0.173631,-0.60301,-0.164386,0.408283,0.452561,-0.161468,3.96289,-37.8151,3.8611,26.0068,0.715634,1.72021,-0.143631,-0.802182,-0.773096,-2.3539,1.03624,1.0414,-0.407374,-0.382804,1.48134,-0.422403,-1.40103,0.305642,-0.469692,-0.205913,
-0.327309,0.0288427,0.152606,-1.69163,-0.24228,0.000530015,0.433821,-0.462369,0.0758111,-0.476702,-0.222916,0.617647,0.280744,-0.240757,0,0,0,0,0,0,0,-0.295605,0.0229175,0.185204,-1.67773,-0.279937,1.55046,1.23496,-0.599418,0.173631,-0.60301,-0.164386,0.408283,0.452561,-0.161468,3.96289,-37.8151,3.8611,26.0068,0.715634,1.72021,-0.143631,-1.48868,0.340973,-2.33133,0.386027,0.591914,0.140841,0.169398,1.18821,0.116725,-1.41202,0.375522,-0.488974,-0.204001,
-0.329127,0.0291334,0.15073,-1.69252,-0.239856,0.00167649,0.432868,-0.454691,0.0726755,-0.469018,-0.222697,0.605928,0.286619,-0.238209,0,0,0,0,0,0,0,-0.295605,0.0229175,0.185204,-1.67773,-0.279937,1.55046,1.23496,-0.599418,0.173631,-0.60301,-0.164386,0.408283,0.452561,-0.161468,3.96289,-37.8151,3.8611,26.0068,0.715634,1.72021,-0.143631,-2.27454,0.164826,-1.99683,0.487449,-0.116057,-0.0380893,-0.00591388,0.777936,-0.0608647,-1.24551,0.369058,-0.482142,-0.200998,
-0.330916,0.0294136,0.148884,-1.69341,-0.237478,0.00283414,0.431924,-0.447241,0.0700499,-0.461548,-0.221133,0.594483,0.289412,-0.235908,0,0,0,0,0,0,0,-0.314418,0.0283344,0.165716,-1.68283,-0.266973,1.56281,1.22987,-0.561494,0.15564,-0.588667,-0.165315,0.425673,0.368809,-0.156302,1.4278,-37.8667,1.58784,25.6577,0.404354,1.83282,-0.143631,-2.27454,0.164826,-1.99683,0.487449,-0.116057,-0.0380893,-0.00591388,0.777936,-0.0608647,-1.24551,0.369058,-0.482142,-0.200998,
-0.332676,0.0296839,0.147067,-1.69428,-0.235143,0.00398922,0.430988,-0.439944,0.0675916,-0.454241,-0.218837,0.583747,0.28877,-0.23396,0,0,0,0,0,0,0,-0.314418,0.0283344,0.165716,-1.68283,-0.266973,1.56281,1.22987,-0.561494,0.15564,-0.588667,-0.165315,0.425673,0.368809,-0.156302,1.4278,-37.8667,1.58784,25.6577,0.404354,1.83282,-0.143631,-1.91081,-1.39484,-2.58545,1.51661,0.391,-0.873261,-0.847885,1.30719,-0.877301,-1.46352,0.302593,-0.484537,-0.196067,
-0.322965,0.0276351,0.157051,-1.6894,-0.237167,-0.00507148,0.434908,-0.520267,0.0817884,-0.535472,-0.238616,0.982254,0.221078,-0.284365,0,0,0,0,0,0,0,-0.314418,0.0283344,0.165716,-1.68283,-0.266973,1.56281,1.22987,-0.561494,0.15564,-0.588667,-0.165315,0.425673,0.368809,-0.156302,1.4278,-37.8667,1.58784,25.6577,0.404354,1.83282,-0.143631,-1.91081,-1.39484,-2.58545,1.51661,0.391,-0.873261,-0.847885,1.30719,-0.877301,-1.46352,0.302593,-0.484537,-0.196067,
-0.338736,0.0322016,0.140682,-1.69353,-0.233108,0.00586717,0.431636,-0.450152,0.0587032,-0.46478,-0.213145,0.765437,0.220184,-0.250388,0,0,0,0,0,0,0,-0.314418,0.0283344,0.165716,-1.68283,-0.266973,1.56281,1.22987,-0.561494,0.15564,-0.588667,-0.165315,0.425673,0.368809,-0.156302,1.4278,-37.8667,1.58784,25.6577,0.404354,1.83282,-0.143631,-1.395,-0.536028,-2.3957,1.00437,0.55876,-0.346205,-0.317017,1.23446,-0.360293,-1.32979,0.366816,-0.390049,-0.195313,
-0.340503,0.0324237,0.138855,-1.69437,-0.230007,0.00672571,0.430645,-0.441909,0.0555263,-0.45662,-0.211508,0.77518,0.214635,-0.247661,0,0,0,0,0,0,0,-0.314418,0.0283344,0.165716,-1.68283,-0.266973,1.56281,1.22987,-0.561494,0.15564,-0.588667,-0.165315,0.425673,0.368809,-0.156302,1.4278,-37.8667,1.58784,25.6577,0.404354,1.83282,-0.143631,-1.68183,0.784078,-1.90917,0.179092,0.0505964,0.349505,0.377216,0.720966,0.329301,-1.06874,0.449264,-0.301604,-0.194069,
-0.342239,0.0326335,0.137061,-1.69521,-0.226895,0.00756976,0.429665,-0.43383,0.0524708,-0.448444,-0.210242,0.778052,0.211013,-0.244894,0,0,0,0,0,0,0,-0.332119,0.0326434,0.147195,-1.68873,-0.253709,1.57413,1.22483,-0.5345,0.133694,-0.571899,-0.177858,0.432087,0.319311,-0.169704,2.46723,-38.3388,2.48842,26.7526,0.850216,1.97198,-0.130813,-1.68183,0.784078,-1.90917,0.179092,0.0505964,0.349505,0.377216,0.720966,0.329301,-1.06874,0.449264,-0.301604,-0.194069,
-0.343942,0.0328317,0.135299,-1.69605,-0.223791,0.0084089,0.428696,-0.425925,0.0495305,-0.440469,-0.209281,0.776047,0.209784,-0.242238,0,0,0,0,0,0,0,-0.332119,0.0326434,0.147195,-1.68873,-0.253709,1.57413,1.22483,-0.5345,0.133694,-0.571899,-0.177858,0.432087,0.319311,-0.169704,2.46723,-38.3388,2.48842,26.7526,0.850216,1.97198,-0.130813,-1.5882,0.381105,-1.50112,0.387814,-0.141858,0.128803,0.161663,0.535976,0.108476,-0.852234,0.427947,-0.250124,-0.191395,
-0.345615,0.033019,0.133569,-1.69688,-0.220708,0.00924423,0.427737,-0.418191,0.0468431,-0.432683,-0.208067,0.770643,0.208834,-0.239733,0,0,0,0,0,0,0,-0.332119,0.0326434,0.147195,-1.68873,-0.253709,1.57413,1.22483,-0.5345,0.133694,-0.571899,-0.177858,0.432087,0.319311,-0.169704,2.46723,-38.3388,2.48842,26.7526,0.850216,1.97198,-0.130813,-1.5882,0.381105,-1.50112,0.387814,-0.141858,0.128803,0.161663,0.535976,0.108476,-0.852234,0.427947,-0.250124,-0.191395,
-0.347257,0.033197,0.131869,-1.69771,-0.217656,0.0100628,0.426788,-0.41057,0.0444966,-0.425022,-0.206025,0.762996,0.204653,-0.237428,0,0,0,0,0,0,0,-0.332119,0.0326434,0.147195,-1.68873,-0.253709,1.57413,1.22483,-0.5345,0.133694,-0.571899,-0.177858,0.432087,0.319311,-0.169704,2.46723,-38.3388,2.48842,26.7526,0.850216,1.97198,-0.130813,-0.906693,-1.43515,-1.21067,1.47203,0.100625,-0.795767,-0.766504,0.714088,-0.795622,-0.668052,0.355516,-0.194508,-0.188707,
-0.339183,0.0317774,0.140182,-1.69406,-0.225001,0.00411535,0.429922,-0.460162,0.0493641,-0.475495,-0.226852,1.0151,0.175754,-0.283368,0,0,0,0,0,0,0,-0.332119,0.0326434,0.147195,-1.68873,-0.253709,1.57413,1.22483,-0.5345,0.133694,-0.571899,-0.177858,0.432087,0.319311,-0.169704,2.46723,-38.3388,2.48842,26.7526,0.850216,1.97198,-0.130813,-0.906693,-1.43515,-1.21067,1.47203,0.100625,-0.795767,-0.766504,0.714088,-0.795622,-0.668052,0.355516,-0.194508,-0.188707,
-0.354357,0.0354478,0.124258,-1.69904,-0.217358,0.0137477,0.426647,-0.396275,0.0338779,-0.410745,-0.202025,0.821579,0.138698,-0.249883,0,0,0,0,0,0,0,-0.348929,0.0364384,0.129653,-1.69441,-0.236883,1.58238,1.21978,-0.510468,0.109113,-0.525934,-0.170528,0.544413,0.208183,-0.15455,2.89569,-38.6641,2.86134,27.0541,-0.0534094,2.11114,-0.204056,-0.342181,-2.28433,-0.940127,1.93111,0.269447,-1.18402,-1.15872,0.760774,-1.17259,-0.485373,0.297258,-0.118035,-0.186352,
-0.355902,0.035571,0.122654,-1.69984,-0.214092,0.0142742,0.425658,-0.386339,0.0308123,-0.400798,-0.200267,0.816461,0.131612,-0.247198,0,0,0,0,0,0,0,-0.348929,0.0364384,0.129653,-1.69441,-0.236883,1.58238,1.21978,-0.510468,0.109113,-0.525934,-0.170528,0.544413,0.208183,-0.15455,2.89569,-38.6641,2.86134,27.0541,-0.0534094,2.11114,-0.204056,-0.0719021,-0.0570976,-1.41653,0.630007,0.685997,0.0859886,0.124574,0.877747,0.0600162,-0.715361,0.383505,-0.113981,-0.190703,
-0.35741,0.0356821,0.121089,-1.70064,-0.210864,0.0147815,0.42468,-0.376939,0.0277792,-0.391401,-0.199013,0.806906,0.126833,-0.244618,0,0,0,0,0,0,0,-0.348929,0.0364384,0.129653,-1.69441,-0.236883,1.58238,1.21978,-0.510468,0.109113,-0.525934,-0.170528,0.544413,0.208183,-0.15455,2.89569,-38.6641,2.86134,27.0541,-0.0534094,2.11114,-0.204056,-0.0719021,-0.0570976,-1.41653,0.630007,0.685997,0.0859886,0.124574,0.877747,0.0600162,-0.715361,0.383505,-0.113981,-0.190703,
-0.358882,0.0357815,0.119559,-1.70143,-0.207688,0.0152802,0.423711,-0.368066,0.0248484,-0.382541,-0.198097,0.794152,0.124674,-0.242147,0,0,0,0,0,0,0,-0.348929,0.0364384,0.129653,-1.69441,-0.236883,1.58238,1.21978,-0.510468,0.109113,-0.525934,-0.170528,0.544413,0.208183,-0.15455,2.89569,-38.6641,2.86134,27.0541,-0.0534094,2.11114,-0.204056,-0.120477,0.914707,-1.62454,0.0965831,0.724437,0.615248,0.660912,0.85656,0.57328,-0.791551,0.452303,-0.0932257,-0.191312,
-0.360321,0.0358697,0.118062,-1.70222,-0.204571,0.0157829,0.422752,-0.359694,0.0220344,-0.374191,-0.19749,0.779215,0.125675,-0.239812,0,0,0,0,0,0,0,-0.348929,0.0364384,0.129653,-1.69441,-0.236883,1.58238,1.21978,-0.510468,0.109113,-0.525934,-0.170528,0.544413,0.208183,-0.15455,2.89569,-38.6641,2.86134,27.0541,-0.0534094,2.11114,-0.204056,-0.120477,0.914707,-1.62454,0.0965831,0.724437,0.615248,0.660912,0.85656,0.57328,-0.791551,0.452303,-0.0932257,-0.191312,
-0.361728,0.035947,0.116597,-1.70301,-0.201519,0.0163045,0.421801,-0.351779,0.0193437,-0.366306,-0.197188,0.76293,0.130391,-0.237664,0,0,0,0,0,0,0,-0.348929,0.0364384,0.129653,-1.69441,-0.236883,1.58238,1.21978,-0.510468,0.109113,-0.525934,-0.170528,0.544413,0.208183,-0.15455,2.89569,-38.6641,2.86134,27.0541,-0.0534094,2.11114,-0.204056,-1.13868,0.383912,-1.66813,0.449983,0.100349,0.166798,0.211917,0.654144,0.136245,-0.825264,0.441315,-0.142548,-0.189038,
-0.355179,0.0351384,0.123358,-1.69953,-0.212378,0.0136266,0.424956,-0.421794,0.0271598,-0.437444,-0.212926,1.01522,0.134335,-0.282498,0,0,0,0,0,0,0,-0.364668,0.0396327,0.113336,-1.69926,-0.219078,1.58778,1.21456,-0.493796,0.0966942,-0.499753,-0.142137,0.567617,0.145099,-0.18431,3.55426,-38.8149,3.63893,27.2763,0.465695,2.25762,-0.217789,-1.20421,-1.56113,-1.98527,1.60675,0.247985,-0.901321,-0.867868,0.998479,-0.90168,-0.953558,0.280459,-0.177822,-0.187838,
-0.38467,0.0409581,0.0926242,-1.70895,-0.178051,0.0242042,0.416369,-0.355512,0.0107861,-0.370168,-0.190615,0.899595,0.120676,-0.250719,0,0,0,0,0,0,0,-0.364668,0.0396327,0.113336,-1.69926,-0.219078,1.58778,1.21456,-0.493796,0.0966942,-0.499753,-0.142137,0.567617,0.145099,-0.18431,3.55426,-38.8149,3.63893,27.2763,0.465695,2.25762,-0.217789,-1.20421,-1.56113,-1.98527,1.60675,0.247985,-0.901321,-0.867868,0.998479,-0.90168,-0.953558,0.280459,-0.177822,-0.187838,
-0.386054,0.0409924,0.0911811,-1.7097,-0.174498,0.0246594,0.415377,-0.346099,0.00859232,-0.360767,-0.188433,0.888112,0.113791,-0.248147,0,0,0,0,0,0,0,-0.364668,0.0396327,0.113336,-1.69926,-0.219078,1.58778,1.21456,-0.493796,0.0966942,-0.499753,-0.142137,0.567617,0.145099,-0.18431,3.55426,-38.8149,3.63893,27.2763,0.465695,2.25762,-0.217789,-1.29878,-1.7076,-2.4567,1.75985,0.441575,-0.998924,-0.966318,1.25008,-0.997078,-1.1718,0.257765,-0.213913,-0.186337,
-0.387403,0.0410177,0.0897736,-1.71045,-0.17101,0.0250906,0.414394,-0.337204,0.00631577,-0.351887,-0.186783,0.872014,0.107804,-0.245662,0,0,0,0,0,0,0,-0.364668,0.0396327,0.113336,-1.69926,-0.219078,1.58778,1.21456,-0.493796,0.0966942,-0.499753,-0.142137,0.567617,0.145099,-0.18431,3.55426,-38.8149,3.63893,27.2763,0.465695,2.25762,-0.217789,-1.29878,-1.7076,-2.4567,1.75985,0.441575,-0.998924,-0.966318,1.25008,-0.997078,-1.1718,0.257765,-0.213913,-0.186337,
-0.388718,0.0410339,0.0883995,-1.71119,-0.1676,0.0255039,0.413421,-0.32882,0.00404839,-0.34353,-0.18553,0.852408,0.103336,-0.243272,0,0,0,0,0,0,0,-0.364668,0.0396327,0.113336,-1.69926,-0.219078,1.58778,1.21456,-0.493796,0.0966942,-0.499753,-0.142137,0.567617,0.145099,-0.18431,3.55426,-38.8149,3.63893,27.2763,0.465695,2.25762,-0.217789,-1.8312,0.893422,-2.14743,0.196155,-0.0892163,0.31729,0.36233,0.666584,0.283421,-1.0601,0.408251,-0.195644,-0.188651,
-0.390002,0.0410412,0.0870568,-1.71193,-0.16428,0.025909,0.412457,-0.320925,0.00182786,-0.335671,-0.184669,0.830183,0.101268,-0.240999,0,0,0,0,0,0,0,-0.380014,0.0423721,0.0974333,-1.70392,-0.199934,1.59138,1.2097,-0.466102,0.0697133,-0.486477,-0.147206,0.625633,0.0944044,-0.127559,3.35193,-38.8387,3.23823,26.4035,0.953671,2.26403,-0.270889,-1.8312,0.893422,-2.14743,0.196155,-0.0892163,0.31729,0.36233,0.666584,0.283421,-1.0601,0.408251,-0.195644,-0.188651,
-0.391256,0.0410399,0.0857437,-1.71267,-0.161055,0.0263195,0.411501,-0.313484,-0.000320101,-0.328275,-0.184231,0.806067,0.102614,-0.238886,0,0,0,0,0,0,0,-0.380014,0.0423721,0.0974333,-1.70392,-0.199934,1.59138,1.2097,-0.466102,0.0697133,-0.486477,-0.147206,0.625633,0.0944044,-0.127559,3.35193,-38.8387,3.23823,26.4035,0.953671,2.26403,-0.270889,-1.46841,1.12017,-2.55653,0.155637,0.309846,0.496025,0.540697,0.938754,0.45943,-1.21326,0.447105,-0.17686,-0.190861,
-0.384433,0.0404647,0.0928177,-1.70934,-0.176716,0.0242266,0.414864,-0.351495,-0.00259995,-0.367159,-0.198229,1.00787,0.12515,-0.280024,0,0,0,0,0,0,0,-0.380014,0.0423721,0.0974333,-1.70392,-0.199934,1.59138,1.2097,-0.466102,0.0697133,-0.486477,-0.147206,0.625633,0.0944044,-0.127559,3.35193,-38.8387,3.23823,26.4035,0.953671,2.26403,-0.270889,-1.5065,-0.504919,-2.63229,1.11669,0.33069,-0.395398,-0.353784,1.1304,-0.411734,-1.22485,0.338368,-0.182346,-0.187611,
-0.397705,0.0426709,0.0790534,-1.71322,-0.160717,0.0264828,0.411649,-0.29778,-0.010825,-0.312659,-0.185954,0.804212,0.15371,-0.249092,0,0,0,0,0,0,0,-0.380014,0.0423721,0.0974333,-1.70392,-0.199934,1.59138,1.2097,-0.466102,0.0697133,-0.486477,-0.147206,0.625633,0.0944044,-0.127559,3.35193,-38.8387,3.23823,26.4035,0.953671,2.26403,-0.270889,-1.5065,-0.504919,-2.63229,1.11669,0.33069,-0.395398,-0.353784,1.1304,-0.411734,-1.22485,0.338368,-0.182346,-0.187611,
-0.398857,0.0426213,0.0778407,-1.71395,-0.157575,0.0271098,0.410662,-0.288128,-0.0123937,-0.303176,-0.183182,0.785511,0.156747,-0.246717,0,0,0,0,0,0,0,-0.380014,0.0423721,0.0974333,-1.70392,-0.199934,1.59138,1.2097,-0.466102,0.0697133,-0.486477,-0.147206,0.625633,0.0944044,-0.127559,3.35193,-38.8387,3.23823,26.4035,0.953671,2.26403,-0.270889,-1.5748,-0.593953,-2.63691,1.17614,0.294419,-0.459956,-0.421326,1.13186,-0.471484,-1.23507,0.325799,-0.192599,-0.190463,
-0.399975,0.0425648,0.0766619,-1.71467,-0.154504,0.0277423,0.409684,-0.279482,-0.0141316,-0.294684,-0.180786,0.767746,0.158142,-0.244392,0,0,0,0,0,0,0,-0.380014,0.0423721,0.0974333,-1.70392,-0.199934,1.59138,1.2097,-0.466102,0.0697133,-0.486477,-0.147206,0.625633,0.0944044,-0.127559,3.35193,-38.8387,3.23823,26.4035,0.953671,2.26403,-0.270889,-1.5748,-0.593953,-2.63691,1.17614,0.294419,-0.459956,-0.421326,1.13186,-0.471484,-1.23507,0.325799,-0.192599,-0.190463,
-0.401062,0.042501,0.0755135,-1.71539,-0.151498,0.0283761,0.408716,-0.27175,-0.0159405,-0.287097,-0.178686,0.751654,0.158449,-0.242105,0,0,0,0,0,0,0,-0.397602,0.0442333,0.0788791,-1.71036,-0.173894,1.59426,1.20376,-0.404274,0.0285434,-0.423161,-0.157341,0.630594,0.057434,-0.147106,2.79651,-38.188,2.73836,26.4789,0.489498,2.36382,-0.183914,-1.52927,-1.69045,-2.78117,1.87329,0.372581,-1.04784,-1.01541,1.32104,-1.04003,-1.26538,0.292939,-0.178682,-0.188879,
-0.402122,0.04243,0.0743922,-1.7161,-0.148546,0.0290092,0.407756,-0.264857,-0.0177602,-0.280344,-0.176861,0.738064,0.15826,-0.239866,0,0,0,0,0,0,0,-0.397602,0.0442333,0.0788791,-1.71036,-0.173894,1.59426,1.20376,-0.404274,0.0285434,-0.423161,-0.157341,0.630594,0.057434,-0.147106,2.79651,-38.188,2.73836,26.4789,0.489498,2.36382,-0.183914,-1.50307,-1.28711,-2.78038,1.65107,0.370321,-0.831375,-0.792439,1.28051,-0.83379,-1.26281,0.321025,-0.170223,-0.190786,
-0.403157,0.0423518,0.0732947,-1.7168,-0.145634,0.0296419,0.406805,-0.258739,-0.0195447,-0.274361,-0.175312,0.727864,0.158172,-0.237687,0,0,0,0,0,0,0,-0.397602,0.0442333,0.0788791,-1.71036,-0.173894,1.59426,1.20376,-0.404274,0.0285434,-0.423161,-0.157341,0.630594,0.057434,-0.147106,2.79651,-38.188,2.73836,26.4789,0.489498,2.36382,-0.183914,-1.50307,-1.28711,-2.78038,1.65107,0.370321,-0.831375,-0.792439,1.28051,-0.83379,-1.26281,0.321025,-0.170223,-0.190786,
-0.397933,0.0421106,0.0787499,-1.71374,-0.157765,0.0279278,0.410163,-0.309737,-0.025577,-0.32618,-0.195046,0.998883,0.18878,-0.278032,0,0,0,0,0,0,0,-0.397602,0.0442333,0.0788791,-1.71036,-0.173894,1.59426,1.20376,-0.404274,0.0285434,-0.423161,-0.157341,0.630594,0.057434,-0.147106,2.79651,-38.188,2.73836,26.4789,0.489498,2.36382,-0.183914,-0.714068,0.970711,-2.63126,0.328842,0.736005,0.520606,0.570096,1.15233,0.480395,-1.19239,0.467515,-0.120484,-0.195963,
-0.41302,0.0433177,0.0627155,-1.71932,-0.13238,0.030211,0.405806,-0.264366,-0.0318091,-0.280292,-0.170045,0.960029,0.118157,-0.247344,0,0,0,0,0,0,0,-0.397602,0.0442333,0.0788791,-1.71036,-0.173894,1.59426,1.20376,-0.404274,0.0285434,-0.423161,-0.157341,0.630594,0.057434,-0.147106,2.79651,-38.188,2.73836,26.4789,0.489498,2.36382,-0.183914,-0.714068,0.970711,-2.63126,0.328842,0.736005,0.520606,0.570096,1.15233,0.480395,-1.19239,0.467515,-0.120484,-0.195963,
-0.414044,0.0431837,0.0616277,-1.72,-0.128554,0.0306449,0.404826,-0.256092,-0.0335028,-0.271938,-0.167852,0.956508,0.108482,-0.244946,0,0,0,0,0,0,0,-0.410134,0.0449112,0.0656639,-1.71533,-0.155541,1.5956,1.19883,-0.365084,0.0186692,-0.404049,-0.149777,0.544865,0.0251409,-0.165332,3.35193,-38.2634,3.26204,27.2009,0.465695,2.50939,-0.183914,-0.74116,-0.139253,-2.63199,0.956195,0.69778,-0.0752413,-0.0307399,1.22933,-0.0988578,-1.14517,0.3859,-0.0870384,-0.191981,
-0.415036,0.0430426,0.0605728,-1.72066,-0.124778,0.0310424,0.403856,-0.247947,-0.0352699,-0.263738,-0.166202,0.944112,0.099371,-0.242631,0,0,0,0,0,0,0,-0.410134,0.0449112,0.0656639,-1.71533,-0.155541,1.5956,1.19883,-0.365084,0.0186692,-0.404049,-0.149777,0.544865,0.0251409,-0.165332,3.35193,-38.2634,3.26204,27.2009,0.465695,2.50939,-0.183914,-0.74116,-0.139253,-2.63199,0.956195,0.69778,-0.0752413,-0.0307399,1.22933,-0.0988578,-1.14517,0.3859,-0.0870384,-0.191981,
-0.415996,0.0428945,0.0595495,-1.72132,-0.121078,0.031409,0.402894,-0.240055,-0.0370379,-0.255834,-0.164998,0.925063,0.0916367,-0.24042,0,0,0,0,0,0,0,-0.410134,0.0449112,0.0656639,-1.71533,-0.155541,1.5956,1.19883,-0.365084,0.0186692,-0.404049,-0.149777,0.544865,0.0251409,-0.165332,3.35193,-38.2634,3.26204,27.2009,0.465695,2.50939,-0.183914,-1.27076,-0.804267,-1.62505,1.06904,-0.135722,-0.527529,-0.475081,0.58604,-0.551596,-0.674056,0.255369,-0.0275297,-0.189297,
-0.416926,0.0427394,0.0585563,-1.72198,-0.117473,0.0317543,0.401941,-0.232501,-0.0387723,-0.248299,-0.164247,0.901063,0.0863408,-0.23833,0,0,0,0,0,0,0,-0.410134,0.0449112,0.0656639,-1.71533,-0.155541,1.5956,1.19883,-0.365084,0.0186692,-0.404049,-0.149777,0.544865,0.0251409,-0.165332,3.35193,-38.2634,3.26204,27.2009,0.465695,2.50939,-0.183914,0.269498,-0.376925,-1.98771,0.966599,0.958441,-0.00200489,0.0582086,1.1356,-0.043539,-0.797706,0.367421,0.0138557,-0.189476,
-0.417828,0.0425776,0.0575916,-1.72263,-0.11398,0.0320933,0.400995,-0.22532,-0.0404461,-0.241158,-0.163998,0.873425,0.0847343,-0.236391,0,0,0,0,0,0,0,-0.410134,0.0449112,0.0656639,-1.71533,-0.155541,1.5956,1.19883,-0.365084,0.0186692,-0.404049,-0.149777,0.544865,0.0251409,-0.165332,3.35193,-38.2634,3.26204,27.2009,0.465695,2.50939,-0.183914,0.269498,-0.376925,-1.98771,0.966599,0.958441,-0.00200489,0.0582086,1.1356,-0.043539,-0.797706,0.367421,0.0138557,-0.189476,
-0.412632,0.0427999,0.0630755,-1.71974,-0.131804,0.0318277,0.404427,-0.252524,-0.0456934,-0.26919,-0.176403,0.996274,0.158506,-0.274198,0,0,0,0,0,0,0,-0.410134,0.0449112,0.0656639,-1.71533,-0.155541,1.5956,1.19883,-0.365084,0.0186692,-0.404049,-0.149777,0.544865,0.0251409,-0.165332,3.35193,-38.2634,3.26204,27.2009,0.465695,2.50939,-0.183914,-0.163119,-1.80355,-1.53142,1.77362,0.430433,-0.859654,-0.810907,0.923205,-0.867959,-0.570338,0.360094,0.041398,-0.185521,
-0.423602,0.0433119,0.0514589,-1.72397,-0.117859,0.0295242,0.400987,-0.212156,-0.0478292,-0.227969,-0.172109,0.778248,0.162254,-0.245808,0,0,0,0,0,0,0,-0.422062,0.0451212,0.0532835,-1.72037,-0.135039,1.59589,1.1931,-0.326449,0.00145626,-0.360054,-0.14571,0.640562,0.00206048,-0.177187,3.20118,-38.2396,3.18666,27.4747,1.05804,2.74102,-0.157364,-0.163119,-1.80355,-1.53142,1.77362,0.430433,-0.859654,-0.810907,0.923205,-0.867959,-0.570338,0.360094,0.041398,-0.185521,
-0.424413,0.0431171,0.0505841,-1.72465,-0.114846,0.0302044,0.400012,-0.20271,-0.048708,-0.218699,-0.169011,0.753222,0.170052,-0.243651,0,0,0,0,0,0,0,-0.422062,0.0451212,0.0532835,-1.72037,-0.135039,1.59589,1.1931,-0.326449,0.00145626,-0.360054,-0.14571,0.640562,0.00206048,-0.177187,3.20118,-38.2396,3.18666,27.4747,1.05804,2.74102,-0.157364,-1.02144,-2.60905,-1.67889,2.26431,-0.0300651,-1.46086,-1.4176,0.859501,-1.4504,-0.634045,0.305408,0.0194911,-0.186434,
-0.42519,0.042918,0.0497425,-1.72531,-0.111935,0.0309023,0.399046,-0.194241,-0.0497797,-0.210397,-0.166208,0.727979,0.174475,-0.241531,0,0,0,0,0,0,0,-0.422062,0.0451212,0.0532835,-1.72037,-0.135039,1.59589,1.1931,-0.326449,0.00145626,-0.360054,-0.14571,0.640562,0.00206048,-0.177187,3.20118,-38.2396,3.18666,27.4747,1.05804,2.74102,-0.157364,-1.02144,-2.60905,-1.67889,2.26431,-0.0300651,-1.46086,-1.4176,0.859501,-1.4504,-0.634045,0.305408,0.0194911,-0.186434,
-0.425937,0.0427141,0.0489305,-1.72597,-0.109121,0.0316082,0.398089,-0.186683,-0.050977,-0.202998,-0.163734,0.703398,0.176461,-0.239435,0,0,0,0,0,0,0,-0.422062,0.0451212,0.0532835,-1.72037,-0.135039,1.59589,1.1931,-0.326449,0.00145626,-0.360054,-0.14571,0.640562,0.00206048,-0.177187,3.20118,-38.2396,3.18666,27.4747,1.05804,2.74102,-0.157364,-1.00938,-0.569406,-1.7275,1.14759,-0.031192,-0.402133,-0.348593,0.676376,-0.421595,-0.699369,0.470094,-0.00862755,-0.188035,
-0.426656,0.0425051,0.0481447,-1.72661,-0.106399,0.0323156,0.397139,-0.179983,-0.0522343,-0.196452,-0.161602,0.680432,0.176848,-0.237367,0,0,0,0,0,0,0,-0.422062,0.0451212,0.0532835,-1.72037,-0.135039,1.59589,1.1931,-0.326449,0.00145626,-0.360054,-0.14571,0.640562,0.00206048,-0.177187,3.20118,-38.2396,3.18666,27.4747,1.05804,2.74102,-0.157364,-1.00938,-0.569406,-1.7275,1.14759,-0.031192,-0.402133,-0.348593,0.676376,-0.421595,-0.699369,0.470094,-0.00862755,-0.188035,
-0.423682,0.0427241,0.0513125,-1.72453,-0.115193,0.0326477,0.399625,-0.220494,-0.0631982,-0.237868,-0.180543,0.979615,0.237723,-0.27248,0,0,0,0,0,0,0,-0.432386,0.0451572,0.0423915,-1.72457,-0.115371,1.59594,1.1884,-0.297724,-0.0010762,-0.331936,-0.125268,0.530498,0.0053844,-0.12477,3.78437,-38.065,3.53578,27.2763,0.948178,2.66869,-0.278213,-1.2224,0.428327,-1.82621,0.594035,-0.127863,0.0701088,0.128056,0.562467,0.0369203,-0.765545,0.523143,-0.0298355,-0.190601,
-0.443458,0.0425786,0.030522,-1.7329,-0.0781366,0.0334716,0.390659,-0.178639,-0.0639042,-0.195607,-0.155903,0.833888,0.167826,-0.244076,0,0,0,0,0,0,0,-0.432386,0.0451572,0.0423915,-1.72457,-0.115371,1.59594,1.1884,-0.297724,-0.0010762,-0.331936,-0.125268,0.530498,0.0053844,-0.12477,3.78437,-38.065,3.53578,27.2763,0.948178,2.66869,-0.278213,-1.56521,0.0963463,-2.15358,0.81943,-0.165283,-0.172892,-0.116841,0.68232,-0.200658,-0.911045,0.460041,-0.0523596,-0.194098,
-0.444144,0.0423181,0.0297682,-1.73352,-0.0748372,0.0340937,0.389692,-0.171512,-0.0651468,-0.188451,-0.15324,0.82484,0.155529,-0.241859,0,0,0,0,0,0,0,-0.432386,0.0451572,0.0423915,-1.72457,-0.115371,1.59594,1.1884,-0.297724,-0.0010762,-0.331936,-0.125268,0.530498,0.0053844,-0.12477,3.78437,-38.065,3.53578,27.2763,0.948178,2.66869,-0.278213,-1.56521,0.0963463,-2.15358,0.81943,-0.165283,-0.172892,-0.116841,0.68232,-0.200658,-0.911045,0.460041,-0.0523596,-0.194098,
-0.444803,0.0420521,0.0290416,-1.73412,-0.0715979,0.0346623,0.388733,-0.164723,-0.0664957,-0.181672,-0.151078,0.809834,0.142165,-0.239704,0,0,0,0,0,0,0,-0.432386,0.0451572,0.0423915,-1.72457,-0.115371,1.59594,1.1884,-0.297724,-0.0010762,-0.331936,-0.125268,0.530498,0.0053844,-0.12477,3.78437,-38.065,3.53578,27.2763,0.948178,2.66869,-0.278213,-1.55419,0.0340116,-2.47504,0.921138,-0.0110769,-0.201127,-0.140973,0.854916,-0.232713,-1.0426,0.451195,-0.0577177,-0.199532,
-0.445437,0.0417807,0.0283402,-1.73472,-0.068436,0.0351753,0.387782,-0.158345,-0.0678513,-0.175328,-0.149288,0.790453,0.128239,-0.237602,0,0,0,0,0,0,0,-0.432386,0.0451572,0.0423915,-1.72457,-0.115371,1.59594,1.1884,-0.297724,-0.0010762,-0.331936,-0.125268,0.530498,0.0053844,-0.12477,3.78437,-38.065,3.53578,27.2763,0.948178,2.66869,-0.278213,-1.55419,0.0340116,-2.47504,0.921138,-0.0110769,-0.201127,-0.140973,0.854916,-0.232713,-1.0426,0.451195,-0.0577177,-0.199532,
-0.446046,0.041504,0.0276625,-1.73531,-0.0653645,0.0356332,0.38684,-0.152413,-0.0691648,-0.169445,-0.147855,0.767899,0.114481,-0.235553,0,0,0,0,0,0,0,-0.432386,0.0451572,0.0423915,-1.72457,-0.115371,1.59594,1.1884,-0.297724,-0.0010762,-0.331936,-0.125268,0.530498,0.0053844,-0.12477,3.78437,-38.065,3.53578,27.2763,0.948178,2.66869,-0.278213,-1.3502,0.706501,-2.19415,0.49619,-0.0978072,0.194392,0.260722,0.631073,0.150772,-0.876532,0.527386,0.00479562,-0.210606,
-0.446634,0.0412224,0.0270064,-1.7359,-0.0623922,0.0360407,0.385906,-0.146928,-0.0704071,-0.164017,-0.146822,0.743075,0.10187,-0.233562,0,0,0,0,0,0,0,-0.441856,0.0449762,0.032228,-1.72819,-0.0982939,1.59613,1.18402,-0.284879,-0.0117689,-0.285228,-0.110065,0.532927,0.00280756,-0.140373,2.79651,-36.8907,2.78596,26.8042,1.6806,2.79412,-0.217789,-1.15838,-0.268936,-2.49206,1.16807,0.119644,-0.268838,-0.210122,0.920487,-0.293176,-0.953574,0.531689,0.0396421,-0.218318,
-0.442977,0.0420632,0.0309839,-1.73331,-0.0752599,0.0370673,0.389441,-0.164565,-0.0776177,-0.18218,-0.160313,0.976093,0.254673,-0.267866,0,0,0,0,0,0,0,-0.441856,0.0449762,0.032228,-1.72819,-0.0982939,1.59613,1.18402,-0.284879,-0.0117689,-0.285228,-0.110065,0.532927,0.00280756,-0.140373,2.79651,-36.8907,2.78596,26.8042,1.6806,2.79412,-0.217789,-1.15838,-0.268936,-2.49206,1.16807,0.119644,-0.268838,-0.210122,0.920487,-0.293176,-0.953574,0.531689,0.0396421,-0.218318,
-0.450967,0.041774,0.0223334,-1.736,-0.0640889,0.0307865,0.386478,-0.130092,-0.0787483,-0.146997,-0.157935,0.650955,0.151011,-0.240442,0,0,0,0,0,0,0,-0.441856,0.0449762,0.032228,-1.72819,-0.0982939,1.59613,1.18402,-0.284879,-0.0117689,-0.285228,-0.110065,0.532927,0.00280756,-0.140373,2.79651,-36.8907,2.78596,26.8042,1.6806,2.79412,-0.217789,-1.66907,-2.02208,-2.72718,2.20619,-0.0608729,-1.28438,-1.23475,1.10991,-1.27999,-1.0315,0.403278,0.0398231,-0.223205,
-0.451456,0.0414598,0.0217769,-1.73663,-0.06163,0.0314327,0.385525,-0.122106,-0.0785513,-0.13912,-0.155355,0.614708,0.161556,-0.23823,0,0,0,0,0,0,0,-0.441856,0.0449762,0.032228,-1.72819,-0.0982939,1.59613,1.18402,-0.284879,-0.0117689,-0.285228,-0.110065,0.532927,0.00280756,-0.140373,2.79651,-36.8907,2.78596,26.8042,1.6806,2.79412,-0.217789,-1.66907,-2.02208,-2.72718,2.20619,-0.0608729,-1.28438,-1.23475,1.10991,-1.27999,-1.0315,0.403278,0.0398231,-0.223205,
-0.451915,0.0411457,0.0212488,-1.73724,-0.0593266,0.0320984,0.38458,-0.114885,-0.0785191,-0.132014,-0.152557,0.575864,0.166434,-0.236171,0,0,0,0,0,0,0,-0.441856,0.0449762,0.032228,-1.72819,-0.0982939,1.59613,1.18402,-0.284879,-0.0117689,-0.285228,-0.110065,0.532927,0.00280756,-0.140373,2.79651,-36.8907,2.78596,26.8042,1.6806,2.79412,-0.217789,-2.49895,-2.08224,-2.92142,2.26518,-0.44685,-1.50468,-1.45339,1.03138,-1.49811,-1.15944,0.358887,-0.015936,-0.230295,
-0.452349,0.0408308,0.0207461,-1.73784,-0.0571834,0.0327684,0.383644,-0.108443,-0.0787291,-0.125692,-0.149989,0.535788,0.167487,-0.23411,0,0,0,0,0,0,0,-0.449725,0.0445149,0.0235671,-1.73151,-0.0801924,1.59633,1.17978,-0.23402,-0.0121684,-0.251354,-0.101322,0.570078,0.0173086,-0.131858,2.84412,-37.4144,2.76216,26.3797,1.44256,2.60918,-0.250748,-2.49895,-2.08224,-2.92142,2.26518,-0.44685,-1.50468,-1.45339,1.03138,-1.49811,-1.15944,0.358887,-0.015936,-0.230295,
-0.45276,0.0405142,0.0202654,-1.73843,-0.0551991,0.0334329,0.382715,-0.102805,-0.0791351,-0.12018,-0.147809,0.49609,0.166118,-0.232027,0,0,0,0,0,0,0,-0.449725,0.0445149,0.0235671,-1.73151,-0.0801924,1.59633,1.17978,-0.23402,-0.0121684,-0.251354,-0.101322,0.570078,0.0173086,-0.131858,2.84412,-37.4144,2.76216,26.3797,1.44256,2.60918,-0.250748,-2.1705,-0.417725,-2.81381,1.30032,-0.356503,-0.577382,-0.513559,0.837643,-0.601563,-1.10761,0.477485,0.00502434,-0.235923,
-0.453152,0.0401956,0.0198032,-1.73901,-0.0533638,0.0340871,0.381796,-0.0980185,-0.0796575,-0.115531,-0.146086,0.458827,0.163565,-0.229904,0,0,0,0,0,0,0,-0.449725,0.0445149,0.0235671,-1.73151,-0.0801924,1.59633,1.17978,-0.23402,-0.0121684,-0.251354,-0.101322,0.570078,0.0173086,-0.131858,2.84412,-37.4144,2.76216,26.3797,1.44256,2.60918,-0.250748,-2.1705,-0.417725,-2.81381,1.30032,-0.356503,-0.577382,-0.513559,0.837643,-0.601563,-1.10761,0.477485,0.00502434,-0.235923,
-0.450926,0.041157,0.0223218,-1.73662,-0.0586873,0.0356437,0.385271,-0.131803,-0.0943554,-0.149579,-0.165684,0.923717,0.266304,-0.263787,0,0,0,0,0,0,0,-0.449725,0.0445149,0.0235671,-1.73151,-0.0801924,1.59633,1.17978,-0.23402,-0.0121684,-0.251354,-0.101322,0.570078,0.0173086,-0.131858,2.84412,-37.4144,2.76216,26.3797,1.44256,2.60918,-0.250748,-1.81122,0.834411,-3.02287,0.594744,-0.038171,0.155298,0.225772,0.891406,0.107942,-1.2123,0.505864,-0.00955753,-0.240812,
-0.456954,0.0409394,0.0155106,-1.73938,-0.0514531,0.0350013,0.382462,-0.111839,-0.0862141,-0.13091,-0.152806,0.664924,0.215041,-0.23654,0,0,0,0,0,0,0,-0.449725,0.0445149,0.0235671,-1.73151,-0.0801924,1.59633,1.17978,-0.23402,-0.0121684,-0.251354,-0.101322,0.570078,0.0173086,-0.131858,2.84412,-37.4144,2.76216,26.3797,1.44256,2.60918,-0.250748,-2.27153,1.12361,-2.96521,0.379277,-0.307845,0.197071,0.265999,0.73554,0.14854,-1.23301,0.458678,-0.0536349,-0.246287,
-0.457394,0.040595,0.0149961,-1.73998,-0.0486369,0.0358396,0.381525,-0.110052,-0.0861057,-0.128638,-0.14976,0.704052,0.209575,-0.234331,0,0,0,0,0,0,0,-0.457146,0.0438714,0.0156558,-1.73494,-0.0652488,1.59703,1.17513,-0.18364,-0.0189649,-0.232667,-0.104517,0.354885,0.0359484,-0.149858,3.09803,-37.0653,2.98829,25.983,1.22833,2.46911,-0.197647,-2.27153,1.12361,-2.96521,0.379277,-0.307845,0.197071,0.265999,0.73554,0.14854,-1.23301,0.458678,-0.0536349,-0.246287,
-0.457823,0.0402498,0.0144949,-1.74057,-0.0457361,0.0366421,0.380596,-0.107043,-0.0862866,-0.125291,-0.147016,0.725194,0.200625,-0.232153,0,0,0,0,0,0,0,-0.457146,0.0438714,0.0156558,-1.73494,-0.0652488,1.59703,1.17513,-0.18364,-0.0189649,-0.232667,-0.104517,0.354885,0.0359484,-0.149858,3.09803,-37.0653,2.98829,25.983,1.22833,2.46911,-0.197647,-2.89677,0.540485,-2.70791,0.646709,-0.803439,-0.256738,-0.193105,0.511378,-0.291123,-1.12985,0.406704,-0.0566023,-0.248431,
-0.458236,0.039903,0.0140095,-1.74115,-0.0428047,0.0373998,0.379676,-0.103314,-0.0867012,-0.121344,-0.144684,0.732855,0.189428,-0.230078,0,0,0,0,0,0,0,-0.457146,0.0438714,0.0156558,-1.73494,-0.0652488,1.59703,1.17513,-0.18364,-0.0189649,-0.232667,-0.104517,0.354885,0.0359484,-0.149858,3.09803,-37.0653,2.98829,25.983,1.22833,2.46911,-0.197647,-2.89677,0.540485,-2.70791,0.646709,-0.803439,-0.256738,-0.193105,0.511378,-0.291123,-1.12985,0.406704,-0.0566023,-0.248431,
-0.458633,0.0395539,0.0135411,-1.74172,-0.0398836,0.0381082,0.378763,-0.0992123,-0.0872731,-0.117108,-0.142796,0.730274,0.177096,-0.228098,0,0,0,0,0,0,0,-0.457146,0.0438714,0.0156558,-1.73494,-0.0652488,1.59703,1.17513,-0.18364,-0.0189649,-0.232667,-0.104517,0.354885,0.0359484,-0.149858,3.09803,-37.0653,2.98829,25.983,1.22833,2.46911,-0.197647,-2.57835,0.0145767,-2.99272,1.02807,-0.486405,-0.4442,-0.37906,0.793611,-0.475835,-1.22351,0.394132,-0.0391502,-0.257609,
-0.456688,0.0404279,0.0157584,-1.73986,-0.0427358,0.0390197,0.381312,-0.0959057,-0.0997525,-0.11493,-0.157341,0.884014,0.305892,-0.258551,0,0,0,0,0,0,0,-0.457146,0.0438714,0.0156558,-1.73494,-0.0652488,1.59703,1.17513,-0.18364,-0.0189649,-0.232667,-0.104517,0.354885,0.0359484,-0.149858,3.09803,-37.0653,2.98829,25.983,1.22833,2.46911,-0.197647,-2.57835,0.0145767,-2.99272,1.02807,-0.486405,-0.4442,-0.37906,0.793611,-0.475835,-1.22351,0.394132,-0.0391502,-0.257609,
-0.463376,0.0400545,0.00859773,-1.74263,-0.0342736,0.0342675,0.377976,-0.0742288,-0.0929914,-0.0914436,-0.15043,0.56901,0.179592,-0.23305,0,0,0,0,0,0,0,-0.457146,0.0438714,0.0156558,-1.73494,-0.0652488,1.59703,1.17513,-0.18364,-0.0189649,-0.232667,-0.104517,0.354885,0.0359484,-0.149858,3.09803,-37.0653,2.98829,25.983,1.22833,2.46911,-0.197647,-2.63328,-0.968034,-2.84562,1.57914,-0.603657,-0.959901,-0.902046,0.806415,-0.973385,-1.12963,0.364701,-0.00707639,-0.263216,
-0.463641,0.0396812,0.0082633,-1.74323,-0.0322045,0.034994,0.377052,-0.0661917,-0.0933328,-0.0836091,-0.147672,0.517265,0.181637,-0.231043,0,0,0,0,0,0,0,-0.462736,0.042981,0.00921596,-1.73834,-0.0520943,1.5985,1.1715,-0.17225,-0.0253198,-0.182808,-0.109916,0.457991,0.0393601,-0.089156,2.2887,-37.1169,2.26228,26.6534,1.29608,2.59545,-0.250748,-2.69533,-1.23182,-2.66043,1.69696,-0.727623,-1.10819,-1.05157,0.729468,-1.11754,-1.05089,0.353443,-0.00184306,-0.27079,
-0.463878,0.0393058,0.00795604,-1.74381,-0.0303436,0.0357135,0.376135,-0.0592207,-0.0938277,-0.0768129,-0.145101,0.465233,0.179864,-0.229151,0,0,0,0,0,0,0,-0.462736,0.042981,0.00921596,-1.73834,-0.0520943,1.5985,1.1715,-0.17225,-0.0253198,-0.182808,-0.109916,0.457991,0.0393601,-0.089156,2.2887,-37.1169,2.26228,26.6534,1.29608,2.59545,-0.250748,-2.69533,-1.23182,-2.66043,1.69696,-0.727623,-1.10819,-1.05157,0.729468,-1.11754,-1.05089,0.353443,-0.00184306,-0.27079,
