PerkyPenguin/Analysis-on-Approximated-Derivatives/Code_and_Data/PaperData/Real_Robot/Scene_1/set_interval/5/trajectory.csv
Commanded Joint 0 Position,Commanded Joint 1 Position,Commanded Joint 2 Position,Commanded Joint 3 Position,Commanded Joint 4 Position,Commanded Joint 5 Position,Commanded Joint 6 Position,Commanded Joint 0 Velocity,Commanded Joint 1 Velocity,Commanded Joint 2 Velocity,Commanded Joint 3 Velocity,Commanded Joint 4 Velocity,Commanded Joint 5 Velocity,Commanded Joint 6 Velocity,Commanded Joint 0 Torque,Commanded Joint 1 Torque,Commanded Joint 2 Torque,Commanded Joint 3 Torque,Commanded Joint 4 Torque,Commanded Joint 5 Torque,Commanded Joint 6 Torque,Actual Joint 0 Position,Actual Joint 1 Position,Actual Joint 2 Position,Actual Joint 3 Position,Actual Joint 4 Position,Actual Joint 5 Position,Actual Joint 6 Position,Actual Joint 0 Velocity,Actual Joint 1 Velocity,Actual Joint 2 Velocity,Actual Joint 3 Velocity,Actual Joint 4 Velocity,Actual Joint 5 Velocity,Actual Joint 6 Velocity,Actual Joint 0 Torque,Actual Joint 1 Torque,Actual Joint 2 Torque,Actual Joint 3 Torque,Actual Joint 4 Torque,Actual Joint 5 Torque,Actual Joint 6 Torque,EE ext force 0,EE ext force 1,EE ext force 2,EE ext force 3,EE ext force 4,EE ext force 5,joint ext torque 0,joint ext torque 1,joint ext torque 2,joint ext torque 3,joint ext torque 4,joint ext torque 5,joint ext torque 6,
0.013866,-0.196838,-0.331347,-1.66203,-0.0931606,-0.0913246,-0.382919,-0.0017953,0.0188721,-0.0117703,-0.151737,0.00315498,0.201397,-0.00217063,0,0,0,0,0,0,0,0.0138769,-0.196896,-0.331258,-1.6605,-0.0931616,1.47746,0.402503,0.00191306,0.00305392,-0.000784013,-0.00138438,-0.000671528,0.000633322,-0.00117692,-0.147213,-25.6355,1.88936,26.0306,0.440975,2.9406,-0.0026396,-1.14992,-0.0349845,-0.297176,0.0603628,-0.435243,-0.177492,-0.07674,-0.0596264,-0.269072,-0.300548,-0.136367,-0.328956,-0.0350625,
0.0138537,-0.19669,-0.331406,-1.66268,-0.0931512,-0.0904909,-0.382927,-0.00309275,0.0371008,-0.0147005,-0.160804,0.0023354,0.208428,-0.00206498,0,0,0,0,0,0,0,0.0138769,-0.196896,-0.331258,-1.6605,-0.0931616,1.47746,0.402503,0.00191306,0.00305392,-0.000784013,-0.00138438,-0.000671528,0.000633322,-0.00117692,-0.147213,-25.6355,1.88936,26.0306,0.440975,2.9406,-0.0026396,-1.25279,-0.0445514,-0.221811,0.0506237,-0.544988,-0.199837,-0.0972861,-0.13506,-0.289768,-0.256153,-0.142057,-0.325295,-0.0350094,
0.0138837,-0.196861,-0.331253,-1.66052,-0.0931649,-0.0933392,-0.382896,0.000360088,0.00170399,0.000292803,-0.000891034,-0.000120421,-0.000342774,-1.43301e-05,0,0,0,0,0,0,0,0.0138769,-0.196896,-0.331258,-1.6605,-0.0931616,1.47746,0.402503,0.00191306,0.00305392,-0.000784013,-0.00138438,-0.000671528,0.000633322,-0.00117692,-0.147213,-25.6355,1.88936,26.0306,0.440975,2.9406,-0.0026396,-1.25279,-0.0445514,-0.221811,0.0506237,-0.544988,-0.199837,-0.0972861,-0.13506,-0.289768,-0.256153,-0.142057,-0.325295,-0.0350094,
0.013885,-0.196856,-0.331252,-1.66052,-0.0931653,-0.093341,-0.382896,0.000329628,0.00146183,0.000265981,-0.000784262,-7.91157e-05,-0.00045686,-1.27263e-05,0,0,0,0,0,0,0,0.0138769,-0.196896,-0.331258,-1.6605,-0.0931616,1.47746,0.402503,0.00191306,0.00305392,-0.000784013,-0.00138438,-0.000671528,0.000633322,-0.00117692,-0.147213,-25.6355,1.88936,26.0306,0.440975,2.9406,-0.0026396,-0.970818,-0.0468215,-0.391837,0.0772543,-0.275267,-0.149623,-0.050916,0.0406562,-0.242792,-0.34269,-0.13707,-0.313326,-0.036344,
0.0138862,-0.196851,-0.331251,-1.66053,-0.0931654,-0.0933431,-0.382896,0.000301059,0.00125023,0.000240192,-0.000689074,-4.69357e-05,-0.000535663,-1.12855e-05,0,0,0,0,0,0,0,0.0138675,-0.196951,-0.331254,-1.6606,-0.0931473,1.47754,0.402503,0.000397893,-0.00820463,0.0010744,-0.0180246,-4.39543e-05,0.0254476,-0.00135197,-0.0440639,-24.8103,1.78621,24.0152,0.354916,2.94701,-0.0026396,-0.970818,-0.0468215,-0.391837,0.0772543,-0.275267,-0.149623,-0.050916,0.0406562,-0.242792,-0.34269,-0.13707,-0.313326,-0.036344,
0.0138873,-0.196846,-0.33125,-1.66053,-0.0931655,-0.0933455,-0.382896,0.000274469,0.00106513,0.000215756,-0.000604163,-2.29373e-05,-0.000587564,-9.96926e-06,0,0,0,0,0,0,0,0.0138675,-0.196951,-0.331254,-1.6606,-0.0931473,1.47754,0.402503,0.000397893,-0.00820463,0.0010744,-0.0180246,-4.39543e-05,0.0254476,-0.00135197,-0.0440639,-24.8103,1.78621,24.0152,0.354916,2.94701,-0.0026396,-2.03452,0.301736,-0.82088,-0.131301,-0.937463,-0.178692,-0.0772272,-0.266029,-0.254767,-0.375124,-0.140761,-0.318518,-0.0357065,
0.0138883,-0.196843,-0.33125,-1.66053,-0.0931656,-0.093348,-0.382896,0.00024987,0.000903024,0.000192834,-0.000528413,-6.02866e-06,-0.00061909,-8.77133e-06,0,0,0,0,0,0,0,0.0138675,-0.196951,-0.331254,-1.6606,-0.0931473,1.47754,0.402503,0.000397893,-0.00820463,0.0010744,-0.0180246,-4.39543e-05,0.0254476,-0.00135197,-0.0440639,-24.8103,1.78621,24.0152,0.354916,2.94701,-0.0026396,-2.6662,0.459052,-1.15924,-0.20499,-1.32473,-0.216654,-0.109302,-0.442973,-0.292354,-0.402152,-0.136983,-0.297749,-0.0354785,
0.0138892,-0.19684,-0.331249,-1.66053,-0.0931655,-0.0933505,-0.382896,0.000227213,0.000760887,0.000171489,-0.000460843,4.89879e-06,-0.000635332,-7.68547e-06,0,0,0,0,0,0,0,0.0138675,-0.196951,-0.331254,-1.6606,-0.0931473,1.47754,0.402503,0.000397893,-0.00820463,0.0010744,-0.0180246,-4.39543e-05,0.0254476,-0.00135197,-0.0440639,-24.8103,1.78621,24.0152,0.354916,2.94701,-0.0026396,-2.6662,0.459052,-1.15924,-0.20499,-1.32473,-0.216654,-0.109302,-0.442973,-0.292354,-0.402152,-0.136983,-0.297749,-0.0354785,
0.0138901,-0.196837,-0.331248,-1.66053,-0.0931655,-0.0933531,-0.382896,0.000206416,0.000636128,0.000151719,-0.000400584,1.08935e-05,-0.000640259,-6.70414e-06,0,0,0,0,0,0,0,0.0138675,-0.196951,-0.331254,-1.6606,-0.0931473,1.47754,0.402503,0.000397893,-0.00820463,0.0010744,-0.0180246,-4.39543e-05,0.0254476,-0.00135197,-0.0440639,-24.8103,1.78621,24.0152,0.354916,2.94701,-0.0026396,-0.424317,-0.183279,-1.53332,0.34394,0.521229,-0.112271,-0.00995771,0.652004,-0.254144,-0.787692,-0.130091,-0.263486,-0.0342536,
0.0138908,-0.196835,-0.331248,-1.66054,-0.0931654,-0.0933556,-0.382897,0.000187375,0.000526512,0.000133482,-0.000346858,1.29043e-05,-0.000636956,-5.81916e-06,0,0,0,0,0,0,0,0.0138749,-0.196936,-0.331241,-1.66087,-0.0931468,1.47811,0.402506,-0.000802954,0.00162316,0.000828033,0.00555182,0.00451777,-0.00239073,-0.000139838,-0.119442,-25.211,1.7386,26.106,0.349423,3.31139,-0.0365141,-0.424317,-0.183279,-1.53332,0.34394,0.521229,-0.112271,-0.00995771,0.652004,-0.254144,-0.787692,-0.130091,-0.263486,-0.0342536,
0.0138915,-0.196833,-0.331247,-1.66054,-0.0931654,-0.0933581,-0.382897,0.000169979,0.00043011,0.00011671,-0.000298969,1.1764e-05,-0.000627811,-5.02223e-06,0,0,0,0,0,0,0,0.0138749,-0.196936,-0.331241,-1.66087,-0.0931468,1.47811,0.402506,-0.000802954,0.00162316,0.000828033,0.00555182,0.00451777,-0.00239073,-0.000139838,-0.119442,-25.211,1.7386,26.106,0.349423,3.31139,-0.0365141,-1.3526,-0.16183,-0.840408,0.205064,-0.484207,-0.26722,-0.163052,-0.0426682,-0.379991,-0.38202,-0.142202,-0.231081,-0.0337681,
0.0138921,-0.196832,-0.331247,-1.66054,-0.0931654,-0.0933606,-0.382897,0.000154111,0.00034525,0.000101323,-0.000256294,8.18752e-06,-0.000614663,-4.30529e-06,0,0,0,0,0,0,0,0.0138749,-0.196936,-0.331241,-1.66087,-0.0931468,1.47811,0.402506,-0.000802954,0.00162316,0.000828033,0.00555182,0.00451777,-0.00239073,-0.000139838,-0.119442,-25.211,1.7386,26.106,0.349423,3.31139,-0.0365141,-1.3526,-0.16183,-0.840408,0.205064,-0.484207,-0.26722,-0.163052,-0.0426682,-0.379991,-0.38202,-0.142202,-0.231081,-0.0337681,
0.0138927,-0.196831,-0.331247,-1.66054,-0.0931654,-0.093363,-0.382897,0.000139656,0.000270488,8.72315e-05,-0.000218275,2.77738e-06,-0.000598919,-3.66073e-06,0,0,0,0,0,0,0,0.0138749,-0.196936,-0.331241,-1.66087,-0.0931468,1.47811,0.402506,-0.000802954,0.00162316,0.000828033,0.00555182,0.00451777,-0.00239073,-0.000139838,-0.119442,-25.211,1.7386,26.106,0.349423,3.31139,-0.0365141,-0.754396,-0.0476606,-0.968281,0.141592,0.0268522,-0.110013,-0.00759538,0.269655,-0.220258,-0.503079,-0.133218,-0.231426,-0.0338269,
0.0138932,-0.19683,-0.331246,-1.66054,-0.0931654,-0.0933653,-0.382897,0.000126502,0.000204568,7.43462e-05,-0.000184411,-3.96601e-06,-0.000581645,-3.08146e-06,0,0,0,0,0,0,0,0.0138749,-0.196936,-0.331241,-1.66087,-0.0931468,1.47811,0.402506,-0.000802954,0.00162316,0.000828033,0.00555182,0.00451777,-0.00239073,-0.000139838,-0.119442,-25.211,1.7386,26.106,0.349423,3.31139,-0.0365141,-2.07456,0.227161,-0.654932,-0.127482,-1.08952,-0.219813,-0.104975,-0.405427,-0.301974,-0.242982,-0.153197,-0.252925,-0.0319393,
0.0138936,-0.196829,-0.331246,-1.66054,-0.0931654,-0.0933676,-0.382897,0.000114543,0.000146397,6.2578e-05,-0.000154254,-1.16326e-05,-0.000563641,-2.56101e-06,0,0,0,0,0,0,0,0.013856,-0.196821,-0.331258,-1.66081,-0.0931659,1.47817,0.402506,-0.00142369,0.00318984,-0.0007934,-0.00102097,0.00278687,0.000397038,-0.000591232,0.106693,-26.187,1.98854,25.733,0.520626,2.92046,-0.0301054,-2.07456,0.227161,-0.654932,-0.127482,-1.08952,-0.219813,-0.104975,-0.405427,-0.301974,-0.242982,-0.153197,-0.252925,-0.0319393,
0.013894,-0.196829,-0.331246,-1.66054,-0.0931655,-0.0933697,-0.382897,0.000103679,9.50271e-05,5.18407e-05,-0.000127404,-1.98907e-05,-0.000545497,-2.09345e-06,0,0,0,0,0,0,0,0.013856,-0.196821,-0.331258,-1.66081,-0.0931659,1.47817,0.402506,-0.00142369,0.00318984,-0.0007934,-0.00102097,0.00278687,0.000397038,-0.000591232,0.106693,-26.187,1.98854,25.733,0.520626,2.92046,-0.0301054,-1.73689,0.205574,-0.620582,-0.106817,-0.847079,-0.168651,-0.0537044,-0.275627,-0.254875,-0.267619,-0.141578,-0.248579,-0.0332471,
0.0138944,-0.196829,-0.331246,-1.66054,-0.0931656,-0.0933719,-0.382897,9.38172e-05,4.96289e-05,4.20521e-05,-0.000103501,-2.84753e-05,-0.000527641,-1.67342e-06,0,0,0,0,0,0,0,0.013856,-0.196821,-0.331258,-1.66081,-0.0931659,1.47817,0.402506,-0.00142369,0.00318984,-0.0007934,-0.00102097,0.00278687,0.000397038,-0.000591232,0.106693,-26.187,1.98854,25.733,0.520626,2.92046,-0.0301054,-1.73689,0.205574,-0.620582,-0.106817,-0.847079,-0.168651,-0.0537044,-0.275627,-0.254875,-0.267619,-0.141578,-0.248579,-0.0332471,
0.0138948,-0.196829,-0.331245,-1.66054,-0.0931658,-0.0933739,-0.382897,8.48699e-05,9.47978e-06,3.31344e-05,-8.22249e-05,-3.71777e-05,-0.000510374,-1.29608e-06,0,0,0,0,0,0,0,0.013856,-0.196821,-0.331258,-1.66081,-0.0931659,1.47817,0.402506,-0.00142369,0.00318984,-0.0007934,-0.00102097,0.00278687,0.000397038,-0.000591232,0.106693,-26.187,1.98854,25.733,0.520626,2.92046,-0.0301054,-1.32131,0.191415,-0.852091,-0.0248844,-0.40386,-0.101271,0.00940364,0.0284228,-0.201069,-0.449451,-0.116058,-0.292851,-0.035071,
0.0138951,-0.196829,-0.331245,-1.66054,-0.0931659,-0.0933759,-0.382897,7.67568e-05,-2.60521e-05,2.50152e-05,-6.32892e-05,-4.5836e-05,-0.000493902,-9.5709e-07,0,0,0,0,0,0,0,0.013856,-0.196821,-0.331258,-1.66081,-0.0931659,1.47817,0.402506,-0.00142369,0.00318984,-0.0007934,-0.00102097,0.00278687,0.000397038,-0.000591232,0.106693,-26.187,1.98854,25.733,0.520626,2.92046,-0.0301054,-1.30068,0.0911098,-0.882022,0.0439962,-0.380233,-0.141717,-0.0305569,0.0446201,-0.248096,-0.456663,-0.12844,-0.285526,-0.0360525,
0.0138953,-0.196829,-0.331245,-1.66054,-0.0931662,-0.0933778,-0.382897,6.94039e-05,-5.75193e-05,1.76265e-05,-4.64377e-05,-5.43268e-05,-0.000478355,-6.52526e-07,0,0,0,0,0,0,0,0.013856,-0.196821,-0.331258,-1.66081,-0.0931659,1.47817,0.402506,-0.00142369,0.00318984,-0.0007934,-0.00102097,0.00278687,0.000397038,-0.000591232,0.106693,-26.187,1.98854,25.733,0.520626,2.92046,-0.0301054,-1.30068,0.0911098,-0.882022,0.0439962,-0.380233,-0.141717,-0.0305569,0.0446201,-0.248096,-0.456663,-0.12844,-0.285526,-0.0360525,
0.0138956,-0.19683,-0.331245,-1.66054,-0.0931664,-0.0933796,-0.382897,6.27431e-05,-8.54061e-05,1.09056e-05,-3.14418e-05,-6.25584e-05,-0.000463808,-3.78877e-07,0,0,0,0,0,0,0,0.0138793,-0.196817,-0.331244,-1.6608,-0.0931651,1.47818,0.402507,0.00119411,0.00281658,0.000586923,0.00227165,-0.00010553,0.00215423,0.00021949,-0.171017,-25.7347,1.81398,25.6339,0.502316,2.80144,-0.0429228,-1.81443,0.0998015,-0.671682,-0.0153308,-0.842773,-0.228881,-0.120933,-0.245832,-0.319093,-0.322151,-0.153802,-0.292662,-0.0367531,
0.0138958,-0.19683,-0.331245,-1.66054,-0.0931667,-0.0933814,-0.382897,5.67118e-05,-0.000110137,4.79433e-06,-1.80977e-05,-7.0465e-05,-0.000450291,-1.32989e-07,0,0,0,0,0,0,0,0.0138793,-0.196817,-0.331244,-1.6608,-0.0931651,1.47818,0.402507,0.00119411,0.00281658,0.000586923,0.00227165,-0.00010553,0.00215423,0.00021949,-0.171017,-25.7347,1.81398,25.6339,0.502316,2.80144,-0.0429228,-1.81443,0.0998015,-0.671682,-0.0153308,-0.842773,-0.228881,-0.120933,-0.245832,-0.319093,-0.322151,-0.153802,-0.292662,-0.0367531,
0.013896,-0.19683,-0.331245,-1.66054,-0.093167,-0.0933832,-0.382897,5.12527e-05,-0.000132084,-7.60789e-07,-6.22343e-06,-7.80011e-05,-0.000437808,8.79657e-08,0,0,0,0,0,0,0,0.0138793,-0.196817,-0.331244,-1.6608,-0.0931651,1.47818,0.402507,0.00119411,0.00281658,0.000586923,0.00227165,-0.00010553,0.00215423,0.00021949,-0.171017,-25.7347,1.81398,25.6339,0.502316,2.80144,-0.0429228,-1.67267,0.133287,-0.538268,-0.0567396,-0.77194,-0.191329,-0.0930697,-0.221132,-0.268193,-0.300066,-0.150558,-0.303197,-0.0362607,
0.0138962,-0.196831,-0.331245,-1.66054,-0.0931673,-0.0933849,-0.382897,4.63135e-05,-0.000151574,-5.80908e-06,4.34309e-06,-8.51378e-05,-0.000426336,2.86526e-07,0,0,0,0,0,0,0,0.0138793,-0.196817,-0.331244,-1.6608,-0.0931651,1.47818,0.402507,0.00119411,0.00281658,0.000586923,0.00227165,-0.00010553,0.00215423,0.00021949,-0.171017,-25.7347,1.81398,25.6339,0.502316,2.80144,-0.0429228,-1.67267,0.133287,-0.538268,-0.0567396,-0.77194,-0.191329,-0.0930697,-0.221132,-0.268193,-0.300066,-0.150558,-0.303197,-0.0362607,
0.0138964,-0.196832,-0.331245,-1.66054,-0.0931677,-0.0933866,-0.382897,4.18463e-05,-0.000168896,-1.03958e-05,1.37464e-05,-9.18593e-05,-0.00041584,4.64969e-07,0,0,0,0,0,0,0,0.0138793,-0.196817,-0.331244,-1.6608,-0.0931651,1.47818,0.402507,0.00119411,0.00281658,0.000586923,0.00227165,-0.00010553,0.00215423,0.00021949,-0.171017,-25.7347,1.81398,25.6339,0.502316,2.80144,-0.0429228,-1.29096,0.204929,-0.68363,-0.0756675,-0.435538,-0.094232,-0.0153193,-0.0106446,-0.158043,-0.391856,-0.127092,-0.294116,-0.0358879,
0.0138965,-0.196833,-0.331245,-1.66054,-0.0931681,-0.0933882,-0.382897,3.78073e-05,-0.000184301,-1.45625e-05,2.21151e-05,-9.81598e-05,-0.000406271,6.25338e-07,0,0,0,0,0,0,0,0.0138918,-0.196795,-0.331213,-1.66081,-0.093163,1.47814,0.402506,-0.00210206,-0.00272728,-0.00278422,0.00410449,0.0027535,-0.00508686,0.000227491,-0.222592,-25.7625,1.88936,26.1298,0.495907,3.21252,-0.0365141,-0.925093,0.00616187,-0.729536,0.0896896,-0.131452,-0.121917,-0.0557431,0.171055,-0.194256,-0.459373,-0.122643,-0.298204,-0.0355868,
0.0138967,-0.196833,-0.331245,-1.66054,-0.0931685,-0.0933898,-0.382897,3.41568e-05,-0.000198013,-1.83473e-05,2.9564e-05,-0.000104041,-0.000397576,7.69467e-07,0,0,0,0,0,0,0,0.0138918,-0.196795,-0.331213,-1.66081,-0.093163,1.47814,0.402506,-0.00210206,-0.00272728,-0.00278422,0.00410449,0.0027535,-0.00508686,0.000227491,-0.222592,-25.7625,1.88936,26.1298,0.495907,3.21252,-0.0365141,-0.925093,0.00616187,-0.729536,0.0896896,-0.131452,-0.121917,-0.0557431,0.171055,-0.194256,-0.459373,-0.122643,-0.298204,-0.0355868,
0.0138968,-0.196834,-0.331246,-1.66054,-0.093169,-0.0933913,-0.382897,3.08584e-05,-0.000210227,-2.17848e-05,3.61949e-05,-0.000109512,-0.000389698,8.99001e-07,0,0,0,0,0,0,0,0.0138918,-0.196795,-0.331213,-1.66081,-0.093163,1.47814,0.402506,-0.00210206,-0.00272728,-0.00278422,0.00410449,0.0027535,-0.00508686,0.000227491,-0.222592,-25.7625,1.88936,26.1298,0.495907,3.21252,-0.0365141,-1.40278,-0.100052,-0.2929,0.0779721,-0.669686,-0.254718,-0.185241,-0.207708,-0.31707,-0.224044,-0.151373,-0.28403,-0.035296,
0.0137632,-0.196815,-0.331346,-1.6604,-0.0916576,-0.094264,-0.382895,-0.0108757,0.00572172,-0.00977956,0.00849652,0.171312,-0.105136,0.00033754,0,0,0,0,0,0,0,0.0138918,-0.196795,-0.331213,-1.66081,-0.093163,1.47814,0.402506,-0.00210206,-0.00272728,-0.00278422,0.00410449,0.0027535,-0.00508686,0.000227491,-0.222592,-25.7625,1.88936,26.1298,0.495907,3.21252,-0.0365141,-1.40278,-0.100052,-0.2929,0.0779721,-0.669686,-0.254718,-0.185241,-0.207708,-0.31707,-0.224044,-0.151373,-0.28403,-0.035296,
0.0137556,-0.196778,-0.331324,-1.66067,-0.0916692,-0.0935903,-0.38289,-0.0124104,0.000941311,-0.0113749,0.0106618,0.169206,-0.104869,0.000397403,0,0,0,0,0,0,0,0.0138918,-0.196795,-0.331213,-1.66081,-0.093163,1.47814,0.402506,-0.00210206,-0.00272728,-0.00278422,0.00410449,0.0027535,-0.00508686,0.000227491,-0.222592,-25.7625,1.88936,26.1298,0.495907,3.21252,-0.0365141,-0.813615,-0.0770579,-0.518012,0.0975803,-0.13823,-0.138641,-0.0737503,0.127469,-0.205578,-0.372475,-0.14187,-0.275738,-0.037026,
0.013707,-0.196778,-0.331371,-1.66063,-0.0908687,-0.0940893,-0.382888,-0.0121483,-6.19029e-05,-0.0118172,0.00894377,0.200117,-0.124768,0.000514779,0,0,0,0,0,0,0,0.0138918,-0.196795,-0.331213,-1.66081,-0.093163,1.47814,0.402506,-0.00210206,-0.00272728,-0.00278422,0.00410449,0.0027535,-0.00508686,0.000227491,-0.222592,-25.7625,1.88936,26.1298,0.495907,3.21252,-0.0365141,-1.03776,-0.00253515,-0.380163,0.0211736,-0.361907,-0.145395,-0.0800651,-0.0208724,-0.202071,-0.294747,-0.140615,-0.277683,-0.0363772,
0.0136613,-0.196782,-0.331417,-1.6606,-0.0899726,-0.094654,-0.382886,-0.0114162,-0.000952644,-0.0115382,0.00733467,0.224029,-0.141176,0.000578193,0,0,0,0,0,0,0,0.0138693,-0.196842,-0.331174,-1.66074,-0.0931281,1.47817,0.402511,-0.00136419,-0.00229442,-0.0064123,0.00375259,0.00734276,-0.00457126,6.29427e-05,0.00751081,-25.3102,1.88936,25.733,0.624081,3.00011,-0.050247,-1.03776,-0.00253515,-0.380163,0.0211736,-0.361907,-0.145395,-0.0800651,-0.0208724,-0.202071,-0.294747,-0.140615,-0.277683,-0.0363772,
0.0136196,-0.196789,-0.33146,-1.66058,-0.0890019,-0.095273,-0.382883,-0.0104229,-0.00165735,-0.0108215,0.00594246,0.242681,-0.154732,0.000608464,0,0,0,0,0,0,0,0.0138693,-0.196842,-0.331174,-1.66074,-0.0931281,1.47817,0.402511,-0.00136419,-0.00229442,-0.0064123,0.00375259,0.00734276,-0.00457126,6.29427e-05,0.00751081,-25.3102,1.88936,25.733,0.624081,3.00011,-0.050247,-1.00758,-0.170634,-0.182753,0.13063,-0.420473,-0.213568,-0.145539,-0.0904256,-0.281418,-0.220088,-0.131556,-0.271894,-0.0387576,
0.0135824,-0.196797,-0.3315,-1.66056,-0.0879725,-0.0959366,-0.382881,-0.00930118,-0.00217534,-0.00985557,0.00476588,0.257332,-0.165899,0.000617679,0,0,0,0,0,0,0,0.0138693,-0.196842,-0.331174,-1.66074,-0.0931281,1.47817,0.402511,-0.00136419,-0.00229442,-0.0064123,0.00375259,0.00734276,-0.00457126,6.29427e-05,0.00751081,-25.3102,1.88936,25.733,0.624081,3.00011,-0.050247,-1.00758,-0.170634,-0.182753,0.13063,-0.420473,-0.213568,-0.145539,-0.0904256,-0.281418,-0.220088,-0.131556,-0.271894,-0.0387576,
0.0135499,-0.196807,-0.331535,-1.66055,-0.0868969,-0.0966368,-0.382878,-0.00813627,-0.00252888,-0.00876527,0.00377608,0.2689,-0.175053,0.000613414,0,0,0,0,0,0,0,0.0138693,-0.196842,-0.331174,-1.66074,-0.0931281,1.47817,0.402511,-0.00136419,-0.00229442,-0.0064123,0.00375259,0.00734276,-0.00457126,6.29427e-05,0.00751081,-25.3102,1.88936,25.733,0.624081,3.00011,-0.050247,-0.469513,-0.262889,-0.459404,0.332752,0.0873764,-0.157681,-0.0845588,0.235547,-0.265176,-0.405828,-0.043188,-0.28813,-0.0401393,
0.013522,-0.196818,-0.331565,-1.66053,-0.0857847,-0.0973668,-0.382876,-0.00698222,-0.00274559,-0.00763242,0.00294167,0.278068,-0.182507,0.000600739,0,0,0,0,0,0,0,0.0138693,-0.196842,-0.331174,-1.66074,-0.0931281,1.47817,0.402511,-0.00136419,-0.00229442,-0.0064123,0.00375259,0.00734276,-0.00457126,6.29427e-05,0.00751081,-25.3102,1.88936,25.733,0.624081,3.00011,-0.050247,-0.469513,-0.262889,-0.459404,0.332752,0.0873764,-0.157681,-0.0845588,0.235547,-0.265176,-0.405828,-0.043188,-0.28813,-0.0401393,
0.0134985,-0.19683,-0.331591,-1.66053,-0.0846433,-0.0981209,-0.382874,-0.00587237,-0.00285229,-0.00650946,0.00223537,0.285346,-0.188532,0.00058292,0,0,0,0,0,0,0,0.0138172,-0.196797,-0.331215,-1.6607,-0.091142,1.47813,0.402505,-0.000706505,-0.0024979,-0.00174379,0.00147949,0.0919454,-0.00439977,-0.000595001,0.384403,-25.8101,2.23848,26.0544,0.874935,3.03307,-0.0163725,-1.03625,-0.3594,-0.107435,0.405039,-0.503672,-0.300043,-0.213126,-0.168253,-0.423205,-0.201255,0.0054995,-0.284836,-0.039581,
0.0134792,-0.196841,-0.331613,-1.66052,-0.0834788,-0.0988944,-0.382871,-0.00482616,-0.00287286,-0.00542886,0.00163497,0.291119,-0.193358,0.00056223,0,0,0,0,0,0,0,0.0138172,-0.196797,-0.331215,-1.6607,-0.091142,1.47813,0.402505,-0.000706505,-0.0024979,-0.00174379,0.00147949,0.0919454,-0.00439977,-0.000595001,0.384403,-25.8101,2.23848,26.0544,0.874935,3.03307,-0.0163725,-0.859306,-0.459184,-0.132727,0.527948,-0.372001,-0.31285,-0.219326,-0.0971761,-0.45899,-0.231612,0.0481774,-0.283686,-0.0392517,
0.0134638,-0.196853,-0.331631,-1.66051,-0.0822961,-0.0996831,-0.382869,-0.00385378,-0.00282775,-0.00440962,0.0011227,0.295679,-0.19718,0.000540226,0,0,0,0,0,0,0,0.0138172,-0.196797,-0.331215,-1.6607,-0.091142,1.47813,0.402505,-0.000706505,-0.0024979,-0.00174379,0.00147949,0.0919454,-0.00439977,-0.000595001,0.384403,-25.8101,2.23848,26.0544,0.874935,3.03307,-0.0163725,-0.859306,-0.459184,-0.132727,0.527948,-0.372001,-0.31285,-0.219326,-0.0971761,-0.45899,-0.231612,0.0481774,-0.283686,-0.0392517,
0.0134519,-0.196864,-0.331645,-1.66051,-0.0810991,-0.100484,-0.382867,-0.0029593,-0.00273405,-0.00346169,0.000684367,0.299255,-0.200164,0.000517847,0,0,0,0,0,0,0,0.0138172,-0.196797,-0.331215,-1.6607,-0.091142,1.47813,0.402505,-0.000706505,-0.0024979,-0.00174379,0.00147949,0.0919454,-0.00439977,-0.000595001,0.384403,-25.8101,2.23848,26.0544,0.874935,3.03307,-0.0163725,-0.663084,-0.182453,-0.1248,0.414726,-0.23546,-0.152856,-0.0578522,-0.0257872,-0.299379,-0.269447,0.152062,-0.303027,-0.039075,
0.0134434,-0.196874,-0.331655,-1.66051,-0.079891,-0.101294,-0.382865,-0.00214282,-0.00260574,-0.00258903,0.000308551,0.302022,-0.202449,0.000495837,0,0,0,0,0,0,0,0.0138172,-0.196797,-0.331215,-1.6607,-0.091142,1.47813,0.402505,-0.000706505,-0.0024979,-0.00174379,0.00147949,0.0919454,-0.00439977,-0.000595001,0.384403,-25.8101,2.23848,26.0544,0.874935,3.03307,-0.0163725,-0.663084,-0.182453,-0.1248,0.414726,-0.23546,-0.152856,-0.0578522,-0.0257872,-0.299379,-0.269447,0.152062,-0.303027,-0.039075,
0.0134377,-0.196884,-0.331662,-1.66051,-0.0786745,-0.10211,-0.382863,-0.00140194,-0.00245415,-0.00179174,-1.40132e-05,0.304119,-0.204152,0.000474599,0,0,0,0,0,0,0,0.0137958,-0.196803,-0.331235,-1.66071,-0.0878499,1.47804,0.402508,-0.00191428,-0.000373049,0.000271046,-0.000646122,0.113607,-0.00732945,0.0007314,0.511356,-25.6871,2.31386,26.106,1.36291,2.77489,-0.050247,-0.749374,-0.0382501,0.0725427,0.339599,-0.3829,-0.10363,-0.00409529,-0.144435,-0.249278,-0.196948,0.217079,-0.316515,-0.0377322,
0.0134348,-0.196893,-0.331666,-1.66051,-0.0774519,-0.102932,-0.382862,-0.000732777,-0.00228825,-0.00106749,-0.00029092,0.305657,-0.205371,0.000454297,0,0,0,0,0,0,0,0.0137958,-0.196803,-0.331235,-1.66071,-0.0878499,1.47804,0.402508,-0.00191428,-0.000373049,0.000271046,-0.000646122,0.113607,-0.00732945,0.0007314,0.511356,-25.6871,2.31386,26.106,1.36291,2.77489,-0.050247,-0.438079,0.134751,-0.0507938,0.308757,-0.0794135,0.0288987,0.127899,0.0550529,-0.124563,-0.320961,0.294954,-0.358063,-0.0372595,
0.0134343,-0.196901,-0.331668,-1.66051,-0.076225,-0.103756,-0.38286,-0.000130643,-0.00211509,-0.000412483,-0.000528455,0.306725,-0.206188,0.000435244,0,0,0,0,0,0,0,0.0137958,-0.196803,-0.331235,-1.66071,-0.0878499,1.47804,0.402508,-0.00191428,-0.000373049,0.000271046,-0.000646122,0.113607,-0.00732945,0.0007314,0.511356,-25.6871,2.31386,26.106,1.36291,2.77489,-0.050247,-0.438079,0.134751,-0.0507938,0.308757,-0.0794135,0.0288987,0.127899,0.0550529,-0.124563,-0.320961,0.294954,-0.358063,-0.0372595,
0.0134359,-0.196909,-0.331667,-1.66052,-0.0749954,-0.104583,-0.382858,0.000409532,-0.00194009,0.000177837,-0.000731872,0.307396,-0.20667,0.000417258,0,0,0,0,0,0,0,0.0137958,-0.196803,-0.331235,-1.66071,-0.0878499,1.47804,0.402508,-0.00191428,-0.000373049,0.000271046,-0.000646122,0.113607,-0.00732945,0.0007314,0.511356,-25.6871,2.31386,26.106,1.36291,2.77489,-0.050247,-0.678612,0.251067,0.203862,0.249081,-0.353929,0.0374094,0.140067,-0.139333,-0.114686,-0.22229,0.357248,-0.385666,-0.0353815,
0.0134395,-0.196916,-0.331665,-1.66052,-0.0737645,-0.105411,-0.382857,0.000892883,-0.00176736,0.000708397,-0.000905612,0.307728,-0.206874,0.000400432,0,0,0,0,0,0,0,0.0137958,-0.196803,-0.331235,-1.66071,-0.0878499,1.47804,0.402508,-0.00191428,-0.000373049,0.000271046,-0.000646122,0.113607,-0.00732945,0.0007314,0.511356,-25.6871,2.31386,26.106,1.36291,2.77489,-0.050247,-0.678612,0.251067,0.203862,0.249081,-0.353929,0.0374094,0.140067,-0.139333,-0.114686,-0.22229,0.357248,-0.385666,-0.0353815,
0.0134448,-0.196923,-0.33166,-1.66052,-0.0725334,-0.106238,-0.382855,0.00132444,-0.0015999,0.00118418,-0.00105343,0.307771,-0.206847,0.000384778,0,0,0,0,0,0,0,0.0137958,-0.196803,-0.331235,-1.66071,-0.0878499,1.47804,0.402508,-0.00191428,-0.000373049,0.000271046,-0.000646122,0.113607,-0.00732945,0.0007314,0.511356,-25.6871,2.31386,26.106,1.36291,2.77489,-0.050247,-0.863658,0.0208145,0.155145,0.455468,-0.446006,-0.101301,0.00124859,-0.171582,-0.275804,-0.257905,0.363437,-0.424531,-0.0336272,
0.0134516,-0.196928,-0.331653,-1.66053,-0.0713031,-0.107064,-0.382854,0.00170898,-0.00143989,0.00161006,-0.00117856,0.307565,-0.206629,0.000370302,0,0,0,0,0,0,0,0.0138287,-0.196802,-0.331205,-1.6607,-0.0840791,1.47788,0.402504,0.00185379,0.00192471,0.00526575,-0.0019971,0.11737,0.00101785,-0.000859519,0.0828892,-25.7109,1.93696,25.9552,1.43066,2.64214,-0.00996382,-0.863658,0.0208145,0.155145,0.455468,-0.446006,-0.101301,0.00124859,-0.171582,-0.275804,-0.257905,0.363437,-0.424531,-0.0336272,
0.0134598,-0.196934,-0.331645,-1.66053,-0.0700745,-0.107889,-0.382852,0.00205101,-0.00128877,0.00199069,-0.00128376,0.307146,-0.206251,0.000356744,0,0,0,0,0,0,0,0.0138287,-0.196802,-0.331205,-1.6607,-0.0840791,1.47788,0.402504,0.00185379,0.00192471,0.00526575,-0.0019971,0.11737,0.00101785,-0.000859519,0.0828892,-25.7109,1.93696,25.9552,1.43066,2.64214,-0.00996382,-0.57693,0.138978,0.122499,0.435473,-0.198669,0.000658245,0.0922488,-0.0192897,-0.170687,-0.336431,0.426386,-0.456911,-0.0330044,
0.0134693,-0.196938,-0.331636,-1.66054,-0.0688484,-0.108712,-0.382851,0.00235471,-0.00114748,0.0023304,-0.00137143,0.306541,-0.20574,0.000344199,0,0,0,0,0,0,0,0.0138287,-0.196802,-0.331205,-1.6607,-0.0840791,1.47788,0.402504,0.00185379,0.00192471,0.00526575,-0.0019971,0.11737,0.00101785,-0.000859519,0.0828892,-25.7109,1.93696,25.9552,1.43066,2.64214,-0.00996382,-0.797594,0.122594,0.424656,0.412451,-0.4676,-0.0478653,0.0326476,-0.21364,-0.202779,-0.212719,0.431718,-0.47306,-0.0324772,
0.0134798,-0.196942,-0.331626,-1.66055,-0.0676253,-0.109533,-0.382849,0.00262391,-0.0010165,0.00263324,-0.00144364,0.305776,-0.205119,0.000332551,0,0,0,0,0,0,0,0.0138287,-0.196802,-0.331205,-1.6607,-0.0840791,1.47788,0.402504,0.00185379,0.00192471,0.00526575,-0.0019971,0.11737,0.00101785,-0.000859519,0.0828892,-25.7109,1.93696,25.9552,1.43066,2.64214,-0.00996382,-0.797594,0.122594,0.424656,0.412451,-0.4676,-0.0478653,0.0326476,-0.21364,-0.202779,-0.212719,0.431718,-0.47306,-0.0324772,
0.0134912,-0.196946,-0.331614,-1.66055,-0.0664058,-0.110351,-0.382848,0.00286213,-0.000896031,0.00290291,-0.00150222,0.304871,-0.204407,0.000321726,0,0,0,0,0,0,0,0.0138287,-0.196802,-0.331205,-1.6607,-0.0840791,1.47788,0.402504,0.00185379,0.00192471,0.00526575,-0.0019971,0.11737,0.00101785,-0.000859519,0.0828892,-25.7109,1.93696,25.9552,1.43066,2.64214,-0.00996382,-0.417636,-0.0826832,0.279983,0.581751,-0.0984741,-0.073955,-0.00394239,0.0282481,-0.239797,-0.330951,0.415555,-0.488767,-0.0332867,
0.0135035,-0.196949,-0.331601,-1.66056,-0.0651904,-0.111165,-0.382847,0.00307254,-0.000785986,0.00314279,-0.00154874,0.303845,-0.203618,0.000311656,0,0,0,0,0,0,0,0.0138609,-0.196818,-0.331165,-1.6607,-0.0797341,1.47775,0.402509,0.00226801,0.00249174,0.000129914,-0.000816051,0.133227,-0.00473903,0.000837785,-0.147213,-25.5364,1.78621,25.983,1.22284,2.64855,-0.050247,-0.417636,-0.0826832,0.279983,0.581751,-0.0984741,-0.073955,-0.00394239,0.0282481,-0.239797,-0.330951,0.415555,-0.488767,-0.0332867,
0.0135165,-0.196952,-0.331588,-1.66056,-0.0639796,-0.111976,-0.382846,0.00325804,-0.000686135,0.00335596,-0.00158461,0.302713,-0.202765,0.000302265,0,0,0,0,0,0,0,0.0138609,-0.196818,-0.331165,-1.6607,-0.0797341,1.47775,0.402509,0.00226801,0.00249174,0.000129914,-0.000816051,0.133227,-0.00473903,0.000837785,-0.147213,-25.5364,1.78621,25.983,1.22284,2.64855,-0.050247,-0.126786,-0.073857,0.190608,0.600991,0.192218,-0.0193941,0.0385944,0.22257,-0.180962,-0.433902,0.420779,-0.522566,-0.0339955,
0.0135302,-0.196954,-0.331574,-1.66057,-0.0627736,-0.112783,-0.382844,0.00342124,-0.000596098,0.0035452,-0.00161104,0.301489,-0.201859,0.000293462,0,0,0,0,0,0,0,0.0138609,-0.196818,-0.331165,-1.6607,-0.0797341,1.47775,0.402509,0.00226801,0.00249174,0.000129914,-0.000816051,0.133227,-0.00473903,0.000837785,-0.147213,-25.5364,1.78621,25.983,1.22284,2.64855,-0.050247,-0.126786,-0.073857,0.190608,0.600991,0.192218,-0.0193941,0.0385944,0.22257,-0.180962,-0.433902,0.420779,-0.522566,-0.0339955,
0.0135445,-0.196956,-0.331559,-1.66058,-0.0615729,-0.113587,-0.382843,0.00356448,-0.000515422,0.003713,-0.00162913,0.300184,-0.200908,0.000285278,0,0,0,0,0,0,0,0.0138609,-0.196818,-0.331165,-1.6607,-0.0797341,1.47775,0.402509,0.00226801,0.00249174,0.000129914,-0.000816051,0.133227,-0.00473903,0.000837785,-0.147213,-25.5364,1.78621,25.983,1.22284,2.64855,-0.050247,-0.543433,-0.118845,0.365539,0.576342,-0.17736,-0.114035,-0.0614665,-0.00735262,-0.260809,-0.325426,0.382585,-0.529902,-0.0334914,
0.0135823,-0.196682,-0.33144,-1.66035,-0.0885966,-0.0963757,-0.38286,-0.0278777,0.00587022,-0.0236999,0.0350408,0.52182,-0.415957,0.00335394,0,0,0,0,0,0,0,0.0138609,-0.196818,-0.331165,-1.6607,-0.0797341,1.47775,0.402509,0.00226801,0.00249174,0.000129914,-0.000816051,0.133227,-0.00473903,0.000837785,-0.147213,-25.5364,1.78621,25.983,1.22284,2.64855,-0.050247,-0.558454,-0.0237126,0.324134,0.51436,-0.162532,-0.073389,-0.0253296,0.0132042,-0.211279,-0.350698,0.386127,-0.542177,-0.0336056,
0.013631,-0.196664,-0.331323,-1.66032,-0.0741706,-0.096586,-0.382861,-0.0209483,0.00921661,-0.0171529,0.0301905,0.587184,-0.396205,0.0030961,0,0,0,0,0,0,0,0.0138609,-0.196818,-0.331165,-1.6607,-0.0797341,1.47775,0.402509,0.00226801,0.00249174,0.000129914,-0.000816051,0.133227,-0.00473903,0.000837785,-0.147213,-25.5364,1.78621,25.983,1.22284,2.64855,-0.050247,-0.558454,-0.0237126,0.324134,0.51436,-0.162532,-0.073389,-0.0253296,0.0132042,-0.211279,-0.350698,0.386127,-0.542177,-0.0336056,
0.0135529,-0.196646,-0.331392,-1.66022,-0.0714703,-0.0984556,-0.382847,-0.0195366,0.00435334,-0.0172659,0.0240732,0.675077,-0.467392,0.00338158,0,0,0,0,0,0,0,0.013862,-0.19682,-0.331157,-1.66068,-0.0750483,1.47763,0.402508,0.000482568,0.00210198,0.000203833,-0.00154301,0.156704,-0.00211952,0.000643171,-0.0718349,-25.5364,1.93696,25.9076,0.93536,2.68151,-0.050247,-0.850848,-0.173567,0.500635,0.579552,-0.439749,-0.192985,-0.148676,-0.166621,-0.327855,-0.256983,0.356432,-0.54879,-0.0331811,
0.0134846,-0.196645,-0.331455,-1.66015,-0.0684916,-0.10055,-0.382833,-0.0170731,0.000327815,-0.0157977,0.0181869,0.744679,-0.523651,0.00353215,0,0,0,0,0,0,0,0.013862,-0.19682,-0.331157,-1.66068,-0.0750483,1.47763,0.402508,0.000482568,0.00210198,0.000203833,-0.00154301,0.156704,-0.00211952,0.000643171,-0.0718349,-25.5364,1.93696,25.9076,0.93536,2.68151,-0.050247,-0.850848,-0.173567,0.500635,0.579552,-0.439749,-0.192985,-0.148676,-0.166621,-0.327855,-0.256983,0.356432,-0.54879,-0.0331811,
0.0134284,-0.196656,-0.331509,-1.6601,-0.0652902,-0.102823,-0.382818,-0.0140577,-0.00271438,-0.0133931,0.0130355,0.800357,-0.56815,0.00360254,0,0,0,0,0,0,0,0.013862,-0.19682,-0.331157,-1.66068,-0.0750483,1.47763,0.402508,0.000482568,0.00210198,0.000203833,-0.00154301,0.156704,-0.00211952,0.000643171,-0.0718349,-25.5364,1.93696,25.9076,0.93536,2.68151,-0.050247,-0.57508,-0.45577,0.681114,0.733804,-0.298805,-0.269478,-0.226316,-0.118263,-0.413783,-0.207899,0.321301,-0.530451,-0.034922,
0.0133852,-0.196675,-0.33155,-1.66006,-0.061909,-0.105235,-0.382804,-0.0107976,-0.00486882,-0.0104754,0.00866417,0.845293,-0.603136,0.00362162,0,0,0,0,0,0,0,0.013862,-0.19682,-0.331157,-1.66068,-0.0750483,1.47763,0.402508,0.000482568,0.00210198,0.000203833,-0.00154301,0.156704,-0.00211952,0.000643171,-0.0718349,-25.5364,1.93696,25.9076,0.93536,2.68151,-0.050247,-0.57508,-0.45577,0.681114,0.733804,-0.298805,-0.269478,-0.226316,-0.118263,-0.413783,-0.207899,0.321301,-0.530451,-0.034922,
0.0133552,-0.1967,-0.33158,-1.66004,-0.0583816,-0.107757,-0.38279,-0.00748621,-0.00628903,-0.00732341,0.00499041,0.881847,-0.630351,0.00360695,0,0,0,0,0,0,0,0.013862,-0.19682,-0.331157,-1.66068,-0.0750483,1.47763,0.402508,0.000482568,0.00210198,0.000203833,-0.00154301,0.156704,-0.00211952,0.000643171,-0.0718349,-25.5364,1.93696,25.9076,0.93536,2.68151,-0.050247,-0.297901,-0.812168,0.859418,0.998114,-0.120178,-0.379596,-0.334123,-0.0340384,-0.552419,-0.21035,0.323032,-0.562393,-0.0356883,
0.0133383,-0.196729,-0.331596,-1.66003,-0.0547345,-0.110362,-0.382775,-0.00424507,-0.007127,-0.00411908,0.00190933,0.91179,-0.651201,0.00357015,0,0,0,0,0,0,0,0.0137697,-0.196752,-0.331234,-1.66061,-0.0682292,1.47682,0.402509,-0.00397732,9.90886e-05,-0.00800689,0.0109483,0.320195,-0.0561921,-0.000776671,0.765262,-25.9093,2.48842,25.856,1.61926,2.37664,-0.0227812,-0.353573,-0.755841,1.29628,1.00357,-0.29102,-0.356372,-0.286445,-0.188256,-0.554724,-0.107301,0.417088,-0.629996,-0.0364789,
0.0133337,-0.196759,-0.3316,-1.66004,-0.0509886,-0.113029,-0.382761,-0.00114848,-0.00751573,-0.000978869,-0.000675896,0.936467,-0.666838,0.00351891,0,0,0,0,0,0,0,0.0137697,-0.196752,-0.331234,-1.66061,-0.0682292,1.47682,0.402509,-0.00397732,9.90886e-05,-0.00800689,0.0109483,0.320195,-0.0561921,-0.000776671,0.765262,-25.9093,2.48842,25.856,1.61926,2.37664,-0.0227812,-0.353573,-0.755841,1.29628,1.00357,-0.29102,-0.356372,-0.286445,-0.188256,-0.554724,-0.107301,0.417088,-0.629996,-0.0364789,
0.0133407,-0.196789,-0.331592,-1.66005,-0.047161,-0.115742,-0.382747,0.00176075,-0.00756595,0.00202526,-0.00284719,0.956909,-0.678208,0.00345841,0,0,0,0,0,0,0,0.0137697,-0.196752,-0.331234,-1.66061,-0.0682292,1.47682,0.402509,-0.00397732,9.90886e-05,-0.00800689,0.0109483,0.320195,-0.0561921,-0.000776671,0.765262,-25.9093,2.48842,25.856,1.61926,2.37664,-0.0227812,0.0713916,-0.478767,1.21971,0.938885,0.117355,-0.148106,-0.0586582,0.0769733,-0.373032,-0.276115,0.533773,-0.72101,-0.0379771,
0.0133585,-0.196819,-0.331573,-1.66007,-0.0432653,-0.118486,-0.382734,0.0044609,-0.00736757,0.00485153,-0.00467206,0.973911,-0.686091,0.0033927,0,0,0,0,0,0,0,0.0137697,-0.196752,-0.331234,-1.66061,-0.0682292,1.47682,0.402509,-0.00397732,9.90886e-05,-0.00800689,0.0109483,0.320195,-0.0561921,-0.000776671,0.765262,-25.9093,2.48842,25.856,1.61926,2.37664,-0.0227812,0.0713916,-0.478767,1.21971,0.938885,0.117355,-0.148106,-0.0586582,0.0769733,-0.373032,-0.276115,0.533773,-0.72101,-0.0379771,
0.0133863,-0.196847,-0.331543,-1.66009,-0.0393129,-0.121251,-0.382721,0.00694403,-0.00699238,0.00747856,-0.00620574,0.988096,-0.691129,0.0033243,0,0,0,0,0,0,0,0.0137697,-0.196752,-0.331234,-1.66061,-0.0682292,1.47682,0.402509,-0.00397732,9.90886e-05,-0.00800689,0.0109483,0.320195,-0.0561921,-0.000776671,0.765262,-25.9093,2.48842,25.856,1.61926,2.37664,-0.0227812,-0.204094,-0.535499,1.56056,1.01871,-0.180043,-0.214039,-0.104807,-0.130737,-0.465871,-0.183029,0.598316,-0.788224,-0.0381133,
0.0134232,-0.196873,-0.331503,-1.66012,-0.0353131,-0.124026,-0.382708,0.00921139,-0.00649701,0.0098985,-0.00749352,0.999954,-0.693848,0.00325476,0,0,0,0,0,0,0,0.0137697,-0.196752,-0.331234,-1.66061,-0.0682292,1.47682,0.402509,-0.00397732,9.90886e-05,-0.00800689,0.0109483,0.320195,-0.0561921,-0.000776671,0.765262,-25.9093,2.48842,25.856,1.61926,2.37664,-0.0227812,-0.204094,-0.535499,1.56056,1.01871,-0.180043,-0.214039,-0.104807,-0.130737,-0.465871,-0.183029,0.598316,-0.788224,-0.0381133,
0.0134682,-0.196896,-0.331455,-1.66016,-0.0312736,-0.126805,-0.382695,0.01127,-0.00592548,0.0121123,-0.00857262,1.00987,-0.694682,0.00318566,0,0,0,0,0,0,0,0.0134559,-0.196757,-0.331607,-1.66046,-0.0527929,1.47366,0.402507,-0.0157805,-0.00375695,-0.0114419,0.00351749,0.553597,-0.12957,-0.00146564,1.24927,-25.7109,2.93672,25.6815,1.8399,2.11114,-0.0026396,-0.273504,-0.468557,1.94129,0.996099,-0.37389,-0.188734,-0.0642594,-0.302414,-0.45358,-0.0593368,0.677844,-0.815563,-0.0373433,
0.0135208,-0.196918,-0.331398,-1.66019,-0.0272009,-0.129581,-0.382682,0.0131304,-0.00531164,0.0141266,-0.00947384,1.01817,-0.693985,0.0031176,0,0,0,0,0,0,0,0.0134559,-0.196757,-0.331607,-1.66046,-0.0527929,1.47366,0.402507,-0.0157805,-0.00375695,-0.0114419,0.00351749,0.553597,-0.12957,-0.00146564,1.24927,-25.7109,2.93672,25.6815,1.8399,2.11114,-0.0026396,0.032646,-0.066897,1.83466,0.852338,-0.0630769,0.052988,0.186051,-0.0939543,-0.222311,-0.21236,0.814592,-0.895785,-0.0361895,
0.01358,-0.196936,-0.331334,-1.66023,-0.0231005,-0.132349,-0.38267,0.0148051,-0.00468114,0.0159513,-0.0102229,1.0251,-0.692047,0.00305135,0,0,0,0,0,0,0,0.0134559,-0.196757,-0.331607,-1.66046,-0.0527929,1.47366,0.402507,-0.0157805,-0.00375695,-0.0114419,0.00351749,0.553597,-0.12957,-0.00146564,1.24927,-25.7109,2.93672,25.6815,1.8399,2.11114,-0.0026396,0.032646,-0.066897,1.83466,0.852338,-0.0630769,0.052988,0.186051,-0.0939543,-0.222311,-0.21236,0.814592,-0.895785,-0.0361895,
0.0136452,-0.196953,-0.331264,-1.66028,-0.0189771,-0.135105,-0.382658,0.0163073,-0.004053,0.0175984,-0.0108412,1.03086,-0.689109,0.00298687,0,0,0,0,0,0,0,0.0134559,-0.196757,-0.331607,-1.66046,-0.0527929,1.47366,0.402507,-0.0157805,-0.00375695,-0.0114419,0.00351749,0.553597,-0.12957,-0.00146564,1.24927,-25.7109,2.93672,25.6815,1.8399,2.11114,-0.0026396,-0.466664,0.330979,2.19379,0.576608,-0.562543,0.151353,0.296266,-0.426065,-0.107201,-0.0608654,0.890675,-0.943462,-0.0336296,
0.0137158,-0.196966,-0.331188,-1.66032,-0.0148345,-0.137847,-0.382646,0.0176507,-0.0034411,0.0190807,-0.0113468,1.03563,-0.685364,0.0029248,0,0,0,0,0,0,0,0.0134559,-0.196757,-0.331607,-1.66046,-0.0527929,1.47366,0.402507,-0.0157805,-0.00375695,-0.0114419,0.00351749,0.553597,-0.12957,-0.00146564,1.24927,-25.7109,2.93672,25.6815,1.8399,2.11114,-0.0026396,-0.466664,0.330979,2.19379,0.576608,-0.562543,0.151353,0.296266,-0.426065,-0.107201,-0.0608654,0.890675,-0.943462,-0.0336296,
0.0137912,-0.196978,-0.331106,-1.66037,-0.0106763,-0.140571,-0.382635,0.0188484,-0.00285515,0.0204109,-0.0117551,1.03955,-0.680973,0.00286463,0,0,0,0,0,0,0,0.0129767,-0.196777,-0.33215,-1.66036,-0.0267577,1.46584,0.402504,-0.0116722,0.00142816,-0.0109933,0.000603959,0.626554,-0.21198,-0.000449523,1.34845,-25.5126,2.91292,25.8084,2.38922,1.9262,-0.00996382,-0.110545,0.456337,1.94297,0.582154,-0.158191,0.277621,0.435485,-0.141758,-0.00414276,-0.251161,0.941973,-0.99807,-0.0318278,
0.0138709,-0.196987,-0.33102,-1.66042,-0.00650535,-0.143275,-0.382624,0.0199134,-0.00230177,0.021602,-0.0120792,1.04274,-0.676067,0.00280671,0,0,0,0,0,0,0,0.0129767,-0.196777,-0.33215,-1.66036,-0.0267577,1.46584,0.402504,-0.0116722,0.00142816,-0.0109933,0.000603959,0.626554,-0.21198,-0.000449523,1.34845,-25.5126,2.91292,25.8084,2.38922,1.9262,-0.00996382,0.0181187,0.582514,1.91445,0.557285,-0.0223994,0.363879,0.532574,-0.0496901,0.067684,-0.322278,0.999275,-1.04431,-0.0298772,
0.0139543,-0.196994,-0.330929,-1.66047,-0.00232416,-0.145958,-0.382613,0.0208575,-0.00178507,0.022666,-0.0123305,1.0453,-0.670752,0.00275101,0,0,0,0,0,0,0,0.0129767,-0.196777,-0.33215,-1.66036,-0.0267577,1.46584,0.402504,-0.0116722,0.00142816,-0.0109933,0.000603959,0.626554,-0.21198,-0.000449523,1.34845,-25.5126,2.91292,25.8084,2.38922,1.9262,-0.00996382,0.0181187,0.582514,1.91445,0.557285,-0.0223994,0.363879,0.532574,-0.0496901,0.067684,-0.322278,0.999275,-1.04431,-0.0298772,
0.0140411,-0.196999,-0.330834,-1.66052,0.00186505,-0.148618,-0.382602,0.0216922,-0.00130731,0.0236144,-0.0125184,1.0473,-0.665115,0.00269741,0,0,0,0,0,0,0,0.0129767,-0.196777,-0.33215,-1.66036,-0.0267577,1.46584,0.402504,-0.0116722,0.00142816,-0.0109933,0.000603959,0.626554,-0.21198,-0.000449523,1.34845,-25.5126,2.91292,25.8084,2.38922,1.9262,-0.00996382,-0.227306,0.233053,1.99069,0.788131,-0.203094,0.171038,0.353761,-0.15096,-0.155457,-0.294777,0.954523,-1.06998,-0.027751,
0.0141308,-0.197003,-0.330737,-1.66057,0.00606036,-0.151255,-0.382591,0.0224277,-0.000869292,0.024458,-0.0126516,1.04883,-0.659227,0.0026456,0,0,0,0,0,0,0,0.0129767,-0.196777,-0.33215,-1.66036,-0.0267577,1.46584,0.402504,-0.0116722,0.00142816,-0.0109933,0.000603959,0.626554,-0.21198,-0.000449523,1.34845,-25.5126,2.91292,25.8084,2.38922,1.9262,-0.00996382,-0.227306,0.233053,1.99069,0.788131,-0.203094,0.171038,0.353761,-0.15096,-0.155457,-0.294777,0.954523,-1.06998,-0.027751,
0.0142231,-0.197005,-0.330636,-1.66062,0.0102601,-0.153868,-0.382581,0.0230736,-0.000470811,0.0252067,-0.0127372,1.04994,-0.653145,0.00259577,0,0,0,0,0,0,0,0.0127578,-0.196818,-0.332353,-1.66032,-0.00557678,1.4584,0.402509,-0.00231645,-0.00114548,-0.00513422,0.00662836,0.73173,-0.26625,0.000532665,1.30085,-25.1119,2.98829,25.4831,1.75384,1.93261,-0.0429228,0.233727,0.209436,1.72016,0.827783,0.279422,0.248063,0.431121,0.177665,-0.0871839,-0.470395,0.930414,-1.0879,-0.0275861,
0.0143176,-0.197005,-0.330532,-1.66067,0.0144629,-0.156456,-0.382571,0.0236387,-0.000110894,0.0258696,-0.0127817,1.05069,-0.646915,0.00254742,0,0,0,0,0,0,0,0.0127578,-0.196818,-0.332353,-1.66032,-0.00557678,1.4584,0.402509,-0.00231645,-0.00114548,-0.00513422,0.00662836,0.73173,-0.26625,0.000532665,1.30085,-25.1119,2.98829,25.4831,1.75384,1.93261,-0.0429228,0.0344199,-0.108436,1.76109,0.973425,0.134272,0.0756371,0.260084,0.0983241,-0.265084,-0.428251,0.829997,-1.08005,-0.0258796,
0.0144141,-0.197004,-0.330426,-1.66072,0.0186674,-0.159018,-0.382561,0.024131,0.000211998,0.0264551,-0.0127906,1.05112,-0.640574,0.00250086,0,0,0,0,0,0,0,0.0127578,-0.196818,-0.332353,-1.66032,-0.00557678,1.4584,0.402509,-0.00231645,-0.00114548,-0.00513422,0.00662836,0.73173,-0.26625,0.000532665,1.30085,-25.1119,2.98829,25.4831,1.75384,1.93261,-0.0429228,0.0344199,-0.108436,1.76109,0.973425,0.134272,0.0756371,0.260084,0.0983241,-0.265084,-0.428251,0.829997,-1.08005,-0.0258796,
0.0145282,-0.196912,-0.330418,-1.6606,-0.0758217,-0.0985604,-0.382745,0.0784154,-0.0147925,0.0888192,0.00169463,0.414789,-0.634391,0.0119767,0,0,0,0,0,0,0,0.0127578,-0.196818,-0.332353,-1.66032,-0.00557678,1.4584,0.402509,-0.00231645,-0.00114548,-0.00513422,0.00662836,0.73173,-0.26625,0.000532665,1.30085,-25.1119,2.98829,25.4831,1.75384,1.93261,-0.0429228,-0.316599,-0.174237,1.70972,0.915708,-0.0912017,-0.00938713,0.166977,-0.00874672,-0.325704,-0.396578,0.711735,-1.06995,-0.0246378,
0.0135977,-0.197048,-0.331488,-1.66035,0.00282268,-0.119769,-0.382734,0.0961155,-0.0248472,0.103962,-0.0102802,0.705312,-0.753656,0.0124764,0,0,0,0,0,0,0,0.0127578,-0.196818,-0.332353,-1.66032,-0.00557678,1.4584,0.402509,-0.00231645,-0.00114548,-0.00513422,0.00662836,0.73173,-0.26625,0.000532665,1.30085,-25.1119,2.98829,25.4831,1.75384,1.93261,-0.0429228,-0.316599,-0.174237,1.70972,0.915708,-0.0912017,-0.00938713,0.166977,-0.00874672,-0.325704,-0.396578,0.711735,-1.06995,-0.0246378,
0.0140603,-0.197156,-0.330979,-1.66042,0.00572423,-0.123205,-0.382687,0.115636,-0.0269219,0.127289,-0.0178784,0.725387,-0.85913,0.0118457,0,0,0,0,0,0,0,0.0127578,-0.196818,-0.332353,-1.66032,-0.00557678,1.4584,0.402509,-0.00231645,-0.00114548,-0.00513422,0.00662836,0.73173,-0.26625,0.000532665,1.30085,-25.1119,2.98829,25.4831,1.75384,1.93261,-0.0429228,-0.315078,-0.103366,1.68159,0.784071,-0.11855,0.0227402,0.182757,-0.0341766,-0.25925,-0.344822,0.651118,-1.00813,-0.0227026,
0.0145869,-0.197264,-0.330394,-1.66053,0.00872625,-0.126988,-0.382641,0.131672,-0.0271209,0.146126,-0.0250807,0.750505,-0.945587,0.0113263,0,0,0,0,0,0,0,0.0127858,-0.196795,-0.332323,-1.66033,0.0187299,1.44904,0.402508,0.00679171,-0.00381151,0.00299263,0.000145699,0.739177,-0.298825,-0.00072359,0.995365,-25.4372,2.91292,25.9076,0.557247,2.74834,-0.00996382,-0.315078,-0.103366,1.68159,0.784071,-0.11855,0.0227402,0.182757,-0.0341766,-0.25925,-0.344822,0.651118,-1.00813,-0.0227026,
0.0151669,-0.197368,-0.329748,-1.66065,0.0118374,-0.131054,-0.382598,0.144991,-0.0259796,0.161531,-0.0317242,0.777785,-1.01663,0.0108901,0,0,0,0,0,0,0,0.0127858,-0.196795,-0.332323,-1.66033,0.0187299,1.44904,0.402508,0.00679171,-0.00381151,0.00299263,0.000145699,0.739177,-0.298825,-0.00072359,0.995365,-25.4372,2.91292,25.9076,0.557247,2.74834,-0.00996382,-0.589218,-0.0473988,1.58742,0.669963,-0.330303,-0.00823533,0.150746,-0.153446,-0.269919,-0.287388,0.580865,-0.948998,-0.014234,
0.0157915,-0.197464,-0.329051,-1.6608,0.0150589,-0.135355,-0.382556,0.156158,-0.0239161,0.174273,-0.0377499,0.805372,-1.07512,0.0105165,0,0,0,0,0,0,0,0.0127858,-0.196795,-0.332323,-1.66033,0.0187299,1.44904,0.402508,0.00679171,-0.00381151,0.00299263,0.000145699,0.739177,-0.298825,-0.00072359,0.995365,-25.4372,2.91292,25.9076,0.557247,2.74834,-0.00996382,-0.657793,-0.523297,1.54968,0.829797,-0.357098,-0.238315,-0.100493,-0.156053,-0.478016,-0.242454,0.372788,-0.890629,-0.0094534,
0.0164539,-0.197549,-0.328311,-1.66098,0.0183873,-0.139848,-0.382515,0.165594,-0.0212483,0.184917,-0.0431496,0.832112,-1.12332,0.010187,0,0,0,0,0,0,0,0.0127858,-0.196795,-0.332323,-1.66033,0.0187299,1.44904,0.402508,0.00679171,-0.00381151,0.00299263,0.000145699,0.739177,-0.298825,-0.00072359,0.995365,-25.4372,2.91292,25.9076,0.557247,2.74834,-0.00996382,-0.657793,-0.523297,1.54968,0.829797,-0.357098,-0.238315,-0.100493,-0.156053,-0.478016,-0.242454,0.372788,-0.890629,-0.0094534,
0.0171484,-0.197622,-0.327536,-1.66117,0.0218166,-0.1445,-0.382475,0.173617,-0.018214,0.193882,-0.0479422,0.857328,-1.16306,0.00989072,0,0,0,0,0,0,0,0.0127858,-0.196795,-0.332323,-1.66033,0.0187299,1.44904,0.402508,0.00679171,-0.00381151,0.00299263,0.000145699,0.739177,-0.298825,-0.00072359,0.995365,-25.4372,2.91292,25.9076,0.557247,2.74834,-0.00996382,-0.473479,-1.31892,1.63015,1.10777,-0.271564,-0.567627,-0.457707,-0.130286,-0.780094,-0.11437,0.0699832,-0.757899,-0.00856245,
0.0178702,-0.197681,-0.32673,-1.66138,0.0253393,-0.149283,-0.382437,0.180467,-0.0149892,0.201481,-0.0521603,0.880656,-1.19583,0.00961942,0,0,0,0,0,0,0,0.013697,-0.196849,-0.331113,-1.66032,0.0363594,1.43887,0.402513,0.0383755,-0.00277665,0.046338,0.00716493,0.588,-0.407227,-0.000317048,1.98322,-25.1634,4.26179,25.1578,1.19812,1.79345,-0.0163725,-0.473479,-1.31892,1.63015,1.10777,-0.271564,-0.567627,-0.457707,-0.130286,-0.780094,-0.11437,0.0699832,-0.757899,-0.00856245,
0.0186156,-0.197728,-0.325898,-1.6616,0.028947,-0.154174,-0.382399,0.186333,-0.0117093,0.207955,-0.0558649,0.901941,-1.22273,0.00936811,0,0,0,0,0,0,0,0.013697,-0.196849,-0.331113,-1.66032,0.0363594,1.43887,0.402513,0.0383755,-0.00277665,0.046338,0.00716493,0.588,-0.407227,-0.000317048,1.98322,-25.1634,4.26179,25.1578,1.19812,1.79345,-0.0163725,-0.628141,-1.43482,1.62847,1.09632,-0.346631,-0.641518,-0.553658,-0.151905,-0.823998,-0.108496,-0.0369462,-0.768058,-0.00670681,
0.0193811,-0.197765,-0.325044,-1.66185,0.0326319,-0.159104,-0.382363,0.191386,-0.00923359,0.213624,-0.0615153,0.921225,-1.23252,0.00919122,0,0,0,0,0,0,0,0.013697,-0.196849,-0.331113,-1.66032,0.0363594,1.43887,0.402513,0.0383755,-0.00277665,0.046338,0.00716493,0.588,-0.407227,-0.000317048,1.98322,-25.1634,4.26179,25.1578,1.19812,1.79345,-0.0163725,-0.628141,-1.43482,1.62847,1.09632,-0.346631,-0.641518,-0.553658,-0.151905,-0.823998,-0.108496,-0.0369462,-0.768058,-0.00670681,
0.0201642,-0.197792,-0.32417,-1.66211,0.036386,-0.164034,-0.382327,0.195762,-0.00660403,0.218429,-0.0666393,0.938529,-1.23236,0.0090123,0,0,0,0,0,0,0,0.013697,-0.196849,-0.331113,-1.66032,0.0363594,1.43887,0.402513,0.0383755,-0.00277665,0.046338,0.00716493,0.588,-0.407227,-0.000317048,1.98322,-25.1634,4.26179,25.1578,1.19812,1.79345,-0.0163725,-0.398171,-0.981867,1.37973,0.864056,0.0096783,-0.38709,-0.318955,0.129945,-0.542566,-0.332785,0.0238372,-0.87949,-0.00626588,
0.0209622,-0.197807,-0.32328,-1.6624,0.0402016,-0.168937,-0.382291,0.199514,-0.0037517,0.22251,-0.0707547,0.953896,-1.22584,0.00883319,0,0,0,0,0,0,0,0.013697,-0.196849,-0.331113,-1.66032,0.0363594,1.43887,0.402513,0.0383755,-0.00277665,0.046338,0.00716493,0.588,-0.407227,-0.000317048,1.98322,-25.1634,4.26179,25.1578,1.19812,1.79345,-0.0163725,-1.04941,-0.785512,1.42712,0.680747,-0.494339,-0.399776,-0.331908,-0.155788,-0.530928,-0.245675,-0.00318127,-0.891792,-0.00770896,
0.0217731,-0.19781,-0.322376,-1.66269,0.0440713,-0.173797,-0.382257,0.202717,-0.000801061,0.225986,-0.0739136,0.967416,-1.21502,0.0086548,0,0,0,0,0,0,0,0.013697,-0.196849,-0.331113,-1.66032,0.0363594,1.43887,0.402513,0.0383755,-0.00277665,0.046338,0.00716493,0.588,-0.407227,-0.000317048,1.98322,-25.1634,4.26179,25.1578,1.19812,1.79345,-0.0163725,-1.04941,-0.785512,1.42712,0.680747,-0.494339,-0.399776,-0.331908,-0.155788,-0.530928,-0.245675,-0.00318127,-0.891792,-0.00770896,
0.0225948,-0.197801,-0.32146,-1.663,0.0479882,-0.178602,-0.382223,0.205439,0.00211911,0.228948,-0.0762789,0.979221,-1.20123,0.00848094,0,0,0,0,0,0,0,0.0153891,-0.197013,-0.329065,-1.66029,0.0550598,1.4234,0.402516,0.0652132,-0.00470582,0.0727686,0.000136625,0.607269,-0.535736,0.000862208,2.11017,-24.8381,4.18641,24.8602,1.67419,1.53435,-0.0429228,-1.29522,-0.988639,1.14857,0.855448,-0.50491,-0.519088,-0.454225,-0.0862756,-0.666345,-0.388657,-0.0494114,-0.9567,-0.00794803,
0.0234258,-0.197782,-0.320534,-1.66331,0.051946,-0.183344,-0.382189,0.207737,0.00491548,0.231465,-0.0780103,0.989462,-1.18538,0.00831094,0,0,0,0,0,0,0,0.0153891,-0.197013,-0.329065,-1.66029,0.0550598,1.4234,0.402516,0.0652132,-0.00470582,0.0727686,0.000136625,0.607269,-0.535736,0.000862208,2.11017,-24.8381,4.18641,24.8602,1.67419,1.53435,-0.0429228,-1.29522,-0.988639,1.14857,0.855448,-0.50491,-0.519088,-0.454225,-0.0862756,-0.666345,-0.388657,-0.0494114,-0.9567,-0.00794803,
0.0242644,-0.197752,-0.3196,-1.66363,0.0559392,-0.188016,-0.382157,0.209661,0.00753004,0.233592,-0.0792387,0.998294,-1.1681,0.00814512,0,0,0,0,0,0,0,0.0153891,-0.197013,-0.329065,-1.66029,0.0550598,1.4234,0.402516,0.0652132,-0.00470582,0.0727686,0.000136625,0.607269,-0.535736,0.000862208,2.11017,-24.8381,4.18641,24.8602,1.67419,1.53435,-0.0429228,-1.49264,-1.19064,1.17437,1.05051,-0.586186,-0.626082,-0.563441,-0.104146,-0.794248,-0.447887,-0.0338166,-1.0452,-0.00702711,
0.0251095,-0.197712,-0.318658,-1.66395,0.0599627,-0.192616,-0.382125,0.211252,0.00993197,0.235372,-0.0800665,1.00587,-1.14984,0.00798253,0,0,0,0,0,0,0,0.0153891,-0.197013,-0.329065,-1.66029,0.0550598,1.4234,0.402516,0.0652132,-0.00470582,0.0727686,0.000136625,0.607269,-0.535736,0.000862208,2.11017,-24.8381,4.18641,24.8602,1.67419,1.53435,-0.0429228,-1.49264,-1.19064,1.17437,1.05051,-0.586186,-0.626082,-0.563441,-0.104146,-0.794248,-0.447887,-0.0338166,-1.0452,-0.00702711,
0.0259596,-0.197663,-0.317711,-1.66427,0.064012,-0.197139,-0.382094,0.212545,0.0121089,0.236845,-0.0805732,1.01232,-1.13092,0.00782483,0,0,0,0,0,0,0,0.0153891,-0.197013,-0.329065,-1.66029,0.0550598,1.4234,0.402516,0.0652132,-0.00470582,0.0727686,0.000136625,0.607269,-0.535736,0.000862208,2.11017,-24.8381,4.18641,24.8602,1.67419,1.53435,-0.0429228,-1.7124,-1.11435,1.27075,1.07137,-0.799435,-0.623952,-0.558071,-0.245677,-0.803449,-0.406089,0.0584452,-1.06586,-0.00542537,
0.0268139,-0.197607,-0.316759,-1.66459,0.0680831,-0.201585,-0.382063,0.213571,0.014061,0.238041,-0.08082,1.01778,-1.11157,0.00767081,0,0,0,0,0,0,0,0.0176077,-0.19706,-0.325879,-1.66043,0.0756447,1.40466,0.402512,0.0717157,0.00191661,0.11848,-0.00750884,0.624632,-0.599264,0.00410263,1.85627,-24.9373,3.76192,24.8087,2.39563,1.52154,-0.0026396,-1.37608,-0.899953,1.04932,1.07983,-0.459986,-0.47275,-0.413538,-0.0197884,-0.665888,-0.566192,0.199956,-1.10528,-0.00298212,
0.0276713,-0.197544,-0.315803,-1.66491,0.0721726,-0.205953,-0.382033,0.214357,0.0157958,0.23899,-0.0808553,1.02237,-1.09197,0.00752123,0,0,0,0,0,0,0,0.0176077,-0.19706,-0.325879,-1.66043,0.0756447,1.40466,0.402512,0.0717157,0.00191661,0.11848,-0.00750884,0.624632,-0.599264,0.00410263,1.85627,-24.9373,3.76192,24.8087,2.39563,1.52154,-0.0026396,-1.37608,-0.899953,1.04932,1.07983,-0.459986,-0.47275,-0.413538,-0.0197884,-0.665888,-0.566192,0.199956,-1.10528,-0.00298212,
0.0285311,-0.197475,-0.314844,-1.66524,0.0762772,-0.210242,-0.382003,0.214928,0.0173259,0.239715,-0.0807163,1.02617,-1.07224,0.00737462,0,0,0,0,0,0,0,0.0176077,-0.19706,-0.325879,-1.66043,0.0756447,1.40466,0.402512,0.0717157,0.00191661,0.11848,-0.00750884,0.624632,-0.599264,0.00410263,1.85627,-24.9373,3.76192,24.8087,2.39563,1.52154,-0.0026396,-1.41158,0.0277749,0.864652,0.560669,-0.427757,-0.0613573,-0.0213719,0.0286332,-0.205052,-0.665768,0.381056,-1.15632,-0.00344036,
0.0293923,-0.1974,-0.313883,-1.66556,0.0803944,-0.214452,-0.381974,0.215307,0.0186656,0.24024,-0.0804339,1.02929,-1.05248,0.00723244,0,0,0,0,0,0,0,0.0176077,-0.19706,-0.325879,-1.66043,0.0756447,1.40466,0.402512,0.0717157,0.00191661,0.11848,-0.00750884,0.624632,-0.599264,0.00410263,1.85627,-24.9373,3.76192,24.8087,2.39563,1.52154,-0.0026396,-1.41158,0.0277749,0.864652,0.560669,-0.427757,-0.0613573,-0.0213719,0.0286332,-0.205052,-0.665768,0.381056,-1.15632,-0.00344036,
0.0302543,-0.197321,-0.312921,-1.66588,0.0845216,-0.218583,-0.381946,0.215513,0.0198309,0.240584,-0.0800322,1.0318,-1.03275,0.00709292,0,0,0,0,0,0,0,0.0176077,-0.19706,-0.325879,-1.66043,0.0756447,1.40466,0.402512,0.0717157,0.00191661,0.11848,-0.00750884,0.624632,-0.599264,0.00410263,1.85627,-24.9373,3.76192,24.8087,2.39563,1.52154,-0.0026396,-1.07679,0.629979,0.45024,0.317819,-0.0618949,0.252635,0.282618,0.283854,0.118783,-0.85745,0.56095,-1.16243,-0.0035812,
0.0311166,-0.197237,-0.311958,-1.6662,0.0886567,-0.222636,-0.381918,0.215564,0.0208375,0.240767,-0.0795312,1.03377,-1.01309,0.00695734,0,0,0,0,0,0,0,0.0176077,-0.19706,-0.325879,-1.66043,0.0756447,1.40466,0.402512,0.0717157,0.00191661,0.11848,-0.00750884,0.624632,-0.599264,0.00410263,1.85627,-24.9373,3.76192,24.8087,2.39563,1.52154,-0.0026396,-1.13079,0.963479,0.595182,0.193822,-0.264747,0.375706,0.413352,0.0982288,0.235976,-0.734537,0.741902,-1.10309,-0.00281106,
0.0319785,-0.197151,-0.310995,-1.66651,0.0927977,-0.22661,-0.381891,0.215476,0.0217009,0.240805,-0.0789472,1.03526,-0.993558,0.00682435,0,0,0,0,0,0,0,0.0212561,-0.197048,-0.320713,-1.66085,0.100504,1.37896,0.40252,0.0937109,-0.000770789,0.133048,-0.0100553,0.590419,-0.633433,0.000430197,1.93164,-25.0127,3.66273,24.5349,2.61535,1.62774,-0.0429228,-1.13079,0.963479,0.595182,0.193822,-0.264747,0.375706,0.413352,0.0982288,0.235976,-0.734537,0.741902,-1.10309,-0.00281106,
0.0143422,-0.197412,-0.330737,-1.6609,0.00149655,-0.11941,-0.38272,0.178212,-0.0588826,0.1912,-0.0613537,0.567746,-0.724153,0.0136749,0,0,0,0,0,0,0,0.0212561,-0.197048,-0.320713,-1.66085,0.100504,1.37896,0.40252,0.0937109,-0.000770789,0.133048,-0.0100553,0.590419,-0.633433,0.000430197,1.93164,-25.0127,3.66273,24.5349,2.61535,1.62774,-0.0429228,-1.24692,0.798847,0.298766,0.428279,-0.29056,0.270832,0.319885,0.105834,0.0885706,-0.804619,0.814716,-1.06987,-0.00398536,
0.0236362,-0.19749,-0.318115,-1.6617,0.107346,-0.201443,-0.382719,0.23109,-0.0417319,0.25482,-0.0839825,0.583986,-0.88337,0.0128517,0,0,0,0,0,0,0,0.0212561,-0.197048,-0.320713,-1.66085,0.100504,1.37896,0.40252,0.0937109,-0.000770789,0.133048,-0.0100553,0.590419,-0.633433,0.000430197,1.93164,-25.0127,3.66273,24.5349,2.61535,1.62774,-0.0429228,-1.24692,0.798847,0.298766,0.428279,-0.29056,0.270832,0.319885,0.105834,0.0885706,-0.804619,0.814716,-1.06987,-0.00398536,
0.0246572,-0.197653,-0.316982,-1.66206,0.109797,-0.205253,-0.38267,0.25526,-0.0407494,0.283284,-0.0906266,0.612786,-0.952596,0.0123249,0,0,0,0,0,0,0,0.0212561,-0.197048,-0.320713,-1.66085,0.100504,1.37896,0.40252,0.0937109,-0.000770789,0.133048,-0.0100553,0.590419,-0.633433,0.000430197,1.93164,-25.0127,3.66273,24.5349,2.61535,1.62774,-0.0429228,-1.43902,1.12478,0.095902,0.292385,-0.433947,0.369321,0.418164,0.0263336,0.190973,-0.810281,0.922452,-1.02564,-0.00479303,
0.0257578,-0.197806,-0.315756,-1.66244,0.112382,-0.209296,-0.382622,0.275134,-0.038108,0.306446,-0.095974,0.646347,-1.01085,0.0118591,0,0,0,0,0,0,0,0.0212561,-0.197048,-0.320713,-1.66085,0.100504,1.37896,0.40252,0.0937109,-0.000770789,0.133048,-0.0100553,0.590419,-0.633433,0.000430197,1.93164,-25.0127,3.66273,24.5349,2.61535,1.62774,-0.0429228,-1.43902,1.12478,0.095902,0.292385,-0.433947,0.369321,0.418164,0.0263336,0.190973,-0.810281,0.922452,-1.02564,-0.00479303,
0.0269243,-0.197944,-0.314454,-1.66285,0.115109,-0.213534,-0.382576,0.29164,-0.0346101,0.325491,-0.100609,0.681677,-1.05947,0.0114366,0,0,0,0,0,0,0,0.0247819,-0.197023,-0.31621,-1.66157,0.117766,1.35927,0.40252,0.123553,-0.00114687,0.13961,-0.0329706,0.398762,-0.538522,-7.38087e-06,-0.0440639,-25.461,1.96077,25.8084,1.61926,2.15142,-0.0301054,-1.38782,2.44333,-0.0459762,-0.604355,-0.463208,0.947388,0.99134,-0.00934655,0.851369,-0.769986,1.07183,-0.949541,-0.00506488,
0.0281462,-0.198067,-0.313089,-1.66327,0.117976,-0.217928,-0.382532,0.305461,-0.0307905,0.341307,-0.104993,0.716858,-1.0984,0.0110589,0,0,0,0,0,0,0,0.0247819,-0.197023,-0.31621,-1.66157,0.117766,1.35927,0.40252,0.123553,-0.00114687,0.13961,-0.0329706,0.398762,-0.538522,-7.38087e-06,-0.0440639,-25.461,1.96077,25.8084,1.61926,2.15142,-0.0301054,-2.00673,1.61563,-0.1116,-0.139341,-0.928008,0.474173,0.512118,-0.272718,0.356617,-0.661562,0.89138,-0.874114,-0.00214044,
0.0294151,-0.198177,-0.31167,-1.66371,0.120979,-0.222401,-0.382489,0.317225,-0.0275531,0.354705,-0.111066,0.750667,-1.11834,0.0107747,0,0,0,0,0,0,0,0.0247819,-0.197023,-0.31621,-1.66157,0.117766,1.35927,0.40252,0.123553,-0.00114687,0.13961,-0.0329706,0.398762,-0.538522,-7.38087e-06,-0.0440639,-25.461,1.96077,25.8084,1.61926,2.15142,-0.0301054,-2.00673,1.61563,-0.1116,-0.139341,-0.928008,0.474173,0.512118,-0.272718,0.356617,-0.661562,0.89138,-0.874114,-0.00214044,
0.0307238,-0.198273,-0.310207,-1.66418,0.124109,-0.226918,-0.382447,0.327178,-0.0238326,0.365903,-0.115893,0.782409,-1.12916,0.0104406,0,0,0,0,0,0,0,0.0247819,-0.197023,-0.31621,-1.66157,0.117766,1.35927,0.40252,0.123553,-0.00114687,0.13961,-0.0329706,0.398762,-0.538522,-7.38087e-06,-0.0440639,-25.461,1.96077,25.8084,1.61926,2.15142,-0.0301054,-2.12985,0.367759,-0.211734,0.537401,-0.975932,-0.0923404,-0.0314248,-0.288731,-0.269301,-0.616062,0.586908,-0.784053,-0.000292979,
0.0320666,-0.198355,-0.308705,-1.66466,0.127355,-0.231409,-0.382407,0.33571,-0.0205946,0.375493,-0.121619,0.811657,-1.12271,0.0101855,0,0,0,0,0,0,0,0.0247819,-0.197023,-0.31621,-1.66157,0.117766,1.35927,0.40252,0.123553,-0.00114687,0.13961,-0.0329706,0.398762,-0.538522,-7.38087e-06,-0.0440639,-25.461,1.96077,25.8084,1.61926,2.15142,-0.0301054,-1.89143,0.522594,0.155653,0.289515,-1.02054,0.0116956,0.0640701,-0.407562,-0.121095,-0.394253,0.543058,-0.675536,-0.00265313,
0.0334384,-0.198423,-0.307171,-1.66517,0.130708,-0.235837,-0.382367,0.342946,-0.017061,0.383564,-0.126121,0.838249,-1.10713,0.00993431,0,0,0,0,0,0,0,0.0293473,-0.197108,-0.310569,-1.66275,0.130496,1.34096,0.402515,0.151632,-0.00271648,0.184277,-0.0447557,0.413395,-0.584157,-0.00157765,2.2887,-25.211,4.23799,24.8364,2.71881,1.44189,0.017502,-1.89143,0.522594,0.155653,0.289515,-1.02054,0.0116956,0.0640701,-0.407562,-0.121095,-0.394253,0.543058,-0.675536,-0.00265313,
0.0348345,-0.198477,-0.305609,-1.66568,0.134157,-0.240183,-0.382328,0.349019,-0.013298,0.390333,-0.12921,0.862165,-1.08635,0.0096885,0,0,0,0,0,0,0,0.0293473,-0.197108,-0.310569,-1.66275,0.130496,1.34096,0.402515,0.151632,-0.00271648,0.184277,-0.0447557,0.413395,-0.584157,-0.00157765,2.2887,-25.211,4.23799,24.8364,2.71881,1.44189,0.017502,-1.23972,0.750538,-0.260423,0.180273,-0.318402,0.219074,0.260167,0.0784088,0.0956618,-0.667743,0.551913,-0.72054,-0.00311939,
0.0362508,-0.198515,-0.304025,-1.66621,0.137691,-0.244433,-0.38229,0.354075,-0.00950602,0.395989,-0.131133,0.883488,-1.0625,0.00944836,0,0,0,0,0,0,0,0.0293473,-0.197108,-0.310569,-1.66275,0.130496,1.34096,0.402515,0.151632,-0.00271648,0.184277,-0.0447557,0.413395,-0.584157,-0.00157765,2.2887,-25.211,4.23799,24.8364,2.71881,1.44189,0.017502,-2.05789,0.380796,-0.510461,0.364508,-0.782744,-0.0473471,0.00888376,-0.116896,-0.189077,-0.702068,0.399636,-0.752893,-0.00227866,
0.0376838,-0.198538,-0.302423,-1.66674,0.1413,-0.24858,-0.382253,0.358244,-0.00584841,0.400686,-0.132175,0.902365,-1.03689,0.00921836,0,0,0,0,0,0,0,0.0293473,-0.197108,-0.310569,-1.66275,0.130496,1.34096,0.402515,0.151632,-0.00271648,0.184277,-0.0447557,0.413395,-0.584157,-0.00157765,2.2887,-25.211,4.23799,24.8364,2.71881,1.44189,0.017502,-2.05789,0.380796,-0.510461,0.364508,-0.782744,-0.0473471,0.00888376,-0.116896,-0.189077,-0.702068,0.399636,-0.752893,-0.00227866,
0.0391303,-0.198548,-0.300804,-1.66727,0.144976,-0.252621,-0.382217,0.361641,-0.00242846,0.404552,-0.132566,0.918974,-1.01031,0.00899875,0,0,0,0,0,0,0,0.0293473,-0.197108,-0.310569,-1.66275,0.130496,1.34096,0.402515,0.151632,-0.00271648,0.184277,-0.0447557,0.413395,-0.584157,-0.00157765,2.2887,-25.211,4.23799,24.8364,2.71881,1.44189,0.017502,-1.7845,-0.618063,-0.956513,0.961531,-0.398678,-0.445075,-0.377768,0.16561,-0.641915,-0.848942,0.168701,-0.684167,-0.00199381,
0.0405878,-0.198545,-0.299174,-1.6678,0.14871,-0.256555,-0.382182,0.364362,0.000699623,0.407692,-0.132475,0.933508,-0.983273,0.00879065,0,0,0,0,0,0,0,0.0342517,-0.197244,-0.303749,-1.66407,0.14623,1.32179,0.402515,0.162906,-0.000636799,0.215575,-0.046224,0.56182,-0.595037,-0.00128853,2.76874,-24.8619,4.63869,24.5865,2.67028,1.28899,0.017502,-1.7845,-0.618063,-0.956513,0.961531,-0.398678,-0.445075,-0.377768,0.16561,-0.641915,-0.848942,0.168701,-0.684167,-0.00199381,
0.0420537,-0.198531,-0.297533,-1.66832,0.152495,-0.260379,-0.382148,0.366488,0.00351515,0.410196,-0.132025,0.946158,-0.956109,0.00859102,0,0,0,0,0,0,0,0.0342517,-0.197244,-0.303749,-1.66407,0.14623,1.32179,0.402515,0.162906,-0.000636799,0.215575,-0.046224,0.56182,-0.595037,-0.00128853,2.76874,-24.8619,4.63869,24.5865,2.67028,1.28899,0.017502,-2.38011,0.0728288,-0.887018,0.466335,-0.806129,-0.194182,-0.126438,-0.0354102,-0.343083,-0.838802,0.206243,-0.784575,-0.00133139,
0.0435261,-0.198507,-0.295884,-1.66885,0.156323,-0.264095,-0.382114,0.368093,0.00601874,0.412142,-0.131304,0.957109,-0.929028,0.00840204,0,0,0,0,0,0,0,0.0342517,-0.197244,-0.303749,-1.66407,0.14623,1.32179,0.402515,0.162906,-0.000636799,0.215575,-0.046224,0.56182,-0.595037,-0.00128853,2.76874,-24.8619,4.63869,24.5865,2.67028,1.28899,0.017502,-2.38011,0.0728288,-0.887018,0.466335,-0.806129,-0.194182,-0.126438,-0.0354102,-0.343083,-0.838802,0.206243,-0.784575,-0.00133139,
0.0450031,-0.198474,-0.29423,-1.66937,0.16019,-0.267704,-0.382081,0.369236,0.0082237,0.413595,-0.130376,0.966533,-0.902164,0.00822111,0,0,0,0,0,0,0,0.0342517,-0.197244,-0.303749,-1.66407,0.14623,1.32179,0.402515,0.162906,-0.000636799,0.215575,-0.046224,0.56182,-0.595037,-0.00128853,2.76874,-24.8619,4.63869,24.5865,2.67028,1.28899,0.017502,-2.83156,-0.0470374,-0.413088,0.548517,-1.27441,-0.29186,-0.222639,-0.355776,-0.446062,-0.678565,0.242428,-0.851146,0.00120724,
0.046483,-0.198433,-0.292571,-1.66989,0.164088,-0.271206,-0.382049,0.369974,0.0101499,0.414613,-0.129289,0.974592,-0.8756,0.00804959,0,0,0,0,0,0,0,0.0342517,-0.197244,-0.303749,-1.66407,0.14623,1.32179,0.402515,0.162906,-0.000636799,0.215575,-0.046224,0.56182,-0.595037,-0.00128853,2.76874,-24.8619,4.63869,24.5865,2.67028,1.28899,0.017502,-2.49969,-0.643397,-0.799819,1.02705,-0.890567,-0.522113,-0.453651,-0.0948831,-0.72774,-0.836882,0.21735,-0.811133,0.00191753,
0.0479644,-0.198386,-0.29091,-1.6704,0.168014,-0.274604,-0.382018,0.370354,0.0118211,0.415248,-0.128076,0.98143,-0.849391,0.00788445,0,0,0,0,0,0,0,0.0404198,-0.197245,-0.296273,-1.6657,0.164878,1.30371,0.402517,0.22077,0.000546001,0.242311,-0.0569878,0.602428,-0.541668,-0.00118126,2.26093,-24.8103,4.06343,24.7372,2.82318,1.59386,0.0101778,-2.49969,-0.643397,-0.799819,1.02705,-0.890567,-0.522113,-0.453651,-0.0948831,-0.72774,-0.836882,0.21735,-0.811133,0.00191753,
0.049446,-0.198333,-0.289248,-1.67091,0.171962,-0.277898,-0.381987,0.370419,0.0132615,0.415544,-0.126764,0.987181,-0.823565,0.00772845,0,0,0,0,0,0,0,0.0404198,-0.197245,-0.296273,-1.6657,0.164878,1.30371,0.402517,0.22077,0.000546001,0.242311,-0.0569878,0.602428,-0.541668,-0.00118126,2.26093,-24.8103,4.06343,24.7372,2.82318,1.59386,0.0101778,-2.64449,-0.633879,-1.03627,1.1259,-0.910069,-0.545735,-0.480905,-0.0722152,-0.76784,-0.927754,0.297116,-0.825487,0.00270732,
0.0509269,-0.198275,-0.287586,-1.67141,0.17593,-0.281091,-0.381956,0.370205,0.0144947,0.41554,-0.125374,0.991964,-0.798141,0.00757708,0,0,0,0,0,0,0,0.0404198,-0.197245,-0.296273,-1.6657,0.164878,1.30371,0.402517,0.22077,0.000546001,0.242311,-0.0569878,0.602428,-0.541668,-0.00118126,2.26093,-24.8103,4.06343,24.7372,2.82318,1.59386,0.0101778,-2.64449,-0.633879,-1.03627,1.1259,-0.910069,-0.545735,-0.480905,-0.0722152,-0.76784,-0.927754,0.297116,-0.825487,0.00270732,
0.0524058,-0.198213,-0.285925,-1.6719,0.179914,-0.284183,-0.381927,0.369745,0.0155436,0.415273,-0.123923,0.995889,-0.773128,0.00743338,0,0,0,0,0,0,0,0.0404198,-0.197245,-0.296273,-1.6657,0.164878,1.30371,0.402517,0.22077,0.000546001,0.242311,-0.0569878,0.602428,-0.541668,-0.00118126,2.26093,-24.8103,4.06343,24.7372,2.82318,1.59386,0.0101778,-2.39184,0.125419,-1.02264,0.722539,-0.741791,-0.179253,-0.111266,0.0164093,-0.382172,-0.970313,0.493918,-0.851206,0.00147767,
0.0538821,-0.198147,-0.284266,-1.67239,0.18391,-0.287177,-0.381897,0.36907,0.0164293,0.414773,-0.122422,0.999052,-0.74853,0.00729392,0,0,0,0,0,0,0,0.0404198,-0.197245,-0.296273,-1.6657,0.164878,1.30371,0.402517,0.22077,0.000546001,0.242311,-0.0569878,0.602428,-0.541668,-0.00118126,2.26093,-24.8103,4.06343,24.7372,2.82318,1.59386,0.0101778,-1.93096,0.994347,-0.785346,0.225901,-0.538088,0.255341,0.324674,0.0744583,0.0826577,-0.916129,0.718076,-0.840579,-5.57487e-05,
0.0553549,-0.198078,-0.28261,-1.67288,0.187916,-0.290075,-0.381869,0.368204,0.0171709,0.414067,-0.120885,1.00154,-0.724345,0.00716218,0,0,0,0,0,0,0,0.0404198,-0.197245,-0.296273,-1.6657,0.164878,1.30371,0.402517,0.22077,0.000546001,0.242311,-0.0569878,0.602428,-0.541668,-0.00118126,2.26093,-24.8103,4.06343,24.7372,2.82318,1.59386,0.0101778,-1.93096,0.994347,-0.785346,0.225901,-0.538088,0.255341,0.324674,0.0744583,0.0826577,-0.916129,0.718076,-0.840579,-5.57487e-05,
0.0242562,-0.1978,-0.317468,-1.6622,0.106317,-0.200446,-0.382733,0.300016,-0.0711699,0.329854,-0.134017,0.476856,-0.760203,0.0118029,0,0,0,0,0,0,0,0.0471154,-0.197181,-0.287941,-1.66744,0.182894,1.28815,0.40252,0.215065,-0.00288097,0.275319,-0.0620019,0.564484,-0.472182,-4.82744e-05,2.46723,-25.3618,3.93648,24.8087,3.18939,1.83922,-0.0163725,-1.6246,1.67209,-0.543659,-0.172852,-0.486818,0.576584,0.659603,0.0300021,0.420089,-0.798738,0.896259,-0.782258,-0.00108449,
0.0510542,-0.197629,-0.283573,-1.66896,0.189456,-0.289387,-0.382745,0.363603,-0.041503,0.405335,-0.139934,0.560795,-0.60519,0.0109297,0,0,0,0,0,0,0,0.0471154,-0.197181,-0.287941,-1.66744,0.182894,1.28815,0.40252,0.215065,-0.00288097,0.275319,-0.0620019,0.564484,-0.472182,-4.82744e-05,2.46723,-25.3618,3.93648,24.8087,3.18939,1.83922,-0.0163725,-1.6246,1.67209,-0.543659,-0.172852,-0.486818,0.576584,0.659603,0.0300021,0.420089,-0.798738,0.896259,-0.782258,-0.00108449,
0.0526124,-0.197787,-0.281829,-1.66954,0.191814,-0.291939,-0.382703,0.389537,-0.0396393,0.435939,-0.14619,0.589384,-0.637861,0.0106236,0,0,0,0,0,0,0,0.0471154,-0.197181,-0.287941,-1.66744,0.182894,1.28815,0.40252,0.215065,-0.00288097,0.275319,-0.0620019,0.564484,-0.472182,-4.82744e-05,2.46723,-25.3618,3.93648,24.8087,3.18939,1.83922,-0.0163725,-2.00671,1.5059,-0.925391,0.0694335,-0.618501,0.43942,0.532063,0.0144634,0.241154,-0.925427,0.961579,-0.798826,-0.00128273,
0.0542549,-0.197931,-0.279986,-1.67014,0.194305,-0.294593,-0.382662,0.41062,-0.0360607,0.460638,-0.150276,0.622793,-0.663553,0.0102871,0,0,0,0,0,0,0,0.0471154,-0.197181,-0.287941,-1.66744,0.182894,1.28815,0.40252,0.215065,-0.00288097,0.275319,-0.0620019,0.564484,-0.472182,-4.82744e-05,2.46723,-25.3618,3.93648,24.8087,3.18939,1.83922,-0.0163725,-2.00671,1.5059,-0.925391,0.0694335,-0.618501,0.43942,0.532063,0.0144634,0.241154,-0.925427,0.961579,-0.798826,-0.00128273,
0.0559672,-0.198061,-0.278063,-1.67076,0.196937,-0.297286,-0.382621,0.428077,-0.0324726,0.480927,-0.155058,0.657957,-0.673229,0.0100933,0,0,0,0,0,0,0,0.0471154,-0.197181,-0.287941,-1.66744,0.182894,1.28815,0.40252,0.215065,-0.00288097,0.275319,-0.0620019,0.564484,-0.472182,-4.82744e-05,2.46723,-25.3618,3.93648,24.8087,3.18939,1.83922,-0.0163725,-1.45719,2.68479,-1.03519,-0.664922,-0.16913,1.03008,1.11178,0.298296,0.893188,-1.04282,1.14335,-0.826527,-0.0020213,
0.0577368,-0.198173,-0.276073,-1.67139,0.199708,-0.299997,-0.382582,0.442403,-0.0280449,0.497466,-0.157917,0.692963,-0.677752,0.00978997,0,0,0,0,0,0,0,0.0571426,-0.197149,-0.275766,-1.66996,0.202798,1.2716,0.40252,0.249352,-0.00297699,0.32284,-0.0694586,0.349395,-0.318169,0.000316297,2.87189,-25.8101,4.08723,24.4873,2.67028,1.51513,-0.0163725,-2.58312,1.29606,-0.807975,0.19249,-1.09797,0.278543,0.351374,-0.277133,0.0926986,-0.809417,0.946131,-0.785693,0.000791364,
0.0595543,-0.19827,-0.274028,-1.67204,0.202615,-0.302671,-0.382544,0.454372,-0.0240742,0.511205,-0.161387,0.726528,-0.668539,0.00957105,0,0,0,0,0,0,0,0.0571426,-0.197149,-0.275766,-1.66996,0.202798,1.2716,0.40252,0.249352,-0.00297699,0.32284,-0.0694586,0.349395,-0.318169,0.000316297,2.87189,-25.8101,4.08723,24.4873,2.67028,1.51513,-0.0163725,-2.58312,1.29606,-0.807975,0.19249,-1.09797,0.278543,0.351374,-0.277133,0.0926986,-0.809417,0.946131,-0.785693,0.000791364,
0.0614112,-0.198349,-0.271938,-1.67269,0.205646,-0.305282,-0.382506,0.464244,-0.0199223,0.522512,-0.163726,0.757941,-0.652769,0.00936265,0,0,0,0,0,0,0,0.0571426,-0.197149,-0.275766,-1.66996,0.202798,1.2716,0.40252,0.249352,-0.00297699,0.32284,-0.0694586,0.349395,-0.318169,0.000316297,2.87189,-25.8101,4.08723,24.4873,2.67028,1.51513,-0.0163725,-2.88918,-0.356515,-1.04788,1.19797,-1.23174,-0.48009,-0.361598,-0.340047,-0.778475,-0.810238,0.643106,-0.707084,0.00284869,
0.0633005,-0.198412,-0.269811,-1.67335,0.208794,-0.307816,-0.38247,0.472311,-0.0156882,0.531768,-0.164879,0.786843,-0.63364,0.00916488,0,0,0,0,0,0,0,0.0571426,-0.197149,-0.275766,-1.66996,0.202798,1.2716,0.40252,0.249352,-0.00297699,0.32284,-0.0694586,0.349395,-0.318169,0.000316297,2.87189,-25.8101,4.08723,24.4873,2.67028,1.51513,-0.0163725,-2.88918,-0.356515,-1.04788,1.19797,-1.23174,-0.48009,-0.361598,-0.340047,-0.778475,-0.810238,0.643106,-0.707084,0.00284869,
0.0652159,-0.198458,-0.267654,-1.67401,0.212046,-0.310267,-0.382434,0.478842,-0.0115618,0.539299,-0.165121,0.813092,-0.612752,0.00897496,0,0,0,0,0,0,0,0.0571426,-0.197149,-0.275766,-1.66996,0.202798,1.2716,0.40252,0.249352,-0.00297699,0.32284,-0.0694586,0.349395,-0.318169,0.000316297,2.87189,-25.8101,4.08723,24.4873,2.67028,1.51513,-0.0163725,-3.13721,0.298383,-0.906448,0.69166,-1.45998,-0.187028,-0.0790795,-0.469941,-0.423971,-0.744474,0.669789,-0.736523,0.000501504,
0.0671521,-0.198489,-0.265472,-1.67467,0.215393,-0.312631,-0.382399,0.484065,-0.00768176,0.545372,-0.164717,0.836689,-0.59097,0.00879693,0,0,0,0,0,0,0,0.0571426,-0.197149,-0.275766,-1.66996,0.202798,1.2716,0.40252,0.249352,-0.00297699,0.32284,-0.0694586,0.349395,-0.318169,0.000316297,2.87189,-25.8101,4.08723,24.4873,2.67028,1.51513,-0.0163725,-2.63072,0.0150285,-1.1374,0.871208,-0.913474,-0.233919,-0.144694,-0.0994208,-0.475064,-0.939651,0.606224,-0.783932,0.000920722,
0.0691048,-0.198506,-0.263271,-1.67533,0.218824,-0.314907,-0.382364,0.488173,-0.00412512,0.550206,-0.163863,0.857721,-0.568784,0.00862974,0,0,0,0,0,0,0,0.0657116,-0.197199,-0.264802,-1.67223,0.214823,1.26245,0.402527,0.282668,-0.00250452,0.346969,-0.0692819,0.400131,-0.243679,0.001074,2.89569,-25.2348,4.33717,24.5627,2.79846,1.35583,-0.050247,-2.63072,0.0150285,-1.1374,0.871208,-0.913474,-0.233919,-0.144694,-0.0994208,-0.475064,-0.939651,0.606224,-0.783932,0.000920722,
0.0710701,-0.198509,-0.261055,-1.67598,0.222329,-0.317092,-0.38233,0.491323,-0.000922948,0.553982,-0.162693,0.87633,-0.546479,0.00847517,0,0,0,0,0,0,0,0.0657116,-0.197199,-0.264802,-1.67223,0.214823,1.26245,0.402527,0.282668,-0.00250452,0.346969,-0.0692819,0.400131,-0.243679,0.001074,2.89569,-25.2348,4.33717,24.5627,2.79846,1.35583,-0.050247,-2.75548,0.0729502,-1.43054,0.702748,-0.837578,-0.17415,-0.0883397,0.0255879,-0.385883,-1.06301,0.459373,-0.821848,-0.000594044,
0.0730447,-0.198502,-0.258828,-1.67663,0.2259,-0.319189,-0.382297,0.49365,0.00192308,0.556851,-0.161297,0.892684,-0.524226,0.00832928,0,0,0,0,0,0,0,0.0657116,-0.197199,-0.264802,-1.67223,0.214823,1.26245,0.402527,0.282668,-0.00250452,0.346969,-0.0692819,0.400131,-0.243679,0.001074,2.89569,-25.2348,4.33717,24.5627,2.79846,1.35583,-0.050247,-2.75548,0.0729502,-1.43054,0.702748,-0.837578,-0.17415,-0.0883397,0.0255879,-0.385883,-1.06301,0.459373,-0.821848,-0.000594044,
0.0750258,-0.198484,-0.256592,-1.67726,0.229528,-0.321198,-0.382264,0.495266,0.00442822,0.558939,-0.159735,0.906966,-0.502126,0.00819389,0,0,0,0,0,0,0,0.0657116,-0.197199,-0.264802,-1.67223,0.214823,1.26245,0.402527,0.282668,-0.00250452,0.346969,-0.0692819,0.400131,-0.243679,0.001074,2.89569,-25.2348,4.33717,24.5627,2.79846,1.35583,-0.050247,-2.5733,-0.0210676,-1.64892,0.612756,-0.622095,-0.164327,-0.0859651,0.186802,-0.348208,-1.12157,0.295522,-0.784881,-0.00241609,
0.0770108,-0.198457,-0.254351,-1.6779,0.233205,-0.323119,-0.382232,0.496265,0.00661693,0.560351,-0.158048,0.919361,-0.480244,0.00806627,0,0,0,0,0,0,0,0.0657116,-0.197199,-0.264802,-1.67223,0.214823,1.26245,0.402527,0.282668,-0.00250452,0.346969,-0.0692819,0.400131,-0.243679,0.001074,2.89569,-25.2348,4.33717,24.5627,2.79846,1.35583,-0.050247,-2.3744,0.221631,-1.74417,0.432132,-0.395877,-0.010168,0.059333,0.352504,-0.172437,-1.21432,0.302459,-0.824649,-0.00456229,
0.0789977,-0.198423,-0.252106,-1.67852,0.236925,-0.324953,-0.3822,0.496729,0.00851686,0.561179,-0.156265,0.930049,-0.458619,0.00794788,0,0,0,0,0,0,0,0.0748388,-0.197202,-0.253741,-1.67449,0.231183,1.25564,0.402527,0.288287,-0.000693601,0.36881,-0.0760234,0.558334,-0.174585,0.000902309,2.89569,-25.2348,4.21419,24.5349,2.86529,1.37505,-0.050247,-2.3744,0.221631,-1.74417,0.432132,-0.395877,-0.010168,0.059333,0.352504,-0.172437,-1.21432,0.302459,-0.824649,-0.00456229,
0.0809846,-0.198383,-0.24986,-1.67914,0.240682,-0.326702,-0.382169,0.496728,0.0101574,0.561498,-0.154407,0.939203,-0.437282,0.00783397,0,0,0,0,0,0,0,0.0748388,-0.197202,-0.253741,-1.67449,0.231183,1.25564,0.402527,0.288287,-0.000693601,0.36881,-0.0760234,0.558334,-0.174585,0.000902309,2.89569,-25.2348,4.21419,24.5349,2.86529,1.37505,-0.050247,-2.14385,1.07771,-1.46838,-0.163735,-0.345028,0.413976,0.489286,0.348637,0.299194,-1.1322,0.411563,-0.831391,-0.00530646,
0.0829699,-0.198336,-0.247615,-1.67975,0.24447,-0.328367,-0.382138,0.496323,0.0115665,0.561376,-0.15249,0.946984,-0.416249,0.00773032,0,0,0,0,0,0,0,0.0748388,-0.197202,-0.253741,-1.67449,0.231183,1.25564,0.402527,0.288287,-0.000693601,0.36881,-0.0760234,0.558334,-0.174585,0.000902309,2.89569,-25.2348,4.21419,24.5349,2.86529,1.37505,-0.050247,-2.14385,1.07771,-1.46838,-0.163735,-0.345028,0.413976,0.489286,0.348637,0.299194,-1.1322,0.411563,-0.831391,-0.00530646,
0.0849522,-0.198285,-0.245371,-1.68035,0.248284,-0.32995,-0.382107,0.495565,0.0127706,0.560869,-0.150528,0.953541,-0.395538,0.00762881,0,0,0,0,0,0,0,0.0748388,-0.197202,-0.253741,-1.67449,0.231183,1.25564,0.402527,0.288287,-0.000693601,0.36881,-0.0760234,0.558334,-0.174585,0.000902309,2.89569,-25.2348,4.21419,24.5349,2.86529,1.37505,-0.050247,-2.08878,0.107206,-1.62914,0.522246,-0.260183,-0.0321674,0.0557891,0.384335,-0.220925,-1.16126,0.339451,-0.773826,-0.0028887,
0.0869302,-0.19823,-0.243131,-1.68095,0.25212,-0.33145,-0.382077,0.4945,0.0137938,0.560027,-0.148531,0.95901,-0.375159,0.00753547,0,0,0,0,0,0,0,0.0748388,-0.197202,-0.253741,-1.67449,0.231183,1.25564,0.402527,0.288287,-0.000693601,0.36881,-0.0760234,0.558334,-0.174585,0.000902309,2.89569,-25.2348,4.21419,24.5349,2.86529,1.37505,-0.050247,-2.08878,0.107206,-1.62914,0.522246,-0.260183,-0.0321674,0.0557891,0.384335,-0.220925,-1.16126,0.339451,-0.773826,-0.0028887,
0.0889029,-0.198172,-0.240896,-1.68153,0.255974,-0.332871,-0.382047,0.493168,0.0146583,0.558894,-0.146507,0.963515,-0.355123,0.00744342,0,0,0,0,0,0,0,0.0748388,-0.197202,-0.253741,-1.67449,0.231183,1.25564,0.402527,0.288287,-0.000693601,0.36881,-0.0760234,0.558334,-0.174585,0.000902309,2.89569,-25.2348,4.21419,24.5349,2.86529,1.37505,-0.050247,-2.49176,-0.606214,-1.7031,1.10391,-0.531398,-0.407401,-0.324815,0.217293,-0.649278,-1.1515,0.367091,-0.762806,-0.00290485,
0.0908727,-0.198111,-0.238664,-1.68211,0.259811,-0.334212,-0.382018,0.492465,0.0151448,0.557939,-0.144131,0.95928,-0.335351,0.00725721,0,0,0,0,0,0,0,0.0848546,-0.197158,-0.241654,-1.67695,0.249132,1.25144,0.402524,0.329633,0.00232866,0.414653,-0.0806024,0.592576,-0.101642,-0.000297063,1.52698,-25.7347,2.5876,24.3365,3.12164,1.44829,-0.0227812,-2.59166,-1.11535,-1.26659,1.57254,-0.79895,-0.667549,-0.57454,-0.0460128,-0.967537,-0.965132,0.483582,-0.731466,-0.00254648,
0.0928401,-0.19805,-0.236435,-1.68267,0.263605,-0.335476,-0.38199,0.491832,0.0153474,0.557209,-0.141582,0.948272,-0.315906,0.00706844,0,0,0,0,0,0,0,0.0848546,-0.197158,-0.241654,-1.67695,0.249132,1.25144,0.402524,0.329633,0.00232866,0.414653,-0.0806024,0.592576,-0.101642,-0.000297063,1.52698,-25.7347,2.5876,24.3365,3.12164,1.44829,-0.0227812,-2.59166,-1.11535,-1.26659,1.57254,-0.79895,-0.667549,-0.57454,-0.0460128,-0.967537,-0.965132,0.483582,-0.731466,-0.00254648,
0.0948041,-0.197988,-0.234209,-1.68323,0.267337,-0.336663,-0.381963,0.490998,0.0153791,0.55647,-0.139011,0.933185,-0.296855,0.00690545,0,0,0,0,0,0,0,0.0848546,-0.197158,-0.241654,-1.67695,0.249132,1.25144,0.402524,0.329633,0.00232866,0.414653,-0.0806024,0.592576,-0.101642,-0.000297063,1.52698,-25.7347,2.5876,24.3365,3.12164,1.44829,-0.0227812,-2.00536,0.427633,-1.3496,0.624396,-0.327248,0.0775586,0.171222,0.264329,-0.157809,-1.08365,0.739927,-0.764737,-0.00642232,
0.0967637,-0.197927,-0.231987,-1.68378,0.271,-0.337776,-0.381936,0.489902,0.0153111,0.555559,-0.136481,0.915627,-0.278236,0.00675702,0,0,0,0,0,0,0,0.0848546,-0.197158,-0.241654,-1.67695,0.249132,1.25144,0.402524,0.329633,0.00232866,0.414653,-0.0806024,0.592576,-0.101642,-0.000297063,1.52698,-25.7347,2.5876,24.3365,3.12164,1.44829,-0.0227812,-2.00536,0.427633,-1.3496,0.624396,-0.327248,0.0775586,0.171222,0.264329,-0.157809,-1.08365,0.739927,-0.764737,-0.00642232,
0.0987178,-0.197866,-0.229769,-1.68431,0.274586,-0.338816,-0.381909,0.48853,0.0151868,0.554409,-0.134017,0.896573,-0.260059,0.00662177,0,0,0,0,0,0,0,0.0848546,-0.197158,-0.241654,-1.67695,0.249132,1.25144,0.402524,0.329633,0.00232866,0.414653,-0.0806024,0.592576,-0.101642,-0.000297063,1.52698,-25.7347,2.5876,24.3365,3.12164,1.44829,-0.0227812,-2.54408,0.698371,-1.18242,0.510623,-0.798183,0.15602,0.24505,-0.0262453,-0.0670854,-0.977912,0.856189,-0.778848,-0.00677659,
0.0515434,-0.19794,-0.283057,-1.66954,0.18873,-0.286476,-0.382749,0.417319,-0.0677563,0.464119,-0.188963,0.484403,-0.288109,0.0105683,0,0,0,0,0,0,0,0.0958203,-0.197044,-0.228086,-1.67978,0.267231,1.24974,0.402524,0.358647,0.00639074,0.426696,-0.0878189,0.563855,-0.0144739,-0.000220122,1.40003,-26.06,2.43684,24.3881,3.31756,1.36864,-0.0227812,-2.54408,0.698371,-1.18242,0.510623,-0.798183,0.15602,0.24505,-0.0262453,-0.0670854,-0.977912,0.856189,-0.778848,-0.00677659,
0.101244,-0.197384,-0.221979,-1.68171,0.274031,-0.321192,-0.382763,0.48266,-0.0310768,0.544949,-0.171826,0.582901,-0.0303307,0.00930429,0,0,0,0,0,0,0,0.0958203,-0.197044,-0.228086,-1.67978,0.267231,1.24974,0.402524,0.358647,0.00639074,0.426696,-0.0878189,0.563855,-0.0144739,-0.000220122,1.40003,-26.06,2.43684,24.3881,3.31756,1.36864,-0.0227812,-2.98888,0.996688,-1.0463,0.362171,-1.17265,0.26711,0.353774,-0.2491,0.0578997,-0.903773,0.955325,-0.804388,-0.00791943,
0.103265,-0.1975,-0.219693,-1.68241,0.276468,-0.321368,-0.382726,0.505154,-0.0290981,0.571535,-0.176336,0.609339,-0.0438744,0.00933337,0,0,0,0,0,0,0,0.0958203,-0.197044,-0.228086,-1.67978,0.267231,1.24974,0.402524,0.358647,0.00639074,0.426696,-0.0878189,0.563855,-0.0144739,-0.000220122,1.40003,-26.06,2.43684,24.3881,3.31756,1.36864,-0.0227812,-2.98888,0.996688,-1.0463,0.362171,-1.17265,0.26711,0.353774,-0.2491,0.0578997,-0.903773,0.955325,-0.804388,-0.00791943,
0.105357,-0.197602,-0.217322,-1.68312,0.279024,-0.321597,-0.382689,0.523132,-0.0254156,0.592759,-0.177775,0.639029,-0.0572573,0.00917847,0,0,0,0,0,0,0,0.0958203,-0.197044,-0.228086,-1.67978,0.267231,1.24974,0.402524,0.358647,0.00639074,0.426696,-0.0878189,0.563855,-0.0144739,-0.000220122,1.40003,-26.06,2.43684,24.3881,3.31756,1.36864,-0.0227812,-1.56723,3.06643,-1.15309,-1.0177,-0.0442579,1.32602,1.40042,0.471111,1.2274,-1.12306,1.19215,-0.845751,-0.0121009,
0.107509,-0.19769,-0.214882,-1.68384,0.281703,-0.321836,-0.382653,0.537837,-0.0219173,0.60996,-0.179621,0.66969,-0.0598895,0.00909323,0,0,0,0,0,0,0,0.0958203,-0.197044,-0.228086,-1.67978,0.267231,1.24974,0.402524,0.358647,0.00639074,0.426696,-0.0878189,0.563855,-0.0144739,-0.000220122,1.40003,-26.06,2.43684,24.3881,3.31756,1.36864,-0.0227812,-1.4661,1.87219,-0.914123,-0.219975,-0.0274969,0.79384,0.838916,0.4127,0.6529,-1.05002,1.08788,-0.835342,-0.00755445,
0.109707,-0.197762,-0.212387,-1.68456,0.284502,-0.322066,-0.382617,0.549702,-0.0181887,0.62384,-0.180534,0.699836,-0.0575425,0.00901238,0,0,0,0,0,0,0,0.0958203,-0.197044,-0.228086,-1.67978,0.267231,1.24974,0.402524,0.358647,0.00639074,0.426696,-0.0878189,0.563855,-0.0144739,-0.000220122,1.40003,-26.06,2.43684,24.3881,3.31756,1.36864,-0.0227812,-1.4661,1.87219,-0.914123,-0.219975,-0.0274969,0.79384,0.838916,0.4127,0.6529,-1.05002,1.08788,-0.835342,-0.00755445,
0.111944,-0.19782,-0.209847,-1.68529,0.287417,-0.322277,-0.382581,0.559195,-0.0143901,0.634978,-0.180549,0.728584,-0.052525,0.00893578,0,0,0,0,0,0,0,0.107619,-0.196924,-0.214093,-1.68263,0.282847,1.24994,0.402528,0.387105,0.000447689,0.43192,-0.0867799,0.374226,0.0191789,0.00127289,0.285221,-26.2584,1.03639,23.317,2.51739,1.16997,-0.0566557,-2.68924,-1.62802,-1.21201,2.08586,-0.793374,-0.862806,-0.78007,-0.0729436,-1.21735,-1.01167,0.663148,-0.781879,-0.00176667,
0.114212,-0.197863,-0.207271,-1.68601,0.290434,-0.32246,-0.382546,0.566845,-0.0107485,0.643911,-0.179858,0.75422,-0.0458632,0.00884307,0,0,0,0,0,0,0,0.107619,-0.196924,-0.214093,-1.68263,0.282847,1.24994,0.402528,0.387105,0.000447689,0.43192,-0.0867799,0.374226,0.0191789,0.00127289,0.285221,-26.2584,1.03639,23.317,2.51739,1.16997,-0.0566557,-2.68924,-1.62802,-1.21201,2.08586,-0.793374,-0.862806,-0.78007,-0.0729436,-1.21735,-1.01167,0.663148,-0.781879,-0.00176667,
0.116508,-0.197894,-0.204665,-1.68672,0.293491,-0.322612,-0.382511,0.574226,-0.00772896,0.651682,-0.178107,0.764392,-0.0379457,0.00860005,0,0,0,0,0,0,0,0.107619,-0.196924,-0.214093,-1.68263,0.282847,1.24994,0.402528,0.387105,0.000447689,0.43192,-0.0867799,0.374226,0.0191789,0.00127289,0.285221,-26.2584,1.03639,23.317,2.51739,1.16997,-0.0566557,-3.0228,-1.00562,-1.44743,1.57829,-0.942812,-0.556113,-0.431557,-0.0847354,-0.893442,-1.07328,0.635904,-0.805362,-0.00307111,
0.11883,-0.197915,-0.202031,-1.68742,0.296551,-0.322728,-0.382478,0.580347,-0.00521999,0.658456,-0.175938,0.765039,-0.0291784,0.00838865,0,0,0,0,0,0,0,0.107619,-0.196924,-0.214093,-1.68263,0.282847,1.24994,0.402528,0.387105,0.000447689,0.43192,-0.0867799,0.374226,0.0191789,0.00127289,0.285221,-26.2584,1.03639,23.317,2.51739,1.16997,-0.0566557,-3.10141,0.053538,-1.65488,0.748359,-0.896317,-0.0334814,0.0346347,0.0418001,-0.241429,-1.16912,0.639809,-0.855296,-0.00709346,
0.121171,-0.197927,-0.199375,-1.68812,0.29959,-0.322808,-0.382445,0.585179,-0.00311476,0.664062,-0.173619,0.759649,-0.0198335,0.00820857,0,0,0,0,0,0,0,0.107619,-0.196924,-0.214093,-1.68263,0.282847,1.24994,0.402528,0.387105,0.000447689,0.43192,-0.0867799,0.374226,0.0191789,0.00127289,0.285221,-26.2584,1.03639,23.317,2.51739,1.16997,-0.0566557,-3.10141,0.053538,-1.65488,0.748359,-0.896317,-0.0334814,0.0346347,0.0418001,-0.241429,-1.16912,0.639809,-0.855296,-0.00709346,
0.123526,-0.197932,-0.196701,-1.6888,0.302591,-0.322848,-0.382413,0.588806,-0.00132879,0.668473,-0.171266,0.750352,-0.0100828,0.00804596,0,0,0,0,0,0,0,0.11958,-0.196893,-0.198729,-1.68569,0.295358,1.25213,0.402525,0.392864,0.00515391,0.453542,-0.0941978,0.419156,0.098048,0.000280874,2.64179,-26.5599,3.78572,24.3127,3.07312,1.09673,-0.0365141,-2.7428,0.970884,-2.07514,-0.0480562,-0.476183,0.444289,0.488199,0.398344,0.335716,-1.34161,0.559795,-0.852119,-0.0100284,
0.125891,-0.197932,-0.194014,-1.68948,0.305545,-0.322848,-0.382381,0.591347,0.000200329,0.671753,-0.168927,0.73848,-3.46553e-05,0.00789933,0,0,0,0,0,0,0,0.11958,-0.196893,-0.198729,-1.68569,0.295358,1.25213,0.402525,0.392864,0.00515391,0.453542,-0.0941978,0.419156,0.098048,0.000280874,2.64179,-26.5599,3.78572,24.3127,3.07312,1.09673,-0.0365141,-2.7428,0.970884,-2.07514,-0.0480562,-0.476183,0.444289,0.488199,0.398344,0.335716,-1.34161,0.559795,-0.852119,-0.0100284,
0.128263,-0.197926,-0.191318,-1.69014,0.308445,-0.322807,-0.38235,0.592929,0.00151872,0.674006,-0.166621,0.724886,0.0102374,0.00776132,0,0,0,0,0,0,0,0.11958,-0.196893,-0.198729,-1.68569,0.295358,1.25213,0.402525,0.392864,0.00515391,0.453542,-0.0941978,0.419156,0.098048,0.000280874,2.64179,-26.5599,3.78572,24.3127,3.07312,1.09673,-0.0365141,-2.52054,0.172624,-2.18474,0.367465,-0.363954,0.0858772,0.134287,0.415696,-0.0500167,-1.28144,0.374411,-0.720836,-0.00973988,
0.130638,-0.197915,-0.188616,-1.6908,0.311285,-0.322725,-0.38232,0.593675,0.00266045,0.675346,-0.164352,0.710152,0.0206822,0.00763385,0,0,0,0,0,0,0,0.11958,-0.196893,-0.198729,-1.68569,0.295358,1.25213,0.402525,0.392864,0.00515391,0.453542,-0.0941978,0.419156,0.098048,0.000280874,2.64179,-26.5599,3.78572,24.3127,3.07312,1.09673,-0.0365141,-2.52054,0.172624,-2.18474,0.367465,-0.363954,0.0858772,0.134287,0.415696,-0.0500167,-1.28144,0.374411,-0.720836,-0.00973988,
0.133012,-0.1979,-0.185913,-1.69145,0.314064,-0.3226,-0.38229,0.593695,0.00365332,0.675886,-0.162117,0.694706,0.0312517,0.00750657,0,0,0,0,0,0,0,0.11958,-0.196893,-0.198729,-1.68569,0.295358,1.25213,0.402525,0.392864,0.00515391,0.453542,-0.0941978,0.419156,0.098048,0.000280874,2.64179,-26.5599,3.78572,24.3127,3.07312,1.09673,-0.0365141,-2.45898,-0.198373,-2.47922,0.58105,-0.250423,-0.0939913,-0.0469788,0.494334,-0.24519,-1.33709,0.306978,-0.651187,-0.00744556,
0.135385,-0.197882,-0.18321,-1.69209,0.31678,-0.322432,-0.38226,0.593085,0.00452109,0.675727,-0.159918,0.678931,0.0419061,0.00738953,0,0,0,0,0,0,0,0.136928,-0.196809,-0.177886,-1.68967,0.316184,1.25565,0.402529,0.423515,0.00045027,0.504372,-0.0822811,0.455302,0.0559144,0.00147237,0.66608,-26.7583,1.61165,24.3604,2.65197,1.70006,-0.0703886,-1.98874,-0.0373307,-2.32252,0.464862,-0.0476677,-0.0281386,0.0267288,0.545527,-0.177215,-1.23135,0.338445,-0.546507,-0.0043443,
0.137752,-0.197861,-0.18051,-1.69272,0.319433,-0.322222,-0.382231,0.591916,0.00528782,0.67495,-0.157759,0.663269,0.0526025,0.00726951,0,0,0,0,0,0,0,0.136928,-0.196809,-0.177886,-1.68967,0.316184,1.25565,0.402529,0.423515,0.00045027,0.504372,-0.0822811,0.455302,0.0559144,0.00147237,0.66608,-26.7583,1.61165,24.3604,2.65197,1.70006,-0.0703886,-1.98874,-0.0373307,-2.32252,0.464862,-0.0476677,-0.0281386,0.0267288,0.545527,-0.177215,-1.23135,0.338445,-0.546507,-0.0043443,
0.140113,-0.197837,-0.177816,-1.69334,0.322027,-0.321968,-0.382202,0.590222,0.00598302,0.673606,-0.155661,0.648405,0.0632928,0.00715739,0,0,0,0,0,0,0,0.136928,-0.196809,-0.177886,-1.68967,0.316184,1.25565,0.402529,0.423515,0.00045027,0.504372,-0.0822811,0.455302,0.0559144,0.00147237,0.66608,-26.7583,1.61165,24.3604,2.65197,1.70006,-0.0703886,-1.7726,-1.07159,-2.23281,1.1653,-0.0306492,-0.538422,-0.486741,0.439327,-0.74259,-1.08846,0.256297,-0.395213,-0.0023318,
0.142465,-0.197811,-0.175129,-1.69396,0.324569,-0.321673,-0.382174,0.58794,0.00665038,0.671721,-0.153677,0.635618,0.0739212,0.00713443,0,0,0,0,0,0,0,0.136928,-0.196809,-0.177886,-1.68967,0.316184,1.25565,0.402529,0.423515,0.00045027,0.504372,-0.0822811,0.455302,0.0559144,0.00147237,0.66608,-26.7583,1.61165,24.3604,2.65197,1.70006,-0.0703886,-1.7726,-1.07159,-2.23281,1.1653,-0.0306492,-0.538422,-0.486741,0.439327,-0.74259,-1.08846,0.256297,-0.395213,-0.0023318,
0.144809,-0.197782,-0.17245,-1.69456,0.327039,-0.321334,-0.382146,0.586015,0.00710315,0.669721,-0.151366,0.617374,0.0845562,0.00703427,0,0,0,0,0,0,0,0.136928,-0.196809,-0.177886,-1.68967,0.316184,1.25565,0.402529,0.423515,0.00045027,0.504372,-0.0822811,0.455302,0.0559144,0.00147237,0.66608,-26.7583,1.61165,24.3604,2.65197,1.70006,-0.0703886,-2.48578,0.230089,-2.27908,0.311152,-0.612962,0.0295055,0.0820959,0.154728,-0.0957759,-0.988924,0.422618,-0.361092,-0.00444863,
0.147145,-0.197753,-0.169779,-1.69516,0.32942,-0.320954,-0.382118,0.583999,0.00736939,0.667723,-0.148949,0.595244,0.0951662,0.00690069,0,0,0,0,0,0,0,0.136928,-0.196809,-0.177886,-1.68967,0.316184,1.25565,0.402529,0.423515,0.00045027,0.504372,-0.0822811,0.455302,0.0559144,0.00147237,0.66608,-26.7583,1.61165,24.3604,2.65197,1.70006,-0.0703886,-2.52825,-0.153783,-2.04119,0.692667,-0.761442,-0.17657,-0.132105,-0.0178397,-0.336136,-0.863167,0.524383,-0.310837,-0.00277884,
0.149472,-0.197723,-0.167117,-1.69575,0.331705,-0.320531,-0.382091,0.581713,0.00752078,0.665586,-0.146573,0.571378,0.105681,0.00678377,0,0,0,0,0,0,0,0.150894,-0.196432,-0.161112,-1.69211,0.329565,1.25705,0.402526,0.444907,0.00975971,0.523037,-0.0740203,0.368087,0.0468273,0.000352998,0.816837,-26.8852,1.53627,24.2612,2.83508,1.73394,-0.0429228,-2.52825,-0.153783,-2.04119,0.692667,-0.761442,-0.17657,-0.132105,-0.0178397,-0.336136,-0.863167,0.524383,-0.310837,-0.00277884,
0.151789,-0.197692,-0.164464,-1.69632,0.333893,-0.320067,-0.382064,0.579153,0.0076085,0.66322,-0.144276,0.546882,0.11605,0.00667479,0,0,0,0,0,0,0,0.150894,-0.196432,-0.161112,-1.69211,0.329565,1.25705,0.402526,0.444907,0.00975971,0.523037,-0.0740203,0.368087,0.0468273,0.000352998,0.816837,-26.8852,1.53627,24.2612,2.83508,1.73394,-0.0429228,-2.27506,0.903807,-2.21611,-0.0109906,-0.528821,0.304576,0.333356,0.180465,0.212645,-0.932847,0.650466,-0.28857,-0.00606731,
0.154094,-0.197661,-0.161821,-1.69689,0.335982,-0.319562,-0.382038,0.576342,0.00766336,0.660608,-0.142058,0.522318,0.126243,0.00657566,0,0,0,0,0,0,0,0.150894,-0.196432,-0.161112,-1.69211,0.329565,1.25705,0.402526,0.444907,0.00975971,0.523037,-0.0740203,0.368087,0.0468273,0.000352998,0.816837,-26.8852,1.53627,24.2612,2.83508,1.73394,-0.0429228,-2.27506,0.903807,-2.21611,-0.0109906,-0.528821,0.304576,0.333356,0.180465,0.212645,-0.932847,0.650466,-0.28857,-0.00606731,
0.156387,-0.197631,-0.15919,-1.69745,0.337974,-0.319017,-0.382012,0.573318,0.00770208,0.657765,-0.139912,0.497968,0.136244,0.00647725,0,0,0,0,0,0,0,0.150894,-0.196432,-0.161112,-1.69211,0.329565,1.25705,0.402526,0.444907,0.00975971,0.523037,-0.0740203,0.368087,0.0468273,0.000352998,0.816837,-26.8852,1.53627,24.2612,2.83508,1.73394,-0.0429228,-2.46311,1.41894,-2.43537,-0.34513,-0.587771,0.539695,0.572695,0.208324,0.470552,-0.993814,0.724053,-0.284945,-0.00838893,
0.101682,-0.197592,-0.221542,-1.68197,0.272007,-0.319094,-0.382762,0.528966,-0.0486903,0.594786,-0.191982,0.355099,0.195872,0.0092217,0,0,0,0,0,0,0,0.150894,-0.196432,-0.161112,-1.69211,0.329565,1.25705,0.402526,0.444907,0.00975971,0.523037,-0.0740203,0.368087,0.0468273,0.000352998,0.816837,-26.8852,1.53627,24.2612,2.83508,1.73394,-0.0429228,-2.44102,0.618929,-2.41169,0.245334,-0.574548,0.163142,0.184297,0.160852,0.0489516,-0.974777,0.710604,-0.258688,-0.00804472,
0.157284,-0.196811,-0.15386,-1.69417,0.333378,-0.311451,-0.382759,0.56166,-0.033571,0.639045,-0.184329,0.30334,0.22175,0.00947069,0,0,0,0,0,0,0,0.164762,-0.195991,-0.144429,-1.69417,0.339595,1.25867,0.402527,0.447877,0.0189411,0.544418,-0.0647848,0.284124,0.0658305,0.000926688,0.590702,-27.3811,0.988783,24.4873,3.2315,1.5545,-0.050247,-2.44102,0.618929,-2.41169,0.245334,-0.574548,0.163142,0.184297,0.160852,0.0489516,-0.974777,0.710604,-0.258688,-0.00804472,
0.159615,-0.19693,-0.151203,-1.69491,0.334567,-0.310496,-0.382722,0.582725,-0.0297929,0.664195,-0.186442,0.297156,0.238718,0.0092166,0,0,0,0,0,0,0,0.164762,-0.195991,-0.144429,-1.69417,0.339595,1.25867,0.402527,0.447877,0.0189411,0.544418,-0.0647848,0.284124,0.0658305,0.000926688,0.590702,-27.3811,0.988783,24.4873,3.2315,1.5545,-0.050247,-3.03171,1.17048,-2.18127,-0.0965628,-1.08655,0.442025,0.459011,-0.125435,0.366511,-0.856326,0.81036,-0.294499,-0.0104449,
0.162012,-0.19703,-0.148467,-1.69566,0.335744,-0.309486,-0.382686,0.599319,-0.0251388,0.684055,-0.186349,0.294389,0.252376,0.00896921,0,0,0,0,0,0,0,0.164762,-0.195991,-0.144429,-1.69417,0.339595,1.25867,0.402527,0.447877,0.0189411,0.544418,-0.0647848,0.284124,0.0658305,0.000926688,0.590702,-27.3811,0.988783,24.4873,3.2315,1.5545,-0.050247,-3.03171,1.17048,-2.18127,-0.0965628,-1.08655,0.442025,0.459011,-0.125435,0.366511,-0.856326,0.81036,-0.294499,-0.0104449,
0.164461,-0.197112,-0.145668,-1.6964,0.336922,-0.308433,-0.382651,0.6122,-0.0203554,0.699592,-0.185322,0.294448,0.263407,0.00875783,0,0,0,0,0,0,0,0.164762,-0.195991,-0.144429,-1.69417,0.339595,1.25867,0.402527,0.447877,0.0189411,0.544418,-0.0647848,0.284124,0.0658305,0.000926688,0.590702,-27.3811,0.988783,24.4873,3.2315,1.5545,-0.050247,-1.82387,1.77647,-2.71435,-0.549854,0.0543491,0.70825,0.701681,0.644987,0.671018,-1.19068,0.844043,-0.293544,-0.0114867,
0.166949,-0.197175,-0.142822,-1.69713,0.33811,-0.307343,-0.382616,0.621969,-0.015783,0.711595,-0.183951,0.296911,0.272434,0.00868847,0,0,0,0,0,0,0,0.164762,-0.195991,-0.144429,-1.69417,0.339595,1.25867,0.402527,0.447877,0.0189411,0.544418,-0.0647848,0.284124,0.0658305,0.000926688,0.590702,-27.3811,0.988783,24.4873,3.2315,1.5545,-0.050247,-1.82387,1.77647,-2.71435,-0.549854,0.0543491,0.70825,0.701681,0.644987,0.671018,-1.19068,0.844043,-0.293544,-0.0114867,
0.169471,-0.197222,-0.139937,-1.69786,0.339266,-0.306223,-0.382582,0.630504,-0.0118448,0.721266,-0.181764,0.28912,0.280123,0.00848379,0,0,0,0,0,0,0,0.164762,-0.195991,-0.144429,-1.69417,0.339595,1.25867,0.402527,0.447877,0.0189411,0.544418,-0.0647848,0.284124,0.0658305,0.000926688,0.590702,-27.3811,0.988783,24.4873,3.2315,1.5545,-0.050247,-2.17383,-0.33233,-2.86344,0.818679,-0.16206,-0.24891,-0.242216,0.427499,-0.403436,-1.17321,0.600801,-0.247921,-0.00851333,
0.172019,-0.197256,-0.13702,-1.69858,0.340371,-0.305075,-0.382549,0.637102,-0.00850643,0.729064,-0.179451,0.276121,0.28686,0.00829452,0,0,0,0,0,0,0,0.178938,-0.195818,-0.127426,-1.69636,0.34593,1.26194,0.402522,0.451596,0.00544215,0.574475,-0.0836014,0.139628,0.159445,-0.000837318,3.3797,-27.3335,3.23823,24.0628,3.29925,1.46844,-0.0026396,-2.93766,-0.750969,-2.77663,1.05746,-0.779126,-0.391205,-0.302267,0.0464049,-0.620404,-1.05488,0.524655,-0.245828,-0.00502539,
0.174587,-0.197279,-0.13408,-1.69929,0.341413,-0.303904,-0.382517,0.641946,-0.00566692,0.735063,-0.177207,0.260478,0.292888,0.00813395,0,0,0,0,0,0,0,0.178938,-0.195818,-0.127426,-1.69636,0.34593,1.26194,0.402522,0.451596,0.00544215,0.574475,-0.0836014,0.139628,0.159445,-0.000837318,3.3797,-27.3335,3.23823,24.0628,3.29925,1.46844,-0.0026396,-2.93766,-0.750969,-2.77663,1.05746,-0.779126,-0.391205,-0.302267,0.0464049,-0.620404,-1.05488,0.524655,-0.245828,-0.00502539,
0.177168,-0.197292,-0.131123,-1.69999,0.342387,-0.30271,-0.382485,0.645274,-0.00323259,0.73943,-0.175067,0.243527,0.298393,0.00798652,0,0,0,0,0,0,0,0.178938,-0.195818,-0.127426,-1.69636,0.34593,1.26194,0.402522,0.451596,0.00544215,0.574475,-0.0836014,0.139628,0.159445,-0.000837318,3.3797,-27.3335,3.23823,24.0628,3.29925,1.46844,-0.0026396,-2.64148,-0.351534,-2.72799,0.718334,-0.587556,-0.194826,-0.15153,0.173542,-0.352779,-1.05535,0.514737,-0.240824,-0.00627015,
0.179757,-0.197296,-0.128153,-1.70068,0.343291,-0.301496,-0.382453,0.647313,-0.00113039,0.742371,-0.173016,0.225964,0.303525,0.00785399,0,0,0,0,0,0,0,0.178938,-0.195818,-0.127426,-1.69636,0.34593,1.26194,0.402522,0.451596,0.00544215,0.574475,-0.0836014,0.139628,0.159445,-0.000837318,3.3797,-27.3335,3.23823,24.0628,3.29925,1.46844,-0.0026396,-2.64148,-0.351534,-2.72799,0.718334,-0.587556,-0.194826,-0.15153,0.173542,-0.352779,-1.05535,0.514737,-0.240824,-0.00627015,
0.18235,-0.197294,-0.125177,-1.70136,0.344123,-0.300262,-0.382422,0.648268,0.000694978,0.744092,-0.171028,0.208153,0.308398,0.00772614,0,0,0,0,0,0,0,0.178938,-0.195818,-0.127426,-1.69636,0.34593,1.26194,0.402522,0.451596,0.00544215,0.574475,-0.0836014,0.139628,0.159445,-0.000837318,3.3797,-27.3335,3.23823,24.0628,3.29925,1.46844,-0.0026396,-2.83634,-0.415593,-3.02746,0.64421,-0.644646,-0.201884,-0.213566,0.197725,-0.294563,-1.12341,0.422804,-0.224431,-0.00770253,
0.184944,-0.197285,-0.122198,-1.70204,0.344884,-0.29901,-0.382392,0.648316,0.00228498,0.744784,-0.16908,0.190294,0.313097,0.00761159,0,0,0,0,0,0,0,0.194307,-0.195824,-0.10921,-1.6989,0.348929,1.26829,0.402521,0.472761,0.00122442,0.564996,-0.0814249,0.096488,0.213692,-0.00142451,1.47541,-27.2066,1.86159,24.8364,2.68219,1.9793,0.00376909,-2.83634,-0.415593,-3.02746,0.64421,-0.644646,-0.201884,-0.213566,0.197725,-0.294563,-1.12341,0.422804,-0.224431,-0.00770253,
0.187534,-0.19727,-0.119219,-1.70271,0.345574,-0.297739,-0.382362,0.647608,0.00367342,0.74461,-0.167156,0.172516,0.317676,0.00749121,0,0,0,0,0,0,0,0.194307,-0.195824,-0.10921,-1.6989,0.348929,1.26829,0.402521,0.472761,0.00122442,0.564996,-0.0814249,0.096488,0.213692,-0.00142451,1.47541,-27.2066,1.86159,24.8364,2.68219,1.9793,0.00376909,-2.11067,0.446591,-3.3674,-0.112529,-0.0470718,0.178879,0.156325,0.636783,0.163504,-1.25589,0.352278,-0.159147,-0.00932706,
0.190119,-0.19725,-0.116244,-1.70337,0.346194,-0.296451,-0.382332,0.646266,0.00488911,0.743711,-0.165245,0.154966,0.322171,0.00738396,0,0,0,0,0,0,0,0.194307,-0.195824,-0.10921,-1.6989,0.348929,1.26829,0.402521,0.472761,0.00122442,0.564996,-0.0814249,0.096488,0.213692,-0.00142451,1.47541,-27.2066,1.86159,24.8364,2.68219,1.9793,0.00376909,-1.90468,0.538673,-3.53468,-0.249379,0.103198,0.209422,0.202817,0.737046,0.196054,-1.27235,0.301192,-0.0890377,-0.00953338,
0.192697,-0.197226,-0.113276,-1.70402,0.346746,-0.295144,-0.382303,0.644376,0.00596177,0.742186,-0.163351,0.13796,0.326594,0.00726618,0,0,0,0,0,0,0,0.194307,-0.195824,-0.10921,-1.6989,0.348929,1.26829,0.402521,0.472761,0.00122442,0.564996,-0.0814249,0.096488,0.213692,-0.00142451,1.47541,-27.2066,1.86159,24.8364,2.68219,1.9793,0.00376909,-1.90468,0.538673,-3.53468,-0.249379,0.103198,0.209422,0.202817,0.737046,0.196054,-1.27235,0.301192,-0.0890377,-0.00953338,
0.195264,-0.197199,-0.110315,-1.70467,0.347235,-0.29382,-0.382275,0.641965,0.00693033,0.740081,-0.16151,0.122311,0.330928,0.00708339,0,0,0,0,0,0,0,0.194307,-0.195824,-0.10921,-1.6989,0.348929,1.26829,0.402521,0.472761,0.00122442,0.564996,-0.0814249,0.096488,0.213692,-0.00142451,1.47541,-27.2066,1.86159,24.8364,2.68219,1.9793,0.00376909,-2.22509,1.90279,-3.65154,-1.18991,-0.0943871,0.860148,0.853918,0.748888,0.929389,-1.29658,0.432874,-0.103904,-0.0123693,
0.19782,-0.197167,-0.107366,-1.70531,0.347676,-0.29248,-0.382247,0.638847,0.00785783,0.737403,-0.159847,0.110212,0.335128,0.00705619,0,0,0,0,0,0,0,0.194307,-0.195824,-0.10921,-1.6989,0.348929,1.26829,0.402521,0.472761,0.00122442,0.564996,-0.0814249,0.096488,0.213692,-0.00142451,1.47541,-27.2066,1.86159,24.8364,2.68219,1.9793,0.00376909,-2.22509,1.90279,-3.65154,-1.18991,-0.0943871,0.860148,0.853918,0.748888,0.929389,-1.29658,0.432874,-0.103904,-0.0123693,
