PerkyPenguin/Analysis-on-Approximated-Derivatives/Code_and_Data/PaperData/Real_Robot/Scene_2/set_interval/1/trajectory.csv
Commanded Joint 0 Position,Commanded Joint 1 Position,Commanded Joint 2 Position,Commanded Joint 3 Position,Commanded Joint 4 Position,Commanded Joint 5 Position,Commanded Joint 6 Position,Commanded Joint 0 Velocity,Commanded Joint 1 Velocity,Commanded Joint 2 Velocity,Commanded Joint 3 Velocity,Commanded Joint 4 Velocity,Commanded Joint 5 Velocity,Commanded Joint 6 Velocity,Commanded Joint 0 Torque,Commanded Joint 1 Torque,Commanded Joint 2 Torque,Commanded Joint 3 Torque,Commanded Joint 4 Torque,Commanded Joint 5 Torque,Commanded Joint 6 Torque,Actual Joint 0 Position,Actual Joint 1 Position,Actual Joint 2 Position,Actual Joint 3 Position,Actual Joint 4 Position,Actual Joint 5 Position,Actual Joint 6 Position,Actual Joint 0 Velocity,Actual Joint 1 Velocity,Actual Joint 2 Velocity,Actual Joint 3 Velocity,Actual Joint 4 Velocity,Actual Joint 5 Velocity,Actual Joint 6 Velocity,Actual Joint 0 Torque,Actual Joint 1 Torque,Actual Joint 2 Torque,Actual Joint 3 Torque,Actual Joint 4 Torque,Actual Joint 5 Torque,Actual Joint 6 Torque,EE ext force 0,EE ext force 1,EE ext force 2,EE ext force 3,EE ext force 4,EE ext force 5,joint ext torque 0,joint ext torque 1,joint ext torque 2,joint ext torque 3,joint ext torque 4,joint ext torque 5,joint ext torque 6,
0.0190586,-0.0547662,0.511979,-1.56628,0.0396506,-0.0136345,0.531708,0.0109004,0.0312365,0.0152483,-0.144235,-0.0651011,0.201869,-0.0012556,0,0,0,0,0,0,0,0.018973,-0.0549087,0.511871,-1.56484,0.0401584,1.55516,1.31711,-0.00154303,0.000512007,0.000388205,0.000484414,0.0134944,0.00253757,-0.00168519,0.233646,-27.5835,-0.836168,27.0264,0.54443,3.05962,0.11821,1.93156,1.71148,2.14013,-0.781492,0.99491,0.162806,0.168772,0.355296,0.168158,0.258559,0.180238,-0.294993,0.0885212,
0.0191164,-0.0545606,0.512057,-1.5669,0.0393124,-0.0127926,0.531702,0.0144336,0.051398,0.0195872,-0.155087,-0.0845676,0.210456,-0.0013513,0,0,0,0,0,0,0,0.0189747,-0.0549111,0.511871,-1.56484,0.040124,1.55516,1.31712,-0.00178881,0.00104419,0.000257721,-0.000936037,0.0108391,0.00074891,-0.00140148,0.209842,-27.5835,-0.836168,27.0541,0.807186,3.05962,0.104477,1.86931,1.72702,2.10287,-0.809214,0.966598,0.189495,0.197707,0.348216,0.193849,0.242202,0.176538,-0.302673,0.0863261,
0.018972,-0.0548955,0.511869,-1.56484,0.040212,-0.015632,0.531717,-9.01789e-06,0.000753941,4.33929e-05,-0.000243211,0.00352904,-0.000140558,7.83209e-06,0,0,0,0,0,0,0,0.0189747,-0.0549111,0.511871,-1.56484,0.040124,1.55516,1.31712,-0.00178881,0.00104419,0.000257721,-0.000936037,0.0108391,0.00074891,-0.00140148,0.209842,-27.5835,-0.836168,27.0541,0.807186,3.05962,0.104477,1.65522,1.54563,2.24789,-0.62346,0.746382,0.167525,0.1748,0.196953,0.166225,0.335402,0.187189,-0.29229,0.0861764,
0.0189721,-0.054893,0.51187,-1.56485,0.040223,-0.0156327,0.531717,3.1493e-05,0.000615408,9.44673e-05,-0.000230506,0.00274111,-0.000185932,4.10227e-06,0,0,0,0,0,0,0,0.0189747,-0.0549111,0.511871,-1.56484,0.040124,1.55516,1.31712,-0.00178881,0.00104419,0.000257721,-0.000936037,0.0108391,0.00074891,-0.00140148,0.209842,-27.5835,-0.836168,27.0541,0.807186,3.05962,0.104477,1.65522,1.54563,2.24789,-0.62346,0.746382,0.167525,0.1748,0.196953,0.166225,0.335402,0.187189,-0.29229,0.0861764,
0.0189723,-0.054891,0.51187,-1.56485,0.0402316,-0.0156336,0.531717,5.42843e-05,0.000494071,0.000125228,-0.000213686,0.00214077,-0.000226778,1.83466e-06,0,0,0,0,0,0,0,0.0189747,-0.0549111,0.511871,-1.56484,0.040124,1.55516,1.31712,-0.00178881,0.00104419,0.000257721,-0.000936037,0.0108391,0.00074891,-0.00140148,0.209842,-27.5835,-0.836168,27.0541,0.807186,3.05962,0.104477,1.42139,1.12282,2.14324,-0.334243,0.568918,0.0398019,0.0503732,0.0947559,0.0274698,0.367621,0.160434,-0.260137,0.0855335,
0.0189726,-0.0548895,0.511871,-1.56485,0.0402383,-0.0156347,0.531717,6.55035e-05,0.000388845,0.000142518,-0.000193701,0.00167958,-0.000262595,4.72036e-07,0,0,0,0,0,0,0,0.0189747,-0.0549111,0.511871,-1.56484,0.040124,1.55516,1.31712,-0.00178881,0.00104419,0.000257721,-0.000936037,0.0108391,0.00074891,-0.00140148,0.209842,-27.5835,-0.836168,27.0541,0.807186,3.05962,0.104477,1.42139,1.12282,2.14324,-0.334243,0.568918,0.0398019,0.0503732,0.0947559,0.0274698,0.367621,0.160434,-0.260137,0.0855335,
0.0189728,-0.0548883,0.511871,-1.56485,0.0402436,-0.0156358,0.531717,6.92489e-05,0.00029793,0.000150946,-0.000172082,0.00132259,-0.000292791,-3.10174e-07,0,0,0,0,0,0,0,0.0189732,-0.0550096,0.511871,-1.56546,0.0401004,1.55592,1.31712,-0.000864807,0.000418163,0.000416007,-0.00641605,-0.00418264,0.00758806,0.000710397,0.233646,-27.6311,-0.812364,27.8238,0.813595,3.35168,0.0577852,0.546285,0.964075,1.17744,-0.438466,0.292329,0.212123,0.215592,0.112386,0.214957,0.0774643,0.174308,-0.274516,0.0854361,
0.0189731,-0.0548874,0.511872,-1.56485,0.0402477,-0.0156371,0.531717,6.82953e-05,0.000219483,0.000153656,-0.000150093,0.00104421,-0.000317265,-7.14375e-07,0,0,0,0,0,0,0,0.0189732,-0.0550096,0.511871,-1.56546,0.0401004,1.55592,1.31712,-0.000864807,0.000418163,0.000416007,-0.00641605,-0.00418264,0.00758806,0.000710397,0.233646,-27.6311,-0.812364,27.8238,0.813595,3.35168,0.0577852,1.45692,1.67057,0.609453,-1.09982,1.18501,0.279516,0.282611,0.709799,0.305213,-0.241234,0.174903,-0.262578,0.0836454,
0.0189734,-0.0548868,0.511873,-1.56485,0.040251,-0.0156385,0.531717,6.45222e-05,0.000151811,0.000152796,-0.000128612,0.000825518,-0.000336336,-8.73636e-07,0,0,0,0,0,0,0,0.0189732,-0.0550096,0.511871,-1.56546,0.0401004,1.55592,1.31712,-0.000864807,0.000418163,0.000416007,-0.00641605,-0.00418264,0.00758806,0.000710397,0.233646,-27.6311,-0.812364,27.8238,0.813595,3.35168,0.0577852,1.45692,1.67057,0.609453,-1.09982,1.18501,0.279516,0.282611,0.709799,0.305213,-0.241234,0.174903,-0.262578,0.0836454,
0.0189736,-0.0548864,0.511873,-1.56485,0.0402537,-0.0156399,0.531717,5.91928e-05,9.34155e-05,0.000149821,-0.000108191,0.000652467,-0.000350579,-8.7747e-07,0,0,0,0,0,0,0,0.0189732,-0.0550096,0.511871,-1.56546,0.0401004,1.55592,1.31712,-0.000864807,0.000418163,0.000416007,-0.00641605,-0.00418264,0.00758806,0.000710397,0.233646,-27.6311,-0.812364,27.8238,0.813595,3.35168,0.0577852,2.17445,1.7719,1.05722,-1.06838,1.50106,0.122309,0.126919,0.785636,0.143111,-0.0943476,0.147183,-0.212641,0.0847501,
0.0189738,-0.0548863,0.511874,-1.56485,0.0402557,-0.0156413,0.531717,5.31434e-05,4.299e-05,0.000145708,-8.91462e-05,0.000514552,-0.000360684,-7.86379e-07,0,0,0,0,0,0,0,0.0189732,-0.0550096,0.511871,-1.56546,0.0401004,1.55592,1.31712,-0.000864807,0.000418163,0.000416007,-0.00641605,-0.00418264,0.00758806,0.000710397,0.233646,-27.6311,-0.812364,27.8238,0.813595,3.35168,0.0577852,2.17445,1.7719,1.05722,-1.06838,1.50106,0.122309,0.126919,0.785636,0.143111,-0.0943476,0.147183,-0.212641,0.0847501,
0.018974,-0.0548863,0.511874,-1.56485,0.0402573,-0.0156428,0.531717,4.69154e-05,-5.95437e-07,0.000141102,-7.1629e-05,0.000403879,-0.000367357,-6.41037e-07,0,0,0,0,0,0,0,0.0189732,-0.0550096,0.511871,-1.56546,0.0401004,1.55592,1.31712,-0.000864807,0.000418163,0.000416007,-0.00641605,-0.00418264,0.00758806,0.000710397,0.233646,-27.6311,-0.812364,27.8238,0.813595,3.35168,0.0577852,2.04482,1.83121,1.35613,-0.989955,1.28328,0.186149,0.172577,0.608589,0.219076,0.0611001,0.191086,-0.180399,0.0849909,
0.0189742,-0.0548864,0.511875,-1.56485,0.0402586,-0.0156443,0.531717,4.08475e-05,-3.83132e-05,0.000136414,-5.56807e-05,0.00031448,-0.000371267,-4.68448e-07,0,0,0,0,0,0,0,0.0189787,-0.0550068,0.511873,-1.56544,0.0401107,1.55593,1.31712,-0.00580936,0.000418085,-0.000519196,0.00442705,0.00468653,-0.000780938,0.000524419,0.106693,-27.6311,-0.859972,27.0026,0.642391,3.19237,0.0641939,2.04482,1.83121,1.35613,-0.989955,1.28328,0.186149,0.172577,0.608589,0.219076,0.0611001,0.191086,-0.180399,0.0849909,
0.0189743,-0.0548867,0.511875,-1.56485,0.0402596,-0.0156458,0.531717,3.51403e-05,-7.09976e-05,0.0001319,-4.12722e-05,0.000241816,-0.000373012,-2.86197e-07,0,0,0,0,0,0,0,0.0189787,-0.0550068,0.511873,-1.56544,0.0401107,1.55593,1.31712,-0.00580936,0.000418085,-0.000519196,0.00442705,0.00468653,-0.000780938,0.000524419,0.106693,-27.6311,-0.859972,27.0026,0.642391,3.19237,0.0641939,1.93843,1.94115,1.12638,-1.13368,1.31684,0.266556,0.247048,0.679505,0.310739,-0.0467923,0.200086,-0.206953,0.0845497,
0.0189744,-0.0548871,0.511876,-1.56485,0.0402603,-0.0156472,0.531717,2.99017e-05,-9.93632e-05,0.000127709,-2.83307e-05,0.000182412,-0.00037311,-1.05402e-07,0,0,0,0,0,0,0,0.0189787,-0.0550068,0.511873,-1.56544,0.0401107,1.55593,1.31712,-0.00580936,0.000418085,-0.000519196,0.00442705,0.00468653,-0.000780938,0.000524419,0.106693,-27.6311,-0.859972,27.0026,0.642391,3.19237,0.0641939,1.93843,1.94115,1.12638,-1.13368,1.31684,0.266556,0.247048,0.679505,0.310739,-0.0467923,0.200086,-0.206953,0.0845497,
0.0189745,-0.0548876,0.511876,-1.56485,0.0402608,-0.0156487,0.531717,2.51781e-05,-0.000124021,0.000123916,-1.6759e-05,0.00013359,-0.000371995,6.72113e-08,0,0,0,0,0,0,0,0.0189787,-0.0550068,0.511873,-1.56544,0.0401107,1.55593,1.31712,-0.00580936,0.000418085,-0.000519196,0.00442705,0.00468653,-0.000780938,0.000524419,0.106693,-27.6311,-0.859972,27.0026,0.642391,3.19237,0.0641939,1.58488,1.40786,1.49632,-0.674916,0.892584,0.120899,0.102659,0.367689,0.149063,0.14775,0.1632,-0.207884,0.0856441,
0.0189746,-0.0548882,0.511877,-1.56485,0.0402612,-0.0156502,0.531717,2.09766e-05,-0.000145493,0.000120551,-6.44785e-06,9.32711e-05,-0.000370025,2.27877e-07,0,0,0,0,0,0,0,0.0189787,-0.0550068,0.511873,-1.56544,0.0401107,1.55593,1.31712,-0.00580936,0.000418085,-0.000519196,0.00442705,0.00468653,-0.000780938,0.000524419,0.106693,-27.6311,-0.859972,27.0026,0.642391,3.19237,0.0641939,1.54445,1.42409,1.6212,-0.656512,0.826433,0.139668,0.1128,0.314248,0.174831,0.188743,0.170937,-0.217452,0.0857642,
0.0189747,-0.0548888,0.511877,-1.56485,0.0402614,-0.0156517,0.531717,1.72796e-05,-0.000164225,0.000117613,2.71581e-06,5.9831e-05,-0.000367484,3.74785e-07,0,0,0,0,0,0,0,0.0189836,-0.0550068,0.511877,-1.56546,0.0401106,1.55593,1.31712,-0.00253599,0.000290202,-0.00227661,0.00105194,0.0116231,0.00183386,0.000133432,0.0828892,-27.6311,-0.911547,27.3001,0.624081,3.17864,0.0706026,1.54445,1.42409,1.6212,-0.656512,0.826433,0.139668,0.1128,0.314248,0.174831,0.188743,0.170937,-0.217452,0.0857642,
0.0189747,-0.0548895,0.511878,-1.56485,0.0402616,-0.0156531,0.531717,1.40553e-05,-0.000180597,0.000115084,1.08433e-05,3.19907e-05,-0.000364598,5.07395e-07,0,0,0,0,0,0,0,0.0189836,-0.0550068,0.511877,-1.56546,0.0401106,1.55593,1.31712,-0.00253599,0.000290202,-0.00227661,0.00105194,0.0116231,0.00183386,0.000133432,0.0828892,-27.6311,-0.911547,27.3001,0.624081,3.17864,0.0706026,1.72572,1.62636,1.4411,-0.860203,1.0437,0.181085,0.148533,0.47356,0.228794,0.0802986,0.170469,-0.232203,0.0852553,
0.0189748,-0.0548903,0.511878,-1.56485,0.0402616,-0.0156546,0.531717,1.12642e-05,-0.000194937,0.000112933,1.80407e-05,8.73638e-06,-0.00036154,6.25957e-07,0,0,0,0,0,0,0,0.0189836,-0.0550068,0.511877,-1.56546,0.0401106,1.55593,1.31712,-0.00253599,0.000290202,-0.00227661,0.00105194,0.0116231,0.00183386,0.000133432,0.0828892,-27.6311,-0.911547,27.3001,0.624081,3.17864,0.0706026,1.72572,1.62636,1.4411,-0.860203,1.0437,0.181085,0.148533,0.47356,0.228794,0.0802986,0.170469,-0.232203,0.0852553,
0.0189748,-0.0548912,0.511879,-1.56485,0.0402615,-0.015656,0.531717,8.86398e-06,-0.000207521,0.000111127,2.44077e-05,-1.07415e-05,-0.00035844,7.312e-07,0,0,0,0,0,0,0,0.0189836,-0.0550068,0.511877,-1.56546,0.0401106,1.55593,1.31712,-0.00253599,0.000290202,-0.00227661,0.00105194,0.0116231,0.00183386,0.000133432,0.0828892,-27.6311,-0.911547,27.3001,0.624081,3.17864,0.0706026,1.43755,1.50765,1.52925,-0.71915,0.792513,0.208062,0.175447,0.316444,0.250488,0.161507,0.197029,-0.216645,0.0859965,
0.0189749,-0.054892,0.511879,-1.56485,0.0402614,-0.0156574,0.531717,6.81213e-06,-0.000218588,0.000109629,3.00355e-05,-2.70936e-05,-0.000355393,8.24106e-07,0,0,0,0,0,0,0,0.0189836,-0.0550068,0.511877,-1.56546,0.0401106,1.55593,1.31712,-0.00253599,0.000290202,-0.00227661,0.00105194,0.0116231,0.00183386,0.000133432,0.0828892,-27.6311,-0.911547,27.3001,0.624081,3.17864,0.0706026,1.45626,1.68009,1.58024,-0.840529,0.794064,0.281498,0.260306,0.31328,0.316394,0.164559,0.197696,-0.2242,0.0865231,
0.0189749,-0.0548929,0.51188,-1.56485,0.0402613,-0.0156589,0.531717,5.0678e-06,-0.000228342,0.000108403,3.50077e-05,-4.08463e-05,-0.000352465,9.05778e-07,0,0,0,0,0,0,0,0.0189427,-0.0550172,0.511842,-1.56542,0.0400543,1.55593,1.31712,-0.00689901,-0.000490241,-0.00184982,0.00149412,0.00131851,0.000794374,0.000691426,0.539127,-27.4843,-0.510851,26.828,1.03332,3.18596,0.0706026,1.45626,1.68009,1.58024,-0.840529,0.794064,0.281498,0.260306,0.31328,0.316394,0.164559,0.197696,-0.2242,0.0865231,
0.0189749,-0.0548939,0.51188,-1.56485,0.0402611,-0.0156602,0.531717,3.59287e-06,-0.000236957,0.000107415,3.93995e-05,-5.24285e-05,-0.000349702,9.77345e-07,0,0,0,0,0,0,0,0.0189427,-0.0550172,0.511842,-1.56542,0.0400543,1.55593,1.31712,-0.00689901,-0.000490241,-0.00184982,0.00149412,0.00131851,0.000794374,0.000691426,0.539127,-27.4843,-0.510851,26.828,1.03332,3.18596,0.0706026,1.5256,1.57531,1.31688,-0.865361,0.95463,0.215042,0.20696,0.452353,0.240645,0.0341203,0.164422,-0.252428,0.0853233,
0.0189749,-0.0548949,0.51188,-1.56485,0.0402608,-0.0156616,0.531717,2.35239e-06,-0.000244585,0.000106635,4.32785e-05,-6.2191e-05,-0.000347131,1.0399e-06,0,0,0,0,0,0,0,0.0189427,-0.0550172,0.511842,-1.56542,0.0400543,1.55593,1.31712,-0.00689901,-0.000490241,-0.00184982,0.00149412,0.00131851,0.000794374,0.000691426,0.539127,-27.4843,-0.510851,26.828,1.03332,3.18596,0.0706026,1.5256,1.57531,1.31688,-0.865361,0.95463,0.215042,0.20696,0.452353,0.240645,0.0341203,0.164422,-0.252428,0.0853233,
0.0189749,-0.0548959,0.511881,-1.56485,0.0402605,-0.015663,0.531717,1.31486e-06,-0.000251354,0.000106033,4.67051e-05,-7.04228e-05,-0.000344767,1.09449e-06,0,0,0,0,0,0,0,0.0189427,-0.0550172,0.511842,-1.56542,0.0400543,1.55593,1.31712,-0.00689901,-0.000490241,-0.00184982,0.00149412,0.00131851,0.000794374,0.000691426,0.539127,-27.4843,-0.510851,26.828,1.03332,3.18596,0.0706026,1.67085,1.54145,1.17591,-0.868897,1.10676,0.159936,0.160172,0.556652,0.178437,-0.0201001,0.161385,-0.240706,0.0843057,
0.0189749,-0.0548969,0.511881,-1.56485,0.0402602,-0.0156644,0.531717,4.52158e-07,-0.000257376,0.000105584,4.97329e-05,-7.73633e-05,-0.000342615,1.14205e-06,0,0,0,0,0,0,0,0.0189427,-0.0550172,0.511842,-1.56542,0.0400543,1.55593,1.31712,-0.00689901,-0.000490241,-0.00184982,0.00149412,0.00131851,0.000794374,0.000691426,0.539127,-27.4843,-0.510851,26.828,1.03332,3.18596,0.0706026,1.40774,1.44379,1.34222,-0.745246,0.837555,0.188443,0.190154,0.373362,0.200684,0.0837697,0.166969,-0.228958,0.0853351,
0.019197,-0.0551361,0.512097,-1.56461,-0.0143823,-0.0499957,0.531564,-0.00512794,0.000881472,-0.00509382,-0.00232425,-0.336218,-0.213508,-0.000704939,0,0,0,0,0,0,0,0.0189427,-0.0550172,0.511842,-1.56542,0.0400543,1.55593,1.31712,-0.00689901,-0.000490241,-0.00184982,0.00149412,0.00131851,0.000794374,0.000691426,0.539127,-27.4843,-0.510851,26.828,1.03332,3.18596,0.0706026,1.40774,1.44379,1.34222,-0.745246,0.837555,0.188443,0.190154,0.373362,0.200684,0.0837697,0.166969,-0.228958,0.0853351,
0.0190322,-0.0552692,0.511945,-1.5652,-0.00524288,-0.043668,0.531636,-0.0043995,0.000285203,-0.00428683,-0.00208143,-0.262777,-0.17348,-0.000343231,0,0,0,0,0,0,0,0.0189346,-0.0550484,0.511836,-1.56543,0.0400184,1.55592,1.31711,0.000170425,-0.00147909,-0.000393067,-0.00176705,-0.00796098,-0.0025215,-0.00117421,0.158268,-27.3097,-0.788561,27.0264,1.26495,3.32512,0.124619,1.50215,1.52397,1.29476,-0.798345,0.925252,0.198297,0.197461,0.430044,0.214385,0.0643008,0.182447,-0.218121,0.085822,
0.0190144,-0.055268,0.511928,-1.5652,-0.00628021,-0.0443544,0.531634,-0.00445315,0.000303952,-0.00434308,-0.00208483,-0.259331,-0.171581,-0.000339795,0,0,0,0,0,0,0,0.0189346,-0.0550484,0.511836,-1.56543,0.0400184,1.55592,1.31711,0.000170425,-0.00147909,-0.000393067,-0.00176705,-0.00796098,-0.0025215,-0.00117421,0.158268,-27.3097,-0.788561,27.0264,1.26495,3.32512,0.124619,1.50215,1.52397,1.29476,-0.798345,0.925252,0.198297,0.197461,0.430044,0.214385,0.0643008,0.182447,-0.218121,0.085822,
0.0189963,-0.0552667,0.51191,-1.56521,-0.00730301,-0.0450326,0.531633,-0.00450581,0.000316164,-0.00439816,-0.00209134,-0.255699,-0.169566,-0.00033713,0,0,0,0,0,0,0,0.0189346,-0.0550484,0.511836,-1.56543,0.0400184,1.55592,1.31711,0.000170425,-0.00147909,-0.000393067,-0.00176705,-0.00796098,-0.0025215,-0.00117421,0.158268,-27.3097,-0.788561,27.0264,1.26495,3.32512,0.124619,1.80158,1.72512,1.22401,-0.967348,1.17369,0.204437,0.196703,0.580535,0.232564,0.00438197,0.18023,-0.214391,0.0864904,
0.0189781,-0.0552655,0.511892,-1.56522,-0.00831043,-0.0457023,0.531631,-0.00455877,0.000322264,-0.00445333,-0.00210245,-0.251857,-0.167416,-0.000335483,0,0,0,0,0,0,0,0.0189346,-0.0550484,0.511836,-1.56543,0.0400184,1.55592,1.31711,0.000170425,-0.00147909,-0.000393067,-0.00176705,-0.00796098,-0.0025215,-0.00117421,0.158268,-27.3097,-0.788561,27.0264,1.26495,3.32512,0.124619,1.62292,1.9844,1.30693,-1.19034,1.0251,0.369254,0.342583,0.493523,0.422672,0.00307205,0.151513,-0.253742,0.0874963,
0.0189596,-0.0552642,0.511874,-1.56523,-0.00930153,-0.0463627,0.53163,-0.00461354,0.000322686,-0.00451004,-0.00211986,-0.247775,-0.165107,-0.000334929,0,0,0,0,0,0,0,0.0189346,-0.0550484,0.511836,-1.56543,0.0400184,1.55592,1.31711,0.000170425,-0.00147909,-0.000393067,-0.00176705,-0.00796098,-0.0025215,-0.00117421,0.158268,-27.3097,-0.788561,27.0264,1.26495,3.32512,0.124619,1.62292,1.9844,1.30693,-1.19034,1.0251,0.369254,0.342583,0.493523,0.422672,0.00307205,0.151513,-0.253742,0.0874963,
0.018941,-0.0552629,0.511856,-1.56524,-0.0102752,-0.0470132,0.531629,-0.00467183,0.000317856,-0.00456998,-0.00214559,-0.24342,-0.16261,-0.000335383,0,0,0,0,0,0,0,0.0190699,-0.0550607,0.51196,-1.56537,0.036102,1.5556,1.31711,-0.00220492,-0.000451626,0.00236259,-0.00104444,-0.155677,-0.017516,-0.000471341,-0.754208,-27.4089,-1.56218,26.4313,-0.023197,2.78771,0.0843355,1.22832,1.81938,1.31861,-1.19617,0.708052,0.398491,0.344023,0.308246,0.481731,-0.0031627,0.031149,-0.308865,0.087603,
0.018922,-0.0552617,0.511837,-1.56525,-0.0112302,-0.0476527,0.531627,-0.0047357,0.000308241,-0.00463514,-0.00218201,-0.238752,-0.15989,-0.000337078,0,0,0,0,0,0,0,0.0190699,-0.0550607,0.51196,-1.56537,0.036102,1.5556,1.31711,-0.00220492,-0.000451626,0.00236259,-0.00104444,-0.155677,-0.017516,-0.000471341,-0.754208,-27.4089,-1.56218,26.4313,-0.023197,2.78771,0.0843355,1.22832,1.81938,1.31861,-1.19617,0.708052,0.398491,0.344023,0.308246,0.481731,-0.0031627,0.031149,-0.308865,0.087603,
0.0189028,-0.0552605,0.511819,-1.56526,-0.0121651,-0.0482803,0.531626,-0.00480765,0.000294346,-0.00470793,-0.00223193,-0.233718,-0.156904,-0.000340017,0,0,0,0,0,0,0,0.0190699,-0.0550607,0.51196,-1.56537,0.036102,1.5556,1.31711,-0.00220492,-0.000451626,0.00236259,-0.00104444,-0.155677,-0.017516,-0.000471341,-0.754208,-27.4089,-1.56218,26.4313,-0.023197,2.78771,0.0843355,1.04288,1.65325,1.41691,-1.1553,0.495331,0.371131,0.298949,0.156994,0.472092,0.0345167,-0.0788492,-0.33308,0.0857962,
0.0188832,-0.0552594,0.511799,-1.56527,-0.0130781,-0.0488947,0.531625,-0.00489077,0.00027673,-0.00479137,-0.00229871,-0.228259,-0.153601,-0.000344211,0,0,0,0,0,0,0,0.0190699,-0.0550607,0.51196,-1.56537,0.036102,1.5556,1.31711,-0.00220492,-0.000451626,0.00236259,-0.00104444,-0.155677,-0.017516,-0.000471341,-0.754208,-27.4089,-1.56218,26.4313,-0.023197,2.78771,0.0843355,1.04288,1.65325,1.41691,-1.1553,0.495331,0.371131,0.298949,0.156994,0.472092,0.0345167,-0.0788492,-0.33308,0.0857962,
0.0188633,-0.0552584,0.51178,-1.56528,-0.0139673,-0.0494944,0.531623,-0.00498896,0.000256024,-0.00488922,-0.00238634,-0.222299,-0.14992,-0.000349585,0,0,0,0,0,0,0,0.0190699,-0.0550607,0.51196,-1.56537,0.036102,1.5556,1.31711,-0.00220492,-0.000451626,0.00236259,-0.00104444,-0.155677,-0.017516,-0.000471341,-0.754208,-27.4089,-1.56218,26.4313,-0.023197,2.78771,0.0843355,1.22241,1.5976,1.77687,-1.04688,0.474759,0.294583,0.221867,0.0748745,0.391398,0.163721,-0.10535,-0.325446,0.0849123,
0.0188428,-0.0552574,0.51176,-1.56529,-0.0148303,-0.0500776,0.531622,-0.00510716,0.000232954,-0.00500631,-0.00249959,-0.215744,-0.145787,-0.000356191,0,0,0,0,0,0,0,0.0190699,-0.0550607,0.51196,-1.56537,0.036102,1.5556,1.31711,-0.00220492,-0.000451626,0.00236259,-0.00104444,-0.155677,-0.017516,-0.000471341,-0.754208,-27.4089,-1.56218,26.4313,-0.023197,2.78771,0.0843355,1.22241,1.5976,1.77687,-1.04688,0.474759,0.294583,0.221867,0.0748745,0.391398,0.163721,-0.10535,-0.325446,0.0849123,
0.0188218,-0.0552566,0.511739,-1.5653,-0.0156642,-0.050642,0.53162,-0.00525177,0.000208341,-0.00514884,-0.00264413,-0.208476,-0.141112,-0.000363505,0,0,0,0,0,0,0,0.0191616,-0.0550623,0.511983,-1.56543,0.0302015,1.5545,1.31712,0.00227281,-9.33965e-07,0.000166725,-0.000164961,-0.176819,-0.0303594,-0.00010479,-0.730404,-27.4327,-1.56218,27.1017,-0.0662268,2.62841,0.0706026,2.20333,1.32302,2.06019,-0.882901,1.09196,-0.108803,-0.179143,0.364049,-0.0178928,0.14734,-0.21221,-0.367128,0.0838929,
0.0188001,-0.0552559,0.511718,-1.56531,-0.0164656,-0.0511852,0.531619,-0.0054311,0.000183128,-0.00532491,-0.00282671,-0.200348,-0.13579,-0.000371074,0,0,0,0,0,0,0,0.0191616,-0.0550623,0.511983,-1.56543,0.0302015,1.5545,1.31712,0.00227281,-9.33965e-07,0.000166725,-0.000164961,-0.176819,-0.0303594,-0.00010479,-0.730404,-27.4327,-1.56218,27.1017,-0.0662268,2.62841,0.0706026,2.48213,1.12831,2.1788,-0.842009,1.29052,-0.277675,-0.350542,0.470146,-0.183103,0.0775081,-0.312361,-0.463652,0.0815674,
0.0187775,-0.0552552,0.511696,-1.56532,-0.0172303,-0.051704,0.531617,-0.00565605,0.000158343,-0.00554514,-0.00305533,-0.191172,-0.129696,-0.000378112,0,0,0,0,0,0,0,0.0191616,-0.0550623,0.511983,-1.56543,0.0302015,1.5545,1.31712,0.00227281,-9.33965e-07,0.000166725,-0.000164961,-0.176819,-0.0303594,-0.00010479,-0.730404,-27.4327,-1.56218,27.1017,-0.0662268,2.62841,0.0706026,2.48213,1.12831,2.1788,-0.842009,1.29052,-0.277675,-0.350542,0.470146,-0.183103,0.0775081,-0.312361,-0.463652,0.0815674,
0.0187537,-0.0552547,0.511672,-1.56533,-0.0179531,-0.0521947,0.531616,-0.00594106,0.00013504,-0.00582363,-0.00333956,-0.180707,-0.122679,-0.000383307,0,0,0,0,0,0,0,0.0191616,-0.0550623,0.511983,-1.56543,0.0302015,1.5545,1.31712,0.00227281,-9.33965e-07,0.000166725,-0.000164961,-0.176819,-0.0303594,-0.00010479,-0.730404,-27.4327,-1.56218,27.1017,-0.0662268,2.62841,0.0706026,2.22767,1.22804,2.35498,-0.902016,1.09201,-0.161182,-0.232541,0.356878,-0.0665993,0.0989429,-0.303327,-0.529215,0.0812503,
0.0187285,-0.0552542,0.511648,-1.56535,-0.0186277,-0.0526529,0.531614,-0.00630548,0.000114032,-0.00617923,-0.00369116,-0.168643,-0.114562,-0.000383832,0,0,0,0,0,0,0,0.0191616,-0.0550623,0.511983,-1.56543,0.0302015,1.5545,1.31712,0.00227281,-9.33965e-07,0.000166725,-0.000164961,-0.176819,-0.0303594,-0.00010479,-0.730404,-27.4327,-1.56218,27.1017,-0.0662268,2.62841,0.0706026,2.22767,1.22804,2.35498,-0.902016,1.09201,-0.161182,-0.232541,0.356878,-0.0665993,0.0989429,-0.303327,-0.529215,0.0812503,
0.0187014,-0.0552538,0.511621,-1.56536,-0.019246,-0.0530735,0.531613,-0.00677554,9.51089e-05,-0.0066376,-0.00412574,-0.15457,-0.105133,-0.000374948,0,0,0,0,0,0,0,0.0191069,-0.0550651,0.511925,-1.56542,0.0252522,1.55404,1.31712,-0.0057068,-0.000141352,-0.00527855,0.00115912,-0.155124,-0.00029417,0.000850738,0.209842,-27.4327,-0.859972,26.951,0.484005,2.72179,0.0641939,2.31563,1.37692,2.46941,-1.01164,1.16957,-0.117133,-0.167071,0.406894,-0.0397881,0.0686374,-0.297372,-0.5885,0.0802979,
0.0186718,-0.0552535,0.511592,-1.56538,-0.0197978,-0.05345,0.531611,-0.00738807,7.4478e-05,-0.00723466,-0.004668,-0.137946,-0.0941261,-0.000345862,0,0,0,0,0,0,0,0.0191069,-0.0550651,0.511925,-1.56542,0.0252522,1.55404,1.31712,-0.0057068,-0.000141352,-0.00527855,0.00115912,-0.155124,-0.00029417,0.000850738,0.209842,-27.4327,-0.859972,26.951,0.484005,2.72179,0.0641939,2.29005,1.54573,2.55817,-1.11683,1.16403,-0.0328343,-0.062898,0.411398,0.0281239,0.0575619,-0.272624,-0.628692,0.0804694,
0.018639,-0.0552534,0.51156,-1.5654,-0.0202698,-0.0537747,0.53161,-0.00819785,3.6325e-05,-0.00802381,-0.00536926,-0.118018,-0.0811765,-0.00027277,0,0,0,0,0,0,0,0.0191069,-0.0550651,0.511925,-1.56542,0.0252522,1.55404,1.31712,-0.0057068,-0.000141352,-0.00527855,0.00115912,-0.155124,-0.00029417,0.000850738,0.209842,-27.4327,-0.859972,26.951,0.484005,2.72179,0.0641939,2.29005,1.54573,2.55817,-1.11683,1.16403,-0.0328343,-0.062898,0.411398,0.0281239,0.0575619,-0.272624,-0.628692,0.0804694,
0.0186019,-0.0552537,0.511524,-1.56543,-0.0206445,-0.0540373,0.53161,-0.00929628,-7.53313e-05,-0.00909453,-0.00636659,-0.0936622,-0.0656596,-0.000146808,0,0,0,0,0,0,0,0.0191069,-0.0550651,0.511925,-1.56542,0.0252522,1.55404,1.31712,-0.0057068,-0.000141352,-0.00527855,0.00115912,-0.155124,-0.00029417,0.000850738,0.209842,-27.4327,-0.859972,26.951,0.484005,2.72179,0.0641939,2.42607,1.6119,2.67822,-1.10707,1.2599,-0.0398755,-0.0541451,0.461812,0.00433114,0.0699873,-0.226941,-0.646149,0.0803224,
0.0185638,-0.0552512,0.511486,-1.56545,-0.0209466,-0.0542539,0.53161,-0.00951288,0.000613875,-0.00940473,-0.00574006,-0.0755323,-0.0541553,-5.22128e-05,0,0,0,0,0,0,0,0.0191069,-0.0550651,0.511925,-1.56542,0.0252522,1.55404,1.31712,-0.0057068,-0.000141352,-0.00527855,0.00115912,-0.155124,-0.00029417,0.000850738,0.209842,-27.4327,-0.859972,26.951,0.484005,2.72179,0.0641939,2.42607,1.6119,2.67822,-1.10707,1.2599,-0.0398755,-0.0541451,0.461812,0.00433114,0.0699873,-0.226941,-0.646149,0.0803224,
0.0185265,-0.0552458,0.511449,-1.56547,-0.0211928,-0.0544336,0.53161,-0.00933609,0.00134982,-0.00929543,-0.00482306,-0.0615356,-0.04491,-1.30273e-05,0,0,0,0,0,0,0,0.0191069,-0.0550651,0.511925,-1.56542,0.0252522,1.55404,1.31712,-0.0057068,-0.000141352,-0.00527855,0.00115912,-0.155124,-0.00029417,0.000850738,0.209842,-27.4327,-0.859972,26.951,0.484005,2.72179,0.0641939,2.24518,1.81632,2.4952,-1.27432,1.235,0.105247,0.100995,0.499341,0.145016,-0.0117176,-0.178743,-0.667215,0.0797248,
0.0184907,-0.0552381,0.511413,-1.56549,-0.0213948,-0.0545826,0.53161,-0.00895075,0.00194575,-0.00895533,-0.00396331,-0.0505048,-0.0372513,9.21734e-07,0,0,0,0,0,0,0,0.0190126,-0.0550628,0.511884,-1.5654,0.0201549,1.55402,1.31711,-0.00468415,0.000398975,-0.000585871,0.00153626,-0.167409,-0.0024113,-0.00105295,0.182071,-27.4843,-0.836168,26.6534,1.06994,2.79412,0.110886,1.62185,2.11253,2.53024,-1.39087,0.791448,0.418512,0.421612,0.263836,0.452121,0.0637889,-0.070571,-0.65167,0.079088,
0.0184568,-0.0552286,0.511379,-1.5655,-0.0215615,-0.0547059,0.53161,-0.00845314,0.00237719,-0.00848717,-0.00322876,-0.0416877,-0.0308441,3.32486e-06,0,0,0,0,0,0,0,0.0190126,-0.0550628,0.511884,-1.5654,0.0201549,1.55402,1.31711,-0.00468415,0.000398975,-0.000585871,0.00153626,-0.167409,-0.0024113,-0.00105295,0.182071,-27.4843,-0.836168,26.6534,1.06994,2.79412,0.110886,1.62185,2.11253,2.53024,-1.39087,0.791448,0.418512,0.421612,0.263836,0.452121,0.0637889,-0.070571,-0.65167,0.079088,
0.0175058,-0.0537449,0.510218,-1.56554,-0.138069,-0.186739,0.530189,-0.0313808,0.0211678,-0.0324257,-0.0209008,-1.21362,-1.04908,-0.00740617,0,0,0,0,0,0,0,0.0190126,-0.0550628,0.511884,-1.5654,0.0201549,1.55402,1.31711,-0.00468415,0.000398975,-0.000585871,0.00153626,-0.167409,-0.0024113,-0.00105295,0.182071,-27.4843,-0.836168,26.6534,1.06994,2.79412,0.110886,1.66206,2.08351,2.61568,-1.29463,0.800153,0.395554,0.409215,0.257725,0.414464,0.111747,-0.01922,-0.63352,0.0788871,
0.0171465,-0.0541078,0.509912,-1.56546,-0.112092,-0.144005,0.530893,-0.0272817,0.0148202,-0.0280036,-0.012057,-0.656503,-0.770099,-0.00304703,0,0,0,0,0,0,0,0.0190126,-0.0550628,0.511884,-1.5654,0.0201549,1.55402,1.31711,-0.00468415,0.000398975,-0.000585871,0.00153626,-0.167409,-0.0024113,-0.00105295,0.182071,-27.4843,-0.836168,26.6534,1.06994,2.79412,0.110886,1.66206,2.08351,2.61568,-1.29463,0.800153,0.395554,0.409215,0.257725,0.414464,0.111747,-0.01922,-0.63352,0.0788871,
0.0170379,-0.0540495,0.5098,-1.5655,-0.114677,-0.147069,0.530881,-0.0271472,0.0145825,-0.0278796,-0.0118274,-0.64617,-0.765929,-0.00296849,0,0,0,0,0,0,0,0.0190126,-0.0550628,0.511884,-1.5654,0.0201549,1.55402,1.31711,-0.00468415,0.000398975,-0.000585871,0.00153626,-0.167409,-0.0024113,-0.00105295,0.182071,-27.4843,-0.836168,26.6534,1.06994,2.79412,0.110886,1.81763,2.22215,2.60566,-1.33998,0.943834,0.416625,0.437902,0.34999,0.428235,0.0992218,0.0451195,-0.621498,0.0791191,
0.0169298,-0.0539922,0.509689,-1.56555,-0.117219,-0.150115,0.53087,-0.0270196,0.0143126,-0.0277623,-0.0116084,-0.635515,-0.761516,-0.00289242,0,0,0,0,0,0,0,0.0187326,-0.0550622,0.511707,-1.56544,0.0154331,1.55395,1.31711,-0.00815564,-0.00189704,-0.00432653,0.00107678,-0.169508,-0.0315404,-0.000829281,0.0828892,-27.4089,-0.911547,26.9788,0.538937,2.19811,0.0907442,1.81763,2.22215,2.60566,-1.33998,0.943834,0.416625,0.437902,0.34999,0.428235,0.0992218,0.0451195,-0.621498,0.0791191,
0.0168222,-0.0539362,0.509579,-1.5656,-0.119717,-0.153142,0.530858,-0.0269014,0.014011,-0.0276542,-0.0114034,-0.624465,-0.756778,-0.00281923,0,0,0,0,0,0,0,0.0187326,-0.0550622,0.511707,-1.56544,0.0154331,1.55395,1.31711,-0.00815564,-0.00189704,-0.00432653,0.00107678,-0.169508,-0.0315404,-0.000829281,0.0828892,-27.4089,-0.911547,26.9788,0.538937,2.19811,0.0907442,2.87196,3.40254,3.28948,-1.9131,1.4318,0.653759,0.68128,0.491141,0.669394,0.330563,0.157677,-0.498473,0.0856741,
0.016715,-0.0538815,0.509468,-1.56564,-0.122168,-0.156149,0.530847,-0.026796,0.0136776,-0.0275583,-0.0112167,-0.612935,-0.751618,-0.00274957,0,0,0,0,0,0,0,0.0187326,-0.0550622,0.511707,-1.56544,0.0154331,1.55395,1.31711,-0.00815564,-0.00189704,-0.00432653,0.00107678,-0.169508,-0.0315404,-0.000829281,0.0828892,-27.4089,-0.911547,26.9788,0.538937,2.19811,0.0907442,2.87196,3.40254,3.28948,-1.9131,1.4318,0.653759,0.68128,0.491141,0.669394,0.330563,0.157677,-0.498473,0.0856741,
0.0166082,-0.0538282,0.509359,-1.56569,-0.124572,-0.159132,0.530837,-0.0267067,0.0133118,-0.0274782,-0.0110531,-0.600831,-0.745921,-0.00268294,0,0,0,0,0,0,0,0.0187326,-0.0550622,0.511707,-1.56544,0.0154331,1.55395,1.31711,-0.00815564,-0.00189704,-0.00432653,0.00107678,-0.169508,-0.0315404,-0.000829281,0.0828892,-27.4089,-0.911547,26.9788,0.538937,2.19811,0.0907442,4.04544,4.04815,3.29279,-2.46193,2.22858,0.603639,0.604858,0.903107,0.662353,0.237756,0.0602477,-0.452672,0.0910189,
0.0165016,-0.0537766,0.509249,-1.56573,-0.126924,-0.16209,0.530826,-0.0266377,0.0129125,-0.0274178,-0.0109188,-0.588043,-0.739549,-0.00262081,0,0,0,0,0,0,0,0.0187326,-0.0550622,0.511707,-1.56544,0.0154331,1.55395,1.31711,-0.00815564,-0.00189704,-0.00432653,0.00107678,-0.169508,-0.0315404,-0.000829281,0.0828892,-27.4089,-0.911547,26.9788,0.538937,2.19811,0.0907442,2.66248,3.27662,3.13183,-2.24895,1.27631,0.618732,0.574911,0.410638,0.722903,0.145037,-0.207625,-0.647385,0.0920871,
0.0163953,-0.0537267,0.509139,-1.56577,-0.129222,-0.16502,0.530816,-0.0265937,0.0124785,-0.027382,-0.0108208,-0.574445,-0.73234,-0.0025636,0,0,0,0,0,0,0,0.0187326,-0.0550622,0.511707,-1.56544,0.0154331,1.55395,1.31711,-0.00815564,-0.00189704,-0.00432653,0.00107678,-0.169508,-0.0315404,-0.000829281,0.0828892,-27.4089,-0.911547,26.9788,0.538937,2.19811,0.0907442,2.66248,3.27662,3.13183,-2.24895,1.27631,0.618732,0.574911,0.410638,0.722903,0.145037,-0.207625,-0.647385,0.0920871,
0.0162889,-0.0536786,0.50903,-1.56582,-0.131461,-0.167916,0.530806,-0.0265805,0.0120079,-0.0273761,-0.0107677,-0.559895,-0.724096,-0.00251223,0,0,0,0,0,0,0,0.0189524,-0.0551134,0.51189,-1.56451,-0.00265718,1.54232,1.31711,0.0125967,-0.00154606,0.0062456,0.0294796,-0.602494,-0.474627,0.000378534,-1.61908,-26.9606,-2.13744,25.7092,-0.628361,1.52154,0.0577852,2.93708,2.76317,3.45216,-2.06915,1.39849,0.293595,0.226392,0.440594,0.420114,0.0865209,-0.435598,-0.823311,0.0886486,
0.0161825,-0.0536326,0.50892,-1.56586,-0.133638,-0.170775,0.530796,-0.0266043,0.0114989,-0.0274065,-0.0107702,-0.544228,-0.714583,-0.00246719,0,0,0,0,0,0,0,0.0189524,-0.0551134,0.51189,-1.56451,-0.00265718,1.54232,1.31711,0.0125967,-0.00154606,0.0062456,0.0294796,-0.602494,-0.474627,0.000378534,-1.61908,-26.9606,-2.13744,25.7092,-0.628361,1.52154,0.0577852,2.93708,2.76317,3.45216,-2.06915,1.39849,0.293595,0.226392,0.440594,0.420114,0.0865209,-0.435598,-0.823311,0.0886486,
0.0160758,-0.0535888,0.50881,-1.5659,-0.135747,-0.173589,0.530786,-0.0266726,0.0109492,-0.0274807,-0.0108408,-0.527255,-0.703517,-0.00242999,0,0,0,0,0,0,0,0.0189524,-0.0551134,0.51189,-1.56451,-0.00265718,1.54232,1.31711,0.0125967,-0.00154606,0.0062456,0.0294796,-0.602494,-0.474627,0.000378534,-1.61908,-26.9606,-2.13744,25.7092,-0.628361,1.52154,0.0577852,3.30078,1.98156,4.06266,-1.52879,1.53122,-0.177292,-0.255758,0.446345,-0.054611,0.140097,-0.561824,-1.0016,0.0843787,
0.0159687,-0.0535474,0.5087,-1.56595,-0.137782,-0.176351,0.530777,-0.026794,0.0103568,-0.0276069,-0.0109947,-0.508765,-0.690563,-0.0024015,0,0,0,0,0,0,0,0.0189524,-0.0551134,0.51189,-1.56451,-0.00265718,1.54232,1.31711,0.0125967,-0.00154606,0.0062456,0.0294796,-0.602494,-0.474627,0.000378534,-1.61908,-26.9606,-2.13744,25.7092,-0.628361,1.52154,0.0577852,3.30078,1.98156,4.06266,-1.52879,1.53122,-0.177292,-0.255758,0.446345,-0.054611,0.140097,-0.561824,-1.0016,0.0843787,
0.0158607,-0.0535085,0.508589,-1.56599,-0.139736,-0.179052,0.530767,-0.0269779,0.00971986,-0.0277944,-0.0112499,-0.488517,-0.675315,-0.00238372,0,0,0,0,0,0,0,0.0189524,-0.0551134,0.51189,-1.56451,-0.00265718,1.54232,1.31711,0.0125967,-0.00154606,0.0062456,0.0294796,-0.602494,-0.474627,0.000378534,-1.61908,-26.9606,-2.13744,25.7092,-0.628361,1.52154,0.0577852,3.03949,1.85936,4.69606,-1.39314,1.22893,-0.175067,-0.263077,0.228972,-0.0480717,0.239445,-0.584744,-1.17252,0.0817584,
0.0157518,-0.0534724,0.508476,-1.56604,-0.141601,-0.181681,0.530758,-0.0272344,0.00903684,-0.0280535,-0.0116281,-0.466246,-0.657295,-0.00237876,0,0,0,0,0,0,0,0.0191129,-0.0553169,0.512027,-1.5641,-0.0224597,1.52552,1.31711,0.00394486,0.00133752,0.00339431,0.00853221,-0.606029,-0.523945,0.000349986,-1.49212,-27.159,-2.21282,25.856,-0.621952,1.26244,0.0706026,2.87843,0.736396,4.63109,-0.808207,1.23512,-0.658247,-0.756487,0.284314,-0.532604,0.0616446,-0.751084,-1.39251,0.0802797,
0.0156415,-0.0534391,0.508363,-1.56609,-0.143368,-0.184225,0.530748,-0.0275746,0.00830718,-0.0283947,-0.0121548,-0.441662,-0.635932,-0.00238991,0,0,0,0,0,0,0,0.0191129,-0.0553169,0.512027,-1.5641,-0.0224597,1.52552,1.31711,0.00394486,0.00133752,0.00339431,0.00853221,-0.606029,-0.523945,0.000349986,-1.49212,-27.159,-2.21282,25.856,-0.621952,1.26244,0.0706026,2.87843,0.736396,4.63109,-0.808207,1.23512,-0.658247,-0.756487,0.284314,-0.532604,0.0616446,-0.751084,-1.39251,0.0802797,
0.0155295,-0.053409,0.508248,-1.56614,-0.145026,-0.186667,0.530738,-0.0280088,0.00753171,-0.0288285,-0.0128601,-0.414454,-0.610551,-0.00242012,0,0,0,0,0,0,0,0.0191129,-0.0553169,0.512027,-1.5641,-0.0224597,1.52552,1.31711,0.00394486,0.00133752,0.00339431,0.00853221,-0.606029,-0.523945,0.000349986,-1.49212,-27.159,-2.21282,25.856,-0.621952,1.26244,0.0706026,2.66429,0.320897,4.68672,-0.617071,1.10766,-0.798246,-0.894277,0.227177,-0.677498,0.00356326,-0.842023,-1.51158,0.0779927,
0.0154153,-0.0533822,0.50813,-1.56619,-0.146563,-0.188989,0.530728,-0.0285464,0.00671343,-0.0293641,-0.0137789,-0.384307,-0.580357,-0.00247481,0,0,0,0,0,0,0,0.0191129,-0.0553169,0.512027,-1.5641,-0.0224597,1.52552,1.31711,0.00394486,0.00133752,0.00339431,0.00853221,-0.606029,-0.523945,0.000349986,-1.49212,-27.159,-2.21282,25.856,-0.621952,1.26244,0.0706026,2.66429,0.320897,4.68672,-0.617071,1.10766,-0.798246,-0.894277,0.227177,-0.677498,0.00356326,-0.842023,-1.51158,0.0779927,
0.0152985,-0.0533587,0.50801,-1.56625,-0.147967,-0.191166,0.530718,-0.0291936,0.00585859,-0.0300075,-0.0149522,-0.350913,-0.54442,-0.00256147,0,0,0,0,0,0,0,0.0191129,-0.0553169,0.512027,-1.5641,-0.0224597,1.52552,1.31711,0.00394486,0.00133752,0.00339431,0.00853221,-0.606029,-0.523945,0.000349986,-1.49212,-27.159,-2.21282,25.856,-0.621952,1.26244,0.0706026,2.87402,0.818598,4.20998,-1.08971,1.56606,-0.63635,-0.701791,0.622474,-0.528631,-0.31247,-0.7687,-1.60539,0.0750957,
0.0151787,-0.0533388,0.507887,-1.56632,-0.149223,-0.193173,0.530707,-0.0299505,0.00497874,-0.0307588,-0.016426,-0.314008,-0.501653,-0.00269029,0,0,0,0,0,0,0,0.0191129,-0.0553169,0.512027,-1.5641,-0.0224597,1.52552,1.31711,0.00394486,0.00133752,0.00339431,0.00853221,-0.606029,-0.523945,0.000349986,-1.49212,-27.159,-2.21282,25.856,-0.621952,1.26244,0.0706026,2.87402,0.818598,4.20998,-1.08971,1.56606,-0.63635,-0.701791,0.622474,-0.528631,-0.31247,-0.7687,-1.60539,0.0750957,
0.0150555,-0.0533224,0.507761,-1.56639,-0.150316,-0.194976,0.530696,-0.0308068,0.00409481,-0.0316079,-0.0182485,-0.273409,-0.4508,-0.0028721,0,0,0,0,0,0,0,0.0190935,-0.0554069,0.511995,-1.56407,-0.0398999,1.50844,1.31711,-0.00197975,-0.0104962,-0.00201199,0.0015069,-0.530749,-0.526937,0.000211929,-0.373349,-26.5599,-1.43523,25.8322,-0.407718,1.44829,0.0577852,3.36477,0.859085,3.87583,-1.20529,2.138,-0.761573,-0.79422,1.03393,-0.679901,-0.55499,-0.739916,-1.67491,0.0733018,
0.0149285,-0.0533094,0.507631,-1.56647,-0.151233,-0.196538,0.530684,-0.0317327,0.00324925,-0.0325254,-0.0204528,-0.229092,-0.390449,-0.00301563,0,0,0,0,0,0,0,0.0190935,-0.0554069,0.511995,-1.56407,-0.0398999,1.50844,1.31711,-0.00197975,-0.0104962,-0.00201199,0.0015069,-0.530749,-0.526937,0.000211929,-0.373349,-26.5599,-1.43523,25.8322,-0.407718,1.44829,0.0577852,2.52175,0.668029,4.1273,-0.885316,1.39802,-0.616001,-0.628248,0.570387,-0.56752,-0.305974,-0.643708,-1.60943,0.0726393,
0.014798,-0.0532993,0.507497,-1.56656,-0.151958,-0.197815,0.530678,-0.0326477,0.00254528,-0.0334464,-0.0229941,-0.181351,-0.319155,-0.00139505,0,0,0,0,0,0,0,0.0190935,-0.0554069,0.511995,-1.56407,-0.0398999,1.50844,1.31711,-0.00197975,-0.0104962,-0.00201199,0.0015069,-0.530749,-0.526937,0.000211929,-0.373349,-26.5599,-1.43523,25.8322,-0.407718,1.44829,0.0577852,2.52175,0.668029,4.1273,-0.885316,1.39802,-0.616001,-0.628248,0.570387,-0.56752,-0.305974,-0.643708,-1.60943,0.0726393,
0.0146707,-0.0532826,0.507366,-1.56665,-0.152539,-0.198872,0.530673,-0.0318117,0.00417341,-0.0327141,-0.020705,-0.145291,-0.264253,-0.00125387,0,0,0,0,0,0,0,0.0190935,-0.0554069,0.511995,-1.56407,-0.0398999,1.50844,1.31711,-0.00197975,-0.0104962,-0.00201199,0.0015069,-0.530749,-0.526937,0.000211929,-0.373349,-26.5599,-1.43523,25.8322,-0.407718,1.44829,0.0577852,1.82344,1.08026,3.85765,-1.1133,1.00321,-0.234249,-0.237258,0.410132,-0.190034,-0.310597,-0.498583,-1.5577,0.0711388,
0.0145496,-0.0532587,0.507241,-1.56672,-0.153007,-0.199751,0.530668,-0.0302778,0.00597287,-0.0312525,-0.0174578,-0.116866,-0.219762,-0.00129864,0,0,0,0,0,0,0,0.0190935,-0.0554069,0.511995,-1.56407,-0.0398999,1.50844,1.31711,-0.00197975,-0.0104962,-0.00201199,0.0015069,-0.530749,-0.526937,0.000211929,-0.373349,-26.5599,-1.43523,25.8322,-0.407718,1.44829,0.0577852,1.82344,1.08026,3.85765,-1.1133,1.00321,-0.234249,-0.237258,0.410132,-0.190034,-0.310597,-0.498583,-1.5577,0.0711388,
-0.00758012,-0.0433605,0.483788,-1.57849,-0.152131,-0.207738,0.51916,-0.204698,0.110476,-0.21441,-0.100337,-1.24363,-1.32446,-0.0599621,0,0,0,0,0,0,0,0.0187656,-0.0554595,0.511751,-1.56415,-0.0603294,1.48706,1.3171,-0.00863431,0.00028515,-0.0111749,-0.011544,-0.448352,-0.458934,-0.00253823,-0.119442,-27.282,-1.21306,26.6058,1.03332,2.64855,0.164902,1.31946,1.1043,3.47638,-1.08779,0.853683,-0.0909335,-0.0821898,0.427828,-0.0601482,-0.415276,-0.339536,-1.56468,0.0715448,
-0.00304768,-0.0473406,0.488866,-1.5748,-0.233768,-0.215119,0.524887,-0.163262,0.0650081,-0.170159,-0.0712928,-1.11223,-0.100704,-0.0245406,0,0,0,0,0,0,0,0.0187656,-0.0554595,0.511751,-1.56415,-0.0603294,1.48706,1.3171,-0.00863431,0.00028515,-0.0111749,-0.011544,-0.448352,-0.458934,-0.00253823,-0.119442,-27.282,-1.21306,26.6058,1.03332,2.64855,0.164902,1.31946,1.1043,3.47638,-1.08779,0.853683,-0.0909335,-0.0821898,0.427828,-0.0601482,-0.415276,-0.339536,-1.56468,0.0715448,
-0.00370785,-0.0470872,0.488178,-1.57508,-0.238042,-0.215347,0.524792,-0.165041,0.0633512,-0.171952,-0.0700651,-1.06855,-0.0571393,-0.0236631,0,0,0,0,0,0,0,0.0187656,-0.0554595,0.511751,-1.56415,-0.0603294,1.48706,1.3171,-0.00863431,0.00028515,-0.0111749,-0.011544,-0.448352,-0.458934,-0.00253823,-0.119442,-27.282,-1.21306,26.6058,1.03332,2.64855,0.164902,0.570907,1.28335,3.82102,-0.845924,0.077529,0.203136,0.222325,-0.104539,0.207703,-0.00212085,-0.122671,-1.34381,0.0721368,
-0.00437516,-0.0468404,0.487483,-1.57535,-0.242117,-0.215398,0.524701,-0.166827,0.0616997,-0.173768,-0.0687691,-1.0189,-0.0127432,-0.022802,0,0,0,0,0,0,0,0.0187656,-0.0554595,0.511751,-1.56415,-0.0603294,1.48706,1.3171,-0.00863431,0.00028515,-0.0111749,-0.011544,-0.448352,-0.458934,-0.00253823,-0.119442,-27.282,-1.21306,26.6058,1.03332,2.64855,0.164902,0.337584,4.46298,4.06289,-2.57123,-0.409884,1.74819,1.77636,-0.500256,1.77991,0.483065,0.317052,-0.817513,0.0608906,
-0.00504941,-0.0466002,0.486781,-1.57562,-0.245973,-0.215267,0.524613,-0.168563,0.0600403,-0.175541,-0.067456,-0.963816,0.0326721,-0.0219592,0,0,0,0,0,0,0,0.0187656,-0.0554595,0.511751,-1.56415,-0.0603294,1.48706,1.3171,-0.00863431,0.00028515,-0.0111749,-0.011544,-0.448352,-0.458934,-0.00253823,-0.119442,-27.282,-1.21306,26.6058,1.03332,2.64855,0.164902,0.337584,4.46298,4.06289,-2.57123,-0.409884,1.74819,1.77636,-0.500256,1.77991,0.483065,0.317052,-0.817513,0.0608906,
-0.00573028,-0.0463668,0.486072,-1.57589,-0.249587,-0.21495,0.524528,-0.170219,0.0583558,-0.177235,-0.0661618,-0.903553,0.0792918,-0.0211414,0,0,0,0,0,0,0,0.017989,-0.0554232,0.510724,-1.56473,-0.0817295,1.46858,1.31683,-0.0202517,4.31254e-05,-0.0347381,-0.0330757,-1.00448,-0.580113,-0.0117432,-3.74554,-25.6117,-4.58525,26.5543,-1.48896,2.74834,0.0577852,-0.610471,4.98875,2.74194,-2.98864,-0.595048,2.27494,2.29206,-0.366212,2.32934,0.172129,0.588494,-0.686413,0.0378598,
-0.00641743,-0.0461403,0.485356,-1.57615,-0.252939,-0.214441,0.524447,-0.171787,0.0566276,-0.178841,-0.0649096,-0.838145,0.127295,-0.0203522,0,0,0,0,0,0,0,0.017989,-0.0554232,0.510724,-1.56473,-0.0817295,1.46858,1.31683,-0.0202517,4.31254e-05,-0.0347381,-0.0330757,-1.00448,-0.580113,-0.0117432,-3.74554,-25.6117,-4.58525,26.5543,-1.48896,2.74834,0.0577852,-0.610471,4.98875,2.74194,-2.98864,-0.595048,2.27494,2.29206,-0.366212,2.32934,0.172129,0.588494,-0.686413,0.0378598,
-0.00711052,-0.0459209,0.484635,-1.5764,-0.256009,-0.213734,0.524369,-0.173273,0.0548372,-0.180359,-0.063714,-0.767446,0.176857,-0.0195902,0,0,0,0,0,0,0,0.017989,-0.0554232,0.510724,-1.56473,-0.0817295,1.46858,1.31683,-0.0202517,4.31254e-05,-0.0347381,-0.0330757,-1.00448,-0.580113,-0.0117432,-3.74554,-25.6117,-4.58525,26.5543,-1.48896,2.74834,0.0577852,0.430509,2.38464,2.76655,-1.35286,-0.0691219,0.829077,0.849458,-0.201951,0.840237,0.23776,0.158531,-0.660631,0.0211823,
-0.00780928,-0.0457091,0.483908,-1.57665,-0.258774,-0.212821,0.524293,-0.17469,0.0529666,-0.181803,-0.062583,-0.691149,0.228141,-0.0188595,0,0,0,0,0,0,0,0.017989,-0.0554232,0.510724,-1.56473,-0.0817295,1.46858,1.31683,-0.0202517,4.31254e-05,-0.0347381,-0.0330757,-1.00448,-0.580113,-0.0117432,-3.74554,-25.6117,-4.58525,26.5543,-1.48896,2.74834,0.0577852,3.55256,1.31409,2.66641,-0.914939,1.83739,-0.460138,-0.431161,0.663269,-0.460631,0.197226,-0.396317,-0.430099,0.0110532,
-0.00851351,-0.0455051,0.483175,-1.5769,-0.261209,-0.211696,0.524221,-0.176056,0.0509989,-0.183189,-0.0615205,-0.608818,0.281296,-0.0181667,0,0,0,0,0,0,0,0.017989,-0.0554232,0.510724,-1.56473,-0.0817295,1.46858,1.31683,-0.0202517,4.31254e-05,-0.0347381,-0.0330757,-1.00448,-0.580113,-0.0117432,-3.74554,-25.6117,-4.58525,26.5543,-1.48896,2.74834,0.0577852,3.55256,1.31409,2.66641,-0.914939,1.83739,-0.460138,-0.431161,0.663269,-0.460631,0.197226,-0.396317,-0.430099,0.0110532,
-0.00922307,-0.0453094,0.482437,-1.57714,-0.263289,-0.21035,0.524151,-0.177391,0.0489195,-0.184535,-0.0605262,-0.519907,0.336441,-0.0175164,0,0,0,0,0,0,0,0.017989,-0.0554232,0.510724,-1.56473,-0.0817295,1.46858,1.31683,-0.0202517,4.31254e-05,-0.0347381,-0.0330757,-1.00448,-0.580113,-0.0117432,-3.74554,-25.6117,-4.58525,26.5543,-1.48896,2.74834,0.0577852,3.70606,1.63989,1.57909,-1.37947,2.32013,-0.326043,-0.306642,1.1005,-0.298828,-0.183249,-0.384924,-0.367069,0.00118355,
-0.00993791,-0.0451225,0.481694,-1.57738,-0.264984,-0.208776,0.524083,-0.178708,0.0467176,-0.185854,-0.0595964,-0.423805,0.393644,-0.0169086,0,0,0,0,0,0,0,0.0172349,-0.0557009,0.50956,-1.56642,-0.112104,1.45315,1.31653,-0.0419618,-0.0102,-0.0637842,-0.0608934,-0.947154,-0.427637,-0.00628665,-2.57916,-25.5126,-3.5855,27.0026,-0.109257,3.78197,-0.0301054,3.70606,1.63989,1.57909,-1.37947,2.32013,-0.326043,-0.306642,1.1005,-0.298828,-0.183249,-0.384924,-0.367069,0.00118355,
-0.0106579,-0.044945,0.480945,-1.57762,-0.266264,-0.206964,0.524017,-0.18001,0.0443885,-0.187149,-0.0587215,-0.319894,0.452879,-0.0163573,0,0,0,0,0,0,0,0.0172349,-0.0557009,0.50956,-1.56642,-0.112104,1.45315,1.31653,-0.0419618,-0.0102,-0.0637842,-0.0608934,-0.947154,-0.427637,-0.00628665,-2.57916,-25.5126,-3.5855,27.0026,-0.109257,3.78197,-0.0301054,3.32221,2.81811,1.04934,-2.14308,2.07794,0.369712,0.384118,0.992035,0.421551,-0.135308,-0.2375,-0.0899665,-0.0137699,
-0.011383,-0.0447772,0.480191,-1.57785,-0.267094,-0.204908,0.523954,-0.181275,0.041939,-0.188397,-0.0578812,-0.207666,0.513961,-0.0158653,0,0,0,0,0,0,0,0.0172349,-0.0557009,0.50956,-1.56642,-0.112104,1.45315,1.31653,-0.0419618,-0.0102,-0.0637842,-0.0608934,-0.947154,-0.427637,-0.00628665,-2.57916,-25.5126,-3.5855,27.0026,-0.109257,3.78197,-0.0301054,3.32221,2.81811,1.04934,-2.14308,2.07794,0.369712,0.384118,0.992035,0.421551,-0.135308,-0.2375,-0.0899665,-0.0137699,
-0.0121128,-0.0446196,0.479433,-1.57808,-0.267442,-0.202603,0.523892,-0.182437,0.0393957,-0.189535,-0.0570355,-0.0869347,0.576422,-0.0154427,0,0,0,0,0,0,0,0.0172349,-0.0557009,0.50956,-1.56642,-0.112104,1.45315,1.31653,-0.0419618,-0.0102,-0.0637842,-0.0608934,-0.947154,-0.427637,-0.00628665,-2.57916,-25.5126,-3.5855,27.0026,-0.109257,3.78197,-0.0301054,3.39881,1.82542,2.1719,-1.22943,1.27552,-0.0320187,-0.0194131,0.153605,-0.0090033,0.651807,-0.53766,0.232875,-0.0251484,
-0.0128462,-0.0444723,0.478672,-1.5783,-0.267275,-0.200045,0.523832,-0.183351,0.0368196,-0.190416,-0.0561078,0.0417956,0.639317,-0.0151114,0,0,0,0,0,0,0,0.0172349,-0.0557009,0.50956,-1.56642,-0.112104,1.45315,1.31653,-0.0419618,-0.0102,-0.0637842,-0.0608934,-0.947154,-0.427637,-0.00628665,-2.57916,-25.5126,-3.5855,27.0026,-0.109257,3.78197,-0.0301054,4.21498,0.752204,2.15431,-0.658916,1.82954,-0.728621,-0.713083,0.431883,-0.719773,0.55465,-0.778346,0.161041,-0.0295275,
-0.0135811,-0.044335,0.477908,-1.57852,-0.266568,-0.197242,0.523772,-0.183732,0.0343308,-0.190762,-0.0549556,0.176694,0.700897,-0.0148974,0,0,0,0,0,0,0,0.0152451,-0.0559166,0.506692,-1.56888,-0.13557,1.44188,1.31641,-0.0801169,-0.00179849,-0.105231,-0.0802166,-0.52975,-0.233823,-0.00227757,-1.64288,-26.0362,-2.71269,27.4271,-0.603641,3.6364,-0.0365141,4.21498,0.752204,2.15431,-0.658916,1.82954,-0.728621,-0.713083,0.431883,-0.719773,0.55465,-0.778346,0.161041,-0.0295275,
-0.0143134,-0.0442064,0.477148,-1.57873,-0.265314,-0.194209,0.523713,-0.183065,0.0321473,-0.190065,-0.0533228,0.31358,0.758129,-0.0148609,0,0,0,0,0,0,0,0.0152451,-0.0559166,0.506692,-1.56888,-0.13557,1.44188,1.31641,-0.0801169,-0.00179849,-0.105231,-0.0802166,-0.52975,-0.233823,-0.00227757,-1.64288,-26.0362,-2.71269,27.4271,-0.603641,3.6364,-0.0365141,4.44489,0.0941953,1.6478,-0.349923,2.21991,-1.08114,-1.0613,0.744338,-1.08155,0.313229,-0.827479,0.0983601,-0.0334764,
-0.0150353,-0.0440839,0.476398,-1.57894,-0.263536,-0.190985,0.523652,-0.180476,0.0306393,-0.187461,-0.0507678,0.444491,0.806057,-0.0151216,0,0,0,0,0,0,0,0.0152451,-0.0559166,0.506692,-1.56888,-0.13557,1.44188,1.31641,-0.0801169,-0.00179849,-0.105231,-0.0802166,-0.52975,-0.233823,-0.00227757,-1.64288,-26.0362,-2.71269,27.4271,-0.603641,3.6364,-0.0365141,4.44489,0.0941953,1.6478,-0.349923,2.21991,-1.08114,-1.0613,0.744338,-1.08155,0.313229,-0.827479,0.0983601,-0.0334764,
-0.0157337,-0.0439622,0.475672,-1.57912,-0.261312,-0.187637,0.523588,-0.174596,0.0304147,-0.181595,-0.04653,0.556041,0.837086,-0.0159569,0,0,0,0,0,0,0,0.0152451,-0.0559166,0.506692,-1.56888,-0.13557,1.44188,1.31641,-0.0801169,-0.00179849,-0.105231,-0.0802166,-0.52975,-0.233823,-0.00227757,-1.64288,-26.0362,-2.71269,27.4271,-0.603641,3.6364,-0.0365141,3.4362,-0.0983804,0.542147,-0.309937,1.98439,-0.885691,-0.87014,0.844942,-0.881085,-0.0167558,-0.642686,0.0885177,-0.0366764,
-0.0163874,-0.0438321,0.47499,-1.57928,-0.258799,-0.184277,0.523517,-0.163418,0.0325293,-0.17047,-0.0391335,0.628056,0.839968,-0.0179664,0,0,0,0,0,0,0,0.0152451,-0.0559166,0.506692,-1.56888,-0.13557,1.44188,1.31641,-0.0801169,-0.00179849,-0.105231,-0.0802166,-0.52975,-0.233823,-0.00227757,-1.64288,-26.0362,-2.71269,27.4271,-0.603641,3.6364,-0.0365141,2.08776,-0.351405,0.234139,-0.094527,1.22717,-0.646768,-0.633096,0.534908,-0.647799,-0.071785,-0.487672,0.0173713,-0.0413957,
-0.0169634,-0.043675,0.474386,-1.57938,-0.256271,-0.181091,0.52343,-0.144009,0.0392826,-0.151149,-0.0248471,0.632063,0.796317,-0.0216487,0,0,0,0,0,0,0,0.0152451,-0.0559166,0.506692,-1.56888,-0.13557,1.44188,1.31641,-0.0801169,-0.00179849,-0.105231,-0.0802166,-0.52975,-0.233823,-0.00227757,-1.64288,-26.0362,-2.71269,27.4271,-0.603641,3.6364,-0.0365141,2.08776,-0.351405,0.234139,-0.094527,1.22717,-0.646768,-0.633096,0.534908,-0.647799,-0.071785,-0.487672,0.0173713,-0.0413957,
-0.0174087,-0.043446,0.473913,-1.57935,-0.254172,-0.178429,0.523378,-0.111324,0.0572487,-0.118213,0.00805824,0.524706,0.665711,-0.0130814,0,0,0,0,0,0,0,0.0123157,-0.0558388,0.502797,-1.57105,-0.145422,1.43949,1.31638,-0.121737,0.0108834,-0.151008,-0.0711242,-0.14941,0.0171936,0.00234238,-0.829586,-27.4089,-1.93511,27.4509,0.434567,3.02666,-0.050247,2.19403,-0.0776879,0.833655,-0.053724,1.11234,-0.560506,-0.542895,0.382902,-0.572586,0.159243,-0.373746,0.0407908,-0.0417652,
-0.0177707,-0.0432167,0.473526,-1.5793,-0.252339,-0.17609,0.523325,-0.0904909,0.0573153,-0.0965793,0.0122688,0.458277,0.584562,-0.0132206,0,0,0,0,0,0,0,0.0123157,-0.0558388,0.502797,-1.57105,-0.145422,1.43949,1.31638,-0.121737,0.0108834,-0.151008,-0.0711242,-0.14941,0.0171936,0.00234238,-0.829586,-27.4089,-1.93511,27.4509,0.434567,3.02666,-0.050247,2.19403,-0.0776879,0.833655,-0.053724,1.11234,-0.560506,-0.542895,0.382902,-0.572586,0.159243,-0.373746,0.0407908,-0.0417652,
-0.0180736,-0.0430068,0.473201,-1.57926,-0.250677,-0.173987,0.52327,-0.0757325,0.0524745,-0.0812294,0.00922096,0.415595,0.525911,-0.0135987,0,0,0,0,0,0,0,0.0123157,-0.0558388,0.502797,-1.57105,-0.145422,1.43949,1.31638,-0.121737,0.0108834,-0.151008,-0.0711242,-0.14941,0.0171936,0.00234238,-0.829586,-27.4089,-1.93511,27.4509,0.434567,3.02666,-0.050247,1.73941,0.138832,0.647083,-0.0188905,0.997916,-0.360786,-0.343925,0.418753,-0.378017,0.103509,-0.0858608,0.0218379,-0.0405388,
-0.0304623,-0.0322883,0.460095,-1.58601,-0.232246,-0.276715,0.513185,-0.342439,0.180047,-0.357989,-0.145722,-1.22629,-1.08633,-0.0775689,0,0,0,0,0,0,0,0.0123157,-0.0558388,0.502797,-1.57105,-0.145422,1.43949,1.31638,-0.121737,0.0108834,-0.151008,-0.0711242,-0.14941,0.0171936,0.00234238,-0.829586,-27.4089,-1.93511,27.4509,0.434567,3.02666,-0.050247,0.734171,-0.130582,-0.0806844,0.200749,0.726618,-0.239922,-0.22443,0.481396,-0.26288,-0.160687,0.172613,-0.071077,-0.0407466,
-0.0228866,-0.0415518,0.466073,-1.58365,-0.256074,-0.174632,0.522256,-0.199286,0.0788328,-0.207403,-0.0664957,-0.167178,-0.183714,-0.0336221,0,0,0,0,0,0,0,0.0123157,-0.0558388,0.502797,-1.57105,-0.145422,1.43949,1.31638,-0.121737,0.0108834,-0.151008,-0.0711242,-0.14941,0.0171936,0.00234238,-0.829586,-27.4089,-1.93511,27.4509,0.434567,3.02666,-0.050247,0.734171,-0.130582,-0.0806844,0.200749,0.726618,-0.239922,-0.22443,0.481396,-0.26288,-0.160687,0.172613,-0.071077,-0.0407466,
-0.0236837,-0.0412424,0.465244,-1.58392,-0.256494,-0.175282,0.522125,-0.199272,0.0773452,-0.207389,-0.0659418,-0.105005,-0.162466,-0.0328786,0,0,0,0,0,0,0,0.00626354,-0.0551064,0.496013,-1.57318,-0.145702,1.44378,1.31633,-0.158817,0.0392525,-0.161018,-0.00693052,-0.0225789,0.085401,-0.00748145,0.539127,-27.1828,-0.637804,25.6061,0.17181,2.26403,-0.0301054,-0.531629,0.686053,-0.561303,-0.275084,0.12416,0.454181,0.472717,0.302079,0.438544,-0.281907,0.471543,-0.0828591,-0.0388352,
-0.024481,-0.0409394,0.464414,-1.58418,-0.256649,-0.175842,0.521996,-0.19932,0.075768,-0.207436,-0.0653801,-0.0387568,-0.13988,-0.0321511,0,0,0,0,0,0,0,0.00626354,-0.0551064,0.496013,-1.57318,-0.145702,1.44378,1.31633,-0.158817,0.0392525,-0.161018,-0.00693052,-0.0225789,0.085401,-0.00748145,0.539127,-27.1828,-0.637804,25.6061,0.17181,2.26403,-0.0301054,-0.531629,0.686053,-0.561303,-0.275084,0.12416,0.454181,0.472717,0.302079,0.438544,-0.281907,0.471543,-0.0828591,-0.0388352,
-0.0252788,-0.040643,0.463584,-1.58444,-0.256521,-0.176305,0.52187,-0.199446,0.0740875,-0.207557,-0.0648173,0.0320966,-0.115876,-0.0314376,0,0,0,0,0,0,0,0.00626354,-0.0551064,0.496013,-1.57318,-0.145702,1.44378,1.31633,-0.158817,0.0392525,-0.161018,-0.00693052,-0.0225789,0.085401,-0.00748145,0.539127,-27.1828,-0.637804,25.6061,0.17181,2.26403,-0.0301054,-1.92941,3.94989,-0.855191,-2.35961,-0.694118,2.32665,2.35213,-0.0453177,2.35569,-0.282307,0.923705,0.0661042,-0.0370567,
-0.0260774,-0.0403539,0.462753,-1.58469,-0.256088,-0.176667,0.521747,-0.199663,0.0722901,-0.207768,-0.0642617,0.10815,-0.0903476,-0.0307442,0,0,0,0,0,0,0,0.00626354,-0.0551064,0.496013,-1.57318,-0.145702,1.44378,1.31633,-0.158817,0.0392525,-0.161018,-0.00693052,-0.0225789,0.085401,-0.00748145,0.539127,-27.1828,-0.637804,25.6061,0.17181,2.26403,-0.0301054,-0.522202,4.3472,-3.31716,-3.14069,1.56814,2.1379,2.14694,1.74723,2.21791,-1.55309,1.09455,-0.127294,-0.0425099,
-0.0268774,-0.0400724,0.46192,-1.58495,-0.255328,-0.176919,0.521627,-0.199987,0.0703627,-0.208082,-0.0637232,0.190055,-0.0631605,-0.0300725,0,0,0,0,0,0,0,0.00626354,-0.0551064,0.496013,-1.57318,-0.145702,1.44378,1.31633,-0.158817,0.0392525,-0.161018,-0.00693052,-0.0225789,0.085401,-0.00748145,0.539127,-27.1828,-0.637804,25.6061,0.17181,2.26403,-0.0301054,-0.522202,4.3472,-3.31716,-3.14069,1.56814,2.1379,2.14694,1.74723,2.21791,-1.55309,1.09455,-0.127294,-0.0425099,
-0.0276791,-0.0397992,0.461086,-1.5852,-0.254214,-0.177056,0.52151,-0.200431,0.068293,-0.208513,-0.0632145,0.278511,-0.03415,-0.0294261,0,0,0,0,0,0,0,0.000779467,-0.0544177,0.489999,-1.5735,-0.155809,1.44299,1.31595,-0.166635,0.0157766,-0.206728,-0.0228916,-0.261327,-0.0137368,-0.0102434,-0.805783,-27.5319,-1.9113,25.983,-0.591739,2.19079,0.00376909,-0.540992,4.06578,-2.45532,-2.89906,1.26585,2.00106,2.02327,1.44859,2.06022,-1.33403,0.966211,-0.251055,-0.0529964,
-0.0284831,-0.039535,0.46025,-1.58545,-0.252717,-0.177068,0.521394,-0.201003,0.0660699,-0.20907,-0.0627522,0.37424,-0.00311505,-0.0288085,0,0,0,0,0,0,0,0.000779467,-0.0544177,0.489999,-1.5735,-0.155809,1.44299,1.31595,-0.166635,0.0157766,-0.206728,-0.0228916,-0.261327,-0.0137368,-0.0102434,-0.805783,-27.5319,-1.9113,25.983,-0.591739,2.19079,0.00376909,-0.540992,4.06578,-2.45532,-2.89906,1.26585,2.00106,2.02327,1.44859,2.06022,-1.33403,0.966211,-0.251055,-0.0529964,
-0.0292899,-0.0392802,0.459411,-1.5857,-0.250805,-0.176948,0.521281,-0.201704,0.0636853,-0.209753,-0.0623578,0.477943,0.0301846,-0.0282272,0,0,0,0,0,0,0,0.000779467,-0.0544177,0.489999,-1.5735,-0.155809,1.44299,1.31595,-0.166635,0.0157766,-0.206728,-0.0228916,-0.261327,-0.0137368,-0.0102434,-0.805783,-27.5319,-1.9113,25.983,-0.591739,2.19079,0.00376909,0.671243,1.98531,-1.02553,-1.47654,1.42398,0.731197,0.76056,1.20067,0.746256,-0.870713,0.457933,-0.325309,-0.0577136,
-0.0301,-0.0390357,0.458569,-1.58595,-0.248444,-0.176684,0.521171,-0.202517,0.0611364,-0.210547,-0.062058,0.590213,0.0660277,-0.0276937,0,0,0,0,0,0,0,0.000779467,-0.0544177,0.489999,-1.5735,-0.155809,1.44299,1.31595,-0.166635,0.0157766,-0.206728,-0.0228916,-0.261327,-0.0137368,-0.0102434,-0.805783,-27.5319,-1.9113,25.983,-0.591739,2.19079,0.00376909,0.671243,1.98531,-1.02553,-1.47654,1.42398,0.731197,0.76056,1.20067,0.746256,-0.870713,0.457933,-0.325309,-0.0577136,
-0.0309092,-0.0387999,0.457727,-1.5862,-0.245644,-0.176267,0.521062,-0.202295,0.0589424,-0.210407,-0.0616303,0.700095,0.104054,-0.027203,0,0,0,0,0,0,0,0.000779467,-0.0544177,0.489999,-1.5735,-0.155809,1.44299,1.31595,-0.166635,0.0157766,-0.206728,-0.0228916,-0.261327,-0.0137368,-0.0102434,-0.805783,-27.5319,-1.9113,25.983,-0.591739,2.19079,0.00376909,1.09984,0.427227,-0.668355,-0.511439,1.57388,-0.107339,-0.080343,1.20749,-0.112803,-0.823455,0.182209,-0.451457,-0.0605033,
-0.031705,-0.0385684,0.456898,-1.58644,-0.242506,-0.175692,0.520955,-0.198946,0.0578872,-0.207337,-0.0609092,0.784424,0.143768,-0.0267787,0,0,0,0,0,0,0,0.000779467,-0.0544177,0.489999,-1.5735,-0.155809,1.44299,1.31595,-0.166635,0.0157766,-0.206728,-0.0228916,-0.261327,-0.0137368,-0.0102434,-0.805783,-27.5319,-1.9113,25.983,-0.591739,2.19079,0.00376909,0.776903,-0.377044,-0.756805,-0.0349465,1.42112,-0.409639,-0.382575,1.16258,-0.425967,-0.898579,0.105428,-0.560082,-0.0624393,
-0.0324798,-0.0383404,0.456089,-1.58668,-0.239107,-0.174943,0.520849,-0.193707,0.0569801,-0.202262,-0.0608377,0.849854,0.187308,-0.0265194,0,0,0,0,0,0,0,-0.00466596,-0.053878,0.483712,-1.57423,-0.157805,1.44297,1.31592,-0.19264,0.0234179,-0.199077,-0.0180636,0.0454039,0.00348555,-0.00145979,-0.95654,-27.5319,-1.8875,25.3601,-0.316166,2.08459,-0.0767973,0.776903,-0.377044,-0.756805,-0.0349465,1.42112,-0.409639,-0.382575,1.16258,-0.425967,-0.898579,0.105428,-0.560082,-0.0624393,
-0.0332285,-0.0381169,0.455305,-1.58693,-0.235503,-0.174001,0.520743,-0.187191,0.0558741,-0.195824,-0.0614928,0.900967,0.23552,-0.0264393,0,0,0,0,0,0,0,-0.00466596,-0.053878,0.483712,-1.57423,-0.157805,1.44297,1.31592,-0.19264,0.0234179,-0.199077,-0.0180636,0.0454039,0.00348555,-0.00145979,-0.95654,-27.5319,-1.8875,25.3601,-0.316166,2.08459,-0.0767973,-0.558302,-0.679156,-0.209321,0.234386,0.17501,-0.213979,-0.192222,0.361688,-0.234623,-0.56568,0.0244072,-0.564536,-0.0645943,
-0.0339475,-0.0378991,0.454552,-1.58718,-0.231739,-0.172848,0.520636,-0.179739,0.0544587,-0.188379,-0.0626967,0.940977,0.288344,-0.0266039,0,0,0,0,0,0,0,-0.00466596,-0.053878,0.483712,-1.57423,-0.157805,1.44297,1.31592,-0.19264,0.0234179,-0.199077,-0.0180636,0.0454039,0.00348555,-0.00145979,-0.95654,-27.5319,-1.8875,25.3601,-0.316166,2.08459,-0.0767973,-0.558302,-0.679156,-0.209321,0.234386,0.17501,-0.213979,-0.192222,0.361688,-0.234623,-0.56568,0.0244072,-0.564536,-0.0645943,
-0.0346334,-0.0376881,0.453832,-1.58744,-0.227851,-0.17147,0.520528,-0.171481,0.0527539,-0.180057,-0.0641078,0.972078,0.344336,-0.027167,0,0,0,0,0,0,0,-0.00466596,-0.053878,0.483712,-1.57423,-0.157805,1.44297,1.31592,-0.19264,0.0234179,-0.199077,-0.0180636,0.0454039,0.00348555,-0.00145979,-0.95654,-27.5319,-1.8875,25.3601,-0.316166,2.08459,-0.0767973,-0.367014,-0.0805569,0.0419662,-0.19775,0.172511,0.0259739,0.0488331,0.293363,0.0162284,-0.48287,-0.0294301,-0.530482,-0.0641233,
-0.0352827,-0.0374843,0.453149,-1.5877,-0.223868,-0.169872,0.520414,-0.162328,0.0509353,-0.170747,-0.065091,0.995608,0.399651,-0.0284693,0,0,0,0,0,0,0,-0.00466596,-0.053878,0.483712,-1.57423,-0.157805,1.44297,1.31592,-0.19264,0.0234179,-0.199077,-0.0180636,0.0454039,0.00348555,-0.00145979,-0.95654,-27.5319,-1.8875,25.3601,-0.316166,2.08459,-0.0767973,1.25511,-0.319698,-0.920922,-0.374068,1.79599,-0.473113,-0.445629,1.37357,-0.472086,-1.08211,-0.161634,-0.629827,-0.0701392,
-0.0358903,-0.0372863,0.452508,-1.58795,-0.21982,-0.168085,0.520289,-0.151896,0.0494999,-0.160029,-0.0643523,1.01205,0.446639,-0.0311372,0,0,0,0,0,0,0,-0.0111708,-0.053166,0.476572,-1.57507,-0.149741,1.44334,1.31588,-0.199939,0.0140368,-0.23255,-0.020487,0.399741,0.0345885,0.00117369,0.487552,-27.159,-0.411669,25.1855,0.54443,2.23748,-0.0905302,1.25511,-0.319698,-0.920922,-0.374068,1.79599,-0.473113,-0.445629,1.37357,-0.472086,-1.08211,-0.161634,-0.629827,-0.0701392,
-0.0364476,-0.0370869,0.45192,-1.58819,-0.215737,-0.166201,0.520148,-0.139331,0.0498577,-0.146996,-0.0587859,1.02083,0.471054,-0.035426,0,0,0,0,0,0,0,-0.0111708,-0.053166,0.476572,-1.57507,-0.149741,1.44334,1.31588,-0.199939,0.0140368,-0.23255,-0.020487,0.399741,0.0345885,0.00117369,0.487552,-27.159,-0.411669,25.1855,0.54443,2.23748,-0.0905302,1.35506,-1.56618,-1.10891,0.440633,1.95979,-1.08574,-1.06479,1.5084,-1.09843,-1.16975,-0.23738,-0.694259,-0.0701228,
-0.0369084,-0.0368474,0.45143,-1.58834,-0.211973,-0.164453,0.520042,-0.115184,0.0598794,-0.122541,-0.0371377,0.940885,0.43699,-0.0263548,0,0,0,0,0,0,0,-0.0111708,-0.053166,0.476572,-1.57507,-0.149741,1.44334,1.31588,-0.199939,0.0140368,-0.23255,-0.020487,0.399741,0.0345885,0.00117369,0.487552,-27.159,-0.411669,25.1855,0.54443,2.23748,-0.0905302,1.35506,-1.56618,-1.10891,0.440633,1.95979,-1.08574,-1.06479,1.5084,-1.09843,-1.16975,-0.23738,-0.694259,-0.0701228,
-0.0373034,-0.0366102,0.451008,-1.58847,-0.208413,-0.162754,0.519937,-0.0987448,0.0592971,-0.105619,-0.0322116,0.88989,0.424713,-0.0262802,0,0,0,0,0,0,0,-0.0111708,-0.053166,0.476572,-1.57507,-0.149741,1.44334,1.31588,-0.199939,0.0140368,-0.23255,-0.020487,0.399741,0.0345885,0.00117369,0.487552,-27.159,-0.411669,25.1855,0.54443,2.23748,-0.0905302,-0.126377,-1.35942,-1.06404,0.433753,0.881978,-0.633492,-0.622238,0.924362,-0.641079,-1.00678,-0.0913909,-0.669308,-0.0681272,
-0.0376497,-0.0363876,0.450635,-1.58859,-0.204988,-0.161075,0.519831,-0.0865921,0.0556499,-0.0931163,-0.0316315,0.856413,0.419781,-0.0265989,0,0,0,0,0,0,0,-0.0111708,-0.053166,0.476572,-1.57507,-0.149741,1.44334,1.31588,-0.199939,0.0140368,-0.23255,-0.020487,0.399741,0.0345885,0.00117369,0.487552,-27.159,-0.411669,25.1855,0.54443,2.23748,-0.0905302,-0.126377,-1.35942,-1.06404,0.433753,0.881978,-0.633492,-0.622238,0.924362,-0.641079,-1.00678,-0.0913909,-0.669308,-0.0681272,
-0.0379586,-0.0361824,0.450301,-1.58872,-0.20165,-0.159405,0.519723,-0.0772214,0.0513131,-0.0834999,-0.0318288,0.834353,0.417571,-0.0268266,0,0,0,0,0,0,0,-0.0111708,-0.053166,0.476572,-1.57507,-0.149741,1.44334,1.31588,-0.199939,0.0140368,-0.23255,-0.020487,0.399741,0.0345885,0.00117369,0.487552,-27.159,-0.411669,25.1855,0.54443,2.23748,-0.0905302,-0.884482,-1.00992,-1.35447,0.269734,0.516881,-0.293465,-0.286933,0.810695,-0.294276,-1.06866,0.0860069,-0.672549,-0.068636,
-0.0382378,-0.0359942,0.449998,-1.58885,-0.19837,-0.157738,0.519615,-0.0698076,0.0470366,-0.0759156,-0.0318901,0.820001,0.416539,-0.0269847,0,0,0,0,0,0,0,-0.0174328,-0.0522663,0.469221,-1.57573,-0.134191,1.44639,1.31584,-0.203925,0.0340908,-0.218406,-0.0171407,0.488038,0.127327,-0.00365392,1.70551,-27.9088,0.988783,25.6061,1.05804,2.95342,-0.0429228,-1.52104,-0.783338,-1.31391,0.312257,0.0058804,-0.0342337,-0.0299451,0.51375,-0.0396522,-0.897878,0.259322,-0.564574,-0.0655083,
-0.043421,-0.0322836,0.444718,-1.5943,-0.308062,-0.295995,0.511241,-0.342297,0.163711,-0.356145,-0.150073,-1.19774,-0.804665,-0.087286,0,0,0,0,0,0,0,-0.0174328,-0.0522663,0.469221,-1.57573,-0.134191,1.44639,1.31584,-0.203925,0.0340908,-0.218406,-0.0171407,0.488038,0.127327,-0.00365392,1.70551,-27.9088,0.988783,25.6061,1.05804,2.95342,-0.0429228,-1.52104,-0.783338,-1.31391,0.312257,0.0058804,-0.0342337,-0.0299451,0.51375,-0.0396522,-0.897878,0.259322,-0.564574,-0.0655083,
-0.0514893,-0.0414369,0.433691,-1.58964,-0.198601,-0.119527,0.520063,-0.180429,0.0505776,-0.188391,-0.0780245,-0.13236,0.383727,-0.0473301,0,0,0,0,0,0,0,-0.0174328,-0.0522663,0.469221,-1.57573,-0.134191,1.44639,1.31584,-0.203925,0.0340908,-0.218406,-0.0171407,0.488038,0.127327,-0.00365392,1.70551,-27.9088,0.988783,25.6061,1.05804,2.95342,-0.0429228,-1.17497,-0.0173818,-1.64781,-0.0980958,0.300312,0.269506,0.273271,0.68946,0.27248,-0.893502,0.42337,-0.369161,-0.0662278,
-0.0522093,-0.0412395,0.432939,-1.58995,-0.198985,-0.117885,0.519877,-0.180002,0.0493423,-0.187963,-0.0776837,-0.0960268,0.410573,-0.046616,0,0,0,0,0,0,0,-0.0174328,-0.0522663,0.469221,-1.57573,-0.134191,1.44639,1.31584,-0.203925,0.0340908,-0.218406,-0.0171407,0.488038,0.127327,-0.00365392,1.70551,-27.9088,0.988783,25.6061,1.05804,2.95342,-0.0429228,-1.17497,-0.0173818,-1.64781,-0.0980958,0.300312,0.269506,0.273271,0.68946,0.27248,-0.893502,0.42337,-0.369161,-0.0662278,
-0.0529279,-0.041047,0.432189,-1.59026,-0.199214,-0.116129,0.519693,-0.17965,0.0481226,-0.187607,-0.0773913,-0.0571564,0.438984,-0.0459163,0,0,0,0,0,0,0,-0.0174328,-0.0522663,0.469221,-1.57573,-0.134191,1.44639,1.31584,-0.203925,0.0340908,-0.218406,-0.0171407,0.488038,0.127327,-0.00365392,1.70551,-27.9088,0.988783,25.6061,1.05804,2.95342,-0.0429228,-2.08132,2.40201,-1.88158,-1.59479,-0.340035,1.65943,1.66148,0.334703,1.69562,-0.772596,0.734659,-0.135531,-0.0704825,
-0.0536454,-0.0408594,0.431439,-1.59057,-0.199275,-0.114253,0.519512,-0.179375,0.0469098,-0.187327,-0.0771472,-0.0154048,0.469034,-0.0452334,0,0,0,0,0,0,0,-0.0237868,-0.0508738,0.462636,-1.57599,-0.122752,1.44872,1.31574,-0.183809,0.052098,-0.214998,0.000837414,0.0906473,-0.0583922,-0.0135902,-3.16235,-27.2344,-3.66088,21.8967,-1.33606,2.2503,-0.0767973,-2.08132,2.40201,-1.88158,-1.59479,-0.340035,1.65943,1.66148,0.334703,1.69562,-0.772596,0.734659,-0.135531,-0.0704825,
-0.0543622,-0.0406766,0.430691,-1.59088,-0.199157,-0.112249,0.519334,-0.179185,0.0456954,-0.18713,-0.0769524,0.0296229,0.5008,-0.0445734,0,0,0,0,0,0,0,-0.0237868,-0.0508738,0.462636,-1.57599,-0.122752,1.44872,1.31574,-0.183809,0.052098,-0.214998,0.000837414,0.0906473,-0.0583922,-0.0135902,-3.16235,-27.2344,-3.66088,21.8967,-1.33606,2.2503,-0.0767973,-2.19532,2.93722,-3.26562,-2.15801,0.184282,1.94792,1.92679,0.885087,2.02596,-1.30778,0.85542,-0.131342,-0.0686764,
-0.0550785,-0.0404987,0.429943,-1.59118,-0.198843,-0.110112,0.519158,-0.179087,0.0444717,-0.187021,-0.076808,0.0783737,0.534356,-0.0439338,0,0,0,0,0,0,0,-0.0237868,-0.0508738,0.462636,-1.57599,-0.122752,1.44872,1.31574,-0.183809,0.052098,-0.214998,0.000837414,0.0906473,-0.0583922,-0.0135902,-3.16235,-27.2344,-3.66088,21.8967,-1.33606,2.2503,-0.0767973,-0.910908,0.0844567,-2.92867,-0.396318,0.875107,0.304997,0.2831,1.16804,0.345583,-1.27211,0.379226,-0.226762,-0.0808518,
-0.0557949,-0.0403258,0.429195,-1.59149,-0.198318,-0.107833,0.518985,-0.179088,0.0432312,-0.187009,-0.0767157,0.131351,0.569774,-0.0433242,0,0,0,0,0,0,0,-0.0237868,-0.0508738,0.462636,-1.57599,-0.122752,1.44872,1.31574,-0.183809,0.052098,-0.214998,0.000837414,0.0906473,-0.0583922,-0.0135902,-3.16235,-27.2344,-3.66088,21.8967,-1.33606,2.2503,-0.0767973,-0.910908,0.0844567,-2.92867,-0.396318,0.875107,0.304997,0.2831,1.16804,0.345583,-1.27211,0.379226,-0.226762,-0.0808518,
-0.0565116,-0.0401579,0.428446,-1.5918,-0.197562,-0.105404,0.518814,-0.179197,0.0419675,-0.187101,-0.076678,0.189118,0.607116,-0.0427437,0,0,0,0,0,0,0,-0.0237868,-0.0508738,0.462636,-1.57599,-0.122752,1.44872,1.31574,-0.183809,0.052098,-0.214998,0.000837414,0.0906473,-0.0583922,-0.0135902,-3.16235,-27.2344,-3.66088,21.8967,-1.33606,2.2503,-0.0767973,1.18989,-1.80081,-2.40769,0.726515,1.9605,-1.03926,-1.04789,1.56757,-1.03392,-1.1191,-0.105335,-0.159978,-0.0898226,
-0.0572293,-0.0399952,0.427697,-1.5921,-0.196552,-0.102819,0.518645,-0.17942,0.0406748,-0.187304,-0.0766973,0.252291,0.646432,-0.0422024,0,0,0,0,0,0,0,-0.0237868,-0.0508738,0.462636,-1.57599,-0.122752,1.44872,1.31574,-0.183809,0.052098,-0.214998,0.000837414,0.0906473,-0.0583922,-0.0135902,-3.16235,-27.2344,-3.66088,21.8967,-1.33606,2.2503,-0.0767973,1.18989,-1.80081,-2.40769,0.726515,1.9605,-1.03926,-1.04789,1.56757,-1.03392,-1.1191,-0.105335,-0.159978,-0.0898226,
-0.0579484,-0.0398378,0.426947,-1.59241,-0.195266,-0.100068,0.518478,-0.179761,0.0393493,-0.187622,-0.0767761,0.321536,0.687746,-0.0417041,0,0,0,0,0,0,0,-0.029075,-0.0504039,0.456129,-1.57763,-0.124383,1.45195,1.31539,-0.147625,0.00091489,-0.187696,-0.0744479,-0.0244539,0.177781,-0.00923063,-1.61908,-28.2579,-2.36357,25.4315,-0.231022,3.27202,-0.050247,0.650571,-2.307,-2.49166,1.08415,1.44068,-1.13107,-1.14676,1.23356,-1.12872,-0.951108,-0.174812,-0.0248837,-0.0940668,
-0.0586692,-0.0396859,0.426195,-1.59272,-0.193676,-0.0971435,0.518313,-0.18022,0.0379895,-0.188053,-0.0769158,0.397539,0.731042,-0.041257,0,0,0,0,0,0,0,-0.029075,-0.0504039,0.456129,-1.57763,-0.124383,1.45195,1.31539,-0.147625,0.00091489,-0.187696,-0.0744479,-0.0244539,0.177781,-0.00923063,-1.61908,-28.2579,-2.36357,25.4315,-0.231022,3.27202,-0.050247,0.650571,-2.307,-2.49166,1.08415,1.44068,-1.13107,-1.14676,1.23356,-1.12872,-0.951108,-0.174812,-0.0248837,-0.0940668,
-0.0593924,-0.0395395,0.42544,-1.59303,-0.191752,-0.0940386,0.51815,-0.180783,0.0365984,-0.188586,-0.0771135,0.480961,0.776229,-0.0408726,0,0,0,0,0,0,0,-0.029075,-0.0504039,0.456129,-1.57763,-0.124383,1.45195,1.31539,-0.147625,0.00091489,-0.187696,-0.0744479,-0.0244539,0.177781,-0.00923063,-1.61908,-28.2579,-2.36357,25.4315,-0.231022,3.27202,-0.050247,-0.256801,-1.45936,-2.35034,0.669296,0.468411,-0.468928,-0.481434,0.56,-0.464821,-0.544452,-0.0932601,0.287461,-0.103439,
-0.0601175,-0.0393975,0.424684,-1.59333,-0.189464,-0.0907646,0.517988,-0.181289,0.0354915,-0.189052,-0.0764276,0.572075,0.818501,-0.0405728,0,0,0,0,0,0,0,-0.029075,-0.0504039,0.456129,-1.57763,-0.124383,1.45195,1.31539,-0.147625,0.00091489,-0.187696,-0.0744479,-0.0244539,0.177781,-0.00923063,-1.61908,-28.2579,-2.36357,25.4315,-0.231022,3.27202,-0.050247,-0.256801,-1.45936,-2.35034,0.669296,0.468411,-0.468928,-0.481434,0.56,-0.464821,-0.544452,-0.0932601,0.287461,-0.103439,
-0.0608438,-0.0392582,0.423927,-1.59363,-0.18678,-0.0873588,0.517826,-0.181563,0.0348283,-0.189279,-0.0740677,0.670973,0.85144,-0.0403855,0,0,0,0,0,0,0,-0.029075,-0.0504039,0.456129,-1.57763,-0.124383,1.45195,1.31539,-0.147625,0.00091489,-0.187696,-0.0744479,-0.0244539,0.177781,-0.00923063,-1.61908,-28.2579,-2.36357,25.4315,-0.231022,3.27202,-0.050247,0.2886,-1.57253,-1.85281,0.755517,0.528597,-0.626928,-0.640411,0.440446,-0.624364,-0.305696,-0.239761,0.382794,-0.106614,
-0.0615644,-0.0391197,0.423175,-1.59391,-0.183732,-0.0838511,0.517665,-0.180158,0.034622,-0.187991,-0.071021,0.762071,0.876936,-0.0402051,0,0,0,0,0,0,0,-0.0363094,-0.0503423,0.448093,-1.58143,-0.122245,1.46173,1.31527,-0.174203,-0.00500876,-0.210608,-0.0992404,0.169856,0.341715,-0.00210675,0.0828892,-28.1072,-0.661608,26.7526,0.17181,3.96783,-0.0630644,0.870279,-1.62399,-1.8304,0.581126,0.93432,-0.774804,-0.788988,0.645813,-0.761583,-0.41676,-0.448598,0.314931,-0.110056,
-0.0622685,-0.0389799,0.422439,-1.59418,-0.180407,-0.0802657,0.517505,-0.176019,0.0349414,-0.184089,-0.0678231,0.831195,0.896358,-0.0400715,0,0,0,0,0,0,0,-0.0363094,-0.0503423,0.448093,-1.58143,-0.122245,1.46173,1.31527,-0.174203,-0.00500876,-0.210608,-0.0992404,0.169856,0.341715,-0.00210675,0.0828892,-28.1072,-0.661608,26.7526,0.17181,3.96783,-0.0630644,0.870279,-1.62399,-1.8304,0.581126,0.93432,-0.774804,-0.788988,0.645813,-0.761583,-0.41676,-0.448598,0.314931,-0.110056,
-0.062949,-0.0388397,0.421725,-1.59445,-0.176871,-0.0766183,0.517344,-0.170134,0.0350548,-0.178341,-0.0653756,0.884011,0.911836,-0.0402037,0,0,0,0,0,0,0,-0.0363094,-0.0503423,0.448093,-1.58143,-0.122245,1.46173,1.31527,-0.174203,-0.00500876,-0.210608,-0.0992404,0.169856,0.341715,-0.00210675,0.0828892,-28.1072,-0.661608,26.7526,0.17181,3.96783,-0.0630644,1.01858,-0.966517,-2.63699,-0.0202775,1.39521,-0.476805,-0.492888,1.04251,-0.441902,-0.757475,-0.403288,0.322069,-0.114305,
-0.063601,-0.0387007,0.42104,-1.5947,-0.173173,-0.0729207,0.517181,-0.162983,0.034744,-0.171246,-0.0638384,0.924381,0.924418,-0.0407121,0,0,0,0,0,0,0,-0.0363094,-0.0503423,0.448093,-1.58143,-0.122245,1.46173,1.31527,-0.174203,-0.00500876,-0.210608,-0.0992404,0.169856,0.341715,-0.00210675,0.0828892,-28.1072,-0.661608,26.7526,0.17181,3.96783,-0.0630644,1.01858,-0.966517,-2.63699,-0.0202775,1.39521,-0.476805,-0.492888,1.04251,-0.441902,-0.757475,-0.403288,0.322069,-0.114305,
-0.0642201,-0.0385647,0.420388,-1.59495,-0.169354,-0.0691819,0.517014,-0.154797,0.0340045,-0.163044,-0.0631248,0.954946,0.934681,-0.0418713,0,0,0,0,0,0,0,-0.0363094,-0.0503423,0.448093,-1.58143,-0.122245,1.46173,1.31527,-0.174203,-0.00500876,-0.210608,-0.0992404,0.169856,0.341715,-0.00210675,0.0828892,-28.1072,-0.661608,26.7526,0.17181,3.96783,-0.0630644,0.798815,-1.0257,-2.55291,0.252545,1.17763,-0.45805,-0.478031,0.907559,-0.432063,-0.601514,-0.21808,0.423085,-0.115891,
-0.0648024,-0.0384322,0.419773,-1.5952,-0.165444,-0.0654111,0.516837,-0.145563,0.0331251,-0.153719,-0.0627362,0.977347,0.942701,-0.0442792,0,0,0,0,0,0,0,-0.0363094,-0.0503423,0.448093,-1.58143,-0.122245,1.46173,1.31527,-0.174203,-0.00500876,-0.210608,-0.0992404,0.169856,0.341715,-0.00210675,0.0828892,-28.1072,-0.661608,26.7526,0.17181,3.96783,-0.0630644,0.798815,-1.0257,-2.55291,0.252545,1.17763,-0.45805,-0.478031,0.907559,-0.432063,-0.601514,-0.21808,0.423085,-0.115891,
-0.065342,-0.0382992,0.419202,-1.59545,-0.161476,-0.0616218,0.516643,-0.134907,0.0332481,-0.142886,-0.0607526,0.992143,0.947323,-0.0483501,0,0,0,0,0,0,0,-0.0422076,-0.0502931,0.441134,-1.58433,-0.11286,1.4758,1.31521,-0.188203,0.000601977,-0.204596,-0.0954605,0.370445,0.479785,-0.000664158,0.487552,-28.8292,-0.237108,27.6016,1.21002,3.6895,-0.0703886,1.16028,-0.994187,-2.03425,0.46973,1.2562,-0.530716,-0.544058,0.875166,-0.522076,-0.400457,-0.0791551,0.457265,-0.118662,
-0.065815,-0.0381239,0.418699,-1.59558,-0.157567,-0.0581633,0.516486,-0.118246,0.0438363,-0.125637,-0.0340102,0.977086,0.864626,-0.0393873,0,0,0,0,0,0,0,-0.0422076,-0.0502931,0.441134,-1.58433,-0.11286,1.4758,1.31521,-0.188203,0.000601977,-0.204596,-0.0954605,0.370445,0.479785,-0.000664158,0.487552,-28.8292,-0.237108,27.6016,1.21002,3.6895,-0.0703886,1.71723,-0.716335,-1.8271,0.410506,1.67548,-0.529919,-0.538612,1.11032,-0.526528,-0.419232,0.0549083,0.416277,-0.119135,
-0.0662416,-0.0379501,0.418244,-1.5957,-0.153666,-0.0549057,0.516329,-0.106639,0.0434476,-0.113819,-0.0281631,0.975444,0.814397,-0.0392382,0,0,0,0,0,0,0,-0.0422076,-0.0502931,0.441134,-1.58433,-0.11286,1.4758,1.31521,-0.188203,0.000601977,-0.204596,-0.0954605,0.370445,0.479785,-0.000664158,0.487552,-28.8292,-0.237108,27.6016,1.21002,3.6895,-0.0703886,1.71723,-0.716335,-1.8271,0.410506,1.67548,-0.529919,-0.538612,1.11032,-0.526528,-0.419232,0.0549083,0.416277,-0.119135,
-0.066632,-0.037789,0.417825,-1.59581,-0.149748,-0.051792,0.516171,-0.0976184,0.0402629,-0.104637,-0.0282303,0.979318,0.778435,-0.0394597,0,0,0,0,0,0,0,-0.0422076,-0.0502931,0.441134,-1.58433,-0.11286,1.4758,1.31521,-0.188203,0.000601977,-0.204596,-0.0954605,0.370445,0.479785,-0.000664158,0.487552,-28.8292,-0.237108,27.6016,1.21002,3.6895,-0.0703886,1.35297,-0.878338,-1.89001,0.660116,1.54006,-0.547195,-0.556539,1.10562,-0.552431,-0.455747,0.224516,0.364444,-0.119116,
-0.0548007,-0.0355332,0.430149,-1.59637,-0.299671,-0.241073,0.512133,-0.196797,0.0924811,-0.206019,-0.123635,-1.17805,-0.27086,-0.0816466,0,0,0,0,0,0,0,-0.0422076,-0.0502931,0.441134,-1.58433,-0.11286,1.4758,1.31521,-0.188203,0.000601977,-0.204596,-0.0954605,0.370445,0.479785,-0.000664158,0.487552,-28.8292,-0.237108,27.6016,1.21002,3.6895,-0.0703886,1.35297,-0.878338,-1.89001,0.660116,1.54006,-0.547195,-0.556539,1.10562,-0.552431,-0.455747,0.224516,0.364444,-0.119116,
-0.0592814,-0.0440461,0.423028,-1.59639,-0.169196,-0.0723991,0.519251,-0.0452589,0.0252929,-0.0503803,-0.0669413,-0.479819,0.061638,-0.0521716,0,0,0,0,0,0,0,-0.0482421,-0.0499259,0.434825,-1.58671,-0.0991728,1.49322,1.31513,-0.195903,0.0221324,-0.203131,-0.0601972,0.431145,0.587741,-0.00175601,1.4278,-29.8052,0.711073,27.677,1.8399,3.65014,-0.117081,-0.341798,-0.189205,-1.81323,0.431924,0.391436,0.135072,0.124569,0.522681,0.129252,-0.326723,0.53315,0.340189,-0.123441,
-0.059456,-0.0439474,0.422833,-1.59665,-0.171239,-0.072124,0.519045,-0.0436472,0.0246776,-0.0487589,-0.0669074,-0.510864,0.0687597,-0.0516773,0,0,0,0,0,0,0,-0.0482421,-0.0499259,0.434825,-1.58671,-0.0991728,1.49322,1.31513,-0.195903,0.0221324,-0.203131,-0.0601972,0.431145,0.587741,-0.00175601,1.4278,-29.8052,0.711073,27.677,1.8399,3.65014,-0.117081,-0.674677,0.916932,-1.48371,-0.0652222,0.0761857,0.740605,0.73071,0.31236,0.738882,-0.165321,0.809704,0.383797,-0.122868,
-0.0596242,-0.0438511,0.422644,-1.59692,-0.173415,-0.0718175,0.51884,-0.0420667,0.0240683,-0.0471688,-0.0668865,-0.543981,0.0766241,-0.0511903,0,0,0,0,0,0,0,-0.0482421,-0.0499259,0.434825,-1.58671,-0.0991728,1.49322,1.31513,-0.195903,0.0221324,-0.203131,-0.0601972,0.431145,0.587741,-0.00175601,1.4278,-29.8052,0.711073,27.677,1.8399,3.65014,-0.117081,-0.674677,0.916932,-1.48371,-0.0652222,0.0761857,0.740605,0.73071,0.31236,0.738882,-0.165321,0.809704,0.383797,-0.122868,
-0.0597863,-0.0437573,0.422462,-1.59719,-0.175732,-0.0714764,0.518637,-0.0405154,0.0234597,-0.0456074,-0.0668872,-0.579145,0.0852853,-0.0507109,0,0,0,0,0,0,0,-0.0482421,-0.0499259,0.434825,-1.58671,-0.0991728,1.49322,1.31513,-0.195903,0.0221324,-0.203131,-0.0601972,0.431145,0.587741,-0.00175601,1.4278,-29.8052,0.711073,27.677,1.8399,3.65014,-0.117081,1.49315,2.17398,-2.08206,-0.873131,1.92611,0.92599,0.923276,1.41939,0.939094,-0.523824,1.02057,0.484837,-0.120451,
-0.0599423,-0.0436659,0.422286,-1.59746,-0.178197,-0.0710971,0.518436,-0.0389949,0.0228459,-0.0440762,-0.0669195,-0.616283,0.0948233,-0.0502397,0,0,0,0,0,0,0,-0.0482421,-0.0499259,0.434825,-1.58671,-0.0991728,1.49322,1.31513,-0.195903,0.0221324,-0.203131,-0.0601972,0.431145,0.587741,-0.00175601,1.4278,-29.8052,0.711073,27.677,1.8399,3.65014,-0.117081,1.49315,2.17398,-2.08206,-0.873131,1.92611,0.92599,0.923276,1.41939,0.939094,-0.523824,1.02057,0.484837,-0.120451,
-0.0600923,-0.043577,0.422115,-1.59772,-0.180818,-0.0706757,0.518237,-0.0375132,0.0222198,-0.0425822,-0.0669951,-0.655249,0.105352,-0.049777,0,0,0,0,0,0,0,-0.0530431,-0.0491341,0.429485,-1.58735,-0.0992589,1.50369,1.31492,-0.123077,0.021955,-0.140906,-0.00372111,-0.353589,0.213203,-0.00538611,3.07422,-31.0033,2.41304,25.3601,-1.24451,1.79986,-0.210464,2.10647,1.6873,-2.15142,-0.658733,2.41488,0.557736,0.554221,1.7062,0.569823,-0.648309,0.891416,0.423472,-0.113737,
-0.0602367,-0.0434907,0.421951,-1.59799,-0.183601,-0.0702076,0.51804,-0.0360859,0.0215726,-0.0411403,-0.0671286,-0.695782,0.117028,-0.0493239,0,0,0,0,0,0,0,-0.0530431,-0.0491341,0.429485,-1.58735,-0.0992589,1.50369,1.31492,-0.123077,0.021955,-0.140906,-0.00372111,-0.353589,0.213203,-0.00538611,3.07422,-31.0033,2.41304,25.3601,-1.24451,1.79986,-0.210464,0.187678,1.29924,-2.5328,-0.994943,1.33262,0.741616,0.737991,1.23832,0.774089,-0.993987,0.437816,0.046833,-0.117854,
-0.0603756,-0.0434072,0.421792,-1.59826,-0.186551,-0.0696873,0.517844,-0.034741,0.0208934,-0.0397768,-0.0673378,-0.737454,0.130063,-0.0488767,0,0,0,0,0,0,0,-0.0530431,-0.0491341,0.429485,-1.58735,-0.0992589,1.50369,1.31492,-0.123077,0.021955,-0.140906,-0.00372111,-0.353589,0.213203,-0.00538611,3.07422,-31.0033,2.41304,25.3601,-1.24451,1.79986,-0.210464,0.187678,1.29924,-2.5328,-0.994943,1.33262,0.741616,0.737991,1.23832,0.774089,-0.993987,0.437816,0.046833,-0.117854,
-0.0605097,-0.0433265,0.421638,-1.59853,-0.189669,-0.0691083,0.51765,-0.0335234,0.0201672,-0.0385352,-0.0676445,-0.779588,0.144742,-0.0484366,0,0,0,0,0,0,0,-0.0530431,-0.0491341,0.429485,-1.58735,-0.0992589,1.50369,1.31492,-0.123077,0.021955,-0.140906,-0.00372111,-0.353589,0.213203,-0.00538611,3.07422,-31.0033,2.41304,25.3601,-1.24451,1.79986,-0.210464,-1.69985,0.78731,-2.39948,-1.0489,-0.0356146,0.852418,0.839362,0.486604,0.902066,-1.015,0.0424769,-0.203213,-0.119309,
-0.0606398,-0.043249,0.421488,-1.59881,-0.192954,-0.0684626,0.517458,-0.0325035,0.0193739,-0.0374834,-0.0680747,-0.82114,0.161437,-0.0479972,0,0,0,0,0,0,0,-0.0530431,-0.0491341,0.429485,-1.58735,-0.0992589,1.50369,1.31492,-0.123077,0.021955,-0.140906,-0.00372111,-0.353589,0.213203,-0.00538611,3.07422,-31.0033,2.41304,25.3601,-1.24451,1.79986,-0.210464,-1.69985,0.78731,-2.39948,-1.0489,-0.0356146,0.852418,0.839362,0.486604,0.902066,-1.015,0.0424769,-0.203213,-0.119309,
-0.0607669,-0.043175,0.421341,-1.59908,-0.196396,-0.0677401,0.517268,-0.0317889,0.0184862,-0.0367254,-0.0686575,-0.860532,0.180625,-0.0475522,0,0,0,0,0,0,0,-0.0530431,-0.0491341,0.429485,-1.58735,-0.0992589,1.50369,1.31492,-0.123077,0.021955,-0.140906,-0.00372111,-0.353589,0.213203,-0.00538611,3.07422,-31.0033,2.41304,25.3601,-1.24451,1.79986,-0.210464,-1.54656,0.884039,-1.63494,-1.13781,-0.27587,0.860006,0.850725,0.191708,0.907448,-0.758996,-0.111089,-0.220872,-0.117384,
-0.0608931,-0.0431052,0.421195,-1.59936,-0.199977,-0.0669285,0.51708,-0.0315396,0.0174672,-0.0364162,-0.0694202,-0.89541,0.202889,-0.0470858,0,0,0,0,0,0,0,-0.0564156,-0.0481113,0.425404,-1.5876,-0.114296,1.5105,1.31482,-0.0960931,0.0235612,-0.0990874,-0.0196806,-0.561543,0.195834,-0.00250329,1.55078,-30.4518,0.786451,26.3043,-1.42762,2.27685,-0.123489,-1.54656,0.884039,-1.63494,-1.13781,-0.27587,0.860006,0.850725,0.191708,0.907448,-0.758996,-0.111089,-0.220872,-0.117384,
-0.061021,-0.0430401,0.421048,-1.59964,-0.203667,-0.066013,0.516894,-0.0319889,0.016269,-0.0367824,-0.0703768,-0.922331,0.228881,-0.0465763,0,0,0,0,0,0,0,-0.0564156,-0.0481113,0.425404,-1.5876,-0.114296,1.5105,1.31482,-0.0960931,0.0235612,-0.0990874,-0.0196806,-0.561543,0.195834,-0.00250329,1.55078,-30.4518,0.786451,26.3043,-1.42762,2.27685,-0.123489,0.802858,-0.520128,-1.20383,-0.465734,1.19799,-0.311091,-0.310699,0.892638,-0.279778,-0.84018,-0.570231,-0.312975,-0.120765,
-0.0611549,-0.0429808,0.420895,-1.59993,-0.207412,-0.0649761,0.51671,-0.0334677,0.0148313,-0.0381463,-0.0715049,-0.936362,0.259216,-0.0459872,0,0,0,0,0,0,0,-0.0564156,-0.0481113,0.425404,-1.5876,-0.114296,1.5105,1.31482,-0.0960931,0.0235612,-0.0990874,-0.0196806,-0.561543,0.195834,-0.00250329,1.55078,-30.4518,0.786451,26.3043,-1.42762,2.27685,-0.123489,0.62939,-2.04243,-0.779499,0.209225,0.898758,-1.05657,-1.05484,0.660609,-1.03484,-0.820774,-1.06747,-0.524235,-0.122903,
-0.0613006,-0.0429284,0.420732,-1.60022,-0.211135,-0.0637991,0.516529,-0.0364273,0.013084,-0.0409488,-0.0727079,-0.930644,0.294258,-0.045261,0,0,0,0,0,0,0,-0.0564156,-0.0481113,0.425404,-1.5876,-0.114296,1.5105,1.31482,-0.0960931,0.0235612,-0.0990874,-0.0196806,-0.561543,0.195834,-0.00250329,1.55078,-30.4518,0.786451,26.3043,-1.42762,2.27685,-0.123489,0.62939,-2.04243,-0.779499,0.209225,0.898758,-1.05657,-1.05484,0.660609,-1.03484,-0.820774,-1.06747,-0.524235,-0.122903,
-0.0614664,-0.0428846,0.420548,-1.60051,-0.214719,-0.0624639,0.516351,-0.0414514,0.0109524,-0.0457636,-0.0737662,-0.896044,0.333797,-0.0443194,0,0,0,0,0,0,0,-0.0564156,-0.0481113,0.425404,-1.5876,-0.114296,1.5105,1.31482,-0.0960931,0.0235612,-0.0990874,-0.0196806,-0.561543,0.195834,-0.00250329,1.55078,-30.4518,0.786451,26.3043,-1.42762,2.27685,-0.123489,-0.140825,-2.95393,-0.620235,0.598068,0.294607,-1.3839,-1.38398,0.318114,-1.36553,-0.814151,-1.35281,-0.67786,-0.119894,
-0.0616634,-0.0428512,0.420335,-1.60081,-0.218003,-0.0609569,0.516179,-0.049241,0.00836674,-0.0532857,-0.0743013,-0.821123,0.376753,-0.0430621,0,0,0,0,0,0,0,-0.0585197,-0.0472565,0.423045,-1.58813,-0.132413,1.51712,1.31475,-0.0489636,0.0313184,-0.0653418,-0.0120173,-0.605598,0.244183,-0.0028193,0.717655,-30.7533,0.139784,25.6061,-1.5622,2.21734,-0.137222,-0.140825,-2.95393,-0.620235,0.598068,0.294607,-1.3839,-1.38398,0.318114,-1.36553,-0.814151,-1.35281,-0.67786,-0.119894,
-0.0619056,-0.04283,0.420078,-1.6011,-0.220774,-0.0592725,0.516013,-0.0605572,0.0052819,-0.06428,-0.0737734,-0.692656,0.421104,-0.041407,0,0,0,0,0,0,0,-0.0585197,-0.0472565,0.423045,-1.58813,-0.132413,1.51712,1.31475,-0.0489636,0.0313184,-0.0653418,-0.0120173,-0.605598,0.244183,-0.0028193,0.717655,-30.7533,0.139784,25.6061,-1.5622,2.21734,-0.137222,-0.326432,-3.51853,-1.49055,0.705796,0.610002,-1.64313,-1.64484,0.689902,-1.61907,-1.25757,-1.47873,-0.825457,-0.122439,
-0.0622101,-0.042823,0.41976,-1.60139,-0.222761,-0.0574168,0.515855,-0.0761232,0.00175201,-0.0794862,-0.0714254,-0.496691,0.463914,-0.0395436,0,0,0,0,0,0,0,-0.0585197,-0.0472565,0.423045,-1.58813,-0.132413,1.51712,1.31475,-0.0489636,0.0313184,-0.0653418,-0.0120173,-0.605598,0.244183,-0.0028193,0.717655,-30.7533,0.139784,25.6061,-1.5622,2.21734,-0.137222,-0.326432,-3.51853,-1.49055,0.705796,0.610002,-1.64313,-1.64484,0.689902,-1.61907,-1.25757,-1.47873,-0.825457,-0.122439,
-0.0625962,-0.0428302,0.419362,-1.60165,-0.223638,-0.0554165,0.515694,-0.0965285,-0.00179261,-0.0994772,-0.0657579,-0.219389,0.50008,-0.040369,0,0,0,0,0,0,0,-0.0585197,-0.0472565,0.423045,-1.58813,-0.132413,1.51712,1.31475,-0.0489636,0.0313184,-0.0653418,-0.0120173,-0.605598,0.244183,-0.0028193,0.717655,-30.7533,0.139784,25.6061,-1.5622,2.21734,-0.137222,-0.287157,-3.69777,-1.90755,0.646681,0.80745,-1.74445,-1.74797,0.866868,-1.7132,-1.45221,-1.59706,-0.863915,-0.12581,
-0.0630225,-0.0428337,0.418919,-1.60188,-0.223687,-0.0533205,0.515536,-0.106569,-0.000881611,-0.110729,-0.0576933,-0.0120897,0.524008,-0.0394502,0,0,0,0,0,0,0,-0.0585197,-0.0472565,0.423045,-1.58813,-0.132413,1.51712,1.31475,-0.0489636,0.0313184,-0.0653418,-0.0120173,-0.605598,0.244183,-0.0028193,0.717655,-30.7533,0.139784,25.6061,-1.5622,2.21734,-0.137222,-0.287157,-3.69777,-1.90755,0.646681,0.80745,-1.74445,-1.74797,0.866868,-1.7132,-1.45221,-1.59706,-0.863915,-0.12581,
-0.0634655,-0.0428287,0.418456,-1.60209,-0.223106,-0.0511523,0.515381,-0.110762,0.00126663,-0.115767,-0.0510734,0.145181,0.542044,-0.0387907,0,0,0,0,0,0,0,-0.0585197,-0.0472565,0.423045,-1.58813,-0.132413,1.51712,1.31475,-0.0489636,0.0313184,-0.0653418,-0.0120173,-0.605598,0.244183,-0.0028193,0.717655,-30.7533,0.139784,25.6061,-1.5622,2.21734,-0.137222,0.511212,-3.11345,-1.5116,0.279301,1.14688,-1.6088,-1.61175,0.929731,-1.56944,-1.30163,-1.62766,-0.775882,-0.126999,
-0.0639104,-0.0428142,0.417989,-1.60227,-0.222042,-0.0489266,0.515227,-0.111224,0.00360967,-0.116782,-0.0464006,0.265965,0.556436,-0.0383826,0,0,0,0,0,0,0,-0.0598299,-0.0467092,0.421447,-1.58878,-0.153655,1.52649,1.31467,-0.0433924,0.00208159,-0.0492849,-0.034748,-0.573654,0.316243,-0.00394885,0.00751081,-30.0035,-0.685411,26.3559,-0.499271,2.74102,-0.150955,0.520244,-2.9587,-1.68896,0.242728,1.23879,-1.52529,-1.52777,1.01925,-1.48647,-1.34448,-1.52342,-0.743525,-0.137369,
-0.0643477,-0.042791,0.417528,-1.60245,-0.220603,-0.0466539,0.515075,-0.109322,0.00580133,-0.11523,-0.0433491,0.359805,0.568161,-0.0381421,0,0,0,0,0,0,0,-0.0598299,-0.0467092,0.421447,-1.58878,-0.153655,1.52649,1.31467,-0.0433924,0.00208159,-0.0492849,-0.034748,-0.573654,0.316243,-0.00394885,0.00751081,-30.0035,-0.685411,26.3559,-0.499271,2.74102,-0.150955,0.520244,-2.9587,-1.68896,0.242728,1.23879,-1.52529,-1.52777,1.01925,-1.48647,-1.34448,-1.52342,-0.743525,-0.137369,
-0.0647716,-0.0427601,0.41708,-1.60261,-0.218869,-0.0443428,0.514923,-0.105974,0.00773015,-0.112093,-0.0414826,0.43355,0.57777,-0.0380119,0,0,0,0,0,0,0,-0.0598299,-0.0467092,0.421447,-1.58878,-0.153655,1.52649,1.31467,-0.0433924,0.00208159,-0.0492849,-0.034748,-0.573654,0.316243,-0.00394885,0.00751081,-30.0035,-0.685411,26.3559,-0.499271,2.74102,-0.150955,-0.170249,-3.69667,-1.19392,0.993902,0.508594,-1.75981,-1.75993,0.550604,-1.74738,-1.0246,-1.41623,-0.699346,-0.144565,
-0.0697054,-0.0331636,0.411938,-1.60174,-0.28338,-0.216559,0.511483,-0.145214,0.111141,-0.154719,-0.112937,-1.17642,-0.598622,-0.0870519,0,0,0,0,0,0,0,-0.0598299,-0.0467092,0.421447,-1.58878,-0.153655,1.52649,1.31467,-0.0433924,0.00208159,-0.0492849,-0.034748,-0.573654,0.316243,-0.00394885,0.00751081,-30.0035,-0.685411,26.3559,-0.499271,2.74102,-0.150955,-0.170249,-3.69667,-1.19392,0.993902,0.508594,-1.75981,-1.75993,0.550604,-1.74738,-1.0246,-1.41623,-0.699346,-0.144565,
-0.0790071,-0.0371924,0.401046,-1.6,-0.220017,-0.0725855,0.518494,-0.123436,0.069918,-0.131334,-0.066374,0.367305,-0.182174,-0.0509762,0,0,0,0,0,0,0,-0.0598299,-0.0467092,0.421447,-1.58878,-0.153655,1.52649,1.31467,-0.0433924,0.00208159,-0.0492849,-0.034748,-0.573654,0.316243,-0.00394885,0.00751081,-30.0035,-0.685411,26.3559,-0.499271,2.74102,-0.150955,0.124301,-4.00164,-0.48572,1.68684,0.300522,-1.94307,-1.93415,0.281451,-1.96664,-0.527252,-1.13622,-0.459484,-0.147645,
-0.0794958,-0.0369166,0.400526,-1.60026,-0.218475,-0.0733532,0.518292,-0.122183,0.0689484,-0.130059,-0.0659221,0.385259,-0.191934,-0.0505156,0,0,0,0,0,0,0,-0.0623164,-0.0466852,0.418746,-1.59054,-0.162601,1.54092,1.31457,-0.0671046,0.00349355,-0.082147,-0.039353,-0.0608963,0.198818,-0.00239939,-0.603451,-28.9562,-1.36382,25.7092,0.0564539,2.37664,-0.230606,0.246235,-3.24068,-0.16212,1.68778,0.0683787,-1.52999,-1.51456,0.0247131,-1.57182,-0.0756571,-0.718411,-0.0903457,-0.14868,
-0.0799802,-0.0366451,0.40001,-1.60052,-0.216857,-0.0741616,0.518092,-0.121086,0.0678981,-0.128942,-0.0654338,0.404741,-0.202086,-0.0500617,0,0,0,0,0,0,0,-0.0623164,-0.0466852,0.418746,-1.59054,-0.162601,1.54092,1.31457,-0.0671046,0.00349355,-0.082147,-0.039353,-0.0608963,0.198818,-0.00239939,-0.603451,-28.9562,-1.36382,25.7092,0.0564539,2.37664,-0.230606,0.246235,-3.24068,-0.16212,1.68778,0.0683787,-1.52999,-1.51456,0.0247131,-1.57182,-0.0756571,-0.718411,-0.0903457,-0.14868,
-0.0804607,-0.036378,0.399498,-1.60078,-0.215152,-0.0750119,0.517893,-0.120139,0.0667639,-0.127976,-0.0649135,0.426054,-0.212592,-0.0496125,0,0,0,0,0,0,0,-0.0623164,-0.0466852,0.418746,-1.59054,-0.162601,1.54092,1.31457,-0.0671046,0.00349355,-0.082147,-0.039353,-0.0608963,0.198818,-0.00239939,-0.603451,-28.9562,-1.36382,25.7092,0.0564539,2.37664,-0.230606,0.291031,-0.432553,-0.218878,0.242583,-0.00312535,-0.0689482,-0.0542368,-0.093329,-0.0879188,0.181672,-0.145706,0.30228,-0.145642,
-0.0809381,-0.0361158,0.39899,-1.60104,-0.213354,-0.0759055,0.517697,-0.119336,0.0655407,-0.127156,-0.0643669,0.44952,-0.223394,-0.0491752,0,0,0,0,0,0,0,-0.0623164,-0.0466852,0.418746,-1.59054,-0.162601,1.54092,1.31457,-0.0671046,0.00349355,-0.082147,-0.039353,-0.0608963,0.198818,-0.00239939,-0.603451,-28.9562,-1.36382,25.7092,0.0564539,2.37664,-0.230606,0.091207,0.549131,-0.924114,-0.328597,0.365072,0.459072,0.465125,0.324869,0.460621,-0.204667,0.189639,0.2066,-0.152585,
-0.0814128,-0.035859,0.398484,-1.6013,-0.211452,-0.0768431,0.517502,-0.118675,0.0642217,-0.126478,-0.0638028,0.475486,-0.234398,-0.0487474,0,0,0,0,0,0,0,-0.0623164,-0.0466852,0.418746,-1.59054,-0.162601,1.54092,1.31457,-0.0671046,0.00349355,-0.082147,-0.039353,-0.0608963,0.198818,-0.00239939,-0.603451,-28.9562,-1.36382,25.7092,0.0564539,2.37664,-0.230606,0.091207,0.549131,-0.924114,-0.328597,0.365072,0.459072,0.465125,0.324869,0.460621,-0.204667,0.189639,0.2066,-0.152585,
-0.0818854,-0.0356078,0.39798,-1.60155,-0.209435,-0.0778249,0.517308,-0.118152,0.0627981,-0.125939,-0.0632338,0.504323,-0.245464,-0.0483348,0,0,0,0,0,0,0,-0.0623164,-0.0466852,0.418746,-1.59054,-0.162601,1.54092,1.31457,-0.0671046,0.00349355,-0.082147,-0.039353,-0.0608963,0.198818,-0.00239939,-0.603451,-28.9562,-1.36382,25.7092,0.0564539,2.37664,-0.230606,0.370419,1.81013,-1.28806,-1.13599,1.10673,0.992193,1.00499,0.947013,1.00698,-0.691372,0.498107,-0.0740675,-0.155078,
-0.0823565,-0.0353627,0.397478,-1.6018,-0.207289,-0.0788504,0.517116,-0.117769,0.0612597,-0.125541,-0.0626785,0.536427,-0.256376,-0.0479421,0,0,0,0,0,0,0,-0.0645744,-0.0465812,0.415566,-1.59077,-0.167028,1.54065,1.31438,-0.0911556,-0.00575137,-0.117349,0.00503246,-0.0169591,-0.0296138,0.000144364,-0.119442,-28.2301,-1.01073,25.6061,1.99188,3.10631,-0.210464,0.370419,1.81013,-1.28806,-1.13599,1.10673,0.992193,1.00499,0.947013,1.00698,-0.691372,0.498107,-0.0740675,-0.155078,
-0.0828266,-0.0351243,0.396977,-1.60205,-0.205,-0.0799177,0.516926,-0.117525,0.0595944,-0.125282,-0.0621656,0.572211,-0.266812,-0.0475729,0,0,0,0,0,0,0,-0.0645744,-0.0465812,0.415566,-1.59077,-0.167028,1.54065,1.31438,-0.0911556,-0.00575137,-0.117349,0.00503246,-0.0169591,-0.0296138,0.000144364,-0.119442,-28.2301,-1.01073,25.6061,1.99188,3.10631,-0.210464,1.60874,2.67108,-2.46798,-1.62137,2.72116,1.19852,1.21594,2.13298,1.22192,-1.33964,0.888661,-0.134997,-0.159187,
-0.0832963,-0.0348932,0.396476,-1.60229,-0.202552,-0.0810228,0.516737,-0.11742,0.0577888,-0.125163,-0.0617368,0.612084,-0.276289,-0.0472357,0,0,0,0,0,0,0,-0.0645744,-0.0465812,0.415566,-1.59077,-0.167028,1.54065,1.31438,-0.0911556,-0.00575137,-0.117349,0.00503246,-0.0169591,-0.0296138,0.000144364,-0.119442,-28.2301,-1.01073,25.6061,1.99188,3.10631,-0.210464,1.60874,2.67108,-2.46798,-1.62137,2.72116,1.19852,1.21594,2.13298,1.22192,-1.33964,0.888661,-0.134997,-0.159187,
-0.0837661,-0.0346699,0.395975,-1.60254,-0.199926,-0.0821593,0.516549,-0.11745,0.0558292,-0.125179,-0.0614534,0.656409,-0.284103,-0.0469432,0,0,0,0,0,0,0,-0.0645744,-0.0465812,0.415566,-1.59077,-0.167028,1.54065,1.31438,-0.0911556,-0.00575137,-0.117349,0.00503246,-0.0169591,-0.0296138,0.000144364,-0.119442,-28.2301,-1.01073,25.6061,1.99188,3.10631,-0.210464,-0.0932729,3.6329,-2.70381,-2.00785,1.73628,2.00434,2.02121,1.71022,2.02905,-1.34857,1.29393,-0.161441,-0.163121,
-0.0842365,-0.0344551,0.395474,-1.60279,-0.197105,-0.0833162,0.516363,-0.117599,0.0537031,-0.125316,-0.0614027,0.705413,-0.289235,-0.046709,0,0,0,0,0,0,0,-0.0645744,-0.0465812,0.415566,-1.59077,-0.167028,1.54065,1.31438,-0.0911556,-0.00575137,-0.117349,0.00503246,-0.0169591,-0.0296138,0.000144364,-0.119442,-28.2301,-1.01073,25.6061,1.99188,3.10631,-0.210464,-0.0932729,3.6329,-2.70381,-2.00785,1.73628,2.00434,2.02121,1.71022,2.02905,-1.34857,1.29393,-0.161441,-0.163121,
-0.0847078,-0.0342494,0.394972,-1.60303,-0.194069,-0.0844772,0.516176,-0.117826,0.051403,-0.125534,-0.0617058,0.759023,-0.290245,-0.0465567,0,0,0,0,0,0,0,-0.0680856,-0.0467828,0.411061,-1.59067,-0.166491,1.53865,1.31434,-0.119895,0.00579418,-0.147015,-0.00370903,0.069343,-0.0393653,-6.67682e-05,0.25745,-28.4047,-0.463243,25.0586,1.13128,1.7669,-0.143631,-0.950333,3.21708,-2.23284,-1.63035,1.11192,1.90455,1.92406,1.38718,1.91497,-1.2884,1.35327,-0.375018,-0.157984,
-0.0851799,-0.0340537,0.394469,-1.60328,-0.190803,-0.0856178,0.51599,-0.118045,0.0489346,-0.125749,-0.0625229,0.816555,-0.28515,-0.0465229,0,0,0,0,0,0,0,-0.0680856,-0.0467828,0.411061,-1.59067,-0.166491,1.53865,1.31434,-0.119895,0.00579418,-0.147015,-0.00370903,0.069343,-0.0393653,-6.67682e-05,0.25745,-28.4047,-0.463243,25.0586,1.13128,1.7669,-0.143631,-2.26972,2.59863,-1.39228,-1.13072,-0.0577683,1.78478,1.80229,0.67789,1.78179,-1.02804,1.31558,-0.576076,-0.15421,
-0.0856522,-0.0338684,0.393966,-1.60354,-0.187298,-0.0867031,0.515804,-0.118075,0.04633,-0.125784,-0.0640512,0.876197,-0.271332,-0.0466586,0,0,0,0,0,0,0,-0.0680856,-0.0467828,0.411061,-1.59067,-0.166491,1.53865,1.31434,-0.119895,0.00579418,-0.147015,-0.00370903,0.069343,-0.0393653,-6.67682e-05,0.25745,-28.4047,-0.463243,25.0586,1.13128,1.7669,-0.143631,-2.26972,2.59863,-1.39228,-1.13072,-0.0577683,1.78478,1.80229,0.67789,1.78179,-1.02804,1.31558,-0.576076,-0.15421,
-0.0861206,-0.0336929,0.393466,-1.6038,-0.183582,-0.0876863,0.515616,-0.117092,0.0438674,-0.124863,-0.066366,0.929046,-0.245801,-0.0470096,0,0,0,0,0,0,0,-0.0680856,-0.0467828,0.411061,-1.59067,-0.166491,1.53865,1.31434,-0.119895,0.00579418,-0.147015,-0.00370903,0.069343,-0.0393653,-6.67682e-05,0.25745,-28.4047,-0.463243,25.0586,1.13128,1.7669,-0.143631,-1.36623,2.68863,-1.30121,-1.19899,0.604483,1.65434,1.6697,1.03513,1.65646,-1.11178,1.30593,-0.617772,-0.155313,
-0.0865794,-0.0335266,0.392976,-1.60408,-0.179705,-0.0885047,0.515425,-0.114696,0.0415676,-0.122542,-0.0698098,0.969192,-0.204608,-0.0477492,0,0,0,0,0,0,0,-0.0680856,-0.0467828,0.411061,-1.59067,-0.166491,1.53865,1.31434,-0.119895,0.00579418,-0.147015,-0.00370903,0.069343,-0.0393653,-6.67682e-05,0.25745,-28.4047,-0.463243,25.0586,1.13128,1.7669,-0.143631,-1.36623,2.68863,-1.30121,-1.19899,0.604483,1.65434,1.6697,1.03513,1.65646,-1.11178,1.30593,-0.617772,-0.155313,
-0.0870248,-0.03337,0.392499,-1.60438,-0.175706,-0.089078,0.515228,-0.111347,0.0391584,-0.119185,-0.0748325,0.999804,-0.143312,-0.0491274,0,0,0,0,0,0,0,-0.0680856,-0.0467828,0.411061,-1.59067,-0.166491,1.53865,1.31434,-0.119895,0.00579418,-0.147015,-0.00370903,0.069343,-0.0393653,-6.67682e-05,0.25745,-28.4047,-0.463243,25.0586,1.13128,1.7669,-0.143631,-0.313961,2.66481,-1.60803,-1.27651,1.52538,1.45164,1.46715,1.59736,1.45984,-1.34914,1.2592,-0.651245,-0.157087,
-0.0874475,-0.0332207,0.392045,-1.60471,-0.171678,-0.0893165,0.515025,-0.105682,0.0373407,-0.11355,-0.0808071,1.00699,-0.0596192,-0.0507486,0,0,0,0,0,0,0,-0.0724319,-0.046783,0.406115,-1.5907,-0.160175,1.5365,1.3143,-0.153495,-0.00269988,-0.162327,0.00480578,0.303691,-0.0817047,0.00114654,1.04694,-28.2817,0.314344,24.8364,1.44897,1.95916,-0.183914,-0.983802,2.73336,-1.52357,-1.30395,1.05676,1.60053,1.61283,1.35103,1.6116,-1.32061,1.28565,-0.711761,-0.160251,
-0.0878299,-0.0330718,0.391631,-1.60505,-0.167807,-0.0891318,0.514846,-0.0955891,0.037219,-0.103586,-0.0864147,0.967658,0.0461622,-0.0447544,0,0,0,0,0,0,0,-0.0724319,-0.046783,0.406115,-1.5907,-0.160175,1.5365,1.3143,-0.153495,-0.00269988,-0.162327,0.00480578,0.303691,-0.0817047,0.00114654,1.04694,-28.2817,0.314344,24.8364,1.44897,1.95916,-0.183914,-0.983802,2.73336,-1.52357,-1.30395,1.05676,1.60053,1.61283,1.35103,1.6116,-1.32061,1.28565,-0.711761,-0.160251,
-0.0881795,-0.0329171,0.39125,-1.60539,-0.164051,-0.0886161,0.514668,-0.0874021,0.0386762,-0.0951304,-0.0854194,0.939015,0.128928,-0.0446474,0,0,0,0,0,0,0,-0.0724319,-0.046783,0.406115,-1.5907,-0.160175,1.5365,1.3143,-0.153495,-0.00269988,-0.162327,0.00480578,0.303691,-0.0817047,0.00114654,1.04694,-28.2817,0.314344,24.8364,1.44897,1.95916,-0.183914,-1.3817,2.39788,-0.894384,-0.925289,0.457817,1.50046,1.51359,0.905491,1.49668,-0.996488,1.30055,-0.676456,-0.160186,
-0.0885026,-0.0327577,0.390897,-1.60572,-0.160376,-0.0878313,0.514488,-0.0807849,0.0398489,-0.088321,-0.0824001,0.918814,0.196195,-0.0449312,0,0,0,0,0,0,0,-0.0724319,-0.046783,0.406115,-1.5907,-0.160175,1.5365,1.3143,-0.153495,-0.00269988,-0.162327,0.00480578,0.303691,-0.0817047,0.00114654,1.04694,-28.2817,0.314344,24.8364,1.44897,1.95916,-0.183914,-1.3817,2.39788,-0.894384,-0.925289,0.457817,1.50046,1.51359,0.905491,1.49668,-0.996488,1.30055,-0.676456,-0.160186,
-0.0888044,-0.0325962,0.390566,-1.60604,-0.156756,-0.0868244,0.514307,-0.0754438,0.0403656,-0.0828489,-0.0788617,0.904841,0.251726,-0.0451867,0,0,0,0,0,0,0,-0.0724319,-0.046783,0.406115,-1.5907,-0.160175,1.5365,1.3143,-0.153495,-0.00269988,-0.162327,0.00480578,0.303691,-0.0817047,0.00114654,1.04694,-28.2817,0.314344,24.8364,1.44897,1.95916,-0.183914,-0.593286,0.826324,0.153284,0.172123,0.465384,0.566897,0.586771,0.695589,0.529998,-0.583319,1.03448,-0.652073,-0.167733,
-0.0890888,-0.0324351,0.390252,-1.60634,-0.153175,-0.085633,0.514125,-0.0710963,0.0402714,-0.078414,-0.0753185,0.895325,0.297867,-0.0453896,0,0,0,0,0,0,0,-0.0770494,-0.046683,0.400921,-1.59113,-0.147096,1.53458,1.31424,-0.14436,0.00756243,-0.161895,-0.0296884,0.556293,-0.0375894,-0.00248281,1.4278,-29.5036,0.889601,25.9314,0.672604,2.61559,-0.0905302,-0.593286,0.826324,0.153284,0.172123,0.465384,0.566897,0.586771,0.695589,0.529998,-0.583319,1.03448,-0.652073,-0.167733,
-0.0893588,-0.0322763,0.389953,-1.60663,-0.149619,-0.0842877,0.513943,-0.0675139,0.0397027,-0.0747749,-0.0719543,0.888945,0.33632,-0.0455482,0,0,0,0,0,0,0,-0.0770494,-0.046683,0.400921,-1.59113,-0.147096,1.53458,1.31424,-0.14436,0.00756243,-0.161895,-0.0296884,0.556293,-0.0375894,-0.00248281,1.4278,-29.5036,0.889601,25.9314,0.672604,2.61559,-0.0905302,-0.0305812,-1.28746,0.100011,1.2756,0.843129,-0.610166,-0.590529,0.917904,-0.663414,-0.698709,0.57184,-0.76967,-0.168739,
-0.0969496,-0.0284471,0.382419,-1.60937,-0.32355,-0.212495,0.507615,-0.270073,0.1373,-0.282365,-0.139303,-0.9588,-0.864542,-0.100238,0,0,0,0,0,0,0,-0.0770494,-0.046683,0.400921,-1.59113,-0.147096,1.53458,1.31424,-0.14436,0.00756243,-0.161895,-0.0296884,0.556293,-0.0375894,-0.00248281,1.4278,-29.5036,0.889601,25.9314,0.672604,2.61559,-0.0905302,-1.22273,-1.58916,0.0892525,1.22928,-0.17577,-0.544314,-0.534519,0.287295,-0.583663,-0.545537,0.272314,-0.721297,-0.164425,
