PerkyPenguin/Analysis-on-Approximated-Derivatives/Code_and_Data/PaperData/Real_Robot/Scene_1/set_interval/15/trajectory.csv
Commanded Joint 0 Position,Commanded Joint 1 Position,Commanded Joint 2 Position,Commanded Joint 3 Position,Commanded Joint 4 Position,Commanded Joint 5 Position,Commanded Joint 6 Position,Commanded Joint 0 Velocity,Commanded Joint 1 Velocity,Commanded Joint 2 Velocity,Commanded Joint 3 Velocity,Commanded Joint 4 Velocity,Commanded Joint 5 Velocity,Commanded Joint 6 Velocity,Commanded Joint 0 Torque,Commanded Joint 1 Torque,Commanded Joint 2 Torque,Commanded Joint 3 Torque,Commanded Joint 4 Torque,Commanded Joint 5 Torque,Commanded Joint 6 Torque,Actual Joint 0 Position,Actual Joint 1 Position,Actual Joint 2 Position,Actual Joint 3 Position,Actual Joint 4 Position,Actual Joint 5 Position,Actual Joint 6 Position,Actual Joint 0 Velocity,Actual Joint 1 Velocity,Actual Joint 2 Velocity,Actual Joint 3 Velocity,Actual Joint 4 Velocity,Actual Joint 5 Velocity,Actual Joint 6 Velocity,Actual Joint 0 Torque,Actual Joint 1 Torque,Actual Joint 2 Torque,Actual Joint 3 Torque,Actual Joint 4 Torque,Actual Joint 5 Torque,Actual Joint 6 Torque,EE ext force 0,EE ext force 1,EE ext force 2,EE ext force 3,EE ext force 4,EE ext force 5,joint ext torque 0,joint ext torque 1,joint ext torque 2,joint ext torque 3,joint ext torque 4,joint ext torque 5,joint ext torque 6,
0.0113213,-0.197001,-0.333571,-1.66075,-0.0926469,-0.0886351,-0.383736,-0.00227469,0.0160605,-0.0122817,-0.150584,0.00363532,0.200126,-0.00215008,0,0,0,0,0,0,0,0.0113289,-0.197001,-0.333474,-1.65923,-0.0926775,1.48016,0.40168,-0.000892945,-0.00378344,0.00055142,0.00050565,0.00281452,-0.000979896,-0.00112649,-0.0440639,-25.5126,1.86159,25.9076,0.440975,2.9937,-0.0227812,-1.37531,0.0323997,-0.413179,0.0053518,-0.561267,-0.187723,-0.0935094,-0.109692,-0.26708,-0.315128,-0.158516,-0.328563,-0.0383018,
0.0113072,-0.196862,-0.333632,-1.66139,-0.0926362,-0.0878063,-0.383744,-0.0035394,0.0346499,-0.0151939,-0.159709,0.00265461,0.207204,-0.00204304,0,0,0,0,0,0,0,0.0113289,-0.197001,-0.333474,-1.65923,-0.0926775,1.48016,0.40168,-0.000892945,-0.00378344,0.00055142,0.00050565,0.00281452,-0.000979896,-0.00112649,-0.0440639,-25.5126,1.86159,25.9076,0.440975,2.9937,-0.0227812,-1.37531,0.0323997,-0.413179,0.0053518,-0.561267,-0.187723,-0.0935094,-0.109692,-0.26708,-0.315128,-0.158516,-0.328563,-0.0383018,
0.0113264,-0.19704,-0.333475,-1.65922,-0.0926491,-0.0906511,-0.383718,-0.000124046,-0.00195176,-9.20709e-05,0.000926721,0.0013049,-0.000277861,8.95425e-06,0,0,0,0,0,0,0,0.0113317,-0.196999,-0.333474,-1.65923,-0.0926844,1.48016,0.401686,0.000182181,-0.00329198,-0.000984938,0.00213705,0.00119211,-0.000855479,0.000434777,-0.0956386,-25.5364,1.88936,25.8798,0.502316,2.97997,-0.0630644,-1.23309,0.0211223,-0.393357,0.011222,-0.465045,-0.163414,-0.0690951,-0.0608679,-0.243845,-0.318903,-0.155534,-0.321694,-0.0421335,
0.011326,-0.197047,-0.333475,-1.65921,-0.0926448,-0.0906515,-0.383718,-0.000108653,-0.00172095,-8.72404e-05,0.000838172,0.00106745,-9.53353e-05,8.04954e-06,0,0,0,0,0,0,0,0.0113317,-0.196999,-0.333474,-1.65923,-0.0926844,1.48016,0.401686,0.000182181,-0.00329198,-0.000984938,0.00213705,0.00119211,-0.000855479,0.000434777,-0.0956386,-25.5364,1.88936,25.8798,0.502316,2.97997,-0.0630644,-1.23309,0.0211223,-0.393357,0.011222,-0.465045,-0.163414,-0.0690951,-0.0608679,-0.243845,-0.318903,-0.155534,-0.321694,-0.0421335,
0.0113256,-0.197053,-0.333476,-1.65921,-0.0926414,-0.0906514,-0.383718,-9.48729e-05,-0.00152593,-8.28692e-05,0.000755404,0.000867634,3.57484e-05,7.15486e-06,0,0,0,0,0,0,0,0.0113317,-0.196999,-0.333474,-1.65923,-0.0926844,1.48016,0.401686,0.000182181,-0.00329198,-0.000984938,0.00213705,0.00119211,-0.000855479,0.000434777,-0.0956386,-25.5364,1.88936,25.8798,0.502316,2.97997,-0.0630644,-1.50812,0.195624,-0.589443,-0.0956209,-0.616823,-0.131141,-0.0379338,-0.120375,-0.201603,-0.347136,-0.151852,-0.311571,-0.044146,
0.0113253,-0.197058,-0.333476,-1.65921,-0.0926386,-0.0906509,-0.383718,-8.27715e-05,-0.00135985,-7.90408e-05,0.000680594,0.000699777,0.000124417,6.36906e-06,0,0,0,0,0,0,0,0.0113317,-0.196999,-0.333474,-1.65923,-0.0926844,1.48016,0.401686,0.000182181,-0.00329198,-0.000984938,0.00213705,0.00119211,-0.000855479,0.000434777,-0.0956386,-25.5364,1.88936,25.8798,0.502316,2.97997,-0.0630644,-1.50812,0.195624,-0.589443,-0.0956209,-0.616823,-0.131141,-0.0379338,-0.120375,-0.201603,-0.347136,-0.151852,-0.311571,-0.044146,
0.011325,-0.197063,-0.333476,-1.65921,-0.0926363,-0.0906501,-0.383718,-7.22207e-05,-0.00121785,-7.57345e-05,0.00061379,0.000558821,0.000179584,5.703e-06,0,0,0,0,0,0,0,0.0113317,-0.196999,-0.333474,-1.65923,-0.0926844,1.48016,0.401686,0.000182181,-0.00329198,-0.000984938,0.00213705,0.00119211,-0.000855479,0.000434777,-0.0956386,-25.5364,1.88936,25.8798,0.502316,2.97997,-0.0630644,-2.97679,0.424114,-1.22575,-0.188144,-1.5231,-0.287523,-0.18796,-0.537594,-0.356244,-0.400312,-0.165287,-0.30988,-0.0443074,
0.0113248,-0.197068,-0.333477,-1.6592,-0.0926346,-0.0906493,-0.383718,-6.30452e-05,-0.00109615,-7.29e-05,0.000554404,0.000440443,0.000208926,5.14571e-06,0,0,0,0,0,0,0,0.0113379,-0.197032,-0.333471,-1.65955,-0.0926699,1.48078,0.401689,0.00117455,-0.00612212,-1.56024e-05,0.000244533,0.000452508,0.000758678,0.000974036,-0.171017,-25.2348,1.86159,26.2805,0.373226,3.21252,-0.0630644,-1.23682,0.0056097,-1.85619,0.229561,0.0337157,-0.162771,-0.0661976,0.436811,-0.287942,-0.826115,-0.156626,-0.282161,-0.0454425,
0.0113245,-0.197072,-0.333477,-1.6592,-0.0926332,-0.0906484,-0.383718,-5.50715e-05,-0.000991687,-7.04813e-05,0.0005017,0.000341,0.000218733,4.68173e-06,0,0,0,0,0,0,0,0.0113379,-0.197032,-0.333471,-1.65955,-0.0926699,1.48078,0.401689,0.00117455,-0.00612212,-1.56024e-05,0.000244533,0.000452508,0.000758678,0.000974036,-0.171017,-25.2348,1.86159,26.2805,0.373226,3.21252,-0.0630644,-1.23682,0.0056097,-1.85619,0.229561,0.0337157,-0.162771,-0.0661976,0.436811,-0.287942,-0.826115,-0.156626,-0.282161,-0.0454425,
0.0113243,-0.197075,-0.333477,-1.6592,-0.0926322,-0.0906476,-0.383718,-4.81416e-05,-0.000901884,-6.84244e-05,0.000454957,0.000257433,0.000214049,4.29614e-06,0,0,0,0,0,0,0,0.0113379,-0.197032,-0.333471,-1.65955,-0.0926699,1.48078,0.401689,0.00117455,-0.00612212,-1.56024e-05,0.000244533,0.000452508,0.000758678,0.000974036,-0.171017,-25.2348,1.86159,26.2805,0.373226,3.21252,-0.0630644,-1.12758,-0.0696399,-1.32226,0.195905,-0.12084,-0.180095,-0.0867063,0.246651,-0.290268,-0.59626,-0.154263,-0.237784,-0.0431277,
0.0113242,-0.197079,-0.333477,-1.6592,-0.0926314,-0.0906468,-0.383718,-4.2116e-05,-0.000824587,-6.66802e-05,0.000413509,0.000187183,0.000198865,3.97586e-06,0,0,0,0,0,0,0,0.0113379,-0.197032,-0.333471,-1.65955,-0.0926699,1.48078,0.401689,0.00117455,-0.00612212,-1.56024e-05,0.000244533,0.000452508,0.000758678,0.000974036,-0.171017,-25.2348,1.86159,26.2805,0.373226,3.21252,-0.0630644,-1.12758,-0.0696399,-1.32226,0.195905,-0.12084,-0.180095,-0.0867063,0.246651,-0.290268,-0.59626,-0.154263,-0.237784,-0.0431277,
0.011324,-0.197082,-0.333478,-1.6592,-0.0926309,-0.0906461,-0.383718,-3.68731e-05,-0.000757976,-6.52049e-05,0.000376761,0.000128104,0.000176314,3.70984e-06,0,0,0,0,0,0,0,0.0113379,-0.197032,-0.333471,-1.65955,-0.0926699,1.48078,0.401689,0.00117455,-0.00612212,-1.56024e-05,0.000244533,0.000452508,0.000758678,0.000974036,-0.171017,-25.2348,1.86159,26.2805,0.373226,3.21252,-0.0630644,-1.0848,0.0336239,-1.27974,0.107522,-0.115104,-0.128851,-0.0348369,0.238696,-0.229995,-0.572713,-0.151592,-0.225815,-0.0397752,
0.0113239,-0.197084,-0.333478,-1.6592,-0.0926306,-0.0906455,-0.383718,-3.23075e-05,-0.000700511,-6.396e-05,0.000344181,7.84036e-05,0.000148832,3.48882e-06,0,0,0,0,0,0,0,0.0113379,-0.197032,-0.333471,-1.65955,-0.0926699,1.48078,0.401689,0.00117455,-0.00612212,-1.56024e-05,0.000244533,0.000452508,0.000758678,0.000974036,-0.171017,-25.2348,1.86159,26.2805,0.373226,3.21252,-0.0630644,-1.31948,0.081427,-1.54486,0.1129,-0.16653,-0.150357,-0.0486108,0.264703,-0.261882,-0.674868,-0.161413,-0.258611,-0.0377654,
0.0113238,-0.197087,-0.333478,-1.65919,-0.0926305,-0.090645,-0.383718,-2.8328e-05,-0.000650884,-6.2912e-05,0.0003153,3.65766e-05,0.000118298,3.30513e-06,0,0,0,0,0,0,0,0.0113243,-0.196978,-0.333479,-1.65945,-0.0926725,1.4808,0.401689,7.50756e-05,0.00204339,-0.001012,0.00939498,0.00149275,0.000162067,0.000537382,0.00751081,-25.8855,1.96077,25.5585,0.397946,3.00011,-0.0630644,-1.31948,0.081427,-1.54486,0.1129,-0.16653,-0.150357,-0.0486108,0.264703,-0.261882,-0.674868,-0.161413,-0.258611,-0.0377654,
0.0113237,-0.197089,-0.333478,-1.65919,-0.0926305,-0.0906447,-0.383718,-2.48559e-05,-0.000607984,-6.20317e-05,0.000289697,1.36357e-06,8.61463e-05,3.15238e-06,0,0,0,0,0,0,0,0.0113243,-0.196978,-0.333479,-1.65945,-0.0926725,1.4808,0.401689,7.50756e-05,0.00204339,-0.001012,0.00939498,0.00149275,0.000162067,0.000537382,0.00751081,-25.8855,1.96077,25.5585,0.397946,3.00011,-0.0630644,-2.13994,0.218653,-1.21014,-0.04874,-0.927184,-0.23433,-0.124485,-0.22195,-0.327353,-0.446828,-0.168409,-0.25793,-0.0379281,
0.0113236,-0.197092,-0.333479,-1.65919,-0.0926306,-0.0906445,-0.383718,-2.18231e-05,-0.000570865,-6.12941e-05,0.000267003,-2.82915e-05,5.34549e-05,3.02527e-06,0,0,0,0,0,0,0,0.0113243,-0.196978,-0.333479,-1.65945,-0.0926725,1.4808,0.401689,7.50756e-05,0.00204339,-0.001012,0.00939498,0.00149275,0.000162067,0.000537382,0.00751081,-25.8855,1.96077,25.5585,0.397946,3.00011,-0.0630644,-1.69266,0.207614,-0.997481,-0.0527872,-0.659308,-0.157104,-0.0515514,-0.102688,-0.246757,-0.427168,-0.147508,-0.262187,-0.0414333,
0.0113235,-0.197094,-0.333479,-1.65919,-0.0926308,-0.0906444,-0.383718,-1.91711e-05,-0.000538722,-6.06777e-05,0.00024689,-5.32738e-05,2.10232e-05,2.91941e-06,0,0,0,0,0,0,0,0.0113243,-0.196978,-0.333479,-1.65945,-0.0926725,1.4808,0.401689,7.50756e-05,0.00204339,-0.001012,0.00939498,0.00149275,0.000162067,0.000537382,0.00751081,-25.8855,1.96077,25.5585,0.397946,3.00011,-0.0630644,-1.69266,0.207614,-0.997481,-0.0527872,-0.659308,-0.157104,-0.0515514,-0.102688,-0.246757,-0.427168,-0.147508,-0.262187,-0.0414333,
0.0113235,-0.197096,-0.333479,-1.65919,-0.0926311,-0.0906444,-0.383718,-1.68494e-05,-0.000510866,-6.01644e-05,0.000229064,-7.4326e-05,-1.05705e-05,2.83117e-06,0,0,0,0,0,0,0,0.0113243,-0.196978,-0.333479,-1.65945,-0.0926725,1.4808,0.401689,7.50756e-05,0.00204339,-0.001012,0.00939498,0.00149275,0.000162067,0.000537382,0.00751081,-25.8855,1.96077,25.5585,0.397946,3.00011,-0.0630644,-1.59169,0.136048,-0.923241,-0.00815399,-0.594547,-0.16819,-0.0644959,-0.0716976,-0.26016,-0.425649,-0.1513,-0.275117,-0.0454986,
0.0113234,-0.197098,-0.333479,-1.65919,-0.0926315,-0.0906446,-0.383718,-1.48144e-05,-0.00048671,-5.97384e-05,0.000213268,-9.2071e-05,-4.09207e-05,2.75755e-06,0,0,0,0,0,0,0,0.0113309,-0.196967,-0.333472,-1.65942,-0.0926756,1.48081,0.401688,-0.000246708,-0.00376136,-0.000572285,0.00705882,0.00288238,-0.00178334,0.000150995,-0.0718349,-25.4848,1.86159,25.6061,0.452877,3.02666,-0.0566557,-1.59169,0.136048,-0.923241,-0.00815399,-0.594547,-0.16819,-0.0644959,-0.0716976,-0.26016,-0.425649,-0.1513,-0.275117,-0.0454986,
0.0113233,-0.1971,-0.33348,-1.65919,-0.0926319,-0.0906449,-0.383718,-1.30285e-05,-0.00046575,-5.93868e-05,0.000199272,-0.000107032,-6.97562e-05,2.69603e-06,0,0,0,0,0,0,0,0.0113309,-0.196967,-0.333472,-1.65942,-0.0926756,1.48081,0.401688,-0.000246708,-0.00376136,-0.000572285,0.00705882,0.00288238,-0.00178334,0.000150995,-0.0718349,-25.4848,1.86159,25.6061,0.452877,3.02666,-0.0566557,-1.96692,0.0980457,-0.767417,-0.0172817,-0.937785,-0.251847,-0.147563,-0.289798,-0.337959,-0.322545,-0.168894,-0.276143,-0.0464122,
0.0113233,-0.197102,-0.33348,-1.65919,-0.0926324,-0.0906452,-0.383718,-1.14594e-05,-0.000447555,-5.90982e-05,0.000186874,-0.000119647,-9.69091e-05,2.64457e-06,0,0,0,0,0,0,0,0.0113309,-0.196967,-0.333472,-1.65942,-0.0926756,1.48081,0.401688,-0.000246708,-0.00376136,-0.000572285,0.00705882,0.00288238,-0.00178334,0.000150995,-0.0718349,-25.4848,1.86159,25.6061,0.452877,3.02666,-0.0566557,-1.96692,0.0980457,-0.767417,-0.0172817,-0.937785,-0.251847,-0.147563,-0.289798,-0.337959,-0.322545,-0.168894,-0.276143,-0.0464122,
0.0113233,-0.197103,-0.33348,-1.65919,-0.0926329,-0.0906457,-0.383718,-1.00791e-05,-0.000431754,-5.88633e-05,0.000175892,-0.000130286,-0.000122291,2.60144e-06,0,0,0,0,0,0,0,0.0113309,-0.196967,-0.333472,-1.65942,-0.0926756,1.48081,0.401688,-0.000246708,-0.00376136,-0.000572285,0.00705882,0.00288238,-0.00178334,0.000150995,-0.0718349,-25.4848,1.86159,25.6061,0.452877,3.02666,-0.0566557,-1.86821,-0.016319,-0.699889,0.0582596,-0.870298,-0.289941,-0.18686,-0.255516,-0.381716,-0.324068,-0.177694,-0.290199,-0.0431253,
0.0113232,-0.197105,-0.33348,-1.65919,-0.0926334,-0.0906463,-0.383718,-8.86349e-06,-0.00041803,-5.86743e-05,0.000166166,-0.000139258,-0.000145871,2.56525e-06,0,0,0,0,0,0,0,0.0113309,-0.196967,-0.333472,-1.65942,-0.0926756,1.48081,0.401688,-0.000246708,-0.00376136,-0.000572285,0.00705882,0.00288238,-0.00178334,0.000150995,-0.0718349,-25.4848,1.86159,25.6061,0.452877,3.02666,-0.0566557,-1.66491,0.0939118,-0.715587,-0.0119361,-0.713243,-0.207846,-0.109455,-0.165478,-0.290857,-0.351314,-0.16123,-0.287592,-0.0396481,
0.0113232,-0.197107,-0.333481,-1.65919,-0.092634,-0.090647,-0.383718,-7.79161e-06,-0.000406108,-5.85243e-05,0.000157555,-0.000146824,-0.000167665,2.5348e-06,0,0,0,0,0,0,0,0.011343,-0.196944,-0.333451,-1.65941,-0.092691,1.48084,0.401687,-0.000740114,-0.000785397,0.00078414,0.0034091,-0.00065439,0.00209572,0.000466219,-0.198788,-25.6871,1.71083,25.8798,0.562741,2.97356,-0.0429228,-1.66491,0.0939118,-0.715587,-0.0119361,-0.713243,-0.207846,-0.109455,-0.165478,-0.290857,-0.351314,-0.16123,-0.287592,-0.0396481,
0.0113232,-0.197108,-0.333481,-1.65918,-0.0926346,-0.0906477,-0.383718,-6.84541e-06,-0.000395753,-5.84079e-05,0.000149932,-0.000153204,-0.00018772,2.50915e-06,0,0,0,0,0,0,0,0.011343,-0.196944,-0.333451,-1.65941,-0.092691,1.48084,0.401687,-0.000740114,-0.000785397,0.00078414,0.0034091,-0.00065439,0.00209572,0.000466219,-0.198788,-25.6871,1.71083,25.8798,0.562741,2.97356,-0.0429228,-0.937211,0.00872275,-1.12766,0.131957,0.0107139,-0.116069,-0.0247366,0.315327,-0.218522,-0.606428,-0.14589,-0.298282,-0.0402373,
0.0113231,-0.19711,-0.333481,-1.65918,-0.0926353,-0.0906486,-0.383718,-6.00924e-06,-0.00038676,-5.83203e-05,0.000143186,-0.00015858,-0.000206103,2.48748e-06,0,0,0,0,0,0,0,0.011343,-0.196944,-0.333451,-1.65941,-0.092691,1.48084,0.401687,-0.000740114,-0.000785397,0.00078414,0.0034091,-0.00065439,0.00209572,0.000466219,-0.198788,-25.6871,1.71083,25.8798,0.562741,2.97356,-0.0429228,-0.937211,0.00872275,-1.12766,0.131957,0.0107139,-0.116069,-0.0247366,0.315327,-0.218522,-0.606428,-0.14589,-0.298282,-0.0402373,
0.0113231,-0.197111,-0.333481,-1.65918,-0.0926359,-0.0906495,-0.383718,-5.26952e-06,-0.000378953,-5.82574e-05,0.000137217,-0.00016311,-0.000222898,2.46913e-06,0,0,0,0,0,0,0,0.011343,-0.196944,-0.333451,-1.65941,-0.092691,1.48084,0.401687,-0.000740114,-0.000785397,0.00078414,0.0034091,-0.00065439,0.00209572,0.000466219,-0.198788,-25.6871,1.71083,25.8798,0.562741,2.97356,-0.0429228,-1.42683,-0.0400947,-0.634674,0.0834972,-0.553729,-0.224158,-0.130401,-0.0855416,-0.313042,-0.35674,-0.158785,-0.2927,-0.0423715,
0.0113231,-0.197113,-0.333481,-1.65918,-0.0926366,-0.0906504,-0.383718,-4.61444e-06,-0.000372181,-5.82161e-05,0.000131939,-0.000166924,-0.000238198,2.45355e-06,0,0,0,0,0,0,0,0.011343,-0.196944,-0.333451,-1.65941,-0.092691,1.48084,0.401687,-0.000740114,-0.000785397,0.00078414,0.0034091,-0.00065439,0.00209572,0.000466219,-0.198788,-25.6871,1.71083,25.8798,0.562741,2.97356,-0.0429228,-1.42683,-0.0400947,-0.634674,0.0834972,-0.553729,-0.224158,-0.130401,-0.0855416,-0.313042,-0.35674,-0.158785,-0.2927,-0.0423715,
0.0112081,-0.196979,-0.333566,-1.6591,-0.0911513,-0.0915694,-0.383717,-0.0113795,0.00146966,-0.0101663,0.0104557,0.172603,-0.104694,0.000358357,0,0,0,0,0,0,0,0.011343,-0.196944,-0.333451,-1.65941,-0.092691,1.48084,0.401687,-0.000740114,-0.000785397,0.00078414,0.0034091,-0.00065439,0.00209572,0.000466219,-0.198788,-25.6871,1.71083,25.8798,0.562741,2.97356,-0.0429228,-1.0838,-0.167253,-0.623585,0.171641,-0.299634,-0.21868,-0.128807,0.0540463,-0.313607,-0.385135,-0.163861,-0.281644,-0.044367,
0.0112257,-0.196907,-0.333539,-1.65928,-0.0912122,-0.0908326,-0.38371,-0.0111042,0.00237082,-0.0098751,0.0104104,0.168669,-0.100321,0.000334243,0,0,0,0,0,0,0,0.0113353,-0.196986,-0.333459,-1.65939,-0.092694,1.48083,0.401684,-0.000251146,0.00316434,-0.000382632,0.000525645,-0.00434477,0.00119714,-0.000490399,-0.119442,-25.2626,1.86159,25.9552,0.593868,3.03307,-0.0163725,-0.935248,-0.130208,-0.661008,0.158331,-0.175313,-0.177518,-0.0901746,0.129073,-0.271086,-0.415259,-0.152046,-0.279926,-0.0424446,
0.0111815,-0.196903,-0.333582,-1.65925,-0.0904125,-0.0913155,-0.383708,-0.0110381,0.00118001,-0.0105546,0.008707,0.199937,-0.120736,0.000464297,0,0,0,0,0,0,0,0.0113353,-0.196986,-0.333459,-1.65939,-0.092694,1.48083,0.401684,-0.000251146,0.00316434,-0.000382632,0.000525645,-0.00434477,0.00119714,-0.000490399,-0.119442,-25.2626,1.86159,25.9552,0.593868,3.03307,-0.0163725,-0.935248,-0.130208,-0.661008,0.158331,-0.175313,-0.177518,-0.0901746,0.129073,-0.271086,-0.415259,-0.152046,-0.279926,-0.0424446,
0.0111397,-0.196902,-0.333623,-1.65922,-0.0895163,-0.0918658,-0.383706,-0.0104635,0.000122361,-0.0104627,0.00711213,0.224046,-0.137573,0.000537474,0,0,0,0,0,0,0,0.0113353,-0.196986,-0.333459,-1.65939,-0.092694,1.48083,0.401684,-0.000251146,0.00316434,-0.000382632,0.000525645,-0.00434477,0.00119714,-0.000490399,-0.119442,-25.2626,1.86159,25.9552,0.593868,3.03307,-0.0163725,-1.07782,-0.184275,-0.469964,0.165076,-0.370714,-0.22915,-0.135098,-0.0191807,-0.324812,-0.311237,-0.155939,-0.264733,-0.0397241,
0.0111013,-0.196905,-0.333663,-1.65919,-0.0885451,-0.0924718,-0.383704,-0.00959876,-0.000728253,-0.00989607,0.00573578,0.242789,-0.151486,0.000575311,0,0,0,0,0,0,0,0.0113353,-0.196986,-0.333459,-1.65939,-0.092694,1.48083,0.401684,-0.000251146,0.00316434,-0.000382632,0.000525645,-0.00434477,0.00119714,-0.000490399,-0.119442,-25.2626,1.86159,25.9552,0.593868,3.03307,-0.0163725,-1.07782,-0.184275,-0.469964,0.165076,-0.370714,-0.22915,-0.135098,-0.0191807,-0.324812,-0.311237,-0.155939,-0.264733,-0.0397241,
0.0110669,-0.196911,-0.333699,-1.65918,-0.0875153,-0.0931236,-0.383701,-0.00858358,-0.00137275,-0.00905236,0.00457629,0.25746,-0.162949,0.000590501,0,0,0,0,0,0,0,0.0113353,-0.196986,-0.333459,-1.65939,-0.092694,1.48083,0.401684,-0.000251146,0.00316434,-0.000382632,0.000525645,-0.00434477,0.00119714,-0.000490399,-0.119442,-25.2626,1.86159,25.9552,0.593868,3.03307,-0.0163725,-0.800452,-0.319754,-0.655513,0.349636,-0.0787831,-0.241513,-0.143867,0.178598,-0.367582,-0.439261,-0.111089,-0.28885,-0.0382314,
0.0110369,-0.196918,-0.333731,-1.65916,-0.0864393,-0.093813,-0.383699,-0.00750799,-0.00183552,-0.00806304,0.00360404,0.269004,-0.172347,0.000590985,0,0,0,0,0,0,0,0.0112794,-0.196945,-0.333506,-1.65935,-0.091378,1.48081,0.401689,-0.00266896,-0.00290628,-0.00329179,0.00103456,0.0817155,-0.00235922,0.000321723,0.435978,-25.7109,2.1869,26.106,0.855709,3.06603,-0.0566557,-0.948659,-0.351973,-0.389433,0.389724,-0.320755,-0.279384,-0.177193,-0.0146778,-0.41385,-0.311964,-0.0512207,-0.279322,-0.0404383,
0.0110112,-0.196927,-0.333759,-1.65915,-0.0853268,-0.094533,-0.383697,-0.00642959,-0.00214633,-0.00701462,0.00278696,0.27812,-0.180002,0.0005822,0,0,0,0,0,0,0,0.0112794,-0.196945,-0.333506,-1.65935,-0.091378,1.48081,0.401689,-0.00266896,-0.00290628,-0.00329179,0.00103456,0.0817155,-0.00235922,0.000321723,0.435978,-25.7109,2.1869,26.106,0.855709,3.06603,-0.0566557,-0.948659,-0.351973,-0.389433,0.389724,-0.320755,-0.279384,-0.177193,-0.0146778,-0.41385,-0.311964,-0.0512207,-0.279322,-0.0404383,
0.0109897,-0.196936,-0.333783,-1.65914,-0.0841855,-0.0952777,-0.383694,-0.00538437,-0.00233397,-0.00596303,0.00209732,0.285329,-0.186192,0.000567552,0,0,0,0,0,0,0,0.0112794,-0.196945,-0.333506,-1.65935,-0.091378,1.48081,0.401689,-0.00266896,-0.00290628,-0.00329179,0.00103456,0.0817155,-0.00235922,0.000321723,0.435978,-25.7109,2.1869,26.106,0.855709,3.06603,-0.0566557,-1.11893,-0.422293,-0.0865612,0.445599,-0.590918,-0.338908,-0.226919,-0.229186,-0.48633,-0.168332,-0.00131323,-0.269692,-0.0414304,
0.0109721,-0.196946,-0.333803,-1.65914,-0.0830214,-0.0960423,-0.383692,-0.00439379,-0.00242412,-0.00494334,0.00151261,0.291025,-0.191152,0.000549502,0,0,0,0,0,0,0,0.0112794,-0.196945,-0.333506,-1.65935,-0.091378,1.48081,0.401689,-0.00266896,-0.00290628,-0.00329179,0.00103456,0.0817155,-0.00235922,0.000321723,0.435978,-25.7109,2.1869,26.106,0.855709,3.06603,-0.0566557,-1.11893,-0.422293,-0.0865612,0.445599,-0.590918,-0.338908,-0.226919,-0.229186,-0.48633,-0.168332,-0.00131323,-0.269692,-0.0414304,
0.0109582,-0.196955,-0.333819,-1.65913,-0.0818393,-0.0968227,-0.38369,-0.00346959,-0.00243881,-0.00397646,0.00101492,0.295505,-0.195084,0.000529682,0,0,0,0,0,0,0,0.0112794,-0.196945,-0.333506,-1.65935,-0.091378,1.48081,0.401689,-0.00266896,-0.00290628,-0.00329179,0.00103456,0.0817155,-0.00235922,0.000321723,0.435978,-25.7109,2.1869,26.106,0.855709,3.06603,-0.0566557,-0.693662,-0.367301,-0.306296,0.537833,-0.182686,-0.238029,-0.12183,0.0359155,-0.413086,-0.330622,0.0967867,-0.298742,-0.0401294,
0.0109477,-0.196965,-0.333831,-1.65913,-0.0806433,-0.0976153,-0.383688,-0.00261702,-0.00239649,-0.00307384,0.00058998,0.299001,-0.198157,0.000509189,0,0,0,0,0,0,0,0.0112794,-0.196945,-0.333506,-1.65935,-0.091378,1.48081,0.401689,-0.00266896,-0.00290628,-0.00329179,0.00103456,0.0817155,-0.00235922,0.000321723,0.435978,-25.7109,2.1869,26.106,0.855709,3.06603,-0.0566557,-0.951177,-0.217054,-0.0450713,0.434502,-0.497896,-0.217654,-0.0960521,-0.193322,-0.386718,-0.198496,0.151963,-0.297704,-0.0376468,
0.0109404,-0.196974,-0.33384,-1.65913,-0.0794366,-0.0984174,-0.383686,-0.00183716,-0.00231235,-0.00224059,0.00022638,0.301691,-0.200514,0.000488752,0,0,0,0,0,0,0,0.0112736,-0.196937,-0.333526,-1.65935,-0.0882898,1.48079,0.401683,-0.00240787,0.000131221,-0.00056759,-0.000967016,0.11041,0.000814125,-0.000996596,0.384403,-25.7625,2.1869,26.0068,1.24664,2.85363,-0.0026396,-0.951177,-0.217054,-0.0450713,0.434502,-0.497896,-0.217654,-0.0960521,-0.193322,-0.386718,-0.198496,0.151963,-0.297704,-0.0376468,
0.0109359,-0.196983,-0.333846,-1.65913,-0.0782217,-0.0992265,-0.383684,-0.00112838,-0.00219872,-0.00147774,-8.51109e-05,0.303715,-0.202276,0.000468821,0,0,0,0,0,0,0,0.0112736,-0.196937,-0.333526,-1.65935,-0.0882898,1.48079,0.401683,-0.00240787,0.000131221,-0.00056759,-0.000967016,0.11041,0.000814125,-0.000996596,0.384403,-25.7625,2.1869,26.0068,1.24664,2.85363,-0.0026396,-0.70065,-0.193399,-0.307905,0.531992,-0.192168,-0.162461,-0.043033,0.027971,-0.351734,-0.364353,0.220794,-0.335242,-0.0371884,
0.0109339,-0.196991,-0.333849,-1.65913,-0.077001,-0.100041,-0.383682,-0.000487431,-0.00206548,-0.000783673,-0.000352027,0.305185,-0.203543,0.000449704,0,0,0,0,0,0,0,0.0112736,-0.196937,-0.333526,-1.65935,-0.0882898,1.48079,0.401683,-0.00240787,0.000131221,-0.00056759,-0.000967016,0.11041,0.000814125,-0.000996596,0.384403,-25.7625,2.1869,26.0068,1.24664,2.85363,-0.0026396,-0.70065,-0.193399,-0.307905,0.531992,-0.192168,-0.162461,-0.043033,0.027971,-0.351734,-0.364353,0.220794,-0.335242,-0.0371884,
0.0109343,-0.196999,-0.33385,-1.65913,-0.0757762,-0.100858,-0.383681,8.98547e-05,-0.00192041,-0.000155218,-0.000580596,0.30619,-0.204398,0.000431546,0,0,0,0,0,0,0,0.0112736,-0.196937,-0.333526,-1.65935,-0.0882898,1.48079,0.401683,-0.00240787,0.000131221,-0.00056759,-0.000967016,0.11041,0.000814125,-0.000996596,0.384403,-25.7625,2.1869,26.0068,1.24664,2.85363,-0.0026396,-0.810869,0.0723303,-0.115006,0.401569,-0.353874,-0.0622737,0.0544028,-0.0963858,-0.242649,-0.304291,0.324022,-0.363584,-0.037333,
0.0109367,-0.197006,-0.333848,-1.65914,-0.074549,-0.101678,-0.383679,0.000608107,-0.0017696,0.000411704,-0.000775987,0.306802,-0.204912,0.000414431,0,0,0,0,0,0,0,0.0112736,-0.196937,-0.333526,-1.65935,-0.0882898,1.48079,0.401683,-0.00240787,0.000131221,-0.00056759,-0.000967016,0.11041,0.000814125,-0.000996596,0.384403,-25.7625,2.1869,26.0068,1.24664,2.85363,-0.0026396,-0.810869,0.0723303,-0.115006,0.401569,-0.353874,-0.0622737,0.0544028,-0.0963858,-0.242649,-0.304291,0.324022,-0.363584,-0.037333,
0.010941,-0.197012,-0.333845,-1.65914,-0.0733207,-0.102498,-0.383677,0.00107209,-0.00161769,0.000921605,-0.00094256,0.307082,-0.205142,0.000398384,0,0,0,0,0,0,0,0.0112921,-0.196941,-0.333519,-1.65934,-0.0847157,1.4807,0.401687,0.00179698,0.0024752,0.0004586,-0.000335423,0.104476,-0.0114702,-0.000218791,0.158268,-25.7109,2.08772,26.0068,1.46728,2.69524,-0.0429228,-0.862777,0.00455257,-0.053749,0.486095,-0.409859,-0.0993042,0.0156177,-0.135692,-0.289418,-0.295141,0.360516,-0.383246,-0.0402944,
0.010947,-0.197018,-0.333839,-1.65914,-0.0720924,-0.103319,-0.383676,0.0014865,-0.00146817,0.00137912,-0.00108401,0.307077,-0.205136,0.00038339,0,0,0,0,0,0,0,0.0112921,-0.196941,-0.333519,-1.65934,-0.0847157,1.4807,0.401687,0.00179698,0.0024752,0.0004586,-0.000335423,0.104476,-0.0114702,-0.000218791,0.158268,-25.7109,2.08772,26.0068,1.46728,2.69524,-0.0429228,-0.495253,0.087674,-0.142414,0.497774,-0.0744412,0.00620188,0.110589,0.0775872,-0.185181,-0.408529,0.418407,-0.418894,-0.0439312,
0.0109544,-0.197024,-0.333832,-1.65915,-0.0708651,-0.104139,-0.383674,0.00185586,-0.0013236,0.00178882,-0.00120347,0.306828,-0.204936,0.000369396,0,0,0,0,0,0,0,0.0112921,-0.196941,-0.333519,-1.65934,-0.0847157,1.4807,0.401687,0.00179698,0.0024752,0.0004586,-0.000335423,0.104476,-0.0114702,-0.000218791,0.158268,-25.7109,2.08772,26.0068,1.46728,2.69524,-0.0429228,-0.495253,0.087674,-0.142414,0.497774,-0.0744412,0.00620188,0.110589,0.0775872,-0.185181,-0.408529,0.418407,-0.418894,-0.0439312,
0.0109631,-0.197028,-0.333823,-1.65915,-0.0696396,-0.104957,-0.383673,0.00218444,-0.00118579,0.0021551,-0.00130365,0.30637,-0.204573,0.000356382,0,0,0,0,0,0,0,0.0112921,-0.196941,-0.333519,-1.65934,-0.0847157,1.4807,0.401687,0.00179698,0.0024752,0.0004586,-0.000335423,0.104476,-0.0114702,-0.000218791,0.158268,-25.7109,2.08772,26.0068,1.46728,2.69524,-0.0429228,-0.968853,0.0825811,0.226073,0.461555,-0.552577,-0.0810598,0.0147207,-0.241875,-0.255327,-0.241937,0.424894,-0.448233,-0.0453769,
0.010973,-0.197033,-0.333813,-1.65916,-0.0684167,-0.105773,-0.383672,0.00247621,-0.00105595,0.00248209,-0.00138689,0.305731,-0.204076,0.000344241,0,0,0,0,0,0,0,0.0112921,-0.196941,-0.333519,-1.65934,-0.0847157,1.4807,0.401687,0.00179698,0.0024752,0.0004586,-0.000335423,0.104476,-0.0114702,-0.000218791,0.158268,-25.7109,2.08772,26.0068,1.46728,2.69524,-0.0429228,-0.528528,0.0113957,0.124087,0.560741,-0.145845,-0.0335818,0.0522922,0.018022,-0.215671,-0.369163,0.445862,-0.48244,-0.0475855,
0.010984,-0.197036,-0.333802,-1.65917,-0.0671969,-0.106587,-0.38367,0.00273482,-0.000934839,0.00277362,-0.00145519,0.304935,-0.203466,0.000332974,0,0,0,0,0,0,0,0.0112921,-0.196941,-0.333519,-1.65934,-0.0847157,1.4807,0.401687,0.00179698,0.0024752,0.0004586,-0.000335423,0.104476,-0.0114702,-0.000218791,0.158268,-25.7109,2.08772,26.0068,1.46728,2.69524,-0.0429228,-0.528528,0.0113957,0.124087,0.560741,-0.145845,-0.0335818,0.0522922,0.018022,-0.215671,-0.369163,0.445862,-0.48244,-0.0475855,
0.0109958,-0.19704,-0.33379,-1.65917,-0.0659809,-0.107398,-0.383669,0.00296363,-0.000822842,0.00303325,-0.00151033,0.304003,-0.202764,0.000322463,0,0,0,0,0,0,0,0.0113215,-0.196968,-0.333479,-1.65933,-0.0810154,1.48047,0.401688,0.00101132,0.00198908,0.00253038,-0.000332903,0.131558,-0.00606066,0.000197568,-0.119442,-25.3856,1.78621,25.8798,1.06353,2.64855,-0.050247,-0.504226,-0.0782143,0.201126,0.626774,-0.121306,-0.0707222,0.00688135,0.0345984,-0.252205,-0.378886,0.443382,-0.517179,-0.0477334,
0.0110085,-0.197043,-0.333777,-1.65918,-0.0647691,-0.108206,-0.383668,0.00316569,-0.000720084,0.00326419,-0.00155384,0.302953,-0.201984,0.000312638,0,0,0,0,0,0,0,0.0113215,-0.196968,-0.333479,-1.65933,-0.0810154,1.48047,0.401688,0.00101132,0.00198908,0.00253038,-0.000332903,0.131558,-0.00606066,0.000197568,-0.119442,-25.3856,1.78621,25.8798,1.06353,2.64855,-0.050247,-0.504226,-0.0782143,0.201126,0.626774,-0.121306,-0.0707222,0.00688135,0.0345984,-0.252205,-0.378886,0.443382,-0.517179,-0.0477334,
0.0110219,-0.197045,-0.333763,-1.65918,-0.0635619,-0.109011,-0.383667,0.00334376,-0.000626479,0.0034694,-0.00158706,0.3018,-0.201141,0.000303502,0,0,0,0,0,0,0,0.0113215,-0.196968,-0.333479,-1.65933,-0.0810154,1.48047,0.401688,0.00101132,0.00198908,0.00253038,-0.000332903,0.131558,-0.00606066,0.000197568,-0.119442,-25.3856,1.78621,25.8798,1.06353,2.64855,-0.050247,-0.574547,-0.230217,0.27254,0.697804,-0.17272,-0.152593,-0.0808932,0.00675761,-0.331382,-0.361682,0.399282,-0.533693,-0.0477419,
0.0110359,-0.197047,-0.333749,-1.65919,-0.0623597,-0.109812,-0.383665,0.00350035,-0.000541794,0.00365155,-0.0016112,0.300558,-0.200243,0.000294937,0,0,0,0,0,0,0,0.0113215,-0.196968,-0.333479,-1.65933,-0.0810154,1.48047,0.401688,0.00101132,0.00198908,0.00253038,-0.000332903,0.131558,-0.00606066,0.000197568,-0.119442,-25.3856,1.78621,25.8798,1.06353,2.64855,-0.050247,-0.574547,-0.230217,0.27254,0.697804,-0.17272,-0.152593,-0.0808932,0.00675761,-0.331382,-0.361682,0.399282,-0.533693,-0.0477419,
0.0110542,-0.196808,-0.333654,-1.65895,-0.088139,-0.0937201,-0.38368,-0.0263539,0.00757563,-0.021894,0.0359287,0.521327,-0.422777,0.0032769,0,0,0,0,0,0,0,0.0113215,-0.196968,-0.333479,-1.65933,-0.0810154,1.48047,0.401688,0.00101132,0.00198908,0.00253038,-0.000332903,0.131558,-0.00606066,0.000197568,-0.119442,-25.3856,1.78621,25.8798,1.06353,2.64855,-0.050247,-0.356182,-0.262867,0.169028,0.734474,0.0592076,-0.130248,-0.0674961,0.166282,-0.307302,-0.448848,0.389411,-0.554941,-0.0465704,
0.0110977,-0.196816,-0.333628,-1.65893,-0.075462,-0.0939604,-0.383682,-0.0204232,0.00904725,-0.0164589,0.0314789,0.58669,-0.406742,0.00306182,0,0,0,0,0,0,0,0.0113173,-0.196975,-0.333475,-1.65933,-0.076412,1.48037,0.401685,-0.00077925,-0.00027353,-7.07841e-05,-0.00138224,0.15882,-0.000985163,-0.000591343,0.0313145,-25.338,1.91316,25.8322,0.911556,2.73461,-0.0227812,-0.757933,-0.242492,0.337188,0.671366,-0.305635,-0.19599,-0.132877,-0.0641718,-0.36056,-0.33843,0.364394,-0.556989,-0.0427559,
0.0110217,-0.1968,-0.333695,-1.65883,-0.0727628,-0.0958787,-0.383669,-0.0190142,0.00415388,-0.0165792,0.0251824,0.674801,-0.479572,0.0033545,0,0,0,0,0,0,0,0.0113173,-0.196975,-0.333475,-1.65933,-0.076412,1.48037,0.401685,-0.00077925,-0.00027353,-7.07841e-05,-0.00138224,0.15882,-0.000985163,-0.000591343,0.0313145,-25.338,1.91316,25.8322,0.911556,2.73461,-0.0227812,-0.757933,-0.242492,0.337188,0.671366,-0.305635,-0.19599,-0.132877,-0.0641718,-0.36056,-0.33843,0.364394,-0.556989,-0.0427559,
0.0109555,-0.196799,-0.333755,-1.65876,-0.0697846,-0.0980273,-0.383655,-0.0165539,0.00011735,-0.01512,0.019122,0.744566,-0.537145,0.00351004,0,0,0,0,0,0,0,0.0113173,-0.196975,-0.333475,-1.65933,-0.076412,1.48037,0.401685,-0.00077925,-0.00027353,-7.07841e-05,-0.00138224,0.15882,-0.000985163,-0.000591343,0.0313145,-25.338,1.91316,25.8322,0.911556,2.73461,-0.0227812,-0.796639,-0.340079,0.370773,0.726525,-0.337554,-0.249714,-0.190056,-0.0832251,-0.414615,-0.327023,0.345762,-0.561983,-0.0395743,
0.0109013,-0.196811,-0.333806,-1.6587,-0.0665831,-0.100358,-0.38364,-0.0135428,-0.00291658,-0.0127261,0.0138139,0.800367,-0.582705,0.00358354,0,0,0,0,0,0,0,0.0113173,-0.196975,-0.333475,-1.65933,-0.076412,1.48037,0.401685,-0.00077925,-0.00027353,-7.07841e-05,-0.00138224,0.15882,-0.000985163,-0.000591343,0.0313145,-25.338,1.91316,25.8322,0.911556,2.73461,-0.0227812,-0.796639,-0.340079,0.370773,0.726525,-0.337554,-0.249714,-0.190056,-0.0832251,-0.414615,-0.327023,0.345762,-0.561983,-0.0395743,
0.0108601,-0.196831,-0.333845,-1.65866,-0.0632015,-0.102832,-0.383626,-0.0102877,-0.0050475,-0.00981998,0.00930468,0.845398,-0.618552,0.00360513,0,0,0,0,0,0,0,0.0113173,-0.196975,-0.333475,-1.65933,-0.076412,1.48037,0.401685,-0.00077925,-0.00027353,-7.07841e-05,-0.00138224,0.15882,-0.000985163,-0.000591343,0.0313145,-25.338,1.91316,25.8322,0.911556,2.73461,-0.0227812,-0.458106,-0.868972,0.745947,1.06294,-0.19734,-0.428209,-0.370921,-0.0573507,-0.61908,-0.242114,0.32067,-0.570564,-0.0387597,
0.0108322,-0.196857,-0.333872,-1.65864,-0.0596734,-0.105418,-0.383611,-0.00698172,-0.0064334,-0.00667963,0.0055106,0.882023,-0.646465,0.0035925,0,0,0,0,0,0,0,0.0112581,-0.196904,-0.333529,-1.65927,-0.0700658,1.47981,0.401689,-0.00504839,-0.0011561,-0.00327514,0.00733551,0.295223,-0.041793,0.000704251,0.562931,-25.8855,2.28609,25.983,1.53412,2.47643,-0.0630644,-0.177436,-1.30193,1.16596,1.36655,-0.116945,-0.566011,-0.497432,-0.0728514,-0.794942,-0.149671,0.339805,-0.595958,-0.0424197,
0.0108172,-0.196886,-0.333886,-1.65863,-0.0560253,-0.10809,-0.383597,-0.0037459,-0.00723004,-0.00348645,0.00232464,0.91202,-0.667881,0.00355714,0,0,0,0,0,0,0,0.0112581,-0.196904,-0.333529,-1.65927,-0.0700658,1.47981,0.401689,-0.00504839,-0.0011561,-0.00327514,0.00733551,0.295223,-0.041793,0.000704251,0.562931,-25.8855,2.28609,25.983,1.53412,2.47643,-0.0630644,-0.177436,-1.30193,1.16596,1.36655,-0.116945,-0.566011,-0.497432,-0.0728514,-0.794942,-0.149671,0.339805,-0.595958,-0.0424197,
0.0108146,-0.196916,-0.333887,-1.65863,-0.0522784,-0.110826,-0.383583,-0.00065417,-0.00757339,-0.000356668,-0.000351975,0.936737,-0.683977,0.00350695,0,0,0,0,0,0,0,0.0112581,-0.196904,-0.333529,-1.65927,-0.0700658,1.47981,0.401689,-0.00504839,-0.0011561,-0.00327514,0.00733551,0.295223,-0.041793,0.000704251,0.562931,-25.8855,2.28609,25.983,1.53412,2.47643,-0.0630644,0.0988267,-0.832829,1.1837,1.17848,0.147009,-0.293245,-0.201428,0.0979243,-0.541215,-0.281959,0.492954,-0.705612,-0.0464678,
0.0108236,-0.196946,-0.333877,-1.65864,-0.0484496,-0.113608,-0.383569,0.00225077,-0.00757646,0.00263801,-0.00260301,0.957208,-0.695718,0.00344725,0,0,0,0,0,0,0,0.0112581,-0.196904,-0.333529,-1.65927,-0.0700658,1.47981,0.401689,-0.00504839,-0.0011561,-0.00327514,0.00733551,0.295223,-0.041793,0.000704251,0.562931,-25.8855,2.28609,25.983,1.53412,2.47643,-0.0630644,0.0988267,-0.832829,1.1837,1.17848,0.147009,-0.293245,-0.201428,0.0979243,-0.541215,-0.281959,0.492954,-0.705612,-0.0464678,
0.0108434,-0.196976,-0.333855,-1.65866,-0.0445526,-0.116424,-0.383556,0.00494717,-0.00733083,0.00545591,-0.00449753,0.974232,-0.7039,0.00338213,0,0,0,0,0,0,0,0.0112581,-0.196904,-0.333529,-1.65927,-0.0700658,1.47981,0.401689,-0.00504839,-0.0011561,-0.00327514,0.00733551,0.295223,-0.041793,0.000704251,0.562931,-25.8855,2.28609,25.983,1.53412,2.47643,-0.0630644,-0.227848,-0.579632,1.65701,1.01607,-0.239347,-0.231058,-0.118378,-0.180159,-0.482135,-0.135805,0.577518,-0.778894,-0.0447717,
0.0108731,-0.197003,-0.333823,-1.65869,-0.0405989,-0.119261,-0.383543,0.00742714,-0.00690947,0.00807564,-0.00609208,0.988432,-0.709178,0.00331409,0,0,0,0,0,0,0,0.0112581,-0.196904,-0.333529,-1.65927,-0.0700658,1.47981,0.401689,-0.00504839,-0.0011561,-0.00327514,0.00733551,0.295223,-0.041793,0.000704251,0.562931,-25.8855,2.28609,25.983,1.53412,2.47643,-0.0630644,-0.227848,-0.579632,1.65701,1.01607,-0.239347,-0.231058,-0.118378,-0.180159,-0.482135,-0.135805,0.577518,-0.778894,-0.0447717,
0.0109119,-0.197029,-0.333781,-1.65872,-0.0365977,-0.122109,-0.38353,0.00969196,-0.00636979,0.0104892,-0.00743309,1.0003,-0.712087,0.00324503,0,0,0,0,0,0,0,0.0108451,-0.196888,-0.333916,-1.65914,-0.0503114,1.4756,0.401685,-0.0102065,0.00209747,-0.0101931,0.00197629,0.568614,-0.139052,-0.000438912,1.14612,-25.9371,2.93672,25.8084,2.35901,1.83922,-0.0227812,-0.217008,-0.68927,1.75086,1.16561,-0.219076,-0.273546,-0.14529,-0.165623,-0.559097,-0.17202,0.633717,-0.847496,-0.0414608,
0.0109589,-0.197052,-0.33373,-1.65875,-0.0325568,-0.124961,-0.383517,0.0117485,-0.00575637,0.0126976,-0.00855876,1.01023,-0.71307,0.00317598,0,0,0,0,0,0,0,0.0108451,-0.196888,-0.333916,-1.65914,-0.0503114,1.4756,0.401685,-0.0102065,0.00209747,-0.0101931,0.00197629,0.568614,-0.139052,-0.000438912,1.14612,-25.9371,2.93672,25.8084,2.35901,1.83922,-0.0227812,-0.0218491,-0.21973,1.88702,0.933888,-0.0812528,-0.0179399,0.116327,-0.0923301,-0.29899,-0.22375,0.771611,-0.931158,-0.0418067,
0.0110133,-0.197072,-0.333671,-1.65879,-0.0284827,-0.127811,-0.383505,0.0136073,-0.00510341,0.0147073,-0.00950076,1.01853,-0.712487,0.00310794,0,0,0,0,0,0,0,0.0108451,-0.196888,-0.333916,-1.65914,-0.0503114,1.4756,0.401685,-0.0102065,0.00209747,-0.0101931,0.00197629,0.568614,-0.139052,-0.000438912,1.14612,-25.9371,2.93672,25.8084,2.35901,1.83922,-0.0227812,-0.0218491,-0.21973,1.88702,0.933888,-0.0812528,-0.0179399,0.116327,-0.0923301,-0.29899,-0.22375,0.771611,-0.931158,-0.0418067,
0.0110744,-0.19709,-0.333605,-1.65883,-0.0243808,-0.130654,-0.383492,0.0152806,-0.00443667,0.0165281,-0.0102854,1.02546,-0.710634,0.00304164,0,0,0,0,0,0,0,0.0108451,-0.196888,-0.333916,-1.65914,-0.0503114,1.4756,0.401685,-0.0102065,0.00209747,-0.0101931,0.00197629,0.568614,-0.139052,-0.000438912,1.14612,-25.9371,2.93672,25.8084,2.35901,1.83922,-0.0227812,-0.330025,0.144185,2.03634,0.751765,-0.33793,0.101823,0.247735,-0.246447,-0.179194,-0.201962,0.877099,-1.0068,-0.0426548,
0.0111416,-0.197105,-0.333532,-1.65887,-0.0202559,-0.133485,-0.38348,0.0167818,-0.00377521,0.018172,-0.0109346,1.03123,-0.707757,0.00297728,0,0,0,0,0,0,0,0.0108451,-0.196888,-0.333916,-1.65914,-0.0503114,1.4756,0.401685,-0.0102065,0.00209747,-0.0101931,0.00197629,0.568614,-0.139052,-0.000438912,1.14612,-25.9371,2.93672,25.8084,2.35901,1.83922,-0.0227812,-0.330025,0.144185,2.03634,0.751765,-0.33793,0.101823,0.247735,-0.246447,-0.179194,-0.201962,0.877099,-1.0068,-0.0426548,
0.0112141,-0.197118,-0.333454,-1.65892,-0.0161119,-0.136301,-0.383469,0.0181244,-0.00313287,0.0196514,-0.0114669,1.036,-0.704054,0.00291489,0,0,0,0,0,0,0,0.0103406,-0.196929,-0.334146,-1.65905,-0.030796,1.46982,0.401686,-0.0114948,0.00656124,-0.00384183,-0.0015549,0.63506,-0.199509,6.37266e-05,1.14612,-25.4372,2.93672,25.733,2.1878,1.84655,-0.0227812,-0.372569,0.224338,1.93265,0.776093,-0.287852,0.137908,0.292979,-0.183247,-0.161549,-0.300166,0.929457,-1.07222,-0.0413964,
0.0112913,-0.197128,-0.33337,-1.65897,-0.0119522,-0.1391,-0.383457,0.0193216,-0.00251926,0.0209794,-0.011898,1.03992,-0.699691,0.00285451,0,0,0,0,0,0,0,0.0103406,-0.196929,-0.334146,-1.65905,-0.030796,1.46982,0.401686,-0.0114948,0.00656124,-0.00384183,-0.0015549,0.63506,-0.199509,6.37266e-05,1.14612,-25.4372,2.93672,25.733,2.1878,1.84655,-0.0227812,-0.372569,0.224338,1.93265,0.776093,-0.287852,0.137908,0.292979,-0.183247,-0.161549,-0.300166,0.929457,-1.07222,-0.0413964,
0.0113729,-0.197135,-0.333281,-1.65902,-0.00777972,-0.141879,-0.383446,0.020386,-0.00194085,0.0221686,-0.0122412,1.04311,-0.694803,0.00279649,0,0,0,0,0,0,0,0.0103406,-0.196929,-0.334146,-1.65905,-0.030796,1.46982,0.401686,-0.0114948,0.00656124,-0.00384183,-0.0015549,0.63506,-0.199509,6.37266e-05,1.14612,-25.4372,2.93672,25.733,2.1878,1.84655,-0.0227812,-0.458591,0.185356,2.06107,0.814043,-0.387501,0.107626,0.270121,-0.254848,-0.202351,-0.26457,0.948756,-1.09423,-0.0356932,
0.0114582,-0.197141,-0.333188,-1.65907,-0.00359705,-0.144637,-0.383435,0.0213298,-0.00140162,0.023231,-0.0125081,1.04567,-0.6895,0.00274023,0,0,0,0,0,0,0,0.0103406,-0.196929,-0.334146,-1.65905,-0.030796,1.46982,0.401686,-0.0114948,0.00656124,-0.00384183,-0.0015549,0.63506,-0.199509,6.37266e-05,1.14612,-25.4372,2.93672,25.733,2.1878,1.84655,-0.0227812,0.053713,0.142322,1.91028,0.886811,0.0736798,0.182865,0.353127,0.0347612,-0.147075,-0.396775,0.961952,-1.10672,-0.0308687,
0.0115469,-0.197145,-0.333092,-1.65912,0.000593657,-0.147373,-0.383424,0.022164,-0.000903724,0.024178,-0.0127089,1.04768,-0.683871,0.00268622,0,0,0,0,0,0,0,0.0103406,-0.196929,-0.334146,-1.65905,-0.030796,1.46982,0.401686,-0.0114948,0.00656124,-0.00384183,-0.0015549,0.63506,-0.199509,6.37266e-05,1.14612,-25.4372,2.93672,25.733,2.1878,1.84655,-0.0227812,0.053713,0.142322,1.91028,0.886811,0.0736798,0.182865,0.353127,0.0347612,-0.147075,-0.396775,0.961952,-1.10672,-0.0308687,
0.0116385,-0.197146,-0.332991,-1.65917,0.00479048,-0.150085,-0.383414,0.0228991,-0.000447866,0.0250204,-0.0128523,1.04921,-0.677989,0.00263422,0,0,0,0,0,0,0,0.0103406,-0.196929,-0.334146,-1.65905,-0.030796,1.46982,0.401686,-0.0114948,0.00656124,-0.00384183,-0.0015549,0.63506,-0.199509,6.37266e-05,1.14612,-25.4372,2.93672,25.733,2.1878,1.84655,-0.0227812,0.147126,0.340199,1.88618,0.765789,0.161138,0.296158,0.463425,0.0919383,-0.0227633,-0.430781,0.990742,-1.12263,-0.0317114,
0.0117326,-0.197147,-0.332888,-1.65922,0.00899175,-0.152772,-0.383404,0.0235446,-3.37407e-05,0.0257679,-0.0129461,1.05032,-0.671912,0.00258424,0,0,0,0,0,0,0,0.00985868,-0.196972,-0.334178,-1.65899,-0.0098429,1.46248,0.401688,-0.00944315,-0.00087138,0.000444361,-0.000839379,0.703644,-0.259543,-0.000144758,1.17389,-25.0365,2.88911,25.4831,1.79687,2.11846,-0.0429228,0.147126,0.340199,1.88618,0.765789,0.161138,0.296158,0.463425,0.0919383,-0.0227633,-0.430781,0.990742,-1.12263,-0.0317114,
0.0118291,-0.197145,-0.332783,-1.65927,0.013196,-0.155435,-0.383393,0.0241092,0.000339754,0.0264297,-0.0129971,1.05107,-0.665686,0.00253585,0,0,0,0,0,0,0,0.00985868,-0.196972,-0.334178,-1.65899,-0.0098429,1.46248,0.401688,-0.00944315,-0.00087138,0.000444361,-0.000839379,0.703644,-0.259543,-0.000144758,1.17389,-25.0365,2.88911,25.4831,1.79687,2.11846,-0.0429228,-0.0748812,0.0400825,1.98874,0.891237,-0.0619056,0.12728,0.291641,-0.0570952,-0.190722,-0.327709,0.905716,-1.07991,-0.0328072,
0.0119275,-0.197143,-0.332675,-1.65932,0.017402,-0.158072,-0.383383,0.0246008,0.000674309,0.0270141,-0.0130112,1.0515,-0.659348,0.00248898,0,0,0,0,0,0,0,0.00985868,-0.196972,-0.334178,-1.65899,-0.0098429,1.46248,0.401688,-0.00944315,-0.00087138,0.000444361,-0.000839379,0.703644,-0.259543,-0.000144758,1.17389,-25.0365,2.88911,25.4831,1.79687,2.11846,-0.0429228,0.322967,-0.3381,1.68126,1.11311,0.376749,0.027361,0.17858,0.249174,-0.296849,-0.473352,0.788928,-1.05624,-0.0286467,
0.0120276,-0.197139,-0.332565,-1.65938,0.0216086,-0.160684,-0.383374,0.0250268,0.000971981,0.0275286,-0.0129933,1.05165,-0.652928,0.00244346,0,0,0,0,0,0,0,0.00985868,-0.196972,-0.334178,-1.65899,-0.0098429,1.46248,0.401688,-0.00944315,-0.00087138,0.000444361,-0.000839379,0.703644,-0.259543,-0.000144758,1.17389,-25.0365,2.88911,25.4831,1.79687,2.11846,-0.0429228,0.322967,-0.3381,1.68126,1.11311,0.376749,0.027361,0.17858,0.249174,-0.296849,-0.473352,0.788928,-1.05624,-0.0286467,
0.0119968,-0.197076,-0.332721,-1.65923,-0.0771208,-0.0958513,-0.383564,0.0791189,-0.0160168,0.0897233,0.00131999,0.413585,-0.63574,0.0121341,0,0,0,0,0,0,0,0.00985868,-0.196972,-0.334178,-1.65899,-0.0098429,1.46248,0.401688,-0.00944315,-0.00087138,0.000444361,-0.000839379,0.703644,-0.259543,-0.000144758,1.17389,-25.0365,2.88911,25.4831,1.79687,2.11846,-0.0429228,-0.134279,-0.28799,1.79016,0.953165,-0.00842673,-0.0303159,0.0948567,0.019365,-0.302901,-0.353371,0.691056,-1.03248,-0.0255818,
0.0106889,-0.197187,-0.333319,-1.65906,-0.00168029,-0.115699,-0.383552,0.0953691,-0.0236152,0.103294,-0.0122075,0.689311,-0.755435,0.0126688,0,0,0,0,0,0,0,0.00970025,-0.196949,-0.334173,-1.65898,0.0144809,1.45265,0.40169,-0.00215353,-0.00167957,-0.0015668,-0.000174595,0.791523,-0.327642,-0.00020165,0.94379,-25.338,2.88911,25.5823,1.47918,2.47643,-0.0301054,-0.134279,-0.28799,1.79016,0.953165,-0.00842673,-0.0303159,0.0948567,0.019365,-0.302901,-0.353371,0.691056,-1.03248,-0.0255818,
0.0111487,-0.197291,-0.332813,-1.65914,0.00116841,-0.119145,-0.383504,0.114939,-0.0259586,0.126657,-0.0195818,0.712175,-0.86154,0.012036,0,0,0,0,0,0,0,0.00970025,-0.196949,-0.334173,-1.65898,0.0144809,1.45265,0.40169,-0.00215353,-0.00167957,-0.0015668,-0.000174595,0.791523,-0.327642,-0.00020165,0.94379,-25.338,2.88911,25.5823,1.47918,2.47643,-0.0301054,-0.429602,-0.430704,1.61563,0.958795,-0.2051,-0.146217,-0.0312711,-0.0778556,-0.399496,-0.312933,0.576746,-0.959868,-0.0261169,
0.0116729,-0.197396,-0.33223,-1.65925,0.0041267,-0.122939,-0.383458,0.131052,-0.0264172,0.145563,-0.0266489,0.739572,-0.948387,0.0115121,0,0,0,0,0,0,0,0.00970025,-0.196949,-0.334173,-1.65898,0.0144809,1.45265,0.40169,-0.00215353,-0.00167957,-0.0015668,-0.000174595,0.791523,-0.327642,-0.00020165,0.94379,-25.338,2.88911,25.5823,1.47918,2.47643,-0.0301054,-0.429602,-0.430704,1.61563,0.958795,-0.2051,-0.146217,-0.0312711,-0.0778556,-0.399496,-0.312933,0.576746,-0.959868,-0.0261169,
0.0122507,-0.197498,-0.331586,-1.65938,0.00720163,-0.127017,-0.383413,0.144462,-0.0255045,0.161055,-0.0331912,0.768733,-1.01968,0.0110708,0,0,0,0,0,0,0,0.00970025,-0.196949,-0.334173,-1.65898,0.0144809,1.45265,0.40169,-0.00215353,-0.00167957,-0.0015668,-0.000174595,0.791523,-0.327642,-0.00020165,0.94379,-25.338,2.88911,25.5823,1.47918,2.47643,-0.0301054,-0.364585,-0.245225,0.998312,0.872344,0.0763732,-0.0525377,0.0647793,0.181976,-0.305341,-0.541838,0.543246,-0.953165,-0.0234366,
0.0128736,-0.197593,-0.330891,-1.65954,0.0103932,-0.13133,-0.383371,0.155724,-0.0236359,0.173892,-0.0391327,0.797884,-1.07831,0.0106908,0,0,0,0,0,0,0,0.00970025,-0.196949,-0.334173,-1.65898,0.0144809,1.45265,0.40169,-0.00215353,-0.00167957,-0.0015668,-0.000174595,0.791523,-0.327642,-0.00020165,0.94379,-25.338,2.88911,25.5823,1.47918,2.47643,-0.0301054,-1.03819,-0.569089,1.33352,0.853866,-0.571031,-0.319084,-0.213766,-0.239194,-0.531309,-0.267758,0.334018,-0.880048,-0.0180873,
0.0135346,-0.197677,-0.330152,-1.65971,0.0136969,-0.135837,-0.383329,0.165256,-0.0211315,0.184633,-0.0444589,0.825935,-1.12659,0.0103558,0,0,0,0,0,0,0,0.00970025,-0.196949,-0.334173,-1.65898,0.0144809,1.45265,0.40169,-0.00215353,-0.00167957,-0.0015668,-0.000174595,0.791523,-0.327642,-0.00020165,0.94379,-25.338,2.88911,25.5823,1.47918,2.47643,-0.0301054,-1.03819,-0.569089,1.33352,0.853866,-0.571031,-0.319084,-0.213766,-0.239194,-0.531309,-0.267758,0.334018,-0.880048,-0.0180873,
0.0142281,-0.19775,-0.329377,-1.65991,0.0171059,-0.140502,-0.383289,0.17337,-0.0182334,0.193695,-0.049186,0.852256,-1.16637,0.0100538,0,0,0,0,0,0,0,0.0101333,-0.196975,-0.333426,-1.65905,0.0354975,1.44217,0.401689,0.0252965,-0.00442021,0.0473733,-0.00120932,0.558207,-0.34423,9.44751e-05,1.4278,-25.2864,3.73811,25.733,0.60577,2.14501,-0.0163725,-0.826001,-1.43578,1.22668,1.20357,-0.336396,-0.673418,-0.587994,-0.0745801,-0.874265,-0.264481,0.000365284,-0.7969,-0.0134741,
0.0149494,-0.197811,-0.328572,-1.66012,0.020612,-0.145299,-0.38325,0.180308,-0.0151217,0.201386,-0.0533464,0.876521,-1.19914,0.00977632,0,0,0,0,0,0,0,0.0101333,-0.196975,-0.333426,-1.65905,0.0354975,1.44217,0.401689,0.0252965,-0.00442021,0.0473733,-0.00120932,0.558207,-0.34423,9.44751e-05,1.4278,-25.2864,3.73811,25.733,0.60577,2.14501,-0.0163725,-0.826001,-1.43578,1.22668,1.20357,-0.336396,-0.673418,-0.587994,-0.0745801,-0.874265,-0.264481,0.000365284,-0.7969,-0.0134741,
0.0156944,-0.197858,-0.32774,-1.66035,0.0242064,-0.150203,-0.383212,0.186256,-0.0119283,0.207946,-0.0569788,0.898607,-1.22612,0.00951887,0,0,0,0,0,0,0,0.0101333,-0.196975,-0.333426,-1.65905,0.0354975,1.44217,0.401689,0.0252965,-0.00442021,0.0473733,-0.00120932,0.558207,-0.34423,9.44751e-05,1.4278,-25.2864,3.73811,25.733,0.60577,2.14501,-0.0163725,-0.940383,-1.66958,1.36358,1.22036,-0.444316,-0.795346,-0.731369,-0.142551,-0.96364,-0.186633,-0.143828,-0.780092,-0.00996869,
0.0164598,-0.197894,-0.326886,-1.6606,0.0278806,-0.155182,-0.383175,0.191365,-0.00898239,0.213597,-0.0608637,0.918533,-1.2446,0.00929392,0,0,0,0,0,0,0,0.0101333,-0.196975,-0.333426,-1.65905,0.0354975,1.44217,0.401689,0.0252965,-0.00442021,0.0473733,-0.00120932,0.558207,-0.34423,9.44751e-05,1.4278,-25.2864,3.73811,25.733,0.60577,2.14501,-0.0163725,-0.940383,-1.66958,1.36358,1.22036,-0.444316,-0.795346,-0.731369,-0.142551,-0.96364,-0.186633,-0.143828,-0.780092,-0.00996869,
0.017243,-0.197921,-0.326012,-1.66086,0.0316262,-0.160178,-0.383138,0.195777,-0.00656738,0.218515,-0.0659294,0.936412,-1.249,0.00911796,0,0,0,0,0,0,0,0.0101333,-0.196975,-0.333426,-1.65905,0.0354975,1.44217,0.401689,0.0252965,-0.00442021,0.0473733,-0.00120932,0.558207,-0.34423,9.44751e-05,1.4278,-25.2864,3.73811,25.733,0.60577,2.14501,-0.0163725,-0.867299,-0.561476,1.31969,0.477464,-0.335976,-0.269089,-0.2182,-0.0539305,-0.363537,-0.270785,-0.0357816,-0.859453,-0.0144092,
0.0180413,-0.197937,-0.325121,-1.66114,0.0354355,-0.165158,-0.383102,0.199586,-0.00400921,0.222687,-0.0703745,0.952318,-1.2451,0.0089384,0,0,0,0,0,0,0,0.0115397,-0.197097,-0.331697,-1.65899,0.0534141,1.42853,0.40169,0.049674,-0.00336174,0.0626486,0.000728163,0.557104,-0.479395,-0.000174387,2.18555,-24.9373,4.36098,24.7849,1.90673,1.6076,-0.0163725,-0.988193,-0.294861,1.13694,0.357229,-0.332016,-0.162352,-0.103863,-0.0100461,-0.259217,-0.369642,0.012882,-0.909352,-0.0129643,
0.0188527,-0.197942,-0.324216,-1.66144,0.0393009,-0.170102,-0.383067,0.202845,-0.00128902,0.226231,-0.0738862,0.966342,-1.23584,0.0087599,0,0,0,0,0,0,0,0.0115397,-0.197097,-0.331697,-1.65899,0.0534141,1.42853,0.40169,0.049674,-0.00336174,0.0626486,0.000728163,0.557104,-0.479395,-0.000174387,2.18555,-24.9373,4.36098,24.7849,1.90673,1.6076,-0.0163725,-0.988193,-0.294861,1.13694,0.357229,-0.332016,-0.162352,-0.103863,-0.0100461,-0.259217,-0.369642,0.012882,-0.909352,-0.0129643,
0.0196751,-0.197936,-0.323299,-1.66174,0.0432153,-0.174993,-0.383033,0.205616,0.00147896,0.229245,-0.0765424,0.978602,-1.22296,0.00858336,0,0,0,0,0,0,0,0.0115397,-0.197097,-0.331697,-1.65899,0.0534141,1.42853,0.40169,0.049674,-0.00336174,0.0626486,0.000728163,0.557104,-0.479395,-0.000174387,2.18555,-24.9373,4.36098,24.7849,1.90673,1.6076,-0.0163725,-1.24096,-0.811104,1.10433,0.686184,-0.464721,-0.428332,-0.359771,-0.0612954,-0.559116,-0.381651,-0.0813277,-0.930082,-0.00885149,
0.020507,-0.197919,-0.322372,-1.66206,0.0471723,-0.179824,-0.382999,0.207959,0.00418568,0.231805,-0.0784953,0.989247,-1.20759,0.0084104,0,0,0,0,0,0,0,0.0115397,-0.197097,-0.331697,-1.65899,0.0534141,1.42853,0.40169,0.049674,-0.00336174,0.0626486,0.000728163,0.557104,-0.479395,-0.000174387,2.18555,-24.9373,4.36098,24.7849,1.90673,1.6076,-0.0163725,-1.24096,-0.811104,1.10433,0.686184,-0.464721,-0.428332,-0.359771,-0.0612954,-0.559116,-0.381651,-0.0813277,-0.930082,-0.00885149,
0.0213467,-0.197892,-0.321436,-1.66238,0.051166,-0.184586,-0.382966,0.209923,0.0067548,0.233969,-0.0798875,0.998431,-1.19049,0.00824085,0,0,0,0,0,0,0,0.0115397,-0.197097,-0.331697,-1.65899,0.0534141,1.42853,0.40169,0.049674,-0.00336174,0.0626486,0.000728163,0.557104,-0.479395,-0.000174387,2.18555,-24.9373,4.36098,24.7849,1.90673,1.6076,-0.0163725,-1.42221,-1.3794,0.858324,1.13483,-0.412297,-0.694586,-0.624117,0.0476826,-0.872643,-0.546202,-0.143601,-1.01391,-0.009991,
0.0221929,-0.197856,-0.320493,-1.6627,0.0551912,-0.189275,-0.382934,0.21155,0.00914045,0.235784,-0.0808344,1.00631,-1.17222,0.00807564,0,0,0,0,0,0,0,0.0115397,-0.197097,-0.331697,-1.65899,0.0534141,1.42853,0.40169,0.049674,-0.00336174,0.0626486,0.000728163,0.557104,-0.479395,-0.000174387,2.18555,-24.9373,4.36098,24.7849,1.90673,1.6076,-0.0163725,-1.58683,-0.807026,0.918267,0.84791,-0.532812,-0.454018,-0.387128,-0.0171138,-0.61476,-0.577855,0.0125695,-1.09781,-0.00921343,
0.0230444,-0.19781,-0.319544,-1.66303,0.0592433,-0.193887,-0.382902,0.212876,0.0113197,0.237288,-0.0814265,1.01302,-1.15315,0.0079136,0,0,0,0,0,0,0,0.014417,-0.197204,-0.327884,-1.65908,0.0793863,1.40486,0.401696,0.0861607,-0.00229833,0.107552,-0.00353356,0.618239,-0.581304,0.000891286,1.88404,-24.612,3.93648,24.4357,1.91864,1.59386,-0.0365141,-1.58683,-0.807026,0.918267,0.84791,-0.532812,-0.454018,-0.387128,-0.0171138,-0.61476,-0.577855,0.0125695,-1.09781,-0.00921343,
0.0239001,-0.197757,-0.318589,-1.66335,0.0633182,-0.198421,-0.382871,0.213933,0.0132849,0.238514,-0.0817337,1.01871,-1.13356,0.00775584,0,0,0,0,0,0,0,0.014417,-0.197204,-0.327884,-1.65908,0.0793863,1.40486,0.401696,0.0861607,-0.00229833,0.107552,-0.00353356,0.618239,-0.581304,0.000891286,1.88404,-24.612,3.93648,24.4357,1.91864,1.59386,-0.0365141,-1.8299,-0.525598,0.783007,0.791953,-0.670773,-0.367279,-0.301551,-0.0752393,-0.535803,-0.639874,0.15141,-1.14217,-0.00683512,
0.0247591,-0.197697,-0.317632,-1.66368,0.0674121,-0.202876,-0.382841,0.214748,0.015039,0.23949,-0.0818104,1.02349,-1.11366,0.00760275,0,0,0,0,0,0,0,0.014417,-0.197204,-0.327884,-1.65908,0.0793863,1.40486,0.401696,0.0861607,-0.00229833,0.107552,-0.00353356,0.618239,-0.581304,0.000891286,1.88404,-24.612,3.93648,24.4357,1.91864,1.59386,-0.0365141,-1.8299,-0.525598,0.783007,0.791953,-0.670773,-0.367279,-0.301551,-0.0752393,-0.535803,-0.639874,0.15141,-1.14217,-0.00683512,
0.0256205,-0.197631,-0.316671,-1.66401,0.0715219,-0.20725,-0.382811,0.215346,0.0165906,0.240241,-0.0816991,1.02746,-1.09358,0.00745324,0,0,0,0,0,0,0,0.014417,-0.197204,-0.327884,-1.65908,0.0793863,1.40486,0.401696,0.0861607,-0.00229833,0.107552,-0.00353356,0.618239,-0.581304,0.000891286,1.88404,-24.612,3.93648,24.4357,1.91864,1.59386,-0.0365141,-1.39414,-0.450442,0.321648,0.93306,-0.151669,-0.257115,-0.200006,0.295979,-0.45392,-0.913186,0.279529,-1.19093,-0.0104404,
0.0264835,-0.197559,-0.315707,-1.66433,0.0756448,-0.211544,-0.382782,0.215749,0.0179525,0.240791,-0.0814336,1.03072,-1.07344,0.00730709,0,0,0,0,0,0,0,0.014417,-0.197204,-0.327884,-1.65908,0.0793863,1.40486,0.401696,0.0861607,-0.00229833,0.107552,-0.00353356,0.618239,-0.581304,0.000891286,1.88404,-24.612,3.93648,24.4357,1.91864,1.59386,-0.0365141,-1.39414,-0.450442,0.321648,0.93306,-0.151669,-0.257115,-0.200006,0.295979,-0.45392,-0.913186,0.279529,-1.19093,-0.0104404,
0.0273474,-0.197482,-0.314743,-1.66466,0.0797782,-0.215757,-0.382753,0.215977,0.019139,0.241158,-0.0810409,1.03335,-1.05332,0.00716484,0,0,0,0,0,0,0,0.0174742,-0.197171,-0.323891,-1.65933,0.09898,1.3847,0.401696,0.0853262,-0.000449416,0.130563,-0.00846852,0.572242,-0.626094,0.000866638,1.78089,-24.9889,3.4366,24.5627,2.52929,2.03881,-0.0365141,-1.63627,0.722916,0.403749,0.229967,-0.446485,0.2209,0.271047,0.0866777,0.0824254,-0.834307,0.523801,-1.19272,-0.0109315,
0.0282116,-0.197402,-0.313777,-1.66498,0.0839199,-0.219891,-0.382725,0.216048,0.0201651,0.241361,-0.0805429,1.03542,-1.03327,0.00702559,0,0,0,0,0,0,0,0.0174742,-0.197171,-0.323891,-1.65933,0.09898,1.3847,0.401696,0.0853262,-0.000449416,0.130563,-0.00846852,0.572242,-0.626094,0.000866638,1.78089,-24.9889,3.4366,24.5627,2.52929,2.03881,-0.0365141,-1.65715,0.881311,0.281237,0.230487,-0.533442,0.265407,0.320922,0.00487906,0.111382,-0.793887,0.659489,-1.10876,-0.00907184,
0.0290755,-0.197317,-0.312812,-1.6653,0.0880679,-0.223944,-0.382698,0.215979,0.0210457,0.241417,-0.0799572,1.037,-1.01332,0.00689019,0,0,0,0,0,0,0,0.0174742,-0.197171,-0.323891,-1.65933,0.09898,1.3847,0.401696,0.0853262,-0.000449416,0.130563,-0.00846852,0.572242,-0.626094,0.000866638,1.78089,-24.9889,3.4366,24.5627,2.52929,2.03881,-0.0365141,-1.65715,0.881311,0.281237,0.230487,-0.533442,0.265407,0.320922,0.00487906,0.111382,-0.793887,0.659489,-1.10876,-0.00907184,
0.0299386,-0.19723,-0.311846,-1.66562,0.0922205,-0.227918,-0.382671,0.215784,0.0217953,0.241342,-0.0792986,1.03815,-0.993525,0.0067569,0,0,0,0,0,0,0,0.0174742,-0.197171,-0.323891,-1.65933,0.09898,1.3847,0.401696,0.0853262,-0.000449416,0.130563,-0.00846852,0.572242,-0.626094,0.000866638,1.78089,-24.9889,3.4366,24.5627,2.52929,2.03881,-0.0365141,-1.82673,0.710802,-0.361236,0.557616,-0.451085,0.147719,0.220281,0.1369,-0.0716224,-1.01894,0.761639,-1.10627,-0.0102288,
0.011438,-0.197553,-0.332563,-1.65961,-0.00302014,-0.115342,-0.383537,0.177962,-0.0578755,0.19108,-0.0639177,0.550374,-0.726186,0.0139186,0,0,0,0,0,0,0,0.0174742,-0.197171,-0.323891,-1.65933,0.09898,1.3847,0.401696,0.0853262,-0.000449416,0.130563,-0.00846852,0.572242,-0.626094,0.000866638,1.78089,-24.9889,3.4366,24.5627,2.52929,2.03881,-0.0365141,-1.82673,0.710802,-0.361236,0.557616,-0.451085,0.147719,0.220281,0.1369,-0.0716224,-1.01894,0.761639,-1.10627,-0.0102288,
0.0198162,-0.197629,-0.321334,-1.66018,0.10562,-0.195637,-0.383538,0.22862,-0.04332,0.25211,-0.0847315,0.568561,-0.879292,0.0131821,0,0,0,0,0,0,0,0.0205883,-0.197085,-0.319338,-1.65979,0.116822,1.36491,0.401695,0.11111,0.00429857,0.148285,-0.0185096,0.568602,-0.641486,0.000685585,1.63013,-25.5126,3.46437,24.6381,2.63366,2.03148,-0.0227812,-2.03286,0.802353,-0.249711,0.509347,-0.767567,0.135102,0.214087,-0.111828,-0.0851407,-0.849586,0.832378,-1.00178,-0.00976394,
0.0208293,-0.197798,-0.320209,-1.66055,0.108015,-0.199436,-0.383488,0.253292,-0.0423858,0.281145,-0.0914637,0.598821,-0.949737,0.0126285,0,0,0,0,0,0,0,0.0205883,-0.197085,-0.319338,-1.65979,0.116822,1.36491,0.401695,0.11111,0.00429857,0.148285,-0.0185096,0.568602,-0.641486,0.000685585,1.63013,-25.5126,3.46437,24.6381,2.63366,2.03148,-0.0227812,-2.05217,1.25584,-0.608167,0.244383,-0.719603,0.31689,0.389203,-0.0554153,0.120826,-0.917793,0.894145,-0.944926,-0.00954105,
0.0219237,-0.197957,-0.31899,-1.66094,0.11055,-0.203472,-0.383439,0.273598,-0.0397326,0.304792,-0.0968654,0.6338,-1.00902,0.0121409,0,0,0,0,0,0,0,0.0205883,-0.197085,-0.319338,-1.65979,0.116822,1.36491,0.401695,0.11111,0.00429857,0.148285,-0.0185096,0.568602,-0.641486,0.000685585,1.63013,-25.5126,3.46437,24.6381,2.63366,2.03148,-0.0227812,-2.05217,1.25584,-0.608167,0.244383,-0.719603,0.31689,0.389203,-0.0554153,0.120826,-0.917793,0.894145,-0.944926,-0.00954105,
0.0230856,-0.198102,-0.317693,-1.66134,0.113232,-0.207706,-0.383392,0.29048,-0.0361874,0.324255,-0.101544,0.670468,-1.05848,0.0117009,0,0,0,0,0,0,0,0.0205883,-0.197085,-0.319338,-1.65979,0.116822,1.36491,0.401695,0.11111,0.00429857,0.148285,-0.0185096,0.568602,-0.641486,0.000685585,1.63013,-25.5126,3.46437,24.6381,2.63366,2.03148,-0.0227812,-2.49063,2.56182,-0.428754,-0.731722,-1.18115,0.829047,0.880821,-0.358112,0.747386,-0.75106,0.98605,-0.923778,-0.010705,
0.0243041,-0.198231,-0.316332,-1.66177,0.11606,-0.212104,-0.383347,0.304614,-0.0321973,0.340408,-0.105678,0.706895,-1.09961,0.0112987,0,0,0,0,0,0,0,0.0205883,-0.197085,-0.319338,-1.65979,0.116822,1.36491,0.401695,0.11111,0.00429857,0.148285,-0.0185096,0.568602,-0.641486,0.000685585,1.63013,-25.5126,3.46437,24.6381,2.63366,2.03148,-0.0227812,-2.49063,2.56182,-0.428754,-0.731722,-1.18115,0.829047,0.880821,-0.358112,0.747386,-0.75106,0.98605,-0.923778,-0.010705,
0.0255704,-0.198345,-0.314916,-1.66221,0.119027,-0.216614,-0.383303,0.31658,-0.02845,0.354009,-0.110516,0.741869,-1.12756,0.0109623,0,0,0,0,0,0,0,0.0205883,-0.197085,-0.319338,-1.65979,0.116822,1.36491,0.401695,0.11111,0.00429857,0.148285,-0.0185096,0.568602,-0.641486,0.000685585,1.63013,-25.5126,3.46437,24.6381,2.63366,2.03148,-0.0227812,-2.00161,1.8274,-0.486182,-0.39001,-0.866688,0.564499,0.609668,-0.208622,0.473962,-0.684238,0.782952,-0.763776,-0.00707043,
0.0268775,-0.198444,-0.313453,-1.66267,0.122126,-0.22118,-0.383261,0.326779,-0.0249293,0.365525,-0.115831,0.774675,-1.14128,0.0106644,0,0,0,0,0,0,0,0.0245583,-0.197185,-0.31457,-1.66073,0.130175,1.3471,0.401697,0.136539,-0.00405994,0.17245,-0.0410539,0.362324,-0.544484,-0.000184808,2.99884,-24.9889,4.71406,24.9356,2.40753,1.98571,-0.0026396,-1.78764,0.696328,-0.793548,0.267581,-0.624237,0.0867785,0.161695,-0.0469349,-0.0756278,-0.720694,0.532322,-0.637814,-0.00227864,
0.0282193,-0.19853,-0.311953,-1.66315,0.125346,-0.225757,-0.383219,0.335454,-0.0212876,0.375244,-0.12053,0.80493,-1.14445,0.0103553,0,0,0,0,0,0,0,0.0245583,-0.197185,-0.31457,-1.66073,0.130175,1.3471,0.401697,0.136539,-0.00405994,0.17245,-0.0410539,0.362324,-0.544484,-0.000184808,2.99884,-24.9889,4.71406,24.9356,2.40753,1.98571,-0.0026396,-1.78764,0.696328,-0.793548,0.267581,-0.624237,0.0867785,0.161695,-0.0469349,-0.0756278,-0.720694,0.532322,-0.637814,-0.00227864,
0.0295909,-0.198601,-0.310418,-1.66366,0.128676,-0.230292,-0.383179,0.342881,-0.0179492,0.383554,-0.125494,0.832445,-1.13374,0.010103,0,0,0,0,0,0,0,0.0245583,-0.197185,-0.31457,-1.66073,0.130175,1.3471,0.401697,0.136539,-0.00405994,0.17245,-0.0410539,0.362324,-0.544484,-0.000184808,2.99884,-24.9889,4.71406,24.9356,2.40753,1.98571,-0.0026396,-1.65045,0.27927,-1.00962,0.556626,-0.417192,-0.0780138,-0.0196489,0.110547,-0.253351,-0.820293,0.469048,-0.631744,-0.00280302,
0.0309875,-0.198659,-0.308856,-1.66417,0.132104,-0.234755,-0.38314,0.349162,-0.0143969,0.390548,-0.129251,0.857209,-1.11559,0.00985307,0,0,0,0,0,0,0,0.0245583,-0.197185,-0.31457,-1.66073,0.130175,1.3471,0.401697,0.136539,-0.00405994,0.17245,-0.0410539,0.362324,-0.544484,-0.000184808,2.99884,-24.9889,4.71406,24.9356,2.40753,1.98571,-0.0026396,-1.65045,0.27927,-1.00962,0.556626,-0.417192,-0.0780138,-0.0196489,0.110547,-0.253351,-0.820293,0.469048,-0.631744,-0.00280302,
0.0324052,-0.198702,-0.30727,-1.6647,0.135622,-0.239127,-0.383101,0.354415,-0.0107187,0.396406,-0.131741,0.8793,-1.09319,0.00960915,0,0,0,0,0,0,0,0.0245583,-0.197185,-0.31457,-1.66073,0.130175,1.3471,0.401697,0.136539,-0.00405994,0.17245,-0.0410539,0.362324,-0.544484,-0.000184808,2.99884,-24.9889,4.71406,24.9356,2.40753,1.98571,-0.0026396,-1.47497,0.544287,-0.940991,0.318696,-0.299177,0.080708,0.122542,0.174477,-0.0547575,-0.814101,0.455082,-0.637561,-0.00839139,
0.0338402,-0.19873,-0.305665,-1.66523,0.139217,-0.243401,-0.383064,0.358763,-0.00708509,0.401283,-0.133208,0.898865,-1.06831,0.00937336,0,0,0,0,0,0,0,0.0295814,-0.197425,-0.308606,-1.66195,0.143004,1.32856,0.401696,0.155596,2.98346e-05,0.199149,-0.0480827,0.45133,-0.571748,-0.000661096,2.66956,-24.9373,4.51173,24.7095,2.30957,1.80627,0.00376909,-2.36888,0.18173,-0.758427,0.449042,-1.01048,-0.194599,-0.141655,-0.240808,-0.333704,-0.65475,0.318652,-0.647352,-0.00562134,
0.0352895,-0.198745,-0.304044,-1.66577,0.142881,-0.247569,-0.383027,0.362321,-0.00362764,0.405311,-0.133904,0.916087,-1.04202,0.00914767,0,0,0,0,0,0,0,0.0295814,-0.197425,-0.308606,-1.66195,0.143004,1.32856,0.401696,0.155596,2.98346e-05,0.199149,-0.0480827,0.45133,-0.571748,-0.000661096,2.66956,-24.9373,4.51173,24.7095,2.30957,1.80627,0.00376909,-2.36888,0.18173,-0.758427,0.449042,-1.01048,-0.194599,-0.141655,-0.240808,-0.333704,-0.65475,0.318652,-0.647352,-0.00562134,
0.0367503,-0.198746,-0.30241,-1.6663,0.146606,-0.251629,-0.382991,0.365185,-0.000425416,0.408598,-0.134029,0.931162,-1.01498,0.00893105,0,0,0,0,0,0,0,0.0295814,-0.197425,-0.308606,-1.66195,0.143004,1.32856,0.401696,0.155596,2.98346e-05,0.199149,-0.0480827,0.45133,-0.571748,-0.000661096,2.66956,-24.9373,4.51173,24.7095,2.30957,1.80627,0.00376909,-2.38813,-0.432594,-1.30224,0.843178,-0.735286,-0.448789,-0.395213,0.0337688,-0.621973,-0.901843,0.149821,-0.684083,-0.00642352,
0.03822,-0.198736,-0.300765,-1.66684,0.150383,-0.255579,-0.382956,0.367441,0.00248291,0.411234,-0.133732,0.94429,-0.987642,0.00872586,0,0,0,0,0,0,0,0.0295814,-0.197425,-0.308606,-1.66195,0.143004,1.32856,0.401696,0.155596,2.98346e-05,0.199149,-0.0480827,0.45133,-0.571748,-0.000661096,2.66956,-24.9373,4.51173,24.7095,2.30957,1.80627,0.00376909,-2.38813,-0.432594,-1.30224,0.843178,-0.735286,-0.448789,-0.395213,0.0337688,-0.621973,-0.901843,0.149821,-0.684083,-0.00642352,
0.0396967,-0.198716,-0.299112,-1.66737,0.154206,-0.25942,-0.382922,0.369159,0.00508619,0.413298,-0.133117,0.955662,-0.960264,0.0085296,0,0,0,0,0,0,0,0.0295814,-0.197425,-0.308606,-1.66195,0.143004,1.32856,0.401696,0.155596,2.98346e-05,0.199149,-0.0480827,0.45133,-0.571748,-0.000661096,2.66956,-24.9373,4.51173,24.7095,2.30957,1.80627,0.00376909,-2.55731,0.253995,-1.38286,0.398383,-0.715815,-0.127306,-0.0750104,0.115643,-0.263743,-1.04519,0.207308,-0.83242,-0.00901677,
0.0411783,-0.198687,-0.297452,-1.6679,0.158068,-0.263152,-0.382889,0.370405,0.00739039,0.414856,-0.132263,0.965458,-0.933026,0.00834145,0,0,0,0,0,0,0,0.0295814,-0.197425,-0.308606,-1.66195,0.143004,1.32856,0.401696,0.155596,2.98346e-05,0.199149,-0.0480827,0.45133,-0.571748,-0.000661096,2.66956,-24.9373,4.51173,24.7095,2.30957,1.80627,0.00376909,-2.55731,0.253995,-1.38286,0.398383,-0.715815,-0.127306,-0.0750104,0.115643,-0.263743,-1.04519,0.207308,-0.83242,-0.00901677,
0.0426632,-0.198649,-0.295788,-1.66843,0.161963,-0.266777,-0.382856,0.371234,0.0094114,0.41597,-0.131225,0.973843,-0.906041,0.0081633,0,0,0,0,0,0,0,0.0347482,-0.197511,-0.301653,-1.66332,0.159975,1.31059,0.401697,0.175724,-0.00107913,0.228359,-0.0525175,0.56974,-0.551088,-0.000610744,2.72113,-24.7112,4.53554,24.7095,2.62085,1.58745,-0.0026396,-2.87701,0.554204,-0.931685,0.179173,-1.11341,-0.0250617,0.0302035,-0.172149,-0.140728,-0.873706,0.278084,-0.871696,-0.00558683,
0.04415,-0.198604,-0.294122,-1.66895,0.165887,-0.270294,-0.382824,0.371694,0.0111701,0.416688,-0.130045,0.980969,-0.879379,0.00799342,0,0,0,0,0,0,0,0.0347482,-0.197511,-0.301653,-1.66332,0.159975,1.31059,0.401697,0.175724,-0.00107913,0.228359,-0.0525175,0.56974,-0.551088,-0.000610744,2.72113,-24.7112,4.53554,24.7095,2.62085,1.58745,-0.0026396,-2.87701,0.554204,-0.931685,0.179173,-1.11341,-0.0250617,0.0302035,-0.172149,-0.140728,-0.873706,0.278084,-0.871696,-0.00558683,
0.0456373,-0.198553,-0.292453,-1.66946,0.169835,-0.273706,-0.382793,0.371828,0.0126898,0.417059,-0.128752,0.986974,-0.853083,0.00782993,0,0,0,0,0,0,0,0.0347482,-0.197511,-0.301653,-1.66332,0.159975,1.31059,0.401697,0.175724,-0.00107913,0.228359,-0.0525175,0.56974,-0.551088,-0.000610744,2.72113,-24.7112,4.53554,24.7095,2.62085,1.58745,-0.0026396,-2.50239,-0.0946358,-1.21363,0.731296,-0.693746,-0.267146,-0.202114,0.108435,-0.454227,-1.05107,0.284774,-0.88192,-0.00224745,
0.047124,-0.198497,-0.290785,-1.66997,0.173803,-0.277015,-0.382762,0.371676,0.0139941,0.417121,-0.127372,0.991981,-0.827179,0.00767442,0,0,0,0,0,0,0,0.0347482,-0.197511,-0.301653,-1.66332,0.159975,1.31059,0.401697,0.175724,-0.00107913,0.228359,-0.0525175,0.56974,-0.551088,-0.000610744,2.72113,-24.7112,4.53554,24.7095,2.62085,1.58745,-0.0026396,-3.04868,-0.586662,-1.13672,1.20695,-1.08533,-0.555031,-0.481009,-0.116318,-0.803334,-1.04154,0.372411,-0.94927,-0.00448691,
0.0486091,-0.198437,-0.289117,-1.67047,0.177787,-0.280222,-0.382732,0.37127,0.0151057,0.416912,-0.125922,0.996102,-0.801682,0.00752442,0,0,0,0,0,0,0,0.0347482,-0.197511,-0.301653,-1.66332,0.159975,1.31059,0.401697,0.175724,-0.00107913,0.228359,-0.0525175,0.56974,-0.551088,-0.000610744,2.72113,-24.7112,4.53554,24.7095,2.62085,1.58745,-0.0026396,-3.04868,-0.586662,-1.13672,1.20695,-1.08533,-0.555031,-0.481009,-0.116318,-0.803334,-1.04154,0.372411,-0.94927,-0.00448691,
0.0500917,-0.198373,-0.287451,-1.67097,0.181785,-0.283328,-0.382703,0.370641,0.0160462,0.416462,-0.124418,0.999437,-0.776596,0.00738154,0,0,0,0,0,0,0,0.0439765,-0.197433,-0.29076,-1.6657,0.184736,1.28938,0.401699,0.222017,0.00109084,0.269923,-0.0622023,0.561586,-0.435759,0.00022555,1.90784,-25.461,3.48817,24.8087,3.40271,1.67351,-0.0163725,-2.94283,-0.189623,-0.824592,1.00015,-1.17952,-0.372584,-0.299453,-0.244654,-0.607953,-0.909606,0.529466,-0.923358,-0.00760023,
0.0515709,-0.198306,-0.285788,-1.67146,0.185793,-0.286336,-0.382674,0.369816,0.0168352,0.4158,-0.122872,1.00208,-0.751925,0.00724286,0,0,0,0,0,0,0,0.0439765,-0.197433,-0.29076,-1.6657,0.184736,1.28938,0.401699,0.222017,0.00109084,0.269923,-0.0622023,0.561586,-0.435759,0.00022555,1.90784,-25.461,3.48817,24.8087,3.40271,1.67351,-0.0163725,-2.94283,-0.189623,-0.824592,1.00015,-1.17952,-0.372584,-0.299453,-0.244654,-0.607953,-0.909606,0.529466,-0.923358,-0.00760023,
0.0530462,-0.198236,-0.284128,-1.67195,0.18981,-0.289247,-0.382645,0.368818,0.0174907,0.414951,-0.121292,1.0041,-0.727668,0.0071106,0,0,0,0,0,0,0,0.0439765,-0.197433,-0.29076,-1.6657,0.184736,1.28938,0.401699,0.222017,0.00109084,0.269923,-0.0622023,0.561586,-0.435759,0.00022555,1.90784,-25.461,3.48817,24.8087,3.40271,1.67351,-0.0163725,-2.02338,1.18881,-0.958721,0.149421,-0.517175,0.341128,0.403986,0.127506,0.174096,-1.00925,0.766289,-0.883924,-0.007962,
0.0204407,-0.197933,-0.320682,-1.66066,0.104575,-0.194903,-0.383554,0.298107,-0.0726353,0.327845,-0.133134,0.4598,-0.783613,0.0120109,0,0,0,0,0,0,0,0.0439765,-0.197433,-0.29076,-1.6657,0.184736,1.28938,0.401699,0.222017,0.00109084,0.269923,-0.0622023,0.561586,-0.435759,0.00022555,1.90784,-25.461,3.48817,24.8087,3.40271,1.67351,-0.0163725,-2.11548,2.06705,-0.855769,-0.38981,-0.667807,0.710772,0.78412,0.0175274,0.576936,-0.948452,0.934385,-0.881535,-0.00505782,
0.0479304,-0.197846,-0.286379,-1.6672,0.191251,-0.288034,-0.383566,0.365104,-0.039422,0.406985,-0.139757,0.556398,-0.603787,0.0109921,0,0,0,0,0,0,0,0.0439765,-0.197433,-0.29076,-1.6657,0.184736,1.28938,0.401699,0.222017,0.00109084,0.269923,-0.0622023,0.561586,-0.435759,0.00022555,1.90784,-25.461,3.48817,24.8087,3.40271,1.67351,-0.0163725,-2.11548,2.06705,-0.855769,-0.38981,-0.667807,0.710772,0.78412,0.0175274,0.576936,-0.948452,0.934385,-0.881535,-0.00505782,
0.0494958,-0.197999,-0.284627,-1.66779,0.193591,-0.2906,-0.383523,0.391343,-0.038216,0.437961,-0.146677,0.584895,-0.641533,0.0107017,0,0,0,0,0,0,0,0.0439765,-0.197433,-0.29076,-1.6657,0.184736,1.28938,0.401699,0.222017,0.00109084,0.269923,-0.0622023,0.561586,-0.435759,0.00022555,1.90784,-25.461,3.48817,24.8087,3.40271,1.67351,-0.0163725,-1.98304,1.9099,-1.13757,-0.206827,-0.484931,0.643056,0.72608,0.148352,0.47543,-1.04546,0.971292,-0.847979,-0.00723147,
0.0511465,-0.198139,-0.282775,-1.66839,0.196064,-0.293285,-0.383482,0.412675,-0.0350846,0.462958,-0.151246,0.618403,-0.671253,0.0103964,0,0,0,0,0,0,0,0.0509353,-0.197318,-0.282098,-1.66748,0.202081,1.27643,0.401698,0.233479,0.00851659,0.279918,-0.0522926,0.520502,-0.395555,-0.00109994,0.793033,-26.1592,2.1869,24.7095,2.8717,1.91247,-0.00996382,-1.98304,1.9099,-1.13757,-0.206827,-0.484931,0.643056,0.72608,0.148352,0.47543,-1.04546,0.971292,-0.847979,-0.00723147,
0.0528674,-0.198265,-0.280842,-1.66901,0.19868,-0.296043,-0.383441,0.430229,-0.0313839,0.483375,-0.155345,0.65383,-0.689662,0.0101278,0,0,0,0,0,0,0,0.0509353,-0.197318,-0.282098,-1.66748,0.202081,1.27643,0.401698,0.233479,0.00851659,0.279918,-0.0522926,0.520502,-0.395555,-0.00109994,0.793033,-26.1592,2.1869,24.7095,2.8717,1.91247,-0.00996382,-1.58491,2.66361,-1.17659,-0.668746,-0.22002,1.01289,1.08042,0.291619,0.890664,-1.06895,1.11185,-0.818043,-0.00948199,
0.0546465,-0.198375,-0.278841,-1.66965,0.201436,-0.298829,-0.383402,0.444771,-0.0275217,0.500171,-0.159211,0.689149,-0.69643,0.00991225,0,0,0,0,0,0,0,0.0509353,-0.197318,-0.282098,-1.66748,0.202081,1.27643,0.401698,0.233479,0.00851659,0.279918,-0.0522926,0.520502,-0.395555,-0.00109994,0.793033,-26.1592,2.1869,24.7095,2.8717,1.91247,-0.00996382,-2.90065,1.14495,-0.732008,0.256002,-1.41364,0.17276,0.243681,-0.486694,-0.0099039,-0.695677,0.908337,-0.73704,-0.00402492,
0.0564736,-0.198468,-0.276785,-1.6703,0.204329,-0.301613,-0.383363,0.456776,-0.0233303,0.513966,-0.161963,0.723108,-0.695938,0.00964414,0,0,0,0,0,0,0,0.0509353,-0.197318,-0.282098,-1.66748,0.202081,1.27643,0.401698,0.233479,0.00851659,0.279918,-0.0522926,0.520502,-0.395555,-0.00109994,0.793033,-26.1592,2.1869,24.7095,2.8717,1.91247,-0.00996382,-2.90065,1.14495,-0.732008,0.256002,-1.41364,0.17276,0.243681,-0.486694,-0.0099039,-0.695677,0.908337,-0.73704,-0.00402492,
0.0583407,-0.198546,-0.274683,-1.67096,0.207348,-0.30435,-0.383325,0.466784,-0.0194666,0.525423,-0.164812,0.75492,-0.684366,0.00943929,0,0,0,0,0,0,0,0.0509353,-0.197318,-0.282098,-1.66748,0.202081,1.27643,0.401698,0.233479,0.00851659,0.279918,-0.0522926,0.520502,-0.395555,-0.00109994,0.793033,-26.1592,2.1869,24.7095,2.8717,1.91247,-0.00996382,-2.62735,-0.0585058,-1.28279,0.989502,-0.992016,-0.324884,-0.210513,-0.180223,-0.603453,-0.877218,0.651833,-0.66083,0.00116887,
0.0602407,-0.198608,-0.272544,-1.67162,0.210485,-0.30702,-0.383288,0.475007,-0.0155036,0.534838,-0.166572,0.784198,-0.66739,0.00924159,0,0,0,0,0,0,0,0.0589066,-0.197414,-0.272452,-1.66942,0.213466,1.26644,0.401699,0.263647,0.000624411,0.339586,-0.075725,0.357364,-0.29978,-3.34779e-05,0.868412,-25.3618,2.48842,24.4635,2.71881,1.4016,-0.0227812,-2.62735,-0.0585058,-1.28279,0.989502,-0.992016,-0.324884,-0.210513,-0.180223,-0.603453,-0.877218,0.651833,-0.66083,0.00116887,
0.0621674,-0.198654,-0.270374,-1.67229,0.213728,-0.30961,-0.383252,0.481683,-0.0115425,0.542517,-0.167279,0.810796,-0.647595,0.00905209,0,0,0,0,0,0,0,0.0589066,-0.197414,-0.272452,-1.66942,0.213466,1.26644,0.401699,0.263647,0.000624411,0.339586,-0.075725,0.357364,-0.29978,-3.34779e-05,0.868412,-25.3618,2.48842,24.4635,2.71881,1.4016,-0.0227812,-2.70526,-0.0789084,-0.975329,0.919845,-1.18009,-0.327387,-0.233267,-0.338649,-0.571784,-0.728592,0.612736,-0.639036,-0.000274568,
0.0641156,-0.198685,-0.268179,-1.67296,0.217067,-0.312115,-0.383217,0.487035,-0.00773769,0.548722,-0.16719,0.834714,-0.6263,0.00887197,0,0,0,0,0,0,0,0.0589066,-0.197414,-0.272452,-1.66942,0.213466,1.26644,0.401699,0.263647,0.000624411,0.339586,-0.075725,0.357364,-0.29978,-3.34779e-05,0.868412,-25.3618,2.48842,24.4635,2.71881,1.4016,-0.0227812,-2.481,0.277509,-1.19596,0.642838,-0.861132,-0.105418,-0.0265971,-0.0865182,-0.312906,-0.889495,0.593779,-0.701889,-0.00666291,
0.0660806,-0.198702,-0.265964,-1.67363,0.220491,-0.314532,-0.383182,0.491253,-0.0041964,0.553672,-0.166538,0.856039,-0.604233,0.00870367,0,0,0,0,0,0,0,0.0589066,-0.197414,-0.272452,-1.66942,0.213466,1.26644,0.401699,0.263647,0.000624411,0.339586,-0.075725,0.357364,-0.29978,-3.34779e-05,0.868412,-25.3618,2.48842,24.4635,2.71881,1.4016,-0.0227812,-2.481,0.277509,-1.19596,0.642838,-0.861132,-0.105418,-0.0265971,-0.0865182,-0.312906,-0.889495,0.593779,-0.701889,-0.00666291,
0.0680586,-0.198706,-0.263734,-1.67429,0.223991,-0.31686,-0.383148,0.494498,-0.000973975,0.557549,-0.165492,0.874913,-0.581814,0.0085439,0,0,0,0,0,0,0,0.0589066,-0.197414,-0.272452,-1.66942,0.213466,1.26644,0.401699,0.263647,0.000624411,0.339586,-0.075725,0.357364,-0.29978,-3.34779e-05,0.868412,-25.3618,2.48842,24.4635,2.71881,1.4016,-0.0227812,-2.38334,-0.117793,-1.3571,0.814225,-0.65839,-0.225998,-0.143906,0.0782061,-0.443865,-0.995027,0.444085,-0.737239,-0.011498,
0.0700462,-0.198698,-0.261492,-1.67495,0.227557,-0.319097,-0.383114,0.496904,0.00191095,0.560503,-0.164167,0.891505,-0.559293,0.00839594,0,0,0,0,0,0,0,0.0680013,-0.197478,-0.261467,-1.67175,0.226647,1.25765,0.401701,0.30006,-0.00228417,0.351976,-0.0771422,0.484721,-0.252901,2.10324e-05,2.59418,-24.8619,4.18641,24.4357,2.56042,1.42815,-0.0365141,-2.38334,-0.117793,-1.3571,0.814225,-0.65839,-0.225998,-0.143906,0.0782061,-0.443865,-0.995027,0.444085,-0.737239,-0.011498,
0.0720406,-0.19868,-0.259242,-1.6756,0.231181,-0.321244,-0.383081,0.498587,0.00446311,0.562664,-0.162642,0.906,-0.536824,0.00825748,0,0,0,0,0,0,0,0.0680013,-0.197478,-0.261467,-1.67175,0.226647,1.25765,0.401701,0.30006,-0.00228417,0.351976,-0.0771422,0.484721,-0.252901,2.10324e-05,2.59418,-24.8619,4.18641,24.4357,2.56042,1.42815,-0.0365141,-2.28666,-0.311714,-1.45041,0.833469,-0.49326,-0.261281,-0.186088,0.212112,-0.465502,-1.068,0.309527,-0.769416,-0.0115562,
0.0740391,-0.198654,-0.256985,-1.67624,0.234855,-0.323302,-0.383049,0.499641,0.00670035,0.564137,-0.160969,0.918585,-0.514502,0.00812583,0,0,0,0,0,0,0,0.0680013,-0.197478,-0.261467,-1.67175,0.226647,1.25765,0.401701,0.30006,-0.00228417,0.351976,-0.0771422,0.484721,-0.252901,2.10324e-05,2.59418,-24.8619,4.18641,24.4357,2.56042,1.42815,-0.0365141,-2.28666,-0.311714,-1.45041,0.833469,-0.49326,-0.261281,-0.186088,0.212112,-0.465502,-1.068,0.309527,-0.769416,-0.0115562,
0.0760397,-0.198619,-0.254725,-1.67688,0.238573,-0.325272,-0.383017,0.500151,0.0086473,0.565015,-0.159183,0.92944,-0.49239,0.00800275,0,0,0,0,0,0,0,0.0680013,-0.197478,-0.261467,-1.67175,0.226647,1.25765,0.401701,0.30006,-0.00228417,0.351976,-0.0771422,0.484721,-0.252901,2.10324e-05,2.59418,-24.8619,4.18641,24.4357,2.56042,1.42815,-0.0365141,-2.03561,0.196998,-1.46655,0.438619,-0.232701,0.0312175,0.101523,0.40306,-0.133037,-1.16162,0.31394,-0.840612,-0.00985675,
0.0780405,-0.198578,-0.252463,-1.67751,0.242328,-0.327154,-0.382985,0.500188,0.0103308,0.565376,-0.157312,0.93874,-0.47053,0.00788791,0,0,0,0,0,0,0,0.0680013,-0.197478,-0.261467,-1.67175,0.226647,1.25765,0.401701,0.30006,-0.00228417,0.351976,-0.0771422,0.484721,-0.252901,2.10324e-05,2.59418,-24.8619,4.18641,24.4357,2.56042,1.42815,-0.0365141,-2.03561,0.196998,-1.46655,0.438619,-0.232701,0.0312175,0.101523,0.40306,-0.133037,-1.16162,0.31394,-0.840612,-0.00985675,
0.0800397,-0.198531,-0.250202,-1.67813,0.246115,-0.32895,-0.382954,0.499811,0.0117782,0.565287,-0.155375,0.946648,-0.448951,0.00777828,0,0,0,0,0,0,0,0.0680013,-0.197478,-0.261467,-1.67175,0.226647,1.25765,0.401701,0.30006,-0.00228417,0.351976,-0.0771422,0.484721,-0.252901,2.10324e-05,2.59418,-24.8619,4.18641,24.4357,2.56042,1.42815,-0.0365141,-2.13151,0.688473,-1.55754,0.112545,-0.208847,0.269406,0.341601,0.469293,0.129552,-1.2535,0.364177,-0.916917,-0.00657311,
0.082036,-0.198478,-0.247943,-1.67874,0.249928,-0.33066,-0.382923,0.499076,0.0130156,0.564805,-0.153386,0.953314,-0.427675,0.00767562,0,0,0,0,0,0,0,0.0777077,-0.197436,-0.249758,-1.6741,0.243963,1.25183,0.401707,0.307614,-0.000573395,0.368239,-0.0729146,0.574591,-0.130313,0.000552632,2.94727,-25.461,4.13881,24.1382,2.87811,1.38878,-0.0566557,-2.2035,0.293468,-1.47233,0.421002,-0.306763,0.0827054,0.170503,0.379167,-0.100371,-1.20194,0.382418,-0.894042,-0.00685413,
0.0840281,-0.198422,-0.245687,-1.67935,0.253763,-0.332287,-0.382893,0.498027,0.0140672,0.563983,-0.151358,0.958876,-0.40672,0.00757682,0,0,0,0,0,0,0,0.0777077,-0.197436,-0.249758,-1.6741,0.243963,1.25183,0.401707,0.307614,-0.000573395,0.368239,-0.0729146,0.574591,-0.130313,0.000552632,2.94727,-25.461,4.13881,24.1382,2.87811,1.38878,-0.0566557,-2.2035,0.293468,-1.47233,0.421002,-0.306763,0.0827054,0.170503,0.379167,-0.100371,-1.20194,0.382418,-0.894042,-0.00685413,
0.0860149,-0.198362,-0.243436,-1.67995,0.257617,-0.333832,-0.382863,0.496705,0.0149552,0.562863,-0.1493,0.963458,-0.386096,0.00748531,0,0,0,0,0,0,0,0.0777077,-0.197436,-0.249758,-1.6741,0.243963,1.25183,0.401707,0.307614,-0.000573395,0.368239,-0.0729146,0.574591,-0.130313,0.000552632,2.94727,-25.461,4.13881,24.1382,2.87811,1.38878,-0.0566557,-2.58551,-1.38275,-1.54704,1.70841,-0.512009,-0.723344,-0.636957,0.238122,-1.0306,-1.23475,0.358932,-0.9059,-0.00667462,
0.0879966,-0.1983,-0.241189,-1.68053,0.261476,-0.335295,-0.382834,0.495419,0.0156236,0.561621,-0.147115,0.964685,-0.36579,0.00736313,0,0,0,0,0,0,0,0.0777077,-0.197436,-0.249758,-1.6741,0.243963,1.25183,0.401707,0.307614,-0.000573395,0.368239,-0.0729146,0.574591,-0.130313,0.000552632,2.94727,-25.461,4.13881,24.1382,2.87811,1.38878,-0.0566557,-2.58551,-1.38275,-1.54704,1.70841,-0.512009,-0.723344,-0.636957,0.238122,-1.0306,-1.23475,0.358932,-0.9059,-0.00667462,
0.0899755,-0.198236,-0.238947,-1.68111,0.265303,-0.336678,-0.382805,0.494712,0.0159196,0.560646,-0.14459,0.956828,-0.345755,0.00716169,0,0,0,0,0,0,0,0.0777077,-0.197436,-0.249758,-1.6741,0.243963,1.25183,0.401707,0.307614,-0.000573395,0.368239,-0.0729146,0.574591,-0.130313,0.000552632,2.94727,-25.461,4.13881,24.1382,2.87811,1.38878,-0.0566557,-2.85456,-0.467569,-0.977024,1.14095,-0.985696,-0.332869,-0.256257,-0.125511,-0.581838,-0.9712,0.56627,-0.894294,-0.0111455,
0.0919511,-0.198172,-0.236707,-1.68168,0.269078,-0.337982,-0.382777,0.493903,0.0159899,0.559826,-0.141974,0.94356,-0.32608,0.00698263,0,0,0,0,0,0,0,0.088781,-0.197343,-0.236375,-1.67673,0.262915,1.24904,0.401706,0.32875,0.00044418,0.412859,-0.086353,0.571433,-0.0506995,0.000933494,2.51484,-25.9847,3.4366,24.2374,3.36059,1.38238,-0.050247,-2.70892,0.594084,-1.11767,0.476971,-0.849463,0.156027,0.242734,-0.0137126,-0.0518654,-1.02889,0.729332,-0.890259,-0.0126207,
0.0939226,-0.198109,-0.234472,-1.68224,0.272786,-0.339209,-0.38275,0.492869,0.0159272,0.558926,-0.13937,0.927024,-0.306821,0.00682685,0,0,0,0,0,0,0,0.088781,-0.197343,-0.236375,-1.67673,0.262915,1.24904,0.401706,0.32875,0.00044418,0.412859,-0.086353,0.571433,-0.0506995,0.000933494,2.51484,-25.9847,3.4366,24.2374,3.36059,1.38238,-0.050247,-2.70892,0.594084,-1.11767,0.476971,-0.849463,0.156027,0.242734,-0.0137126,-0.0518654,-1.02889,0.729332,-0.890259,-0.0126207,
0.0958888,-0.198045,-0.23224,-1.68278,0.27642,-0.340361,-0.382723,0.491572,0.0157895,0.557828,-0.136822,0.908511,-0.288006,0.0066851,0,0,0,0,0,0,0,0.088781,-0.197343,-0.236375,-1.67673,0.262915,1.24904,0.401706,0.32875,0.00044418,0.412859,-0.086353,0.571433,-0.0506995,0.000933494,2.51484,-25.9847,3.4366,24.2374,3.36059,1.38238,-0.050247,-2.74015,0.318674,-1.34735,0.772292,-0.756955,0.0142455,0.105201,0.0667921,-0.236083,-1.13905,0.798182,-0.901401,-0.00719872,
0.0484217,-0.198159,-0.28586,-1.66777,0.19052,-0.285198,-0.38357,0.419091,-0.0660643,0.466119,-0.188756,0.479436,-0.293159,0.0106201,0,0,0,0,0,0,0,0.088781,-0.197343,-0.236375,-1.67673,0.262915,1.24904,0.401706,0.32875,0.00044418,0.412859,-0.086353,0.571433,-0.0506995,0.000933494,2.51484,-25.9847,3.4366,24.2374,3.36059,1.38238,-0.050247,-2.74015,0.318674,-1.34735,0.772292,-0.756955,0.0142455,0.105201,0.0667921,-0.236083,-1.13905,0.798182,-0.901401,-0.00719872,
0.0940708,-0.197771,-0.23043,-1.67865,0.269617,-0.322281,-0.383573,0.474626,-0.0385722,0.534973,-0.173056,0.570862,-0.0596249,0.00986566,0,0,0,0,0,0,0,0.088781,-0.197343,-0.236375,-1.67673,0.262915,1.24904,0.401706,0.32875,0.00044418,0.412859,-0.086353,0.571433,-0.0506995,0.000933494,2.51484,-25.9847,3.4366,24.2374,3.36059,1.38238,-0.050247,-2.31074,0.601253,-1.14812,0.615447,-0.534644,0.165795,0.243072,0.149196,-0.0650885,-1.0853,0.891252,-0.870298,-0.00465631,
0.0960671,-0.197914,-0.228174,-1.67936,0.272001,-0.322583,-0.383534,0.499093,-0.0357964,0.564018,-0.1769,0.596027,-0.0755851,0.00968241,0,0,0,0,0,0,0,0.088781,-0.197343,-0.236375,-1.67673,0.262915,1.24904,0.401706,0.32875,0.00044418,0.412859,-0.086353,0.571433,-0.0506995,0.000933494,2.51484,-25.9847,3.4366,24.2374,3.36059,1.38238,-0.050247,-2.31074,0.601253,-1.14812,0.615447,-0.534644,0.165795,0.243072,0.149196,-0.0650885,-1.0853,0.891252,-0.870298,-0.00465631,
0.0981425,-0.198043,-0.225824,-1.68008,0.274503,-0.322923,-0.383496,0.518847,-0.0320501,0.587334,-0.179461,0.625504,-0.0849846,0.00960013,0,0,0,0,0,0,0,0.103206,-0.197101,-0.219161,-1.68015,0.285339,1.24858,0.401703,0.344311,-0.0025598,0.403963,-0.0832335,0.453287,0.006527,-0.0010742,-1.36517,-26.433,-0.510851,24.4635,2.13836,1.19652,-0.00996382,-1.77791,2.7524,-0.838059,-0.851698,-0.297949,1.19296,1.26041,0.282551,1.09469,-1.0071,1.13358,-0.875216,-0.00885321,
0.100282,-0.198153,-0.2234,-1.6808,0.277129,-0.323287,-0.383458,0.534758,-0.0276479,0.606051,-0.18059,0.656659,-0.0910798,0.00941945,0,0,0,0,0,0,0,0.103206,-0.197101,-0.219161,-1.68015,0.285339,1.24858,0.401703,0.344311,-0.0025598,0.403963,-0.0832335,0.453287,0.006527,-0.0010742,-1.36517,-26.433,-0.510851,24.4635,2.13836,1.19652,-0.00996382,-1.14743,2.87435,-0.978797,-0.920494,0.243394,1.28604,1.32697,0.615999,1.20691,-1.12624,1.16344,-0.867648,-0.00893444,
0.102472,-0.198247,-0.220915,-1.68153,0.27988,-0.323642,-0.383421,0.547731,-0.0235291,0.621218,-0.181894,0.68771,-0.0887077,0.00930047,0,0,0,0,0,0,0,0.103206,-0.197101,-0.219161,-1.68015,0.285339,1.24858,0.401703,0.344311,-0.0025598,0.403963,-0.0832335,0.453287,0.006527,-0.0010742,-1.36517,-26.433,-0.510851,24.4635,2.13836,1.19652,-0.00996382,-1.14743,2.87435,-0.978797,-0.920494,0.243394,1.28604,1.32697,0.615999,1.20691,-1.12624,1.16344,-0.867648,-0.00893444,
0.104705,-0.198325,-0.218381,-1.68226,0.282751,-0.323972,-0.383384,0.558166,-0.0193737,0.633435,-0.182367,0.717556,-0.0824783,0.00918989,0,0,0,0,0,0,0,0.103206,-0.197101,-0.219161,-1.68015,0.285339,1.24858,0.401703,0.344311,-0.0025598,0.403963,-0.0832335,0.453287,0.006527,-0.0010742,-1.36517,-26.433,-0.510851,24.4635,2.13836,1.19652,-0.00996382,-2.06764,-1.29366,-1.21835,1.85252,-0.335478,-0.670293,-0.601338,0.191129,-0.998919,-1.06681,0.68996,-0.770533,-0.00572577,
0.106971,-0.198386,-0.215809,-1.68299,0.285732,-0.324269,-0.383348,0.566487,-0.0153073,0.643211,-0.182056,0.745432,-0.0742486,0.00908383,0,0,0,0,0,0,0,0.103206,-0.197101,-0.219161,-1.68015,0.285339,1.24858,0.401703,0.344311,-0.0025598,0.403963,-0.0832335,0.453287,0.006527,-0.0010742,-1.36517,-26.433,-0.510851,24.4635,2.13836,1.19652,-0.00996382,-2.06764,-1.29366,-1.21835,1.85252,-0.335478,-0.670293,-0.601338,0.191129,-0.998919,-1.06681,0.68996,-0.770533,-0.00572577,
0.109269,-0.198434,-0.213202,-1.68371,0.288762,-0.324528,-0.383313,0.574523,-0.0118665,0.651691,-0.180534,0.757318,-0.0646989,0.00881097,0,0,0,0,0,0,0,0.114787,-0.197162,-0.205087,-1.68283,0.296522,1.24931,0.401706,0.372305,-0.00578282,0.465212,-0.0906987,0.365141,0.0513164,-0.000139449,0.816837,-25.6593,1.98854,23.5907,2.96325,1.22307,-0.0429228,-2.43957,-0.97145,-1.56467,1.53806,-0.486553,-0.511117,-0.394136,0.180215,-0.843346,-1.14447,0.61595,-0.770164,-0.00910477,
0.111594,-0.198469,-0.210565,-1.68442,0.291799,-0.324745,-0.383279,0.581209,-0.00894865,0.659088,-0.178491,0.759345,-0.0543717,0.00857828,0,0,0,0,0,0,0,0.114787,-0.197162,-0.205087,-1.68283,0.296522,1.24931,0.401706,0.372305,-0.00578282,0.465212,-0.0906987,0.365141,0.0513164,-0.000139449,0.816837,-25.6593,1.98854,23.5907,2.96325,1.22307,-0.0429228,-2.83772,-0.177358,-1.72194,0.942548,-0.705528,-0.139893,-0.059909,0.130344,-0.381374,-1.18604,0.647534,-0.813057,-0.0132446,
0.11394,-0.198495,-0.207904,-1.68513,0.294819,-0.32492,-0.383245,0.586523,-0.00645788,0.665232,-0.176233,0.755103,-0.0435883,0.00837417,0,0,0,0,0,0,0,0.114787,-0.197162,-0.205087,-1.68283,0.296522,1.24931,0.401706,0.372305,-0.00578282,0.465212,-0.0906987,0.365141,0.0513164,-0.000139449,0.816837,-25.6593,1.98854,23.5907,2.96325,1.22307,-0.0429228,-2.83772,-0.177358,-1.72194,0.942548,-0.705528,-0.139893,-0.059909,0.130344,-0.381374,-1.18604,0.647534,-0.813057,-0.0132446,
0.116302,-0.198512,-0.205224,-1.68582,0.297806,-0.32505,-0.383212,0.590557,-0.00431693,0.670102,-0.173904,0.746781,-0.0325306,0.00819491,0,0,0,0,0,0,0,0.114787,-0.197162,-0.205087,-1.68283,0.296522,1.24931,0.401706,0.372305,-0.00578282,0.465212,-0.0906987,0.365141,0.0513164,-0.000139449,0.816837,-25.6593,1.98854,23.5907,2.96325,1.22307,-0.0429228,-2.91675,0.559352,-1.77589,0.330802,-0.734017,0.233368,0.279502,0.170533,0.0847773,-1.20636,0.626889,-0.840314,-0.0151031,
0.118676,-0.198522,-0.202529,-1.68651,0.300749,-0.325135,-0.38318,0.593441,-0.00246642,0.673771,-0.171569,0.735741,-0.0213,0.00803374,0,0,0,0,0,0,0,0.114787,-0.197162,-0.205087,-1.68283,0.296522,1.24931,0.401706,0.372305,-0.00578282,0.465212,-0.0906987,0.365141,0.0513164,-0.000139449,0.816837,-25.6593,1.98854,23.5907,2.96325,1.22307,-0.0429228,-2.91675,0.559352,-1.77589,0.330802,-0.734017,0.233368,0.279502,0.170533,0.0847773,-1.20636,0.626889,-0.840314,-0.0151031,
0.121057,-0.198526,-0.199824,-1.68719,0.303641,-0.325175,-0.383149,0.595311,-0.000860767,0.676351,-0.169253,0.722856,-0.00995677,0.00788282,0,0,0,0,0,0,0,0.126978,-0.197143,-0.190872,-1.68587,0.309642,1.25163,0.401706,0.390471,-0.00221087,0.4582,-0.0938493,0.477561,0.0708773,0.000487771,1.47541,-26.0362,2.33766,23.9636,2.56042,1.36864,-0.0429228,-2.37255,0.515941,-2.00743,0.209193,-0.264197,0.258058,0.299262,0.472057,0.132172,-1.29895,0.481188,-0.792263,-0.0111203,
0.123443,-0.198524,-0.197112,-1.68785,0.306476,-0.325169,-0.383118,0.596299,0.000535892,0.677968,-0.166966,0.708712,0.00146021,0.00774122,0,0,0,0,0,0,0,0.126978,-0.197143,-0.190872,-1.68587,0.309642,1.25163,0.401706,0.390471,-0.00221087,0.4582,-0.0938493,0.477561,0.0708773,0.000487771,1.47541,-26.0362,2.33766,23.9636,2.56042,1.36864,-0.0429228,-2.00339,0.0412843,-2.5346,0.424811,0.186231,0.0565423,0.093723,0.787826,-0.0816329,-1.47878,0.327248,-0.730037,-0.0101245,
0.125829,-0.198517,-0.194397,-1.68851,0.309251,-0.325117,-0.383087,0.596526,0.00175254,0.67874,-0.164709,0.693732,0.01292,0.00760825,0,0,0,0,0,0,0,0.126978,-0.197143,-0.190872,-1.68587,0.309642,1.25163,0.401706,0.390471,-0.00221087,0.4582,-0.0938493,0.477561,0.0708773,0.000487771,1.47541,-26.0362,2.33766,23.9636,2.56042,1.36864,-0.0429228,-2.00339,0.0412843,-2.5346,0.424811,0.186231,0.0565423,0.093723,0.787826,-0.0816329,-1.47878,0.327248,-0.730037,-0.0101245,
0.128213,-0.198505,-0.191682,-1.68916,0.311964,-0.32502,-0.383057,0.596092,0.00281465,0.678781,-0.162481,0.678267,0.0243943,0.00747898,0,0,0,0,0,0,0,0.126978,-0.197143,-0.190872,-1.68587,0.309642,1.25163,0.401706,0.390471,-0.00221087,0.4582,-0.0938493,0.477561,0.0708773,0.000487771,1.47541,-26.0362,2.33766,23.9636,2.56042,1.36864,-0.0429228,-2.12895,-0.315572,-2.19605,0.640836,-0.0928533,-0.107684,-0.0666533,0.537,-0.259447,-1.27972,0.297112,-0.668865,-0.0112645,
0.130593,-0.19849,-0.188969,-1.6898,0.314614,-0.324876,-0.383028,0.595082,0.00374656,0.678182,-0.160284,0.662686,0.035854,0.0073557,0,0,0,0,0,0,0,0.126978,-0.197143,-0.190872,-1.68587,0.309642,1.25163,0.401706,0.390471,-0.00221087,0.4582,-0.0938493,0.477561,0.0708773,0.000487771,1.47541,-26.0362,2.33766,23.9636,2.56042,1.36864,-0.0429228,-2.12895,-0.315572,-2.19605,0.640836,-0.0928533,-0.107684,-0.0666533,0.537,-0.259447,-1.27972,0.297112,-0.668865,-0.0112645,
0.132968,-0.198472,-0.186261,-1.69044,0.317204,-0.324687,-0.382999,0.593551,0.00457551,0.67701,-0.158131,0.647497,0.0472644,0.00723196,0,0,0,0,0,0,0,0.126978,-0.197143,-0.190872,-1.68587,0.309642,1.25163,0.401706,0.390471,-0.00221087,0.4582,-0.0938493,0.477561,0.0708773,0.000487771,1.47541,-26.0362,2.33766,23.9636,2.56042,1.36864,-0.0429228,-2.08,-0.810562,-2.0979,0.979906,-0.158964,-0.34862,-0.303348,0.428525,-0.531252,-1.17275,0.27069,-0.58382,-0.0131848,
0.135334,-0.198451,-0.18356,-1.69106,0.319739,-0.324453,-0.38297,0.591496,0.00533771,0.675302,-0.156053,0.633591,0.0585848,0.007145,0,0,0,0,0,0,0,0.13981,-0.197038,-0.175716,-1.68862,0.323944,1.25409,0.401706,0.407661,0.00702345,0.512324,-0.0839904,0.44464,0.0797767,4.21014e-05,1.01917,-27.0082,1.7386,24.6103,3.08502,1.48858,-0.0365141,-2.18371,-0.172433,-2.24764,0.567233,-0.250922,-0.0822719,-0.0359494,0.396782,-0.231019,-1.15093,0.363726,-0.514337,-0.0153483,
0.13769,-0.198427,-0.180867,-1.69168,0.322217,-0.324174,-0.382942,0.589159,0.00600561,0.673208,-0.153956,0.619531,0.0698045,0.00710591,0,0,0,0,0,0,0,0.13981,-0.197038,-0.175716,-1.68862,0.323944,1.25409,0.401706,0.407661,0.00702345,0.512324,-0.0839904,0.44464,0.0797767,4.21014e-05,1.01917,-27.0082,1.7386,24.6103,3.08502,1.48858,-0.0365141,-2.18371,-0.172433,-2.24764,0.567233,-0.250922,-0.0822719,-0.0359494,0.396782,-0.231019,-1.15093,0.363726,-0.514337,-0.0153483,
0.140039,-0.198401,-0.178182,-1.69228,0.324615,-0.32385,-0.382914,0.587178,0.0064293,0.671107,-0.151545,0.599489,0.0809844,0.00697735,0,0,0,0,0,0,0,0.13981,-0.197038,-0.175716,-1.68862,0.323944,1.25409,0.401706,0.407661,0.00702345,0.512324,-0.0839904,0.44464,0.0797767,4.21014e-05,1.01917,-27.0082,1.7386,24.6103,3.08502,1.48858,-0.0365141,-2.39011,-0.162842,-1.96266,0.620709,-0.592262,-0.110071,-0.056134,0.115657,-0.268332,-0.947,0.443122,-0.428999,-0.0123307,
0.142379,-0.198374,-0.175506,-1.69288,0.326921,-0.323481,-0.382887,0.584976,0.00669002,0.668982,-0.149113,0.576646,0.0920662,0.00684269,0,0,0,0,0,0,0,0.13981,-0.197038,-0.175716,-1.68862,0.323944,1.25409,0.401706,0.407661,0.00702345,0.512324,-0.0839904,0.44464,0.0797767,4.21014e-05,1.01917,-27.0082,1.7386,24.6103,3.08502,1.48858,-0.0365141,-2.39011,-0.162842,-1.96266,0.620709,-0.592262,-0.110071,-0.056134,0.115657,-0.268332,-0.947,0.443122,-0.428999,-0.0123307,
0.144709,-0.198347,-0.17284,-1.69347,0.329132,-0.323069,-0.38286,0.582505,0.00685363,0.66668,-0.146743,0.552615,0.102991,0.00672611,0,0,0,0,0,0,0,0.13981,-0.197038,-0.175716,-1.68862,0.323944,1.25409,0.401706,0.407661,0.00702345,0.512324,-0.0839904,0.44464,0.0797767,4.21014e-05,1.01917,-27.0082,1.7386,24.6103,3.08502,1.48858,-0.0365141,-2.37348,-0.397613,-2.23795,0.818725,-0.514046,-0.253743,-0.221833,0.167162,-0.415453,-0.999053,0.469526,-0.360565,-0.00830792,
0.147028,-0.198319,-0.170183,-1.69404,0.331245,-0.322615,-0.382833,0.579777,0.00696292,0.664144,-0.144452,0.528226,0.113721,0.00662141,0,0,0,0,0,0,0,0.154311,-0.196672,-0.158748,-1.69107,0.336582,1.25604,0.401703,0.43137,0.0137464,0.521344,-0.0709735,0.33683,0.0511376,-0.000609109,1.57856,-27.2066,2.33766,24.5865,3.47046,1.60119,-0.0163725,-2.37348,-0.397613,-2.23795,0.818725,-0.514046,-0.253743,-0.221833,0.167162,-0.415453,-0.999053,0.469526,-0.360565,-0.00830792,
0.149335,-0.198291,-0.167538,-1.69461,0.33326,-0.322118,-0.382807,0.576822,0.00704242,0.661374,-0.142237,0.503898,0.124238,0.00651587,0,0,0,0,0,0,0,0.154311,-0.196672,-0.158748,-1.69107,0.336582,1.25604,0.401703,0.43137,0.0137464,0.521344,-0.0709735,0.33683,0.0511376,-0.000609109,1.57856,-27.2066,2.33766,24.5865,3.47046,1.60119,-0.0163725,-2.2185,1.31085,-2.27285,-0.325339,-0.448076,0.517299,0.537237,0.268954,0.461025,-0.978339,0.660718,-0.315599,-0.0123606,
0.15163,-0.198262,-0.164904,-1.69517,0.33518,-0.32158,-0.382781,0.573675,0.00710557,0.658387,-0.140089,0.479838,0.134537,0.00641787,0,0,0,0,0,0,0,0.154311,-0.196672,-0.158748,-1.69107,0.336582,1.25604,0.401703,0.43137,0.0137464,0.521344,-0.0709735,0.33683,0.0511376,-0.000609109,1.57856,-27.2066,2.33766,24.5865,3.47046,1.60119,-0.0163725,-2.2185,1.31085,-2.27285,-0.325339,-0.448076,0.517299,0.537237,0.268954,0.461025,-0.978339,0.660718,-0.315599,-0.0123606,
0.0944941,-0.197976,-0.23,-1.67894,0.267944,-0.320174,-0.383574,0.519984,-0.0558065,0.584102,-0.195556,0.381144,0.167514,0.00970593,0,0,0,0,0,0,0,0.154311,-0.196672,-0.158748,-1.69107,0.336582,1.25604,0.401703,0.43137,0.0137464,0.521344,-0.0709735,0.33683,0.0511376,-0.000609109,1.57856,-27.2066,2.33766,24.5865,3.47046,1.60119,-0.0163725,-2.64144,0.284646,-2.31771,0.438936,-0.751751,0.0321394,0.0552953,0.0387434,-0.0937725,-0.931294,0.643354,-0.280387,-0.0143743,
0.160642,-0.19703,-0.151548,-1.69316,0.340353,-0.312457,-0.383578,0.558355,-0.0323503,0.635939,-0.188568,0.309753,0.220024,0.0097585,0,0,0,0,0,0,0,0.154311,-0.196672,-0.158748,-1.69107,0.336582,1.25604,0.401703,0.43137,0.0137464,0.521344,-0.0709735,0.33683,0.0511376,-0.000609109,1.57856,-27.2066,2.33766,24.5865,3.47046,1.60119,-0.0163725,-2.7847,1.31646,-2.5792,-0.24972,-0.75062,0.513311,0.533413,0.142291,0.445564,-1.02794,0.76568,-0.296355,-0.0198939,
0.162964,-0.197144,-0.148899,-1.69392,0.341593,-0.311536,-0.383541,0.580567,-0.02834,0.662345,-0.190116,0.310029,0.230312,0.00944849,0,0,0,0,0,0,0,0.154311,-0.196672,-0.158748,-1.69107,0.336582,1.25604,0.401703,0.43137,0.0137464,0.521344,-0.0709735,0.33683,0.0511376,-0.000609109,1.57856,-27.2066,2.33766,24.5865,3.47046,1.60119,-0.0163725,-2.7847,1.31646,-2.5792,-0.24972,-0.75062,0.513311,0.533413,0.142291,0.445564,-1.02794,0.76568,-0.296355,-0.0198939,
0.165358,-0.197239,-0.146165,-1.69468,0.342841,-0.310572,-0.383504,0.598386,-0.0239077,0.683449,-0.190324,0.31201,0.241028,0.00918727,0,0,0,0,0,0,0,0.168414,-0.196185,-0.141818,-1.69313,0.34595,1.25776,0.401706,0.434255,0.0204178,0.536278,-0.0593271,0.242917,0.0580155,-0.00026335,0.94379,-27.2344,1.23872,24.7095,3.31115,1.62041,-0.0429228,-2.20423,1.2002,-2.28933,-0.119142,-0.453512,0.447554,0.478863,0.227248,0.349754,-0.937333,0.816092,-0.241601,-0.020515,
0.167807,-0.197317,-0.143364,-1.69544,0.344103,-0.309569,-0.383468,0.612412,-0.0193546,0.700178,-0.189572,0.31543,0.250574,0.00894861,0,0,0,0,0,0,0,0.168414,-0.196185,-0.141818,-1.69313,0.34595,1.25776,0.401706,0.434255,0.0204178,0.536278,-0.0593271,0.242917,0.0580155,-0.00026335,0.94379,-27.2344,1.23872,24.7095,3.31115,1.62041,-0.0429228,-2.20423,1.2002,-2.28933,-0.119142,-0.453512,0.447554,0.478863,0.227248,0.349754,-0.937333,0.816092,-0.241601,-0.020515,
0.1703,-0.197376,-0.140511,-1.69619,0.345388,-0.308534,-0.383433,0.62308,-0.0149238,0.713225,-0.188397,0.321407,0.258747,0.00888467,0,0,0,0,0,0,0,0.168414,-0.196185,-0.141818,-1.69313,0.34595,1.25776,0.401706,0.434255,0.0204178,0.536278,-0.0593271,0.242917,0.0580155,-0.00026335,0.94379,-27.2344,1.23872,24.7095,3.31115,1.62041,-0.0429228,-1.41981,0.277913,-2.60769,0.44375,0.261787,0.00857753,0.00465659,0.628702,-0.115177,-1.11269,0.685406,-0.2048,-0.0193627,
0.17283,-0.197421,-0.137616,-1.69693,0.346652,-0.307471,-0.383398,0.632484,-0.0110812,0.723821,-0.186232,0.315996,0.265915,0.00866397,0,0,0,0,0,0,0,0.168414,-0.196185,-0.141818,-1.69313,0.34595,1.25776,0.401706,0.434255,0.0204178,0.536278,-0.0593271,0.242917,0.0580155,-0.00026335,0.94379,-27.2344,1.23872,24.7095,3.31115,1.62041,-0.0429228,-2.31908,-0.185023,-2.61683,0.699664,-0.432252,-0.164615,-0.0977682,0.217104,-0.351905,-1.00397,0.591467,-0.19066,-0.0146404,
0.175389,-0.197452,-0.134686,-1.69767,0.347871,-0.306381,-0.383364,0.639845,-0.00781699,0.732451,-0.183858,0.304639,0.272327,0.00846875,0,0,0,0,0,0,0,0.168414,-0.196185,-0.141818,-1.69313,0.34595,1.25776,0.401706,0.434255,0.0204178,0.536278,-0.0593271,0.242917,0.0580155,-0.00026335,0.94379,-27.2344,1.23872,24.7095,3.31115,1.62041,-0.0429228,-2.31908,-0.185023,-2.61683,0.699664,-0.432252,-0.164615,-0.0977682,0.217104,-0.351905,-1.00397,0.591467,-0.19066,-0.0146404,
0.17797,-0.197472,-0.131729,-1.6984,0.349031,-0.305269,-0.383331,0.645348,-0.00504131,0.739184,-0.181518,0.290133,0.278157,0.00829395,0,0,0,0,0,0,0,0.187834,-0.196197,-0.118936,-1.69634,0.351709,1.26258,0.401707,0.477385,-0.00821306,0.543094,-0.0751234,0.0911587,0.161324,0.000329302,-0.0440639,-26.3338,0.913405,23.9636,2.63366,1.90606,-0.050247,-2.14715,-0.626633,-3.00857,0.953096,-0.141866,-0.370994,-0.281006,0.422496,-0.60342,-1.16499,0.522425,-0.178036,-0.00819183,
0.180567,-0.197483,-0.128753,-1.69911,0.350127,-0.304135,-0.383298,0.64924,-0.00266563,0.744186,-0.17927,0.273963,0.283559,0.00813807,0,0,0,0,0,0,0,0.187834,-0.196197,-0.118936,-1.69634,0.351709,1.26258,0.401707,0.477385,-0.00821306,0.543094,-0.0751234,0.0911587,0.161324,0.000329302,-0.0440639,-26.3338,0.913405,23.9636,2.63366,1.90606,-0.050247,-2.14715,-0.626633,-3.00857,0.953096,-0.141866,-0.370994,-0.281006,0.422496,-0.60342,-1.16499,0.522425,-0.178036,-0.00819183,
0.183174,-0.197485,-0.125762,-1.69982,0.351155,-0.30298,-0.383266,0.651759,-0.000618822,0.747672,-0.177109,0.256918,0.288664,0.00799835,0,0,0,0,0,0,0,0.187834,-0.196197,-0.118936,-1.69634,0.351709,1.26258,0.401707,0.477385,-0.00821306,0.543094,-0.0751234,0.0911587,0.161324,0.000329302,-0.0440639,-26.3338,0.913405,23.9636,2.63366,1.90606,-0.050247,-2.47668,-0.15624,-3.14919,0.539521,-0.350098,-0.126783,-0.108061,0.372652,-0.250153,-1.17713,0.503481,-0.184092,-0.0114932,
0.185787,-0.197481,-0.122762,-1.70052,0.352113,-0.301806,-0.383235,0.653117,0.00115361,0.749857,-0.175016,0.239429,0.293574,0.0078661,0,0,0,0,0,0,0,0.187834,-0.196197,-0.118936,-1.69634,0.351709,1.26258,0.401707,0.477385,-0.00821306,0.543094,-0.0751234,0.0911587,0.161324,0.000329302,-0.0440639,-26.3338,0.913405,23.9636,2.63366,1.90606,-0.050247,-2.47668,-0.15624,-3.14919,0.539521,-0.350098,-0.126783,-0.108061,0.372652,-0.250153,-1.17713,0.503481,-0.184092,-0.0114932,
0.188401,-0.19747,-0.119759,-1.70121,0.352999,-0.300612,-0.383204,0.653504,0.00269361,0.750939,-0.172969,0.221736,0.298366,0.0077396,0,0,0,0,0,0,0,0.187834,-0.196197,-0.118936,-1.69634,0.351709,1.26258,0.401707,0.477385,-0.00821306,0.543094,-0.0751234,0.0911587,0.161324,0.000329302,-0.0440639,-26.3338,0.913405,23.9636,2.63366,1.90606,-0.050247,-2.34966,0.331504,-3.06435,0.0873061,-0.349831,0.121909,0.122005,0.38589,0.0661149,-1.10676,0.442272,-0.145369,-0.0179324,
0.191013,-0.197454,-0.116754,-1.7019,0.353815,-0.2994,-0.383173,0.653079,0.00403409,0.751094,-0.170949,0.203988,0.30309,0.00762117,0,0,0,0,0,0,0,0.187834,-0.196197,-0.118936,-1.69634,0.351709,1.26258,0.401707,0.477385,-0.00821306,0.543094,-0.0751234,0.0911587,0.161324,0.000329302,-0.0440639,-26.3338,0.913405,23.9636,2.63366,1.90606,-0.050247,-1.72629,0.227296,-3.18909,0.0550454,0.0882205,0.0495364,0.0555803,0.623547,-0.00669011,-1.13615,0.339688,-0.0620228,-0.0194838,
0.193621,-0.197433,-0.113752,-1.70257,0.354561,-0.298169,-0.383143,0.651974,0.00520293,0.750472,-0.168945,0.186318,0.307776,0.00750285,0,0,0,0,0,0,0,0.203241,-0.196186,-0.100931,-1.69901,0.354686,1.26874,0.401704,0.475015,9.5645e-05,0.566123,-0.077319,0.0751331,0.203372,-0.000379199,1.4516,-26.5599,1.63942,24.2136,3.09143,1.84655,-0.0227812,-1.72629,0.227296,-3.18909,0.0550454,0.0882205,0.0495364,0.0555803,0.623547,-0.00669011,-1.13615,0.339688,-0.0620228,-0.0194838,
