PerkyPenguin/Analysis-on-Approximated-Derivatives/Code_and_Data/PaperData/Real_Robot/Scene_2/set_interval/11/trajectory.csv
Commanded Joint 0 Position,Commanded Joint 1 Position,Commanded Joint 2 Position,Commanded Joint 3 Position,Commanded Joint 4 Position,Commanded Joint 5 Position,Commanded Joint 6 Position,Commanded Joint 0 Velocity,Commanded Joint 1 Velocity,Commanded Joint 2 Velocity,Commanded Joint 3 Velocity,Commanded Joint 4 Velocity,Commanded Joint 5 Velocity,Commanded Joint 6 Velocity,Commanded Joint 0 Torque,Commanded Joint 1 Torque,Commanded Joint 2 Torque,Commanded Joint 3 Torque,Commanded Joint 4 Torque,Commanded Joint 5 Torque,Commanded Joint 6 Torque,Actual Joint 0 Position,Actual Joint 1 Position,Actual Joint 2 Position,Actual Joint 3 Position,Actual Joint 4 Position,Actual Joint 5 Position,Actual Joint 6 Position,Actual Joint 0 Velocity,Actual Joint 1 Velocity,Actual Joint 2 Velocity,Actual Joint 3 Velocity,Actual Joint 4 Velocity,Actual Joint 5 Velocity,Actual Joint 6 Velocity,Actual Joint 0 Torque,Actual Joint 1 Torque,Actual Joint 2 Torque,Actual Joint 3 Torque,Actual Joint 4 Torque,Actual Joint 5 Torque,Actual Joint 6 Torque,EE ext force 0,EE ext force 1,EE ext force 2,EE ext force 3,EE ext force 4,EE ext force 5,joint ext torque 0,joint ext torque 1,joint ext torque 2,joint ext torque 3,joint ext torque 4,joint ext torque 5,joint ext torque 6,
-0.049177,-0.124882,0.535766,-1.80414,0.0852984,0.16878,0.547676,0.0108865,0.0297543,0.0222005,-0.153671,-0.0698499,0.231784,-0.00121551,0,0,0,0,0,0,0,-0.0492615,-0.125035,0.53558,-1.80263,0.0857922,1.73729,1.3331,-0.00185409,0.0020904,-0.00204788,0.000184542,0.016917,0.000121833,0.00051816,0.158268,-25.5126,-2.18505,27.6016,0.813595,3.21252,0.050461,0.639207,0.513358,0.00234413,-0.32706,0.697129,0.00305687,-0.0224862,0.474071,0.048971,-0.240786,0.149609,-0.216229,0.070487,
-0.0491229,-0.124685,0.535873,-1.80481,0.0849386,0.169743,0.54767,0.013508,0.049284,0.0267334,-0.165556,-0.0899673,0.240699,-0.00131951,0,0,0,0,0,0,0,-0.0492615,-0.125035,0.53558,-1.80263,0.0857922,1.73729,1.3331,-0.00185409,0.0020904,-0.00204788,0.000184542,0.016917,0.000121833,0.00051816,0.158268,-25.5126,-2.18505,27.6016,0.813595,3.21252,0.050461,0.179323,0.585503,0.164984,-0.327972,0.321053,0.159008,0.130627,0.252296,0.2021,-0.152504,0.158982,-0.213517,0.0694432,
-0.0492749,-0.125011,0.535565,-1.80263,0.0859234,0.166495,0.547703,-0.000495527,0.00112318,-0.000512797,-0.000123461,0.00484263,0.000197672,4.8523e-05,0,0,0,0,0,0,0,-0.0492615,-0.125035,0.53558,-1.80263,0.0857922,1.73729,1.3331,-0.00185409,0.0020904,-0.00204788,0.000184542,0.016917,0.000121833,0.00051816,0.158268,-25.5126,-2.18505,27.6016,0.813595,3.21252,0.050461,0.179323,0.585503,0.164984,-0.327972,0.321053,0.159008,0.130627,0.252296,0.2021,-0.152504,0.158982,-0.213517,0.0694432,
-0.0492764,-0.125007,0.535564,-1.80263,0.0859375,0.166495,0.547703,-0.000371376,0.000928268,-0.000357485,-0.000156486,0.0035416,0.000132293,3.45703e-05,0,0,0,0,0,0,0,-0.0492615,-0.125035,0.53558,-1.80263,0.0857922,1.73729,1.3331,-0.00185409,0.0020904,-0.00204788,0.000184542,0.016917,0.000121833,0.00051816,0.158268,-25.5126,-2.18505,27.6016,0.813595,3.21252,0.050461,0.191939,0.725389,0.335496,-0.349628,0.25288,0.219821,0.193891,0.181401,0.25663,-0.057086,0.18399,-0.186123,0.0704004,
-0.0492775,-0.125004,0.535563,-1.80263,0.0859479,0.166495,0.547703,-0.000282487,0.000761318,-0.0002467,-0.000171669,0.00257962,5.82162e-05,2.47686e-05,0,0,0,0,0,0,0,-0.0492615,-0.125035,0.53558,-1.80263,0.0857922,1.73729,1.3331,-0.00185409,0.0020904,-0.00204788,0.000184542,0.016917,0.000121833,0.00051816,0.158268,-25.5126,-2.18505,27.6016,0.813595,3.21252,0.050461,-0.00802272,0.244313,0.0155606,-0.128843,0.229831,0.0526089,0.0330454,0.228418,0.0776607,-0.191154,0.14931,-0.197692,0.0693255,
-0.0492784,-0.125002,0.535562,-1.80263,0.0859553,0.166495,0.547703,-0.000218505,0.000619258,-0.000167344,-0.000174681,0.0018663,-1.53015e-05,1.78485e-05,0,0,0,0,0,0,0,-0.0492615,-0.125035,0.53558,-1.80263,0.0857922,1.73729,1.3331,-0.00185409,0.0020904,-0.00204788,0.000184542,0.016917,0.000121833,0.00051816,0.158268,-25.5126,-2.18505,27.6016,0.813595,3.21252,0.050461,-0.00802272,0.244313,0.0155606,-0.128843,0.229831,0.0526089,0.0330454,0.228418,0.0776607,-0.191154,0.14931,-0.197692,0.0693255,
-0.0492791,-0.125,0.535562,-1.80263,0.0859607,0.166495,0.547703,-0.000172159,0.000498823,-0.000110204,-0.000169836,0.00133606,-8.29334e-05,1.29542e-05,0,0,0,0,0,0,0,-0.0492475,-0.125104,0.535591,-1.80293,0.0857084,1.73786,1.3331,0.00140855,-0.0026104,-0.00117452,-0.0175837,-0.00286736,0.041981,0.000458563,0.00751081,-24.8103,-2.26042,27.5262,1.36932,3.31139,0.0577852,-1.40888,0.25614,-0.251848,-0.147821,-0.629847,0.428063,0.394225,-0.166042,0.462777,-0.21495,0.189852,-0.181171,0.0689808,
-0.0492796,-0.124998,0.535561,-1.80263,0.0859644,0.166494,0.547703,-0.000138321,0.00039693,-6.87824e-05,-0.000160221,0.000941002,-0.000142091,9.49145e-06,0,0,0,0,0,0,0,-0.0492475,-0.125104,0.535591,-1.80293,0.0857084,1.73786,1.3331,0.00140855,-0.0026104,-0.00117452,-0.0175837,-0.00286736,0.041981,0.000458563,0.00751081,-24.8103,-2.26042,27.5262,1.36932,3.31139,0.0577852,-1.40888,0.25614,-0.251848,-0.147821,-0.629847,0.428063,0.394225,-0.166042,0.462777,-0.21495,0.189852,-0.181171,0.0689808,
-0.0492801,-0.124997,0.535561,-1.80263,0.085967,0.166494,0.547703,-0.000113367,0.000310812,-3.84912e-05,-0.000147962,0.00064608,-0.000191937,7.04252e-06,0,0,0,0,0,0,0,-0.0492475,-0.125104,0.535591,-1.80293,0.0857084,1.73786,1.3331,0.00140855,-0.0026104,-0.00117452,-0.0175837,-0.00286736,0.041981,0.000458563,0.00751081,-24.8103,-2.26042,27.5262,1.36932,3.31139,0.0577852,0.489271,0.494734,-0.896915,-0.495333,0.874936,0.0318985,0.00714482,0.693148,0.099912,-0.523821,0.140352,-0.154345,0.0695046,
-0.0492804,-0.124996,0.535561,-1.80263,0.0859687,0.166493,0.547703,-9.47344e-05,0.000238046,-1.60898e-05,-0.000134492,0.000425537,-0.000232679,5.31205e-06,0,0,0,0,0,0,0,-0.0492475,-0.125104,0.535591,-1.80293,0.0857084,1.73786,1.3331,0.00140855,-0.0026104,-0.00117452,-0.0175837,-0.00286736,0.041981,0.000458563,0.00751081,-24.8103,-2.26042,27.5262,1.36932,3.31139,0.0577852,0.398544,0.502341,-0.479121,-0.395251,0.622912,0.059511,0.036263,0.476698,0.11186,-0.323455,0.135728,-0.121219,0.0693787,
-0.0492808,-0.124995,0.535561,-1.80263,0.0859698,0.166492,0.547703,-8.06123e-05,0.00017654,7.08806e-07,-0.000120748,0.000260396,-0.000265091,4.09066e-06,0,0,0,0,0,0,0,-0.0492475,-0.125104,0.535591,-1.80293,0.0857084,1.73786,1.3331,0.00140855,-0.0026104,-0.00117452,-0.0175837,-0.00286736,0.041981,0.000458563,0.00751081,-24.8103,-2.26042,27.5262,1.36932,3.31139,0.0577852,0.398544,0.502341,-0.479121,-0.395251,0.622912,0.059511,0.036263,0.476698,0.11186,-0.323455,0.135728,-0.121219,0.0693787,
-0.049281,-0.124995,0.535561,-1.80263,0.0859703,0.16649,0.547703,-6.97204e-05,0.000124508,1.35183e-05,-0.000107324,0.000136637,-0.000290208,3.22978e-06,0,0,0,0,0,0,0,-0.0492369,-0.125037,0.535607,-1.8029,0.0857142,1.73796,1.33309,0.00299427,-0.00750894,0.00268165,-0.000409828,-0.0125761,-0.00436228,0.000672918,-0.147213,-25.6871,-2.48656,27.6254,1.36932,3.40478,0.0577852,0.0623981,0.654609,-0.416442,-0.430633,0.374759,0.220513,0.192336,0.341011,0.273383,-0.262959,0.185303,-0.103153,0.068268,
-0.0492813,-0.124995,0.535561,-1.80263,0.0859705,0.166489,0.547703,-6.11543e-05,8.04367e-05,2.34763e-05,-9.45783e-05,4.38676e-05,-0.000309138,2.62398e-06,0,0,0,0,0,0,0,-0.0492369,-0.125037,0.535607,-1.8029,0.0857142,1.73796,1.33309,0.00299427,-0.00750894,0.00268165,-0.000409828,-0.0125761,-0.00436228,0.000672918,-0.147213,-25.6871,-2.48656,27.6254,1.36932,3.40478,0.0577852,0.0623981,0.654609,-0.416442,-0.430633,0.374759,0.220513,0.192336,0.341011,0.273383,-0.262959,0.185303,-0.103153,0.068268,
-0.0492815,-0.124994,0.535561,-1.80263,0.0859704,0.166488,0.547703,-5.4275e-05,4.30485e-05,3.13842e-05,-8.27079e-05,-2.5634e-05,-0.000322951,2.19845e-06,0,0,0,0,0,0,0,-0.0492369,-0.125037,0.535607,-1.8029,0.0857142,1.73796,1.33309,0.00299427,-0.00750894,0.00268165,-0.000409828,-0.0125761,-0.00436228,0.000672918,-0.147213,-25.6871,-2.48656,27.6254,1.36932,3.40478,0.0577852,-0.0822021,0.466332,-0.31345,-0.303657,0.232426,0.172385,0.146518,0.250272,0.214969,-0.227236,0.16161,-0.111473,0.0681126,
-0.0492817,-0.124994,0.535561,-1.80263,0.0859701,0.166487,0.547703,-4.86309e-05,1.12708e-05,3.78063e-05,-7.18043e-05,-7.76254e-05,-0.000332623,1.90014e-06,0,0,0,0,0,0,0,-0.0492369,-0.125037,0.535607,-1.8029,0.0857142,1.73796,1.33309,0.00299427,-0.00750894,0.00268165,-0.000409828,-0.0125761,-0.00436228,0.000672918,-0.147213,-25.6871,-2.48656,27.6254,1.36932,3.40478,0.0577852,-0.391453,0.258268,-0.0513028,-0.110266,-0.0789805,0.159154,0.13277,0.048162,0.185622,-0.118507,0.154847,-0.116363,0.068192,
-0.0492819,-0.124994,0.535562,-1.80263,0.0859696,0.166485,0.547703,-4.39029e-05,-1.57954e-05,4.31401e-05,-6.1889e-05,-0.000116411,-0.000339009,1.69148e-06,0,0,0,0,0,0,0,-0.0492369,-0.125037,0.535607,-1.8029,0.0857142,1.73796,1.33309,0.00299427,-0.00750894,0.00268165,-0.000409828,-0.0125761,-0.00436228,0.000672918,-0.147213,-25.6871,-2.48656,27.6254,1.36932,3.40478,0.0577852,-0.391453,0.258268,-0.0513028,-0.110266,-0.0789805,0.159154,0.13277,0.048162,0.185622,-0.118507,0.154847,-0.116363,0.068192,
-0.049282,-0.124995,0.535562,-1.80263,0.085969,0.166484,0.547703,-3.98649e-05,-3.8902e-05,4.76655e-05,-5.29399e-05,-0.00014522,-0.000342837,1.54584e-06,0,0,0,0,0,0,0,-0.049257,-0.125029,0.535591,-1.80285,0.0858134,1.73798,1.33309,-0.00345455,0.00234361,-0.00309713,0.00220117,0.0194079,0.00453387,-0.000587807,0.106693,-25.7347,-2.26042,27.677,0.612179,3.24547,0.0843355,-0.0231144,0.185184,-0.190365,-0.0930756,0.221106,0.0261827,5.70014e-05,0.225078,0.0554018,-0.185283,0.152867,-0.11098,0.0699057,
-0.0492822,-0.124995,0.535562,-1.80263,0.0859684,0.166482,0.547703,-3.63566e-05,-5.86769e-05,5.158e-05,-4.49082e-05,-0.00016648,-0.000344714,1.44442e-06,0,0,0,0,0,0,0,-0.049257,-0.125029,0.535591,-1.80285,0.0858134,1.73798,1.33309,-0.00345455,0.00234361,-0.00309713,0.00220117,0.0194079,0.00453387,-0.000587807,0.106693,-25.7347,-2.26042,27.677,0.612179,3.24547,0.0843355,-0.0231144,0.185184,-0.190365,-0.0930756,0.221106,0.0261827,5.70014e-05,0.225078,0.0554018,-0.185283,0.152867,-0.11098,0.0699057,
-0.0492823,-0.124995,0.535562,-1.80263,0.0859676,0.166481,0.547703,-3.32635e-05,-7.56448e-05,5.50231e-05,-3.77307e-05,-0.000182023,-0.000345134,1.37391e-06,0,0,0,0,0,0,0,-0.049257,-0.125029,0.535591,-1.80285,0.0858134,1.73798,1.33309,-0.00345455,0.00234361,-0.00309713,0.00220117,0.0194079,0.00453387,-0.000587807,0.106693,-25.7347,-2.26042,27.677,0.612179,3.24547,0.0843355,-0.0950839,0.313681,-0.399692,-0.235407,0.265197,0.103123,0.0749835,0.28801,0.146411,-0.278379,0.152213,-0.127254,0.0704525,
-0.0492824,-0.124995,0.535562,-1.80263,0.0859669,0.16648,0.547703,-3.05039e-05,-9.02433e-05,5.80942e-05,-3.1337e-05,-0.000193234,-0.000344496,1.32496e-06,0,0,0,0,0,0,0,-0.049257,-0.125029,0.535591,-1.80285,0.0858134,1.73798,1.33309,-0.00345455,0.00234361,-0.00309713,0.00220117,0.0194079,0.00453387,-0.000587807,0.106693,-25.7347,-2.26042,27.677,0.612179,3.24547,0.0843355,-0.0950839,0.313681,-0.399692,-0.235407,0.265197,0.103123,0.0749835,0.28801,0.146411,-0.278379,0.152213,-0.127254,0.0704525,
-0.0492825,-0.124996,0.535563,-1.80263,0.0859661,0.166478,0.547703,-2.80182e-05,-0.000102838,6.0864e-05,-2.56556e-05,-0.000201163,-0.000343116,1.29098e-06,0,0,0,0,0,0,0,-0.049257,-0.125029,0.535591,-1.80285,0.0858134,1.73798,1.33309,-0.00345455,0.00234361,-0.00309713,0.00220117,0.0194079,0.00453387,-0.000587807,0.106693,-25.7347,-2.26042,27.677,0.612179,3.24547,0.0843355,-0.629814,0.382889,-0.118271,-0.187574,-0.19649,0.277513,0.242045,0.00763852,0.315611,-0.140825,0.184541,-0.125251,0.0701761,
-0.0492826,-0.124996,0.535563,-1.80263,0.0859652,0.166477,0.547703,-2.57631e-05,-0.000113736,6.33839e-05,-2.06162e-05,-0.00020661,-0.000341238,1.26734e-06,0,0,0,0,0,0,0,-0.049257,-0.125029,0.535591,-1.80285,0.0858134,1.73798,1.33309,-0.00345455,0.00234361,-0.00309713,0.00220117,0.0194079,0.00453387,-0.000587807,0.106693,-25.7347,-2.26042,27.677,0.612179,3.24547,0.0843355,-0.629814,0.382889,-0.118271,-0.187574,-0.19649,0.277513,0.242045,0.00763852,0.315611,-0.140825,0.184541,-0.125251,0.0701761,
-0.0492827,-0.124997,0.535563,-1.80263,0.0859644,0.166476,0.547703,-2.37062e-05,-0.000123191,6.56913e-05,-1.61522e-05,-0.000210182,-0.000339053,1.2508e-06,0,0,0,0,0,0,0,-0.0492824,-0.125067,0.535559,-1.80282,0.0857545,1.73797,1.3331,-0.00324675,-0.00102073,-0.00240635,0.00089144,0.00643082,0.000448255,0.00136627,0.412174,-25.2864,-1.93511,27.5739,1.05804,3.30498,0.0376436,0.207024,0.495081,-0.396321,-0.375461,0.490831,0.106878,0.0789438,0.408957,0.160591,-0.312137,0.146371,-0.151021,0.0700871,
-0.0492828,-0.124997,0.535564,-1.80263,0.0859635,0.166474,0.547703,-2.1823e-05,-0.00013142,6.78143e-05,-1.22015e-05,-0.000212343,-0.000336702,1.23913e-06,0,0,0,0,0,0,0,-0.0492824,-0.125067,0.535559,-1.80282,0.0857545,1.73797,1.3331,-0.00324675,-0.00102073,-0.00240635,0.00089144,0.00643082,0.000448255,0.00136627,0.412174,-25.2864,-1.93511,27.5739,1.05804,3.30498,0.0376436,-0.274022,0.685682,-0.288387,-0.461936,0.131801,0.323008,0.294574,0.209138,0.377166,-0.248703,0.166445,-0.154407,0.0694127,
-0.0492829,-0.124998,0.535564,-1.80263,0.0859627,0.166473,0.547703,-2.00943e-05,-0.000138601,6.97741e-05,-8.70737e-06,-0.000213449,-0.000334291,1.23075e-06,0,0,0,0,0,0,0,-0.0492824,-0.125067,0.535559,-1.80282,0.0857545,1.73797,1.3331,-0.00324675,-0.00102073,-0.00240635,0.00089144,0.00643082,0.000448255,0.00136627,0.412174,-25.2864,-1.93511,27.5739,1.05804,3.30498,0.0376436,-0.274022,0.685682,-0.288387,-0.461936,0.131801,0.323008,0.294574,0.209138,0.377166,-0.248703,0.166445,-0.154407,0.0694127,
-0.049283,-0.124998,0.535564,-1.80263,0.0859618,0.166472,0.547703,-1.85049e-05,-0.000144887,7.15876e-05,-5.61802e-06,-0.000213768,-0.000331896,1.22458e-06,0,0,0,0,0,0,0,-0.0492824,-0.125067,0.535559,-1.80282,0.0857545,1.73797,1.3331,-0.00324675,-0.00102073,-0.00240635,0.00089144,0.00643082,0.000448255,0.00136627,0.412174,-25.2864,-1.93511,27.5739,1.05804,3.30498,0.0376436,-0.124961,0.544003,-0.0984702,-0.300858,0.139733,0.218382,0.196332,0.17357,0.253061,-0.15288,0.175661,-0.124048,0.0706727,
-0.0492831,-0.124999,0.535564,-1.80263,0.085961,0.16647,0.547703,-1.70421e-05,-0.000150405,7.32684e-05,-2.88694e-06,-0.00021351,-0.000329571,1.21989e-06,0,0,0,0,0,0,0,-0.0492824,-0.125067,0.535559,-1.80282,0.0857545,1.73797,1.3331,-0.00324675,-0.00102073,-0.00240635,0.00089144,0.00643082,0.000448255,0.00136627,0.412174,-25.2864,-1.93511,27.5739,1.05804,3.30498,0.0376436,-0.124961,0.544003,-0.0984702,-0.300858,0.139733,0.218382,0.196332,0.17357,0.253061,-0.15288,0.175661,-0.124048,0.0706727,
-0.0492222,-0.125272,0.535599,-1.80234,0.0307343,0.13657,0.547567,-0.00506878,0.000335803,-0.0050568,-0.00217488,-0.325937,-0.180387,-0.00070393,0,0,0,0,0,0,0,-0.04924,-0.125077,0.535589,-1.80279,0.0857188,1.73797,1.33309,0.00258439,-0.00287411,0.00391896,7.06463e-05,-0.00348203,0.00033355,-0.000136738,-0.147213,-25.2348,-2.46276,27.6492,1.31439,3.3178,0.0706026,0.400149,0.493858,-0.124036,-0.303583,0.49224,0.0556366,0.0416235,0.350647,0.0877007,-0.18441,0.141156,-0.120591,0.0708965,
-0.0490908,-0.125442,0.535744,-1.80251,0.0406336,0.142201,0.547628,-0.00417688,-0.000175288,-0.00403472,-0.00204482,-0.251343,-0.144513,-0.000315027,0,0,0,0,0,0,0,-0.04924,-0.125077,0.535589,-1.80279,0.0857188,1.73797,1.33309,0.00258439,-0.00287411,0.00391896,7.06463e-05,-0.00348203,0.00033355,-0.000136738,-0.147213,-25.2348,-2.46276,27.6492,1.31439,3.3178,0.0706026,0.197383,0.636109,-0.158705,-0.386732,0.385063,0.176481,0.157516,0.308907,0.216345,-0.193936,0.168094,-0.128153,0.06947,
-0.0491077,-0.125442,0.535728,-1.80252,0.0396422,0.14163,0.547627,-0.00421419,-0.000166288,-0.00407449,-0.00206269,-0.247843,-0.142706,-0.000310774,0,0,0,0,0,0,0,-0.04924,-0.125077,0.535589,-1.80279,0.0857188,1.73797,1.33309,0.00258439,-0.00287411,0.00391896,7.06463e-05,-0.00348203,0.00033355,-0.000136738,-0.147213,-25.2348,-2.46276,27.6492,1.31439,3.3178,0.0706026,0.197383,0.636109,-0.158705,-0.386732,0.385063,0.176481,0.157516,0.308907,0.216345,-0.193936,0.168094,-0.128153,0.06947,
-0.0491247,-0.125443,0.535711,-1.80253,0.0386657,0.141067,0.547626,-0.00425211,-0.000162538,-0.00411408,-0.00208627,-0.244124,-0.140766,-0.000307196,0,0,0,0,0,0,0,-0.04924,-0.125077,0.535589,-1.80279,0.0857188,1.73797,1.33309,0.00258439,-0.00287411,0.00391896,7.06463e-05,-0.00348203,0.00033355,-0.000136738,-0.147213,-25.2348,-2.46276,27.6492,1.31439,3.3178,0.0706026,0.366069,0.870869,-0.372389,-0.593285,0.602295,0.239418,0.223013,0.463689,0.293325,-0.298474,0.1782,-0.144716,0.0699007,
-0.0491419,-0.125444,0.535695,-1.80254,0.0377051,0.140512,0.547624,-0.00429225,-0.000163604,-0.00415489,-0.00211757,-0.24015,-0.138671,-0.000304285,0,0,0,0,0,0,0,-0.04924,-0.125077,0.535589,-1.80279,0.0857188,1.73797,1.33309,0.00258439,-0.00287411,0.00391896,7.06463e-05,-0.00348203,0.00033355,-0.000136738,-0.147213,-25.2348,-2.46276,27.6492,1.31439,3.3178,0.0706026,0.366069,0.870869,-0.372389,-0.593285,0.602295,0.239418,0.223013,0.463689,0.293325,-0.298474,0.1782,-0.144716,0.0699007,
-0.0491592,-0.125444,0.535678,-1.80255,0.0367616,0.139966,0.547623,-0.00433649,-0.000169023,-0.00419863,-0.00215899,-0.235879,-0.13639,-0.000302003,0,0,0,0,0,0,0,-0.04924,-0.125077,0.535589,-1.80279,0.0857188,1.73797,1.33309,0.00258439,-0.00287411,0.00391896,7.06463e-05,-0.00348203,0.00033355,-0.000136738,-0.147213,-25.2348,-2.46276,27.6492,1.31439,3.3178,0.0706026,0.241222,0.829033,-0.207532,-0.60053,0.473469,0.251268,0.237443,0.375692,0.304779,-0.280368,0.122372,-0.195394,0.0708356,
-0.0491768,-0.125445,0.535661,-1.80256,0.0358366,0.139431,0.547622,-0.00438717,-0.000178293,-0.00424735,-0.00221339,-0.231259,-0.133891,-0.000300296,0,0,0,0,0,0,0,-0.0491814,-0.125075,0.535648,-1.80268,0.0837485,1.73789,1.33309,0.00632428,-0.00435561,0.00410554,0.00191142,-0.14875,-0.0135659,-0.00102826,-0.730404,-25.3856,-3.03801,27.2763,0.60577,3.15941,0.0980684,0.241222,0.829033,-0.207532,-0.60053,0.473469,0.251268,0.237443,0.375692,0.304779,-0.280368,0.122372,-0.195394,0.0708356,
-0.0491945,-0.125446,0.535644,-1.80257,0.0349317,0.138906,0.547621,-0.00444719,-0.00019085,-0.00430361,-0.00228425,-0.226225,-0.13113,-0.000298982,0,0,0,0,0,0,0,-0.0491814,-0.125075,0.535648,-1.80268,0.0837485,1.73789,1.33309,0.00632428,-0.00435561,0.00410554,0.00191142,-0.14875,-0.0135659,-0.00102826,-0.730404,-25.3856,-3.03801,27.2763,0.60577,3.15941,0.0980684,-0.035614,0.838608,0.0321949,-0.625126,0.179509,0.325588,0.303729,0.1725,0.387223,-0.19693,0.0535515,-0.217328,0.0706688,
-0.0492126,-0.125447,0.535626,-1.80258,0.0340489,0.138394,0.54762,-0.00452018,-0.000206042,-0.00437066,-0.00237571,-0.220698,-0.128057,-0.000297841,0,0,0,0,0,0,0,-0.0491814,-0.125075,0.535648,-1.80268,0.0837485,1.73789,1.33309,0.00632428,-0.00435561,0.00410554,0.00191142,-0.14875,-0.0135659,-0.00102826,-0.730404,-25.3856,-3.03801,27.2763,0.60577,3.15941,0.0980684,0.326079,0.587623,0.0119893,-0.553591,0.417641,0.111245,0.0829917,0.289,0.182558,-0.252144,-0.0350134,-0.244118,0.0698945,
-0.0492311,-0.125447,0.535608,-1.80259,0.0331906,0.137896,0.547618,-0.00461083,-0.000223122,-0.00445267,-0.00249284,-0.214577,-0.124609,-0.00029645,0,0,0,0,0,0,0,-0.0491814,-0.125075,0.535648,-1.80268,0.0837485,1.73789,1.33309,0.00632428,-0.00435561,0.00410554,0.00191142,-0.14875,-0.0135659,-0.00102826,-0.730404,-25.3856,-3.03801,27.2763,0.60577,3.15941,0.0980684,0.326079,0.587623,0.0119893,-0.553591,0.417641,0.111245,0.0829917,0.289,0.182558,-0.252144,-0.0350134,-0.244118,0.0698945,
-0.04925,-0.125448,0.53559,-1.8026,0.0323596,0.137413,0.547617,-0.00472519,-0.000241222,-0.00455505,-0.00264173,-0.207736,-0.120713,-0.000294203,0,0,0,0,0,0,0,-0.0491814,-0.125075,0.535648,-1.80268,0.0837485,1.73789,1.33309,0.00632428,-0.00435561,0.00410554,0.00191142,-0.14875,-0.0135659,-0.00102826,-0.730404,-25.3856,-3.03801,27.2763,0.60577,3.15941,0.0980684,0.17395,0.431575,0.457609,-0.399223,0.126971,0.07784,0.0451876,0.0539114,0.139256,-0.0827802,-0.0880167,-0.253167,0.0695373,
-0.0492695,-0.125449,0.535571,-1.80261,0.0315595,0.136948,0.547616,-0.00487118,-0.000259362,-0.00468488,-0.00282979,-0.200017,-0.116279,-0.000290007,0,0,0,0,0,0,0,-0.0491641,-0.125069,0.535748,-1.80261,0.0779097,1.73725,1.3331,0.00334571,-0.00319206,0.0026599,-0.000781897,-0.198213,-0.0217307,0.0011606,-0.551876,-25.461,-2.68492,27.55,0.447384,3.08617,0.0376436,0.17395,0.431575,0.457609,-0.399223,0.126971,0.07784,0.0451876,0.0539114,0.139256,-0.0827802,-0.0880167,-0.253167,0.0695373,
-0.0492897,-0.125451,0.535552,-1.80262,0.0307947,0.136503,0.547615,-0.00505919,-0.000276488,-0.00485156,-0.00306609,-0.191216,-0.111199,-0.000282481,0,0,0,0,0,0,0,-0.0491641,-0.125069,0.535748,-1.80261,0.0779097,1.73725,1.3331,0.00334571,-0.00319206,0.0026599,-0.000781897,-0.198213,-0.0217307,0.0011606,-0.551876,-25.461,-2.68492,27.55,0.447384,3.08617,0.0376436,0.348072,0.44571,0.514504,-0.469689,0.230172,0.0350757,-0.00287803,0.0954516,0.110069,-0.106532,-0.148871,-0.290907,0.0693504,
-0.0493109,-0.125452,0.535532,-1.80263,0.0300704,0.136081,0.547614,-0.0053031,-0.000291614,-0.00506754,-0.00336184,-0.181071,-0.105344,-0.00026902,0,0,0,0,0,0,0,-0.0491641,-0.125069,0.535748,-1.80261,0.0779097,1.73725,1.3331,0.00334571,-0.00319206,0.0026599,-0.000781897,-0.198213,-0.0217307,0.0011606,-0.551876,-25.461,-2.68492,27.55,0.447384,3.08617,0.0376436,0.348072,0.44571,0.514504,-0.469689,0.230172,0.0350757,-0.00287803,0.0954516,0.110069,-0.106532,-0.148871,-0.290907,0.0693504,
-0.0493334,-0.125453,0.53551,-1.80265,0.0293934,0.135687,0.547613,-0.0056215,-0.000304236,-0.00534969,-0.00373152,-0.169245,-0.0985558,-0.000245525,0,0,0,0,0,0,0,-0.0491641,-0.125069,0.535748,-1.80261,0.0779097,1.73725,1.3331,0.00334571,-0.00319206,0.0026599,-0.000781897,-0.198213,-0.0217307,0.0011606,-0.551876,-25.461,-2.68492,27.55,0.447384,3.08617,0.0376436,0.754356,0.272161,0.458563,-0.465035,0.527244,-0.155005,-0.197469,0.25412,-0.0668895,-0.192301,-0.236503,-0.333753,0.0679871,
-0.0493575,-0.125454,0.535487,-1.80266,0.0287722,0.135325,0.547612,-0.00603992,-0.000315535,-0.00572118,-0.00419574,-0.155291,-0.0906414,-0.000204075,0,0,0,0,0,0,0,-0.0491641,-0.125069,0.535748,-1.80261,0.0779097,1.73725,1.3331,0.00334571,-0.00319206,0.0026599,-0.000781897,-0.198213,-0.0217307,0.0011606,-0.551876,-25.461,-2.68492,27.55,0.447384,3.08617,0.0376436,0.532044,0.275102,0.568936,-0.457634,0.345554,-0.0962413,-0.146611,0.146388,-0.00304032,-0.15829,-0.243783,-0.352993,0.0678546,
-0.0493839,-0.125455,0.535463,-1.80268,0.0282178,0.134999,0.547612,-0.00659468,-0.000331835,-0.00621496,-0.00478891,-0.138608,-0.0813447,-0.00012969,0,0,0,0,0,0,0,-0.0491641,-0.125069,0.535748,-1.80261,0.0779097,1.73725,1.3331,0.00334571,-0.00319206,0.0026599,-0.000781897,-0.198213,-0.0217307,0.0011606,-0.551876,-25.461,-2.68492,27.55,0.447384,3.08617,0.0376436,0.532044,0.275102,0.568936,-0.457634,0.345554,-0.0962413,-0.146611,0.146388,-0.00304032,-0.15829,-0.243783,-0.352993,0.0678546,
-0.0494133,-0.125457,0.535435,-1.80271,0.0277444,0.134718,0.547612,-0.00734087,-0.000374695,-0.00688102,-0.00558199,-0.118349,-0.0702818,-1.20082e-05,0,0,0,0,0,0,0,-0.0491698,-0.125076,0.535777,-1.80262,0.0720665,1.73666,1.3331,0.00154674,-0.00153781,0.000399053,-0.000270176,-0.158602,-0.0176187,0.000240177,-0.373349,-25.4094,-2.58574,27.5739,0.373226,3.02666,0.0577852,0.996821,0.33175,0.44216,-0.550373,0.717207,-0.193505,-0.242767,0.359462,-0.0900792,-0.24233,-0.263008,-0.367387,0.0667144,
-0.0494468,-0.125459,0.535404,-1.80273,0.0273715,0.134491,0.547611,-0.00837135,-0.00051119,-0.00780487,-0.00675028,-0.0932253,-0.0567457,-0.00017753,0,0,0,0,0,0,0,-0.0491698,-0.125076,0.535777,-1.80262,0.0720665,1.73666,1.3331,0.00154674,-0.00153781,0.000399053,-0.000270176,-0.158602,-0.0176187,0.000240177,-0.373349,-25.4094,-2.58574,27.5739,0.373226,3.02666,0.0577852,0.996821,0.33175,0.44216,-0.550373,0.717207,-0.193505,-0.242767,0.359462,-0.0900792,-0.24233,-0.263008,-0.367387,0.0667144,
-0.0494807,-0.125458,0.535371,-1.80276,0.0270724,0.134303,0.547611,-0.00849255,0.000150661,-0.00815912,-0.00627506,-0.0747699,-0.0470017,-1.83209e-05,0,0,0,0,0,0,0,-0.0491698,-0.125076,0.535777,-1.80262,0.0720665,1.73666,1.3331,0.00154674,-0.00153781,0.000399053,-0.000270176,-0.158602,-0.0176187,0.000240177,-0.373349,-25.4094,-2.58574,27.5739,0.373226,3.02666,0.0577852,1.00829,0.319,0.483571,-0.536981,0.727417,-0.200717,-0.250039,0.366285,-0.0982621,-0.244764,-0.258999,-0.385713,0.0646863,
-0.0495138,-0.125455,0.535339,-1.80278,0.0268296,0.134146,0.547611,-0.00827364,0.000884133,-0.0081118,-0.00541479,-0.060703,-0.0393103,8.30046e-05,0,0,0,0,0,0,0,-0.0491698,-0.125076,0.535777,-1.80262,0.0720665,1.73666,1.3331,0.00154674,-0.00153781,0.000399053,-0.000270176,-0.158602,-0.0176187,0.000240177,-0.373349,-25.4094,-2.58574,27.5739,0.373226,3.02666,0.0577852,0.887894,0.430659,0.490373,-0.560002,0.670839,-0.115971,-0.164562,0.350521,-0.016657,-0.236711,-0.201558,-0.387751,0.0648189,
-0.0495454,-0.125449,0.535307,-1.8028,0.0266306,0.134014,0.547612,-0.00788161,0.00148783,-0.00783878,-0.00455298,-0.0497527,-0.032984,0.000142325,0,0,0,0,0,0,0,-0.0491698,-0.125076,0.535777,-1.80262,0.0720665,1.73666,1.3331,0.00154674,-0.00153781,0.000399053,-0.000270176,-0.158602,-0.0176187,0.000240177,-0.373349,-25.4094,-2.58574,27.5739,0.373226,3.02666,0.0577852,0.887894,0.430659,0.490373,-0.560002,0.670839,-0.115971,-0.164562,0.350521,-0.016657,-0.236711,-0.201558,-0.387751,0.0648189,
-0.049575,-0.125441,0.535278,-1.80281,0.0264662,0.133903,0.547612,-0.00740103,0.00192701,-0.00744033,-0.00378847,-0.0411069,-0.0276974,0.000178338,0,0,0,0,0,0,0,-0.0492511,-0.125089,0.535709,-1.80262,0.0673594,1.7364,1.3331,-0.00575939,0.0018507,-0.00160885,-0.00224178,-0.136207,0.00130761,-0.000249047,0.336795,-25.461,-2.06206,27.6492,0.54443,2.95342,0.050461,1.03161,0.429839,0.456568,-0.527184,0.796596,-0.150727,-0.191757,0.430497,-0.0615984,-0.249874,-0.160916,-0.381924,0.0631242,
-0.0496025,-0.125432,0.53525,-1.80283,0.0263294,0.13381,0.547613,-0.00688093,0.00221693,-0.00697677,-0.00313255,-0.0342048,-0.0232556,0.000200613,0,0,0,0,0,0,0,-0.0492511,-0.125089,0.535709,-1.80262,0.0673594,1.7364,1.3331,-0.00575939,0.0018507,-0.00160885,-0.00224178,-0.136207,0.00130761,-0.000249047,0.336795,-25.461,-2.06206,27.6492,0.54443,2.95342,0.050461,1.03161,0.429839,0.456568,-0.527184,0.796596,-0.150727,-0.191757,0.430497,-0.0615984,-0.249874,-0.160916,-0.381924,0.0631242,
-0.0496279,-0.125423,0.535224,-1.80284,0.0262148,0.133732,0.547614,-0.00635138,0.00238461,-0.00648608,-0.00257286,-0.0286412,-0.0195176,0.000214242,0,0,0,0,0,0,0,-0.0492511,-0.125089,0.535709,-1.80262,0.0673594,1.7364,1.3331,-0.00575939,0.0018507,-0.00160885,-0.00224178,-0.136207,0.00130761,-0.000249047,0.336795,-25.461,-2.06206,27.6492,0.54443,2.95342,0.050461,0.42318,0.77814,0.556625,-0.628861,0.379758,0.174515,0.135745,0.217324,0.256048,-0.161631,-0.0473933,-0.365101,0.0627462,
-0.0496512,-0.125413,0.5352,-1.80284,0.0261183,0.133667,0.547615,-0.00583114,0.00245683,-0.00599255,-0.00209328,-0.0241162,-0.0163704,0.000222221,0,0,0,0,0,0,0,-0.0492511,-0.125089,0.535709,-1.80262,0.0673594,1.7364,1.3331,-0.00575939,0.0018507,-0.00160885,-0.00224178,-0.136207,0.00130761,-0.000249047,0.336795,-25.461,-2.06206,27.6492,0.54443,2.95342,0.050461,0.42318,0.77814,0.556625,-0.628861,0.379758,0.174515,0.135745,0.217324,0.256048,-0.161631,-0.0473933,-0.365101,0.0627462,
-0.0496725,-0.125403,0.535178,-1.80285,0.0260367,0.133612,0.547616,-0.00533176,0.00245671,-0.00551153,-0.00167939,-0.0204047,-0.0137194,0.000226457,0,0,0,0,0,0,0,-0.0492511,-0.125089,0.535709,-1.80262,0.0673594,1.7364,1.3331,-0.00575939,0.0018507,-0.00160885,-0.00224178,-0.136207,0.00130761,-0.000249047,0.336795,-25.461,-2.06206,27.6492,0.54443,2.95342,0.050461,0.184849,1.00741,0.541012,-0.699992,0.242731,0.346613,0.315486,0.160512,0.418882,-0.131345,0.0371437,-0.342724,0.0625645,
-0.05094,-0.124822,0.533651,-1.80203,-0.10937,-0.00457196,0.54611,-0.0277663,0.0133688,-0.0288433,-0.015659,-1.22266,-0.978597,-0.00719386,0,0,0,0,0,0,0,-0.0493031,-0.125055,0.535516,-1.80264,0.063512,1.73639,1.3331,-0.00429204,0.00231124,-0.0142488,-0.000931192,-0.102077,0.00306131,0.000798344,0.539127,-25.8617,-1.8637,27.8,0.667111,3.03307,0.0303194,0.184849,1.00741,0.541012,-0.699992,0.242731,0.346613,0.315486,0.160512,0.418882,-0.131345,0.0371437,-0.342724,0.0625645,
-0.0510395,-0.124809,0.53376,-1.80198,-0.0862523,0.0331212,0.546965,-0.0231794,0.00756025,-0.0239055,-0.00957028,-0.742091,-0.766013,-0.00234632,0,0,0,0,0,0,0,-0.0493031,-0.125055,0.535516,-1.80264,0.063512,1.73639,1.3331,-0.00429204,0.00231124,-0.0142488,-0.000931192,-0.102077,0.00306131,0.000798344,0.539127,-25.8617,-1.8637,27.8,0.667111,3.03307,0.0303194,0.333689,0.834991,0.515767,-0.558845,0.359672,0.231503,0.211522,0.232765,0.284497,-0.140811,0.0643808,-0.334098,0.061447,
-0.0511322,-0.12478,0.533665,-1.80202,-0.0891717,0.0300836,0.546956,-0.0231939,0.00725859,-0.0239283,-0.00959659,-0.729851,-0.759395,-0.00227816,0,0,0,0,0,0,0,-0.0493031,-0.125055,0.535516,-1.80264,0.063512,1.73639,1.3331,-0.00429204,0.00231124,-0.0142488,-0.000931192,-0.102077,0.00306131,0.000798344,0.539127,-25.8617,-1.8637,27.8,0.667111,3.03307,0.0303194,-0.0888468,1.33713,0.669532,-0.756957,0.0383574,0.575784,0.55914,0.0512265,0.625796,-0.0287957,0.169803,-0.307015,0.0628363,
-0.0512252,-0.124752,0.533569,-1.80206,-0.092038,0.0270768,0.546947,-0.0232377,0.00692203,-0.0239766,-0.00967383,-0.716562,-0.751699,-0.00221545,0,0,0,0,0,0,0,-0.0493031,-0.125055,0.535516,-1.80264,0.063512,1.73639,1.3331,-0.00429204,0.00231124,-0.0142488,-0.000931192,-0.102077,0.00306131,0.000798344,0.539127,-25.8617,-1.8637,27.8,0.667111,3.03307,0.0303194,-0.0888468,1.33713,0.669532,-0.756957,0.0383574,0.575784,0.55914,0.0512265,0.625796,-0.0287957,0.169803,-0.307015,0.0628363,
-0.0513185,-0.124726,0.533473,-1.8021,-0.094846,0.024106,0.546938,-0.0233197,0.00654948,-0.0240582,-0.00981426,-0.702016,-0.742694,-0.00215822,0,0,0,0,0,0,0,-0.0493031,-0.125055,0.535516,-1.80264,0.063512,1.73639,1.3331,-0.00429204,0.00231124,-0.0142488,-0.000931192,-0.102077,0.00306131,0.000798344,0.539127,-25.8617,-1.8637,27.8,0.667111,3.03307,0.0303194,1.28419,2.92042,0.966634,-1.67504,0.805688,0.928131,0.928055,0.343356,1.01093,0.15169,0.224568,-0.196703,0.0731643,
-0.0514123,-0.124701,0.533376,-1.80214,-0.0975899,0.0211776,0.54693,-0.0234504,0.00613974,-0.0241829,-0.0100328,-0.685965,-0.732104,-0.00210753,0,0,0,0,0,0,0,-0.0493031,-0.125055,0.535516,-1.80264,0.063512,1.73639,1.3331,-0.00429204,0.00231124,-0.0142488,-0.000931192,-0.102077,0.00306131,0.000798344,0.539127,-25.8617,-1.8637,27.8,0.667111,3.03307,0.0303194,1.28419,2.92042,0.966634,-1.67504,0.805688,0.928131,0.928055,0.343356,1.01093,0.15169,0.224568,-0.196703,0.0731643,
-0.0515068,-0.124679,0.533278,-1.80218,-0.100262,0.0182992,0.546922,-0.0236424,0.00569178,-0.0243622,-0.0103473,-0.668118,-0.719596,-0.00206411,0,0,0,0,0,0,0,-0.0492283,-0.125044,0.535491,-1.80164,0.0476895,1.72847,1.33309,0.00659087,0.00766447,0.00650263,0.0586851,-0.745995,-0.45659,0.000473118,-1.69445,-25.8339,-3.81163,25.9076,-0.50568,1.54168,0.0706026,1.53267,3.38208,0.803566,-2.09582,1.06615,1.06199,1.05707,0.507621,1.18234,0.0264432,0.178241,-0.249259,0.0781826,
-0.0516025,-0.124658,0.53318,-1.80222,-0.102855,0.0154801,0.546913,-0.0239108,0.00520497,-0.0246099,-0.0107793,-0.648129,-0.704772,-0.00202887,0,0,0,0,0,0,0,-0.0492283,-0.125044,0.535491,-1.80164,0.0476895,1.72847,1.33309,0.00659087,0.00766447,0.00650263,0.0586851,-0.745995,-0.45659,0.000473118,-1.69445,-25.8339,-3.81163,25.9076,-0.50568,1.54168,0.0706026,0.517559,2.07415,0.920727,-1.56463,0.364053,0.710753,0.683189,0.146799,0.84024,-0.119569,-0.139464,-0.470526,0.0788403,
-0.0516996,-0.124639,0.53308,-1.80227,-0.105357,0.0127315,0.546905,-0.0242738,0.00467926,-0.0249426,-0.0113548,-0.62559,-0.687153,-0.0020029,0,0,0,0,0,0,0,-0.0492283,-0.125044,0.535491,-1.80164,0.0476895,1.72847,1.33309,0.00659087,0.00766447,0.00650263,0.0586851,-0.745995,-0.45659,0.000473118,-1.69445,-25.8339,-3.81163,25.9076,-0.50568,1.54168,0.0706026,0.517559,2.07415,0.920727,-1.56463,0.364053,0.710753,0.683189,0.146799,0.84024,-0.119569,-0.139464,-0.470526,0.0788403,
-0.0517986,-0.124623,0.532979,-1.80232,-0.107757,0.0100669,0.546897,-0.0247525,0.00411568,-0.02538,-0.0121052,-0.600025,-0.666165,-0.00198703,0,0,0,0,0,0,0,-0.0492283,-0.125044,0.535491,-1.80164,0.0476895,1.72847,1.33309,0.00659087,0.00766447,0.00650263,0.0586851,-0.745995,-0.45659,0.000473118,-1.69445,-25.8339,-3.81163,25.9076,-0.50568,1.54168,0.0706026,1.22054,0.669399,1.01467,-1.05369,0.837442,-0.135579,-0.160972,0.387981,-0.00546875,-0.373969,-0.533395,-0.71702,0.0760828,
-0.0519001,-0.124609,0.532875,-1.80237,-0.110041,0.00750239,0.54689,-0.0253718,0.00351673,-0.0259448,-0.0130685,-0.570879,-0.641119,-0.0019832,0,0,0,0,0,0,0,-0.0492283,-0.125044,0.535491,-1.80164,0.0476895,1.72847,1.33309,0.00659087,0.00766447,0.00650263,0.0586851,-0.745995,-0.45659,0.000473118,-1.69445,-25.8339,-3.81163,25.9076,-0.50568,1.54168,0.0706026,1.22054,0.669399,1.01467,-1.05369,0.837442,-0.135579,-0.160972,0.387981,-0.00546875,-0.373969,-0.533395,-0.71702,0.0760828,
-0.0520047,-0.124597,0.532768,-1.80243,-0.112191,0.00505763,0.546882,-0.0261604,0.00288689,-0.0266637,-0.0142913,-0.537511,-0.61119,-0.00199115,0,0,0,0,0,0,0,-0.0489795,-0.125112,0.535896,-1.80016,0.0249174,1.71143,1.3331,0.00727573,-0.00111293,0.0169102,0.0356337,-0.69784,-0.572156,-0.000643465,-1.36517,-25.0881,-3.63707,26.2289,-0.407718,1.41533,0.0440523,0.422239,-0.0958915,1.78356,-0.523918,0.0608959,-0.287598,-0.317445,-0.109181,-0.189378,-0.18395,-0.649086,-0.856976,0.0764041,
-0.0521133,-0.124588,0.532658,-1.80249,-0.114188,0.00275609,0.546874,-0.027151,0.00223228,-0.0275668,-0.0158327,-0.499186,-0.575383,-0.00201097,0,0,0,0,0,0,0,-0.0489795,-0.125112,0.535896,-1.80016,0.0249174,1.71143,1.3331,0.00727573,-0.00111293,0.0169102,0.0356337,-0.69784,-0.572156,-0.000643465,-1.36517,-25.0881,-3.63707,26.2289,-0.407718,1.41533,0.0440523,0.422239,-0.0958915,1.78356,-0.523918,0.0608959,-0.287598,-0.317445,-0.109181,-0.189378,-0.18395,-0.649086,-0.856976,0.0764041,
-0.0522268,-0.124582,0.532543,-1.80256,-0.116008,0.000626173,0.546865,-0.0283817,0.00155876,-0.0286895,-0.017774,-0.455068,-0.53248,-0.002035,0,0,0,0,0,0,0,-0.0489795,-0.125112,0.535896,-1.80016,0.0249174,1.71143,1.3331,0.00727573,-0.00111293,0.0169102,0.0356337,-0.69784,-0.572156,-0.000643465,-1.36517,-25.0881,-3.63707,26.2289,-0.407718,1.41533,0.0440523,1.30442,-0.600977,1.71184,-0.404668,0.827165,-0.761291,-0.783543,0.360948,-0.657444,-0.471832,-0.769579,-1.07605,0.0714658,
-0.0523465,-0.124578,0.532423,-1.80264,-0.117625,-0.00129756,0.546857,-0.0299008,0.000862925,-0.0300762,-0.0202424,-0.404177,-0.480934,-0.00203584,0,0,0,0,0,0,0,-0.0489795,-0.125112,0.535896,-1.80016,0.0249174,1.71143,1.3331,0.00727573,-0.00111293,0.0169102,0.0356337,-0.69784,-0.572156,-0.000643465,-1.36517,-25.0881,-3.63707,26.2289,-0.407718,1.41533,0.0440523,0.325812,-1.38308,1.90405,-0.0949439,0.314688,-0.878337,-0.909518,0.176212,-0.773036,-0.697419,-0.89763,-1.41608,0.0664479,
-0.0524736,-0.124578,0.532296,-1.80274,-0.119006,-0.00297206,0.54685,-0.0317807,0.000103219,-0.031796,-0.0234783,-0.345283,-0.418623,-0.00190581,0,0,0,0,0,0,0,-0.0489795,-0.125112,0.535896,-1.80016,0.0249174,1.71143,1.3331,0.00727573,-0.00111293,0.0169102,0.0356337,-0.69784,-0.572156,-0.000643465,-1.36517,-25.0881,-3.63707,26.2289,-0.407718,1.41533,0.0440523,0.325812,-1.38308,1.90405,-0.0949439,0.314688,-0.878337,-0.909518,0.176212,-0.773036,-0.697419,-0.89763,-1.41608,0.0664479,
-0.05261,-0.124582,0.53216,-1.80285,-0.120112,-0.00434087,0.546846,-0.0341076,-0.000886976,-0.0340397,-0.0280299,-0.276567,-0.342202,-0.0010146,0,0,0,0,0,0,0,-0.0489795,-0.125112,0.535896,-1.80016,0.0249174,1.71143,1.3331,0.00727573,-0.00111293,0.0169102,0.0356337,-0.69784,-0.572156,-0.000643465,-1.36517,-25.0881,-3.63707,26.2289,-0.407718,1.41533,0.0440523,0.429731,-1.59658,2.24645,0.0374907,0.322546,-1.01543,-1.05443,0.151799,-0.909621,-0.672059,-0.944095,-1.52035,0.0653428,
-0.0527453,-0.124577,0.532022,-1.80295,-0.121013,-0.00548133,0.546843,-0.0338322,0.0012566,-0.0342892,-0.0261412,-0.225193,-0.285117,-0.000655391,0,0,0,0,0,0,0,-0.048893,-0.125318,0.536188,-1.79949,0.00488146,1.69473,1.33309,-0.00414968,-0.00122374,0.00351868,0.00976442,-0.546636,-0.475619,0.000722849,-0.932736,-24.9611,-3.23638,26.5781,-0.438846,1.68725,0.0376436,0.429731,-1.59658,2.24645,0.0374907,0.322546,-1.01543,-1.05443,0.151799,-0.909621,-0.672059,-0.944095,-1.52035,0.0653428,
-0.0528755,-0.124561,0.531889,-1.80304,-0.121754,-0.00644006,0.546841,-0.0325533,0.00376946,-0.0333903,-0.0226081,-0.185227,-0.239681,-0.000522067,0,0,0,0,0,0,0,-0.048893,-0.125318,0.536188,-1.79949,0.00488146,1.69473,1.33309,-0.00414968,-0.00122374,0.00351868,0.00976442,-0.546636,-0.475619,0.000722849,-0.932736,-24.9611,-3.23638,26.5781,-0.438846,1.68725,0.0376436,0.680751,-1.09963,2.00798,-0.34241,0.619316,-0.857105,-0.900097,0.354092,-0.720756,-0.793011,-0.916904,-1.54164,0.0619897,
-0.0529987,-0.124538,0.531761,-1.80312,-0.122367,-0.00724977,0.546839,-0.0307994,0.00585485,-0.0318994,-0.0189665,-0.153423,-0.202427,-0.000479928,0,0,0,0,0,0,0,-0.048893,-0.125318,0.536188,-1.79949,0.00488146,1.69473,1.33309,-0.00414968,-0.00122374,0.00351868,0.00976442,-0.546636,-0.475619,0.000722849,-0.932736,-24.9611,-3.23638,26.5781,-0.438846,1.68725,0.0376436,0.624483,-0.881654,1.87178,-0.463636,0.713605,-0.746394,-0.786356,0.464831,-0.606983,-0.885821,-0.829315,-1.58622,0.0581833,
-0.0531141,-0.124509,0.531641,-1.80318,-0.122878,-0.00793566,0.546837,-0.0288276,0.00736069,-0.0301094,-0.0156541,-0.12774,-0.171473,-0.000476941,0,0,0,0,0,0,0,-0.048893,-0.125318,0.536188,-1.79949,0.00488146,1.69473,1.33309,-0.00414968,-0.00122374,0.00351868,0.00976442,-0.546636,-0.475619,0.000722849,-0.932736,-24.9611,-3.23638,26.5781,-0.438846,1.68725,0.0376436,0.624483,-0.881654,1.87178,-0.463636,0.713605,-0.746394,-0.786356,0.464831,-0.606983,-0.885821,-0.829315,-1.58622,0.0581833,
-0.0532212,-0.124475,0.531528,-1.80323,-0.123305,-0.00851804,0.546835,-0.0267803,0.00833345,-0.0281876,-0.0127519,-0.106774,-0.145597,-0.000491741,0,0,0,0,0,0,0,-0.048893,-0.125318,0.536188,-1.79949,0.00488146,1.69473,1.33309,-0.00414968,-0.00122374,0.00351868,0.00976442,-0.546636,-0.475619,0.000722849,-0.932736,-24.9611,-3.23638,26.5781,-0.438846,1.68725,0.0376436,0.353139,-1.20582,1.80816,-0.193534,0.625196,-0.829139,-0.862475,0.475147,-0.715382,-0.940223,-0.740411,-1.62703,0.0576578,
-0.0533201,-0.12444,0.531423,-1.80327,-0.123663,-0.00901362,0.546833,-0.0247425,0.00886868,-0.0262363,-0.010234,-0.0895023,-0.123895,-0.000514691,0,0,0,0,0,0,0,-0.0490105,-0.125688,0.53604,-1.79958,-0.0104606,1.68166,1.33309,-0.00649816,-0.00420779,-0.00800504,-0.00462582,-0.402974,-0.340641,0.000397259,-0.171017,-25.1872,-2.53813,27.6016,0.1535,1.88592,0.050461,0.353139,-1.20582,1.80816,-0.193534,0.625196,-0.829139,-0.862475,0.475147,-0.715382,-0.940223,-0.740411,-1.62703,0.0576578,
-0.0534112,-0.124404,0.531326,-1.8033,-0.123964,-0.00943625,0.546831,-0.022766,0.00906286,-0.0243196,-0.00804982,-0.0751589,-0.105656,-0.000541006,0,0,0,0,0,0,0,-0.0490105,-0.125688,0.53604,-1.79958,-0.0104606,1.68166,1.33309,-0.00649816,-0.00420779,-0.00800504,-0.00462582,-0.402974,-0.340641,0.000397259,-0.171017,-25.1872,-2.53813,27.6016,0.1535,1.88592,0.050461,0.0234518,-1.1647,1.59878,-0.199838,0.549728,-0.728711,-0.759649,0.510032,-0.618488,-1.03935,-0.647923,-1.65947,0.057079,
-0.0534947,-0.124368,0.531236,-1.80333,-0.124217,-0.00979745,0.546829,-0.0208825,0.00899973,-0.0224773,-0.00614905,-0.0631593,-0.090301,-0.000568125,0,0,0,0,0,0,0,-0.0490105,-0.125688,0.53604,-1.79958,-0.0104606,1.68166,1.33309,-0.00649816,-0.00420779,-0.00800504,-0.00462582,-0.402974,-0.340641,0.000397259,-0.171017,-25.1872,-2.53813,27.6016,0.1535,1.88592,0.050461,0.0234518,-1.1647,1.59878,-0.199838,0.549728,-0.728711,-0.759649,0.510032,-0.618488,-1.03935,-0.647923,-1.65947,0.057079,
-0.0535712,-0.124333,0.531153,-1.80335,-0.124429,-0.0101069,0.546826,-0.01911,0.00874798,-0.0207333,-0.0044883,-0.053052,-0.0773519,-0.000594626,0,0,0,0,0,0,0,-0.0490105,-0.125688,0.53604,-1.79958,-0.0104606,1.68166,1.33309,-0.00649816,-0.00420779,-0.00800504,-0.00462582,-0.402974,-0.340641,0.000397259,-0.171017,-25.1872,-2.53813,27.6016,0.1535,1.88592,0.050461,-0.286248,-0.701923,1.69971,-0.271105,0.333123,-0.441572,-0.468453,0.400936,-0.348321,-0.907855,-0.438242,-1.58303,0.0604804,
-0.0763845,-0.119928,0.506434,-1.81072,-0.112905,-0.0330858,0.534508,-0.1982,0.0599251,-0.211942,-0.0691553,-1.24165,-1.33291,-0.060919,0,0,0,0,0,0,0,-0.0490105,-0.125688,0.53604,-1.79958,-0.0104606,1.68166,1.33309,-0.00649816,-0.00420779,-0.00800504,-0.00462582,-0.402974,-0.340641,0.000397259,-0.171017,-25.1872,-2.53813,27.6016,0.1535,1.88592,0.050461,-0.463414,0.289135,2.28771,-0.410538,-0.212191,0.0800099,0.0563237,-0.0753652,0.13978,-0.289376,-0.177612,-1.20535,0.0552688,
-0.0707148,-0.122169,0.512558,-1.80677,-0.190179,-0.00704754,0.540898,-0.16073,0.0339933,-0.171488,-0.0542498,-1.07288,-0.0282484,-0.0225513,0,0,0,0,0,0,0,-0.0490105,-0.125688,0.53604,-1.79958,-0.0104606,1.68166,1.33309,-0.00649816,-0.00420779,-0.00800504,-0.00462582,-0.402974,-0.340641,0.000397259,-0.171017,-25.1872,-2.53813,27.6016,0.1535,1.88592,0.050461,-0.463414,0.289135,2.28771,-0.410538,-0.212191,0.0800099,0.0563237,-0.0753652,0.13978,-0.289376,-0.177612,-1.20535,0.0552688,
-0.0713652,-0.122038,0.511864,-1.80698,-0.19426,-0.00699401,0.540811,-0.162588,0.0325723,-0.173334,-0.0534711,-1.02038,0.013382,-0.0217164,0,0,0,0,0,0,0,-0.0493246,-0.125647,0.535629,-1.79967,-0.0219786,1.67198,1.33307,-0.0186329,0.00469617,-0.0206853,-0.0122016,-0.376942,-0.352762,-0.00278679,0.463749,-25.8101,-1.96288,28.1253,1.12487,2.90673,0.178635,-0.383847,1.81216,2.08306,-1.07136,-0.228445,0.767645,0.747056,-0.125542,0.838397,-0.0219804,0.125168,-0.859592,0.0608988,
-0.0720227,-0.121914,0.511164,-1.80719,-0.198108,-0.00676948,0.540727,-0.164385,0.0311771,-0.175146,-0.052648,-0.961843,0.0561336,-0.0208956,0,0,0,0,0,0,0,-0.0493246,-0.125647,0.535629,-1.79967,-0.0219786,1.67198,1.33307,-0.0186329,0.00469617,-0.0206853,-0.0122016,-0.376942,-0.352762,-0.00278679,0.463749,-25.8101,-1.96288,28.1253,1.12487,2.90673,0.178635,-0.383847,1.81216,2.08306,-1.07136,-0.228445,0.767645,0.747056,-0.125542,0.838397,-0.0219804,0.125168,-0.859592,0.0608988,
-0.0726871,-0.121795,0.510456,-1.8074,-0.201698,-0.00636888,0.540647,-0.166094,0.0297884,-0.176879,-0.0518236,-0.897529,0.100149,-0.0200965,0,0,0,0,0,0,0,-0.0493246,-0.125647,0.535629,-1.79967,-0.0219786,1.67198,1.33307,-0.0186329,0.00469617,-0.0206853,-0.0122016,-0.376942,-0.352762,-0.00278679,0.463749,-25.8101,-1.96288,28.1253,1.12487,2.90673,0.178635,-0.8932,4.61474,1.63672,-2.52204,-0.546153,2.20356,2.18846,-0.297819,2.32209,0.246892,0.549888,-0.443254,0.0600193,
-0.0733579,-0.121681,0.509742,-1.8076,-0.205008,-0.00578665,0.54057,-0.167708,0.0283851,-0.178513,-0.0510284,-0.827447,0.145556,-0.0193262,0,0,0,0,0,0,0,-0.0493246,-0.125647,0.535629,-1.79967,-0.0219786,1.67198,1.33307,-0.0186329,0.00469617,-0.0206853,-0.0122016,-0.376942,-0.352762,-0.00278679,0.463749,-25.8101,-1.96288,28.1253,1.12487,2.90673,0.178635,-1.41159,5.43439,0.213954,-3.12692,-0.239045,2.72166,2.69558,0.164323,2.89052,-0.259891,0.8447,-0.411796,0.0483073,
-0.0740348,-0.121573,0.509022,-1.8078,-0.208013,-0.00501677,0.540495,-0.169229,0.0269459,-0.180043,-0.0502833,-0.751406,0.19247,-0.0185972,0,0,0,0,0,0,0,-0.0493246,-0.125647,0.535629,-1.79967,-0.0219786,1.67198,1.33307,-0.0186329,0.00469617,-0.0206853,-0.0122016,-0.376942,-0.352762,-0.00278679,0.463749,-25.8101,-1.96288,28.1253,1.12487,2.90673,0.178635,-1.41159,5.43439,0.213954,-3.12692,-0.239045,2.72166,2.69558,0.164323,2.89052,-0.259891,0.8447,-0.411796,0.0483073,
-0.0747175,-0.121471,0.508296,-1.808,-0.210689,-0.00405284,0.540423,-0.170668,0.0254505,-0.181473,-0.0496018,-0.669043,0.240983,-0.017917,0,0,0,0,0,0,0,-0.0500263,-0.125837,0.534253,-1.79976,-0.0428056,1.65792,1.33284,-0.0259112,-0.00734102,-0.0510759,-0.0166091,-1.01505,-0.429648,-0.00521479,-3.67016,-23.6876,-5.86272,27.1533,-1.68488,2.90673,-0.217789,-1.43204,2.50877,1.17296,-1.30702,-0.923176,1.42253,1.39722,-0.47114,1.49122,0.166732,0.361335,-0.353633,0.027318,
-0.0754057,-0.121376,0.507565,-1.8082,-0.213009,-0.0028882,0.540354,-0.17204,0.0238806,-0.182812,-0.0489924,-0.579855,0.291161,-0.0173011,0,0,0,0,0,0,0,-0.0500263,-0.125837,0.534253,-1.79976,-0.0428056,1.65792,1.33284,-0.0259112,-0.00734102,-0.0510759,-0.0166091,-1.01505,-0.429648,-0.00521479,-3.67016,-23.6876,-5.86272,27.1533,-1.68488,2.90673,-0.217789,-1.43204,2.50877,1.17296,-1.30702,-0.923176,1.42253,1.39722,-0.47114,1.49122,0.166732,0.361335,-0.353633,0.027318,
-0.0760991,-0.121287,0.506829,-1.80839,-0.214942,-0.00151613,0.540287,-0.173354,0.0222218,-0.184064,-0.0484578,-0.483245,0.343017,-0.0167588,0,0,0,0,0,0,0,-0.0500263,-0.125837,0.534253,-1.79976,-0.0428056,1.65792,1.33284,-0.0259112,-0.00734102,-0.0510759,-0.0166091,-1.01505,-0.429648,-0.00521479,-3.67016,-23.6876,-5.86272,27.1533,-1.68488,2.90673,-0.217789,2.5916,0.720659,1.28695,-0.531705,1.19701,-0.381373,-0.388161,0.31798,-0.332993,0.336483,-0.320907,-0.065749,0.0182987,
-0.0767975,-0.121205,0.506088,-1.80858,-0.216456,6.98176e-05,0.540222,-0.17461,0.0204652,-0.18523,-0.0479953,-0.378578,0.396486,-0.0163078,0,0,0,0,0,0,0,-0.0500263,-0.125837,0.534253,-1.79976,-0.0428056,1.65792,1.33284,-0.0259112,-0.00734102,-0.0510759,-0.0166091,-1.01505,-0.429648,-0.00521479,-3.67016,-23.6876,-5.86272,27.1533,-1.68488,2.90673,-0.217789,2.35178,1.71854,0.328663,-1.31167,1.36643,0.163626,0.137236,0.542868,0.283069,0.0671578,-0.235654,0.0302391,0.00968557,
-0.0775007,-0.121131,0.505343,-1.80877,-0.217517,0.00187528,0.540158,-0.175787,0.0186125,-0.186286,-0.0475916,-0.265299,0.451365,-0.0159757,0,0,0,0,0,0,0,-0.0500263,-0.125837,0.534253,-1.79976,-0.0428056,1.65792,1.33284,-0.0259112,-0.00734102,-0.0510759,-0.0166091,-1.01505,-0.429648,-0.00521479,-3.67016,-23.6876,-5.86272,27.1533,-1.68488,2.90673,-0.217789,2.35178,1.71854,0.328663,-1.31167,1.36643,0.163626,0.137236,0.542868,0.283069,0.0671578,-0.235654,0.0302391,0.00968557,
-0.0782079,-0.121064,0.504594,-1.80896,-0.21809,0.00390414,0.540095,-0.176822,0.0166842,-0.187175,-0.0472151,-0.143133,0.507216,-0.0157863,0,0,0,0,0,0,0,-0.0516215,-0.126309,0.531655,-1.80165,-0.0811287,1.64343,1.33229,-0.0588285,-0.0096174,-0.0894885,-0.0701073,-0.720243,-0.251457,-0.0077609,-2.47998,-24.5644,-4.91057,28.6728,-1.64826,3.83507,-0.110672,1.74382,2.16917,0.282065,-1.48614,0.872907,0.567819,0.537261,0.250187,0.689482,0.232497,-0.157297,0.192041,-0.00795943,
-0.0789183,-0.121005,0.503843,-1.80915,-0.21814,0.00615696,0.540032,-0.177578,0.0147338,-0.18777,-0.0467989,-0.0124661,0.563205,-0.0157881,0,0,0,0,0,0,0,-0.0516215,-0.126309,0.531655,-1.80165,-0.0811287,1.64343,1.33229,-0.0588285,-0.0096174,-0.0894885,-0.0701073,-0.720243,-0.251457,-0.0077609,-2.47998,-24.5644,-4.91057,28.6728,-1.64826,3.83507,-0.110672,1.74382,2.16917,0.282065,-1.48614,0.872907,0.567819,0.537261,0.250187,0.689482,0.232497,-0.157297,0.192041,-0.00795943,
-0.0796294,-0.120954,0.503091,-1.80933,-0.21764,0.00862829,0.539968,-0.177785,0.0128739,-0.187828,-0.0462102,0.125014,0.617832,-0.0160365,0,0,0,0,0,0,0,-0.0516215,-0.126309,0.531655,-1.80165,-0.0811287,1.64343,1.33229,-0.0588285,-0.0096174,-0.0894885,-0.0701073,-0.720243,-0.251457,-0.0077609,-2.47998,-24.5644,-4.91057,28.6728,-1.64826,3.83507,-0.110672,2.80129,0.0772207,1.38691,-0.178673,0.827945,-0.612334,-0.631167,-0.114589,-0.571615,0.738696,-0.636149,0.303861,-0.0245162,
-0.0803372,-0.120908,0.502344,-1.80951,-0.216579,0.0113023,0.539901,-0.176947,0.0113203,-0.186899,-0.045193,0.265239,0.668496,-0.0166281,0,0,0,0,0,0,0,-0.0516215,-0.126309,0.531655,-1.80165,-0.0811287,1.64343,1.33229,-0.0588285,-0.0096174,-0.0894885,-0.0701073,-0.720243,-0.251457,-0.0077609,-2.47998,-24.5644,-4.91057,28.6728,-1.64826,3.83507,-0.110672,2.80129,0.0772207,1.38691,-0.178673,0.827945,-0.612334,-0.631167,-0.114589,-0.571615,0.738696,-0.636149,0.303861,-0.0245162,
-0.081034,-0.120866,0.501607,-1.80969,-0.214978,0.0141458,0.53983,-0.174215,0.0104591,-0.184209,-0.0432744,0.400205,0.710874,-0.0177322,0,0,0,0,0,0,0,-0.0516215,-0.126309,0.531655,-1.80165,-0.0811287,1.64343,1.33229,-0.0588285,-0.0096174,-0.0894885,-0.0701073,-0.720243,-0.251457,-0.0077609,-2.47998,-24.5644,-4.91057,28.6728,-1.64826,3.83507,-0.110672,3.1919,-0.9704,1.34372,0.278008,1.0842,-1.18762,-1.20812,0.0169628,-1.15417,0.603594,-0.863618,0.19736,-0.0282689,
-0.081707,-0.120823,0.500893,-1.80985,-0.212913,0.0170982,0.539751,-0.168237,0.0109519,-0.17851,-0.0395921,0.516125,0.738109,-0.0196991,0,0,0,0,0,0,0,-0.0516215,-0.126309,0.531655,-1.80165,-0.0811287,1.64343,1.33229,-0.0588285,-0.0096174,-0.0894885,-0.0701073,-0.720243,-0.251457,-0.0077609,-2.47998,-24.5644,-4.91057,28.6728,-1.64826,3.83507,-0.110672,3.1919,-0.9704,1.34372,0.278008,1.0842,-1.18762,-1.20812,0.0169628,-1.15417,0.603594,-0.863618,0.19736,-0.0282689,
-0.0823351,-0.120767,0.500221,-1.80998,-0.210546,0.0200565,0.539659,-0.157033,0.0139415,-0.167932,-0.0324887,0.591901,0.739572,-0.0232235,0,0,0,0,0,0,0,-0.0541687,-0.126572,0.528102,-1.80413,-0.0940719,1.64065,1.33219,-0.0973787,-0.00564923,-0.119808,-0.0623931,-0.183418,0.0155773,-0.00328462,-1.79364,-24.9135,-4.41069,28.0737,0.17181,3.19878,-0.050247,2.84857,-0.721151,0.559545,-0.0238478,1.294,-0.984659,-1.00152,0.329332,-0.926481,0.205015,-0.761874,0.0926096,-0.0351594,
-0.0828863,-0.12068,0.499622,-1.81005,-0.208154,0.0228464,0.539544,-0.137794,0.0216787,-0.149762,-0.0182193,0.597868,0.697476,-0.0285083,0,0,0,0,0,0,0,-0.0541687,-0.126572,0.528102,-1.80413,-0.0940719,1.64065,1.33219,-0.0973787,-0.00564923,-0.119808,-0.0623931,-0.183418,0.0155773,-0.00328462,-1.79364,-24.9135,-4.41069,28.0737,0.17181,3.19878,-0.050247,2.6368,-1.76796,-0.527483,0.491511,1.67523,-1.40264,-1.40734,0.790616,-1.37008,-0.306679,-0.677019,-0.00158882,-0.0416458,
-0.0833094,-0.120521,0.499143,-1.81,-0.206192,0.0251444,0.539484,-0.105766,0.039709,-0.119677,0.013369,0.490687,0.574497,-0.0151364,0,0,0,0,0,0,0,-0.0541687,-0.126572,0.528102,-1.80413,-0.0940719,1.64065,1.33219,-0.0973787,-0.00564923,-0.119808,-0.0623931,-0.183418,0.0155773,-0.00328462,-1.79364,-24.9135,-4.41069,28.0737,0.17181,3.19878,-0.050247,2.6368,-1.76796,-0.527483,0.491511,1.67523,-1.40264,-1.40734,0.790616,-1.37008,-0.306679,-0.677019,-0.00158882,-0.0416458,
-0.083655,-0.120357,0.498752,-1.80992,-0.204495,0.0271429,0.539422,-0.0864013,0.0410137,-0.0979627,0.0188828,0.424269,0.499634,-0.01551,0,0,0,0,0,0,0,-0.0541687,-0.126572,0.528102,-1.80413,-0.0940719,1.64065,1.33219,-0.0973787,-0.00564923,-0.119808,-0.0623931,-0.183418,0.0155773,-0.00328462,-1.79364,-24.9135,-4.41069,28.0737,0.17181,3.19878,-0.050247,0.939012,-1.97049,-0.488241,0.776962,0.668114,-1.07895,-1.07644,0.362294,-1.08592,-0.315953,-0.481367,-0.0894232,-0.0455873,
-0.0839451,-0.120208,0.498422,-1.80985,-0.202969,0.0289309,0.539357,-0.0725378,0.0372686,-0.0823406,0.0167283,0.381431,0.446987,-0.0162458,0,0,0,0,0,0,0,-0.0541687,-0.126572,0.528102,-1.80413,-0.0940719,1.64065,1.33219,-0.0973787,-0.00564923,-0.119808,-0.0623931,-0.183418,0.0155773,-0.00328462,-1.79364,-24.9135,-4.41069,28.0737,0.17181,3.19878,-0.050247,0.939012,-1.97049,-0.488241,0.776962,0.668114,-1.07895,-1.07644,0.362294,-1.08592,-0.315953,-0.481367,-0.0894232,-0.0455873,
-0.0841934,-0.120079,0.49814,-1.8098,-0.201555,0.0305575,0.53929,-0.0620755,0.0324101,-0.070621,0.0129357,0.353506,0.40666,-0.0167206,0,0,0,0,0,0,0,-0.0581242,-0.12628,0.523851,-1.80531,-0.0939733,1.6431,1.33209,-0.130913,0.0206823,-0.138123,-0.0212477,0.0286138,0.0908357,-0.00141736,0.562931,-26.2584,-1.93511,28.1967,0.550839,3.35808,-0.0703886,-0.106844,-1.21102,-0.337324,0.544281,-0.013909,-0.473812,-0.473954,0.0300601,-0.487727,-0.172828,-0.220181,-0.0424788,-0.045519,
-0.0844092,-0.119968,0.497893,-1.80976,-0.200213,0.0320553,0.539222,-0.0539425,0.0277259,-0.06158,0.00932474,0.335471,0.374449,-0.0170279,0,0,0,0,0,0,0,-0.0581242,-0.12628,0.523851,-1.80531,-0.0939733,1.6431,1.33209,-0.130913,0.0206823,-0.138123,-0.0212477,0.0286138,0.0908357,-0.00141736,0.562931,-26.2584,-1.93511,28.1967,0.550839,3.35808,-0.0703886,-0.106844,-1.21102,-0.337324,0.544281,-0.013909,-0.473812,-0.473954,0.0300601,-0.487727,-0.172828,-0.220181,-0.0424788,-0.045519,
-0.0845992,-0.119873,0.497676,-1.80974,-0.198916,0.0334483,0.539153,-0.047495,0.0235881,-0.0544702,0.00632906,0.324139,0.348244,-0.0172368,0,0,0,0,0,0,0,-0.0581242,-0.12628,0.523851,-1.80531,-0.0939733,1.6431,1.33209,-0.130913,0.0206823,-0.138123,-0.0212477,0.0286138,0.0908357,-0.00141736,0.562931,-26.2584,-1.93511,28.1967,0.550839,3.35808,-0.0703886,-1.07141,-0.694057,-0.501525,0.401446,-0.513795,0.0023792,0.00714469,-0.146128,-0.0244082,-0.169567,0.0361019,-0.00890036,-0.0464802,
-0.096349,-0.113812,0.485017,-1.81247,-0.185433,-0.0845827,0.528708,-0.328086,0.10474,-0.352659,-0.0966752,-1.22701,-1.14499,-0.0788091,0,0,0,0,0,0,0,-0.0581242,-0.12628,0.523851,-1.80531,-0.0939733,1.6431,1.33209,-0.130913,0.0206823,-0.138123,-0.0212477,0.0286138,0.0908357,-0.00141736,0.562931,-26.2584,-1.93511,28.1967,0.550839,3.35808,-0.0703886,-1.81764,-0.254136,-0.622311,0.254374,-0.756882,0.364649,0.388148,-0.139184,0.318176,-0.302172,0.287894,-0.120536,-0.0470835,
-0.0911132,-0.118297,0.488182,-1.81225,-0.217983,0.0141408,0.537419,-0.190406,0.0465653,-0.203611,-0.0430345,-0.262979,-0.2838,-0.0383587,0,0,0,0,0,0,0,-0.0581242,-0.12628,0.523851,-1.80531,-0.0939733,1.6431,1.33209,-0.130913,0.0206823,-0.138123,-0.0212477,0.0286138,0.0908357,-0.00141736,0.562931,-26.2584,-1.93511,28.1967,0.550839,3.35808,-0.0703886,-1.81764,-0.254136,-0.622311,0.254374,-0.756882,0.364649,0.388148,-0.139184,0.318176,-0.302172,0.287894,-0.120536,-0.0470835,
-0.0918744,-0.118115,0.487368,-1.81242,-0.218782,0.0130771,0.537268,-0.190319,0.0456492,-0.203492,-0.0427096,-0.199944,-0.265925,-0.0375657,0,0,0,0,0,0,0,-0.0581242,-0.12628,0.523851,-1.80531,-0.0939733,1.6431,1.33209,-0.130913,0.0206823,-0.138123,-0.0212477,0.0286138,0.0908357,-0.00141736,0.562931,-26.2584,-1.93511,28.1967,0.550839,3.35808,-0.0703886,-2.05887,0.561841,-1.02821,-0.27834,-0.550695,0.771919,0.81309,0.132059,0.740527,-0.586472,0.475179,-0.253961,-0.0429071,
-0.0926355,-0.117936,0.486555,-1.81259,-0.219315,0.0120882,0.537121,-0.190272,0.0446359,-0.203401,-0.0423784,-0.133132,-0.247228,-0.0367957,0,0,0,0,0,0,0,-0.0622107,-0.125348,0.519644,-1.80515,-0.094899,1.6463,1.33204,-0.141472,0.0213546,-0.149083,0.0110159,-0.107189,0.0753858,-0.00774346,0.285221,-25.3856,-2.13744,25.7092,0.221249,1.93902,-0.137222,-2.05887,0.561841,-1.02821,-0.27834,-0.550695,0.771919,0.81309,0.132059,0.740527,-0.586472,0.475179,-0.253961,-0.0429071,
-0.0933966,-0.117762,0.485741,-1.81276,-0.219563,0.0111776,0.536977,-0.190279,0.0435143,-0.203352,-0.0420487,-0.0620075,-0.227653,-0.0360522,0,0,0,0,0,0,0,-0.0622107,-0.125348,0.519644,-1.80515,-0.094899,1.6463,1.33204,-0.141472,0.0213546,-0.149083,0.0110159,-0.107189,0.0753858,-0.00774346,0.285221,-25.3856,-2.13744,25.7092,0.221249,1.93902,-0.137222,-4.38817,4.94198,-1.83229,-2.9352,-1.61516,3.36902,3.3933,-0.233086,3.4791,-0.727586,0.997867,-0.15737,-0.042667,
-0.094158,-0.117593,0.484928,-1.81293,-0.219507,0.0103491,0.536836,-0.190352,0.0422735,-0.203356,-0.0417299,0.0140299,-0.207123,-0.0353405,0,0,0,0,0,0,0,-0.0622107,-0.125348,0.519644,-1.80515,-0.094899,1.6463,1.33204,-0.141472,0.0213546,-0.149083,0.0110159,-0.107189,0.0753858,-0.00774346,0.285221,-25.3856,-2.13744,25.7092,0.221249,1.93902,-0.137222,-4.38817,4.94198,-1.83229,-2.9352,-1.61516,3.36902,3.3933,-0.233086,3.4791,-0.727586,0.997867,-0.15737,-0.042667,
-0.0949201,-0.117429,0.484114,-1.81309,-0.219124,0.00960693,0.536697,-0.190507,0.0409026,-0.203426,-0.0414333,0.0956459,-0.18554,-0.0346667,0,0,0,0,0,0,0,-0.0622107,-0.125348,0.519644,-1.80515,-0.094899,1.6463,1.33204,-0.141472,0.0213546,-0.149083,0.0110159,-0.107189,0.0753858,-0.00774346,0.285221,-25.3856,-2.13744,25.7092,0.221249,1.93902,-0.137222,-2.75354,3.39533,-2.60299,-2.18712,-0.184724,2.24285,2.25523,0.663291,2.35083,-1.19409,0.880876,-0.261455,-0.0421539,
-0.0956831,-0.117272,0.4833,-1.81326,-0.21839,0.00895582,0.536561,-0.190754,0.039391,-0.203571,-0.0411734,0.183565,-0.162778,-0.0340417,0,0,0,0,0,0,0,-0.0622107,-0.125348,0.519644,-1.80515,-0.094899,1.6463,1.33204,-0.141472,0.0213546,-0.149083,0.0110159,-0.107189,0.0753858,-0.00774346,0.285221,-25.3856,-2.13744,25.7092,0.221249,1.93902,-0.137222,-1.39777,2.02231,-0.680407,-1.18657,-0.166921,1.27471,1.34004,0.268569,1.27102,-0.512921,0.504251,-0.28693,-0.0534004,
-0.0964475,-0.117121,0.482485,-1.81342,-0.217276,0.00840112,0.536427,-0.191102,0.0377289,-0.203799,-0.0409698,0.27855,-0.138675,-0.0334765,0,0,0,0,0,0,0,-0.0666092,-0.124957,0.51398,-1.80478,-0.107517,1.644,1.33144,-0.133743,0.00117744,-0.173988,-0.00507064,-0.299729,-0.0686272,-0.0163315,-1.59131,-25.8339,-4.11315,27.4271,-0.297855,2.15142,-0.0163725,-1.39777,2.02231,-0.680407,-1.18657,-0.166921,1.27471,1.34004,0.268569,1.27102,-0.512921,0.504251,-0.28693,-0.0534004,
-0.0972137,-0.116977,0.481668,-1.81359,-0.21575,0.00794902,0.536295,-0.191552,0.0359088,-0.204111,-0.0408484,0.381367,-0.113025,-0.0329867,0,0,0,0,0,0,0,-0.0666092,-0.124957,0.51398,-1.80478,-0.107517,1.644,1.33144,-0.133743,0.00117744,-0.173988,-0.00507064,-0.299729,-0.0686272,-0.0163315,-1.59131,-25.8339,-4.11315,27.4271,-0.297855,2.15142,-0.0163725,0.173494,0.247979,-0.404676,-0.322687,0.734654,0.0692552,0.167099,0.666052,0.014252,-0.605062,0.115777,-0.434966,-0.061985,
-0.0979821,-0.116842,0.48085,-1.81375,-0.213779,0.00760675,0.536165,-0.192093,0.0339288,-0.204497,-0.040843,0.492706,-0.0855682,-0.0325961,0,0,0,0,0,0,0,-0.0666092,-0.124957,0.51398,-1.80478,-0.107517,1.644,1.33144,-0.133743,0.00117744,-0.173988,-0.00507064,-0.299729,-0.0686272,-0.0163315,-1.59131,-25.8339,-4.11315,27.4271,-0.297855,2.15142,-0.0163725,0.173494,0.247979,-0.404676,-0.322687,0.734654,0.0692552,0.167099,0.666052,0.014252,-0.605062,0.115777,-0.434966,-0.061985,
-0.0987528,-0.116714,0.480031,-1.81391,-0.211327,0.00738281,0.536035,-0.192685,0.0317964,-0.20492,-0.0409966,0.613038,-0.055984,-0.032334,0,0,0,0,0,0,0,-0.0666092,-0.124957,0.51398,-1.80478,-0.107517,1.644,1.33144,-0.133743,0.00117744,-0.173988,-0.00507064,-0.299729,-0.0686272,-0.0163315,-1.59131,-25.8339,-4.11315,27.4271,-0.297855,2.15142,-0.0163725,-0.0020033,-1.182,-0.367242,0.361227,0.672982,-0.56799,-0.463143,0.6773,-0.650204,-0.798757,-0.121438,-0.654154,-0.0712271,
-0.0995162,-0.116591,0.479216,-1.81408,-0.20845,0.00728218,0.535908,-0.190855,0.0307176,-0.203709,-0.0407997,0.719386,-0.0251563,-0.031923,0,0,0,0,0,0,0,-0.0666092,-0.124957,0.51398,-1.80478,-0.107517,1.644,1.33144,-0.133743,0.00117744,-0.173988,-0.00507064,-0.299729,-0.0686272,-0.0163315,-1.59131,-25.8339,-4.11315,27.4271,-0.297855,2.15142,-0.0163725,-1.19086,-1.74408,0.191985,0.742132,-0.304219,-0.564915,-0.467576,0.110571,-0.669345,-0.641763,-0.205437,-0.761811,-0.0733192,
-0.100261,-0.116469,0.478416,-1.81424,-0.205246,0.00731378,0.535781,-0.186208,0.0306735,-0.199968,-0.0406812,0.800861,0.00789889,-0.031633,0,0,0,0,0,0,0,-0.0666092,-0.124957,0.51398,-1.80478,-0.107517,1.644,1.33144,-0.133743,0.00117744,-0.173988,-0.00507064,-0.299729,-0.0686272,-0.0163315,-1.59131,-25.8339,-4.11315,27.4271,-0.297855,2.15142,-0.0163725,-1.19086,-1.74408,0.191985,0.742132,-0.304219,-0.564915,-0.467576,0.110571,-0.669345,-0.641763,-0.205437,-0.761811,-0.0733192,
-0.100981,-0.116346,0.477639,-1.8144,-0.201791,0.0074941,0.535654,-0.179994,0.0307921,-0.194281,-0.041338,0.863878,0.0450807,-0.0318416,0,0,0,0,0,0,0,-0.0715416,-0.124749,0.508356,-1.80485,-0.110098,1.64282,1.33123,-0.162916,0.00829425,-0.181814,-0.00824538,0.0431647,-0.0200596,-0.00645893,-1.3136,-26.2346,-3.53789,27.1533,-0.23743,2.29699,0.0101778,-1.67704,-1.04638,0.586298,0.342356,-0.782654,-0.13448,-0.0500149,-0.218144,-0.212529,-0.467428,-0.208667,-0.758923,-0.0713209,
-0.101672,-0.116223,0.47689,-1.81458,-0.198139,0.00784267,0.535523,-0.172697,0.0307469,-0.187198,-0.0428287,0.912847,0.0871417,-0.032701,0,0,0,0,0,0,0,-0.0715416,-0.124749,0.508356,-1.80485,-0.110098,1.64282,1.33123,-0.162916,0.00829425,-0.181814,-0.00824538,0.0431647,-0.0200596,-0.00645893,-1.3136,-26.2346,-3.53789,27.1533,-0.23743,2.29699,0.0101778,-1.67704,-1.04638,0.586298,0.342356,-0.782654,-0.13448,-0.0500149,-0.218144,-0.212529,-0.467428,-0.208667,-0.758923,-0.0713209,
-0.10233,-0.116101,0.476174,-1.81476,-0.194336,0.00837771,0.535385,-0.164556,0.0304444,-0.178979,-0.0449459,0.950832,0.13376,-0.0344906,0,0,0,0,0,0,0,-0.0715416,-0.124749,0.508356,-1.80485,-0.110098,1.64282,1.33123,-0.162916,0.00829425,-0.181814,-0.00824538,0.0431647,-0.0200596,-0.00645893,-1.3136,-26.2346,-3.53789,27.1533,-0.23743,2.29699,0.0101778,-0.724605,-0.119884,0.385647,-0.350719,-0.00857333,0.0818326,0.179603,0.209421,0.0418937,-0.615377,-0.215346,-0.791095,-0.0830971,
-0.102952,-0.115981,0.475496,-1.81494,-0.190417,0.00910899,0.535234,-0.155604,0.029968,-0.169616,-0.0471936,0.97985,0.18282,-0.0377209,0,0,0,0,0,0,0,-0.0715416,-0.124749,0.508356,-1.80485,-0.110098,1.64282,1.33123,-0.162916,0.00829425,-0.181814,-0.00824538,0.0431647,-0.0200596,-0.00645893,-1.3136,-26.2346,-3.53789,27.1533,-0.23743,2.29699,0.0101778,-0.724605,-0.119884,0.385647,-0.350719,-0.00857333,0.0818326,0.179603,0.209421,0.0418937,-0.615377,-0.215346,-0.791095,-0.0830971,
-0.103535,-0.115862,0.47486,-1.81514,-0.186413,0.0100253,0.535061,-0.145617,0.0296982,-0.158784,-0.0484746,1.00096,0.229088,-0.0431916,0,0,0,0,0,0,0,-0.0715416,-0.124749,0.508356,-1.80485,-0.110098,1.64282,1.33123,-0.162916,0.00829425,-0.181814,-0.00824538,0.0431647,-0.0200596,-0.00645893,-1.3136,-26.2346,-3.53789,27.1533,-0.23743,2.29699,0.0101778,0.123122,-1.73442,0.0624815,0.552907,0.689188,-0.870833,-0.764879,0.651953,-0.952099,-0.84364,-0.33764,-0.86344,-0.0849136,
-0.104071,-0.115739,0.474277,-1.81532,-0.182356,0.011072,0.534858,-0.133963,0.0307541,-0.145736,-0.0461948,1.01414,0.261659,-0.0507491,0,0,0,0,0,0,0,-0.0774579,-0.124723,0.502014,-1.80503,-0.102992,1.64281,1.33112,-0.172072,0.00313426,-0.196926,0.00435087,0.368996,3.37541e-07,-0.00630516,-0.274166,-25.7625,-2.61351,26.0544,0.269772,1.9793,-0.0301054,0.812247,-2.94783,-0.308071,1.24228,1.29947,-1.59372,-1.48756,1.05426,-1.70076,-1.05173,-0.398753,-0.900416,-0.0881801,
-0.104508,-0.115575,0.473786,-1.81545,-0.178653,0.0120765,0.534716,-0.109261,0.0409785,-0.122964,-0.0308111,0.925815,0.251132,-0.0356351,0,0,0,0,0,0,0,-0.0774579,-0.124723,0.502014,-1.80503,-0.102992,1.64281,1.33112,-0.172072,0.00313426,-0.196926,0.00435087,0.368996,3.37541e-07,-0.00630516,-0.274166,-25.7625,-2.61351,26.0544,0.269772,1.9793,-0.0301054,0.812247,-2.94783,-0.308071,1.24228,1.29947,-1.59372,-1.48756,1.05426,-1.70076,-1.05173,-0.398753,-0.900416,-0.0881801,
-0.104882,-0.115406,0.473364,-1.81555,-0.175182,0.0130965,0.534574,-0.0934928,0.0423472,-0.105284,-0.0269549,0.867781,0.255006,-0.0355173,0,0,0,0,0,0,0,-0.0774579,-0.124723,0.502014,-1.80503,-0.102992,1.64281,1.33112,-0.172072,0.00313426,-0.196926,0.00435087,0.368996,3.37541e-07,-0.00630516,-0.274166,-25.7625,-2.61351,26.0544,0.269772,1.9793,-0.0301054,-0.16323,-3.16181,-0.357094,1.47498,0.762582,-1.47795,-1.38738,0.855202,-1.59319,-1.09947,-0.269603,-0.962559,-0.0939117,
-0.105209,-0.115243,0.472996,-1.81566,-0.171867,0.0141473,0.534429,-0.081751,0.0406228,-0.0921046,-0.0263135,0.828714,0.26269,-0.0361037,0,0,0,0,0,0,0,-0.0774579,-0.124723,0.502014,-1.80503,-0.102992,1.64281,1.33112,-0.172072,0.00313426,-0.196926,0.00435087,0.368996,3.37541e-07,-0.00630516,-0.274166,-25.7625,-2.61351,26.0544,0.269772,1.9793,-0.0301054,-0.16323,-3.16181,-0.357094,1.47498,0.762582,-1.47795,-1.38738,0.855202,-1.59319,-1.09947,-0.269603,-0.962559,-0.0939117,
-0.1055,-0.115092,0.472668,-1.81576,-0.168658,0.0152303,0.534283,-0.0726757,0.0378679,-0.0820106,-0.0262517,0.802279,0.270745,-0.0365399,0,0,0,0,0,0,0,-0.0774579,-0.124723,0.502014,-1.80503,-0.102992,1.64281,1.33112,-0.172072,0.00313426,-0.196926,0.00435087,0.368996,3.37541e-07,-0.00630516,-0.274166,-25.7625,-2.61351,26.0544,0.269772,1.9793,-0.0301054,-1.39071,-2.26751,-0.244231,1.16304,0.0302988,-0.799494,-0.711473,0.531874,-0.918922,-1.02511,0.035402,-0.976167,-0.0877102,
-0.105762,-0.114952,0.472372,-1.81587,-0.16552,0.0163429,0.534136,-0.0655029,0.0348559,-0.0741141,-0.026043,0.784484,0.278156,-0.0368457,0,0,0,0,0,0,0,-0.0827185,-0.124639,0.496067,-1.80509,-0.0896928,1.6436,1.33094,-0.187153,0.00853396,-0.191569,-0.00595927,0.43587,0.0407364,-0.0142869,1.50318,-26.5083,-1.08611,27.0779,1.1679,2.65496,-0.050247,-1.39071,-2.26751,-0.244231,1.16304,0.0302988,-0.799494,-0.711473,0.531874,-0.918922,-1.02511,0.035402,-0.976167,-0.0877102,
-0.11112,-0.114514,0.466675,-1.81888,-0.257585,-0.0995286,0.525924,-0.326162,0.0929353,-0.350408,-0.104032,-1.20134,-0.893887,-0.0942337,0,0,0,0,0,0,0,-0.0827185,-0.124639,0.496067,-1.80509,-0.0896928,1.6436,1.33094,-0.187153,0.00853396,-0.191569,-0.00595927,0.43587,0.0407364,-0.0142869,1.50318,-26.5083,-1.08611,27.0779,1.1679,2.65496,-0.050247,-2.17891,-1.11617,-0.0206143,0.873248,-0.610398,-0.0744285,0.0267044,0.164393,-0.226755,-0.700281,0.431876,-0.766171,-0.0825474,
-0.115232,-0.119769,0.460773,-1.81427,-0.169121,0.066033,0.533665,-0.175168,0.0217924,-0.188796,-0.056498,-0.19132,0.37938,-0.0584029,0,0,0,0,0,0,0,-0.0827185,-0.124639,0.496067,-1.80509,-0.0896928,1.6436,1.33094,-0.187153,0.00853396,-0.191569,-0.00595927,0.43587,0.0407364,-0.0142869,1.50318,-26.5083,-1.08611,27.0779,1.1679,2.65496,-0.050247,-2.17891,-1.11617,-0.0206143,0.873248,-0.610398,-0.0744285,0.0267044,0.164393,-0.226755,-0.700281,0.431876,-0.766171,-0.0825474,
-0.115931,-0.119685,0.46002,-1.81449,-0.169733,0.0676555,0.533434,-0.174705,0.0209817,-0.188296,-0.0563282,-0.152981,0.405627,-0.0576234,0,0,0,0,0,0,0,-0.0827185,-0.124639,0.496067,-1.80509,-0.0896928,1.6436,1.33094,-0.187153,0.00853396,-0.191569,-0.00595927,0.43587,0.0407364,-0.0142869,1.50318,-26.5083,-1.08611,27.0779,1.1679,2.65496,-0.050247,-2.17625,0.192569,-0.358777,0.192611,-0.541928,0.570118,0.677735,0.211564,0.437927,-0.643039,0.64855,-0.575594,-0.0898425,
-0.116628,-0.119605,0.459268,-1.81472,-0.170182,0.0693881,0.533207,-0.174301,0.0201908,-0.187847,-0.0562226,-0.112274,0.433132,-0.0568615,0,0,0,0,0,0,0,-0.0827185,-0.124639,0.496067,-1.80509,-0.0896928,1.6436,1.33094,-0.187153,0.00853396,-0.191569,-0.00595927,0.43587,0.0407364,-0.0142869,1.50318,-26.5083,-1.08611,27.0779,1.1679,2.65496,-0.050247,-2.61203,2.75063,-0.852536,-1.39859,-0.666547,1.89974,2.00535,0.166997,1.84942,-0.666709,0.853684,-0.423316,-0.0945692,
-0.117324,-0.119527,0.458519,-1.81494,-0.170457,0.0712359,0.532982,-0.173962,0.0194117,-0.18745,-0.0561804,-0.0688557,0.461962,-0.0561231,0,0,0,0,0,0,0,-0.0827185,-0.124639,0.496067,-1.80509,-0.0896928,1.6436,1.33094,-0.187153,0.00853396,-0.191569,-0.00595927,0.43587,0.0407364,-0.0142869,1.50318,-26.5083,-1.08611,27.0779,1.1679,2.65496,-0.050247,-2.61203,2.75063,-0.852536,-1.39859,-0.666547,1.89974,2.00535,0.166997,1.84942,-0.666709,0.853684,-0.423316,-0.0945692,
-0.118018,-0.119452,0.45777,-1.81517,-0.170547,0.0732046,0.53276,-0.173693,0.0186367,-0.187111,-0.0562013,-0.0223268,0.49218,-0.0554091,0,0,0,0,0,0,0,-0.0889011,-0.124174,0.489595,-1.80494,-0.0807652,1.64285,1.33061,-0.174748,0.0179208,-0.210289,0.0223438,0.00207353,-0.119244,-0.0207648,-2.98779,-26.1116,-5.13671,24.162,-1.15296,2.05163,-0.083206,-2.72571,2.12428,-1.68797,-1.22229,-0.331448,1.61979,1.70486,0.533245,1.59922,-1.11312,0.798604,-0.545951,-0.0968984,
-0.118712,-0.119381,0.457023,-1.81539,-0.170435,0.0753,0.532542,-0.173499,0.0178587,-0.186833,-0.0562853,0.0277669,0.523842,-0.0547236,0,0,0,0,0,0,0,-0.0889011,-0.124174,0.489595,-1.80494,-0.0807652,1.64285,1.33061,-0.174748,0.0179208,-0.210289,0.0223438,0.00207353,-0.119244,-0.0207648,-2.98779,-26.1116,-5.13671,24.162,-1.15296,2.05163,-0.083206,-2.72571,2.12428,-1.68797,-1.22229,-0.331448,1.61979,1.70486,0.533245,1.59922,-1.11312,0.798604,-0.545951,-0.0968984,
-0.119406,-0.119313,0.456276,-1.81562,-0.170108,0.077528,0.532325,-0.173387,0.0170707,-0.186622,-0.0564332,0.0819422,0.556993,-0.0540743,0,0,0,0,0,0,0,-0.0889011,-0.124174,0.489595,-1.80494,-0.0807652,1.64285,1.33061,-0.174748,0.0179208,-0.210289,0.0223438,0.00207353,-0.119244,-0.0207648,-2.98779,-26.1116,-5.13671,24.162,-1.15296,2.05163,-0.083206,-2.97229,0.00952519,-1.08194,0.0332244,-0.753446,0.659851,0.756592,0.245521,0.564109,-1.00558,0.517286,-0.682967,-0.105599,
-0.120099,-0.119248,0.45553,-1.81584,-0.169545,0.0798946,0.532111,-0.173362,0.0162661,-0.186481,-0.0566458,0.14078,0.591662,-0.0534661,0,0,0,0,0,0,0,-0.0889011,-0.124174,0.489595,-1.80494,-0.0807652,1.64285,1.33061,-0.174748,0.0179208,-0.210289,0.0223438,0.00207353,-0.119244,-0.0207648,-2.98779,-26.1116,-5.13671,24.162,-1.15296,2.05163,-0.083206,-0.381512,-1.16424,-0.95789,0.580997,0.640456,-0.419273,-0.287603,0.79127,-0.552168,-0.869058,0.136521,-0.498748,-0.108528,
-0.120793,-0.119186,0.454785,-1.81607,-0.168725,0.082406,0.5319,-0.173431,0.0154394,-0.186414,-0.0569244,0.204925,0.627856,-0.0529123,0,0,0,0,0,0,0,-0.0889011,-0.124174,0.489595,-1.80494,-0.0807652,1.64285,1.33061,-0.174748,0.0179208,-0.210289,0.0223438,0.00207353,-0.119244,-0.0207648,-2.98779,-26.1116,-5.13671,24.162,-1.15296,2.05163,-0.083206,-0.381512,-1.16424,-0.95789,0.580997,0.640456,-0.419273,-0.287603,0.79127,-0.552168,-0.869058,0.136521,-0.498748,-0.108528,
-0.121488,-0.119128,0.454039,-1.8163,-0.167625,0.0850682,0.53169,-0.173596,0.014586,-0.186422,-0.0572697,0.27508,0.665549,-0.0524194,0,0,0,0,0,0,0,-0.0955131,-0.124175,0.4817,-1.80605,-0.0857677,1.64646,1.32994,-0.166849,-0.000696983,-0.168331,-0.0390528,-0.0472686,0.0973979,-0.0215833,-0.119442,-25.9609,-2.61351,27.1017,0.208431,3.83507,-0.0429228,0.389872,-1.61996,-1.04942,0.834735,0.63983,-0.720372,-0.593856,0.544459,-0.861745,-0.427916,-0.116596,0.00769812,-0.108319,
-0.122183,-0.119073,0.453293,-1.81653,-0.166217,0.0878869,0.531482,-0.173854,0.0137037,-0.1865,-0.057681,0.351983,0.704663,-0.0520048,0,0,0,0,0,0,0,-0.0955131,-0.124175,0.4817,-1.80605,-0.0857677,1.64646,1.32994,-0.166849,-0.000696983,-0.168331,-0.0390528,-0.0472686,0.0973979,-0.0215833,-0.119442,-25.9609,-2.61351,27.1017,0.208431,3.83507,-0.0429228,0.389872,-1.61996,-1.04942,0.834735,0.63983,-0.720372,-0.593856,0.544459,-0.861745,-0.427916,-0.116596,0.00769812,-0.108319,
-0.12288,-0.119022,0.452546,-1.81676,-0.164471,0.0908671,0.531275,-0.174193,0.0127944,-0.186636,-0.0581534,0.436365,0.745041,-0.0516858,0,0,0,0,0,0,0,-0.0955131,-0.124175,0.4817,-1.80605,-0.0857677,1.64646,1.32994,-0.166849,-0.000696983,-0.168331,-0.0390528,-0.0472686,0.0973979,-0.0215833,-0.119442,-25.9609,-2.61351,27.1017,0.208431,3.83507,-0.0429228,0.00047504,-1.89263,-1.1427,1.00456,0.167916,-0.728598,-0.597021,0.212237,-0.88845,-0.226244,-0.21052,0.232321,-0.10998,
-0.123578,-0.118974,0.451799,-1.817,-0.162356,0.0940127,0.531069,-0.17458,0.0118667,-0.186797,-0.0586735,0.528853,0.786402,-0.0514873,0,0,0,0,0,0,0,-0.0955131,-0.124175,0.4817,-1.80605,-0.0857677,1.64646,1.32994,-0.166849,-0.000696983,-0.168331,-0.0390528,-0.0472686,0.0973979,-0.0215833,-0.119442,-25.9609,-2.61351,27.1017,0.208431,3.83507,-0.0429228,0.00047504,-1.89263,-1.1427,1.00456,0.167916,-0.728598,-0.597021,0.212237,-0.88845,-0.226244,-0.21052,0.232321,-0.10998,
-0.124277,-0.11893,0.451052,-1.81723,-0.159837,0.09731,0.530864,-0.174854,0.0111544,-0.186821,-0.0584036,0.629587,0.824342,-0.0514436,0,0,0,0,0,0,0,-0.0955131,-0.124175,0.4817,-1.80605,-0.0857677,1.64646,1.32994,-0.166849,-0.000696983,-0.168331,-0.0390528,-0.0472686,0.0973979,-0.0215833,-0.119442,-25.9609,-2.61351,27.1017,0.208431,3.83507,-0.0429228,0.0405476,-2.31314,-1.48571,1.08449,0.275632,-0.919421,-0.7859,0.301115,-1.0713,-0.366845,-0.36739,0.228204,-0.120212,
-0.124976,-0.118886,0.450306,-1.81746,-0.156888,0.100724,0.530657,-0.174727,0.0107824,-0.186469,-0.0566693,0.73734,0.853502,-0.0515885,0,0,0,0,0,0,0,-0.0955131,-0.124175,0.4817,-1.80605,-0.0857677,1.64646,1.32994,-0.166849,-0.000696983,-0.168331,-0.0390528,-0.0472686,0.0973979,-0.0215833,-0.119442,-25.9609,-2.61351,27.1017,0.208431,3.83507,-0.0429228,-0.0646587,-2.2158,-1.422,0.963706,-0.0151501,-0.823586,-0.706886,0.0372156,-0.95313,-0.178207,-0.500063,0.388289,-0.123887,
-0.125659,-0.118839,0.449572,-1.81767,-0.153616,0.104223,0.530452,-0.170759,0.0118322,-0.183502,-0.0537009,0.817998,0.874812,-0.0513198,0,0,0,0,0,0,0,-0.100561,-0.124114,0.476446,-1.80733,-0.0841739,1.65179,1.32971,-0.175939,-0.00382618,-0.183048,-0.0549289,0.142225,0.224016,-0.000727022,-0.119442,-26.7345,-2.3358,27.7008,-0.200809,4.18023,-0.110672,-0.0646587,-2.2158,-1.422,0.963706,-0.0151501,-0.823586,-0.706886,0.0372156,-0.95313,-0.178207,-0.500063,0.388289,-0.123887,
-0.126319,-0.118787,0.448859,-1.81788,-0.1501,0.10779,0.530246,-0.164894,0.0129948,-0.178238,-0.0512038,0.878994,0.89156,-0.0515876,0,0,0,0,0,0,0,-0.100561,-0.124114,0.476446,-1.80733,-0.0841739,1.65179,1.32971,-0.175939,-0.00382618,-0.183048,-0.0549289,0.142225,0.224016,-0.000727022,-0.119442,-26.7345,-2.3358,27.7008,-0.200809,4.18023,-0.110672,0.431241,-1.83422,-2.0961,0.607762,0.467892,-0.718505,-0.613602,0.329702,-0.805729,-0.323666,-0.525599,0.525027,-0.126333,
-0.12695,-0.118732,0.448174,-1.81808,-0.146399,0.11141,0.530035,-0.157713,0.0138606,-0.171302,-0.0496103,0.925209,0.905188,-0.0525933,0,0,0,0,0,0,0,-0.100561,-0.124114,0.476446,-1.80733,-0.0841739,1.65179,1.32971,-0.175939,-0.00382618,-0.183048,-0.0549289,0.142225,0.224016,-0.000727022,-0.119442,-26.7345,-2.3358,27.7008,-0.200809,4.18023,-0.110672,0.431241,-1.83422,-2.0961,0.607762,0.467892,-0.718505,-0.613602,0.329702,-0.805729,-0.323666,-0.525599,0.525027,-0.126333,
-0.127548,-0.118674,0.447522,-1.81827,-0.142559,0.115076,0.529816,-0.149495,0.0143841,-0.163003,-0.0488857,0.959954,0.916388,-0.054717,0,0,0,0,0,0,0,-0.100561,-0.124114,0.476446,-1.80733,-0.0841739,1.65179,1.32971,-0.175939,-0.00382618,-0.183048,-0.0549289,0.142225,0.224016,-0.000727022,-0.119442,-26.7345,-2.3358,27.7008,-0.200809,4.18023,-0.110672,-0.347147,-2.4276,-2.44199,1.04572,0.151329,-0.84925,-0.746989,0.297851,-0.963068,-0.476623,-0.411777,0.482078,-0.132292,
-0.128109,-0.118615,0.446909,-1.81847,-0.138618,0.118777,0.529582,-0.14028,0.0148654,-0.153361,-0.0485293,0.985348,0.925245,-0.058697,0,0,0,0,0,0,0,-0.100561,-0.124114,0.476446,-1.80733,-0.0841739,1.65179,1.32971,-0.175939,-0.00382618,-0.183048,-0.0549289,0.142225,0.224016,-0.000727022,-0.119442,-26.7345,-2.3358,27.7008,-0.200809,4.18023,-0.110672,-0.0894669,-3.17011,-2.05294,1.75507,0.188618,-1.27252,-1.16298,0.299438,-1.44693,-0.313665,-0.277619,0.505593,-0.133394,
-0.128626,-0.118544,0.446343,-1.81863,-0.134614,0.122392,0.529322,-0.129204,0.0177718,-0.141405,-0.0412585,1.00088,0.903843,-0.0648038,0,0,0,0,0,0,0,-0.106157,-0.124122,0.47016,-1.80926,-0.0755183,1.66309,1.32952,-0.163296,0.00144991,-0.189206,-0.0628181,0.359196,0.421832,-0.00373226,0.511356,-26.8337,-1.96288,28.1729,0.825497,3.94768,-0.0905302,-0.0894669,-3.17011,-2.05294,1.75507,0.188618,-1.27252,-1.16298,0.299438,-1.44693,-0.313665,-0.277619,0.505593,-0.133394,
-0.129071,-0.118429,0.445849,-1.81869,-0.130723,0.125606,0.529111,-0.111368,0.0285793,-0.123585,-0.014218,0.972843,0.803344,-0.0528865,0,0,0,0,0,0,0,-0.106157,-0.124122,0.47016,-1.80926,-0.0755183,1.66309,1.32952,-0.163296,0.00144991,-0.189206,-0.0628181,0.359196,0.421832,-0.00373226,0.511356,-26.8337,-1.96288,28.1729,0.825497,3.94768,-0.0905302,0.853126,-2.81665,-1.89674,1.70584,0.817246,-1.30091,-1.17687,0.621725,-1.49234,-0.266749,-0.109115,0.526235,-0.135321,
-0.129469,-0.118315,0.445406,-1.81872,-0.126875,0.128568,0.5289,-0.0994716,0.0284738,-0.110756,-0.00802159,0.962108,0.740593,-0.0527947,0,0,0,0,0,0,0,-0.106157,-0.124122,0.47016,-1.80926,-0.0755183,1.66309,1.32952,-0.163296,0.00144991,-0.189206,-0.0628181,0.359196,0.421832,-0.00373226,0.511356,-26.8337,-1.96288,28.1729,0.825497,3.94768,-0.0905302,0.853126,-2.81665,-1.89674,1.70584,0.817246,-1.30091,-1.17687,0.621725,-1.49234,-0.266749,-0.109115,0.526235,-0.135321,
-0.12983,-0.118214,0.445002,-1.81875,-0.123038,0.131351,0.528687,-0.0903385,0.0254014,-0.100922,-0.00839758,0.959272,0.695693,-0.053148,0,0,0,0,0,0,0,-0.106157,-0.124122,0.47016,-1.80926,-0.0755183,1.66309,1.32952,-0.163296,0.00144991,-0.189206,-0.0628181,0.359196,0.421832,-0.00373226,0.511356,-26.8337,-1.96288,28.1729,0.825497,3.94768,-0.0905302,-0.78167,-1.87331,-1.94346,1.34221,-0.102296,-0.533164,-0.413556,0.244438,-0.724569,-0.281191,0.213155,0.47055,-0.137305,
-0.130162,-0.118126,0.44463,-1.8188,-0.119196,0.133995,0.528474,-0.0829277,0.0219246,-0.0929769,-0.0105787,0.960374,0.660956,-0.0533668,0,0,0,0,0,0,0,-0.106157,-0.124122,0.47016,-1.80926,-0.0755183,1.66309,1.32952,-0.163296,0.00144991,-0.189206,-0.0628181,0.359196,0.421832,-0.00373226,0.511356,-26.8337,-1.96288,28.1729,0.825497,3.94768,-0.0905302,-0.78167,-1.87331,-1.94346,1.34221,-0.102296,-0.533164,-0.413556,0.244438,-0.724569,-0.281191,0.213155,0.47055,-0.137305,
-0.119657,-0.116681,0.456101,-1.8167,-0.25828,-0.0568442,0.525415,-0.19637,0.0476389,-0.211613,-0.0798437,-1.18973,-0.320649,-0.0939676,0,0,0,0,0,0,0,-0.106157,-0.124122,0.47016,-1.80926,-0.0755183,1.66309,1.32952,-0.163296,0.00144991,-0.189206,-0.0628181,0.359196,0.421832,-0.00373226,0.511356,-26.8337,-1.96288,28.1729,0.825497,3.94768,-0.0905302,-1.04482,-1.39405,-2.22223,1.19239,-0.0640159,-0.257043,-0.142436,0.371494,-0.444815,-0.396563,0.454506,0.454481,-0.137706,
-0.123441,-0.121516,0.451223,-1.81562,-0.144915,0.100886,0.531388,-0.0536582,0.0103567,-0.0601974,-0.0375132,-0.496516,-0.0887581,-0.0661172,0,0,0,0,0,0,0,-0.111922,-0.123942,0.464347,-1.81124,-0.0619048,1.67899,1.32934,-0.182896,0.0185514,-0.182316,-0.0420537,0.422956,0.492161,-0.0109075,1.95942,-28.131,-0.411669,28.4705,1.39953,3.58971,-0.150955,-1.16445,0.0320685,-2.26468,0.466648,-0.0296129,0.45401,0.573516,0.417878,0.28853,-0.395456,0.714495,0.46238,-0.136855,
-0.123651,-0.121475,0.450988,-1.81577,-0.146992,0.100538,0.531126,-0.0524026,0.0101353,-0.0589132,-0.037551,-0.519307,-0.087058,-0.0655488,0,0,0,0,0,0,0,-0.111922,-0.123942,0.464347,-1.81124,-0.0619048,1.67899,1.32934,-0.182896,0.0185514,-0.182316,-0.0420537,0.422956,0.492161,-0.0109075,1.95942,-28.131,-0.411669,28.4705,1.39953,3.58971,-0.150955,-1.16445,0.0320685,-2.26468,0.466648,-0.0296129,0.45401,0.573516,0.417878,0.28853,-0.395456,0.714495,0.46238,-0.136855,
-0.123856,-0.121436,0.450757,-1.81592,-0.149167,0.100197,0.530866,-0.0511753,0.0099014,-0.0576583,-0.0375665,-0.543654,-0.0852355,-0.0649843,0,0,0,0,0,0,0,-0.111922,-0.123942,0.464347,-1.81124,-0.0619048,1.67899,1.32934,-0.182896,0.0185514,-0.182316,-0.0420537,0.422956,0.492161,-0.0109075,1.95942,-28.131,-0.411669,28.4705,1.39953,3.58971,-0.150955,-1.35577,2.17967,-2.38795,-0.720353,-0.00692616,1.53684,1.65872,0.450159,1.41876,-0.403556,1.01297,0.486968,-0.135031,
-0.124056,-0.121397,0.450531,-1.81607,-0.151445,0.0998639,0.530608,-0.0499717,0.00965097,-0.0564265,-0.0375694,-0.569539,-0.083294,-0.064424,0,0,0,0,0,0,0,-0.111922,-0.123942,0.464347,-1.81124,-0.0619048,1.67899,1.32934,-0.182896,0.0185514,-0.182316,-0.0420537,0.422956,0.492161,-0.0109075,1.95942,-28.131,-0.411669,28.4705,1.39953,3.58971,-0.150955,-1.35577,2.17967,-2.38795,-0.720353,-0.00692616,1.53684,1.65872,0.450159,1.41876,-0.403556,1.01297,0.486968,-0.135031,
-0.124251,-0.12136,0.45031,-1.81622,-0.153832,0.0995391,0.530353,-0.0487896,0.00937962,-0.0552142,-0.0375711,-0.59691,-0.0812088,-0.0638675,0,0,0,0,0,0,0,-0.111922,-0.123942,0.464347,-1.81124,-0.0619048,1.67899,1.32934,-0.182896,0.0185514,-0.182316,-0.0420537,0.422956,0.492161,-0.0109075,1.95942,-28.131,-0.411669,28.4705,1.39953,3.58971,-0.150955,0.566137,2.19395,-2.93684,-0.829961,1.54985,1.16686,1.30572,1.34951,1.06197,-0.710147,1.01144,0.464247,-0.122901,
-0.124441,-0.121323,0.450094,-1.81637,-0.156335,0.0992234,0.530099,-0.0476311,0.00908206,-0.0540214,-0.0375858,-0.625662,-0.0789177,-0.0633159,0,0,0,0,0,0,0,-0.116942,-0.123627,0.458767,-1.81159,-0.0579505,1.68922,1.3291,-0.130478,0.0116929,-0.150099,0.00615942,-0.310863,0.129274,-0.00642565,2.89569,-28.0556,0.762648,25.9076,-0.139469,2.28417,-0.177505,0.566137,2.19395,-2.93684,-0.829961,1.54985,1.16686,1.30572,1.34951,1.06197,-0.710147,1.01144,0.464247,-0.122901,
-0.124627,-0.121288,0.449883,-1.81652,-0.158957,0.0989182,0.529848,-0.0465047,0.0087515,-0.0528531,-0.0376318,-0.655602,-0.0763061,-0.0627684,0,0,0,0,0,0,0,-0.116942,-0.123627,0.458767,-1.81159,-0.0579505,1.68922,1.3291,-0.130478,0.0116929,-0.150099,0.00615942,-0.310863,0.129274,-0.00642565,2.89569,-28.0556,0.762648,25.9076,-0.139469,2.28417,-0.177505,-0.410674,1.70513,-1.89797,-0.590586,0.525793,1.0944,1.2454,0.665112,0.959086,-0.431717,0.784858,0.303848,-0.121373,
-0.124809,-0.121255,0.449676,-1.81667,-0.161703,0.0986254,0.529599,-0.0454272,0.00837894,-0.0517224,-0.0377334,-0.686408,-0.0731894,-0.0622241,0,0,0,0,0,0,0,-0.116942,-0.123627,0.458767,-1.81159,-0.0579505,1.68922,1.3291,-0.130478,0.0116929,-0.150099,0.00615942,-0.310863,0.129274,-0.00642565,2.89569,-28.0556,0.762648,25.9076,-0.139469,2.28417,-0.177505,-2.1015,0.614159,-1.48738,-0.325153,-0.689822,0.845135,0.97915,0.00426976,0.729463,-0.513244,0.31434,0.00343317,-0.118072,
-0.124987,-0.121223,0.449473,-1.81682,-0.164573,0.0983483,0.529353,-0.0444297,0.00795193,-0.0506544,-0.0379225,-0.717558,-0.0692863,-0.0616806,0,0,0,0,0,0,0,-0.116942,-0.123627,0.458767,-1.81159,-0.0579505,1.68922,1.3291,-0.130478,0.0116929,-0.150099,0.00615942,-0.310863,0.129274,-0.00642565,2.89569,-28.0556,0.762648,25.9076,-0.139469,2.28417,-0.177505,-2.1015,0.614159,-1.48738,-0.325153,-0.689822,0.845135,0.97915,0.00426976,0.729463,-0.513244,0.31434,0.00343317,-0.118072,
-0.125161,-0.121193,0.449275,-1.81697,-0.167566,0.0980915,0.529108,-0.0435634,0.00745308,-0.0496919,-0.0382412,-0.748229,-0.0641879,-0.0611335,0,0,0,0,0,0,0,-0.116942,-0.123627,0.458767,-1.81159,-0.0579505,1.68922,1.3291,-0.130478,0.0116929,-0.150099,0.00615942,-0.310863,0.129274,-0.00642565,2.89569,-28.0556,0.762648,25.9076,-0.139469,2.28417,-0.177505,-2.45827,-1.02686,-1.18876,0.232381,-0.98056,0.0719978,0.193533,-0.1662,-0.0307373,-0.681428,-0.222782,-0.292499,-0.119203,
-0.125333,-0.121166,0.449079,-1.81713,-0.170675,0.0978622,0.528866,-0.0429103,0.00685788,-0.0489049,-0.0387429,-0.777145,-0.0573221,-0.0605761,0,0,0,0,0,0,0,-0.116942,-0.123627,0.458767,-1.81159,-0.0579505,1.68922,1.3291,-0.130478,0.0116929,-0.150099,0.00615942,-0.310863,0.129274,-0.00642565,2.89569,-28.0556,0.762648,25.9076,-0.139469,2.28417,-0.177505,-2.45827,-1.02686,-1.18876,0.232381,-0.98056,0.0719978,0.193533,-0.1662,-0.0307373,-0.681428,-0.222782,-0.292499,-0.119203,
-0.125503,-0.121141,0.448885,-1.81729,-0.173884,0.0976705,0.528626,-0.0425974,0.00613202,-0.0484035,-0.0394919,-0.80236,-0.0479223,-0.0599946,0,0,0,0,0,0,0,-0.119957,-0.122848,0.454515,-1.81129,-0.0729952,1.69201,1.32898,-0.0812537,0.0218574,-0.117591,-6.72584e-05,-0.525759,0.0815941,-0.00059538,1.70551,-28.2063,-0.260912,26.4035,-0.426029,2.23748,-0.110672,-1.96626,-1.13003,-0.816708,0.106611,-0.762211,-0.0936712,0.0354257,-0.13115,-0.182424,-0.670151,-0.450911,-0.411674,-0.118219,
-0.125674,-0.12112,0.448692,-1.81745,-0.177168,0.0975304,0.528388,-0.0428157,0.00522833,-0.0483552,-0.0405571,-0.820962,-0.0350199,-0.0593673,0,0,0,0,0,0,0,-0.119957,-0.122848,0.454515,-1.81129,-0.0729952,1.69201,1.32898,-0.0812537,0.0218574,-0.117591,-6.72584e-05,-0.525759,0.0815941,-0.00059538,1.70551,-28.2063,-0.260912,26.4035,-0.426029,2.23748,-0.110672,-1.48117,-1.92448,-0.384322,0.358753,-0.601874,-0.596756,-0.463988,-0.134174,-0.683875,-0.651153,-0.780065,-0.547327,-0.120503,
-0.12585,-0.121104,0.448496,-1.81762,-0.180483,0.0974605,0.528154,-0.0438439,0.00408384,-0.0490076,-0.0419957,-0.82867,-0.0174924,-0.0586598,0,0,0,0,0,0,0,-0.119957,-0.122848,0.454515,-1.81129,-0.0729952,1.69201,1.32898,-0.0812537,0.0218574,-0.117591,-6.72584e-05,-0.525759,0.0815941,-0.00059538,1.70551,-28.2063,-0.260912,26.4035,-0.426029,2.23748,-0.110672,-1.48117,-1.92448,-0.384322,0.358753,-0.601874,-0.596756,-0.463988,-0.134174,-0.683875,-0.651153,-0.780065,-0.547327,-0.120503,
-0.126034,-0.121093,0.448293,-1.81779,-0.18376,0.0974837,0.527923,-0.0460728,0.00261816,-0.0507128,-0.0438235,-0.819389,0.00579287,-0.0578169,0,0,0,0,0,0,0,-0.119957,-0.122848,0.454515,-1.81129,-0.0729952,1.69201,1.32898,-0.0812537,0.0218574,-0.117591,-6.72584e-05,-0.525759,0.0815941,-0.00059538,1.70551,-28.2063,-0.260912,26.4035,-0.426029,2.23748,-0.110672,-0.735667,-3.14045,-0.916267,0.580732,0.235719,-1.36394,-1.21444,0.429216,-1.43072,-1.17573,-1.22899,-0.842309,-0.124983,
-0.126234,-0.12109,0.448077,-1.81798,-0.186899,0.0976266,0.527696,-0.0500204,0.00073326,-0.0539477,-0.0459745,-0.78479,0.0357379,-0.0567527,0,0,0,0,0,0,0,-0.119957,-0.122848,0.454515,-1.81129,-0.0729952,1.69201,1.32898,-0.0812537,0.0218574,-0.117591,-6.72584e-05,-0.525759,0.0815941,-0.00059538,1.70551,-28.2063,-0.260912,26.4035,-0.426029,2.23748,-0.110672,-0.735667,-3.14045,-0.916267,0.580732,0.235719,-1.36394,-1.21444,0.429216,-1.43072,-1.17573,-1.22899,-0.842309,-0.124983,
-0.126459,-0.121097,0.44784,-1.81817,-0.189756,0.0979178,0.527474,-0.056323,-0.0016879,-0.0593167,-0.0482855,-0.714179,0.0728047,-0.0553369,0,0,0,0,0,0,0,-0.122877,-0.122136,0.451244,-1.81131,-0.0967833,1.69525,1.32879,-0.0509996,0.0137774,-0.0479305,8.9624e-05,-0.60269,0.0943434,-0.003646,0.435978,-28.3809,-1.81212,26.1813,-1.48896,2.03148,-0.170181,-0.721527,-3.89583,-0.920049,0.889234,0.307463,-1.76311,-1.59819,0.503179,-1.8476,-1.3121,-1.40006,-0.9808,-0.122927,
-0.126722,-0.121116,0.44757,-1.81837,-0.192136,0.0983865,0.527261,-0.0656909,-0.00479427,-0.0675268,-0.0505701,-0.594897,0.117161,-0.053385,0,0,0,0,0,0,0,-0.122877,-0.122136,0.451244,-1.81131,-0.0967833,1.69525,1.32879,-0.0509996,0.0137774,-0.0479305,8.9624e-05,-0.60269,0.0943434,-0.003646,0.435978,-28.3809,-1.81212,26.1813,-1.48896,2.03148,-0.170181,-0.629089,-4.70877,-0.963588,1.33083,0.387772,-2.18836,-2.00762,0.574046,-2.30444,-1.37704,-1.49734,-1.02895,-0.125532,
-0.127038,-0.121152,0.447253,-1.81858,-0.193788,0.0990646,0.527057,-0.0788655,-0.0088216,-0.0793532,-0.0528626,-0.413096,0.169525,-0.0509971,0,0,0,0,0,0,0,-0.122877,-0.122136,0.451244,-1.81131,-0.0967833,1.69525,1.32879,-0.0509996,0.0137774,-0.0479305,8.9624e-05,-0.60269,0.0943434,-0.003646,0.435978,-28.3809,-1.81212,26.1813,-1.48896,2.03148,-0.170181,-0.629089,-4.70877,-0.963588,1.33083,0.387772,-2.18836,-2.00762,0.574046,-2.30444,-1.37704,-1.49734,-1.02895,-0.125532,
-0.127425,-0.121209,0.44687,-1.81881,-0.194401,0.099996,0.52684,-0.0967562,-0.0142934,-0.0957016,-0.055924,-0.153329,0.232861,-0.0542889,0,0,0,0,0,0,0,-0.122877,-0.122136,0.451244,-1.81131,-0.0967833,1.69525,1.32879,-0.0509996,0.0137774,-0.0479305,8.9624e-05,-0.60269,0.0943434,-0.003646,0.435978,-28.3809,-1.81212,26.1813,-1.48896,2.03148,-0.170181,-0.72933,-4.72576,-1.23293,1.21722,0.390932,-2.1762,-1.9947,0.595794,-2.2782,-1.46752,-1.58898,-1.02115,-0.129415,
-0.127838,-0.12126,0.446447,-1.81901,-0.194248,0.101095,0.526628,-0.10334,-0.0127533,-0.105576,-0.0509995,0.0384397,0.274743,-0.0528291,0,0,0,0,0,0,0,-0.122877,-0.122136,0.451244,-1.81131,-0.0967833,1.69525,1.32879,-0.0509996,0.0137774,-0.0479305,8.9624e-05,-0.60269,0.0943434,-0.003646,0.435978,-28.3809,-1.81212,26.1813,-1.48896,2.03148,-0.170181,-0.72933,-4.72576,-1.23293,1.21722,0.390932,-2.1762,-1.9947,0.595794,-2.2782,-1.46752,-1.58898,-1.02115,-0.129415,
-0.128259,-0.121297,0.446009,-1.81919,-0.193516,0.10232,0.526421,-0.105149,-0.0093178,-0.109715,-0.0451844,0.182986,0.30619,-0.0516882,0,0,0,0,0,0,0,-0.124117,-0.122076,0.449979,-1.81149,-0.11484,1.69817,1.32861,-0.0433026,-0.00499591,-0.0488976,-0.00886197,-0.485123,0.101478,-0.0113905,-0.119442,-27.3097,-2.41118,26.6058,-0.383915,2.71447,-0.0365141,-0.370175,-3.99502,-1.52617,0.747658,0.712395,-1.87315,-1.69353,0.768079,-1.94496,-1.51592,-1.53764,-0.943596,-0.130004,
-0.128675,-0.12132,0.445568,-1.81935,-0.192342,0.103645,0.526218,-0.104109,-0.00569254,-0.110214,-0.0403682,0.293499,0.331355,-0.0509451,0,0,0,0,0,0,0,-0.124117,-0.122076,0.449979,-1.81149,-0.11484,1.69817,1.32861,-0.0433026,-0.00499591,-0.0488976,-0.00886197,-0.485123,0.101478,-0.0113905,-0.119442,-27.3097,-2.41118,26.6058,-0.383915,2.71447,-0.0365141,-0.370175,-3.99502,-1.52617,0.747658,0.712395,-1.87315,-1.69353,0.768079,-1.94496,-1.51592,-1.53764,-0.943596,-0.130004,
-0.12908,-0.12133,0.445134,-1.8195,-0.190826,0.105053,0.526016,-0.101349,-0.00242905,-0.108446,-0.0367979,0.379015,0.352033,-0.0504659,0,0,0,0,0,0,0,-0.124117,-0.122076,0.449979,-1.81149,-0.11484,1.69817,1.32861,-0.0433026,-0.00499591,-0.0488976,-0.00886197,-0.485123,0.101478,-0.0113905,-0.119442,-27.3097,-2.41118,26.6058,-0.383915,2.71447,-0.0365141,-1.13272,-3.93425,-1.14681,0.910084,-0.0322787,-1.6912,-1.51145,0.303769,-1.79312,-1.22879,-1.42733,-0.829271,-0.132666,
-0.129471,-0.121328,0.444713,-1.81964,-0.189042,0.10653,0.525815,-0.0975974,0.000326926,-0.105312,-0.0342754,0.445931,0.369181,-0.0501599,0,0,0,0,0,0,0,-0.124117,-0.122076,0.449979,-1.81149,-0.11484,1.69817,1.32861,-0.0433026,-0.00499591,-0.0488976,-0.00886197,-0.485123,0.101478,-0.0113905,-0.119442,-27.3097,-2.41118,26.6058,-0.383915,2.71447,-0.0365141,-1.62853,-4.35891,-1.32038,1.32075,-0.257346,-1.79548,-1.60531,0.27853,-1.93929,-1.27786,-1.27781,-0.823268,-0.145859,
-0.135377,-0.11513,0.438298,-1.8178,-0.247764,-0.0349716,0.523411,-0.157782,0.0655006,-0.170819,-0.0670408,-1.18665,-0.648553,-0.102634,0,0,0,0,0,0,0,-0.124117,-0.122076,0.449979,-1.81149,-0.11484,1.69817,1.32861,-0.0433026,-0.00499591,-0.0488976,-0.00886197,-0.485123,0.101478,-0.0113905,-0.119442,-27.3097,-2.41118,26.6058,-0.383915,2.71447,-0.0365141,-1.62853,-4.35891,-1.32038,1.32075,-0.257346,-1.79548,-1.60531,0.27853,-1.93929,-1.27786,-1.27781,-0.823268,-0.145859,
-0.144744,-0.11713,0.427582,-1.81771,-0.176176,0.0902665,0.530229,-0.132365,0.0422711,-0.144358,-0.039197,0.456199,-0.108131,-0.0628663,0,0,0,0,0,0,0,-0.124117,-0.122076,0.449979,-1.81149,-0.11484,1.69817,1.32861,-0.0433026,-0.00499591,-0.0488976,-0.00886197,-0.485123,0.101478,-0.0113905,-0.119442,-27.3097,-2.41118,26.6058,-0.383915,2.71447,-0.0365141,-1.92139,-4.39928,-0.886054,1.76158,-0.708305,-1.7347,-1.52641,-0.0172358,-1.95216,-0.918676,-0.981683,-0.637598,-0.149978,
-0.145269,-0.116965,0.427009,-1.81786,-0.174253,0.0898135,0.52998,-0.131317,0.0414799,-0.143226,-0.038841,0.480884,-0.113259,-0.0623856,0,0,0,0,0,0,0,-0.126027,-0.122099,0.448531,-1.81205,-0.120685,1.70252,1.3285,-0.0734763,8.16894e-05,-0.0469538,-0.0287349,-0.0118977,0.144092,-0.00355707,0.0313145,-27.3811,-2.53813,27.8,1.23474,3.59704,-0.117081,-1.92139,-4.39928,-0.886054,1.76158,-0.708305,-1.7347,-1.52641,-0.0172358,-1.95216,-0.918676,-0.981683,-0.637598,-0.149978,
-0.145791,-0.116802,0.42644,-1.81802,-0.172222,0.0893386,0.529732,-0.130418,0.040633,-0.142242,-0.0384821,0.507576,-0.118712,-0.061917,0,0,0,0,0,0,0,-0.126027,-0.122099,0.448531,-1.81205,-0.120685,1.70252,1.3285,-0.0734763,8.16894e-05,-0.0469538,-0.0287349,-0.0118977,0.144092,-0.00355707,0.0313145,-27.3811,-2.53813,27.8,1.23474,3.59704,-0.117081,-2.23122,-2.48198,0.0983144,1.23468,-1.51105,-0.682842,-0.455761,-0.696695,-0.948997,-0.115422,-0.467801,-0.220127,-0.147164,
-0.146309,-0.116643,0.425874,-1.81817,-0.170076,0.0888408,0.529486,-0.129663,0.0397285,-0.141399,-0.0381229,0.536627,-0.124455,-0.0614627,0,0,0,0,0,0,0,-0.126027,-0.122099,0.448531,-1.81205,-0.120685,1.70252,1.3285,-0.0734763,8.16894e-05,-0.0469538,-0.0287349,-0.0118977,0.144092,-0.00355707,0.0313145,-27.3811,-2.53813,27.8,1.23474,3.59704,-0.117081,-0.0731932,-0.433672,-0.614995,0.339422,0.0761328,0.00828957,0.249837,0.138907,-0.236742,-0.0696217,0.0366241,0.188419,-0.144341,
-0.146826,-0.116488,0.425312,-1.81832,-0.167802,0.0883191,0.529242,-0.129047,0.0387626,-0.140691,-0.0377679,0.56842,-0.130444,-0.0610269,0,0,0,0,0,0,0,-0.126027,-0.122099,0.448531,-1.81205,-0.120685,1.70252,1.3285,-0.0734763,8.16894e-05,-0.0469538,-0.0287349,-0.0118977,0.144092,-0.00355707,0.0313145,-27.3811,-2.53813,27.8,1.23474,3.59704,-0.117081,-0.0731932,-0.433672,-0.614995,0.339422,0.0761328,0.00828957,0.249837,0.138907,-0.236742,-0.0696217,0.0366241,0.188419,-0.144341,
-0.14734,-0.116337,0.424751,-1.81847,-0.165389,0.0877726,0.528999,-0.128566,0.0377306,-0.140115,-0.0374236,0.603366,-0.136616,-0.0606121,0,0,0,0,0,0,0,-0.126027,-0.122099,0.448531,-1.81205,-0.120685,1.70252,1.3285,-0.0734763,8.16894e-05,-0.0469538,-0.0287349,-0.0118977,0.144092,-0.00355707,0.0313145,-27.3811,-2.53813,27.8,1.23474,3.59704,-0.117081,-0.91586,-0.559963,-0.296992,0.692402,-0.565072,0.100719,0.328116,-0.179614,-0.174861,0.0866348,0.26228,0.196844,-0.152172,
-0.147853,-0.116191,0.424192,-1.81862,-0.162821,0.0872011,0.528759,-0.128219,0.0366266,-0.139666,-0.0371003,0.641902,-0.142879,-0.0602262,0,0,0,0,0,0,0,-0.128601,-0.1222,0.446267,-1.81262,-0.123647,1.7004,1.32817,-0.0926465,-0.00608356,-0.0937478,-0.0195001,-0.0233739,-0.0966262,-0.0101436,0.106693,-25.9847,-2.53813,27.3517,2.32238,3.16582,-0.143631,-0.91586,-0.559963,-0.296992,0.692402,-0.565072,0.100719,0.328116,-0.179614,-0.174861,0.0866348,0.26228,0.196844,-0.152172,
-0.148365,-0.116049,0.423635,-1.81876,-0.160083,0.0866047,0.528519,-0.128004,0.0354439,-0.139343,-0.0368126,0.684493,-0.149099,-0.0598771,0,0,0,0,0,0,0,-0.128601,-0.1222,0.446267,-1.81262,-0.123647,1.7004,1.32817,-0.0926465,-0.00608356,-0.0937478,-0.0195001,-0.0233739,-0.0966262,-0.0101436,0.106693,-25.9847,-2.53813,27.3517,2.32238,3.16582,-0.143631,0.327504,1.08278,-1.53532,-0.197556,1.10619,0.682938,0.923443,1.02394,0.452586,-0.582449,0.744165,0.0625099,-0.156718,
-0.148876,-0.115912,0.423079,-1.81891,-0.157157,0.0859844,0.528281,-0.127916,0.034176,-0.139139,-0.0365834,0.73161,-0.155072,-0.0595745,0,0,0,0,0,0,0,-0.128601,-0.1222,0.446267,-1.81262,-0.123647,1.7004,1.32817,-0.0926465,-0.00608356,-0.0937478,-0.0195001,-0.0233739,-0.0966262,-0.0101436,0.106693,-25.9847,-2.53813,27.3517,2.32238,3.16582,-0.143631,0.327504,1.08278,-1.53532,-0.197556,1.10619,0.682938,0.923443,1.02394,0.452586,-0.582449,0.744165,0.0625099,-0.156718,
-0.149388,-0.115781,0.422522,-1.81906,-0.154022,0.0853424,0.528043,-0.127947,0.0328175,-0.139048,-0.0364456,0.783696,-0.160494,-0.0593329,0,0,0,0,0,0,0,-0.128601,-0.1222,0.446267,-1.81262,-0.123647,1.7004,1.32817,-0.0926465,-0.00608356,-0.0937478,-0.0195001,-0.0233739,-0.0966262,-0.0101436,0.106693,-25.9847,-2.53813,27.3517,2.32238,3.16582,-0.143631,0.310072,2.31553,-2.46731,-0.80397,1.74496,1.28762,1.52831,1.63744,1.08708,-1.06853,1.17087,-0.0518832,-0.158872,
-0.1499,-0.115655,0.421966,-1.8192,-0.150657,0.0846827,0.527807,-0.12808,0.0313658,-0.139053,-0.0364469,0.841103,-0.164915,-0.0591732,0,0,0,0,0,0,0,-0.128601,-0.1222,0.446267,-1.81262,-0.123647,1.7004,1.32817,-0.0926465,-0.00608356,-0.0937478,-0.0195001,-0.0233739,-0.0966262,-0.0101436,0.106693,-25.9847,-2.53813,27.3517,2.32238,3.16582,-0.143631,-0.1102,2.34544,-2.3502,-0.720493,1.44079,1.37424,1.60289,1.48578,1.17068,-1.01494,1.25986,-0.0574622,-0.160527,
-0.150414,-0.115536,0.42141,-1.81935,-0.147042,0.084012,0.52757,-0.128276,0.0298255,-0.139119,-0.0366548,0.903955,-0.16768,-0.0591241,0,0,0,0,0,0,0,-0.128601,-0.1222,0.446267,-1.81262,-0.123647,1.7004,1.32817,-0.0926465,-0.00608356,-0.0937478,-0.0195001,-0.0233739,-0.0966262,-0.0101436,0.106693,-25.9847,-2.53813,27.3517,2.32238,3.16582,-0.143631,-0.1102,2.34544,-2.3502,-0.720493,1.44079,1.37424,1.60289,1.48578,1.17068,-1.01494,1.25986,-0.0574622,-0.160527,
-0.15092,-0.11542,0.420858,-1.81949,-0.143231,0.0833368,0.527335,-0.126486,0.0290621,-0.13789,-0.0365476,0.95254,-0.168811,-0.058861,0,0,0,0,0,0,0,-0.132203,-0.122894,0.442431,-1.81274,-0.122363,1.69714,1.32813,-0.114531,-0.0183099,-0.132146,-0.000698152,0.122661,-0.107321,-0.00108712,0.25745,-25.7863,-2.08586,26.5027,1.52771,2.87377,-0.137222,-1.46997,2.09816,-1.5345,-0.386001,0.20102,1.47059,1.67711,0.737696,1.24338,-0.670568,1.30986,-0.0793925,-0.158487,
-0.151414,-0.115306,0.420317,-1.81964,-0.139275,0.0826726,0.527099,-0.123572,0.0285178,-0.135393,-0.0368739,0.989167,-0.166056,-0.0588902,0,0,0,0,0,0,0,-0.132203,-0.122894,0.442431,-1.81274,-0.122363,1.69714,1.32813,-0.114531,-0.0183099,-0.132146,-0.000698152,0.122661,-0.107321,-0.00108712,0.25745,-25.7863,-2.08586,26.5027,1.52771,2.87377,-0.137222,-1.46997,2.09816,-1.5345,-0.386001,0.20102,1.47059,1.67711,0.737696,1.24338,-0.670568,1.30986,-0.0793925,-0.158487,
-0.151894,-0.115194,0.419789,-1.81979,-0.135207,0.0820435,0.526862,-0.119956,0.0279015,-0.131994,-0.0380024,1.01694,-0.157262,-0.0593662,0,0,0,0,0,0,0,-0.132203,-0.122894,0.442431,-1.81274,-0.122363,1.69714,1.32813,-0.114531,-0.0183099,-0.132146,-0.000698152,0.122661,-0.107321,-0.00108712,0.25745,-25.7863,-2.08586,26.5027,1.52771,2.87377,-0.137222,-2.19495,2.45732,-1.56134,-0.554311,-0.122007,1.75093,1.94477,0.649638,1.53845,-0.786358,1.43116,-0.20946,-0.161149,
-0.152357,-0.115086,0.419277,-1.81996,-0.131055,0.0814833,0.52662,-0.115858,0.0270998,-0.127935,-0.0401483,1.03804,-0.140051,-0.0604526,0,0,0,0,0,0,0,-0.132203,-0.122894,0.442431,-1.81274,-0.122363,1.69714,1.32813,-0.114531,-0.0183099,-0.132146,-0.000698152,0.122661,-0.107321,-0.00108712,0.25745,-25.7863,-2.08586,26.5027,1.52771,2.87377,-0.137222,-2.19495,2.45732,-1.56134,-0.554311,-0.122007,1.75093,1.94477,0.649638,1.53845,-0.786358,1.43116,-0.20946,-0.161149,
-0.152803,-0.114981,0.418784,-1.82013,-0.126839,0.0810368,0.52637,-0.111393,0.0260787,-0.123317,-0.0435136,1.05397,-0.111636,-0.0624117,0,0,0,0,0,0,0,-0.132203,-0.122894,0.442431,-1.81274,-0.122363,1.69714,1.32813,-0.114531,-0.0183099,-0.132146,-0.000698152,0.122661,-0.107321,-0.00108712,0.25745,-25.7863,-2.08586,26.5027,1.52771,2.87377,-0.137222,-1.83112,1.96134,-1.32361,-0.234995,0.0572494,1.428,1.61586,0.728174,1.20587,-0.762875,1.39102,-0.270205,-0.163068,
-0.153229,-0.114882,0.418311,-1.82032,-0.122576,0.0807605,0.526108,-0.106573,0.0248882,-0.118106,-0.0482404,1.06571,-0.0690753,-0.0655771,0,0,0,0,0,0,0,-0.136859,-0.123033,0.437478,-1.81277,-0.114108,1.69395,1.32807,-0.150333,-0.00424255,-0.151507,0.00017047,0.387635,-0.0869495,-0.000553029,0.717655,-26.06,-1.53838,26.6534,1.63757,2.69524,-0.130813,-1.02787,1.58901,-1.41549,-0.0737063,0.665241,1.0949,1.27154,1.07051,0.886982,-0.880767,1.32466,-0.328868,-0.162214,
-0.153634,-0.114787,0.417863,-1.82054,-0.118281,0.0807196,0.52583,-0.101258,0.0237623,-0.112111,-0.0541546,1.07373,-0.0102147,-0.0695291,0,0,0,0,0,0,0,-0.136859,-0.123033,0.437478,-1.81277,-0.114108,1.69395,1.32807,-0.150333,-0.00424255,-0.151507,0.00017047,0.387635,-0.0869495,-0.000553029,0.717655,-26.06,-1.53838,26.6534,1.63757,2.69524,-0.130813,-1.02787,1.58901,-1.41549,-0.0737063,0.665241,1.0949,1.27154,1.07051,0.886982,-0.880767,1.32466,-0.328868,-0.162214,
-0.153993,-0.114685,0.417455,-1.82077,-0.114168,0.0809671,0.525589,-0.0896897,0.0255133,-0.101979,-0.0583853,1.02829,0.0618706,-0.0601186,0,0,0,0,0,0,0,-0.136859,-0.123033,0.437478,-1.81277,-0.114108,1.69395,1.32807,-0.150333,-0.00424255,-0.151507,0.00017047,0.387635,-0.0869495,-0.000553029,0.717655,-26.06,-1.53838,26.6534,1.63757,2.69524,-0.130813,-2.00836,2.13976,-0.967232,-0.372308,-0.098089,1.51408,1.67418,0.621188,1.32516,-0.754673,1.35839,-0.415336,-0.163779,
-0.15432,-0.114576,0.417083,-1.82101,-0.110184,0.0814398,0.52535,-0.0817633,0.0272125,-0.0929453,-0.0585553,0.996133,0.118176,-0.0599382,0,0,0,0,0,0,0,-0.136859,-0.123033,0.437478,-1.81277,-0.114108,1.69395,1.32807,-0.150333,-0.00424255,-0.151507,0.00017047,0.387635,-0.0869495,-0.000553029,0.717655,-26.06,-1.53838,26.6534,1.63757,2.69524,-0.130813,-2.00836,2.13976,-0.967232,-0.372308,-0.098089,1.51408,1.67418,0.621188,1.32516,-0.754673,1.35839,-0.415336,-0.163779,
