PerkyPenguin/Analysis-on-Approximated-Derivatives/Code_and_Data/PaperData/Real_Robot/Scene_1/set_interval/7/trajectory.csv
Commanded Joint 0 Position,Commanded Joint 1 Position,Commanded Joint 2 Position,Commanded Joint 3 Position,Commanded Joint 4 Position,Commanded Joint 5 Position,Commanded Joint 6 Position,Commanded Joint 0 Velocity,Commanded Joint 1 Velocity,Commanded Joint 2 Velocity,Commanded Joint 3 Velocity,Commanded Joint 4 Velocity,Commanded Joint 5 Velocity,Commanded Joint 6 Velocity,Commanded Joint 0 Torque,Commanded Joint 1 Torque,Commanded Joint 2 Torque,Commanded Joint 3 Torque,Commanded Joint 4 Torque,Commanded Joint 5 Torque,Commanded Joint 6 Torque,Actual Joint 0 Position,Actual Joint 1 Position,Actual Joint 2 Position,Actual Joint 3 Position,Actual Joint 4 Position,Actual Joint 5 Position,Actual Joint 6 Position,Actual Joint 0 Velocity,Actual Joint 1 Velocity,Actual Joint 2 Velocity,Actual Joint 3 Velocity,Actual Joint 4 Velocity,Actual Joint 5 Velocity,Actual Joint 6 Velocity,Actual Joint 0 Torque,Actual Joint 1 Torque,Actual Joint 2 Torque,Actual Joint 3 Torque,Actual Joint 4 Torque,Actual Joint 5 Torque,Actual Joint 6 Torque,EE ext force 0,EE ext force 1,EE ext force 2,EE ext force 3,EE ext force 4,EE ext force 5,joint ext torque 0,joint ext torque 1,joint ext torque 2,joint ext torque 3,joint ext torque 4,joint ext torque 5,joint ext torque 6,
0.0105225,-0.195435,-0.333499,-1.66008,-0.095291,-0.0907609,-0.38346,-0.00135551,0.0160035,-0.0110819,-0.150326,0.00528285,0.200274,-0.00219012,0,0,0,0,0,0,0,0.0105246,-0.19542,-0.333419,-1.65857,-0.0953689,1.47804,0.401965,0.000605899,0.0029639,-0.000200969,-0.000684124,-0.00471139,-0.000177895,-0.000131781,-0.147213,-25.8617,1.81398,26.0068,0.764157,2.95342,-0.0365141,-1.44209,0.0269006,-0.489946,0.0864603,-0.615853,-0.201263,-0.105254,-0.142907,-0.29728,-0.326425,-0.0875529,-0.319388,-0.0391966,
0.0105114,-0.195297,-0.333556,-1.66071,-0.0952723,-0.0899305,-0.383468,-0.00279569,0.0347099,-0.0142085,-0.159477,0.00466918,0.207621,-0.0020758,0,0,0,0,0,0,0,0.0105246,-0.19542,-0.333419,-1.65857,-0.0953689,1.47804,0.401965,0.000605899,0.0029639,-0.000200969,-0.000684124,-0.00471139,-0.000177895,-0.000131781,-0.147213,-25.8617,1.81398,26.0068,0.764157,2.95342,-0.0365141,-1.23851,-0.0137586,-0.618988,0.135471,-0.406386,-0.182438,-0.0884168,-0.00146161,-0.284268,-0.402863,-0.0899641,-0.322081,-0.0400242,
0.010526,-0.195389,-0.333418,-1.65858,-0.0954138,-0.092763,-0.383434,4.93743e-05,0.00151058,-1.09321e-05,-0.000779067,-0.00201084,-0.00034247,-7.6797e-06,0,0,0,0,0,0,0,0.0105283,-0.195427,-0.333415,-1.65857,-0.0953512,1.47804,0.401959,0.00125389,0.00321293,0.00117959,-0.00162406,-0.0068288,0.000335004,-0.00208103,-0.171017,-25.7625,1.78621,25.983,0.660702,2.95342,0.00376909,-1.41683,0.056374,-0.529272,0.0757612,-0.586642,-0.183299,-0.0908863,-0.121851,-0.276498,-0.341263,-0.0791115,-0.316589,-0.0396261,
0.0105261,-0.195384,-0.333418,-1.65859,-0.0954204,-0.0927647,-0.383434,3.74123e-05,0.00129488,-2.55217e-05,-0.000692765,-0.00165442,-0.000422942,-6.04246e-06,0,0,0,0,0,0,0,0.0105283,-0.195427,-0.333415,-1.65857,-0.0953512,1.47804,0.401959,0.00125389,0.00321293,0.00117959,-0.00162406,-0.0068288,0.000335004,-0.00208103,-0.171017,-25.7625,1.78621,25.983,0.660702,2.95342,0.00376909,-1.41683,0.056374,-0.529272,0.0757612,-0.586642,-0.183299,-0.0908863,-0.121851,-0.276498,-0.341263,-0.0791115,-0.316589,-0.0396261,
0.0105263,-0.195379,-0.333418,-1.65859,-0.0954259,-0.0927666,-0.383434,2.96589e-05,0.00110696,-3.40763e-05,-0.000611899,-0.00136919,-0.000480565,-4.75129e-06,0,0,0,0,0,0,0,0.0105283,-0.195427,-0.333415,-1.65857,-0.0953512,1.47804,0.401959,0.00125389,0.00321293,0.00117959,-0.00162406,-0.0068288,0.000335004,-0.00208103,-0.171017,-25.7625,1.78621,25.983,0.660702,2.95342,0.00376909,-1.71959,0.207387,-0.798016,-0.0210463,-0.74622,-0.168378,-0.0747638,-0.180144,-0.253712,-0.374863,-0.0902662,-0.287847,-0.0387169,
0.0105264,-0.195376,-0.333419,-1.65859,-0.0954305,-0.0927687,-0.383434,2.47674e-05,0.000942605,-3.86613e-05,-0.000537962,-0.0011394,-0.000518639,-3.74595e-06,0,0,0,0,0,0,0,0.0105283,-0.195427,-0.333415,-1.65857,-0.0953512,1.47804,0.401959,0.00125389,0.00321293,0.00117959,-0.00162406,-0.0068288,0.000335004,-0.00208103,-0.171017,-25.7625,1.78621,25.983,0.660702,2.95342,0.00376909,-1.71959,0.207387,-0.798016,-0.0210463,-0.74622,-0.168378,-0.0747638,-0.180144,-0.253712,-0.374863,-0.0902662,-0.287847,-0.0387169,
0.0105264,-0.195372,-0.333419,-1.65859,-0.0954343,-0.0927709,-0.383434,2.17536e-05,0.000798632,-4.07173e-05,-0.000471071,-0.000953056,-0.000540958,-2.96227e-06,0,0,0,0,0,0,0,0.0105283,-0.195427,-0.333415,-1.65857,-0.0953512,1.47804,0.401959,0.00125389,0.00321293,0.00117959,-0.00162406,-0.0068288,0.000335004,-0.00208103,-0.171017,-25.7625,1.78621,25.983,0.660702,2.95342,0.00376909,-2.95809,0.457104,-1.29429,-0.13164,-1.51175,-0.275374,-0.178356,-0.533006,-0.355576,-0.422273,-0.0882801,-0.304162,-0.039011,
0.0105265,-0.19537,-0.333419,-1.65859,-0.0954375,-0.0927731,-0.383434,1.99301e-05,0.00067241,-4.12273e-05,-0.000410877,-0.000800981,-0.000550995,-2.34594e-06,0,0,0,0,0,0,0,0.0105283,-0.195427,-0.333415,-1.65857,-0.0953512,1.47804,0.401959,0.00125389,0.00321293,0.00117959,-0.00162406,-0.0068288,0.000335004,-0.00208103,-0.171017,-25.7625,1.78621,25.983,0.660702,2.95342,0.00376909,-2.95809,0.457104,-1.29429,-0.13164,-1.51175,-0.275374,-0.178356,-0.533006,-0.355576,-0.422273,-0.0882801,-0.304162,-0.039011,
0.0105266,-0.195367,-0.333419,-1.65859,-0.0954402,-0.0927753,-0.383434,1.88309e-05,0.000561687,-4.08498e-05,-0.000356879,-0.000676156,-0.000551699,-1.85502e-06,0,0,0,0,0,0,0,0.0105226,-0.195463,-0.333416,-1.65893,-0.0953273,1.4786,0.401961,-0.00101415,-0.00706839,-0.00185843,0.00241098,0.0083682,-0.00543224,-0.00142325,-0.119442,-25.4094,1.81398,26.2805,0.459286,3.27843,-0.0026396,-1.5406,0.0266901,-1.62815,0.247617,-0.318143,-0.21383,-0.116639,0.186053,-0.342528,-0.6936,-0.0830877,-0.272904,-0.039589,
0.0105267,-0.195366,-0.333419,-1.6586,-0.0954425,-0.0927775,-0.383434,1.81469e-05,0.00046451,-4.00172e-05,-0.000308542,-0.000573163,-0.000545493,-1.45828e-06,0,0,0,0,0,0,0,0.0105226,-0.195463,-0.333416,-1.65893,-0.0953273,1.4786,0.401961,-0.00101415,-0.00706839,-0.00185843,0.00241098,0.0083682,-0.00543224,-0.00142325,-0.119442,-25.4094,1.81398,26.2805,0.459286,3.27843,-0.0026396,-1.10214,-0.0861491,-1.29075,0.279299,-0.139825,-0.184658,-0.0875479,0.218314,-0.312706,-0.584707,-0.0754407,-0.235035,-0.0410571,
0.0105267,-0.195364,-0.333419,-1.6586,-0.0954444,-0.0927796,-0.383434,1.76785e-05,0.000379176,-3.90065e-05,-0.000265338,-0.000487789,-0.000534326,-1.13277e-06,0,0,0,0,0,0,0,0.0105226,-0.195463,-0.333416,-1.65893,-0.0953273,1.4786,0.401961,-0.00101415,-0.00706839,-0.00185843,0.00241098,0.0083682,-0.00543224,-0.00142325,-0.119442,-25.4094,1.81398,26.2805,0.459286,3.27843,-0.0026396,-1.10214,-0.0861491,-1.29075,0.279299,-0.139825,-0.184658,-0.0875479,0.218314,-0.312706,-0.584707,-0.0754407,-0.235035,-0.0410571,
0.0105268,-0.195363,-0.33342,-1.6586,-0.0954461,-0.0927817,-0.383434,1.73008e-05,0.000304197,-3.79885e-05,-0.000226769,-0.000416732,-0.000519748,-8.61711e-07,0,0,0,0,0,0,0,0.0105226,-0.195463,-0.333416,-1.65893,-0.0953273,1.4786,0.401961,-0.00101415,-0.00706839,-0.00185843,0.00241098,0.0083682,-0.00543224,-0.00142325,-0.119442,-25.4094,1.81398,26.2805,0.459286,3.27843,-0.0026396,-1.10214,-0.0861491,-1.29075,0.279299,-0.139825,-0.184658,-0.0875479,0.218314,-0.312706,-0.584707,-0.0754407,-0.235035,-0.0410571,
0.0105269,-0.195362,-0.33342,-1.6586,-0.0954475,-0.0927837,-0.383434,1.69389e-05,0.000238278,-3.70634e-05,-0.000192371,-0.000357384,-0.000502971,-6.32774e-07,0,0,0,0,0,0,0,0.0105226,-0.195463,-0.333416,-1.65893,-0.0953273,1.4786,0.401961,-0.00101415,-0.00706839,-0.00185843,0.00241098,0.0083682,-0.00543224,-0.00142325,-0.119442,-25.4094,1.81398,26.2805,0.459286,3.27843,-0.0026396,-1.24774,0.0858342,-1.00648,0.109577,-0.372017,-0.133416,-0.0324169,0.0355177,-0.243637,-0.447672,-0.0643569,-0.223501,-0.0404205,
0.0105269,-0.195361,-0.33342,-1.6586,-0.0954488,-0.0927856,-0.383434,1.65515e-05,0.000180287,-3.62838e-05,-0.000161717,-0.000307665,-0.000484933,-4.36896e-07,0,0,0,0,0,0,0,0.0105047,-0.195426,-0.33343,-1.65889,-0.0952976,1.47862,0.401965,-0.00195622,-0.00550449,-0.00184619,0.00054949,0.00461519,-0.00317371,-0.000497914,0.134464,-25.7109,2.01234,25.8798,0.245053,3.11913,-0.0429228,-2.18167,0.274153,-0.952928,-0.0599234,-1.07931,-0.215685,-0.104789,-0.360282,-0.31125,-0.343011,-0.0934912,-0.255323,-0.0398753,
0.010527,-0.195361,-0.33342,-1.6586,-0.0954498,-0.0927875,-0.383434,1.61187e-05,0.000129238,-3.56721e-05,-0.000134417,-0.000265907,-0.00046635,-2.6735e-07,0,0,0,0,0,0,0,0.0105047,-0.195426,-0.33343,-1.65889,-0.0952976,1.47862,0.401965,-0.00195622,-0.00550449,-0.00184619,0.00054949,0.00461519,-0.00317371,-0.000497914,0.134464,-25.7109,2.01234,25.8798,0.245053,3.11913,-0.0429228,-2.18167,0.274153,-0.952928,-0.0599234,-1.07931,-0.215685,-0.104789,-0.360282,-0.31125,-0.343011,-0.0934912,-0.255323,-0.0398753,
0.0105271,-0.19536,-0.33342,-1.6586,-0.0954508,-0.0927893,-0.383434,1.56343e-05,8.42688e-05,-3.52315e-05,-0.000110117,-0.000230762,-0.000447755,-1.19109e-07,0,0,0,0,0,0,0,0.0105047,-0.195426,-0.33343,-1.65889,-0.0952976,1.47862,0.401965,-0.00195622,-0.00550449,-0.00184619,0.00054949,0.00461519,-0.00317371,-0.000497914,0.134464,-25.7109,2.01234,25.8798,0.245053,3.11913,-0.0429228,-1.96218,0.284863,-0.664262,-0.102169,-1.02606,-0.171776,-0.0648497,-0.379487,-0.257224,-0.254624,-0.0796108,-0.247729,-0.040771,
0.0105271,-0.19536,-0.33342,-1.6586,-0.0954516,-0.092791,-0.383434,1.51004e-05,4.46295e-05,-3.49535e-05,-8.84972e-05,-0.000201131,-0.000429542,1.16266e-08,0,0,0,0,0,0,0,0.0105047,-0.195426,-0.33343,-1.65889,-0.0952976,1.47862,0.401965,-0.00195622,-0.00550449,-0.00184619,0.00054949,0.00461519,-0.00317371,-0.000497914,0.134464,-25.7109,2.01234,25.8798,0.245053,3.11913,-0.0429228,-1.96218,0.284863,-0.664262,-0.102169,-1.02606,-0.171776,-0.0648497,-0.379487,-0.257224,-0.254624,-0.0796108,-0.247729,-0.040771,
0.0105272,-0.19536,-0.33342,-1.6586,-0.0954523,-0.0927926,-0.383434,1.45234e-05,9.66437e-06,-3.48232e-05,-6.92684e-05,-0.000176115,-0.000411988,1.27759e-07,0,0,0,0,0,0,0,0.0105047,-0.195426,-0.33343,-1.65889,-0.0952976,1.47862,0.401965,-0.00195622,-0.00550449,-0.00184619,0.00054949,0.00461519,-0.00317371,-0.000497914,0.134464,-25.7109,2.01234,25.8798,0.245053,3.11913,-0.0429228,-1.38102,0.189724,-1.00727,0.0510731,-0.41975,-0.111559,-0.0115667,0.0324869,-0.216688,-0.490146,-0.0605003,-0.283039,-0.0411653,
0.0105272,-0.19536,-0.333421,-1.6586,-0.0954529,-0.0927942,-0.383434,1.39124e-05,-2.1199e-05,-3.48228e-05,-5.21711e-05,-0.000154973,-0.000395283,2.31536e-07,0,0,0,0,0,0,0,0.0105127,-0.195387,-0.333422,-1.65884,-0.0953221,1.47864,0.401966,0.00340701,-0.00273597,-0.00325932,0.000900528,-8.80606e-05,0.00430038,0.000313317,0.0313145,-25.5602,1.88936,25.7806,0.386044,3.00652,-0.050247,-1.38102,0.189724,-1.00727,0.0510731,-0.41975,-0.111559,-0.0115667,0.0324869,-0.216688,-0.490146,-0.0605003,-0.283039,-0.0411653,
0.0105273,-0.19536,-0.333421,-1.6586,-0.0954534,-0.0927957,-0.383434,1.32769e-05,-4.84608e-05,-3.49333e-05,-3.69726e-05,-0.000137092,-0.000379546,3.24723e-07,0,0,0,0,0,0,0,0.0105127,-0.195387,-0.333422,-1.65884,-0.0953221,1.47864,0.401966,0.00340701,-0.00273597,-0.00325932,0.000900528,-8.80606e-05,0.00430038,0.000313317,0.0313145,-25.5602,1.88936,25.7806,0.386044,3.00652,-0.050247,-1.58558,0.168494,-0.97382,0.0513998,-0.589215,-0.158735,-0.0563663,-0.0689654,-0.263475,-0.450981,-0.0728223,-0.281515,-0.0398998,
0.0105274,-0.195361,-0.333421,-1.6586,-0.0954539,-0.0927972,-0.383434,1.26264e-05,-7.25581e-05,-3.51364e-05,-2.34644e-05,-0.000121962,-0.000364846,4.08728e-07,0,0,0,0,0,0,0,0.0105127,-0.195387,-0.333422,-1.65884,-0.0953221,1.47864,0.401966,0.00340701,-0.00273597,-0.00325932,0.000900528,-8.80606e-05,0.00430038,0.000313317,0.0313145,-25.5602,1.88936,25.7806,0.386044,3.00652,-0.050247,-1.58558,0.168494,-0.97382,0.0513998,-0.589215,-0.158735,-0.0563663,-0.0689654,-0.263475,-0.450981,-0.0728223,-0.281515,-0.0398998,
0.0105274,-0.195361,-0.333421,-1.6586,-0.0954544,-0.0927986,-0.383434,1.19696e-05,-9.38734e-05,-3.54148e-05,-1.14602e-05,-0.000109157,-0.000351209,4.84691e-07,0,0,0,0,0,0,0,0.0105127,-0.195387,-0.333422,-1.65884,-0.0953221,1.47864,0.401966,0.00340701,-0.00273597,-0.00325932,0.000900528,-8.80606e-05,0.00430038,0.000313317,0.0313145,-25.5602,1.88936,25.7806,0.386044,3.00652,-0.050247,-2.00319,0.0838182,-0.726319,0.0440285,-0.988707,-0.272936,-0.169938,-0.32906,-0.368601,-0.312388,-0.113835,-0.286023,-0.0395212,
0.0105274,-0.195361,-0.333421,-1.6586,-0.0954548,-0.0928,-0.383434,1.13144e-05,-0.000112742,-3.57529e-05,-7.93415e-07,-9.83187e-05,-0.000338633,5.53549e-07,0,0,0,0,0,0,0,0.0105127,-0.195387,-0.333422,-1.65884,-0.0953221,1.47864,0.401966,0.00340701,-0.00273597,-0.00325932,0.000900528,-8.80606e-05,0.00430038,0.000313317,0.0313145,-25.5602,1.88936,25.7806,0.386044,3.00652,-0.050247,-1.49387,-0.0658063,-0.803791,0.184849,-0.557857,-0.252032,-0.159891,-0.0680611,-0.35707,-0.415134,-0.101867,-0.29616,-0.0386327,
0.0105275,-0.195362,-0.333421,-1.6586,-0.0954551,-0.0928013,-0.383434,1.06673e-05,-0.000129456,-3.61369e-05,8.68442e-06,-8.91486e-05,-0.000327094,6.16086e-07,0,0,0,0,0,0,0,0.0105127,-0.195387,-0.333422,-1.65884,-0.0953221,1.47864,0.401966,0.00340701,-0.00273597,-0.00325932,0.000900528,-8.80606e-05,0.00430038,0.000313317,0.0313145,-25.5602,1.88936,25.7806,0.386044,3.00652,-0.050247,-1.49387,-0.0658063,-0.803791,0.184849,-0.557857,-0.252032,-0.159891,-0.0680611,-0.35707,-0.415134,-0.101867,-0.29616,-0.0386327,
0.0105275,-0.195363,-0.333421,-1.6586,-0.0954554,-0.0928025,-0.383434,1.00338e-05,-0.000144275,-3.65549e-05,1.71057e-05,-8.13932e-05,-0.000316553,6.72967e-07,0,0,0,0,0,0,0,0.0105345,-0.195359,-0.333389,-1.65882,-0.0953175,1.47862,0.401967,-0.00173482,-0.00250977,0.00231072,0.00314769,0.00323608,-0.00472424,0.000682384,-0.198788,-25.6871,1.7386,25.983,0.386044,3.22533,-0.0566557,-1.53112,0.0812537,-0.601241,0.0553985,-0.68756,-0.193486,-0.110989,-0.183905,-0.27555,-0.313544,-0.0764489,-0.275897,-0.0386587,
0.0105276,-0.195363,-0.333422,-1.6586,-0.0954557,-0.0928038,-0.383434,9.41841e-06,-0.000157422,-3.69965e-05,2.45884e-05,-7.48391e-05,-0.000306961,7.24762e-07,0,0,0,0,0,0,0,0.0105345,-0.195359,-0.333389,-1.65882,-0.0953175,1.47862,0.401967,-0.00173482,-0.00250977,0.00231072,0.00314769,0.00323608,-0.00472424,0.000682384,-0.198788,-25.6871,1.7386,25.983,0.386044,3.22533,-0.0566557,-1.53112,0.0812537,-0.601241,0.0553985,-0.68756,-0.193486,-0.110989,-0.183905,-0.27555,-0.313544,-0.0764489,-0.275897,-0.0386587,
0.0105276,-0.195364,-0.333422,-1.6586,-0.095456,-0.092805,-0.383434,8.82462e-06,-0.000169096,-3.7453e-05,3.12375e-05,-6.93055e-05,-0.000298262,7.71966e-07,0,0,0,0,0,0,0,0.0105345,-0.195359,-0.333389,-1.65882,-0.0953175,1.47862,0.401967,-0.00173482,-0.00250977,0.00231072,0.00314769,0.00323608,-0.00472424,0.000682384,-0.198788,-25.6871,1.7386,25.983,0.386044,3.22533,-0.0566557,-0.830329,-0.0831411,-0.918369,0.241392,-0.00538603,-0.141575,-0.0621064,0.263729,-0.248434,-0.542265,-0.0719062,-0.298577,-0.0397957,
0.0104061,-0.195341,-0.33351,-1.65846,-0.0938884,-0.0936956,-0.383433,-0.0112635,0.00550888,-0.0101503,0.00876239,0.170201,-0.106074,0.000344136,0,0,0,0,0,0,0,0.0105345,-0.195359,-0.333389,-1.65882,-0.0953175,1.47862,0.401967,-0.00173482,-0.00250977,0.00231072,0.00314769,0.00323608,-0.00472424,0.000682384,-0.198788,-25.6871,1.7386,25.983,0.386044,3.22533,-0.0566557,-1.29607,-0.00225062,-0.547203,0.115205,-0.510849,-0.189238,-0.104295,-0.0859788,-0.279871,-0.337119,-0.0784653,-0.29019,-0.0388418,
0.0104191,-0.195336,-0.333474,-1.65869,-0.0937921,-0.0931228,-0.38343,-0.0109777,0.00150325,-0.00970313,0.0106367,0.17259,-0.10577,0.000338208,0,0,0,0,0,0,0,0.0105345,-0.195359,-0.333389,-1.65882,-0.0953175,1.47862,0.401967,-0.00173482,-0.00250977,0.00231072,0.00314769,0.00323608,-0.00472424,0.000682384,-0.198788,-25.6871,1.7386,25.983,0.386044,3.22533,-0.0566557,-1.29607,-0.00225062,-0.547203,0.115205,-0.510849,-0.189238,-0.104295,-0.0859788,-0.279871,-0.337119,-0.0784653,-0.29019,-0.0388418,
0.0103753,-0.195334,-0.333516,-1.65865,-0.0929767,-0.093626,-0.383428,-0.010944,0.000457958,-0.0104217,0.00891085,0.203847,-0.125783,0.000467336,0,0,0,0,0,0,0,0.0105258,-0.195383,-0.333392,-1.65879,-0.0953411,1.47866,0.401962,3.03422e-05,0.00513781,0.000282762,-1.10568e-05,-0.00111921,0.00168864,-0.00102974,-0.119442,-25.5364,1.81398,25.9314,0.948178,2.89391,-0.0163725,-1.23858,-0.101801,-0.525087,0.165481,-0.486609,-0.223556,-0.140838,-0.0809281,-0.314953,-0.317816,-0.0972075,-0.271108,-0.0391109,
0.0103337,-0.195336,-0.333558,-1.65862,-0.092065,-0.0941951,-0.383426,-0.0103925,-0.00048133,-0.0103592,0.00728898,0.227924,-0.142293,0.000539657,0,0,0,0,0,0,0,0.0105258,-0.195383,-0.333392,-1.65879,-0.0953411,1.47866,0.401962,3.03422e-05,0.00513781,0.000282762,-1.10568e-05,-0.00111921,0.00168864,-0.00102974,-0.119442,-25.5364,1.81398,25.9314,0.948178,2.89391,-0.0163725,-1.23858,-0.101801,-0.525087,0.165481,-0.486609,-0.223556,-0.140838,-0.0809281,-0.314953,-0.317816,-0.0972075,-0.271108,-0.0391109,
0.0102955,-0.195341,-0.333597,-1.6586,-0.0910785,-0.0948189,-0.383424,-0.00954471,-0.00123371,-0.00981498,0.00588666,0.246625,-0.155944,0.000576756,0,0,0,0,0,0,0,0.0105258,-0.195383,-0.333392,-1.65879,-0.0953411,1.47866,0.401962,3.03422e-05,0.00513781,0.000282762,-1.10568e-05,-0.00111921,0.00168864,-0.00102974,-0.119442,-25.5364,1.81398,25.9314,0.948178,2.89391,-0.0163725,-0.825771,-0.0526511,-0.66807,0.180909,-0.105836,-0.127488,-0.04976,0.162403,-0.223094,-0.438216,-0.0668375,-0.287696,-0.0398099,
0.0102614,-0.195348,-0.333633,-1.65858,-0.0900335,-0.0954877,-0.383422,-0.00854201,-0.00179594,-0.00898858,0.00470375,0.261249,-0.167196,0.000591196,0,0,0,0,0,0,0,0.0105258,-0.195383,-0.333392,-1.65879,-0.0953411,1.47866,0.401962,3.03422e-05,0.00513781,0.000282762,-1.10568e-05,-0.00111921,0.00168864,-0.00102974,-0.119442,-25.5364,1.81398,25.9314,0.948178,2.89391,-0.0163725,-0.825771,-0.0526511,-0.66807,0.180909,-0.105836,-0.127488,-0.04976,0.162403,-0.223094,-0.438216,-0.0668375,-0.287696,-0.0398099,
0.0102315,-0.195357,-0.333665,-1.65857,-0.0889426,-0.0961934,-0.383419,-0.00747567,-0.00218949,-0.00801274,0.00371084,0.272745,-0.176424,0.000591175,0,0,0,0,0,0,0,0.0105258,-0.195383,-0.333392,-1.65879,-0.0953411,1.47866,0.401962,3.03422e-05,0.00513781,0.000282762,-1.10568e-05,-0.00111921,0.00168864,-0.00102974,-0.119442,-25.5364,1.81398,25.9314,0.948178,2.89391,-0.0163725,-0.87415,-0.142779,-0.270808,0.23681,-0.325148,-0.176808,-0.0919166,-0.0415971,-0.282125,-0.265514,-0.0146861,-0.269331,-0.0389403,
0.0102058,-0.195367,-0.333693,-1.65855,-0.0878153,-0.0969292,-0.383417,-0.00640421,-0.0024419,-0.00697492,0.00287568,0.281812,-0.183943,0.000581835,0,0,0,0,0,0,0,0.0105258,-0.195383,-0.333392,-1.65879,-0.0953411,1.47866,0.401962,3.03422e-05,0.00513781,0.000282762,-1.10568e-05,-0.00111921,0.00168864,-0.00102974,-0.119442,-25.5364,1.81398,25.9314,0.948178,2.89391,-0.0163725,-0.87415,-0.142779,-0.270808,0.23681,-0.325148,-0.176808,-0.0919166,-0.0415971,-0.282125,-0.265514,-0.0146861,-0.269331,-0.0389403,
0.0101844,-0.195377,-0.333716,-1.65855,-0.0866594,-0.0976892,-0.383415,-0.00536424,-0.0025802,-0.00593173,0.00217025,0.288975,-0.190022,0.000566808,0,0,0,0,0,0,0,0.0104591,-0.195351,-0.333459,-1.65873,-0.0934621,1.47862,0.401962,0.000613126,0.00326037,-0.00104609,-0.0049443,0.0745699,0.00028895,-0.00111944,0.435978,-25.9371,2.23848,26.0544,1.25946,2.88018,-0.00996382,-0.793575,-0.314837,-0.459189,0.45488,-0.200034,-0.23773,-0.137658,0.0540315,-0.386009,-0.358273,0.0366927,-0.281207,-0.0385229,
0.0101669,-0.195388,-0.333736,-1.65854,-0.0854809,-0.0984688,-0.383412,-0.00437766,-0.00262859,-0.00491875,0.00157176,0.294627,-0.194891,0.000548398,0,0,0,0,0,0,0,0.0104591,-0.195351,-0.333459,-1.65873,-0.0934621,1.47862,0.401962,0.000613126,0.00326037,-0.00104609,-0.0049443,0.0745699,0.00028895,-0.00111944,0.435978,-25.9371,2.23848,26.0544,1.25946,2.88018,-0.00996382,-0.965511,-0.277197,-0.365395,0.480559,-0.375323,-0.250606,-0.137845,-0.0652493,-0.416582,-0.316608,0.101747,-0.29684,-0.0376622,
0.0101531,-0.195398,-0.333752,-1.65854,-0.0842846,-0.0992638,-0.38341,-0.00345652,-0.00260789,-0.00395729,0.00106204,0.299066,-0.198749,0.000528294,0,0,0,0,0,0,0,0.0104591,-0.195351,-0.333459,-1.65873,-0.0934621,1.47862,0.401962,0.000613126,0.00326037,-0.00104609,-0.0049443,0.0745699,0.00028895,-0.00111944,0.435978,-25.9371,2.23848,26.0544,1.25946,2.88018,-0.00996382,-0.965511,-0.277197,-0.365395,0.480559,-0.375323,-0.250606,-0.137845,-0.0652493,-0.416582,-0.316608,0.101747,-0.29684,-0.0376622,
0.0101426,-0.195408,-0.333764,-1.65853,-0.0830746,-0.100071,-0.383408,-0.00260634,-0.00253556,-0.00305907,0.000626615,0.302523,-0.201761,0.00050757,0,0,0,0,0,0,0,0.0104591,-0.195351,-0.333459,-1.65873,-0.0934621,1.47862,0.401962,0.000613126,0.00326037,-0.00104609,-0.0049443,0.0745699,0.00028895,-0.00111944,0.435978,-25.9371,2.23848,26.0544,1.25946,2.88018,-0.00996382,-1.22581,-0.214783,-0.175462,0.435399,-0.660811,-0.268636,-0.147729,-0.264352,-0.436001,-0.210658,0.134475,-0.29472,-0.0367369,
0.0101353,-0.195418,-0.333773,-1.65853,-0.0818538,-0.100887,-0.383406,-0.00182834,-0.00242595,-0.00222944,0.00025388,0.305177,-0.204067,0.000486938,0,0,0,0,0,0,0,0.0104591,-0.195351,-0.333459,-1.65873,-0.0934621,1.47862,0.401962,0.000613126,0.00326037,-0.00104609,-0.0049443,0.0745699,0.00028895,-0.00111944,0.435978,-25.9371,2.23848,26.0544,1.25946,2.88018,-0.00996382,-1.22581,-0.214783,-0.175462,0.435399,-0.660811,-0.268636,-0.147729,-0.264352,-0.436001,-0.210658,0.134475,-0.29472,-0.0367369,
0.0101308,-0.195427,-0.333779,-1.65853,-0.0806252,-0.10171,-0.383404,-0.00112103,-0.00229068,-0.00146956,-6.55656e-05,0.307168,-0.205785,0.000466857,0,0,0,0,0,0,0,0.0104487,-0.195366,-0.33349,-1.65873,-0.0901929,1.47849,0.401966,-2.34931e-05,-0.000614428,-0.000154238,0.00185666,0.12273,-0.00347089,-0.00105754,0.487552,-25.6355,2.31386,26.0068,1.19171,2.70165,-0.0163725,-0.694728,-0.150386,-0.429347,0.507119,-0.152314,-0.142742,-0.0214938,0.0663101,-0.331437,-0.398093,0.214654,-0.32291,-0.0379535,
0.0101289,-0.195436,-0.333782,-1.65853,-0.0793907,-0.102538,-0.383403,-0.000481247,-0.00213904,-0.000777963,-0.000339401,0.308607,-0.207015,0.000447659,0,0,0,0,0,0,0,0.0104487,-0.195366,-0.33349,-1.65873,-0.0901929,1.47849,0.401966,-2.34931e-05,-0.000614428,-0.000154238,0.00185666,0.12273,-0.00347089,-0.00105754,0.487552,-25.6355,2.31386,26.0068,1.19171,2.70165,-0.0163725,-0.802242,-0.0116488,-0.101377,0.43807,-0.349718,-0.0991519,0.0269596,-0.0954107,-0.288037,-0.295276,0.295632,-0.357649,-0.0382092,
0.0101293,-0.195444,-0.333783,-1.65854,-0.0781524,-0.10337,-0.383401,9.51101e-05,-0.00197833,-0.000151558,-0.000573975,0.309584,-0.207838,0.000429342,0,0,0,0,0,0,0,0.0104487,-0.195366,-0.33349,-1.65873,-0.0901929,1.47849,0.401966,-2.34931e-05,-0.000614428,-0.000154238,0.00185666,0.12273,-0.00347089,-0.00105754,0.487552,-25.6355,2.31386,26.0068,1.19171,2.70165,-0.0163725,-0.802242,-0.0116488,-0.101377,0.43807,-0.349718,-0.0991519,0.0269596,-0.0954107,-0.288037,-0.295276,0.295632,-0.357649,-0.0382092,
0.0101317,-0.195451,-0.333781,-1.65854,-0.0769117,-0.104203,-0.383399,0.00061261,-0.00181421,0.000413654,-0.000774568,0.31017,-0.208323,0.0004122,0,0,0,0,0,0,0,0.0104487,-0.195366,-0.33349,-1.65873,-0.0901929,1.47849,0.401966,-2.34931e-05,-0.000614428,-0.000154238,0.00185666,0.12273,-0.00347089,-0.00105754,0.487552,-25.6355,2.31386,26.0068,1.19171,2.70165,-0.0163725,-0.781068,0.00876611,-0.0554988,0.446779,-0.341447,-0.0853988,0.0432531,-0.094536,-0.279665,-0.298657,0.322441,-0.375928,-0.0386837,
0.010136,-0.195457,-0.333777,-1.65854,-0.07567,-0.105037,-0.383398,0.001076,-0.00165098,0.000922119,-0.000945635,0.310425,-0.208528,0.000396078,0,0,0,0,0,0,0,0.0104487,-0.195366,-0.33349,-1.65873,-0.0901929,1.47849,0.401966,-2.34931e-05,-0.000614428,-0.000154238,0.00185666,0.12273,-0.00347089,-0.00105754,0.487552,-25.6355,2.31386,26.0068,1.19171,2.70165,-0.0163725,-0.781068,0.00876611,-0.0554988,0.446779,-0.341447,-0.0853988,0.0432531,-0.094536,-0.279665,-0.298657,0.322441,-0.375928,-0.0386837,
0.010142,-0.195463,-0.333772,-1.65855,-0.0744284,-0.105871,-0.383396,0.00148992,-0.00149184,0.00137845,-0.00109095,0.310396,-0.208499,0.000380938,0,0,0,0,0,0,0,0.0104487,-0.195366,-0.33349,-1.65873,-0.0901929,1.47849,0.401966,-2.34931e-05,-0.000614428,-0.000154238,0.00185666,0.12273,-0.00347089,-0.00105754,0.487552,-25.6355,2.31386,26.0068,1.19171,2.70165,-0.0163725,-0.940206,0.243125,0.00595702,0.332602,-0.464905,-0.00994948,0.120394,-0.164741,-0.199919,-0.299613,0.389048,-0.42198,-0.036581,
0.0101494,-0.195469,-0.333765,-1.65855,-0.0731879,-0.106704,-0.383395,0.00185891,-0.00133909,0.00178715,-0.00121372,0.310126,-0.208277,0.000366987,0,0,0,0,0,0,0,0.0104583,-0.195379,-0.33349,-1.65872,-0.0860168,1.47829,0.401965,0.000527774,-0.000736166,-0.000768611,-0.000502156,0.139152,-0.00119589,-0.00131879,0.336795,-25.5364,2.21467,25.9076,0.960079,2.78771,-0.00996382,-0.940206,0.243125,0.00595702,0.332602,-0.464905,-0.00994948,0.120394,-0.164741,-0.199919,-0.299613,0.389048,-0.42198,-0.036581,
0.0101582,-0.195474,-0.333756,-1.65856,-0.0719494,-0.107536,-0.383393,0.00218719,-0.00119434,0.0021526,-0.00131673,0.309647,-0.207894,0.000353935,0,0,0,0,0,0,0,0.0104583,-0.195379,-0.33349,-1.65872,-0.0860168,1.47829,0.401965,0.000527774,-0.000736166,-0.000768611,-0.000502156,0.139152,-0.00119589,-0.00131879,0.336795,-25.5364,2.21467,25.9076,0.960079,2.78771,-0.00996382,-1.34963,0.101991,0.12899,0.422274,-0.793722,-0.148015,-0.0186583,-0.357623,-0.342382,-0.23722,0.37454,-0.454841,-0.0360386,
0.0101681,-0.195478,-0.333746,-1.65856,-0.0707134,-0.108365,-0.383392,0.00247872,-0.00105862,0.00247889,-0.00140236,0.308988,-0.207377,0.000341791,0,0,0,0,0,0,0,0.0104583,-0.195379,-0.33349,-1.65872,-0.0860168,1.47829,0.401965,0.000527774,-0.000736166,-0.000768611,-0.000502156,0.139152,-0.00119589,-0.00131879,0.336795,-25.5364,2.21467,25.9076,0.960079,2.78771,-0.00996382,-0.902738,0.154382,0.0583205,0.422303,-0.407899,-0.0462109,0.0723672,-0.120107,-0.237205,-0.338967,0.402414,-0.475747,-0.0352752,
0.010179,-0.195482,-0.333735,-1.65857,-0.0694807,-0.109192,-0.383391,0.00273715,-0.000932536,0.00276986,-0.00147268,0.308173,-0.206748,0.000330427,0,0,0,0,0,0,0,0.0104583,-0.195379,-0.33349,-1.65872,-0.0860168,1.47829,0.401965,0.000527774,-0.000736166,-0.000768611,-0.000502156,0.139152,-0.00119589,-0.00131879,0.336795,-25.5364,2.21467,25.9076,0.960079,2.78771,-0.00996382,-0.902738,0.154382,0.0583205,0.422303,-0.407899,-0.0462109,0.0723672,-0.120107,-0.237205,-0.338967,0.402414,-0.475747,-0.0352752,
0.0101909,-0.195485,-0.333723,-1.65857,-0.0682518,-0.110016,-0.383389,0.00296583,-0.000816345,0.00302902,-0.00152949,0.307222,-0.206028,0.000319956,0,0,0,0,0,0,0,0.0104583,-0.195379,-0.33349,-1.65872,-0.0860168,1.47829,0.401965,0.000527774,-0.000736166,-0.000768611,-0.000502156,0.139152,-0.00119589,-0.00131879,0.336795,-25.5364,2.21467,25.9076,0.960079,2.78771,-0.00996382,-0.712354,0.0886282,0.0668874,0.480629,-0.238881,-0.042672,0.0646253,-0.014127,-0.231453,-0.385312,0.404734,-0.501234,-0.0359119,
0.0102036,-0.195488,-0.33371,-1.65858,-0.0670272,-0.110837,-0.383388,0.00316778,-0.000710062,0.0032596,-0.00157438,0.306155,-0.20523,0.00031006,0,0,0,0,0,0,0,0.0105008,-0.195384,-0.333427,-1.65871,-0.0816086,1.47821,0.401965,-0.000204119,-0.00629067,0.000670333,0.00307452,0.152926,-0.00307331,-0.00023529,-0.0718349,-25.461,1.78621,25.7806,0.776974,2.84081,-0.0429228,-0.712354,0.0886282,0.0668874,0.480629,-0.238881,-0.042672,0.0646253,-0.014127,-0.231453,-0.385312,0.404734,-0.501234,-0.0359119,
0.010217,-0.19549,-0.333696,-1.65859,-0.0658073,-0.111655,-0.383387,0.00334579,-0.000613507,0.00346451,-0.00160872,0.304984,-0.204368,0.000300975,0,0,0,0,0,0,0,0.0105008,-0.195384,-0.333427,-1.65871,-0.0816086,1.47821,0.401965,-0.000204119,-0.00629067,0.000670333,0.00307452,0.152926,-0.00307331,-0.00023529,-0.0718349,-25.461,1.78621,25.7806,0.776974,2.84081,-0.0429228,-0.637269,0.0510358,0.110319,0.476395,-0.179588,-0.0451343,0.0511167,0.0210552,-0.221289,-0.386452,0.375984,-0.508505,-0.0381753,
0.0102476,-0.19524,-0.33359,-1.65837,-0.0907259,-0.0959481,-0.3834,-0.0262776,0.00635265,-0.0218971,0.0354845,0.524472,-0.42129,0.00331878,0,0,0,0,0,0,0,0.0105008,-0.195384,-0.333427,-1.65871,-0.0816086,1.47821,0.401965,-0.000204119,-0.00629067,0.000670333,0.00307452,0.152926,-0.00307331,-0.00023529,-0.0718349,-25.461,1.78621,25.7806,0.776974,2.84081,-0.0429228,-0.730958,-0.12278,0.125781,0.589386,-0.2367,-0.141158,-0.0543744,-0.00481292,-0.318142,-0.384953,0.350541,-0.522583,-0.0382839,
0.0102684,-0.195311,-0.333587,-1.65828,-0.0758915,-0.0961388,-0.383404,-0.0209652,0.00328151,-0.0171119,0.0338224,0.597461,-0.399066,0.0031488,0,0,0,0,0,0,0,0.0105008,-0.195384,-0.333427,-1.65871,-0.0816086,1.47821,0.401965,-0.000204119,-0.00629067,0.000670333,0.00307452,0.152926,-0.00307331,-0.00023529,-0.0718349,-25.461,1.78621,25.7806,0.776974,2.84081,-0.0429228,-0.730958,-0.12278,0.125781,0.589386,-0.2367,-0.141158,-0.0543744,-0.00481292,-0.318142,-0.384953,0.350541,-0.522583,-0.0382839,
0.0101905,-0.195315,-0.333656,-1.65817,-0.0731572,-0.098023,-0.38339,-0.0194633,-0.000934504,-0.017095,0.0273205,0.683577,-0.471044,0.00342528,0,0,0,0,0,0,0,0.0105008,-0.195384,-0.333427,-1.65871,-0.0816086,1.47821,0.401965,-0.000204119,-0.00629067,0.000670333,0.00307452,0.152926,-0.00307331,-0.00023529,-0.0718349,-25.461,1.78621,25.7806,0.776974,2.84081,-0.0429228,-0.839797,-0.143391,0.225546,0.559405,-0.343945,-0.170899,-0.091802,-0.0749351,-0.333476,-0.338278,0.317689,-0.525996,-0.0378931,
0.0101228,-0.195332,-0.333718,-1.65809,-0.07015,-0.100135,-0.383376,-0.016947,-0.00438465,-0.0155548,0.0210729,0.751793,-0.527961,0.00356927,0,0,0,0,0,0,0,0.0105125,-0.195365,-0.333414,-1.6587,-0.0765892,1.47805,0.401969,0.00160034,0.0013312,-0.00216325,0.00028362,0.176392,-0.0152099,0.000268634,-0.198788,-25.7347,1.71083,26.0068,1.1615,2.44988,-0.0429228,-0.839797,-0.143391,0.225546,0.559405,-0.343945,-0.170899,-0.091802,-0.0749351,-0.333476,-0.338278,0.317689,-0.525996,-0.0378931,
0.0100671,-0.19536,-0.333771,-1.65802,-0.0669245,-0.102427,-0.383361,-0.0139042,-0.00691321,-0.0131169,0.0155926,0.806378,-0.573019,0.00363414,0,0,0,0,0,0,0,0.0105125,-0.195365,-0.333414,-1.6587,-0.0765892,1.47805,0.401969,0.00160034,0.0013312,-0.00216325,0.00028362,0.176392,-0.0152099,0.000268634,-0.198788,-25.7347,1.71083,26.0068,1.1615,2.44988,-0.0429228,-0.566682,-0.389937,0.160248,0.739917,-0.0692911,-0.232458,-0.158792,0.108143,-0.408545,-0.428403,0.285637,-0.555643,-0.0388826,
0.0100246,-0.195394,-0.333811,-1.65798,-0.0635227,-0.104861,-0.383346,-0.0106331,-0.00860936,-0.0101908,0.0109254,0.850443,-0.608482,0.0036495,0,0,0,0,0,0,0,0.0105125,-0.195365,-0.333414,-1.6587,-0.0765892,1.47805,0.401969,0.00160034,0.0013312,-0.00216325,0.00028362,0.176392,-0.0152099,0.000268634,-0.198788,-25.7347,1.71083,26.0068,1.1615,2.44988,-0.0429228,-0.395708,-0.731887,0.673407,0.946788,-0.101326,-0.353814,-0.278296,0.018102,-0.547104,-0.289897,0.292951,-0.584555,-0.0397963,
0.00999532,-0.195433,-0.333839,-1.65795,-0.0599775,-0.107405,-0.383332,-0.0073211,-0.00962132,-0.00704577,0.00698694,0.886295,-0.636107,0.00363251,0,0,0,0,0,0,0,0.0105125,-0.195365,-0.333414,-1.6587,-0.0765892,1.47805,0.401969,0.00160034,0.0013312,-0.00216325,0.00028362,0.176392,-0.0152099,0.000268634,-0.198788,-25.7347,1.71083,26.0068,1.1615,2.44988,-0.0429228,-0.395708,-0.731887,0.673407,0.946788,-0.101326,-0.353814,-0.278296,0.018102,-0.547104,-0.289897,0.292951,-0.584555,-0.0397963,
0.00997898,-0.195473,-0.333855,-1.65794,-0.0563149,-0.110035,-0.383317,-0.00408542,-0.0100962,-0.00385725,0.00366976,0.915665,-0.657309,0.00359385,0,0,0,0,0,0,0,0.0105125,-0.195365,-0.333414,-1.6587,-0.0765892,1.47805,0.401969,0.00160034,0.0013312,-0.00216325,0.00028362,0.176392,-0.0152099,0.000268634,-0.198788,-25.7347,1.71083,26.0068,1.1615,2.44988,-0.0429228,-0.602438,-1.04941,0.857145,1.21226,-0.28182,-0.530262,-0.434324,-0.0964399,-0.76819,-0.259156,0.315165,-0.644834,-0.0385649,
0.00997499,-0.195514,-0.333858,-1.65793,-0.0525554,-0.112727,-0.383303,-0.000997543,-0.0101624,-0.00073748,0.000874377,0.939871,-0.673246,0.00354101,0,0,0,0,0,0,0,0.0105125,-0.195365,-0.333414,-1.6587,-0.0765892,1.47805,0.401969,0.00160034,0.0013312,-0.00216325,0.00028362,0.176392,-0.0152099,0.000268634,-0.198788,-25.7347,1.71083,26.0068,1.1615,2.44988,-0.0429228,-0.602438,-1.04941,0.857145,1.21226,-0.28182,-0.530262,-0.434324,-0.0964399,-0.76819,-0.259156,0.315165,-0.644834,-0.0385649,
0.00998259,-0.195553,-0.333849,-1.65794,-0.0487157,-0.115467,-0.383289,0.00190159,-0.00992648,0.0022444,-0.00148372,0.95992,-0.684872,0.00347989,0,0,0,0,0,0,0,0.0103303,-0.195296,-0.333583,-1.6585,-0.0663959,1.47647,0.401969,-0.00945136,0.00192949,-0.00662374,0.00727802,0.416571,-0.0713267,0.000330485,0.868412,-26.2346,2.53602,25.9552,2.12646,1.99853,-0.0429228,-0.110769,-0.865879,0.87375,1.20595,0.141944,-0.351897,-0.235759,0.161765,-0.621439,-0.40053,0.430887,-0.734088,-0.0390811,
0.010001,-0.195591,-0.333829,-1.65795,-0.0448093,-0.118239,-0.383276,0.00459137,-0.00947449,0.00504839,-0.00347449,0.976593,-0.692971,0.00341374,0,0,0,0,0,0,0,0.0103303,-0.195296,-0.333583,-1.6585,-0.0663959,1.47647,0.401969,-0.00945136,0.00192949,-0.00662374,0.00727802,0.416571,-0.0713267,0.000330485,0.868412,-26.2346,2.53602,25.9552,2.12646,1.99853,-0.0429228,-0.110769,-0.865879,0.87375,1.20595,0.141944,-0.351897,-0.235759,0.161765,-0.621439,-0.40053,0.430887,-0.734088,-0.0390811,
0.0100292,-0.195627,-0.333798,-1.65798,-0.0408473,-0.121032,-0.383262,0.00706464,-0.00887462,0.00765419,-0.00515531,0.9905,-0.69819,0.00334471,0,0,0,0,0,0,0,0.0103303,-0.195296,-0.333583,-1.6585,-0.0663959,1.47647,0.401969,-0.00945136,0.00192949,-0.00662374,0.00727802,0.416571,-0.0713267,0.000330485,0.868412,-26.2346,2.53602,25.9552,2.12646,1.99853,-0.0429228,-0.719186,-0.462796,1.51755,0.902213,-0.55433,-0.270595,-0.144669,-0.330802,-0.516365,-0.128783,0.527779,-0.781053,-0.0404154,
0.0100665,-0.19566,-0.333758,-1.658,-0.0368389,-0.123836,-0.383249,0.00932308,-0.00818034,0.0100545,-0.00657357,1.00212,-0.701057,0.00327515,0,0,0,0,0,0,0,0.0103303,-0.195296,-0.333583,-1.6585,-0.0663959,1.47647,0.401969,-0.00945136,0.00192949,-0.00662374,0.00727802,0.416571,-0.0713267,0.000330485,0.868412,-26.2346,2.53602,25.9552,2.12646,1.99853,-0.0429228,-0.552854,-0.388427,1.66431,0.89263,-0.45887,-0.201681,-0.0700994,-0.291155,-0.456575,-0.135388,0.588342,-0.822573,-0.0397872,
0.010112,-0.195689,-0.333709,-1.65803,-0.0327915,-0.126644,-0.383236,0.0113739,-0.00743277,0.0122506,-0.00776828,1.01184,-0.70201,0.00320577,0,0,0,0,0,0,0,0.0103303,-0.195296,-0.333583,-1.6585,-0.0663959,1.47647,0.401969,-0.00945136,0.00192949,-0.00662374,0.00727802,0.416571,-0.0713267,0.000330485,0.868412,-26.2346,2.53602,25.9552,2.12646,1.99853,-0.0429228,-0.552854,-0.388427,1.66431,0.89263,-0.45887,-0.201681,-0.0700994,-0.291155,-0.456575,-0.135388,0.588342,-0.822573,-0.0397872,
0.0101649,-0.195716,-0.333652,-1.65807,-0.0287116,-0.12945,-0.383224,0.0132276,-0.00666321,0.0142493,-0.00877198,1.01997,-0.701405,0.00313762,0,0,0,0,0,0,0,0.00959182,-0.195352,-0.334014,-1.65837,-0.0423547,1.47074,0.40197,-0.0211708,-0.00145533,-0.00589184,0.00346033,0.620798,-0.187616,0.000236541,1.17389,-25.5602,2.91292,25.4077,1.89483,2.01226,-0.0429228,-0.23506,0.0465962,1.77966,0.687692,-0.246057,0.0579061,0.199563,-0.184156,-0.199081,-0.182617,0.730957,-0.879063,-0.037939,
0.0102245,-0.19574,-0.333588,-1.65811,-0.0246046,-0.132248,-0.383212,0.0148967,-0.00589495,0.0160604,-0.00961169,1.02674,-0.699535,0.00307107,0,0,0,0,0,0,0,0.00959182,-0.195352,-0.334014,-1.65837,-0.0423547,1.47074,0.40197,-0.0211708,-0.00145533,-0.00589184,0.00346033,0.620798,-0.187616,0.000236541,1.17389,-25.5602,2.91292,25.4077,1.89483,2.01226,-0.0429228,-0.23506,0.0465962,1.77966,0.687692,-0.246057,0.0579061,0.199563,-0.184156,-0.199081,-0.182617,0.730957,-0.879063,-0.037939,
0.0102901,-0.19576,-0.333517,-1.65815,-0.0204751,-0.135034,-0.3832,0.0163945,-0.00514498,0.0176958,-0.0103102,1.03238,-0.696641,0.00300656,0,0,0,0,0,0,0,0.00959182,-0.195352,-0.334014,-1.65837,-0.0423547,1.47074,0.40197,-0.0211708,-0.00145533,-0.00589184,0.00346033,0.620798,-0.187616,0.000236541,1.17389,-25.5602,2.91292,25.4077,1.89483,2.01226,-0.0429228,-0.502704,-0.0159481,1.82396,0.810287,-0.441452,-0.0138157,0.140122,-0.292064,-0.299344,-0.187045,0.794893,-0.93182,-0.0344413,
0.010361,-0.195778,-0.33344,-1.65819,-0.016327,-0.137806,-0.383188,0.0177343,-0.00442532,0.0191681,-0.0108868,1.03704,-0.69292,0.00294403,0,0,0,0,0,0,0,0.00959182,-0.195352,-0.334014,-1.65837,-0.0423547,1.47074,0.40197,-0.0211708,-0.00145533,-0.00589184,0.00346033,0.620798,-0.187616,0.000236541,1.17389,-25.5602,2.91292,25.4077,1.89483,2.01226,-0.0429228,-0.321106,0.375328,1.64748,0.645402,-0.197947,0.202054,0.362863,-0.109071,-0.0869057,-0.342675,0.892212,-1.0041,-0.0329383,
0.0104367,-0.195793,-0.333358,-1.65824,-0.0121635,-0.14056,-0.383176,0.0189295,-0.00374407,0.0204901,-0.0113577,1.04086,-0.688536,0.00288374,0,0,0,0,0,0,0,0.00959182,-0.195352,-0.334014,-1.65837,-0.0423547,1.47074,0.40197,-0.0211708,-0.00145533,-0.00589184,0.00346033,0.620798,-0.187616,0.000236541,1.17389,-25.5602,2.91292,25.4077,1.89483,2.01226,-0.0429228,-0.321106,0.375328,1.64748,0.645402,-0.197947,0.202054,0.362863,-0.109071,-0.0869057,-0.342675,0.892212,-1.0041,-0.0329383,
0.0105167,-0.195805,-0.333272,-1.65828,-0.00798764,-0.143295,-0.383165,0.0199926,-0.00310637,0.0216743,-0.011737,1.04397,-0.68362,0.00282589,0,0,0,0,0,0,0,0.00900141,-0.195373,-0.334161,-1.65831,-0.022455,1.46418,0.401969,-0.020413,-0.00311501,-0.00440327,0.00240793,0.661585,-0.231971,8.06096e-05,1.4278,-25.338,3.0121,25.5069,1.88202,2.07818,-0.0301054,-0.419971,0.51689,1.76087,0.570521,-0.293899,0.253826,0.418387,-0.171986,-0.0338511,-0.325269,0.935098,-1.0426,-0.030839,
0.0106004,-0.195815,-0.333181,-1.65833,-0.00380185,-0.146008,-0.383154,0.0209357,-0.00251508,0.0227327,-0.0120366,1.04645,-0.678281,0.00276965,0,0,0,0,0,0,0,0.00900141,-0.195373,-0.334161,-1.65831,-0.022455,1.46418,0.401969,-0.020413,-0.00311501,-0.00440327,0.00240793,0.661585,-0.231971,8.06096e-05,1.4278,-25.338,3.0121,25.5069,1.88202,2.07818,-0.0301054,-0.419971,0.51689,1.76087,0.570521,-0.293899,0.253826,0.418387,-0.171986,-0.0338511,-0.325269,0.935098,-1.0426,-0.030839,
0.0106875,-0.195823,-0.333086,-1.65838,0.000391719,-0.148698,-0.383143,0.0217698,-0.00197128,0.0236767,-0.0122669,1.04839,-0.67261,0.00271595,0,0,0,0,0,0,0,0.00900141,-0.195373,-0.334161,-1.65831,-0.022455,1.46418,0.401969,-0.020413,-0.00311501,-0.00440327,0.00240793,0.661585,-0.231971,8.06096e-05,1.4278,-25.338,3.0121,25.5069,1.88202,2.07818,-0.0301054,-0.452959,0.354949,1.7218,0.701431,-0.279293,0.182405,0.353492,-0.147389,-0.124385,-0.36231,0.924222,-1.06636,-0.030042,
0.0107776,-0.195829,-0.332988,-1.65843,0.00459117,-0.151365,-0.383132,0.0225053,-0.00147483,0.0245169,-0.0124369,1.04986,-0.666679,0.00266401,0,0,0,0,0,0,0,0.00900141,-0.195373,-0.334161,-1.65831,-0.022455,1.46418,0.401969,-0.020413,-0.00311501,-0.00440327,0.00240793,0.661585,-0.231971,8.06096e-05,1.4278,-25.338,3.0121,25.5069,1.88202,2.07818,-0.0301054,-0.170882,0.319601,1.68529,0.73305,-0.0286509,0.22356,0.391377,0.00949623,-0.0854058,-0.428057,0.918889,-1.08324,-0.0293644,
0.0108702,-0.195833,-0.332887,-1.65848,0.00879488,-0.154007,-0.383122,0.0231516,-0.00102462,0.025263,-0.0125545,1.05093,-0.660546,0.00261392,0,0,0,0,0,0,0,0.00900141,-0.195373,-0.334161,-1.65831,-0.022455,1.46418,0.401969,-0.020413,-0.00311501,-0.00440327,0.00240793,0.661585,-0.231971,8.06096e-05,1.4278,-25.338,3.0121,25.5069,1.88202,2.07818,-0.0301054,-0.170882,0.319601,1.68529,0.73305,-0.0286509,0.22356,0.391377,0.00949623,-0.0854058,-0.428057,0.918889,-1.08324,-0.0293644,
0.010965,-0.195836,-0.332783,-1.65853,0.0130014,-0.156624,-0.383112,0.0237175,-0.000618925,0.0259241,-0.0126266,1.05163,-0.65426,0.00256552,0,0,0,0,0,0,0,0.00900141,-0.195373,-0.334161,-1.65831,-0.022455,1.46418,0.401969,-0.020413,-0.00311501,-0.00440327,0.00240793,0.661585,-0.231971,8.06096e-05,1.4278,-25.338,3.0121,25.5069,1.88202,2.07818,-0.0301054,-0.301013,0.191884,1.6615,0.761069,-0.0984659,0.151146,0.315503,-0.0165532,-0.150662,-0.420822,0.841205,-1.08041,-0.0304376,
0.0111704,-0.195563,-0.332677,-1.65857,-0.0775548,-0.0980713,-0.383287,0.0789477,-0.0210595,0.0894595,0.00442166,0.423816,-0.632638,0.0120874,0,0,0,0,0,0,0,0.00863025,-0.195388,-0.33422,-1.65828,0.000920237,1.45552,0.40197,-0.0105971,-0.00152414,0.000953862,0.00531314,0.7323,-0.282994,-9.20586e-05,1.07074,-25.2626,2.83754,25.3085,1.64398,2.05163,-0.0429228,-0.301013,0.191884,1.6615,0.761069,-0.0984659,0.151146,0.315503,-0.0165532,-0.150662,-0.420822,0.841205,-1.08041,-0.0304376,
0.00946813,-0.195625,-0.333353,-1.65834,0.00929291,-0.122771,-0.383271,0.0962543,-0.025258,0.104166,-0.0116973,0.702639,-0.7612,0.0125879,0,0,0,0,0,0,0,0.00863025,-0.195388,-0.33422,-1.65828,0.000920237,1.45552,0.40197,-0.0105971,-0.00152414,0.000953862,0.00531314,0.7323,-0.282994,-9.20586e-05,1.07074,-25.2626,2.83754,25.3085,1.64398,2.05163,-0.0429228,-0.402371,0.110343,1.40884,0.779028,-0.0554265,0.101079,0.251341,0.0612832,-0.185994,-0.50493,0.755155,-1.08073,-0.0305131,
0.00993182,-0.195734,-0.332843,-1.65841,0.0121827,-0.12623,-0.383223,0.115924,-0.0271836,0.127632,-0.0191665,0.722453,-0.864931,0.0119552,0,0,0,0,0,0,0,0.00863025,-0.195388,-0.33422,-1.65828,0.000920237,1.45552,0.40197,-0.0105971,-0.00152414,0.000953862,0.00531314,0.7323,-0.282994,-9.20586e-05,1.07074,-25.2626,2.83754,25.3085,1.64398,2.05163,-0.0429228,-0.402371,0.110343,1.40884,0.779028,-0.0554265,0.101079,0.251341,0.0612832,-0.185994,-0.50493,0.755155,-1.08073,-0.0305131,
0.0104602,-0.195843,-0.332256,-1.65852,0.0151723,-0.13003,-0.383177,0.132089,-0.0272591,0.146597,-0.0262426,0.747387,-0.95001,0.0114335,0,0,0,0,0,0,0,0.00863025,-0.195388,-0.33422,-1.65828,0.000920237,1.45552,0.40197,-0.0105971,-0.00152414,0.000953862,0.00531314,0.7323,-0.282994,-9.20586e-05,1.07074,-25.2626,2.83754,25.3085,1.64398,2.05163,-0.0429228,-0.599229,0.0908717,1.41169,0.711032,-0.246925,0.0559774,0.184662,-0.0625622,-0.1974,-0.418446,0.692183,-1.01837,-0.0289031,
0.0110423,-0.195947,-0.331608,-1.65865,0.0182704,-0.13411,-0.383133,0.145522,-0.0260205,0.162118,-0.0327729,0.774542,-1.01996,0.0109952,0,0,0,0,0,0,0,0.00863025,-0.195388,-0.33422,-1.65828,0.000920237,1.45552,0.40197,-0.0105971,-0.00152414,0.000953862,0.00531314,0.7323,-0.282994,-9.20586e-05,1.07074,-25.2626,2.83754,25.3085,1.64398,2.05163,-0.0429228,-1.00341,-0.035741,1.37533,0.696757,-0.570708,-0.079764,0.0484132,-0.251324,-0.318977,-0.324164,0.585658,-0.956747,-0.0206948,
0.0116694,-0.196043,-0.330908,-1.6588,0.0214786,-0.138421,-0.383091,0.156789,-0.0238828,0.174964,-0.0386999,0.80205,-1.07756,0.0106179,0,0,0,0,0,0,0,0.00881824,-0.195365,-0.333841,-1.65837,0.0225177,1.44607,0.401971,0.0128726,0.00739102,0.0388672,-0.000887734,0.551404,-0.304289,-0.000751559,0.868412,-25.8339,3.0121,25.8322,1.10016,2.18438,-0.00996382,-1.00341,-0.035741,1.37533,0.696757,-0.570708,-0.079764,0.0484132,-0.251324,-0.318977,-0.324164,0.585658,-0.956747,-0.0206948,
0.0123347,-0.196127,-0.330165,-1.65898,0.0247936,-0.142921,-0.38305,0.166314,-0.0211596,0.185702,-0.0440144,0.828747,-1.12505,0.0102847,0,0,0,0,0,0,0,0.00881824,-0.195365,-0.333841,-1.65837,0.0225177,1.44607,0.401971,0.0128726,0.00739102,0.0388672,-0.000887734,0.551404,-0.304289,-0.000751559,0.868412,-25.8339,3.0121,25.8322,1.10016,2.18438,-0.00996382,-0.562812,-1.10451,1.08606,1.2849,-0.0999205,-0.485527,-0.376854,0.0720514,-0.746129,-0.427144,0.304653,-0.88078,-0.0178608,
0.0130323,-0.1962,-0.329386,-1.65917,0.0282094,-0.147578,-0.38301,0.174415,-0.0180849,0.194751,-0.0487328,0.853947,-1.16421,0.00998509,0,0,0,0,0,0,0,0.00881824,-0.195365,-0.333841,-1.65837,0.0225177,1.44607,0.401971,0.0128726,0.00739102,0.0388672,-0.000887734,0.551404,-0.304289,-0.000751559,0.868412,-25.8339,3.0121,25.8322,1.10016,2.18438,-0.00996382,-0.562812,-1.10451,1.08606,1.2849,-0.0999205,-0.485527,-0.376854,0.0720514,-0.746129,-0.427144,0.304653,-0.88078,-0.0178608,
0.0137577,-0.196259,-0.328576,-1.65939,0.0317185,-0.152364,-0.382971,0.181333,-0.0148316,0.202424,-0.0528867,0.877279,-1.19652,0.00971092,0,0,0,0,0,0,0,0.00881824,-0.195365,-0.333841,-1.65837,0.0225177,1.44607,0.401971,0.0128726,0.00739102,0.0388672,-0.000887734,0.551404,-0.304289,-0.000751559,0.868412,-25.8339,3.0121,25.8322,1.10016,2.18438,-0.00996382,-0.740449,-1.41224,1.42069,1.24367,-0.393053,-0.657878,-0.575009,-0.159065,-0.865253,-0.181142,0.0994162,-0.775873,-0.0149182,
0.0145067,-0.196305,-0.327741,-1.65961,0.0353128,-0.157256,-0.382933,0.187259,-0.0115256,0.208963,-0.0565146,0.898582,-1.22314,0.00945509,0,0,0,0,0,0,0,0.00881824,-0.195365,-0.333841,-1.65837,0.0225177,1.44607,0.401971,0.0128726,0.00739102,0.0388672,-0.000887734,0.551404,-0.304289,-0.000751559,0.868412,-25.8339,3.0121,25.8322,1.10016,2.18438,-0.00996382,-0.740449,-1.41224,1.42069,1.24367,-0.393053,-0.657878,-0.575009,-0.159065,-0.865253,-0.181142,0.0994162,-0.775873,-0.0149182,
0.0152761,-0.196339,-0.326882,-1.65985,0.0389842,-0.16222,-0.382896,0.192352,-0.00852131,0.214599,-0.0604822,0.917847,-1.24091,0.00923619,0,0,0,0,0,0,0,0.00881824,-0.195365,-0.333841,-1.65837,0.0225177,1.44607,0.401971,0.0128726,0.00739102,0.0388672,-0.000887734,0.551404,-0.304289,-0.000751559,0.868412,-25.8339,3.0121,25.8322,1.10016,2.18438,-0.00996382,-0.931229,-1.04163,1.34629,0.963386,-0.463504,-0.518196,-0.453451,-0.163597,-0.682392,-0.228878,0.0867003,-0.825055,-0.0132739,
0.0160632,-0.196363,-0.326004,-1.66012,0.0427249,-0.167199,-0.38286,0.196759,-0.0060354,0.219504,-0.0655349,0.935154,-1.24491,0.00906161,0,0,0,0,0,0,0,0.00982188,-0.195499,-0.332188,-1.6583,0.0413737,1.43291,0.401967,0.0409436,-0.00529895,0.0651721,0.000520574,0.567477,-0.469264,-0.00195386,2.03479,-25.1872,4.26179,24.6619,1.91864,1.34209,0.0303194,-0.762847,-0.364718,1.09723,0.548936,-0.166156,-0.174787,-0.126662,0.080332,-0.295155,-0.430147,0.14331,-0.925236,-0.0118841,
0.0168654,-0.196377,-0.32511,-1.6604,0.0465271,-0.172163,-0.382824,0.200564,-0.00341944,0.22367,-0.0699459,0.950566,-1.24076,0.00888584,0,0,0,0,0,0,0,0.00982188,-0.195499,-0.332188,-1.6583,0.0413737,1.43291,0.401967,0.0409436,-0.00529895,0.0651721,0.000520574,0.567477,-0.469264,-0.00195386,2.03479,-25.1872,4.26179,24.6619,1.91864,1.34209,0.0303194,-0.762847,-0.364718,1.09723,0.548936,-0.166156,-0.174787,-0.126662,0.080332,-0.295155,-0.430147,0.14331,-0.925236,-0.0118841,
0.0176807,-0.19638,-0.324201,-1.66069,0.0503838,-0.177088,-0.38279,0.203817,-0.000657249,0.227208,-0.0734228,0.964163,-1.23136,0.00870943,0,0,0,0,0,0,0,0.00982188,-0.195499,-0.332188,-1.6583,0.0413737,1.43291,0.401967,0.0409436,-0.00529895,0.0651721,0.000520574,0.567477,-0.469264,-0.00195386,2.03479,-25.1872,4.26179,24.6619,1.91864,1.34209,0.0303194,-1.82765,-0.525729,1.16379,0.579834,-0.975479,-0.423622,-0.3731,-0.374581,-0.535941,-0.291488,0.04733,-0.936432,-0.01015,
0.018507,-0.196371,-0.32328,-1.66099,0.054288,-0.181962,-0.382755,0.206581,0.00213923,0.230217,-0.0760492,0.976059,-1.2184,0.00853525,0,0,0,0,0,0,0,0.00982188,-0.195499,-0.332188,-1.6583,0.0413737,1.43291,0.401967,0.0409436,-0.00529895,0.0651721,0.000520574,0.567477,-0.469264,-0.00195386,2.03479,-25.1872,4.26179,24.6619,1.91864,1.34209,0.0303194,-1.82765,-0.525729,1.16379,0.579834,-0.975479,-0.423622,-0.3731,-0.374581,-0.535941,-0.291488,0.04733,-0.936432,-0.01015,
0.0193427,-0.196352,-0.322349,-1.66131,0.0582336,-0.186774,-0.382722,0.208916,0.00486427,0.232771,-0.077978,0.986393,-1.203,0.0083639,0,0,0,0,0,0,0,0.00982188,-0.195499,-0.332188,-1.6583,0.0413737,1.43291,0.401967,0.0409436,-0.00529895,0.0651721,0.000520574,0.567477,-0.469264,-0.00195386,2.03479,-25.1872,4.26179,24.6619,1.91864,1.34209,0.0303194,-1.35339,-0.888511,0.805213,0.902636,-0.425327,-0.495322,-0.442325,0.0150568,-0.648203,-0.530089,0.0195132,-0.977265,-0.00814966,
0.0201861,-0.196322,-0.321409,-1.66162,0.0622148,-0.191517,-0.382689,0.21087,0.00744454,0.234927,-0.0793506,0.995311,-1.1859,0.00819638,0,0,0,0,0,0,0,0.0114449,-0.19564,-0.329795,-1.65831,0.0607298,1.4158,0.401974,0.0696221,-0.00690528,0.0928386,0.00132714,0.650686,-0.585258,-0.000942418,2.08637,-24.8381,4.18641,24.6619,2.01019,1.30273,0.0101778,-1.94162,-0.982466,0.95214,1.02139,-0.837441,-0.620239,-0.566691,-0.202724,-0.78766,-0.520108,0.0531217,-1.09015,-0.00558486,
0.0210361,-0.196283,-0.320462,-1.66194,0.0662267,-0.196188,-0.382657,0.212487,0.00983625,0.236733,-0.0802822,1.00296,-1.16765,0.00803343,0,0,0,0,0,0,0,0.0114449,-0.19564,-0.329795,-1.65831,0.0607298,1.4158,0.401974,0.0696221,-0.00690528,0.0928386,0.00132714,0.650686,-0.585258,-0.000942418,2.08637,-24.8381,4.18641,24.6619,2.01019,1.30273,0.0101778,-1.94162,-0.982466,0.95214,1.02139,-0.837441,-0.620239,-0.566691,-0.202724,-0.78766,-0.520108,0.0531217,-1.09015,-0.00558486,
0.0218913,-0.196234,-0.319509,-1.66227,0.0702646,-0.200782,-0.382626,0.213801,0.0120179,0.238226,-0.0808623,1.00948,-1.14863,0.00787356,0,0,0,0,0,0,0,0.0114449,-0.19564,-0.329795,-1.65831,0.0607298,1.4158,0.401974,0.0696221,-0.00690528,0.0928386,0.00132714,0.650686,-0.585258,-0.000942418,2.08637,-24.8381,4.18641,24.6619,2.01019,1.30273,0.0101778,-2.22199,-0.517334,1.08519,0.747475,-1.12893,-0.453576,-0.403204,-0.399801,-0.597887,-0.4412,0.167415,-1.10256,-0.00658057,
0.0227507,-0.196179,-0.318551,-1.66259,0.0743246,-0.205299,-0.382595,0.214846,0.0139832,0.23944,-0.0811602,1.015,-1.1291,0.00771765,0,0,0,0,0,0,0,0.0114449,-0.19564,-0.329795,-1.65831,0.0607298,1.4158,0.401974,0.0696221,-0.00690528,0.0928386,0.00132714,0.650686,-0.585258,-0.000942418,2.08637,-24.8381,4.18641,24.6619,2.01019,1.30273,0.0101778,-2.22199,-0.517334,1.08519,0.747475,-1.12893,-0.453576,-0.403204,-0.399801,-0.597887,-0.4412,0.167415,-1.10256,-0.00658057,
0.0236133,-0.196116,-0.31759,-1.66292,0.0784031,-0.209736,-0.382564,0.215648,0.0157357,0.240404,-0.0812301,1.01963,-1.10926,0.00756628,0,0,0,0,0,0,0,0.0114449,-0.19564,-0.329795,-1.65831,0.0607298,1.4158,0.401974,0.0696221,-0.00690528,0.0928386,0.00132714,0.650686,-0.585258,-0.000942418,2.08637,-24.8381,4.18641,24.6619,2.01019,1.30273,0.0101778,-1.73164,-0.0274335,0.588806,0.590272,-0.570479,-0.151798,-0.108249,-0.00485684,-0.298138,-0.720914,0.319452,-1.14627,-0.0060959,
0.0244782,-0.196046,-0.316625,-1.66324,0.0824971,-0.214093,-0.382535,0.216233,0.017285,0.241142,-0.0811137,1.02348,-1.08926,0.007419,0,0,0,0,0,0,0,0.015044,-0.195654,-0.325379,-1.65858,0.0878206,1.38933,0.401981,0.0950111,0.000394329,0.119289,-0.00680917,0.618022,-0.635936,0.000437629,2.36408,-24.9373,4.26179,24.6381,2.78564,1.72021,-0.0429228,-2.07904,0.126042,0.498291,0.595095,-0.790047,-0.139718,-0.102623,-0.109746,-0.29116,-0.759466,0.423063,-1.19372,-0.00385168,
0.0253447,-0.195972,-0.315659,-1.66356,0.0866036,-0.21837,-0.382506,0.216624,0.0186441,0.241678,-0.0808446,1.02663,-1.06921,0.00727457,0,0,0,0,0,0,0,0.015044,-0.195654,-0.325379,-1.65858,0.0878206,1.38933,0.401981,0.0950111,0.000394329,0.119289,-0.00680917,0.618022,-0.635936,0.000437629,2.36408,-24.9373,4.26179,24.6381,2.78564,1.72021,-0.0429228,-2.07904,0.126042,0.498291,0.595095,-0.790047,-0.139718,-0.102623,-0.109746,-0.29116,-0.759466,0.423063,-1.19372,-0.00385168,
0.0262121,-0.195893,-0.31469,-1.66389,0.0907202,-0.222566,-0.382477,0.216839,0.0198276,0.242032,-0.0804494,1.02917,-1.04917,0.00713383,0,0,0,0,0,0,0,0.015044,-0.195654,-0.325379,-1.65858,0.0878206,1.38933,0.401981,0.0950111,0.000394329,0.119289,-0.00680917,0.618022,-0.635936,0.000437629,2.36408,-24.9373,4.26179,24.6381,2.78564,1.72021,-0.0429228,-1.73914,0.538292,0.154549,0.465685,-0.477564,0.0876695,0.12119,0.0889076,-0.0671282,-0.890427,0.586262,-1.16123,-0.00446594,
0.0270796,-0.195809,-0.313722,-1.66421,0.0948449,-0.226683,-0.382449,0.216897,0.0208509,0.242222,-0.0799498,1.03116,-1.02921,0.00699697,0,0,0,0,0,0,0,0.015044,-0.195654,-0.325379,-1.65858,0.0878206,1.38933,0.401981,0.0950111,0.000394329,0.119289,-0.00680917,0.618022,-0.635936,0.000437629,2.36408,-24.9373,4.26179,24.6381,2.78564,1.72021,-0.0429228,-1.73914,0.538292,0.154549,0.465685,-0.477564,0.0876695,0.12119,0.0889076,-0.0671282,-0.890427,0.586262,-1.16123,-0.00446594,
0.0279469,-0.195722,-0.312752,-1.66452,0.0989756,-0.230721,-0.382422,0.216816,0.021729,0.242265,-0.0793635,1.03267,-1.00936,0.00686266,0,0,0,0,0,0,0,0.015044,-0.195654,-0.325379,-1.65858,0.0878206,1.38933,0.401981,0.0950111,0.000394329,0.119289,-0.00680917,0.618022,-0.635936,0.000437629,2.36408,-24.9373,4.26179,24.6381,2.78564,1.72021,-0.0429228,-1.6193,1.0581,0.352769,0.178963,-0.587427,0.321648,0.354371,-0.0596621,0.185341,-0.743411,0.768559,-1.08119,-0.00447914,
0.0102145,-0.195993,-0.332598,-1.65888,0.0079639,-0.122404,-0.383258,0.178596,-0.0597436,0.1918,-0.062742,0.564761,-0.730883,0.0136652,0,0,0,0,0,0,0,0.015044,-0.195654,-0.325379,-1.65858,0.0878206,1.38933,0.401981,0.0950111,0.000394329,0.119289,-0.00680917,0.618022,-0.635936,0.000437629,2.36408,-24.9373,4.26179,24.6381,2.78564,1.72021,-0.0429228,-1.6193,1.0581,0.352769,0.178963,-0.587427,0.321648,0.354371,-0.0596621,0.185341,-0.743411,0.768559,-1.08119,-0.00447914,
0.0173934,-0.196115,-0.322826,-1.65943,0.0948251,-0.191107,-0.383257,0.229484,-0.043853,0.252533,-0.0839163,0.59277,-0.88735,0.0129524,0,0,0,0,0,0,0,0.0182672,-0.195584,-0.321096,-1.65911,0.107289,1.36802,0.401982,0.0998585,0.00894471,0.148278,-0.0203863,0.608263,-0.660292,0.000143585,1.78089,-25.5602,3.58735,24.9832,3.23791,2.00493,-0.0163725,-1.87004,0.81466,0.187158,0.443234,-0.760584,0.161327,0.204529,-0.153786,-0.0157076,-0.75126,0.826507,-1.04885,-0.00513787,
0.0184107,-0.196287,-0.321699,-1.65979,0.0973009,-0.194936,-0.383207,0.254307,-0.0430345,0.281839,-0.090498,0.618947,-0.957297,0.012389,0,0,0,0,0,0,0,0.0182672,-0.195584,-0.321096,-1.65911,0.107289,1.36802,0.401982,0.0998585,0.00894471,0.148278,-0.0203863,0.608263,-0.660292,0.000143585,1.78089,-25.5602,3.58735,24.9832,3.23791,2.00493,-0.0163725,-1.48338,1.55621,-0.459292,0.0784283,-0.304118,0.534387,0.580667,0.175229,0.369204,-0.984737,0.97173,-1.0061,-0.00647882,
0.0195093,-0.196449,-0.320477,-1.66018,0.0999043,-0.199,-0.383159,0.274658,-0.0404375,0.305604,-0.0957828,0.650865,-1.01604,0.0119001,0,0,0,0,0,0,0,0.0182672,-0.195584,-0.321096,-1.65911,0.107289,1.36802,0.401982,0.0998585,0.00894471,0.148278,-0.0203863,0.608263,-0.660292,0.000143585,1.78089,-25.5602,3.58735,24.9832,3.23791,2.00493,-0.0163725,-1.48338,1.55621,-0.459292,0.0784283,-0.304118,0.534387,0.580667,0.175229,0.369204,-0.984737,0.97173,-1.0061,-0.00647882,
0.0206754,-0.196597,-0.319176,-1.66058,0.102645,-0.20326,-0.383114,0.291517,-0.036914,0.325087,-0.100377,0.685207,-1.06496,0.0114635,0,0,0,0,0,0,0,0.0182672,-0.195584,-0.321096,-1.65911,0.107289,1.36802,0.401982,0.0998585,0.00894471,0.148278,-0.0203863,0.608263,-0.660292,0.000143585,1.78089,-25.5602,3.58735,24.9832,3.23791,2.00493,-0.0163725,-1.81539,2.39682,-0.391847,-0.549976,-0.682418,0.839682,0.880218,-0.0858962,0.741759,-0.827331,1.04029,-0.928467,-0.00388202,
0.0218978,-0.196729,-0.317811,-1.661,0.105525,-0.207672,-0.383069,0.305618,-0.0330949,0.341241,-0.104945,0.719835,-1.10302,0.0110808,0,0,0,0,0,0,0,0.0182672,-0.195584,-0.321096,-1.65911,0.107289,1.36802,0.401982,0.0998585,0.00894471,0.148278,-0.0203863,0.608263,-0.660292,0.000143585,1.78089,-25.5602,3.58735,24.9832,3.23791,2.00493,-0.0163725,-1.81539,2.39682,-0.391847,-0.549976,-0.682418,0.839682,0.880218,-0.0858962,0.741759,-0.827331,1.04029,-0.928467,-0.00388202,
0.0231682,-0.196848,-0.316392,-1.66144,0.108538,-0.212159,-0.383026,0.317587,-0.0297911,0.354882,-0.111184,0.753393,-1.12177,0.0107919,0,0,0,0,0,0,0,0.0220195,-0.195683,-0.316189,-1.66005,0.121577,1.34958,0.401983,0.136913,-0.00675647,0.182144,-0.0420656,0.397672,-0.551511,-0.00098024,2.76874,-25.3102,4.58711,25.3839,1.96808,2.21093,0.0101778,-2.52766,0.960164,-0.732398,0.310578,-1.07683,0.086873,0.132131,-0.251838,-0.0738825,-0.821007,0.732867,-0.851752,-0.00171681,
0.024479,-0.196952,-0.314927,-1.66191,0.111678,-0.216681,-0.382984,0.327707,-0.0260554,0.36628,-0.116378,0.785074,-1.13034,0.0104901,0,0,0,0,0,0,0,0.0220195,-0.195683,-0.316189,-1.66005,0.121577,1.34958,0.401983,0.136913,-0.00675647,0.182144,-0.0420656,0.397672,-0.551511,-0.00098024,2.76874,-25.3102,4.58711,25.3839,1.96808,2.21093,0.0101778,-2.5893,0.633462,-0.346474,0.281568,-1.36075,-0.0652447,-0.00155293,-0.514149,-0.211077,-0.516908,0.538597,-0.695047,-0.000272468,
0.0258241,-0.197041,-0.313423,-1.66239,0.114936,-0.2212,-0.382943,0.336264,-0.0221521,0.375867,-0.120745,0.814407,-1.12985,0.010188,0,0,0,0,0,0,0,0.0220195,-0.195683,-0.316189,-1.66005,0.121577,1.34958,0.401983,0.136913,-0.00675647,0.182144,-0.0420656,0.397672,-0.551511,-0.00098024,2.76874,-25.3102,4.58711,25.3839,1.96808,2.21093,0.0101778,-2.5893,0.633462,-0.346474,0.281568,-1.36075,-0.0652447,-0.00155293,-0.514149,-0.211077,-0.516908,0.538597,-0.695047,-0.000272468,
0.0271983,-0.197115,-0.311887,-1.66289,0.118301,-0.225667,-0.382904,0.343555,-0.0185699,0.384032,-0.125313,0.841159,-1.11677,0.00993896,0,0,0,0,0,0,0,0.0220195,-0.195683,-0.316189,-1.66005,0.121577,1.34958,0.401983,0.136913,-0.00675647,0.182144,-0.0420656,0.397672,-0.551511,-0.00098024,2.76874,-25.3102,4.58711,25.3839,1.96808,2.21093,0.0101778,-2.0321,1.00402,-0.295184,-0.056203,-1.00172,0.187218,0.227151,-0.33469,0.0976336,-0.496261,0.523373,-0.636072,-0.00193902,
0.0285971,-0.197175,-0.310324,-1.66341,0.121762,-0.230055,-0.382865,0.349705,-0.0148397,0.390885,-0.128741,0.865284,-1.09704,0.00969709,0,0,0,0,0,0,0,0.0220195,-0.195683,-0.316189,-1.66005,0.121577,1.34958,0.401983,0.136913,-0.00675647,0.182144,-0.0420656,0.397672,-0.551511,-0.00098024,2.76874,-25.3102,4.58711,25.3839,1.96808,2.21093,0.0101778,-2.0321,1.00402,-0.295184,-0.056203,-1.00172,0.187218,0.227151,-0.33469,0.0976336,-0.496261,0.523373,-0.636072,-0.00193902,
0.0300165,-0.197219,-0.308737,-1.66393,0.125309,-0.23435,-0.382827,0.354837,-0.0110438,0.396611,-0.130983,0.886835,-1.07358,0.00946085,0,0,0,0,0,0,0,0.0220195,-0.195683,-0.316189,-1.66005,0.121577,1.34958,0.401983,0.136913,-0.00675647,0.182144,-0.0420656,0.397672,-0.551511,-0.00098024,2.76874,-25.3102,4.58711,25.3839,1.96808,2.21093,0.0101778,-1.55287,1.39713,-0.684268,-0.325517,-0.440883,0.451418,0.48093,0.0703402,0.390621,-0.732923,0.50537,-0.679635,-0.00423979,
0.0314528,-0.197248,-0.307132,-1.66446,0.128933,-0.238542,-0.38279,0.359078,-0.00733766,0.40137,-0.132268,0.905939,-1.04801,0.00923432,0,0,0,0,0,0,0,0.0270499,-0.195969,-0.310203,-1.66161,0.13534,1.3303,0.401986,0.169575,-0.00444265,0.185576,-0.0473952,0.453872,-0.5849,-0.00103608,2.43946,-25.1119,4.43635,24.6381,2.0166,2.04522,-0.00996382,-1.55287,1.39713,-0.684268,-0.325517,-0.440883,0.451418,0.48093,0.0703402,0.390621,-0.732923,0.50537,-0.679635,-0.00423979,
0.0329029,-0.197264,-0.305511,-1.66499,0.132624,-0.242627,-0.382754,0.362542,-0.00383851,0.405293,-0.132835,0.922764,-1.02128,0.00901646,0,0,0,0,0,0,0,0.0270499,-0.195969,-0.310203,-1.66161,0.13534,1.3303,0.401986,0.169575,-0.00444265,0.185576,-0.0473952,0.453872,-0.5849,-0.00103608,2.43946,-25.1119,4.43635,24.6381,2.0166,2.04522,-0.00996382,-2.52031,0.245268,-0.835008,0.367155,-1.07282,-0.191679,-0.148322,-0.24922,-0.310256,-0.679511,0.269077,-0.663322,-0.00365177,
0.0343642,-0.197266,-0.303877,-1.66552,0.136374,-0.246603,-0.382719,0.365324,-0.000614675,0.408487,-0.132868,0.937499,-0.99399,0.00880852,0,0,0,0,0,0,0,0.0270499,-0.195969,-0.310203,-1.66161,0.13534,1.3303,0.401986,0.169575,-0.00444265,0.185576,-0.0473952,0.453872,-0.5849,-0.00103608,2.43946,-25.1119,4.43635,24.6381,2.0166,2.04522,-0.00996382,-2.62006,-0.603311,-1.11908,0.902363,-1.00894,-0.572019,-0.521753,-0.160898,-0.738565,-0.769211,0.103549,-0.643316,-0.00389982,
0.0358343,-0.197257,-0.302232,-1.66605,0.140175,-0.250469,-0.382684,0.367508,0.00230263,0.411042,-0.132506,0.950333,-0.966524,0.00861166,0,0,0,0,0,0,0,0.0270499,-0.195969,-0.310203,-1.66161,0.13534,1.3303,0.401986,0.169575,-0.00444265,0.185576,-0.0473952,0.453872,-0.5849,-0.00103608,2.43946,-25.1119,4.43635,24.6381,2.0166,2.04522,-0.00996382,-2.62006,-0.603311,-1.11908,0.902363,-1.00894,-0.572019,-0.521753,-0.160898,-0.738565,-0.769211,0.103549,-0.643316,-0.00389982,
0.0373109,-0.197237,-0.30058,-1.66658,0.144021,-0.254225,-0.382651,0.369166,0.00490742,0.413037,-0.131847,0.961452,-0.939118,0.00842289,0,0,0,0,0,0,0,0.0270499,-0.195969,-0.310203,-1.66161,0.13534,1.3303,0.401986,0.169575,-0.00444265,0.185576,-0.0473952,0.453872,-0.5849,-0.00103608,2.43946,-25.1119,4.43635,24.6381,2.0166,2.04522,-0.00996382,-2.73336,-0.311822,-1.34185,0.750243,-0.905308,-0.430052,-0.380066,-0.0189731,-0.589133,-0.953591,0.127502,-0.763705,-0.0043606,
0.0387924,-0.197208,-0.298922,-1.66711,0.147905,-0.257873,-0.382618,0.370361,0.00720906,0.414536,-0.130963,0.971028,-0.911924,0.00824326,0,0,0,0,0,0,0,0.0323899,-0.196126,-0.303266,-1.66322,0.152644,1.31234,0.401991,0.168892,-0.00289991,0.242179,-0.0511476,0.59404,-0.559836,-0.000112163,2.36408,-24.8103,4.18641,24.6619,2.31598,1.88592,-0.0163725,-2.73336,-0.311822,-1.34185,0.750243,-0.905308,-0.430052,-0.380066,-0.0189731,-0.589133,-0.953591,0.127502,-0.763705,-0.0043606,
0.040277,-0.197171,-0.29726,-1.66763,0.151822,-0.261413,-0.382585,0.371146,0.00922564,0.415598,-0.129906,0.979225,-0.885033,0.00807109,0,0,0,0,0,0,0,0.0323899,-0.196126,-0.303266,-1.66322,0.152644,1.31234,0.401991,0.168892,-0.00289991,0.242179,-0.0511476,0.59404,-0.559836,-0.000112163,2.36408,-24.8103,4.18641,24.6619,2.31598,1.88592,-0.0163725,-3.02102,-0.153529,-0.861544,0.624939,-1.31721,-0.390665,-0.331888,-0.334205,-0.541859,-0.745699,0.191748,-0.770571,-0.0040652,
0.0417632,-0.197128,-0.295595,-1.66814,0.155767,-0.264847,-0.382554,0.371569,0.01098,0.416274,-0.128714,0.986189,-0.858504,0.00790872,0,0,0,0,0,0,0,0.0323899,-0.196126,-0.303266,-1.66322,0.152644,1.31234,0.401991,0.168892,-0.00289991,0.242179,-0.0511476,0.59404,-0.559836,-0.000112163,2.36408,-24.8103,4.18641,24.6619,2.31598,1.88592,-0.0163725,-2.79273,-0.286181,-0.944861,0.761072,-1.13137,-0.41969,-0.354469,-0.229264,-0.594318,-0.787493,0.222745,-0.748824,-0.00420554,
0.0432499,-0.197078,-0.293928,-1.66865,0.159735,-0.268177,-0.382523,0.371673,0.0124959,0.416609,-0.127417,0.992053,-0.832371,0.00775171,0,0,0,0,0,0,0,0.0323899,-0.196126,-0.303266,-1.66322,0.152644,1.31234,0.401991,0.168892,-0.00289991,0.242179,-0.0511476,0.59404,-0.559836,-0.000112163,2.36408,-24.8103,4.18641,24.6619,2.31598,1.88592,-0.0163725,-2.79273,-0.286181,-0.944861,0.761072,-1.13137,-0.41969,-0.354469,-0.229264,-0.594318,-0.787493,0.222745,-0.748824,-0.00420554,
0.0447359,-0.197022,-0.292262,-1.66915,0.163723,-0.271403,-0.382492,0.371496,0.0137975,0.416641,-0.126037,0.99694,-0.806651,0.00760122,0,0,0,0,0,0,0,0.0323899,-0.196126,-0.303266,-1.66322,0.152644,1.31234,0.401991,0.168892,-0.00289991,0.242179,-0.0511476,0.59404,-0.559836,-0.000112163,2.36408,-24.8103,4.18641,24.6619,2.31598,1.88592,-0.0163725,-2.68269,-0.309282,-1.05424,0.880825,-0.998906,-0.419528,-0.354074,-0.139255,-0.616585,-0.867378,0.311783,-0.76907,-0.00312287,
0.0462202,-0.196963,-0.290596,-1.66965,0.167727,-0.274529,-0.382462,0.371069,0.014908,0.416407,-0.124591,1.00096,-0.781355,0.00745809,0,0,0,0,0,0,0,0.0323899,-0.196126,-0.303266,-1.66322,0.152644,1.31234,0.401991,0.168892,-0.00289991,0.242179,-0.0511476,0.59404,-0.559836,-0.000112163,2.36408,-24.8103,4.18641,24.6619,2.31598,1.88592,-0.0163725,-2.68269,-0.309282,-1.05424,0.880825,-0.998906,-0.419528,-0.354074,-0.139255,-0.616585,-0.867378,0.311783,-0.76907,-0.00312287,
0.0477019,-0.196899,-0.288932,-1.67014,0.171743,-0.277555,-0.382433,0.370423,0.0158489,0.415936,-0.123093,1.00421,-0.756484,0.00731989,0,0,0,0,0,0,0,0.0386764,-0.196086,-0.295432,-1.66502,0.170982,1.29603,0.401994,0.225471,-0.000267523,0.25442,-0.0527868,0.591815,-0.497907,0.000529849,2.3125,-25.3102,3.8611,24.6619,2.96966,1.81267,-0.0429228,-2.44403,-0.277814,-1.05915,1.01029,-0.824436,-0.390457,-0.324279,-0.0517779,-0.616367,-0.919936,0.467564,-0.783888,-0.00107714,
0.0491802,-0.196833,-0.287271,-1.67063,0.175771,-0.280483,-0.382404,0.369584,0.0166399,0.415258,-0.121555,1.00677,-0.732039,0.00718728,0,0,0,0,0,0,0,0.0386764,-0.196086,-0.295432,-1.66502,0.170982,1.29603,0.401994,0.225471,-0.000267523,0.25442,-0.0527868,0.591815,-0.497907,0.000529849,2.3125,-25.3102,3.8611,24.6619,2.96966,1.81267,-0.0429228,-2.35308,0.612555,-0.735295,0.49865,-0.929377,0.00562286,0.0711728,-0.179895,-0.184611,-0.803128,0.701203,-0.786785,-0.00166632,
0.018025,-0.196416,-0.322171,-1.6599,0.0937637,-0.190484,-0.383269,0.299643,-0.0727065,0.328677,-0.131306,0.482347,-0.808506,0.012016,0,0,0,0,0,0,0,0.0386764,-0.196086,-0.295432,-1.66502,0.170982,1.29603,0.401994,0.225471,-0.000267523,0.25442,-0.0527868,0.591815,-0.497907,0.000529849,2.3125,-25.3102,3.8611,24.6619,2.96966,1.81267,-0.0429228,-2.35308,0.612555,-0.735295,0.49865,-0.929377,0.00562286,0.0711728,-0.179895,-0.184611,-0.803128,0.701203,-0.786785,-0.00166632,
0.0426026,-0.196551,-0.291099,-1.6665,0.17771,-0.282024,-0.383269,0.363714,-0.0439643,0.404357,-0.138714,0.569503,-0.654641,0.0111267,0,0,0,0,0,0,0,0.0386764,-0.196086,-0.295432,-1.66502,0.170982,1.29603,0.401994,0.225471,-0.000267523,0.25442,-0.0527868,0.591815,-0.497907,0.000529849,2.3125,-25.3102,3.8611,24.6619,2.96966,1.81267,-0.0429228,-1.97809,1.53168,-0.59126,-0.0730298,-0.766893,0.45434,0.523073,-0.132279,0.304147,-0.75132,0.881983,-0.756257,-0.00449616,
0.0441649,-0.196721,-0.289355,-1.66708,0.180091,-0.28479,-0.383226,0.390584,-0.0423766,0.436107,-0.145775,0.595361,-0.691506,0.0107932,0,0,0,0,0,0,0,0.0386764,-0.196086,-0.295432,-1.66502,0.170982,1.29603,0.401994,0.225471,-0.000267523,0.25442,-0.0527868,0.591815,-0.497907,0.000529849,2.3125,-25.3102,3.8611,24.6619,2.96966,1.81267,-0.0429228,-1.97809,1.53168,-0.59126,-0.0730298,-0.766893,0.45434,0.523073,-0.132279,0.304147,-0.75132,0.881983,-0.756257,-0.00449616,
0.0458146,-0.196877,-0.287508,-1.66769,0.1826,-0.287666,-0.383184,0.412407,-0.0388919,0.461686,-0.150638,0.627117,-0.719086,0.0104397,0,0,0,0,0,0,0,0.0483129,-0.196027,-0.283773,-1.66768,0.193557,1.27841,0.401992,0.241285,-0.00703381,0.268653,-0.066588,0.390976,-0.355152,0.000487603,-1.61908,-25.9609,0.0644055,25.4831,1.72912,1.90606,-0.0227812,-1.49885,2.84665,-0.952566,-0.837551,-0.279314,1.09425,1.17041,0.209588,0.985641,-0.962398,1.10589,-0.792402,-0.00649598,
0.0475363,-0.197017,-0.285577,-1.66831,0.185245,-0.290583,-0.383144,0.430446,-0.035227,0.482653,-0.156065,0.661355,-0.729259,0.0102003,0,0,0,0,0,0,0,0.0483129,-0.196027,-0.283773,-1.66768,0.193557,1.27841,0.401992,0.241285,-0.00703381,0.268653,-0.066588,0.390976,-0.355152,0.000487603,-1.61908,-25.9609,0.0644055,25.4831,1.72912,1.90606,-0.0227812,-1.49885,2.84665,-0.952566,-0.837551,-0.279314,1.09425,1.17041,0.209588,0.985641,-0.962398,1.10589,-0.792402,-0.00649598,
0.0493174,-0.197141,-0.283578,-1.66895,0.188029,-0.293509,-0.383104,0.445276,-0.0308077,0.499771,-0.159899,0.69591,-0.731551,0.00995846,0,0,0,0,0,0,0,0.0483129,-0.196027,-0.283773,-1.66768,0.193557,1.27841,0.401992,0.241285,-0.00703381,0.268653,-0.066588,0.390976,-0.355152,0.000487603,-1.61908,-25.9609,0.0644055,25.4831,1.72912,1.90606,-0.0227812,-2.17874,2.53098,-0.524988,-0.66006,-0.954607,0.868901,0.924251,-0.241473,0.772379,-0.726465,1.09034,-0.787377,-0.00285222,
0.0511474,-0.197245,-0.281523,-1.6696,0.190946,-0.29642,-0.383065,0.45748,-0.0260552,0.513791,-0.162478,0.729395,-0.727788,0.0096793,0,0,0,0,0,0,0,0.0483129,-0.196027,-0.283773,-1.66768,0.193557,1.27841,0.401992,0.241285,-0.00703381,0.268653,-0.066588,0.390976,-0.355152,0.000487603,-1.61908,-25.9609,0.0644055,25.4831,1.72912,1.90606,-0.0227812,-2.76914,0.432809,-1.02022,0.668251,-1.17889,-0.127573,-0.0277593,-0.305669,-0.364388,-0.808597,0.726327,-0.717604,0.000489981,
0.0530178,-0.197332,-0.279421,-1.67026,0.19399,-0.299276,-0.383027,0.467621,-0.0216737,0.525403,-0.165119,0.760934,-0.714002,0.00945725,0,0,0,0,0,0,0,0.0483129,-0.196027,-0.283773,-1.66768,0.193557,1.27841,0.401992,0.241285,-0.00703381,0.268653,-0.066588,0.390976,-0.355152,0.000487603,-1.61908,-25.9609,0.0644055,25.4831,1.72912,1.90606,-0.0227812,-2.76914,0.432809,-1.02022,0.668251,-1.17889,-0.127573,-0.0277593,-0.305669,-0.364388,-0.808597,0.726327,-0.717604,0.000489981,
0.0549216,-0.197401,-0.277282,-1.67093,0.19715,-0.302058,-0.38299,0.475944,-0.017277,0.534929,-0.166733,0.790074,-0.695411,0.00924973,0,0,0,0,0,0,0,0.057002,-0.196066,-0.273379,-1.66981,0.204557,1.26814,0.401993,0.277548,-0.00328338,0.329423,-0.0775065,0.337708,-0.288347,-0.000309244,1.14612,-25.4848,2.91292,24.5627,2.79846,1.22948,-0.0301054,-3.14538,0.342256,-0.98772,0.682862,-1.46782,-0.195692,-0.0846659,-0.471249,-0.435988,-0.751614,0.678684,-0.715108,0.000637677,
0.0568524,-0.197453,-0.275111,-1.6716,0.200417,-0.304756,-0.382954,0.482703,-0.0129594,0.542692,-0.167359,0.816618,-0.674376,0.00905021,0,0,0,0,0,0,0,0.057002,-0.196066,-0.273379,-1.66981,0.204557,1.26814,0.401993,0.277548,-0.00328338,0.329423,-0.0775065,0.337708,-0.288347,-0.000309244,1.14612,-25.4848,2.91292,24.5627,2.79846,1.22948,-0.0301054,-3.14538,0.342256,-0.98772,0.682862,-1.46782,-0.195692,-0.0846659,-0.471249,-0.435988,-0.751614,0.678684,-0.715108,0.000637677,
0.0588049,-0.197488,-0.272915,-1.67227,0.203779,-0.307364,-0.382919,0.488125,-0.00885984,0.548966,-0.167236,0.840534,-0.652093,0.00886383,0,0,0,0,0,0,0,0.057002,-0.196066,-0.273379,-1.66981,0.204557,1.26814,0.401993,0.277548,-0.00328338,0.329423,-0.0775065,0.337708,-0.288347,-0.000309244,1.14612,-25.4848,2.91292,24.5627,2.79846,1.22948,-0.0301054,-3.11906,0.334074,-0.626777,0.649245,-1.53457,-0.168304,-0.0957819,-0.544224,-0.368111,-0.665874,0.680236,-0.763971,-0.00212849,
0.0607746,-0.197508,-0.270699,-1.67293,0.207226,-0.309881,-0.382884,0.492405,-0.0050718,0.553974,-0.16658,0.861887,-0.629211,0.00868786,0,0,0,0,0,0,0,0.057002,-0.196066,-0.273379,-1.66981,0.204557,1.26814,0.401993,0.277548,-0.00328338,0.329423,-0.0775065,0.337708,-0.288347,-0.000309244,1.14612,-25.4848,2.91292,24.5627,2.79846,1.22948,-0.0301054,-3.11906,0.334074,-0.626777,0.649245,-1.53457,-0.168304,-0.0957819,-0.544224,-0.368111,-0.665874,0.680236,-0.763971,-0.00212849,
0.0627574,-0.197515,-0.268468,-1.6736,0.21075,-0.312305,-0.38285,0.495706,-0.00163995,0.557903,-0.165547,0.880805,-0.606104,0.00852219,0,0,0,0,0,0,0,0.057002,-0.196066,-0.273379,-1.66981,0.204557,1.26814,0.401993,0.277548,-0.00328338,0.329423,-0.0775065,0.337708,-0.288347,-0.000309244,1.14612,-25.4848,2.91292,24.5627,2.79846,1.22948,-0.0301054,-2.85031,0.0782779,-1.07692,0.715752,-1.08615,-0.206594,-0.137426,-0.186779,-0.403088,-0.894929,0.504387,-0.797193,-0.00462053,
0.06475,-0.197509,-0.266224,-1.67425,0.214339,-0.314637,-0.382816,0.498163,0.00142474,0.560905,-0.164246,0.897451,-0.582989,0.00836918,0,0,0,0,0,0,0,0.057002,-0.196066,-0.273379,-1.66981,0.204557,1.26814,0.401993,0.277548,-0.00328338,0.329423,-0.0775065,0.337708,-0.288347,-0.000309244,1.14612,-25.4848,2.91292,24.5627,2.79846,1.22948,-0.0301054,-2.60491,-0.287812,-1.61388,0.855113,-0.639759,-0.304665,-0.231915,0.173604,-0.510103,-1.13456,0.312681,-0.809052,-0.00533828,
0.0667496,-0.197493,-0.263972,-1.6749,0.217987,-0.316877,-0.382783,0.499892,0.0041327,0.563109,-0.162748,0.912004,-0.559997,0.00822488,0,0,0,0,0,0,0,0.0659743,-0.196103,-0.26218,-1.67219,0.218735,1.25983,0.40199,0.295022,-0.00116655,0.358152,-0.0635288,0.52352,-0.235454,-0.000110132,2.74494,-25.1119,4.31337,24.3604,2.56591,1.36864,-0.0026396,-2.60491,-0.287812,-1.61388,0.855113,-0.639759,-0.304665,-0.231915,0.173604,-0.510103,-1.13456,0.312681,-0.809052,-0.00533828,
0.0687536,-0.197467,-0.261713,-1.67555,0.221686,-0.319026,-0.382751,0.50099,0.00650592,0.564622,-0.161104,0.924645,-0.537208,0.00809032,0,0,0,0,0,0,0,0.0659743,-0.196103,-0.26218,-1.67219,0.218735,1.25983,0.40199,0.295022,-0.00116655,0.358152,-0.0635288,0.52352,-0.235454,-0.000110132,2.74494,-25.1119,4.31337,24.3604,2.56591,1.36864,-0.0026396,-2.82035,-0.454909,-1.82658,0.924033,-0.65516,-0.371052,-0.300337,0.226793,-0.576544,-1.24101,0.232635,-0.861287,-0.00328938,
0.0707597,-0.197432,-0.259451,-1.67619,0.225428,-0.321085,-0.382719,0.50154,0.00857205,0.565538,-0.159348,0.935556,-0.514672,0.00796151,0,0,0,0,0,0,0,0.0659743,-0.196103,-0.26218,-1.67219,0.218735,1.25983,0.40199,0.295022,-0.00116655,0.358152,-0.0635288,0.52352,-0.235454,-0.000110132,2.74494,-25.1119,4.31337,24.3604,2.56591,1.36864,-0.0026396,-2.82035,-0.454909,-1.82658,0.924033,-0.65516,-0.371052,-0.300337,0.226793,-0.576544,-1.24101,0.232635,-0.861287,-0.00328938,
0.0727662,-0.197391,-0.257187,-1.67682,0.229208,-0.323054,-0.382688,0.501613,0.0103611,0.565934,-0.157504,0.944908,-0.492426,0.00784303,0,0,0,0,0,0,0,0.0659743,-0.196103,-0.26218,-1.67219,0.218735,1.25983,0.40199,0.295022,-0.00116655,0.358152,-0.0635288,0.52352,-0.235454,-0.000110132,2.74494,-25.1119,4.31337,24.3604,2.56591,1.36864,-0.0026396,-2.16191,-0.00764132,-1.56139,0.627246,-0.26186,-0.0901032,-0.0231176,0.408695,-0.271925,-1.21705,0.322844,-0.866823,-0.00483311,
0.0747712,-0.197343,-0.254924,-1.67744,0.233019,-0.324936,-0.382657,0.50127,0.0119017,0.565877,-0.155592,0.952863,-0.470491,0.00773006,0,0,0,0,0,0,0,0.0659743,-0.196103,-0.26218,-1.67219,0.218735,1.25983,0.40199,0.295022,-0.00116655,0.358152,-0.0635288,0.52352,-0.235454,-0.000110132,2.74494,-25.1119,4.31337,24.3604,2.56591,1.36864,-0.0026396,-2.22,0.120001,-1.46476,0.550146,-0.353713,-0.0342925,0.0340512,0.33677,-0.210841,-1.16727,0.3663,-0.859017,-0.00409477,
0.0767735,-0.19729,-0.252662,-1.67805,0.236858,-0.326732,-0.382626,0.500565,0.0132218,0.565426,-0.153627,0.959572,-0.448886,0.00762199,0,0,0,0,0,0,0,0.075474,-0.196078,-0.250627,-1.67455,0.235924,1.25398,0.401992,0.308985,-0.00610934,0.387953,-0.0733581,0.563583,-0.157821,-5.54773e-06,2.89569,-25.3618,4.13881,24.0628,2.87811,1.46844,-0.0163725,-2.22,0.120001,-1.46476,0.550146,-0.353713,-0.0342925,0.0340512,0.33677,-0.210841,-1.16727,0.3663,-0.859017,-0.00409477,
0.0787717,-0.197233,-0.250403,-1.67866,0.240718,-0.328442,-0.382596,0.499544,0.014347,0.564632,-0.15162,0.965172,-0.427623,0.00752121,0,0,0,0,0,0,0,0.075474,-0.196078,-0.250627,-1.67455,0.235924,1.25398,0.401992,0.308985,-0.00610934,0.387953,-0.0733581,0.563583,-0.157821,-5.54773e-06,2.89569,-25.3618,4.13881,24.0628,2.87811,1.46844,-0.0163725,-2.0953,0.581499,-1.78837,0.262129,-0.160026,0.180799,0.259051,0.496454,0.0155301,-1.2797,0.42259,-0.838275,-0.00371463,
0.0807647,-0.197172,-0.248149,-1.67926,0.244598,-0.330069,-0.382567,0.498247,0.0153007,0.563537,-0.149581,0.969788,-0.406712,0.00742447,0,0,0,0,0,0,0,0.075474,-0.196078,-0.250627,-1.67455,0.235924,1.25398,0.401992,0.308985,-0.00610934,0.387953,-0.0733581,0.563583,-0.157821,-5.54773e-06,2.89569,-25.3618,4.13881,24.0628,2.87811,1.46844,-0.0163725,-2.0953,0.581499,-1.78837,0.262129,-0.160026,0.180799,0.259051,0.496454,0.0155301,-1.2797,0.42259,-0.838275,-0.00371463,
0.0827515,-0.197107,-0.245901,-1.67985,0.248492,-0.331614,-0.382537,0.49671,0.0161037,0.562181,-0.147519,0.973534,-0.386162,0.00733248,0,0,0,0,0,0,0,0.075474,-0.196078,-0.250627,-1.67455,0.235924,1.25398,0.401992,0.308985,-0.00610934,0.387953,-0.0733581,0.563583,-0.157821,-5.54773e-06,2.89569,-25.3618,4.13881,24.0628,2.87811,1.46844,-0.0163725,-2.31167,0.00868077,-1.52646,0.76976,-0.448403,-0.126028,-0.0559337,0.253508,-0.336926,-1.14427,0.518445,-0.804631,-0.00177115,
0.0847314,-0.19704,-0.243658,-1.68043,0.252398,-0.333078,-0.382508,0.494964,0.0167749,0.560597,-0.14544,0.976511,-0.365978,0.00724446,0,0,0,0,0,0,0,0.075474,-0.196078,-0.250627,-1.67455,0.235924,1.25398,0.401992,0.308985,-0.00610934,0.387953,-0.0733581,0.563583,-0.157821,-5.54773e-06,2.89569,-25.3618,4.13881,24.0628,2.87811,1.46844,-0.0163725,-2.31167,0.00868077,-1.52646,0.76976,-0.448403,-0.126028,-0.0559337,0.253508,-0.336926,-1.14427,0.518445,-0.804631,-0.00177115,
0.0867055,-0.196971,-0.241422,-1.681,0.256295,-0.334462,-0.38248,0.493527,0.0171943,0.559061,-0.143164,0.974328,-0.346118,0.00710238,0,0,0,0,0,0,0,0.075474,-0.196078,-0.250627,-1.67455,0.235924,1.25398,0.401992,0.308985,-0.00610934,0.387953,-0.0733581,0.563583,-0.157821,-5.54773e-06,2.89569,-25.3618,4.13881,24.0628,2.87811,1.46844,-0.0163725,-2.46506,-0.589921,-1.13385,1.31351,-0.734125,-0.437367,-0.367915,-0.0125352,-0.704734,-0.973645,0.637257,-0.775976,-0.000367236,
0.0886755,-0.196902,-0.239191,-1.68156,0.260152,-0.335769,-0.382452,0.4925,0.0173062,0.557816,-0.140633,0.96433,-0.326575,0.0069117,0,0,0,0,0,0,0,0.0862408,-0.195977,-0.237712,-1.67707,0.253798,1.25045,0.401997,0.329536,0.00182316,0.421537,-0.0824827,0.547341,-0.0734714,0.00011986,1.80469,-26.1116,2.78596,24.3127,3.60412,1.23589,-0.0301054,-2.35577,0.561297,-1.2946,0.620066,-0.588841,0.0927915,0.174002,0.119146,-0.13642,-1.06896,0.833297,-0.806418,-0.00303414,
0.0431043,-0.196873,-0.290573,-1.66709,0.176956,-0.279219,-0.383275,0.418841,-0.0713625,0.464431,-0.1891,0.490344,-0.347875,0.0106696,0,0,0,0,0,0,0,0.0862408,-0.195977,-0.237712,-1.67707,0.253798,1.25045,0.401997,0.329536,0.00182316,0.421537,-0.0824827,0.547341,-0.0734714,0.00011986,1.80469,-26.1116,2.78596,24.3127,3.60412,1.23589,-0.0301054,-2.35577,0.561297,-1.2946,0.620066,-0.588841,0.0927915,0.174002,0.119146,-0.13642,-1.06896,0.833297,-0.806418,-0.00303414,
0.0915777,-0.196404,-0.231718,-1.67899,0.260326,-0.321244,-0.383283,0.47835,-0.0384978,0.538457,-0.173232,0.5604,-0.0946228,0.00975288,0,0,0,0,0,0,0,0.0862408,-0.195977,-0.237712,-1.67707,0.253798,1.25045,0.401997,0.329536,0.00182316,0.421537,-0.0824827,0.547341,-0.0734714,0.00011986,1.80469,-26.1116,2.78596,24.3127,3.60412,1.23589,-0.0301054,-2.99152,0.678422,-1.09251,0.601453,-1.15172,0.0993218,0.193271,-0.23621,-0.138621,-0.931667,0.927558,-0.811082,-0.00479645,
0.0935892,-0.196548,-0.229449,-1.67971,0.262679,-0.321674,-0.383244,0.502871,-0.0361826,0.567377,-0.178517,0.588361,-0.107375,0.00962797,0,0,0,0,0,0,0,0.0862408,-0.195977,-0.237712,-1.67707,0.253798,1.25045,0.401997,0.329536,0.00182316,0.421537,-0.0824827,0.547341,-0.0734714,0.00011986,1.80469,-26.1116,2.78596,24.3127,3.60412,1.23589,-0.0301054,-2.99152,0.678422,-1.09251,0.601453,-1.15172,0.0993218,0.193271,-0.23621,-0.138621,-0.931667,0.927558,-0.811082,-0.00479645,
0.0956796,-0.196677,-0.227087,-1.68043,0.265159,-0.322139,-0.383206,0.522597,-0.0323093,0.590583,-0.181179,0.620041,-0.116381,0.00953557,0,0,0,0,0,0,0,0.0862408,-0.195977,-0.237712,-1.67707,0.253798,1.25045,0.401997,0.329536,0.00182316,0.421537,-0.0824827,0.547341,-0.0734714,0.00011986,1.80469,-26.1116,2.78596,24.3127,3.60412,1.23589,-0.0301054,-2.83528,1.41483,-0.89704,0.145572,-1.10655,0.454586,0.53457,-0.225152,0.262257,-0.889444,1.06791,-0.829792,-0.00727039,
0.0978336,-0.196789,-0.22465,-1.68116,0.267771,-0.322629,-0.383169,0.538505,-0.0277578,0.609235,-0.182263,0.652973,-0.12244,0.00936001,0,0,0,0,0,0,0,0.0970214,-0.195804,-0.224727,-1.67975,0.270336,1.24951,0.401993,0.348714,-0.000533729,0.392613,-0.0946948,0.423886,0.00462466,-0.00133186,-2.4046,-26.5599,-1.36382,24.5627,2.05322,1.11046,0.0101778,-2.83528,1.41483,-0.89704,0.145572,-1.10655,0.454586,0.53457,-0.225152,0.262257,-0.889444,1.06791,-0.829792,-0.00727039,
0.10004,-0.196883,-0.222152,-1.68189,0.270513,-0.323111,-0.383132,0.551483,-0.0234982,0.624368,-0.183466,0.685479,-0.120379,0.009232,0,0,0,0,0,0,0,0.0970214,-0.195804,-0.224727,-1.67975,0.270336,1.24951,0.401993,0.348714,-0.000533729,0.392613,-0.0946948,0.423886,0.00462466,-0.00133186,-2.4046,-26.5599,-1.36382,24.5627,2.05322,1.11046,0.0101778,-1.5312,2.45902,-0.932859,-0.592307,-0.104557,1.03306,1.07022,0.378745,0.930657,-1.0386,1.15779,-0.832392,-0.00739544,
0.102287,-0.196959,-0.219606,-1.68263,0.273379,-0.323568,-0.383095,0.561941,-0.019245,0.636575,-0.183873,0.716526,-0.114477,0.00911846,0,0,0,0,0,0,0,0.0970214,-0.195804,-0.224727,-1.67975,0.270336,1.24951,0.401993,0.348714,-0.000533729,0.392613,-0.0946948,0.423886,0.00462466,-0.00133186,-2.4046,-26.5599,-1.36382,24.5627,2.05322,1.11046,0.0101778,-2.55596,-0.190301,-1.1884,1.06685,-0.753642,-0.213007,-0.123534,-0.0111929,-0.480149,-0.993355,0.746751,-0.779789,-0.00221583,
0.104568,-0.19702,-0.21702,-1.68336,0.276361,-0.323994,-0.383059,0.570285,-0.015112,0.646356,-0.183542,0.74553,-0.106482,0.00900659,0,0,0,0,0,0,0,0.0970214,-0.195804,-0.224727,-1.67975,0.270336,1.24951,0.401993,0.348714,-0.000533729,0.392613,-0.0946948,0.423886,0.00462466,-0.00133186,-2.4046,-26.5599,-1.36382,24.5627,2.05322,1.11046,0.0101778,-2.55596,-0.190301,-1.1884,1.06685,-0.753642,-0.213007,-0.123534,-0.0111929,-0.480149,-0.993355,0.746751,-0.779789,-0.00221583,
0.106876,-0.197065,-0.214404,-1.68409,0.27945,-0.324383,-0.383024,0.576859,-0.0112302,0.65412,-0.182674,0.772191,-0.0971916,0.00890365,0,0,0,0,0,0,0,0.0970214,-0.195804,-0.224727,-1.67975,0.270336,1.24951,0.401993,0.348714,-0.000533729,0.392613,-0.0946948,0.423886,0.00462466,-0.00133186,-2.4046,-26.5599,-1.36382,24.5627,2.05322,1.11046,0.0101778,-2.61306,-0.899171,-1.58275,1.48455,-0.649537,-0.527158,-0.406096,0.0858359,-0.853149,-1.10203,0.602487,-0.738717,-0.001108,
0.109205,-0.197096,-0.211762,-1.68482,0.282623,-0.324731,-0.382989,0.582303,-0.00777183,0.660374,-0.181284,0.793114,-0.0869796,0.00876537,0,0,0,0,0,0,0,0.108914,-0.195867,-0.210352,-1.68266,0.281681,1.25007,0.401992,0.387581,-0.00198092,0.458772,-0.0952745,0.357427,0.0371289,-0.000961147,0.840641,-25.7625,2.33766,23.7137,3.26263,0.725943,-0.00996382,-2.61306,-0.899171,-1.58275,1.48455,-0.649537,-0.527158,-0.406096,0.0858359,-0.853149,-1.10203,0.602487,-0.738717,-0.001108,
0.111555,-0.197116,-0.209099,-1.68553,0.285823,-0.325035,-0.382955,0.587579,-0.00499854,0.665878,-0.179144,0.800066,-0.0760071,0.00851617,0,0,0,0,0,0,0,0.108914,-0.195867,-0.210352,-1.68266,0.281681,1.25007,0.401992,0.387581,-0.00198092,0.458772,-0.0952745,0.357427,0.0371289,-0.000961147,0.840641,-25.7625,2.33766,23.7137,3.26263,0.725943,-0.00996382,-3.05758,-0.500991,-1.52966,1.18424,-0.910513,-0.321889,-0.260149,-0.00964925,-0.566107,-1.13217,0.630118,-0.851086,-0.00458679,
0.113923,-0.197127,-0.206416,-1.68624,0.289016,-0.325293,-0.382921,0.591869,-0.00275001,0.670658,-0.17673,0.798384,-0.0645342,0.00830395,0,0,0,0,0,0,0,0.108914,-0.195867,-0.210352,-1.68266,0.281681,1.25007,0.401992,0.387581,-0.00198092,0.458772,-0.0952745,0.357427,0.0371289,-0.000961147,0.840641,-25.7625,2.33766,23.7137,3.26263,0.725943,-0.00996382,-3.12125,0.627609,-1.76863,0.250619,-0.861059,0.245712,0.287428,0.122154,0.113989,-1.21781,0.580109,-0.881385,-0.00896569,
0.116303,-0.197131,-0.203718,-1.68694,0.292181,-0.325504,-0.382889,0.595124,-0.000898186,0.674528,-0.174232,0.791224,-0.0527513,0.00811738,0,0,0,0,0,0,0,0.108914,-0.195867,-0.210352,-1.68266,0.281681,1.25007,0.401992,0.387581,-0.00198092,0.458772,-0.0952745,0.357427,0.0371289,-0.000961147,0.840641,-25.7625,2.33766,23.7137,3.26263,0.725943,-0.00996382,-3.12125,0.627609,-1.76863,0.250619,-0.861059,0.245712,0.287428,0.122154,0.113989,-1.21781,0.580109,-0.881385,-0.00896569,
0.118693,-0.197128,-0.201008,-1.68763,0.295303,-0.325667,-0.382857,0.597399,0.000649852,0.677441,-0.171732,0.780516,-0.0407823,0.0079533,0,0,0,0,0,0,0,0.108914,-0.195867,-0.210352,-1.68266,0.281681,1.25007,0.401992,0.387581,-0.00198092,0.458772,-0.0952745,0.357427,0.0371289,-0.000961147,0.840641,-25.7625,2.33766,23.7137,3.26263,0.725943,-0.00996382,-2.35065,0.340186,-2.51919,0.263332,-0.0410002,0.163915,0.199946,0.68976,0.0414636,-1.49252,0.35967,-0.792022,-0.00787923,
0.121088,-0.19712,-0.198291,-1.6883,0.298373,-0.325782,-0.382826,0.598782,0.00195932,0.679434,-0.169263,0.767471,-0.0287057,0.00779857,0,0,0,0,0,0,0,0.108914,-0.195867,-0.210352,-1.68266,0.281681,1.25007,0.401992,0.387581,-0.00198092,0.458772,-0.0952745,0.357427,0.0371289,-0.000961147,0.840641,-25.7625,2.33766,23.7137,3.26263,0.725943,-0.00996382,-2.35065,0.340186,-2.51919,0.263332,-0.0410002,0.163915,0.199946,0.68976,0.0414636,-1.49252,0.35967,-0.792022,-0.00787923,
0.123486,-0.197108,-0.195568,-1.68897,0.301385,-0.325849,-0.382795,0.599374,0.00307691,0.680583,-0.166833,0.752868,-0.0165803,0.00765771,0,0,0,0,0,0,0,0.121152,-0.195823,-0.195387,-1.68587,0.296111,1.2522,0.401995,0.399725,-2.42908e-05,0.474023,-0.0975966,0.518623,0.0661609,0.000533046,2.43946,-26.2862,3.36122,24.1898,2.87811,1.13061,-0.0365141,-2.49808,-0.00202894,-2.45833,0.431184,-0.212918,0.0130074,0.0596378,0.558819,-0.123615,-1.40689,0.284532,-0.743538,-0.00736878,
0.125883,-0.197092,-0.192844,-1.68963,0.304334,-0.325866,-0.382765,0.599273,0.00403555,0.68098,-0.164445,0.737233,-0.0044439,0.00752473,0,0,0,0,0,0,0,0.121152,-0.195823,-0.195387,-1.68587,0.296111,1.2522,0.401995,0.399725,-2.42908e-05,0.474023,-0.0975966,0.518623,0.0661609,0.000533046,2.43946,-26.2862,3.36122,24.1898,2.87811,1.13061,-0.0365141,-2.39985,0.0441829,-2.1131,0.423351,-0.352083,0.0219772,0.0747038,0.38507,-0.117746,-1.209,0.342854,-0.658451,-0.00772615,
0.128277,-0.197072,-0.190122,-1.69028,0.307217,-0.325836,-0.382736,0.598571,0.00486124,0.680715,-0.162096,0.720955,0.00766932,0.00739496,0,0,0,0,0,0,0,0.121152,-0.195823,-0.195387,-1.68587,0.296111,1.2522,0.401995,0.399725,-2.42908e-05,0.474023,-0.0975966,0.518623,0.0661609,0.000533046,2.43946,-26.2862,3.36122,24.1898,2.87811,1.13061,-0.0365141,-2.39985,0.0441829,-2.1131,0.423351,-0.352083,0.0219772,0.0747038,0.38507,-0.117746,-1.209,0.342854,-0.658451,-0.00772615,
0.130666,-0.19705,-0.187402,-1.69092,0.310035,-0.325757,-0.382707,0.597346,0.00557561,0.67987,-0.159785,0.704367,0.0197305,0.0072717,0,0,0,0,0,0,0,0.121152,-0.195823,-0.195387,-1.68587,0.296111,1.2522,0.401995,0.399725,-2.42908e-05,0.474023,-0.0975966,0.518623,0.0661609,0.000533046,2.43946,-26.2862,3.36122,24.1898,2.87811,1.13061,-0.0365141,-2.18008,-0.0826805,-2.30976,0.553468,-0.171627,-0.0629661,0.00583536,0.4768,-0.23505,-1.23593,0.382262,-0.572075,-0.00338628,
0.133049,-0.197025,-0.184688,-1.69155,0.312786,-0.32563,-0.382678,0.595657,0.00619974,0.678514,-0.157517,0.687843,0.0317104,0.00715061,0,0,0,0,0,0,0,0.121152,-0.195823,-0.195387,-1.68587,0.296111,1.2522,0.401995,0.399725,-2.42908e-05,0.474023,-0.0975966,0.518623,0.0661609,0.000533046,2.43946,-26.2862,3.36122,24.1898,2.87811,1.13061,-0.0365141,-2.18008,-0.0826805,-2.30976,0.553468,-0.171627,-0.0629661,0.00583536,0.4768,-0.23505,-1.23593,0.382262,-0.572075,-0.00338628,
0.135423,-0.196998,-0.181981,-1.69217,0.315474,-0.325456,-0.38265,0.593539,0.0067584,0.67669,-0.155304,0.671933,0.0435765,0.00703219,0,0,0,0,0,0,0,0.138824,-0.195546,-0.174351,-1.68959,0.316658,1.25453,0.401999,0.424971,0.0106719,0.533922,-0.0834848,0.437589,0.0454035,0.00029027,0.967594,-27.2582,1.86159,24.6103,3.34777,1.48858,-0.0429228,-2.97178,-1.44941,-2.26278,1.50114,-0.855019,-0.74083,-0.663799,-0.00954111,-0.990634,-1.05132,0.287546,-0.470791,0.000776286,
0.137787,-0.196969,-0.179284,-1.69278,0.318105,-0.325234,-0.382622,0.590952,0.00728735,0.674417,-0.153188,0.657645,0.055289,0.00696911,0,0,0,0,0,0,0,0.138824,-0.195546,-0.174351,-1.68959,0.316658,1.25453,0.401999,0.424971,0.0106719,0.533922,-0.0834848,0.437589,0.0454035,0.00029027,0.967594,-27.2582,1.86159,24.6103,3.34777,1.48858,-0.0429228,-2.97178,-1.44941,-2.26278,1.50114,-0.855019,-0.74083,-0.663799,-0.00954111,-0.990634,-1.05132,0.287546,-0.470791,0.000776286,
0.14014,-0.196938,-0.176596,-1.69338,0.32067,-0.324967,-0.382594,0.58839,0.00769665,0.671934,-0.150947,0.641248,0.0668738,0.00690461,0,0,0,0,0,0,0,0.138824,-0.195546,-0.174351,-1.68959,0.316658,1.25453,0.401999,0.424971,0.0106719,0.533922,-0.0834848,0.437589,0.0454035,0.00029027,0.967594,-27.2582,1.86159,24.6103,3.34777,1.48858,-0.0429228,-2.37813,0.384761,-2.24484,0.292722,-0.496206,0.0930244,0.141257,0.231197,-0.0377207,-1.03997,0.51791,-0.408506,-0.00369186,
0.142485,-0.196906,-0.173918,-1.69398,0.323149,-0.324653,-0.382567,0.58605,0.00790915,0.669503,-0.148488,0.619895,0.078361,0.00677221,0,0,0,0,0,0,0,0.138824,-0.195546,-0.174351,-1.68959,0.316658,1.25453,0.401999,0.424971,0.0106719,0.533922,-0.0834848,0.437589,0.0454035,0.00029027,0.967594,-27.2582,1.86159,24.6103,3.34777,1.48858,-0.0429228,-2.45087,0.379868,-1.91833,0.39251,-0.723245,0.061632,0.0982338,0.0144547,-0.0718704,-0.862549,0.63314,-0.349103,-0.0023753,
0.144819,-0.196874,-0.17125,-1.69456,0.325534,-0.324295,-0.382541,0.58352,0.00799642,0.66705,-0.146039,0.596262,0.0896972,0.00664523,0,0,0,0,0,0,0,0.138824,-0.195546,-0.174351,-1.68959,0.316658,1.25453,0.401999,0.424971,0.0106719,0.533922,-0.0834848,0.437589,0.0454035,0.00029027,0.967594,-27.2582,1.86159,24.6103,3.34777,1.48858,-0.0429228,-2.45087,0.379868,-1.91833,0.39251,-0.723245,0.061632,0.0982338,0.0144547,-0.0718704,-0.862549,0.63314,-0.349103,-0.0023753,
0.0919831,-0.196611,-0.231303,-1.67931,0.258941,-0.319006,-0.383281,0.522343,-0.0557321,0.586074,-0.198164,0.400744,0.146564,0.00974325,0,0,0,0,0,0,0,0.138824,-0.195546,-0.174351,-1.68959,0.316658,1.25453,0.401999,0.424971,0.0106719,0.533922,-0.0834848,0.437589,0.0454035,0.00029027,0.967594,-27.2582,1.86159,24.6103,3.34777,1.48858,-0.0429228,-2.53144,0.555667,-2.20035,0.331905,-0.67002,0.127223,0.160514,0.091473,-0.00639857,-0.958064,0.716346,-0.336975,-0.00317053,
0.145231,-0.195922,-0.167095,-1.69173,0.321385,-0.314106,-0.383284,0.565311,-0.0339851,0.641034,-0.191424,0.381829,0.208899,0.00958101,0,0,0,0,0,0,0,0.153022,-0.195058,-0.157572,-1.69196,0.328796,1.25568,0.401997,0.439235,0.0205818,0.534871,-0.0693918,0.334463,0.0403348,-0.00017195,1.57856,-27.3573,1.96077,24.4635,3.47046,1.40893,-0.0301054,-2.53144,0.555667,-2.20035,0.331905,-0.67002,0.127223,0.160514,0.091473,-0.00639857,-0.958064,0.716346,-0.336975,-0.00317053,
0.147582,-0.196042,-0.164424,-1.6925,0.322888,-0.313228,-0.383247,0.587736,-0.0301163,0.667713,-0.192161,0.375701,0.219561,0.00928407,0,0,0,0,0,0,0,0.153022,-0.195058,-0.157572,-1.69196,0.328796,1.25568,0.401997,0.439235,0.0205818,0.534871,-0.0693918,0.334463,0.0403348,-0.00017195,1.57856,-27.3573,1.96077,24.4635,3.47046,1.40893,-0.0301054,-2.98326,2.75119,-2.27087,-1.15736,-0.970045,1.16437,1.21493,0.0594006,1.14541,-0.976218,0.935824,-0.393439,-0.00941464,
0.150005,-0.196146,-0.161668,-1.69327,0.324375,-0.312306,-0.383211,0.605684,-0.0258144,0.688995,-0.191777,0.371623,0.230399,0.00902969,0,0,0,0,0,0,0,0.153022,-0.195058,-0.157572,-1.69196,0.328796,1.25568,0.401997,0.439235,0.0205818,0.534871,-0.0693918,0.334463,0.0403348,-0.00017195,1.57856,-27.3573,1.96077,24.4635,3.47046,1.40893,-0.0301054,-2.98326,2.75119,-2.27087,-1.15736,-0.970045,1.16437,1.21493,0.0594006,1.14541,-0.976218,0.935824,-0.393439,-0.00941464,
0.152484,-0.196231,-0.158844,-1.69403,0.325849,-0.311346,-0.383176,0.619866,-0.0214013,0.705884,-0.190566,0.368531,0.240063,0.00880768,0,0,0,0,0,0,0,0.153022,-0.195058,-0.157572,-1.69196,0.328796,1.25568,0.401997,0.439235,0.0205818,0.534871,-0.0693918,0.334463,0.0403348,-0.00017195,1.57856,-27.3573,1.96077,24.4635,3.47046,1.40893,-0.0301054,-1.85132,1.83087,-2.36687,-0.522222,-0.0972457,0.726175,0.76301,0.497288,0.648812,-1.08037,0.873186,-0.321652,-0.00901189,
0.155008,-0.1963,-0.155968,-1.69479,0.327314,-0.310352,-0.383141,0.630901,-0.0171426,0.719138,-0.188936,0.366181,0.248443,0.00859791,0,0,0,0,0,0,0,0.153022,-0.195058,-0.157572,-1.69196,0.328796,1.25568,0.401997,0.439235,0.0205818,0.534871,-0.0693918,0.334463,0.0403348,-0.00017195,1.57856,-27.3573,1.96077,24.4635,3.47046,1.40893,-0.0301054,-2.19535,-0.152664,-2.47564,0.791919,-0.309845,-0.184456,-0.166867,0.291792,-0.349666,-1.05997,0.674281,-0.284373,-0.00716752,
0.157565,-0.196352,-0.15305,-1.69553,0.328774,-0.309329,-0.383107,0.639224,-0.0131628,0.729333,-0.18718,0.365223,0.25574,0.00844567,0,0,0,0,0,0,0,0.167783,-0.194852,-0.139745,-1.69447,0.336984,1.25816,0.401999,0.438339,0.00511893,0.573604,-0.0910881,0.186545,0.115392,0.000503839,2.89569,-27.5597,2.86134,24.3365,3.12164,1.57464,-0.0429228,-2.19535,-0.152664,-2.47564,0.791919,-0.309845,-0.184456,-0.166867,0.291792,-0.349666,-1.05997,0.674281,-0.284373,-0.00716752,
0.160147,-0.196391,-0.150102,-1.69628,0.330228,-0.30828,-0.383074,0.6455,-0.00956843,0.737084,-0.185295,0.363498,0.262245,0.00837989,0,0,0,0,0,0,0,0.167783,-0.194852,-0.139745,-1.69447,0.336984,1.25816,0.401999,0.438339,0.00511893,0.573604,-0.0910881,0.186545,0.115392,0.000503839,2.89569,-27.5597,2.86134,24.3365,3.12164,1.57464,-0.0429228,-3.02986,-1.30619,-2.37292,1.52448,-0.992251,-0.681917,-0.604601,-0.171971,-0.942423,-0.912371,0.525075,-0.262335,-0.0028527,
0.16275,-0.196417,-0.147129,-1.69701,0.331639,-0.307207,-0.383041,0.650922,-0.00657474,0.743253,-0.18289,0.352547,0.268298,0.00820254,0,0,0,0,0,0,0,0.167783,-0.194852,-0.139745,-1.69447,0.336984,1.25816,0.401999,0.438339,0.00511893,0.573604,-0.0910881,0.186545,0.115392,0.000503839,2.89569,-27.5597,2.86134,24.3365,3.12164,1.57464,-0.0429228,-3.02986,-1.30619,-2.37292,1.52448,-0.992251,-0.681917,-0.604601,-0.171971,-0.942423,-0.912371,0.525075,-0.262335,-0.0028527,
0.16537,-0.196433,-0.144137,-1.69773,0.332986,-0.306111,-0.383009,0.65489,-0.00408455,0.748085,-0.180444,0.336942,0.27405,0.00804447,0,0,0,0,0,0,0,0.167783,-0.194852,-0.139745,-1.69447,0.336984,1.25816,0.401999,0.438339,0.00511893,0.573604,-0.0910881,0.186545,0.115392,0.000503839,2.89569,-27.5597,2.86134,24.3365,3.12164,1.57464,-0.0429228,-2.54662,-0.828794,-2.77376,1.10554,-0.483332,-0.455556,-0.396302,0.21185,-0.667032,-1.09835,0.494818,-0.249788,-0.00334577,
0.168,-0.196441,-0.14113,-1.69844,0.334263,-0.304993,-0.382977,0.65752,-0.00198657,0.751578,-0.178083,0.319031,0.279576,0.00790113,0,0,0,0,0,0,0,0.167783,-0.194852,-0.139745,-1.69447,0.336984,1.25816,0.401999,0.438339,0.00511893,0.573604,-0.0910881,0.186545,0.115392,0.000503839,2.89569,-27.5597,2.86134,24.3365,3.12164,1.57464,-0.0429228,-3.04843,1.10388,-2.90204,-0.301168,-0.809319,0.482359,0.502372,0.190416,0.437284,-1.12294,0.605391,-0.299212,-0.00776379,
0.170636,-0.196442,-0.138115,-1.69914,0.335463,-0.303853,-0.382946,0.658982,-0.000194062,0.753831,-0.175819,0.300037,0.284932,0.00777713,0,0,0,0,0,0,0,0.182563,-0.194886,-0.12232,-1.69735,0.342059,1.26358,0.402,0.472073,0.00102702,0.54344,-0.0870178,0.164111,0.19799,0.000435195,1.75708,-26.7345,2.46461,24.6381,2.52929,1.88592,-0.050247,-3.04843,1.10388,-2.90204,-0.301168,-0.809319,0.482359,0.502372,0.190416,0.437284,-1.12294,0.605391,-0.299212,-0.00776379,
0.173274,-0.196437,-0.135095,-1.69984,0.336585,-0.302692,-0.382916,0.659445,0.0013544,0.754989,-0.173636,0.280602,0.29017,0.0076542,0,0,0,0,0,0,0,0.182563,-0.194886,-0.12232,-1.69735,0.342059,1.26358,0.402,0.472073,0.00102702,0.54344,-0.0870178,0.164111,0.19799,0.000435195,1.75708,-26.7345,2.46461,24.6381,2.52929,1.88592,-0.050247,-2.9221,1.15423,-3.13458,-0.485583,-0.681534,0.523436,0.522922,0.305897,0.523704,-1.16828,0.481745,-0.251018,-0.00845879,
0.17591,-0.196426,-0.132074,-1.70052,0.337629,-0.301511,-0.382885,0.659068,0.00270265,0.755205,-0.171511,0.261059,0.295323,0.00754074,0,0,0,0,0,0,0,0.182563,-0.194886,-0.12232,-1.69735,0.342059,1.26358,0.402,0.472073,0.00102702,0.54344,-0.0870178,0.164111,0.19799,0.000435195,1.75708,-26.7345,2.46461,24.6381,2.52929,1.88592,-0.050247,-2.9221,1.15423,-3.13458,-0.485583,-0.681534,0.523436,0.522922,0.305897,0.523704,-1.16828,0.481745,-0.251018,-0.00845879,
0.178542,-0.19641,-0.129056,-1.7012,0.338596,-0.300309,-0.382856,0.657986,0.00388116,0.754623,-0.169424,0.241587,0.300418,0.00743334,0,0,0,0,0,0,0,0.182563,-0.194886,-0.12232,-1.69735,0.342059,1.26358,0.402,0.472073,0.00102702,0.54344,-0.0870178,0.164111,0.19799,0.000435195,1.75708,-26.7345,2.46461,24.6381,2.52929,1.88592,-0.050247,-1.89609,-0.392161,-3.65656,0.456584,0.229663,-0.237429,-0.240254,0.783355,-0.323253,-1.37823,0.25688,-0.142574,-0.00581889,
0.181167,-0.196391,-0.126042,-1.70187,0.339485,-0.299087,-0.382826,0.656318,0.0049139,0.753371,-0.167362,0.222291,0.305469,0.00732441,0,0,0,0,0,0,0,0.182563,-0.194886,-0.12232,-1.69735,0.342059,1.26358,0.402,0.472073,0.00102702,0.54344,-0.0870178,0.164111,0.19799,0.000435195,1.75708,-26.7345,2.46461,24.6381,2.52929,1.88592,-0.050247,-1.89609,-0.392161,-3.65656,0.456584,0.229663,-0.237429,-0.240254,0.783355,-0.323253,-1.37823,0.25688,-0.142574,-0.00581889,
0.183784,-0.196367,-0.123036,-1.70253,0.340298,-0.297846,-0.382797,0.654159,0.00582092,0.751558,-0.165317,0.203285,0.310478,0.00721973,0,0,0,0,0,0,0,0.182563,-0.194886,-0.12232,-1.69735,0.342059,1.26358,0.402,0.472073,0.00102702,0.54344,-0.0870178,0.164111,0.19799,0.000435195,1.75708,-26.7345,2.46461,24.6381,2.52929,1.88592,-0.050247,-1.99169,-0.100278,-3.38504,0.273197,-0.0013953,-0.101783,-0.0951888,0.602358,-0.17531,-1.21514,0.303056,-0.0907878,-0.00677144,
0.18639,-0.196341,-0.120039,-1.70319,0.341037,-0.296584,-0.382769,0.651582,0.00662294,0.749263,-0.163291,0.184792,0.31544,0.00711307,0,0,0,0,0,0,0,0.198202,-0.194821,-0.103901,-1.69985,0.346593,1.27023,0.401999,0.49321,0.000562295,0.581813,-0.0787346,0.0956894,0.214558,-0.00404904,1.80469,-27.3573,2.1393,24.6619,2.5238,2.11114,-0.0365141,-1.42496,-0.557796,-3.39853,0.574446,0.361971,-0.353791,-0.316264,0.740488,-0.484918,-1.19693,0.258379,0.0021734,-0.00489032,
0.188984,-0.196311,-0.117053,-1.70383,0.341707,-0.295302,-0.382741,0.64861,0.00734797,0.746526,-0.161308,0.167403,0.320331,0.00696218,0,0,0,0,0,0,0,0.198202,-0.194821,-0.103901,-1.69985,0.346593,1.27023,0.401999,0.49321,0.000562295,0.581813,-0.0787346,0.0956894,0.214558,-0.00404904,1.80469,-27.3573,2.1393,24.6619,2.5238,2.11114,-0.0365141,-1.42496,-0.557796,-3.39853,0.574446,0.361971,-0.353791,-0.316264,0.740488,-0.484918,-1.19693,0.258379,0.0021734,-0.00489032,
0.191565,-0.196279,-0.11408,-1.70447,0.342318,-0.294002,-0.382714,0.645125,0.00804361,0.743344,-0.159457,0.152723,0.325106,0.00686861,0,0,0,0,0,0,0,0.198202,-0.194821,-0.103901,-1.69985,0.346593,1.27023,0.401999,0.49321,0.000562295,0.581813,-0.0787346,0.0956894,0.214558,-0.00404904,1.80469,-27.3573,2.1393,24.6619,2.5238,2.11114,-0.0365141,-1.71707,0.403238,-3.65518,-0.0970278,0.239244,0.101605,0.135439,0.785617,0.0317916,-1.26949,0.355129,-0.00300243,-0.0063361,
0.194131,-0.196245,-0.11112,-1.7051,0.342868,-0.292683,-0.382686,0.641577,0.00866015,0.739909,-0.157505,0.137545,0.329771,0.00684378,0,0,0,0,0,0,0,0.198202,-0.194821,-0.103901,-1.69985,0.346593,1.27023,0.401999,0.49321,0.000562295,0.581813,-0.0787346,0.0956894,0.214558,-0.00404904,1.80469,-27.3573,2.1393,24.6619,2.5238,2.11114,-0.0365141,-1.71707,0.403238,-3.65518,-0.0970278,0.239244,0.101605,0.135439,0.785617,0.0317916,-1.26949,0.355129,-0.00300243,-0.0063361,
0.196684,-0.196208,-0.108174,-1.70572,0.343343,-0.291345,-0.382659,0.638219,0.00912593,0.73647,-0.155331,0.118866,0.334375,0.00675338,0,0,0,0,0,0,0,0.198202,-0.194821,-0.103901,-1.69985,0.346593,1.27023,0.401999,0.49321,0.000562295,0.581813,-0.0787346,0.0956894,0.214558,-0.00404904,1.80469,-27.3573,2.1393,24.6619,2.5238,2.11114,-0.0365141,-2.12205,-0.306272,-3.35818,0.445004,-0.166754,-0.194454,-0.166003,0.454547,-0.301507,-1.11893,0.36221,-0.00447311,-0.0045366,
0.199223,-0.19617,-0.105242,-1.70633,0.343739,-0.28999,-0.382633,0.634682,0.00947593,0.732993,-0.153181,0.0990252,0.338909,0.00665009,0,0,0,0,0,0,0,0.214864,-0.194745,-0.0840894,-1.70224,0.347812,1.27787,0.402,0.52161,0.00373517,0.608931,-0.0727495,0.0093413,0.233639,0.000788089,-0.857357,-27.282,-0.736986,24.3881,2.60254,1.89232,-0.050247,-2.12205,-0.306272,-3.35818,0.445004,-0.166754,-0.194454,-0.166003,0.454547,-0.301507,-1.11893,0.36221,-0.00447311,-0.0045366,
0.201747,-0.196131,-0.102325,-1.70694,0.344056,-0.288616,-0.382607,0.630959,0.00975428,0.729383,-0.151104,0.0790535,0.343337,0.00655061,0,0,0,0,0,0,0,0.214864,-0.194745,-0.0840894,-1.70224,0.347812,1.27787,0.402,0.52161,0.00373517,0.608931,-0.0727495,0.0093413,0.233639,0.000788089,-0.857357,-27.282,-0.736986,24.3881,2.60254,1.89232,-0.050247,-1.8547,-1.157,-3.37241,1.04612,0.066521,-0.595687,-0.576126,0.524074,-0.753792,-1.15924,0.332057,-0.00688103,-0.00432441,
