PerkyPenguin/Analysis-on-Approximated-Derivatives/Code_and_Data/PaperData/Real_Robot/Scene_1/set_interval/16/trajectory.csv
Commanded Joint 0 Position,Commanded Joint 1 Position,Commanded Joint 2 Position,Commanded Joint 3 Position,Commanded Joint 4 Position,Commanded Joint 5 Position,Commanded Joint 6 Position,Commanded Joint 0 Velocity,Commanded Joint 1 Velocity,Commanded Joint 2 Velocity,Commanded Joint 3 Velocity,Commanded Joint 4 Velocity,Commanded Joint 5 Velocity,Commanded Joint 6 Velocity,Commanded Joint 0 Torque,Commanded Joint 1 Torque,Commanded Joint 2 Torque,Commanded Joint 3 Torque,Commanded Joint 4 Torque,Commanded Joint 5 Torque,Commanded Joint 6 Torque,Actual Joint 0 Position,Actual Joint 1 Position,Actual Joint 2 Position,Actual Joint 3 Position,Actual Joint 4 Position,Actual Joint 5 Position,Actual Joint 6 Position,Actual Joint 0 Velocity,Actual Joint 1 Velocity,Actual Joint 2 Velocity,Actual Joint 3 Velocity,Actual Joint 4 Velocity,Actual Joint 5 Velocity,Actual Joint 6 Velocity,Actual Joint 0 Torque,Actual Joint 1 Torque,Actual Joint 2 Torque,Actual Joint 3 Torque,Actual Joint 4 Torque,Actual Joint 5 Torque,Actual Joint 6 Torque,EE ext force 0,EE ext force 1,EE ext force 2,EE ext force 3,EE ext force 4,EE ext force 5,joint ext torque 0,joint ext torque 1,joint ext torque 2,joint ext torque 3,joint ext torque 4,joint ext torque 5,joint ext torque 6,
0.0123419,-0.196928,-0.332295,-1.66202,-0.0935358,-0.08871,-0.383055,-0.00266551,0.0162331,-0.0126733,-0.150703,0.00201377,0.200251,-0.00213725,0,0,0,0,0,0,0,0.012358,-0.196964,-0.332199,-1.66049,-0.0934932,1.48009,0.402368,0.00509107,-0.00177463,-0.000911903,0.00334045,0.00121483,0.000341842,0.000239983,-0.0440639,-25.3856,1.93696,25.9314,0.318295,2.9406,-0.0365141,-1.00128,-0.0212404,-0.233161,0.0458477,-0.322462,-0.142504,-0.0479242,0.00422673,-0.227725,-0.316294,-0.136669,-0.349897,-0.0408958,
0.0123264,-0.196789,-0.332357,-1.66266,-0.0935307,-0.0878803,-0.383063,-0.00388362,0.0348216,-0.0155307,-0.159829,0.00128284,0.20743,-0.00203237,0,0,0,0,0,0,0,0.012358,-0.196964,-0.332199,-1.66049,-0.0934932,1.48009,0.402368,0.00509107,-0.00177463,-0.000911903,0.00334045,0.00121483,0.000341842,0.000239983,-0.0440639,-25.3856,1.93696,25.9314,0.318295,2.9406,-0.0365141,-0.969626,0.00463203,-0.281801,0.0417285,-0.279723,-0.126601,-0.0338923,0.0364962,-0.211513,-0.340914,-0.128012,-0.352795,-0.0396751,
0.012375,-0.19699,-0.332179,-1.66047,-0.0934549,-0.0906818,-0.38303,0.000777899,-0.00139602,0.000943351,0.00101496,0.0023917,0.00178794,-2.63687e-05,0,0,0,0,0,0,0,0.012358,-0.196964,-0.332199,-1.66049,-0.0934932,1.48009,0.402368,0.00509107,-0.00177463,-0.000911903,0.00334045,0.00121483,0.000341842,0.000239983,-0.0440639,-25.3856,1.93696,25.9314,0.318295,2.9406,-0.0365141,-0.969626,0.00463203,-0.281801,0.0417285,-0.279723,-0.126601,-0.0338923,0.0364962,-0.211513,-0.340914,-0.128012,-0.352795,-0.0396751,
0.0123777,-0.196995,-0.332176,-1.66046,-0.0934459,-0.0906752,-0.38303,0.000664097,-0.00124477,0.000791445,0.00088492,0.00225281,0.00164958,-2.16344e-05,0,0,0,0,0,0,0,0.012358,-0.196966,-0.332196,-1.66049,-0.0934932,1.48009,0.402372,-0.000105869,-0.00359961,0.000654178,0.000610764,0.00290118,0.000264085,-0.000683028,-0.0440639,-25.3618,1.86159,25.9076,0.318295,2.94701,-0.0365141,-1.21101,0.0329077,-0.217204,-0.0064505,-0.506927,-0.155642,-0.0607794,-0.109967,-0.233862,-0.266941,-0.139392,-0.332636,-0.0400118,
0.01238,-0.197,-0.332173,-1.66046,-0.0934376,-0.0906693,-0.383031,0.000571151,-0.00111413,0.000668866,0.000779723,0.00207913,0.00149612,-1.77917e-05,0,0,0,0,0,0,0,0.012358,-0.196966,-0.332196,-1.66049,-0.0934932,1.48009,0.402372,-0.000105869,-0.00359961,0.000654178,0.000610764,0.00290118,0.000264085,-0.000683028,-0.0440639,-25.3618,1.86159,25.9076,0.318295,2.94701,-0.0365141,-1.21101,0.0329077,-0.217204,-0.0064505,-0.506927,-0.155642,-0.0607794,-0.109967,-0.233862,-0.266941,-0.139392,-0.332636,-0.0400118,
0.0123819,-0.197004,-0.332171,-1.66046,-0.09343,-0.0906639,-0.383031,0.000494472,-0.00100242,0.000568727,0.000691304,0.00188963,0.00133968,-1.46933e-05,0,0,0,0,0,0,0,0.012358,-0.196966,-0.332196,-1.66049,-0.0934932,1.48009,0.402372,-0.000105869,-0.00359961,0.000654178,0.000610764,0.00290118,0.000264085,-0.000683028,-0.0440639,-25.3618,1.86159,25.9076,0.318295,2.94701,-0.0365141,-2.07298,0.214235,-0.964189,-0.0406946,-0.904626,-0.224086,-0.127665,-0.220839,-0.307211,-0.434375,-0.143982,-0.32799,-0.0402785,
0.0123837,-0.197008,-0.332169,-1.66045,-0.0934232,-0.0906592,-0.383031,0.000430516,-0.000907049,0.000485908,0.000615616,0.00169687,0.00118648,-1.2184e-05,0,0,0,0,0,0,0,0.012358,-0.196966,-0.332196,-1.66049,-0.0934932,1.48009,0.402372,-0.000105869,-0.00359961,0.000654178,0.000610764,0.00290118,0.000264085,-0.000683028,-0.0440639,-25.3618,1.86159,25.9076,0.318295,2.94701,-0.0365141,-2.07298,0.214235,-0.964189,-0.0406946,-0.904626,-0.224086,-0.127665,-0.220839,-0.307211,-0.434375,-0.143982,-0.32799,-0.0402785,
0.0123852,-0.197011,-0.332167,-1.66045,-0.0934172,-0.090655,-0.383031,0.000376603,-0.000825533,0.00041662,0.000550218,0.00150882,0.00103992,-1.01313e-05,0,0,0,0,0,0,0,0.012358,-0.196966,-0.332196,-1.66049,-0.0934932,1.48009,0.402372,-0.000105869,-0.00359961,0.000654178,0.000610764,0.00290118,0.000264085,-0.000683028,-0.0440639,-25.3618,1.86159,25.9076,0.318295,2.94701,-0.0365141,-2.12052,0.22715,-1.11001,-0.0346745,-0.931589,-0.22204,-0.121794,-0.232372,-0.310425,-0.439828,-0.135961,-0.284578,-0.0426616,
0.0123865,-0.197014,-0.332166,-1.66045,-0.0934119,-0.0906514,-0.383031,0.000330717,-0.000755717,0.000358044,0.000493411,0.00133029,0.00090185,-8.43209e-06,0,0,0,0,0,0,0,0.012358,-0.196966,-0.332196,-1.66049,-0.0934932,1.48009,0.402372,-0.000105869,-0.00359961,0.000654178,0.000610764,0.00290118,0.000264085,-0.000683028,-0.0440639,-25.3618,1.86159,25.9076,0.318295,2.94701,-0.0365141,-0.642933,-0.261977,-1.16503,0.334826,0.205805,-0.181459,-0.0859787,0.41064,-0.308444,-0.610291,-0.143108,-0.24923,-0.041825,
0.0123877,-0.197017,-0.332165,-1.66045,-0.0934072,-0.0906483,-0.383031,0.000291332,-0.000695792,0.000308068,0.000443896,0.00116392,0.000773202,-7.00851e-06,0,0,0,0,0,0,0,0.0123699,-0.196939,-0.332186,-1.66087,-0.0935382,1.48089,0.402371,-0.000205957,0.00755827,0.000730576,0.00223692,-0.0107022,0.00218041,0.00108196,-0.198788,-25.8101,1.7624,26.2051,0.685421,3.07976,-0.0566557,-0.642933,-0.261977,-1.16503,0.334826,0.205805,-0.181459,-0.0859787,0.41064,-0.308444,-0.610291,-0.143108,-0.24923,-0.041825,
0.0123887,-0.197019,-0.332163,-1.66045,-0.0934032,-0.0906457,-0.383031,0.000257284,-0.000644254,0.000265091,0.000400634,0.00101089,0.000654316,-5.8026e-06,0,0,0,0,0,0,0,0.0123699,-0.196939,-0.332186,-1.66087,-0.0935382,1.48089,0.402371,-0.000205957,0.00755827,0.000730576,0.00223692,-0.0107022,0.00218041,0.00108196,-0.198788,-25.8101,1.7624,26.2051,0.685421,3.07976,-0.0566557,-0.810022,0.00794587,-0.87243,0.100252,-0.053954,-0.0894641,0.0010217,0.208616,-0.185275,-0.463055,-0.115809,-0.233709,-0.0423366,
0.0123896,-0.197022,-0.332163,-1.66044,-0.0933997,-0.0906435,-0.383031,0.000227671,-0.000599852,0.000227883,0.000362766,0.000871483,0.00054515,-4.77102e-06,0,0,0,0,0,0,0,0.0123699,-0.196939,-0.332186,-1.66087,-0.0935382,1.48089,0.402371,-0.000205957,0.00755827,0.000730576,0.00223692,-0.0107022,0.00218041,0.00108196,-0.198788,-25.8101,1.7624,26.2051,0.685421,3.07976,-0.0566557,-0.810022,0.00794587,-0.87243,0.100252,-0.053954,-0.0894641,0.0010217,0.208616,-0.185275,-0.463055,-0.115809,-0.233709,-0.0423366,
0.0123904,-0.197024,-0.332162,-1.66044,-0.0933967,-0.0906417,-0.383031,0.000201788,-0.000561542,0.000195488,0.000329572,0.00074538,0.000445417,-3.88114e-06,0,0,0,0,0,0,0,0.0123699,-0.196939,-0.332186,-1.66087,-0.0935382,1.48089,0.402371,-0.000205957,0.00755827,0.000730576,0.00223692,-0.0107022,0.00218041,0.00108196,-0.198788,-25.8101,1.7624,26.2051,0.685421,3.07976,-0.0566557,-0.979219,0.0722577,-0.898781,0.0350148,-0.169676,-0.0904091,0.0105862,0.149088,-0.186407,-0.451388,-0.137687,-0.233499,-0.0408222,
0.0123911,-0.197026,-0.332161,-1.66044,-0.0933942,-0.0906403,-0.383031,0.000179074,-0.000528447,0.000167154,0.000300443,0.000631914,0.000354676,-3.10808e-06,0,0,0,0,0,0,0,0.0123699,-0.196939,-0.332186,-1.66087,-0.0935382,1.48089,0.402371,-0.000205957,0.00755827,0.000730576,0.00223692,-0.0107022,0.00218041,0.00108196,-0.198788,-25.8101,1.7624,26.2051,0.685421,3.07976,-0.0566557,-0.979219,0.0722577,-0.898781,0.0350148,-0.169676,-0.0904091,0.0105862,0.149088,-0.186407,-0.451388,-0.137687,-0.233499,-0.0408222,
0.0123918,-0.197028,-0.332161,-1.66044,-0.0933921,-0.0906392,-0.383031,0.000159075,-0.000499831,0.000142277,0.000274859,0.000530229,0.000272394,-2.43262e-06,0,0,0,0,0,0,0,0.0123655,-0.196882,-0.332197,-1.6608,-0.0935251,1.48091,0.402369,0.00159821,0.00443327,-0.000972681,-0.0111888,-0.00526784,-6.06204e-05,-0.00132387,-0.147213,-26.2346,1.91316,26.3281,0.60577,2.94701,-0.00996382,-1.78642,0.303688,-1.00081,-0.126328,-0.73726,-0.128887,-0.0184795,-0.149204,-0.214953,-0.410515,-0.143516,-0.255577,-0.0399066,
0.0123923,-0.19703,-0.33216,-1.66044,-0.0933903,-0.0906384,-0.383031,0.000141421,-0.000475068,0.000120368,0.000252372,0.00043938,0.000197993,-1.83969e-06,0,0,0,0,0,0,0,0.0123655,-0.196882,-0.332197,-1.6608,-0.0935251,1.48091,0.402369,0.00159821,0.00443327,-0.000972681,-0.0111888,-0.00526784,-6.06204e-05,-0.00132387,-0.147213,-26.2346,1.91316,26.3281,0.60577,2.94701,-0.00996382,-1.74846,0.228896,-0.591513,-0.117608,-0.868108,-0.159021,-0.0530588,-0.292252,-0.23725,-0.257421,-0.129399,-0.250523,-0.0383286,
0.0123928,-0.197032,-0.33216,-1.66044,-0.0933889,-0.0906379,-0.383031,0.000125804,-0.000453626,0.000101023,0.000232598,0.0003584,0.000130878,-1.31726e-06,0,0,0,0,0,0,0,0.0123655,-0.196882,-0.332197,-1.6608,-0.0935251,1.48091,0.402369,0.00159821,0.00443327,-0.000972681,-0.0111888,-0.00526784,-6.06204e-05,-0.00132387,-0.147213,-26.2346,1.91316,26.3281,0.60577,2.94701,-0.00996382,-1.74846,0.228896,-0.591513,-0.117608,-0.868108,-0.159021,-0.0530588,-0.292252,-0.23725,-0.257421,-0.129399,-0.250523,-0.0383286,
0.0123933,-0.197033,-0.332159,-1.66044,-0.0933877,-0.0906376,-0.383031,0.000111968,-0.000435054,8.39097e-05,0.000215203,0.000286347,7.04575e-05,-8.55623e-07,0,0,0,0,0,0,0,0.0123655,-0.196882,-0.332197,-1.6608,-0.0935251,1.48091,0.402369,0.00159821,0.00443327,-0.000972681,-0.0111888,-0.00526784,-6.06204e-05,-0.00132387,-0.147213,-26.2346,1.91316,26.3281,0.60577,2.94701,-0.00996382,-1.62744,0.162328,-0.572657,-0.0627901,-0.758461,-0.170726,-0.067446,-0.223158,-0.252967,-0.288816,-0.130888,-0.27391,-0.0363984,
0.0123937,-0.197035,-0.332159,-1.66044,-0.0933868,-0.0906376,-0.383031,9.96938e-05,-0.000418964,6.87445e-05,0.000199895,0.000222325,1.61599e-05,-4.46771e-07,0,0,0,0,0,0,0,0.0123655,-0.196882,-0.332197,-1.6608,-0.0935251,1.48091,0.402369,0.00159821,0.00443327,-0.000972681,-0.0111888,-0.00526784,-6.06204e-05,-0.00132387,-0.147213,-26.2346,1.91316,26.3281,0.60577,2.94701,-0.00996382,-1.62744,0.162328,-0.572657,-0.0627901,-0.758461,-0.170726,-0.067446,-0.223158,-0.252967,-0.288816,-0.130888,-0.27391,-0.0363984,
0.012394,-0.197037,-0.332159,-1.66044,-0.0933862,-0.0906377,-0.383031,8.87939e-05,-0.000405024,5.52882e-05,0.000186422,0.000165498,-3.25612e-05,-8.40498e-08,0,0,0,0,0,0,0,0.0123662,-0.196868,-0.332189,-1.66073,-0.0934819,1.48092,0.40237,0.00139073,0.005022,0.00130433,-0.00186087,7.40159e-05,0.00254832,-0.000158523,-0.119442,-25.7625,1.81398,25.8322,0.269772,2.88018,-0.0227812,-1.34412,0.0663388,-0.90392,0.0653482,-0.395309,-0.160586,-0.059554,0.044616,-0.260571,-0.469345,-0.132903,-0.294887,-0.0397786,
0.0123944,-0.197038,-0.332159,-1.66044,-0.0933857,-0.090638,-0.383031,7.91072e-05,-0.000392949,4.33353e-05,0.000174562,0.0001151,-7.62201e-05,2.38163e-07,0,0,0,0,0,0,0,0.0123662,-0.196868,-0.332189,-1.66073,-0.0934819,1.48092,0.40237,0.00139073,0.005022,0.00130433,-0.00186087,7.40159e-05,0.00254832,-0.000158523,-0.119442,-25.7625,1.81398,25.8322,0.269772,2.88018,-0.0227812,-1.34412,0.0663388,-0.90392,0.0653482,-0.395309,-0.160586,-0.059554,0.044616,-0.260571,-0.469345,-0.132903,-0.294887,-0.0397786,
0.0123946,-0.19704,-0.332158,-1.66043,-0.0933854,-0.0906384,-0.383031,7.04937e-05,-0.000382493,3.27085e-05,0.000164122,7.043e-05,-0.000115296,5.24664e-07,0,0,0,0,0,0,0,0.0123662,-0.196868,-0.332189,-1.66073,-0.0934819,1.48092,0.40237,0.00139073,0.005022,0.00130433,-0.00186087,7.40159e-05,0.00254832,-0.000158523,-0.119442,-25.7625,1.81398,25.8322,0.269772,2.88018,-0.0227812,-1.89597,0.0644433,-0.450998,-0.0246616,-0.990291,-0.263134,-0.159375,-0.365668,-0.344769,-0.225819,-0.157939,-0.288657,-0.0366626,
0.0123949,-0.197041,-0.332158,-1.66043,-0.0933853,-0.090639,-0.383031,6.28312e-05,-0.000373444,2.32538e-05,0.000154933,3.08576e-05,-0.000150233,7.79584e-07,0,0,0,0,0,0,0,0.0123662,-0.196868,-0.332189,-1.66073,-0.0934819,1.48092,0.40237,0.00139073,0.005022,0.00130433,-0.00186087,7.40159e-05,0.00254832,-0.000158523,-0.119442,-25.7625,1.81398,25.8322,0.269772,2.88018,-0.0227812,-1.35514,-0.0570467,-0.590549,0.0951331,-0.511672,-0.223501,-0.131053,-0.0673887,-0.312486,-0.353148,-0.153424,-0.296394,-0.0368425,
0.0123951,-0.197043,-0.332158,-1.66043,-0.0933853,-0.0906398,-0.383031,5.60122e-05,-0.000365619,1.48365e-05,0.000146844,-4.18548e-06,-0.00018144,1.00651e-06,0,0,0,0,0,0,0,0.0123662,-0.196868,-0.332189,-1.66073,-0.0934819,1.48092,0.40237,0.00139073,0.005022,0.00130433,-0.00186087,7.40159e-05,0.00254832,-0.000158523,-0.119442,-25.7625,1.81398,25.8322,0.269772,2.88018,-0.0227812,-1.35514,-0.0570467,-0.590549,0.0951331,-0.511672,-0.223501,-0.131053,-0.0673887,-0.312486,-0.353148,-0.153424,-0.296394,-0.0368425,
0.0123953,-0.197044,-0.332158,-1.66043,-0.0933855,-0.0906406,-0.383031,4.99426e-05,-0.000358859,7.33877e-06,0.000139726,-3.52079e-05,-0.000209291,1.20858e-06,0,0,0,0,0,0,0,0.0123662,-0.196868,-0.332189,-1.66073,-0.0934819,1.48092,0.40237,0.00139073,0.005022,0.00130433,-0.00186087,7.40159e-05,0.00254832,-0.000158523,-0.119442,-25.7625,1.81398,25.8322,0.269772,2.88018,-0.0227812,-0.808123,0.0374404,-0.770276,0.0777654,-0.0267792,-0.0807651,4.47316e-05,0.235941,-0.166131,-0.489568,-0.119264,-0.298672,-0.0410063,
0.0123955,-0.197046,-0.332158,-1.66043,-0.0933857,-0.0906415,-0.383031,4.4539e-05,-0.000353027,6.56848e-07,0.000133463,-6.26637e-05,-0.000234127,1.38854e-06,0,0,0,0,0,0,0,0.0123637,-0.196895,-0.332167,-1.66073,-0.0934871,1.48094,0.402371,-0.00303414,-0.00720806,0.000734828,-0.000565845,0.00432671,0.000467932,-0.000663548,0.00751081,-25.1119,1.86159,25.8084,0.306393,2.97997,-0.0301054,-0.808123,0.0374404,-0.770276,0.0777654,-0.0267792,-0.0807651,4.47316e-05,0.235941,-0.166131,-0.489568,-0.119264,-0.298672,-0.0410063,
0.0123956,-0.197047,-0.332158,-1.66043,-0.0933861,-0.0906426,-0.383031,3.97277e-05,-0.000348004,-5.30073e-06,0.000127954,-8.69574e-05,-0.000256259,1.54882e-06,0,0,0,0,0,0,0,0.0123637,-0.196895,-0.332167,-1.66073,-0.0934871,1.48094,0.402371,-0.00303414,-0.00720806,0.000734828,-0.000565845,0.00432671,0.000467932,-0.000663548,0.00751081,-25.1119,1.86159,25.8084,0.306393,2.97997,-0.0301054,-1.19751,-0.0746793,-0.365239,0.0827425,-0.484063,-0.199588,-0.111268,-0.0918162,-0.281898,-0.279831,-0.141177,-0.287375,-0.041645,
0.0123958,-0.197048,-0.332158,-1.66043,-0.0933865,-0.0906437,-0.383031,3.54435e-05,-0.000343686,-1.06148e-05,0.00012311,-0.000108448,-0.000275967,1.69157e-06,0,0,0,0,0,0,0,0.0123637,-0.196895,-0.332167,-1.66073,-0.0934871,1.48094,0.402371,-0.00303414,-0.00720806,0.000734828,-0.000565845,0.00432671,0.000467932,-0.000663548,0.00751081,-25.1119,1.86159,25.8084,0.306393,2.97997,-0.0301054,-1.19751,-0.0746793,-0.365239,0.0827425,-0.484063,-0.199588,-0.111268,-0.0918162,-0.281898,-0.279831,-0.141177,-0.287375,-0.041645,
0.0122531,-0.196932,-0.332274,-1.66035,-0.0919602,-0.0916104,-0.383029,-0.0103201,0.00213472,-0.00893273,0.0106658,0.173639,-0.102523,0.00031502,0,0,0,0,0,0,0,0.0123637,-0.196895,-0.332167,-1.66073,-0.0934871,1.48094,0.402371,-0.00303414,-0.00720806,0.000734828,-0.000565845,0.00432671,0.000467932,-0.000663548,0.00751081,-25.1119,1.86159,25.8084,0.306393,2.97997,-0.0301054,-0.655476,-0.046036,-0.567824,0.101455,0.0144467,-0.0918372,-0.00571909,0.225998,-0.180662,-0.427345,-0.129969,-0.292796,-0.0402041,
0.0122365,-0.196898,-0.332266,-1.66059,-0.0919721,-0.0907802,-0.383026,-0.0118061,-0.000242553,-0.0106391,0.0110434,0.170911,-0.103899,0.00036516,0,0,0,0,0,0,0,0.0123637,-0.196895,-0.332167,-1.66073,-0.0934871,1.48094,0.402371,-0.00303414,-0.00720806,0.000734828,-0.000565845,0.00432671,0.000467932,-0.000663548,0.00751081,-25.1119,1.86159,25.8084,0.306393,2.97997,-0.0301054,-1.08092,-0.342221,-0.410903,0.279474,-0.372206,-0.305008,-0.220292,-0.0198964,-0.403438,-0.311844,-0.161238,-0.286544,-0.0370057,
0.0121899,-0.196903,-0.332311,-1.66055,-0.0911656,-0.0912752,-0.383024,-0.0116383,-0.00102849,-0.0111923,0.00939173,0.201627,-0.123748,0.000492266,0,0,0,0,0,0,0,0.0123578,-0.196888,-0.332169,-1.66068,-0.0934946,1.48093,0.402375,-0.000570973,-0.000759749,-0.000387126,0.00543257,0.0114878,-0.000783528,0.00052707,0.0551182,-25.3102,1.93696,25.6339,0.361325,3.00011,-0.0630644,-1.08092,-0.342221,-0.410903,0.279474,-0.372206,-0.305008,-0.220292,-0.0198964,-0.403438,-0.311844,-0.161238,-0.286544,-0.0370057,
0.012146,-0.19691,-0.332355,-1.66052,-0.0902644,-0.0918354,-0.383022,-0.0109773,-0.00177152,-0.0110002,0.00776815,0.225321,-0.140063,0.000561192,0,0,0,0,0,0,0,0.0123578,-0.196888,-0.332169,-1.66068,-0.0934946,1.48093,0.402375,-0.000570973,-0.000759749,-0.000387126,0.00543257,0.0114878,-0.000783528,0.00052707,0.0551182,-25.3102,1.93696,25.6339,0.361325,3.00011,-0.0630644,-0.922732,-0.284788,-0.494254,0.250997,-0.220861,-0.248914,-0.164118,0.0789149,-0.346828,-0.360944,-0.155945,-0.285192,-0.0387834,
0.0121059,-0.196919,-0.332397,-1.6605,-0.0892893,-0.0924495,-0.38302,-0.0100411,-0.00236275,-0.0103541,0.00633898,0.243756,-0.153534,0.000595032,0,0,0,0,0,0,0,0.0123578,-0.196888,-0.332169,-1.66068,-0.0934946,1.48093,0.402375,-0.000570973,-0.000759749,-0.000387126,0.00543257,0.0114878,-0.000783528,0.00052707,0.0551182,-25.3102,1.93696,25.6339,0.361325,3.00011,-0.0630644,-0.922732,-0.284788,-0.494254,0.250997,-0.220861,-0.248914,-0.164118,0.0789149,-0.346828,-0.360944,-0.155945,-0.285192,-0.0387834,
0.01207,-0.19693,-0.332434,-1.66048,-0.0882565,-0.0931081,-0.383017,-0.00896684,-0.00278786,-0.00944678,0.00512188,0.258199,-0.164636,0.000606858,0,0,0,0,0,0,0,0.0123578,-0.196888,-0.332169,-1.66068,-0.0934946,1.48093,0.402375,-0.000570973,-0.000759749,-0.000387126,0.00543257,0.0114878,-0.000783528,0.00052707,0.0551182,-25.3102,1.93696,25.6339,0.361325,3.00011,-0.0630644,-0.564116,-0.217142,-0.41313,0.254581,0.0210933,-0.153186,-0.0653202,0.200905,-0.260913,-0.388622,-0.0882429,-0.299969,-0.0399664,
0.0120386,-0.196942,-0.332468,-1.66046,-0.0871782,-0.0938031,-0.383015,-0.00784209,-0.00306307,-0.00840585,0.00409378,0.269576,-0.173743,0.00060462,0,0,0,0,0,0,0,0.0123578,-0.196888,-0.332169,-1.66068,-0.0934946,1.48093,0.402375,-0.000570973,-0.000759749,-0.000387126,0.00543257,0.0114878,-0.000783528,0.00052707,0.0551182,-25.3102,1.93696,25.6339,0.361325,3.00011,-0.0630644,-0.564116,-0.217142,-0.41313,0.254581,0.0210933,-0.153186,-0.0653202,0.200905,-0.260913,-0.388622,-0.0882429,-0.299969,-0.0399664,
0.0120117,-0.196955,-0.332497,-1.66045,-0.0860639,-0.0945277,-0.383013,-0.00672244,-0.00321282,-0.00731502,0.00322477,0.27857,-0.181167,0.000593509,0,0,0,0,0,0,0,0.0123578,-0.196888,-0.332169,-1.66068,-0.0934946,1.48093,0.402375,-0.000570973,-0.000759749,-0.000387126,0.00543257,0.0114878,-0.000783528,0.00052707,0.0551182,-25.3102,1.93696,25.6339,0.361325,3.00011,-0.0630644,-0.95271,-0.337926,-0.104646,0.330465,-0.416486,-0.277316,-0.176039,-0.108621,-0.400186,-0.214682,-0.0592616,-0.288941,-0.0374519,
0.0119892,-0.196968,-0.332522,-1.66044,-0.0849212,-0.0952764,-0.38301,-0.00564228,-0.00326187,-0.00622813,0.00248767,0.285691,-0.187174,0.000576982,0,0,0,0,0,0,0,0.0123115,-0.196836,-0.332208,-1.66067,-0.0923646,1.48092,0.402368,-0.00188639,-0.000579928,-0.00483413,-0.00102356,0.0706296,0.00122204,-0.00111784,0.412174,-25.9093,2.21467,26.2567,1.07635,2.92046,-0.0026396,-0.720167,-0.40193,-0.123615,0.459777,-0.241603,-0.262187,-0.147581,-0.0133884,-0.417881,-0.262434,0.0152377,-0.301234,-0.0377816,
0.0119707,-0.196981,-0.332543,-1.66043,-0.0837559,-0.0960444,-0.383008,-0.00462187,-0.00323262,-0.00517869,0.00185995,0.291323,-0.191992,0.000557386,0,0,0,0,0,0,0,0.0123115,-0.196836,-0.332208,-1.66067,-0.0923646,1.48092,0.402368,-0.00188639,-0.000579928,-0.00483413,-0.00102356,0.0706296,0.00122204,-0.00111784,0.412174,-25.9093,2.21467,26.2567,1.07635,2.92046,-0.0026396,-0.720167,-0.40193,-0.123615,0.459777,-0.241603,-0.262187,-0.147581,-0.0133884,-0.417881,-0.262434,0.0152377,-0.301234,-0.0377816,
0.011956,-0.196994,-0.33256,-1.66042,-0.0825729,-0.0968276,-0.383006,-0.00367197,-0.00314433,-0.00418651,0.00132348,0.295759,-0.195813,0.000536213,0,0,0,0,0,0,0,0.0123115,-0.196836,-0.332208,-1.66067,-0.0923646,1.48092,0.402368,-0.00188639,-0.000579928,-0.00483413,-0.00102356,0.0706296,0.00122204,-0.00111784,0.412174,-25.9093,2.21467,26.2567,1.07635,2.92046,-0.0026396,-0.573738,-0.338201,-0.0632253,0.487355,-0.162798,-0.202874,-0.0792465,0.0154396,-0.376935,-0.271971,0.100285,-0.31626,-0.0406416,
0.0119448,-0.197006,-0.332573,-1.66042,-0.081376,-0.0976228,-0.383004,-0.00279714,-0.00301312,-0.00326216,0.000863696,0.299224,-0.198802,0.000514694,0,0,0,0,0,0,0,0.0123115,-0.196836,-0.332208,-1.66067,-0.0923646,1.48092,0.402368,-0.00188639,-0.000579928,-0.00483413,-0.00102356,0.0706296,0.00122204,-0.00111784,0.412174,-25.9093,2.21467,26.2567,1.07635,2.92046,-0.0026396,-0.573738,-0.338201,-0.0632253,0.487355,-0.162798,-0.202874,-0.0792465,0.0154396,-0.376935,-0.271971,0.100285,-0.31626,-0.0406416,
0.0119368,-0.197017,-0.332582,-1.66042,-0.0801684,-0.0984272,-0.383002,-0.00199789,-0.00285218,-0.00241011,0.000468861,0.301893,-0.201095,0.000493297,0,0,0,0,0,0,0,0.0123115,-0.196836,-0.332208,-1.66067,-0.0923646,1.48092,0.402368,-0.00188639,-0.000579928,-0.00483413,-0.00102356,0.0706296,0.00122204,-0.00111784,0.412174,-25.9093,2.21467,26.2567,1.07635,2.92046,-0.0026396,-0.755913,-0.303334,0.166909,0.483147,-0.407343,-0.219808,-0.0861204,-0.169216,-0.403018,-0.163789,0.158054,-0.317402,-0.0385437,
0.0119317,-0.197028,-0.332589,-1.66042,-0.0789528,-0.0992385,-0.383,-0.00127213,-0.00267214,-0.00163089,0.000129417,0.303904,-0.202809,0.00047266,0,0,0,0,0,0,0,0.0123004,-0.196844,-0.332232,-1.66067,-0.0890982,1.48088,0.402369,-0.00144917,0.000859311,3.48709e-05,-0.00107977,0.11249,0.000964484,-0.000284183,0.412174,-25.7625,2.1869,26.0544,1.42425,2.81426,-0.0163725,-0.755913,-0.303334,0.166909,0.483147,-0.407343,-0.219808,-0.0861204,-0.169216,-0.403018,-0.163789,0.158054,-0.317402,-0.0385437,
0.0119293,-0.197038,-0.332593,-1.66042,-0.0777313,-0.100055,-0.382998,-0.000616284,-0.0024814,-0.00092249,-0.000162475,0.305367,-0.20404,0.000452816,0,0,0,0,0,0,0,0.0123004,-0.196844,-0.332232,-1.66067,-0.0890982,1.48088,0.402369,-0.00144917,0.000859311,3.48709e-05,-0.00107977,0.11249,0.000964484,-0.000284183,0.412174,-25.7625,2.1869,26.0544,1.42425,2.81426,-0.0163725,-0.476236,-0.199341,0.0272485,0.522468,-0.13277,-0.123902,0.00604939,0.011571,-0.320597,-0.285311,0.2522,-0.353852,-0.0379336,
0.0119292,-0.197047,-0.332594,-1.66042,-0.0765058,-0.100874,-0.382996,-2.58548e-05,-0.00228653,-0.000281438,-0.000413325,0.306369,-0.20487,0.000434166,0,0,0,0,0,0,0,0.0123004,-0.196844,-0.332232,-1.66067,-0.0890982,1.48088,0.402369,-0.00144917,0.000859311,3.48709e-05,-0.00107977,0.11249,0.000964484,-0.000284183,0.412174,-25.7625,2.1869,26.0544,1.42425,2.81426,-0.0163725,-0.784337,0.0583904,0.261395,0.369623,-0.458214,-0.0607497,0.0696746,-0.21049,-0.245402,-0.183632,0.331274,-0.37988,-0.0393157,
0.0119312,-0.197055,-0.332593,-1.66042,-0.0752779,-0.101696,-0.382995,0.000504004,-0.00209252,0.000296606,-0.000628589,0.306982,-0.205367,0.00041651,0,0,0,0,0,0,0,0.0123004,-0.196844,-0.332232,-1.66067,-0.0890982,1.48088,0.402369,-0.00144917,0.000859311,3.48709e-05,-0.00107977,0.11249,0.000964484,-0.000284183,0.412174,-25.7625,2.1869,26.0544,1.42425,2.81426,-0.0163725,-0.784337,0.0583904,0.261395,0.369623,-0.458214,-0.0607497,0.0696746,-0.21049,-0.245402,-0.183632,0.331274,-0.37988,-0.0393157,
0.0119351,-0.197063,-0.332589,-1.66043,-0.0740489,-0.102518,-0.382993,0.000978262,-0.00190312,0.000816348,-0.000812859,0.307263,-0.205586,0.000400043,0,0,0,0,0,0,0,0.0123004,-0.196844,-0.332232,-1.66067,-0.0890982,1.48088,0.402369,-0.00144917,0.000859311,3.48709e-05,-0.00107977,0.11249,0.000964484,-0.000284183,0.412174,-25.7625,2.1869,26.0544,1.42425,2.81426,-0.0163725,-0.629927,-0.0393111,0.230712,0.497723,-0.326985,-0.0782805,0.0540199,-0.131996,-0.282962,-0.229404,0.375505,-0.39498,-0.0377735,
0.0119407,-0.19707,-0.332584,-1.66043,-0.0728198,-0.10334,-0.382992,0.00140179,-0.00172103,0.00128259,-0.000970057,0.307262,-0.205574,0.000384699,0,0,0,0,0,0,0,0.0123004,-0.196844,-0.332232,-1.66067,-0.0890982,1.48088,0.402369,-0.00144917,0.000859311,3.48709e-05,-0.00107977,0.11249,0.000964484,-0.000284183,0.412174,-25.7625,2.1869,26.0544,1.42425,2.81426,-0.0163725,-0.629927,-0.0393111,0.230712,0.497723,-0.326985,-0.0782805,0.0540199,-0.131996,-0.282962,-0.229404,0.375505,-0.39498,-0.0377735,
0.0119478,-0.197076,-0.332577,-1.66044,-0.0715917,-0.104162,-0.38299,0.00177926,-0.00154814,0.00170006,-0.00110353,0.307018,-0.20537,0.000370417,0,0,0,0,0,0,0,0.012312,-0.196846,-0.332225,-1.66066,-0.085436,1.48082,0.402369,0.00218521,0.00398972,0.0017537,-0.00108895,0.10405,-0.00124774,-0.000625751,0.25745,-25.7625,2.08772,26.0544,1.47277,2.69524,-0.00996382,-0.379826,0.100521,0.166532,0.474084,-0.0847865,0.0256349,0.147205,0.0273368,-0.176803,-0.328774,0.442565,-0.441302,-0.0355732,
0.0119563,-0.197082,-0.332569,-1.66044,-0.0703655,-0.104982,-0.382989,0.00211505,-0.00138568,0.00207324,-0.00121615,0.306565,-0.205007,0.000357191,0,0,0,0,0,0,0,0.012312,-0.196846,-0.332225,-1.66066,-0.085436,1.48082,0.402369,0.00218521,0.00398972,0.0017537,-0.00108895,0.10405,-0.00124774,-0.000625751,0.25745,-25.7625,2.08772,26.0544,1.47277,2.69524,-0.00996382,-0.681896,0.059908,0.382534,0.485867,-0.36979,-0.0462971,0.0626249,-0.15624,-0.235802,-0.243222,0.446378,-0.473079,-0.0378603,
0.0119659,-0.197087,-0.332559,-1.66045,-0.0691417,-0.1058,-0.382987,0.00241324,-0.00123438,0.00240639,-0.00131045,0.305931,-0.20451,0.000344788,0,0,0,0,0,0,0,0.012312,-0.196846,-0.332225,-1.66066,-0.085436,1.48082,0.402369,0.00218521,0.00398972,0.0017537,-0.00108895,0.10405,-0.00124774,-0.000625751,0.25745,-25.7625,2.08772,26.0544,1.47277,2.69524,-0.00996382,-0.681896,0.059908,0.382534,0.485867,-0.36979,-0.0462971,0.0626249,-0.15624,-0.235802,-0.243222,0.446378,-0.473079,-0.0378603,
0.0119766,-0.197091,-0.332549,-1.66045,-0.0679212,-0.106615,-0.382986,0.00267756,-0.00109457,0.00270342,-0.00138857,0.305141,-0.203904,0.000333356,0,0,0,0,0,0,0,0.012312,-0.196846,-0.332225,-1.66066,-0.085436,1.48082,0.402369,0.00218521,0.00398972,0.0017537,-0.00108895,0.10405,-0.00124774,-0.000625751,0.25745,-25.7625,2.08772,26.0544,1.47277,2.69524,-0.00996382,-0.193356,0.0104569,0.178652,0.58682,0.114463,0.017396,0.11202,0.165233,-0.17846,-0.417479,0.470882,-0.510772,-0.0389843,
0.0119883,-0.197095,-0.332537,-1.66046,-0.0667043,-0.107428,-0.382985,0.00291148,-0.000966274,0.00296796,-0.00145242,0.304215,-0.203204,0.00032262,0,0,0,0,0,0,0,0.012312,-0.196846,-0.332225,-1.66066,-0.085436,1.48082,0.402369,0.00218521,0.00398972,0.0017537,-0.00108895,0.10405,-0.00124774,-0.000625751,0.25745,-25.7625,2.08772,26.0544,1.47277,2.69524,-0.00996382,-0.193356,0.0104569,0.178652,0.58682,0.114463,0.017396,0.11202,0.165233,-0.17846,-0.417479,0.470882,-0.510772,-0.0389843,
0.0120007,-0.197098,-0.332524,-1.66046,-0.0654916,-0.108238,-0.382983,0.00311809,-0.0008493,0.0032033,-0.00150366,0.303171,-0.202428,0.000312722,0,0,0,0,0,0,0,0.0123604,-0.196879,-0.332171,-1.66064,-0.0803641,1.48064,0.40237,0.000466697,-0.00262627,0.00103757,0.00151744,0.132737,-0.00772769,-0.000229159,-0.171017,-25.338,1.81398,25.8798,0.948178,2.72179,-0.0227812,-0.453829,-0.18256,0.468428,0.676978,-0.180642,-0.119564,-0.0345193,-0.0428495,-0.309229,-0.287174,0.450026,-0.519213,-0.03695,
0.0120139,-0.197101,-0.33251,-1.66047,-0.0642835,-0.109044,-0.382982,0.00330022,-0.00074329,0.00341244,-0.00154373,0.302023,-0.201588,0.00030344,0,0,0,0,0,0,0,0.0123604,-0.196879,-0.332171,-1.66064,-0.0803641,1.48064,0.40237,0.000466697,-0.00262627,0.00103757,0.00151744,0.132737,-0.00772769,-0.000229159,-0.171017,-25.338,1.81398,25.8798,0.948178,2.72179,-0.0227812,-0.453829,-0.18256,0.468428,0.676978,-0.180642,-0.119564,-0.0345193,-0.0428495,-0.309229,-0.287174,0.450026,-0.519213,-0.03695,
0.0120644,-0.1968,-0.332382,-1.66027,-0.0888968,-0.0936299,-0.382996,-0.0271378,0.00482473,-0.0227696,0.0361736,0.523826,-0.422149,0.00329455,0,0,0,0,0,0,0,0.0123604,-0.196879,-0.332171,-1.66064,-0.0803641,1.48064,0.40237,0.000466697,-0.00262627,0.00103757,0.00151744,0.132737,-0.00772769,-0.000229159,-0.171017,-25.338,1.81398,25.8798,0.948178,2.72179,-0.0227812,-0.297423,-0.2003,0.492115,0.658655,-0.0317895,-0.101367,-0.0338185,0.0553839,-0.272029,-0.323033,0.41504,-0.544053,-0.0376502,
0.0121258,-0.19677,-0.33233,-1.66023,-0.0748031,-0.0937632,-0.383,-0.0212687,0.00596431,-0.0172945,0.0325171,0.58709,-0.403329,0.00307985,0,0,0,0,0,0,0,0.0123604,-0.196879,-0.332171,-1.66064,-0.0803641,1.48064,0.40237,0.000466697,-0.00262627,0.00103757,0.00151744,0.132737,-0.00772769,-0.000229159,-0.171017,-25.338,1.81398,25.8798,0.948178,2.72179,-0.0227812,-0.235759,-0.282191,0.355588,0.733553,0.10902,-0.126973,-0.0693391,0.175744,-0.298344,-0.419946,0.394417,-0.58142,-0.0390578,
0.0120466,-0.196764,-0.3324,-1.66013,-0.072103,-0.0956641,-0.382986,-0.0197989,0.00148205,-0.0173657,0.0261271,0.675031,-0.475233,0.00336984,0,0,0,0,0,0,0,0.0123604,-0.196879,-0.332171,-1.66064,-0.0803641,1.48064,0.40237,0.000466697,-0.00262627,0.00103757,0.00151744,0.132737,-0.00772769,-0.000229159,-0.171017,-25.338,1.81398,25.8798,0.948178,2.72179,-0.0227812,-0.235759,-0.282191,0.355588,0.733553,0.10902,-0.126973,-0.0693391,0.175744,-0.298344,-0.419946,0.394417,-0.58142,-0.0390578,
0.0119775,-0.196773,-0.332463,-1.66005,-0.0691244,-0.0977925,-0.382972,-0.0172816,-0.00220586,-0.0158584,0.0199857,0.744657,-0.532091,0.00352324,0,0,0,0,0,0,0,0.0123604,-0.196879,-0.332171,-1.66064,-0.0803641,1.48064,0.40237,0.000466697,-0.00262627,0.00103757,0.00151744,0.132737,-0.00772769,-0.000229159,-0.171017,-25.338,1.81398,25.8798,0.948178,2.72179,-0.0227812,-0.700539,-0.357266,0.625928,0.728178,-0.337122,-0.244487,-0.186457,-0.115289,-0.40723,-0.26944,0.365791,-0.588162,-0.0373109,
0.0119206,-0.196792,-0.332517,-1.65999,-0.065923,-0.100101,-0.382958,-0.0142175,-0.00494508,-0.0134181,0.0146042,0.800347,-0.577098,0.00359497,0,0,0,0,0,0,0,0.0123407,-0.196829,-0.332175,-1.66062,-0.0749549,1.48043,0.402372,-0.00351247,0.00199575,-0.000107945,0.00826254,0.194707,-0.0159117,0.000120308,0.0313145,-25.9609,1.78621,26.4313,1.32629,2.5689,-0.0429228,-0.700539,-0.357266,0.625928,0.728178,-0.337122,-0.244487,-0.186457,-0.115289,-0.40723,-0.26944,0.365791,-0.588162,-0.0373109,
0.0118769,-0.19682,-0.332559,-1.65995,-0.0625419,-0.102551,-0.382943,-0.0109135,-0.00682674,-0.010468,0.010028,0.845288,-0.612518,0.0036148,0,0,0,0,0,0,0,0.0123407,-0.196829,-0.332175,-1.66062,-0.0749549,1.48043,0.402372,-0.00351247,0.00199575,-0.000107945,0.00826254,0.194707,-0.0159117,0.000120308,0.0313145,-25.9609,1.78621,26.4313,1.32629,2.5689,-0.0429228,-0.304982,-0.911731,0.678859,1.11609,-0.0209872,-0.419989,-0.3613,0.0666684,-0.619955,-0.319483,0.320824,-0.604094,-0.0409239,
0.0118467,-0.196852,-0.332588,-1.65992,-0.0590145,-0.105111,-0.382929,-0.00756262,-0.00800137,-0.00728663,0.00617262,0.881843,-0.640105,0.00360055,0,0,0,0,0,0,0,0.0123407,-0.196829,-0.332175,-1.66062,-0.0749549,1.48043,0.402372,-0.00351247,0.00199575,-0.000107945,0.00826254,0.194707,-0.0159117,0.000120308,0.0313145,-25.9609,1.78621,26.4313,1.32629,2.5689,-0.0429228,-0.304982,-0.911731,0.678859,1.11609,-0.0209872,-0.419989,-0.3613,0.0666684,-0.619955,-0.319483,0.320824,-0.604094,-0.0409239,
0.0118295,-0.196886,-0.332604,-1.65991,-0.0553673,-0.107756,-0.382915,-0.00428587,-0.00861855,-0.00405557,0.00293064,0.911787,-0.661275,0.00356396,0,0,0,0,0,0,0,0.0123407,-0.196829,-0.332175,-1.66062,-0.0749549,1.48043,0.402372,-0.00351247,0.00199575,-0.000107945,0.00826254,0.194707,-0.0159117,0.000120308,0.0313145,-25.9609,1.78621,26.4313,1.32629,2.5689,-0.0429228,0.164003,-0.778765,1.2099,1.02058,0.13778,-0.271294,-0.20219,0.0691892,-0.473114,-0.195256,0.407224,-0.62197,-0.0423664,
0.0118249,-0.196921,-0.332608,-1.65991,-0.0516215,-0.110465,-0.382901,-0.00115715,-0.00880905,-0.000891019,0.000202989,0.936464,-0.677185,0.00351245,0,0,0,0,0,0,0,0.0123407,-0.196829,-0.332175,-1.66062,-0.0749549,1.48043,0.402372,-0.00351247,0.00199575,-0.000107945,0.00826254,0.194707,-0.0159117,0.000120308,0.0313145,-25.9609,1.78621,26.4313,1.32629,2.5689,-0.0429228,-0.177912,-0.935155,1.7431,1.14879,-0.293012,-0.395244,-0.298588,-0.25047,-0.632235,-0.012692,0.472625,-0.679134,-0.0421864,
0.011832,-0.196956,-0.332599,-1.65992,-0.0477939,-0.11322,-0.382887,0.00178114,-0.00868156,0.00213529,-0.00209437,0.956906,-0.688789,0.00345167,0,0,0,0,0,0,0,0.0121552,-0.196795,-0.332412,-1.66047,-0.0635921,1.47856,0.402369,-0.00774319,-0.000921903,-0.013724,0.00039061,0.451052,-0.0892987,-0.000401198,1.04694,-25.9847,2.68678,25.8798,2.18139,1.98571,-0.00996382,-0.177912,-0.935155,1.7431,1.14879,-0.293012,-0.395244,-0.298588,-0.25047,-0.632235,-0.012692,0.472625,-0.679134,-0.0421864,
0.0118501,-0.196989,-0.332579,-1.65994,-0.0438982,-0.116008,-0.382873,0.00450754,-0.00832414,0.00498181,-0.00403085,0.97391,-0.696872,0.00338565,0,0,0,0,0,0,0,0.0121552,-0.196795,-0.332412,-1.66047,-0.0635921,1.47856,0.402369,-0.00774319,-0.000921903,-0.013724,0.00039061,0.451052,-0.0892987,-0.000401198,1.04694,-25.9847,2.68678,25.8798,2.18139,1.98571,-0.00996382,0.0339804,-0.750051,1.66216,1.14612,-0.0452805,-0.266536,-0.146894,-0.0754384,-0.537312,-0.158157,0.57644,-0.770283,-0.0412734,
0.0118781,-0.197021,-0.332549,-1.65996,-0.0399458,-0.118816,-0.38286,0.00701444,-0.00780682,0.00762736,-0.00566338,0.988098,-0.702079,0.00331714,0,0,0,0,0,0,0,0.0121552,-0.196795,-0.332412,-1.66047,-0.0635921,1.47856,0.402369,-0.00774319,-0.000921903,-0.013724,0.00039061,0.451052,-0.0892987,-0.000401198,1.04694,-25.9847,2.68678,25.8798,2.18139,1.98571,-0.00996382,0.0339804,-0.750051,1.66216,1.14612,-0.0452805,-0.266536,-0.146894,-0.0754384,-0.537312,-0.158157,0.57644,-0.770283,-0.0412734,
0.0119153,-0.197049,-0.332508,-1.65999,-0.035946,-0.121636,-0.382847,0.00930331,-0.00718456,0.0100642,-0.00703871,0.99996,-0.70494,0.00324745,0,0,0,0,0,0,0,0.0121552,-0.196795,-0.332412,-1.66047,-0.0635921,1.47856,0.402369,-0.00774319,-0.000921903,-0.013724,0.00039061,0.451052,-0.0892987,-0.000401198,1.04694,-25.9847,2.68678,25.8798,2.18139,1.98571,-0.00996382,-0.0459654,-0.857381,1.84048,1.2728,-0.127127,-0.321083,-0.187894,-0.132482,-0.619968,-0.148713,0.625376,-0.835667,-0.0414667,
0.0119609,-0.197075,-0.332459,-1.66002,-0.0319064,-0.12446,-0.382834,0.0113815,-0.00649991,0.0122935,-0.00819531,1.00989,-0.705892,0.00317787,0,0,0,0,0,0,0,0.0121552,-0.196795,-0.332412,-1.66047,-0.0635921,1.47856,0.402369,-0.00774319,-0.000921903,-0.013724,0.00039061,0.451052,-0.0892987,-0.000401198,1.04694,-25.9847,2.68678,25.8798,2.18139,1.98571,-0.00996382,-0.0459654,-0.857381,1.84048,1.2728,-0.127127,-0.321083,-0.187894,-0.132482,-0.619968,-0.148713,0.625376,-0.835667,-0.0414667,
0.0120139,-0.197098,-0.332402,-1.66006,-0.0278337,-0.127281,-0.382822,0.0132595,-0.00578536,0.0143219,-0.00916523,1.01819,-0.705292,0.00310959,0,0,0,0,0,0,0,0.0117199,-0.196806,-0.332767,-1.66032,-0.0458046,1.47411,0.402374,-0.0140058,0.00245095,-0.0127824,0.00231084,0.59459,-0.17305,0.000610651,1.32465,-25.8339,2.93672,25.6577,2.48718,1.7669,-0.050247,0.0979839,-0.227398,1.99239,0.894219,-0.0583581,-0.00547646,0.13811,-0.110345,-0.286403,-0.158035,0.751757,-0.890688,-0.039023,
0.0120737,-0.197119,-0.332337,-1.6601,-0.0237332,-0.130094,-0.38281,0.01495,-0.00506523,0.0161596,-0.00997498,1.02512,-0.703432,0.00304279,0,0,0,0,0,0,0,0.0117199,-0.196806,-0.332767,-1.66032,-0.0458046,1.47411,0.402374,-0.0140058,0.00245095,-0.0127824,0.00231084,0.59459,-0.17305,0.000610651,1.32465,-25.8339,2.93672,25.6577,2.48718,1.7669,-0.050247,0.0979839,-0.227398,1.99239,0.894219,-0.0583581,-0.00547646,0.13811,-0.110345,-0.286403,-0.158035,0.751757,-0.890688,-0.039023,
0.0121396,-0.197136,-0.332266,-1.66014,-0.0196096,-0.132897,-0.382798,0.0164666,-0.00435743,0.0178185,-0.0106469,1.03089,-0.700554,0.00297799,0,0,0,0,0,0,0,0.0117199,-0.196806,-0.332767,-1.66032,-0.0458046,1.47411,0.402374,-0.0140058,0.00245095,-0.0127824,0.00231084,0.59459,-0.17305,0.000610651,1.32465,-25.8339,2.93672,25.6577,2.48718,1.7669,-0.050247,0.0630358,0.0152538,1.88494,0.864439,-0.00170691,0.10569,0.262777,-0.0434696,-0.198849,-0.278448,0.872792,-0.977965,-0.0378557,
0.0122109,-0.197151,-0.332189,-1.66018,-0.015467,-0.135684,-0.382786,0.017823,-0.00367475,0.0193114,-0.0111998,1.03567,-0.696856,0.00291544,0,0,0,0,0,0,0,0.0117199,-0.196806,-0.332767,-1.66032,-0.0458046,1.47411,0.402374,-0.0140058,0.00245095,-0.0127824,0.00231084,0.59459,-0.17305,0.000610651,1.32465,-25.8339,2.93672,25.6577,2.48718,1.7669,-0.050247,-0.438358,0.308431,2.12447,0.701188,-0.43966,0.15752,0.329966,-0.31467,-0.147653,-0.194727,0.954269,-1.04786,-0.0344018,
0.012287,-0.197163,-0.332106,-1.66023,-0.0113086,-0.138454,-0.382775,0.0190325,-0.00302598,0.0206515,-0.0116495,1.0396,-0.6925,0.00285512,0,0,0,0,0,0,0,0.0117199,-0.196806,-0.332767,-1.66032,-0.0458046,1.47411,0.402374,-0.0140058,0.00245095,-0.0127824,0.00231084,0.59459,-0.17305,0.000610651,1.32465,-25.8339,2.93672,25.6577,2.48718,1.7669,-0.050247,-0.438358,0.308431,2.12447,0.701188,-0.43966,0.15752,0.329966,-0.31467,-0.147653,-0.194727,0.954269,-1.04786,-0.0344018,
0.0123674,-0.197173,-0.332019,-1.66028,-0.00713739,-0.141205,-0.382764,0.020108,-0.00241686,0.0218516,-0.0120098,1.04279,-0.687619,0.00279658,0,0,0,0,0,0,0,0.0117199,-0.196806,-0.332767,-1.66032,-0.0458046,1.47411,0.402374,-0.0140058,0.00245095,-0.0127824,0.00231084,0.59459,-0.17305,0.000610651,1.32465,-25.8339,2.93672,25.6577,2.48718,1.7669,-0.050247,-0.167498,0.148218,2.02389,0.854773,-0.173963,0.141876,0.323114,-0.140769,-0.190366,-0.289221,0.960465,-1.06937,-0.0352717,
0.0124517,-0.19718,-0.331927,-1.66033,-0.00295597,-0.143934,-0.382753,0.0210617,-0.00185074,0.0229237,-0.0122923,1.04536,-0.682323,0.0027406,0,0,0,0,0,0,0,0.0112769,-0.196847,-0.332994,-1.66023,-0.0248379,1.46739,0.402374,-0.0139372,0.00112775,0.000968668,0.00123012,0.654503,-0.224641,0.00020593,1.37622,-25.338,2.91292,25.733,2.3526,1.87951,-0.050247,-0.167498,0.148218,2.02389,0.854773,-0.173963,0.141876,0.323114,-0.140769,-0.190366,-0.289221,0.960465,-1.06937,-0.0352717,
0.0125393,-0.197185,-0.331832,-1.66038,0.00123351,-0.146641,-0.382742,0.0219049,-0.00132923,0.0238795,-0.0125072,1.04737,-0.676701,0.00268663,0,0,0,0,0,0,0,0.0112769,-0.196847,-0.332994,-1.66023,-0.0248379,1.46739,0.402374,-0.0139372,0.00112775,0.000968668,0.00123012,0.654503,-0.224641,0.00020593,1.37622,-25.338,2.91292,25.733,2.3526,1.87951,-0.050247,0.1531,0.201612,1.95605,0.869517,0.126053,0.231527,0.417316,0.0519244,-0.113092,-0.3929,0.99712,-1.10897,-0.0351435,
0.0126299,-0.197189,-0.331733,-1.66043,0.00542912,-0.149324,-0.382731,0.0226481,-0.000852544,0.0247299,-0.0126635,1.0489,-0.670825,0.00263458,0,0,0,0,0,0,0,0.0112769,-0.196847,-0.332994,-1.66023,-0.0248379,1.46739,0.402374,-0.0139372,0.00112775,0.000968668,0.00123012,0.654503,-0.224641,0.00020593,1.37622,-25.338,2.91292,25.733,2.3526,1.87951,-0.050247,0.00552926,0.153186,2.2393,0.839464,-0.105686,0.18896,0.379602,-0.130455,-0.149636,-0.250129,0.976344,-1.08866,-0.0330804,
0.0127231,-0.19719,-0.331631,-1.66048,0.00962922,-0.151983,-0.382721,0.0233009,-0.00042,0.0254846,-0.0127689,1.05002,-0.664752,0.00258441,0,0,0,0,0,0,0,0.0112769,-0.196847,-0.332994,-1.66023,-0.0248379,1.46739,0.402374,-0.0139372,0.00112775,0.000968668,0.00123012,0.654503,-0.224641,0.00020593,1.37622,-25.338,2.91292,25.733,2.3526,1.87951,-0.050247,0.00552926,0.153186,2.2393,0.839464,-0.105686,0.18896,0.379602,-0.130455,-0.149636,-0.250129,0.976344,-1.08866,-0.0330804,
0.0128186,-0.197191,-0.331526,-1.66053,0.0138323,-0.154617,-0.382711,0.0238721,-3.01197e-05,0.026153,-0.0128303,1.05078,-0.65853,0.00253574,0,0,0,0,0,0,0,0.0112769,-0.196847,-0.332994,-1.66023,-0.0248379,1.46739,0.402374,-0.0139372,0.00112775,0.000968668,0.00123012,0.654503,-0.224641,0.00020593,1.37622,-25.338,2.91292,25.733,2.3526,1.87951,-0.050247,0.263346,-0.142371,1.982,1.03286,0.207453,0.108245,0.294773,0.0962239,-0.244314,-0.374939,0.89965,-1.08133,-0.0339643,
0.012916,-0.197189,-0.331419,-1.66058,0.0180372,-0.157226,-0.382701,0.0243698,0.000319024,0.0267433,-0.0128536,1.05121,-0.652196,0.0024889,0,0,0,0,0,0,0,0.0109868,-0.196877,-0.333043,-1.66015,-0.00212398,1.4591,0.402369,-0.00231363,0.00215915,0.000962723,0.000447256,0.743968,-0.290313,-0.000571044,1.12232,-25.1357,2.91292,25.5823,1.61926,1.88592,-0.00996382,0.263346,-0.142371,1.982,1.03286,0.207453,0.108245,0.294773,0.0962239,-0.244314,-0.374939,0.89965,-1.08133,-0.0339643,
0.0130239,-0.197024,-0.331424,-1.66052,-0.076459,-0.0956856,-0.382882,0.0781989,-0.0185848,0.0887931,0.0029984,0.414243,-0.635763,0.012077,0,0,0,0,0,0,0,0.0109868,-0.196877,-0.333043,-1.66015,-0.00212398,1.4591,0.402369,-0.00231363,0.00215915,0.000962723,0.000447256,0.743968,-0.290313,-0.000571044,1.12232,-25.1357,2.91292,25.5823,1.61926,1.88592,-0.00996382,0.308188,-0.234678,2.02442,0.995006,0.241711,0.0777505,0.249083,0.117306,-0.248001,-0.347945,0.799927,-1.0628,-0.0312931,
0.0118589,-0.19707,-0.332143,-1.66023,0.0063739,-0.119285,-0.382873,0.098614,-0.0219425,0.106629,-0.013911,0.712099,-0.768538,0.0125143,0,0,0,0,0,0,0,0.0109868,-0.196877,-0.333043,-1.66015,-0.00212398,1.4591,0.402369,-0.00231363,0.00215915,0.000962723,0.000447256,0.743968,-0.290313,-0.000571044,1.12232,-25.1357,2.91292,25.5823,1.61926,1.88592,-0.00996382,0.308188,-0.234678,2.02442,0.995006,0.241711,0.0777505,0.249083,0.117306,-0.248001,-0.347945,0.799927,-1.0628,-0.0312931,
0.0123306,-0.197167,-0.331624,-1.66032,0.00929814,-0.122772,-0.382826,0.117941,-0.0242437,0.129767,-0.0211159,0.731059,-0.871678,0.0118863,0,0,0,0,0,0,0,0.0109868,-0.196877,-0.333043,-1.66015,-0.00212398,1.4591,0.402369,-0.00231363,0.00215915,0.000962723,0.000447256,0.743968,-0.290313,-0.000571044,1.12232,-25.1357,2.91292,25.5823,1.61926,1.88592,-0.00996382,-0.0176251,-0.296741,1.92816,0.926252,0.0309505,-0.0029364,0.147126,0.017414,-0.291331,-0.310785,0.676613,-1.02763,-0.0325927,
0.0128658,-0.197266,-0.33103,-1.66043,0.012319,-0.126597,-0.38278,0.133804,-0.024666,0.148434,-0.0279853,0.755228,-0.956175,0.0113674,0,0,0,0,0,0,0,0.0109868,-0.196877,-0.333043,-1.66015,-0.00212398,1.4591,0.402369,-0.00231363,0.00215915,0.000962723,0.000447256,0.743968,-0.290313,-0.000571044,1.12232,-25.1357,2.91292,25.5823,1.61926,1.88592,-0.00996382,-0.0176251,-0.296741,1.92816,0.926252,0.0309505,-0.0029364,0.147126,0.017414,-0.291331,-0.310785,0.676613,-1.02763,-0.0325927,
0.0134537,-0.197361,-0.330375,-1.66057,0.0154458,-0.130699,-0.382736,0.146968,-0.0237393,0.163684,-0.0343399,0.781697,-1.02558,0.0109325,0,0,0,0,0,0,0,0.0109868,-0.196877,-0.333043,-1.66015,-0.00212398,1.4591,0.402369,-0.00231363,0.00215915,0.000962723,0.000447256,0.743968,-0.290313,-0.000571044,1.12232,-25.1357,2.91292,25.5823,1.61926,1.88592,-0.00996382,0.242074,-0.113858,1.48575,0.8034,0.360921,0.116266,0.257418,0.262134,-0.155334,-0.457709,0.645939,-0.980602,-0.0254233,
0.0140857,-0.197448,-0.32967,-1.66073,0.0186802,-0.13503,-0.382694,0.157995,-0.0218797,0.176287,-0.0401124,0.808586,-1.08268,0.0105593,0,0,0,0,0,0,0,0.0111141,-0.196891,-0.332882,-1.66019,0.0214515,1.44913,0.402369,0.0239373,-0.00306312,0.0223618,-0.00849556,0.581414,-0.288107,-0.000639857,0.614505,-25.1357,2.86134,26.2567,0.752255,2.42333,-0.00996382,-0.772737,-1.08924,1.75305,1.22491,-0.522092,-0.507873,-0.377032,-0.283402,-0.776603,-0.153913,0.355902,-0.882583,-0.0161187,
0.0147549,-0.197526,-0.328923,-1.66091,0.0220191,-0.139549,-0.382653,0.167305,-0.019404,0.186806,-0.0452889,0.834724,-1.12972,0.0102307,0,0,0,0,0,0,0,0.0111141,-0.196891,-0.332882,-1.66019,0.0214515,1.44913,0.402369,0.0239373,-0.00306312,0.0223618,-0.00849556,0.581414,-0.288107,-0.000639857,0.614505,-25.1357,2.86134,26.2567,0.752255,2.42333,-0.00996382,-0.772737,-1.08924,1.75305,1.22491,-0.522092,-0.507873,-0.377032,-0.283402,-0.776603,-0.153913,0.355902,-0.882583,-0.0161187,
0.0154558,-0.197592,-0.32814,-1.66111,0.0254568,-0.144223,-0.382614,0.175214,-0.0165499,0.195658,-0.0498841,0.859418,-1.16849,0.00993489,0,0,0,0,0,0,0,0.0111141,-0.196891,-0.332882,-1.66019,0.0214515,1.44913,0.402369,0.0239373,-0.00306312,0.0223618,-0.00849556,0.581414,-0.288107,-0.000639857,0.614505,-25.1357,2.86134,26.2567,0.752255,2.42333,-0.00996382,-0.25949,-1.8821,1.58172,1.55211,-0.0444726,-0.774927,-0.668704,0.0241389,-1.03074,-0.20543,0.0532258,-0.795519,-0.0155273,
0.0161836,-0.197646,-0.327327,-1.66133,0.0289859,-0.149024,-0.382575,0.181961,-0.013493,0.203155,-0.0539274,0.882293,-1.20044,0.00966365,0,0,0,0,0,0,0,0.0111141,-0.196891,-0.332882,-1.66019,0.0214515,1.44913,0.402369,0.0239373,-0.00306312,0.0223618,-0.00849556,0.581414,-0.288107,-0.000639857,0.614505,-25.1357,2.86134,26.2567,0.752255,2.42333,-0.00996382,-0.25949,-1.8821,1.58172,1.55211,-0.0444726,-0.774927,-0.668704,0.0241389,-1.03074,-0.20543,0.0532258,-0.795519,-0.0155273,
0.0169346,-0.197687,-0.326489,-1.66155,0.0325987,-0.153931,-0.382537,0.187734,-0.0103624,0.209535,-0.0574562,0.903182,-1.22676,0.00941195,0,0,0,0,0,0,0,0.0111141,-0.196891,-0.332882,-1.66019,0.0214515,1.44913,0.402369,0.0239373,-0.00306312,0.0223618,-0.00849556,0.581414,-0.288107,-0.000639857,0.614505,-25.1357,2.86134,26.2567,0.752255,2.42333,-0.00996382,-0.405479,-1.56237,1.86683,1.16596,-0.252961,-0.656186,-0.578355,-0.130877,-0.835355,-0.0582758,-0.0325874,-0.77783,-0.00985824,
0.0177053,-0.197718,-0.325629,-1.6618,0.036287,-0.158901,-0.3825,0.192693,-0.007632,0.21505,-0.0617076,0.922086,-1.24238,0.00920501,0,0,0,0,0,0,0,0.0123436,-0.196926,-0.331311,-1.66013,0.0416556,1.43599,0.402372,0.0486117,-0.00360337,0.0492427,0.00445585,0.59672,-0.459348,-0.000230497,1.95942,-24.9135,4.2856,24.6619,1.37573,1.5078,-0.00996382,-0.405479,-1.56237,1.86683,1.16596,-0.252961,-0.656186,-0.578355,-0.130877,-0.835355,-0.0582758,-0.0325874,-0.77783,-0.00985824,
0.0184932,-0.197739,-0.32475,-1.66207,0.0400433,-0.163881,-0.382464,0.196978,-0.00525137,0.219816,-0.0666939,0.939065,-1.24512,0.00903209,0,0,0,0,0,0,0,0.0123436,-0.196926,-0.331311,-1.66013,0.0416556,1.43599,0.402372,0.0486117,-0.00360337,0.0492427,0.00445585,0.59672,-0.459348,-0.000230497,1.95942,-24.9135,4.2856,24.6619,1.37573,1.5078,-0.00996382,-0.127715,-0.720203,1.70511,0.618845,0.0859078,-0.219953,-0.159464,0.119592,-0.3413,-0.231221,0.0377908,-0.871678,-0.00725701,
0.0192959,-0.19775,-0.323854,-1.66235,0.04386,-0.168842,-0.382429,0.200669,-0.00270491,0.223856,-0.0709653,0.954175,-1.24016,0.00885699,0,0,0,0,0,0,0,0.0123436,-0.196926,-0.331311,-1.66013,0.0416556,1.43599,0.402372,0.0486117,-0.00360337,0.0492427,0.00445585,0.59672,-0.459348,-0.000230497,1.95942,-24.9135,4.2856,24.6619,1.37573,1.5078,-0.00996382,-0.639436,-0.422111,1.46849,0.436005,-0.173587,-0.161508,-0.0977706,0.0311041,-0.270116,-0.307529,0.0370861,-0.92652,-0.00966757,
0.0201112,-0.19775,-0.322945,-1.66265,0.0477299,-0.173763,-0.382394,0.203819,-1.01555e-05,0.227286,-0.0743057,0.967493,-1.23018,0.00868211,0,0,0,0,0,0,0,0.0123436,-0.196926,-0.331311,-1.66013,0.0416556,1.43599,0.402372,0.0486117,-0.00360337,0.0492427,0.00445585,0.59672,-0.459348,-0.000230497,1.95942,-24.9135,4.2856,24.6619,1.37573,1.5078,-0.00996382,-0.639436,-0.422111,1.46849,0.436005,-0.173587,-0.161508,-0.0977706,0.0311041,-0.270116,-0.307529,0.0370861,-0.92652,-0.00966757,
0.0209372,-0.197739,-0.322025,-1.66296,0.0516465,-0.17863,-0.38236,0.206491,0.00271572,0.230199,-0.0768151,0.979133,-1.21681,0.00850939,0,0,0,0,0,0,0,0.0123436,-0.196926,-0.331311,-1.66013,0.0416556,1.43599,0.402372,0.0486117,-0.00360337,0.0492427,0.00445585,0.59672,-0.459348,-0.000230497,1.95942,-24.9135,4.2856,24.6619,1.37573,1.5078,-0.00996382,-1.00678,-0.981675,1.44286,0.79799,-0.415946,-0.466619,-0.398332,-0.0917857,-0.607155,-0.286333,-0.0505913,-0.929821,-0.00845092,
0.0217721,-0.197718,-0.321094,-1.66327,0.0556034,-0.183434,-0.382327,0.208744,0.00536848,0.232668,-0.0786469,0.989234,-1.2011,0.00833937,0,0,0,0,0,0,0,0.0123436,-0.196926,-0.331311,-1.66013,0.0416556,1.43599,0.402372,0.0486117,-0.00360337,0.0492427,0.00445585,0.59672,-0.459348,-0.000230497,1.95942,-24.9135,4.2856,24.6619,1.37573,1.5078,-0.00996382,-1.00678,-0.981675,1.44286,0.79799,-0.415946,-0.466619,-0.398332,-0.0917857,-0.607155,-0.286333,-0.0505913,-0.929821,-0.00845092,
0.0226146,-0.197686,-0.320155,-1.66359,0.0595952,-0.188169,-0.382294,0.210626,0.00787701,0.234749,-0.0799398,0.997944,-1.18378,0.00817449,0,0,0,0,0,0,0,0.0141792,-0.197047,-0.328981,-1.66016,0.0615384,1.41869,0.402377,0.063735,-0.00214827,0.0892351,0.000487084,0.670681,-0.592921,7.70816e-05,2.08637,-24.7389,4.18641,24.8602,1.63757,1.33568,-0.0365141,-1.28406,-1.18294,1.34507,0.983466,-0.500877,-0.584714,-0.515005,-0.0865065,-0.747171,-0.386194,-0.0657186,-1.0227,-0.00950674,
0.0234633,-0.197645,-0.319209,-1.66391,0.0636168,-0.192831,-0.382262,0.212178,0.0101993,0.236488,-0.0808056,1.00541,-1.16537,0.00801187,0,0,0,0,0,0,0,0.0141792,-0.197047,-0.328981,-1.66016,0.0615384,1.41869,0.402377,0.063735,-0.00214827,0.0892351,0.000487084,0.670681,-0.592921,7.70816e-05,2.08637,-24.7389,4.18641,24.8602,1.63757,1.33568,-0.0365141,-1.45461,-0.996334,1.2288,0.998786,-0.525741,-0.517511,-0.446544,-0.0564135,-0.697523,-0.512401,0.0532375,-1.12823,-0.00759895,
0.0243171,-0.197596,-0.318257,-1.66424,0.0676638,-0.197416,-0.382231,0.213435,0.0123153,0.237922,-0.0813307,1.01176,-1.14622,0.00785345,0,0,0,0,0,0,0,0.0141792,-0.197047,-0.328981,-1.66016,0.0615384,1.41869,0.402377,0.063735,-0.00214827,0.0892351,0.000487084,0.670681,-0.592921,7.70816e-05,2.08637,-24.7389,4.18641,24.8602,1.63757,1.33568,-0.0365141,-1.45461,-0.996334,1.2288,0.998786,-0.525741,-0.517511,-0.446544,-0.0564135,-0.697523,-0.512401,0.0532375,-1.12823,-0.00759895,
0.0251748,-0.197539,-0.317301,-1.66457,0.0717324,-0.201922,-0.3822,0.214428,0.0142193,0.239084,-0.0815824,1.01713,-1.1266,0.00769868,0,0,0,0,0,0,0,0.0141792,-0.197047,-0.328981,-1.66016,0.0615384,1.41869,0.402377,0.063735,-0.00214827,0.0892351,0.000487084,0.670681,-0.592921,7.70816e-05,2.08637,-24.7389,4.18641,24.8602,1.63757,1.33568,-0.0365141,-1.92364,-0.721779,1.21542,0.91763,-0.881164,-0.466575,-0.391809,-0.25675,-0.652135,-0.50055,0.177879,-1.17115,-0.00735905,
0.0260355,-0.197475,-0.316341,-1.66489,0.0758189,-0.206349,-0.38217,0.215185,0.0159152,0.240001,-0.0816127,1.02163,-1.10669,0.00754837,0,0,0,0,0,0,0,0.0141792,-0.197047,-0.328981,-1.66016,0.0615384,1.41869,0.402377,0.063735,-0.00214827,0.0892351,0.000487084,0.670681,-0.592921,7.70816e-05,2.08637,-24.7389,4.18641,24.8602,1.63757,1.33568,-0.0365141,-1.92364,-0.721779,1.21542,0.91763,-0.881164,-0.466575,-0.391809,-0.25675,-0.652135,-0.50055,0.177879,-1.17115,-0.00735905,
0.0268984,-0.197406,-0.315378,-1.66522,0.0799203,-0.210696,-0.38214,0.215729,0.0174126,0.240697,-0.0814627,1.02536,-1.08665,0.00740189,0,0,0,0,0,0,0,0.0175927,-0.197066,-0.324437,-1.66042,0.0879686,1.39349,0.402375,0.0906888,0.00199301,0.132256,-0.0085673,0.616605,-0.6358,-0.000478606,1.83246,-24.6358,3.83729,24.5111,2.51739,1.43548,-0.0227812,-1.09275,-0.501873,0.608906,0.972276,-0.00541617,-0.23301,-0.170336,0.340301,-0.43955,-0.871917,0.313949,-1.21911,-0.00553472,
0.0277628,-0.197331,-0.314413,-1.66554,0.0840339,-0.214962,-0.382111,0.216083,0.018724,0.241197,-0.0811648,1.0284,-1.06655,0.00725756,0,0,0,0,0,0,0,0.0175927,-0.197066,-0.324437,-1.66042,0.0879686,1.39349,0.402375,0.0906888,0.00199301,0.132256,-0.0085673,0.616605,-0.6358,-0.000478606,1.83246,-24.6358,3.83729,24.5111,2.51739,1.43548,-0.0227812,-1.21705,0.162509,0.823802,0.59466,-0.26541,0.0350222,0.0850244,0.124515,-0.134769,-0.739422,0.508158,-1.19238,-0.00543159,
0.0286278,-0.197251,-0.313447,-1.66587,0.0881573,-0.219148,-0.382082,0.216266,0.0198642,0.241517,-0.0807447,1.03085,-1.04649,0.00711784,0,0,0,0,0,0,0,0.0175927,-0.197066,-0.324437,-1.66042,0.0879686,1.39349,0.402375,0.0906888,0.00199301,0.132256,-0.0085673,0.616605,-0.6358,-0.000478606,1.83246,-24.6358,3.83729,24.5111,2.51739,1.43548,-0.0227812,-1.21705,0.162509,0.823802,0.59466,-0.26541,0.0350222,0.0850244,0.124515,-0.134769,-0.739422,0.508158,-1.19238,-0.00543159,
0.029493,-0.197168,-0.312481,-1.66619,0.0922883,-0.223254,-0.382055,0.216297,0.0208481,0.241678,-0.0802237,1.03276,-1.02651,0.00698084,0,0,0,0,0,0,0,0.0175927,-0.197066,-0.324437,-1.66042,0.0879686,1.39349,0.402375,0.0906888,0.00199301,0.132256,-0.0085673,0.616605,-0.6358,-0.000478606,1.83246,-24.6358,3.83729,24.5111,2.51739,1.43548,-0.0227812,-1.18633,1.00796,0.650127,0.135327,-0.295435,0.399783,0.448105,0.0869833,0.259223,-0.736079,0.714601,-1.13402,-0.00650585,
0.0303578,-0.197081,-0.311514,-1.66651,0.0964251,-0.22728,-0.382027,0.21619,0.0216905,0.241696,-0.0796186,1.03419,-1.00666,0.00684744,0,0,0,0,0,0,0,0.0175927,-0.197066,-0.324437,-1.66042,0.0879686,1.39349,0.402375,0.0906888,0.00199301,0.132256,-0.0085673,0.616605,-0.6358,-0.000478606,1.83246,-24.6358,3.83729,24.5111,2.51739,1.43548,-0.0227812,-1.18633,1.00796,0.650127,0.135327,-0.295435,0.399783,0.448105,0.0869833,0.259223,-0.736079,0.714601,-1.13402,-0.00650585,
0.0126045,-0.197436,-0.331389,-1.66078,0.00504565,-0.118921,-0.382859,0.180843,-0.0561345,0.19408,-0.065033,0.574327,-0.738485,0.0136789,0,0,0,0,0,0,0,0.0175927,-0.197066,-0.324437,-1.66042,0.0879686,1.39349,0.402375,0.0906888,0.00199301,0.132256,-0.0085673,0.616605,-0.6358,-0.000478606,1.83246,-24.6358,3.83729,24.5111,2.51739,1.43548,-0.0227812,-1.0756,0.791098,0.0922091,0.4714,-0.0534855,0.302633,0.368785,0.285033,0.0966491,-0.933489,0.810357,-1.10136,-0.00639003,
0.0199729,-0.197505,-0.321843,-1.66127,0.0949877,-0.186965,-0.382863,0.231481,-0.0421149,0.254957,-0.0845287,0.595263,-0.888703,0.0129259,0,0,0,0,0,0,0,0.0207007,-0.197028,-0.31995,-1.66091,0.107978,1.37196,0.402377,0.104362,0.000512222,0.149444,-0.0204233,0.609371,-0.654543,0.000429539,1.72931,-24.9373,3.41279,24.761,2.79205,1.94543,-0.0365141,-1.0756,0.791098,0.0922091,0.4714,-0.0534855,0.302633,0.368785,0.285033,0.0966491,-0.933489,0.810357,-1.10136,-0.00639003,
0.0209961,-0.197671,-0.320709,-1.66164,0.0974758,-0.190799,-0.382813,0.2558,-0.0413982,0.283671,-0.0911455,0.622017,-0.95872,0.0123732,0,0,0,0,0,0,0,0.0207007,-0.197028,-0.31995,-1.66091,0.107978,1.37196,0.402377,0.104362,0.000512222,0.149444,-0.0204233,0.609371,-0.654543,0.000429539,1.72931,-24.9373,3.41279,24.761,2.79205,1.94543,-0.0365141,-1.75821,0.929625,0.401218,0.366751,-0.80497,0.238343,0.313458,-0.239167,0.0394309,-0.642623,0.884374,-1.0068,-0.00670552,
0.0220991,-0.197826,-0.319481,-1.66202,0.100093,-0.19487,-0.382765,0.275749,-0.0389126,0.306972,-0.0964572,0.654185,-1.01751,0.0118927,0,0,0,0,0,0,0,0.0207007,-0.197028,-0.31995,-1.66091,0.107978,1.37196,0.402377,0.104362,0.000512222,0.149444,-0.0204233,0.609371,-0.654543,0.000429539,1.72931,-24.9373,3.41279,24.761,2.79205,1.94543,-0.0365141,-1.10264,2.37714,-0.0448726,-0.582262,-0.245631,0.969677,1.03131,0.112472,0.85776,-0.79596,1.04063,-0.942362,-0.00811588,
0.0232683,-0.197968,-0.318177,-1.66243,0.102847,-0.199135,-0.38272,0.292288,-0.0355,0.326084,-0.101067,0.688563,-1.06647,0.0114623,0,0,0,0,0,0,0,0.0207007,-0.197028,-0.31995,-1.66091,0.107978,1.37196,0.402377,0.104362,0.000512222,0.149444,-0.0204233,0.609371,-0.654543,0.000429539,1.72931,-24.9373,3.41279,24.761,2.79205,1.94543,-0.0365141,-1.10264,2.37714,-0.0448726,-0.582262,-0.245631,0.969677,1.03131,0.112472,0.85776,-0.79596,1.04063,-0.942362,-0.00811588,
0.0244928,-0.198095,-0.316809,-1.66285,0.105739,-0.203556,-0.382675,0.306119,-0.0317441,0.341932,-0.10552,0.723092,-1.10519,0.0110817,0,0,0,0,0,0,0,0.0207007,-0.197028,-0.31995,-1.66091,0.107978,1.37196,0.402377,0.104362,0.000512222,0.149444,-0.0204233,0.609371,-0.654543,0.000429539,1.72931,-24.9373,3.41279,24.761,2.79205,1.94543,-0.0365141,-1.87873,1.43918,-0.126712,-0.0563543,-0.848194,0.413636,0.460117,-0.235962,0.284913,-0.646,0.840468,-0.835271,-0.00368141,
0.0257642,-0.19821,-0.315388,-1.6633,0.108765,-0.208054,-0.382632,0.317867,-0.0285283,0.355327,-0.111712,0.75647,-1.12453,0.0107943,0,0,0,0,0,0,0,0.0244723,-0.197069,-0.315266,-1.66183,0.122544,1.35354,0.402378,0.134263,-0.0158594,0.165006,-0.0322469,0.382012,-0.56507,-0.000567769,2.89569,-24.9135,4.78547,24.5865,1.56433,2.05804,-0.0301054,-1.87873,1.43918,-0.126712,-0.0563543,-0.848194,0.413636,0.460117,-0.235962,0.284913,-0.646,0.840468,-0.835271,-0.00368141,
0.0270755,-0.198309,-0.313921,-1.66377,0.111917,-0.21259,-0.38259,0.327804,-0.0248603,0.366518,-0.116824,0.787925,-1.13391,0.0104868,0,0,0,0,0,0,0,0.0244723,-0.197069,-0.315266,-1.66183,0.122544,1.35354,0.402378,0.134263,-0.0158594,0.165006,-0.0322469,0.382012,-0.56507,-0.000567769,2.89569,-24.9135,4.78547,24.5865,1.56433,2.05804,-0.0301054,-1.79527,0.434751,-0.20909,0.408456,-0.782001,-0.013444,0.0524649,-0.202772,-0.175832,-0.573071,0.530336,-0.705482,-0.00391505,
0.0284204,-0.198394,-0.312418,-1.66425,0.115185,-0.217119,-0.382549,0.336229,-0.0211619,0.375968,-0.121514,0.817007,-1.1323,0.0101971,0,0,0,0,0,0,0,0.0244723,-0.197069,-0.315266,-1.66183,0.122544,1.35354,0.402378,0.134263,-0.0158594,0.165006,-0.0322469,0.382012,-0.56507,-0.000567769,2.89569,-24.9135,4.78547,24.5865,1.56433,2.05804,-0.0301054,-1.36898,0.633207,-0.168237,0.209759,-0.559124,0.128797,0.178815,-0.118093,0.00248028,-0.505673,0.525044,-0.60673,-0.00536093,
0.029794,-0.198464,-0.310882,-1.66476,0.118559,-0.221595,-0.38251,0.343401,-0.017634,0.383993,-0.126087,0.843505,-1.11885,0.00994935,0,0,0,0,0,0,0,0.0244723,-0.197069,-0.315266,-1.66183,0.122544,1.35354,0.402378,0.134263,-0.0158594,0.165006,-0.0322469,0.382012,-0.56507,-0.000567769,2.89569,-24.9135,4.78547,24.5865,1.56433,2.05804,-0.0301054,-1.36898,0.633207,-0.168237,0.209759,-0.559124,0.128797,0.178815,-0.118093,0.00248028,-0.505673,0.525044,-0.60673,-0.00536093,
0.0311917,-0.19852,-0.309319,-1.66527,0.122028,-0.225991,-0.382471,0.349443,-0.0139305,0.390726,-0.129457,0.867378,-1.09905,0.00970661,0,0,0,0,0,0,0,0.0244723,-0.197069,-0.315266,-1.66183,0.122544,1.35354,0.402378,0.134263,-0.0158594,0.165006,-0.0322469,0.382012,-0.56507,-0.000567769,2.89569,-24.9135,4.78547,24.5865,1.56433,2.05804,-0.0301054,-1.07113,0.869044,-0.018116,0.0295807,-0.401295,0.27943,0.309286,-0.0557836,0.186787,-0.472269,0.558997,-0.598754,-0.00667171,
0.0326097,-0.198561,-0.307733,-1.6658,0.125583,-0.230293,-0.382433,0.354482,-0.0101629,0.396351,-0.131643,0.888686,-1.07564,0.00947054,0,0,0,0,0,0,0,0.0288888,-0.197221,-0.310104,-1.66307,0.134011,1.33675,0.402375,0.155607,-0.0122286,0.184371,-0.0453718,0.407506,-0.588548,-0.000410095,2.82032,-24.5882,4.68629,24.6381,2.35901,1.64055,-0.00996382,-1.07113,0.869044,-0.018116,0.0295807,-0.401295,0.27943,0.309286,-0.0557836,0.186787,-0.472269,0.558997,-0.598754,-0.00667171,
0.0340442,-0.198587,-0.306129,-1.66633,0.129213,-0.234494,-0.382396,0.358642,-0.0064897,0.401024,-0.132887,0.907564,-1.05018,0.00924369,0,0,0,0,0,0,0,0.0288888,-0.197221,-0.310104,-1.66307,0.134011,1.33675,0.402375,0.155607,-0.0122286,0.184371,-0.0453718,0.407506,-0.588548,-0.000410095,2.82032,-24.5882,4.68629,24.6381,2.35901,1.64055,-0.00996382,-1.81019,0.104984,-0.233421,0.46856,-0.805018,-0.149419,-0.102328,-0.220657,-0.283297,-0.504201,0.355163,-0.624986,-0.00630829,
0.0354924,-0.198599,-0.30451,-1.66687,0.13291,-0.238588,-0.38236,0.362035,-0.0030265,0.404873,-0.133424,0.924181,-1.02359,0.00902463,0,0,0,0,0,0,0,0.0288888,-0.197221,-0.310104,-1.66307,0.134011,1.33675,0.402375,0.155607,-0.0122286,0.184371,-0.0453718,0.407506,-0.588548,-0.000410095,2.82032,-24.5882,4.68629,24.6381,2.35901,1.64055,-0.00996382,-1.81019,0.104984,-0.233421,0.46856,-0.805018,-0.149419,-0.102328,-0.220657,-0.283297,-0.504201,0.355163,-0.624986,-0.00630829,
0.0369514,-0.198598,-0.302878,-1.6674,0.136665,-0.242574,-0.382325,0.364757,0.000160493,0.408003,-0.133438,0.938726,-0.99645,0.00881822,0,0,0,0,0,0,0,0.0288888,-0.197221,-0.310104,-1.66307,0.134011,1.33675,0.402375,0.155607,-0.0122286,0.184371,-0.0453718,0.407506,-0.588548,-0.000410095,2.82032,-24.5882,4.68629,24.6381,2.35901,1.64055,-0.00996382,-1.82972,-1.2022,-0.824725,1.33635,-0.55118,-0.728981,-0.673677,0.0245191,-0.944679,-0.715901,0.120756,-0.594149,-0.00570457,
0.038419,-0.198586,-0.301236,-1.66793,0.14047,-0.246451,-0.38229,0.366889,0.0030417,0.410504,-0.133063,0.95139,-0.969129,0.00862063,0,0,0,0,0,0,0,0.0288888,-0.197221,-0.310104,-1.66307,0.134011,1.33675,0.402375,0.155607,-0.0122286,0.184371,-0.0453718,0.407506,-0.588548,-0.000410095,2.82032,-24.5882,4.68629,24.6381,2.35901,1.64055,-0.00996382,-2.28576,-0.695696,-0.93562,0.95304,-0.781016,-0.538225,-0.488531,-0.0476115,-0.710169,-0.778375,0.105748,-0.681242,-0.00834803,
0.039893,-0.198563,-0.299586,-1.66846,0.14432,-0.250218,-0.382256,0.368502,0.00561239,0.41245,-0.132396,0.962356,-0.941862,0.0084314,0,0,0,0,0,0,0,0.0288888,-0.197221,-0.310104,-1.66307,0.134011,1.33675,0.402375,0.155607,-0.0122286,0.184371,-0.0453718,0.407506,-0.588548,-0.000410095,2.82032,-24.5882,4.68629,24.6381,2.35901,1.64055,-0.00996382,-2.28576,-0.695696,-0.93562,0.95304,-0.781016,-0.538225,-0.488531,-0.0476115,-0.710169,-0.778375,0.105748,-0.681242,-0.00834803,
0.0413716,-0.198532,-0.29793,-1.66899,0.148207,-0.253877,-0.382223,0.369656,0.00788243,0.413908,-0.131506,0.971797,-0.914799,0.00825068,0,0,0,0,0,0,0,0.0345113,-0.19729,-0.302687,-1.6646,0.151951,1.31686,0.402383,0.178997,-0.000368343,0.225803,-0.0488074,0.56336,-0.563595,0.000588857,2.72113,-25.0365,4.48793,24.6619,2.79846,1.20934,-0.050247,-2.10698,0.48038,-0.937028,0.215363,-0.554489,0.0441983,0.0914478,0.130349,-0.0704265,-0.923861,0.267897,-0.827476,-0.010979,
0.0428532,-0.198492,-0.296271,-1.66951,0.152127,-0.257429,-0.382191,0.370406,0.00987001,0.414935,-0.130445,0.979873,-0.88803,0.00807924,0,0,0,0,0,0,0,0.0345113,-0.19729,-0.302687,-1.6646,0.151951,1.31686,0.402383,0.178997,-0.000368343,0.225803,-0.0488074,0.56336,-0.563595,0.000588857,2.72113,-25.0365,4.48793,24.6619,2.79846,1.20934,-0.050247,-2.10698,0.48038,-0.937028,0.215363,-0.554489,0.0441983,0.0914478,0.130349,-0.0704265,-0.923861,0.267897,-0.827476,-0.010979,
0.0443364,-0.198446,-0.294608,-1.67003,0.156073,-0.260876,-0.382159,0.370799,0.0115977,0.415579,-0.12925,0.98673,-0.861614,0.00791612,0,0,0,0,0,0,0,0.0345113,-0.19729,-0.302687,-1.6646,0.151951,1.31686,0.402383,0.178997,-0.000368343,0.225803,-0.0488074,0.56336,-0.563595,0.000588857,2.72113,-25.0365,4.48793,24.6619,2.79846,1.20934,-0.050247,-2.79213,-0.0829961,-0.361238,0.585486,-1.30283,-0.301078,-0.245914,-0.397614,-0.447729,-0.629351,0.27132,-0.815363,-0.00803904,
0.0458199,-0.198394,-0.292945,-1.67054,0.160043,-0.264218,-0.382128,0.370877,0.0130892,0.415887,-0.127951,0.992501,-0.835583,0.00775795,0,0,0,0,0,0,0,0.0345113,-0.19729,-0.302687,-1.6646,0.151951,1.31686,0.402383,0.178997,-0.000368343,0.225803,-0.0488074,0.56336,-0.563595,0.000588857,2.72113,-25.0365,4.48793,24.6619,2.79846,1.20934,-0.050247,-2.96185,-0.609892,-0.64055,1.02902,-1.31862,-0.562951,-0.498184,-0.369487,-0.764989,-0.724254,0.268114,-0.811786,-0.00876096,
0.0473026,-0.198336,-0.291281,-1.67104,0.164033,-0.267458,-0.382098,0.370676,0.0143685,0.415896,-0.126569,0.997306,-0.809959,0.0076078,0,0,0,0,0,0,0,0.0345113,-0.19729,-0.302687,-1.6646,0.151951,1.31686,0.402383,0.178997,-0.000368343,0.225803,-0.0488074,0.56336,-0.563595,0.000588857,2.72113,-25.0365,4.48793,24.6619,2.79846,1.20934,-0.050247,-2.96185,-0.609892,-0.64055,1.02902,-1.31862,-0.562951,-0.498184,-0.369487,-0.764989,-0.724254,0.268114,-0.811786,-0.00876096,
0.0487836,-0.198274,-0.289618,-1.67154,0.168038,-0.270597,-0.382068,0.37023,0.0154587,0.415642,-0.125121,1.00125,-0.784748,0.00746295,0,0,0,0,0,0,0,0.0408722,-0.197258,-0.295282,-1.66632,0.169907,1.30095,0.402376,0.227962,0.00727697,0.252078,-0.059195,0.584626,-0.479744,-0.00153034,1.95942,-25.3618,3.66273,24.8087,3.23791,1.40893,0.017502,-2.48561,-0.359127,-0.906075,1.03351,-0.832042,-0.395014,-0.330129,-0.0475233,-0.620075,-0.933567,0.432627,-0.863084,-0.00709223,
0.0502618,-0.198209,-0.287958,-1.67204,0.172055,-0.273637,-0.382039,0.369567,0.0163808,0.415154,-0.123621,1.00444,-0.759956,0.00732433,0,0,0,0,0,0,0,0.0408722,-0.197258,-0.295282,-1.66632,0.169907,1.30095,0.402376,0.227962,0.00727697,0.252078,-0.059195,0.584626,-0.479744,-0.00153034,1.95942,-25.3618,3.66273,24.8087,3.23791,1.40893,0.017502,-2.48561,-0.359127,-0.906075,1.03351,-0.832042,-0.395014,-0.330129,-0.0475233,-0.620075,-0.933567,0.432627,-0.863084,-0.00709223,
0.0517367,-0.19814,-0.2863,-1.67253,0.176083,-0.276579,-0.38201,0.368714,0.0171547,0.414461,-0.122081,1.00695,-0.735583,0.00719098,0,0,0,0,0,0,0,0.0408722,-0.197258,-0.295282,-1.66632,0.169907,1.30095,0.402376,0.227962,0.00727697,0.252078,-0.059195,0.584626,-0.479744,-0.00153034,1.95942,-25.3618,3.66273,24.8087,3.23791,1.40893,0.017502,-2.50407,0.328473,-0.716975,0.646173,-0.952795,-0.093502,-0.0295387,-0.156858,-0.291561,-0.861234,0.613908,-0.871202,-0.0124596,
0.0532074,-0.198069,-0.284646,-1.67301,0.180119,-0.279426,-0.381982,0.367692,0.0177981,0.413587,-0.12051,1.00886,-0.711625,0.00706243,0,0,0,0,0,0,0,0.0408722,-0.197258,-0.295282,-1.66632,0.169907,1.30095,0.402376,0.227962,0.00727697,0.252078,-0.059195,0.584626,-0.479744,-0.00153034,1.95942,-25.3618,3.66273,24.8087,3.23791,1.40893,0.017502,-1.72876,1.5256,-0.833922,-0.0586065,-0.40899,0.519267,0.588163,0.14076,0.362344,-0.938439,0.852969,-0.827916,-0.0149267,
0.0206028,-0.197802,-0.32119,-1.66174,0.0939288,-0.186361,-0.382875,0.301429,-0.0705727,0.330861,-0.131499,0.485094,-0.812814,0.012013,0,0,0,0,0,0,0,0.0408722,-0.197258,-0.295282,-1.66632,0.169907,1.30095,0.402376,0.227962,0.00727697,0.252078,-0.059195,0.584626,-0.479744,-0.00153034,1.95942,-25.3618,3.66273,24.8087,3.23791,1.40893,0.017502,-1.72876,1.5256,-0.833922,-0.0586065,-0.40899,0.519267,0.588163,0.14076,0.362344,-0.938439,0.852969,-0.827916,-0.0149267,
0.0447913,-0.197639,-0.290959,-1.66784,0.176573,-0.277017,-0.382887,0.362874,-0.0377001,0.4034,-0.141015,0.565002,-0.651082,0.0111962,0,0,0,0,0,0,0,0.05021,-0.197163,-0.283717,-1.66878,0.193422,1.28332,0.402382,0.228419,0.00183754,0.282987,-0.0555226,0.543022,-0.383379,-0.000348872,1.70551,-25.6117,3.16286,24.6857,2.96325,1.74035,-0.0365141,-1.58851,2.3038,-0.904779,-0.497296,-0.309547,0.870216,0.948169,0.200772,0.733177,-0.974798,1.02088,-0.827794,-0.0133621,
0.0463497,-0.197787,-0.289219,-1.66843,0.178939,-0.279777,-0.382844,0.389619,-0.0368617,0.435055,-0.147908,0.591434,-0.690041,0.0108591,0,0,0,0,0,0,0,0.05021,-0.197163,-0.283717,-1.66878,0.193422,1.28332,0.402382,0.228419,0.00183754,0.282987,-0.0555226,0.543022,-0.383379,-0.000348872,1.70551,-25.6117,3.16286,24.6857,2.96325,1.74035,-0.0365141,-1.58851,2.3038,-0.904779,-0.497296,-0.309547,0.870216,0.948169,0.200772,0.733177,-0.974798,1.02088,-0.827794,-0.0133621,
0.0479951,-0.197923,-0.287377,-1.66904,0.181433,-0.282656,-0.382802,0.411336,-0.0339885,0.46055,-0.152548,0.623699,-0.719783,0.0104977,0,0,0,0,0,0,0,0.05021,-0.197163,-0.283717,-1.66878,0.193422,1.28332,0.402382,0.228419,0.00183754,0.282987,-0.0555226,0.543022,-0.383379,-0.000348872,1.70551,-25.6117,3.16286,24.6857,2.96325,1.74035,-0.0365141,-1.83127,2.40584,-1.06996,-0.508902,-0.442909,0.876573,0.953769,0.146655,0.73597,-1.00494,1.07628,-0.820171,-0.0146198,
0.0497123,-0.198046,-0.285451,-1.66967,0.184067,-0.285583,-0.382761,0.429293,-0.030868,0.481454,-0.157831,0.65839,-0.731728,0.0102578,0,0,0,0,0,0,0,0.05021,-0.197163,-0.283717,-1.66878,0.193422,1.28332,0.402382,0.228419,0.00183754,0.282987,-0.0555226,0.543022,-0.383379,-0.000348872,1.70551,-25.6117,3.16286,24.6857,2.96325,1.74035,-0.0365141,-1.83127,2.40584,-1.06996,-0.508902,-0.442909,0.876573,0.953769,0.146655,0.73597,-1.00494,1.07628,-0.820171,-0.0146198,
0.0514885,-0.198154,-0.283457,-1.67032,0.18684,-0.288527,-0.382721,0.444053,-0.0268725,0.49851,-0.16144,0.693348,-0.735949,0.00999321,0,0,0,0,0,0,0,0.05021,-0.197163,-0.283717,-1.66878,0.193422,1.28332,0.402382,0.228419,0.00183754,0.282987,-0.0555226,0.543022,-0.383379,-0.000348872,1.70551,-25.6117,3.16286,24.6857,2.96325,1.74035,-0.0365141,-1.80234,2.0559,-0.941707,-0.303783,-0.494973,0.714644,0.763401,0.0809698,0.584381,-0.918524,1.03943,-0.770236,-0.0126232,
0.0533134,-0.198244,-0.281407,-1.67097,0.189749,-0.291455,-0.382682,0.456241,-0.0226412,0.512526,-0.164217,0.727181,-0.731997,0.00971959,0,0,0,0,0,0,0,0.05021,-0.197163,-0.283717,-1.66878,0.193422,1.28332,0.402382,0.228419,0.00183754,0.282987,-0.0555226,0.543022,-0.383379,-0.000348872,1.70551,-25.6117,3.16286,24.6857,2.96325,1.74035,-0.0365141,-2.492,-0.304253,-1.16881,1.1713,-0.908707,-0.414569,-0.323973,-0.145968,-0.690892,-0.874478,0.651481,-0.683062,-0.0057477,
0.0551788,-0.198319,-0.27931,-1.67164,0.192785,-0.294329,-0.382644,0.466355,-0.0185892,0.524118,-0.166781,0.759028,-0.718516,0.00949567,0,0,0,0,0,0,0,0.0584705,-0.197187,-0.273804,-1.67068,0.205996,1.27284,0.402382,0.245984,-0.0027681,0.341284,-0.0582416,0.347274,-0.299408,-0.000154853,2.11017,-25.3618,3.36122,24.3365,2.80487,1.7138,-0.0365141,-2.492,-0.304253,-1.16881,1.1713,-0.908707,-0.414569,-0.323973,-0.145968,-0.690892,-0.874478,0.651481,-0.683062,-0.0057477,
0.0570775,-0.198376,-0.277176,-1.67231,0.195939,-0.29713,-0.382607,0.474653,-0.0144535,0.533625,-0.168275,0.788443,-0.700339,0.00928281,0,0,0,0,0,0,0,0.0584705,-0.197187,-0.273804,-1.67068,0.205996,1.27284,0.402382,0.245984,-0.0027681,0.341284,-0.0582416,0.347274,-0.299408,-0.000154853,2.11017,-25.3618,3.36122,24.3365,2.80487,1.7138,-0.0365141,-2.73361,-0.251035,-1.12075,1.07167,-1.12127,-0.400282,-0.285746,-0.27724,-0.679647,-0.806431,0.606859,-0.6633,-0.0077834,
0.059003,-0.198418,-0.27501,-1.67299,0.1992,-0.299849,-0.382571,0.481391,-0.0103619,0.541376,-0.168793,0.815234,-0.679703,0.00907972,0,0,0,0,0,0,0,0.0584705,-0.197187,-0.273804,-1.67068,0.205996,1.27284,0.402382,0.245984,-0.0027681,0.341284,-0.0582416,0.347274,-0.299408,-0.000154853,2.11017,-25.3618,3.36122,24.3365,2.80487,1.7138,-0.0365141,-2.73361,-0.251035,-1.12075,1.07167,-1.12127,-0.400282,-0.285746,-0.27724,-0.679647,-0.806431,0.606859,-0.6633,-0.0077834,
0.0609502,-0.198444,-0.27282,-1.67366,0.202557,-0.30248,-0.382535,0.486799,-0.00646174,0.547641,-0.168581,0.83937,-0.657766,0.00889087,0,0,0,0,0,0,0,0.0584705,-0.197187,-0.273804,-1.67068,0.205996,1.27284,0.402382,0.245984,-0.0027681,0.341284,-0.0582416,0.347274,-0.299408,-0.000154853,2.11017,-25.3618,3.36122,24.3365,2.80487,1.7138,-0.0365141,-2.34092,0.390618,-0.925418,0.626805,-0.856951,-0.048234,0.0333669,-0.130017,-0.262946,-0.824363,0.687483,-0.720524,-0.00779999,
0.0629145,-0.198455,-0.270609,-1.67433,0.206001,-0.305021,-0.3825,0.491068,-0.00284965,0.552645,-0.167852,0.86092,-0.63517,0.00870924,0,0,0,0,0,0,0,0.0584705,-0.197187,-0.273804,-1.67068,0.205996,1.27284,0.402382,0.245984,-0.0027681,0.341284,-0.0582416,0.347274,-0.299408,-0.000154853,2.11017,-25.3618,3.36122,24.3365,2.80487,1.7138,-0.0365141,-2.34092,0.390618,-0.925418,0.626805,-0.856951,-0.048234,0.0333669,-0.130017,-0.262946,-0.824363,0.687483,-0.720524,-0.00779999,
0.0648919,-0.198453,-0.268383,-1.675,0.209521,-0.30747,-0.382466,0.494363,0.000427261,0.556572,-0.166759,0.880016,-0.612291,0.00854289,0,0,0,0,0,0,0,0.0673497,-0.19719,-0.263041,-1.67279,0.217866,1.26428,0.402382,0.292923,0.00393573,0.333656,-0.0634653,0.451305,-0.256542,1.10741e-05,2.46723,-25.461,3.98805,24.3365,2.56591,1.32928,-0.0429228,-2.43797,-0.0466105,-1.10765,0.775743,-0.779428,-0.2031,-0.122374,-0.0229217,-0.415913,-0.920562,0.478497,-0.762772,-0.008153,
0.0668792,-0.19844,-0.266145,-1.67566,0.213108,-0.309828,-0.382433,0.496816,0.00335607,0.559575,-0.165407,0.896822,-0.589352,0.00838701,0,0,0,0,0,0,0,0.0673497,-0.19719,-0.263041,-1.67279,0.217866,1.26428,0.402382,0.292923,0.00393573,0.333656,-0.0634653,0.451305,-0.256542,1.10741e-05,2.46723,-25.461,3.98805,24.3365,2.56591,1.32928,-0.0429228,-2.06822,-0.630827,-1.74281,1.06371,-0.191921,-0.389731,-0.316924,0.432188,-0.616513,-1.21456,0.257566,-0.775823,-0.0106024,
0.0688734,-0.198416,-0.263898,-1.67632,0.216754,-0.312094,-0.3824,0.498544,0.00594534,0.561782,-0.163866,0.911518,-0.566493,0.00824037,0,0,0,0,0,0,0,0.0673497,-0.19719,-0.263041,-1.67279,0.217866,1.26428,0.402382,0.292923,0.00393573,0.333656,-0.0634653,0.451305,-0.256542,1.10741e-05,2.46723,-25.461,3.98805,24.3365,2.56591,1.32928,-0.0429228,-2.06822,-0.630827,-1.74281,1.06371,-0.191921,-0.389731,-0.316924,0.432188,-0.616513,-1.21456,0.257566,-0.775823,-0.0106024,
0.0708719,-0.198383,-0.261644,-1.67697,0.220452,-0.314269,-0.382367,0.499641,0.00821519,0.563299,-0.162182,0.924288,-0.543802,0.0081019,0,0,0,0,0,0,0,0.0673497,-0.19719,-0.263041,-1.67279,0.217866,1.26428,0.402382,0.292923,0.00393573,0.333656,-0.0634653,0.451305,-0.256542,1.10741e-05,2.46723,-25.461,3.98805,24.3365,2.56591,1.32928,-0.0429228,-2.58635,0.158848,-1.52371,0.45763,-0.601226,-0.0394836,0.0210175,0.218891,-0.19251,-1.15133,0.289204,-0.872686,-0.0107389,
0.0728727,-0.198342,-0.259387,-1.67761,0.224193,-0.316354,-0.382335,0.500192,0.0101912,0.56422,-0.160391,0.935314,-0.521336,0.00797197,0,0,0,0,0,0,0,0.0673497,-0.19719,-0.263041,-1.67279,0.217866,1.26428,0.402382,0.292923,0.00393573,0.333656,-0.0634653,0.451305,-0.256542,1.10741e-05,2.46723,-25.461,3.98805,24.3365,2.56591,1.32928,-0.0429228,-2.58635,0.158848,-1.52371,0.45763,-0.601226,-0.0394836,0.0210175,0.218891,-0.19251,-1.15133,0.289204,-0.872686,-0.0107389,
0.0748738,-0.198295,-0.257129,-1.67824,0.227972,-0.318351,-0.382304,0.500267,0.0119012,0.564621,-0.158515,0.94477,-0.499135,0.00785221,0,0,0,0,0,0,0,0.0673497,-0.19719,-0.263041,-1.67279,0.217866,1.26428,0.402382,0.292923,0.00393573,0.333656,-0.0634653,0.451305,-0.256542,1.10741e-05,2.46723,-25.461,3.98805,24.3365,2.56591,1.32928,-0.0429228,-2.31028,0.851642,-1.58425,0.00479013,-0.320913,0.327618,0.39109,0.421848,0.205505,-1.26232,0.373756,-0.940043,-0.0130166,
0.0768735,-0.198241,-0.254871,-1.67887,0.231783,-0.32026,-0.382273,0.499926,0.0133727,0.56457,-0.156575,0.952819,-0.477226,0.00773547,0,0,0,0,0,0,0,0.0763946,-0.197205,-0.252016,-1.67503,0.234236,1.25809,0.402377,0.295966,0.00200709,0.361487,-0.073732,0.537721,-0.163226,-0.0017675,2.61798,-25.2864,3.8611,24.6103,2.99987,1.32928,0.00376909,-2.31028,0.851642,-1.58425,0.00479013,-0.320913,0.327618,0.39109,0.421848,0.205505,-1.26232,0.373756,-0.940043,-0.0130166,
0.0788704,-0.198183,-0.252614,-1.67949,0.235622,-0.322082,-0.382242,0.499224,0.0146322,0.564125,-0.154584,0.959611,-0.455633,0.00762706,0,0,0,0,0,0,0,0.0763946,-0.197205,-0.252016,-1.67503,0.234236,1.25809,0.402377,0.295966,0.00200709,0.361487,-0.073732,0.537721,-0.163226,-0.0017675,2.61798,-25.2864,3.8611,24.6103,2.99987,1.32928,0.00376909,-2.06062,0.644536,-1.46266,0.153718,-0.177794,0.265293,0.343892,0.473444,0.114582,-1.24031,0.382236,-0.929025,-0.0110743,
0.0808632,-0.19812,-0.250361,-1.6801,0.239483,-0.32382,-0.382212,0.498207,0.015704,0.563337,-0.152552,0.965286,-0.43437,0.00752323,0,0,0,0,0,0,0,0.0763946,-0.197205,-0.252016,-1.67503,0.234236,1.25809,0.402377,0.295966,0.00200709,0.361487,-0.073732,0.537721,-0.163226,-0.0017675,2.61798,-25.2864,3.8611,24.6103,2.99987,1.32928,0.00376909,-2.53076,-0.860272,-1.44262,1.23343,-0.537739,-0.471931,-0.38223,0.221271,-0.72736,-1.16928,0.298561,-0.889718,-0.00743942,
0.0828509,-0.198054,-0.248112,-1.6807,0.243363,-0.325473,-0.382183,0.496914,0.0166104,0.562249,-0.150492,0.969969,-0.41345,0.00742484,0,0,0,0,0,0,0,0.0763946,-0.197205,-0.252016,-1.67503,0.234236,1.25809,0.402377,0.295966,0.00200709,0.361487,-0.073732,0.537721,-0.163226,-0.0017675,2.61798,-25.2864,3.8611,24.6103,2.99987,1.32928,0.00376909,-2.53076,-0.860272,-1.44262,1.23343,-0.537739,-0.471931,-0.38223,0.221271,-0.72736,-1.16928,0.298561,-0.889718,-0.00743942,
0.0848324,-0.197984,-0.245868,-1.68129,0.247258,-0.327045,-0.382153,0.495381,0.0173714,0.560899,-0.148409,0.973774,-0.392883,0.00733179,0,0,0,0,0,0,0,0.0763946,-0.197205,-0.252016,-1.67503,0.234236,1.25809,0.402377,0.295966,0.00200709,0.361487,-0.073732,0.537721,-0.163226,-0.0017675,2.61798,-25.2864,3.8611,24.6103,2.99987,1.32928,0.00376909,-2.52688,-1.31278,-1.3516,1.704,-0.58118,-0.708099,-0.626254,0.146188,-1.01394,-1.13719,0.434449,-0.870065,-0.00638314,
0.0868069,-0.197912,-0.243631,-1.68188,0.251165,-0.328536,-0.382124,0.493639,0.0180052,0.559322,-0.146311,0.976805,-0.372678,0.00724162,0,0,0,0,0,0,0,0.0868368,-0.197135,-0.239485,-1.67751,0.252038,1.25435,0.402379,0.326521,0.00385888,0.416352,-0.0856417,0.541395,-0.0846921,-0.000865715,1.67774,-25.9847,2.81373,24.4635,3.47046,1.20293,-0.00996382,-2.52688,-1.31278,-1.3516,1.704,-0.58118,-0.708099,-0.626254,0.146188,-1.01394,-1.13719,0.434449,-0.870065,-0.00638314,
0.0887772,-0.197839,-0.241399,-1.68245,0.255051,-0.329947,-0.382096,0.492567,0.018291,0.557974,-0.143881,0.971383,-0.352758,0.00705813,0,0,0,0,0,0,0,0.0868368,-0.197135,-0.239485,-1.67751,0.252038,1.25435,0.402379,0.326521,0.00385888,0.416352,-0.0856417,0.541395,-0.0846921,-0.000865715,1.67774,-25.9847,2.81373,24.4635,3.47046,1.20293,-0.00996382,-2.19015,-0.174541,-1.30705,1.05205,-0.362158,-0.1784,-0.0967105,0.272849,-0.443181,-1.16754,0.682101,-0.883763,-0.00789814,
0.0907436,-0.197766,-0.239171,-1.68302,0.258889,-0.331279,-0.382069,0.491598,0.0183228,0.556891,-0.141295,0.959507,-0.333184,0.00687641,0,0,0,0,0,0,0,0.0868368,-0.197135,-0.239485,-1.67751,0.252038,1.25435,0.402379,0.326521,0.00385888,0.416352,-0.0856417,0.541395,-0.0846921,-0.000865715,1.67774,-25.9847,2.81373,24.4635,3.47046,1.20293,-0.00996382,-2.59057,0.778224,-1.18133,0.440818,-0.75322,0.223777,0.31344,0.0392149,0.00626414,-1.05743,0.834564,-0.873999,-0.0120336,
0.0452914,-0.197956,-0.290435,-1.66842,0.17582,-0.274307,-0.382893,0.417855,-0.064852,0.463254,-0.19098,0.48595,-0.353896,0.0106817,0,0,0,0,0,0,0,0.0868368,-0.197135,-0.239485,-1.67751,0.252038,1.25435,0.402379,0.326521,0.00385888,0.416352,-0.0856417,0.541395,-0.0846921,-0.000865715,1.67774,-25.9847,2.81373,24.4635,3.47046,1.20293,-0.00996382,-2.59057,0.778224,-1.18133,0.440818,-0.75322,0.223777,0.31344,0.0392149,0.00626414,-1.05743,0.834564,-0.873999,-0.0120336,
0.0921363,-0.197537,-0.233535,-1.67945,0.258497,-0.317525,-0.3829,0.475482,-0.0367125,0.535123,-0.174758,0.554989,-0.110931,0.00984161,0,0,0,0,0,0,0,0.0868368,-0.197135,-0.239485,-1.67751,0.252038,1.25435,0.402379,0.326521,0.00385888,0.416352,-0.0856417,0.541395,-0.0846921,-0.000865715,1.67774,-25.9847,2.81373,24.4635,3.47046,1.20293,-0.00996382,-2.51418,0.367111,-1.13431,0.813153,-0.723472,0.0241455,0.106884,0.0187011,-0.229524,-1.03588,0.90068,-0.844948,-0.0113446,
0.0941371,-0.197676,-0.231278,-1.68017,0.260831,-0.318022,-0.382861,0.50021,-0.0345929,0.564319,-0.180032,0.583438,-0.124049,0.00972146,0,0,0,0,0,0,0,0.0868368,-0.197135,-0.239485,-1.67751,0.252038,1.25435,0.402379,0.326521,0.00385888,0.416352,-0.0856417,0.541395,-0.0846921,-0.000865715,1.67774,-25.9847,2.81373,24.4635,3.47046,1.20293,-0.00996382,-2.51418,0.367111,-1.13431,0.813153,-0.723472,0.0241455,0.106884,0.0187011,-0.229524,-1.03588,0.90068,-0.844948,-0.0113446,
0.0962175,-0.197799,-0.228927,-1.6809,0.263294,-0.318557,-0.382823,0.520097,-0.0308024,0.587736,-0.182529,0.615643,-0.133859,0.00958949,0,0,0,0,0,0,0,0.0974728,-0.197029,-0.226785,-1.68029,0.268905,1.25323,0.402385,0.347735,0.0030759,0.414862,-0.0860163,0.550973,-0.00708846,1.35717e-05,1.27307,-25.9609,2.31386,24.6103,3.40271,1.32928,-0.050247,-1.84338,2.49556,-1.01994,-0.599949,-0.293114,1.04847,1.11935,0.292345,0.917165,-1.05981,1.16521,-0.859731,-0.0174581,
0.0983623,-0.197905,-0.2265,-1.68164,0.26589,-0.319112,-0.382785,0.536196,-0.0264751,0.606609,-0.183859,0.649089,-0.138711,0.00940942,0,0,0,0,0,0,0,0.0974728,-0.197029,-0.226785,-1.68029,0.268905,1.25323,0.402385,0.347735,0.0030759,0.414862,-0.0860163,0.550973,-0.00708846,1.35717e-05,1.27307,-25.9609,2.31386,24.6103,3.40271,1.32928,-0.050247,-1.11329,3.28247,-0.897124,-1.18779,0.184236,1.46347,1.50907,0.559508,1.4041,-1.05954,1.21372,-0.834537,-0.0173203,
0.10056,-0.197994,-0.224013,-1.68238,0.268618,-0.319656,-0.382748,0.549315,-0.0222867,0.621915,-0.18504,0.682089,-0.136013,0.00927449,0,0,0,0,0,0,0,0.0974728,-0.197029,-0.226785,-1.68029,0.268905,1.25323,0.402385,0.347735,0.0030759,0.414862,-0.0860163,0.550973,-0.00708846,1.35717e-05,1.27307,-25.9609,2.31386,24.6103,3.40271,1.32928,-0.050247,-1.11329,3.28247,-0.897124,-1.18779,0.184236,1.46347,1.50907,0.559508,1.4041,-1.05954,1.21372,-0.834537,-0.0173203,
0.102799,-0.198066,-0.221476,-1.68312,0.271473,-0.320175,-0.382712,0.559887,-0.0180664,0.634266,-0.185379,0.713605,-0.129667,0.00915012,0,0,0,0,0,0,0,0.0974728,-0.197029,-0.226785,-1.68029,0.268905,1.25323,0.402385,0.347735,0.0030759,0.414862,-0.0860163,0.550973,-0.00708846,1.35717e-05,1.27307,-25.9609,2.31386,24.6103,3.40271,1.32928,-0.050247,-2.59382,-1.58326,-1.04622,2.04024,-0.844734,-0.84804,-0.753435,-0.148826,-1.20576,-0.906354,0.655308,-0.731992,-0.00814785,
0.105072,-0.198122,-0.218899,-1.68386,0.274445,-0.32066,-0.382676,0.568328,-0.013957,0.644167,-0.184984,0.743049,-0.121296,0.00902885,0,0,0,0,0,0,0,0.0974728,-0.197029,-0.226785,-1.68029,0.268905,1.25323,0.402385,0.347735,0.0030759,0.414862,-0.0860163,0.550973,-0.00708846,1.35717e-05,1.27307,-25.9609,2.31386,24.6103,3.40271,1.32928,-0.050247,-2.59382,-1.58326,-1.04622,2.04024,-0.844734,-0.84804,-0.753435,-0.148826,-1.20576,-0.906354,0.655308,-0.731992,-0.00814785,
0.107372,-0.198162,-0.216291,-1.6846,0.277525,-0.321106,-0.38264,0.574987,-0.0100952,0.652034,-0.184063,0.770115,-0.111662,0.00892099,0,0,0,0,0,0,0,0.112961,-0.197045,-0.20818,-1.68417,0.284883,1.25368,0.402381,0.3577,-0.000102994,0.459127,-0.0936866,0.335264,0.0391873,0.000260634,1.04694,-25.8339,2.36146,24.0152,3.42102,0.87792,-0.0227812,-2.47666,-1.48489,-1.62716,1.93266,-0.532231,-0.784913,-0.65875,0.123891,-1.16218,-1.12014,0.602021,-0.715031,-0.00960549,
0.109694,-0.198189,-0.213658,-1.68533,0.280694,-0.321511,-0.382605,0.580434,-0.00663623,0.658342,-0.18266,0.79206,-0.101134,0.00878075,0,0,0,0,0,0,0,0.112961,-0.197045,-0.20818,-1.68417,0.284883,1.25368,0.402381,0.3577,-0.000102994,0.459127,-0.0936866,0.335264,0.0391873,0.000260634,1.04694,-25.8339,2.36146,24.0152,3.42102,0.87792,-0.0227812,-2.47666,-1.48489,-1.62716,1.93266,-0.532231,-0.784913,-0.65875,0.123891,-1.16218,-1.12014,0.602021,-0.715031,-0.00960549,
0.112037,-0.198205,-0.211002,-1.68605,0.283893,-0.32187,-0.382571,0.585774,-0.00387063,0.663895,-0.180493,0.7997,-0.0898527,0.0085293,0,0,0,0,0,0,0,0.112961,-0.197045,-0.20818,-1.68417,0.284883,1.25368,0.402381,0.3577,-0.000102994,0.459127,-0.0936866,0.335264,0.0391873,0.000260634,1.04694,-25.8339,2.36146,24.0152,3.42102,0.87792,-0.0227812,-2.61403,0.326895,-1.69363,0.666696,-0.538253,0.0795772,0.147279,0.237358,-0.136637,-1.22259,0.755465,-0.835883,-0.0127571,
0.114398,-0.198211,-0.208327,-1.68676,0.287087,-0.322183,-0.382537,0.59013,-0.00163308,0.668738,-0.178047,0.798507,-0.0780802,0.0083126,0,0,0,0,0,0,0,0.112961,-0.197045,-0.20818,-1.68417,0.284883,1.25368,0.402381,0.3577,-0.000102994,0.459127,-0.0936866,0.335264,0.0391873,0.000260634,1.04694,-25.8339,2.36146,24.0152,3.42102,0.87792,-0.0227812,-2.30129,1.1244,-1.39385,-0.0737041,-0.440459,0.517696,0.559557,0.285646,0.406975,-1.11358,0.672075,-0.831343,-0.0168925,
0.116772,-0.19821,-0.205636,-1.68746,0.290253,-0.322447,-0.382505,0.593448,0.000206919,0.672674,-0.175517,0.79171,-0.0660072,0.00812419,0,0,0,0,0,0,0,0.112961,-0.197045,-0.20818,-1.68417,0.284883,1.25368,0.402381,0.3577,-0.000102994,0.459127,-0.0936866,0.335264,0.0391873,0.000260634,1.04694,-25.8339,2.36146,24.0152,3.42102,0.87792,-0.0227812,-2.30129,1.1244,-1.39385,-0.0737041,-0.440459,0.517696,0.559557,0.285646,0.406975,-1.11358,0.672075,-0.831343,-0.0168925,
0.119155,-0.198203,-0.202934,-1.68816,0.293379,-0.322662,-0.382473,0.595779,0.0017437,0.675651,-0.172986,0.781285,-0.0537605,0.00795489,0,0,0,0,0,0,0,0.125169,-0.196997,-0.193749,-1.68737,0.298625,1.25534,0.402383,0.383835,0.00690463,0.466808,-0.100491,0.508624,0.0442491,0.000182935,1.88404,-26.3854,2.91292,24.3604,3.33587,0.984122,-0.0365141,-1.97806,0.398478,-1.93201,0.211317,-0.0308543,0.221417,0.260595,0.578662,0.103054,-1.26967,0.391093,-0.752345,-0.0146292,
0.121543,-0.198191,-0.200223,-1.68884,0.296452,-0.322827,-0.382442,0.597212,0.00304294,0.677703,-0.170486,0.768469,-0.0414211,0.00779831,0,0,0,0,0,0,0,0.125169,-0.196997,-0.193749,-1.68737,0.298625,1.25534,0.402383,0.383835,0.00690463,0.466808,-0.100491,0.508624,0.0442491,0.000182935,1.88404,-26.3854,2.91292,24.3604,3.33587,0.984122,-0.0365141,-1.97806,0.398478,-1.93201,0.211317,-0.0308543,0.221417,0.260595,0.578662,0.103054,-1.26967,0.391093,-0.752345,-0.0146292,
0.123935,-0.198174,-0.197507,-1.68951,0.299469,-0.322944,-0.382411,0.597846,0.00415094,0.678905,-0.168029,0.754062,-0.0290429,0.00765763,0,0,0,0,0,0,0,0.125169,-0.196997,-0.193749,-1.68737,0.298625,1.25534,0.402383,0.383835,0.00690463,0.466808,-0.100491,0.508624,0.0442491,0.000182935,1.88404,-26.3854,2.91292,24.3604,3.33587,0.984122,-0.0365141,-2.07791,-0.123358,-2.27314,0.553934,0.0682059,-0.0101787,0.0291056,0.686817,-0.160564,-1.41579,0.327992,-0.774321,-0.0128343,
0.126326,-0.198154,-0.19479,-1.69017,0.302423,-0.32301,-0.382381,0.597782,0.00510119,0.679347,-0.165615,0.738605,-0.0166664,0.00751966,0,0,0,0,0,0,0,0.125169,-0.196997,-0.193749,-1.68737,0.298625,1.25534,0.402383,0.383835,0.00690463,0.466808,-0.100491,0.508624,0.0442491,0.000182935,1.88404,-26.3854,2.91292,24.3604,3.33587,0.984122,-0.0365141,-2.07791,-0.123358,-2.27314,0.553934,0.0682059,-0.0101787,0.0291056,0.686817,-0.160564,-1.41579,0.327992,-0.774321,-0.0128343,
0.128714,-0.19813,-0.192073,-1.69083,0.305313,-0.323028,-0.382352,0.597109,0.00591972,0.67912,-0.163242,0.722504,-0.00432479,0.00739076,0,0,0,0,0,0,0,0.125169,-0.196997,-0.193749,-1.68737,0.298625,1.25534,0.402383,0.383835,0.00690463,0.466808,-0.100491,0.508624,0.0442491,0.000182935,1.88404,-26.3854,2.91292,24.3604,3.33587,0.984122,-0.0365141,-2.10322,-0.331435,-1.92778,0.717492,-0.120139,-0.113425,-0.0677503,0.493257,-0.281534,-1.24584,0.357655,-0.729752,-0.00888617,
0.131098,-0.198104,-0.18936,-1.69147,0.308138,-0.322996,-0.382323,0.595905,0.00662885,0.678305,-0.160912,0.706123,0.00795435,0.00726493,0,0,0,0,0,0,0,0.125169,-0.196997,-0.193749,-1.68737,0.298625,1.25534,0.402383,0.383835,0.00690463,0.466808,-0.100491,0.508624,0.0442491,0.000182935,1.88404,-26.3854,2.91292,24.3604,3.33587,0.984122,-0.0365141,-2.19703,-0.77285,-2.06126,1.02191,-0.174914,-0.330172,-0.269734,0.444834,-0.537052,-1.23952,0.330529,-0.673097,-0.00766396,
0.133475,-0.198075,-0.186652,-1.6921,0.310897,-0.322915,-0.382294,0.594226,0.00725093,0.676967,-0.158629,0.689892,0.0201408,0.00714222,0,0,0,0,0,0,0,0.137699,-0.196821,-0.178763,-1.69017,0.313803,1.25681,0.402386,0.412683,0.0109515,0.508689,-0.0845494,0.469319,0.04419,4.26259e-05,1.09455,-26.9844,1.98854,24.4119,2.69409,1.36223,-0.0429228,-2.19703,-0.77285,-2.06126,1.02191,-0.174914,-0.330172,-0.269734,0.444834,-0.537052,-1.23952,0.330529,-0.673097,-0.00766396,
0.135843,-0.198044,-0.183952,-1.69273,0.313595,-0.322786,-0.382266,0.592096,0.00781386,0.675143,-0.156413,0.674472,0.0322,0.00702445,0,0,0,0,0,0,0,0.137699,-0.196821,-0.178763,-1.69017,0.313803,1.25681,0.402386,0.412683,0.0109515,0.508689,-0.0845494,0.469319,0.04419,4.26259e-05,1.09455,-26.9844,1.98854,24.4119,2.69409,1.36223,-0.0429228,-2.54046,-1.11493,-1.77712,1.24418,-0.636325,-0.511367,-0.454376,0.0824665,-0.723464,-1.00015,0.313472,-0.572198,-0.00805877,
0.138201,-0.19801,-0.18126,-1.69335,0.31624,-0.32261,-0.382238,0.589441,0.00835972,0.672847,-0.154315,0.661121,0.0440897,0.00699711,0,0,0,0,0,0,0,0.137699,-0.196821,-0.178763,-1.69017,0.313803,1.25681,0.402386,0.412683,0.0109515,0.508689,-0.0845494,0.469319,0.04419,4.26259e-05,1.09455,-26.9844,1.98854,24.4119,2.69409,1.36223,-0.0429228,-2.54046,-1.11493,-1.77712,1.24418,-0.636325,-0.511367,-0.454376,0.0824665,-0.723464,-1.00015,0.313472,-0.572198,-0.00805877,
0.14055,-0.197975,-0.178578,-1.69395,0.318809,-0.322387,-0.38221,0.58719,0.00870001,0.670494,-0.151911,0.642402,0.0558881,0.00688711,0,0,0,0,0,0,0,0.137699,-0.196821,-0.178763,-1.69017,0.313803,1.25681,0.402386,0.412683,0.0109515,0.508689,-0.0845494,0.469319,0.04419,4.26259e-05,1.09455,-26.9844,1.98854,24.4119,2.69409,1.36223,-0.0429228,-2.89411,0.404125,-1.54858,0.26235,-1.07462,0.159898,0.202085,-0.169067,0.0485032,-0.815972,0.527039,-0.517806,-0.00881344,
0.142889,-0.19794,-0.175906,-1.69455,0.321289,-0.322116,-0.382183,0.584883,0.00886716,0.668188,-0.149416,0.619942,0.0675711,0.00675123,0,0,0,0,0,0,0,0.137699,-0.196821,-0.178763,-1.69017,0.313803,1.25681,0.402386,0.412683,0.0109515,0.508689,-0.0845494,0.469319,0.04419,4.26259e-05,1.09455,-26.9844,1.98854,24.4119,2.69409,1.36223,-0.0429228,-2.89411,0.404125,-1.54858,0.26235,-1.07462,0.159898,0.202085,-0.169067,0.0485032,-0.815972,0.527039,-0.517806,-0.00881344,
0.145219,-0.197904,-0.173243,-1.69514,0.323672,-0.3218,-0.382157,0.582345,0.00893126,0.665779,-0.146967,0.595812,0.0790798,0.00662896,0,0,0,0,0,0,0,0.151956,-0.196356,-0.161956,-1.69272,0.327343,1.25801,0.40238,0.440533,0.0155593,0.508242,-0.0682435,0.367021,0.0386333,-0.000355561,0.967594,-26.9606,1.56404,24.4635,3.00628,1.614,-0.0227812,-2.15966,0.305436,-1.80199,0.444645,-0.445321,0.0824722,0.106414,0.187588,-0.0517201,-0.948716,0.640017,-0.454244,-0.00891052,
0.147537,-0.197868,-0.17059,-1.69572,0.325956,-0.321438,-0.382131,0.579568,0.00894078,0.663178,-0.144599,0.571077,0.090373,0.0065173,0,0,0,0,0,0,0,0.151956,-0.196356,-0.161956,-1.69272,0.327343,1.25801,0.40238,0.440533,0.0155593,0.508242,-0.0682435,0.367021,0.0386333,-0.000355561,0.967594,-26.9606,1.56404,24.4635,3.00628,1.614,-0.0227812,-2.43933,1.39332,-2.00701,-0.286307,-0.614339,0.569246,0.589018,0.167446,0.502474,-0.96774,0.758451,-0.428559,-0.0102767,
0.0925375,-0.197743,-0.233122,-1.67978,0.2572,-0.315308,-0.382899,0.519202,-0.0537663,0.582465,-0.20032,0.40462,0.128231,0.0097777,0,0,0,0,0,0,0,0.151956,-0.196356,-0.161956,-1.69272,0.327343,1.25801,0.40238,0.440533,0.0155593,0.508242,-0.0682435,0.367021,0.0386333,-0.000355561,0.967594,-26.9606,1.56404,24.4635,3.00628,1.614,-0.0227812,-2.43933,1.39332,-2.00701,-0.286307,-0.614339,0.569246,0.589018,0.167446,0.502474,-0.96774,0.758451,-0.428559,-0.0102767,
0.158279,-0.196712,-0.154783,-1.69482,0.331605,-0.310671,-0.382902,0.558396,-0.0325666,0.634619,-0.190938,0.352639,0.203811,0.00977911,0,0,0,0,0,0,0,0.151956,-0.196356,-0.161956,-1.69272,0.327343,1.25801,0.40238,0.440533,0.0155593,0.508242,-0.0682435,0.367021,0.0386333,-0.000355561,0.967594,-26.9606,1.56404,24.4635,3.00628,1.614,-0.0227812,-2.17476,1.34988,-2.37966,-0.248435,-0.287977,0.536609,0.576409,0.397377,0.441346,-1.10469,0.767671,-0.38567,-0.0104073,
0.160605,-0.196827,-0.152136,-1.69559,0.333017,-0.309814,-0.382864,0.581419,-0.0286592,0.661817,-0.192666,0.352908,0.214147,0.00947687,0,0,0,0,0,0,0,0.151956,-0.196356,-0.161956,-1.69272,0.327343,1.25801,0.40238,0.440533,0.0155593,0.508242,-0.0682435,0.367021,0.0386333,-0.000355561,0.967594,-26.9606,1.56404,24.4635,3.00628,1.614,-0.0227812,-2.17476,1.34988,-2.37966,-0.248435,-0.287977,0.536609,0.576409,0.397377,0.441346,-1.10469,0.767671,-0.38567,-0.0104073,
0.163005,-0.196924,-0.149401,-1.69637,0.334431,-0.308917,-0.382827,0.59995,-0.024197,0.683668,-0.192693,0.35374,0.224132,0.00921028,0,0,0,0,0,0,0,0.151956,-0.196356,-0.161956,-1.69272,0.327343,1.25801,0.40238,0.440533,0.0155593,0.508242,-0.0682435,0.367021,0.0386333,-0.000355561,0.967594,-26.9606,1.56404,24.4635,3.00628,1.614,-0.0227812,-2.05444,1.07833,-1.99517,0.0114502,-0.382855,0.394666,0.424277,0.235465,0.281932,-0.925186,0.833066,-0.326703,-0.0115014,
0.165464,-0.197002,-0.146597,-1.69713,0.335849,-0.307986,-0.382791,0.614692,-0.0196473,0.701135,-0.191699,0.354475,0.23289,0.0089695,0,0,0,0,0,0,0,0.165544,-0.195925,-0.1457,-1.6948,0.336739,1.25931,0.402384,0.425078,0.00161013,0.512815,-0.0737995,0.2325,0.0587481,-0.000112944,-2.63073,-27.5835,-2.11363,24.3881,1.94336,1.95275,-0.0227812,-2.05444,1.07833,-1.99517,0.0114502,-0.382855,0.394666,0.424277,0.235465,0.281932,-0.925186,0.833066,-0.326703,-0.0115014,
0.167969,-0.197064,-0.143737,-1.69789,0.33727,-0.307024,-0.382756,0.626256,-0.0153008,0.714948,-0.190207,0.355122,0.240453,0.00873944,0,0,0,0,0,0,0,0.165544,-0.195925,-0.1457,-1.6948,0.336739,1.25931,0.402384,0.425078,0.00161013,0.512815,-0.0737995,0.2325,0.0587481,-0.000112944,-2.63073,-27.5835,-2.11363,24.3881,1.94336,1.95275,-0.0227812,-1.71713,1.92451,-2.2364,-0.627404,-0.057182,0.783884,0.778535,0.505277,0.755018,-1.02756,0.864213,-0.306985,-0.0127007,
0.170509,-0.197109,-0.140834,-1.69865,0.338696,-0.306036,-0.382722,0.635078,-0.0112776,0.725673,-0.188545,0.356471,0.247052,0.0085692,0,0,0,0,0,0,0,0.165544,-0.195925,-0.1457,-1.6948,0.336739,1.25931,0.402384,0.425078,0.00161013,0.512815,-0.0737995,0.2325,0.0587481,-0.000112944,-2.63073,-27.5835,-2.11363,24.3881,1.94336,1.95275,-0.0227812,-2.3047,-1.81591,-2.63051,1.86817,-0.357873,-0.93857,-0.885574,0.182774,-1.22066,-1.05551,0.481051,-0.223529,-0.00744555,
0.173076,-0.197139,-0.137899,-1.69939,0.340125,-0.305024,-0.382688,0.641731,-0.00765418,0.733883,-0.186764,0.357243,0.252961,0.00848904,0,0,0,0,0,0,0,0.165544,-0.195925,-0.1457,-1.6948,0.336739,1.25931,0.402384,0.425078,0.00161013,0.512815,-0.0737995,0.2325,0.0587481,-0.000112944,-2.63073,-27.5835,-2.11363,24.3881,1.94336,1.95275,-0.0227812,-2.3047,-1.81591,-2.63051,1.86817,-0.357873,-0.93857,-0.885574,0.182774,-1.22066,-1.05551,0.481051,-0.223529,-0.00744555,
0.175666,-0.197158,-0.134937,-1.70013,0.341517,-0.30399,-0.382655,0.647539,-0.0046485,0.740456,-0.184396,0.348173,0.258525,0.00830112,0,0,0,0,0,0,0,0.165544,-0.195925,-0.1457,-1.6948,0.336739,1.25931,0.402384,0.425078,0.00161013,0.512815,-0.0737995,0.2325,0.0587481,-0.000112944,-2.63073,-27.5835,-2.11363,24.3881,1.94336,1.95275,-0.0227812,-2.68975,-1.41355,-2.71736,1.54177,-0.637509,-0.72944,-0.649871,0.0613321,-0.996612,-1.03035,0.477921,-0.211882,-0.00776072,
0.178273,-0.197167,-0.131954,-1.70086,0.342854,-0.302934,-0.382622,0.651856,-0.00216924,0.745663,-0.181967,0.334033,0.26389,0.00812937,0,0,0,0,0,0,0,0.179737,-0.195996,-0.128544,-1.69749,0.34227,1.26294,0.402384,0.468254,-0.00667922,0.557303,-0.0884254,0.147385,0.159414,0.00137563,1.4278,-26.5599,2.08772,24.3604,3.05481,1.70006,-0.0429228,-2.68975,-1.41355,-2.71736,1.54177,-0.637509,-0.72944,-0.649871,0.0613321,-0.996612,-1.03035,0.477921,-0.211882,-0.00776072,
0.180893,-0.197167,-0.128956,-1.70158,0.344123,-0.301858,-0.38259,0.654796,-9.99694e-05,0.749497,-0.179614,0.317287,0.269117,0.00797907,0,0,0,0,0,0,0,0.179737,-0.195996,-0.128544,-1.69749,0.34227,1.26294,0.402384,0.468254,-0.00667922,0.557303,-0.0884254,0.147385,0.159414,0.00137563,1.4278,-26.5599,2.08772,24.3604,3.05481,1.70006,-0.0429228,-2.71505,0.464358,-2.92778,0.185299,-0.567386,0.160338,0.195887,0.26822,0.0509,-1.13333,0.597038,-0.252368,-0.00873417,
0.183519,-0.19716,-0.125948,-1.70229,0.34532,-0.300761,-0.382559,0.656532,0.00165228,0.752056,-0.177353,0.299237,0.274248,0.00784343,0,0,0,0,0,0,0,0.179737,-0.195996,-0.128544,-1.69749,0.34227,1.26294,0.402384,0.468254,-0.00667922,0.557303,-0.0884254,0.147385,0.159414,0.00137563,1.4278,-26.5599,2.08772,24.3604,3.05481,1.70006,-0.0429228,-2.42965,0.994456,-2.88266,-0.288236,-0.43459,0.412719,0.40931,0.360385,0.386793,-1.08747,0.548314,-0.203158,-0.0114287,
0.186148,-0.197148,-0.122934,-1.70299,0.346442,-0.299644,-0.382528,0.657237,0.0031537,0.753485,-0.175168,0.280572,0.27932,0.0077118,0,0,0,0,0,0,0,0.179737,-0.195996,-0.128544,-1.69749,0.34227,1.26294,0.402384,0.468254,-0.00667922,0.557303,-0.0884254,0.147385,0.159414,0.00137563,1.4278,-26.5599,2.08772,24.3604,3.05481,1.70006,-0.0429228,-2.42965,0.994456,-2.88266,-0.288236,-0.43459,0.412719,0.40931,0.360385,0.386793,-1.08747,0.548314,-0.203158,-0.0114287,
0.188776,-0.19713,-0.119918,-1.70368,0.347489,-0.298506,-0.382498,0.65707,0.00445082,0.75394,-0.173038,0.261664,0.284362,0.00759636,0,0,0,0,0,0,0,0.179737,-0.195996,-0.128544,-1.69749,0.34227,1.26294,0.402384,0.468254,-0.00667922,0.557303,-0.0884254,0.147385,0.159414,0.00137563,1.4278,-26.5599,2.08772,24.3604,3.05481,1.70006,-0.0429228,-1.88324,0.473661,-3.21444,-0.0944224,0.0237986,0.158217,0.147007,0.627254,0.129283,-1.18103,0.358314,-0.115277,-0.00977196,
0.191401,-0.197108,-0.116904,-1.70436,0.348459,-0.297349,-0.382468,0.656173,0.00557682,0.753569,-0.170942,0.242717,0.289391,0.00747816,0,0,0,0,0,0,0,0.179737,-0.195996,-0.128544,-1.69749,0.34227,1.26294,0.402384,0.468254,-0.00667922,0.557303,-0.0884254,0.147385,0.159414,0.00137563,1.4278,-26.5599,2.08772,24.3604,3.05481,1.70006,-0.0429228,-1.88324,0.473661,-3.21444,-0.0944224,0.0237986,0.158217,0.147007,0.627254,0.129283,-1.18103,0.358314,-0.115277,-0.00977196,
0.194019,-0.197081,-0.113894,-1.70504,0.349355,-0.296171,-0.382438,0.654665,0.00655717,0.7525,-0.168868,0.223867,0.294414,0.0073673,0,0,0,0,0,0,0,0.199957,-0.19599,-0.104717,-1.70107,0.348447,1.2709,0.402383,0.489382,0.00275022,0.591623,-0.0832355,0.114817,0.214483,-0.000551738,1.98322,-26.7345,2.21467,24.5865,2.8598,1.93902,-0.0163725,-1.62741,0.0417217,-3.55714,0.154315,0.348355,-0.0472609,-0.0449117,0.839883,-0.113848,-1.32524,0.30055,-0.097364,-0.0104726,
0.19663,-0.197052,-0.110891,-1.70571,0.350176,-0.294973,-0.382409,0.652644,0.0074136,0.750844,-0.166811,0.205264,0.299433,0.00725705,0,0,0,0,0,0,0,0.199957,-0.19599,-0.104717,-1.70107,0.348447,1.2709,0.402383,0.489382,0.00275022,0.591623,-0.0832355,0.114817,0.214483,-0.000551738,1.98322,-26.7345,2.21467,24.5865,2.8598,1.93902,-0.0163725,-1.52821,0.111244,-3.35478,0.131624,0.328158,-0.0183708,0.00725585,0.785377,-0.104471,-1.23923,0.337431,-0.0729319,-0.00888121,
0.199231,-0.197019,-0.107896,-1.70637,0.350925,-0.293756,-0.382381,0.650177,0.00816912,0.748678,-0.164777,0.187223,0.304432,0.00714359,0,0,0,0,0,0,0,0.199957,-0.19599,-0.104717,-1.70107,0.348447,1.2709,0.402383,0.489382,0.00275022,0.591623,-0.0832355,0.114817,0.214483,-0.000551738,1.98322,-26.7345,2.21467,24.5865,2.8598,1.93902,-0.0163725,-1.52821,0.111244,-3.35478,0.131624,0.328158,-0.0183708,0.00725585,0.785377,-0.104471,-1.23923,0.337431,-0.0729319,-0.00888121,
0.20182,-0.196984,-0.104912,-1.70702,0.351607,-0.292518,-0.382353,0.647275,0.00885661,0.746032,-0.162802,0.170539,0.309377,0.00696095,0,0,0,0,0,0,0,0.199957,-0.19599,-0.104717,-1.70107,0.348447,1.2709,0.402383,0.489382,0.00275022,0.591623,-0.0832355,0.114817,0.214483,-0.000551738,1.98322,-26.7345,2.21467,24.5865,2.8598,1.93902,-0.0163725,-1.24438,1.03685,-3.42601,-0.535813,0.547211,0.395839,0.420429,0.980146,0.365102,-1.2794,0.400375,-0.0560772,-0.010242,
0.204395,-0.196946,-0.10194,-1.70766,0.352237,-0.291261,-0.382325,0.643743,0.00953302,0.742895,-0.161011,0.15737,0.314211,0.00693847,0,0,0,0,0,0,0,0.199957,-0.19599,-0.104717,-1.70107,0.348447,1.2709,0.402383,0.489382,0.00275022,0.591623,-0.0832355,0.114817,0.214483,-0.000551738,1.98322,-26.7345,2.21467,24.5865,2.8598,1.93902,-0.0163725,-1.24438,1.03685,-3.42601,-0.535813,0.547211,0.395839,0.420429,0.980146,0.365102,-1.2794,0.400375,-0.0560772,-0.010242,
0.206957,-0.196905,-0.0989819,-1.7083,0.352798,-0.289985,-0.382298,0.640531,0.0100771,0.739618,-0.158886,0.140453,0.318982,0.0068784,0,0,0,0,0,0,0,0.21604,-0.195939,-0.0855915,-1.70365,0.350372,1.27833,0.402386,0.520176,0.00764872,0.617327,-0.079477,0.0307352,0.238592,0.000469679,-0.349545,-27.3097,-0.312487,24.3604,2.59704,1.8731,-0.0365141,-1.49988,0.0477945,-3.60574,0.136422,0.441707,-0.0429228,-0.0157662,0.886818,-0.132852,-1.32437,0.342299,-0.0551467,-0.0104712,
