PerkyPenguin/Analysis-on-Approximated-Derivatives/Code_and_Data/PaperData/Real_Robot/Scene_2/set_interval/0/trajectory.csv
Commanded Joint 0 Position,Commanded Joint 1 Position,Commanded Joint 2 Position,Commanded Joint 3 Position,Commanded Joint 4 Position,Commanded Joint 5 Position,Commanded Joint 6 Position,Commanded Joint 0 Velocity,Commanded Joint 1 Velocity,Commanded Joint 2 Velocity,Commanded Joint 3 Velocity,Commanded Joint 4 Velocity,Commanded Joint 5 Velocity,Commanded Joint 6 Velocity,Commanded Joint 0 Torque,Commanded Joint 1 Torque,Commanded Joint 2 Torque,Commanded Joint 3 Torque,Commanded Joint 4 Torque,Commanded Joint 5 Torque,Commanded Joint 6 Torque,Actual Joint 0 Position,Actual Joint 1 Position,Actual Joint 2 Position,Actual Joint 3 Position,Actual Joint 4 Position,Actual Joint 5 Position,Actual Joint 6 Position,Actual Joint 0 Velocity,Actual Joint 1 Velocity,Actual Joint 2 Velocity,Actual Joint 3 Velocity,Actual Joint 4 Velocity,Actual Joint 5 Velocity,Actual Joint 6 Velocity,Actual Joint 0 Torque,Actual Joint 1 Torque,Actual Joint 2 Torque,Actual Joint 3 Torque,Actual Joint 4 Torque,Actual Joint 5 Torque,Actual Joint 6 Torque,EE ext force 0,EE ext force 1,EE ext force 2,EE ext force 3,EE ext force 4,EE ext force 5,joint ext torque 0,joint ext torque 1,joint ext torque 2,joint ext torque 3,joint ext torque 4,joint ext torque 5,joint ext torque 6,
0.0178357,-0.0547557,0.511762,-1.55982,0.0407855,-0.0125385,0.531364,0.0109603,0.0294969,0.0153508,-0.144001,-0.0773667,0.199076,-0.00128467,0,0,0,0,0,0,0,0.0177526,-0.0548733,0.511642,-1.55838,0.0414885,1.55629,1.31678,-5.24309e-05,0.000545879,-0.00112034,0.000164854,0.00852187,0.000373687,-0.000886215,0.182071,-27.4843,-0.76079,26.8796,0.654293,3.03948,0.0980684,1.71062,1.55765,1.85467,-0.763445,0.994442,0.162998,0.160994,0.428556,0.177683,0.111948,0.185407,-0.354373,0.0838146,
0.017893,-0.0545563,0.51184,-1.56044,0.0404086,-0.0117086,0.531359,0.0143242,0.0498458,0.0194996,-0.154722,-0.0942293,0.207464,-0.00136503,0,0,0,0,0,0,0,0.0177526,-0.0548733,0.511642,-1.55838,0.0414885,1.55629,1.31678,-5.24309e-05,0.000545879,-0.00112034,0.000164854,0.00852187,0.000373687,-0.000886215,0.182071,-27.4843,-0.76079,26.8796,0.654293,3.03948,0.0980684,1.71062,1.55765,1.85467,-0.763445,0.994442,0.162998,0.160994,0.428556,0.177683,0.111948,0.185407,-0.354373,0.0838146,
0.0177505,-0.0548673,0.51164,-1.55838,0.0415585,-0.0145023,0.531384,1.03071e-06,0.000252687,3.92747e-05,4.64367e-05,0.00274287,0.000228732,8.27042e-06,0,0,0,0,0,0,0,0.0177526,-0.0548733,0.511642,-1.55838,0.0414885,1.55629,1.31678,-5.24309e-05,0.000545879,-0.00112034,0.000164854,0.00852187,0.000373687,-0.000886215,0.182071,-27.4843,-0.76079,26.8796,0.654293,3.03948,0.0980684,1.61715,1.56369,1.85118,-0.758313,0.929884,0.191603,0.188074,0.39496,0.207372,0.120492,0.197344,-0.353387,0.0845294,
0.0177507,-0.0548665,0.511641,-1.55838,0.0415669,-0.0145016,0.531384,4.05498e-05,0.000180051,9.03094e-05,2.44225e-05,0.00208706,0.000177636,4.79592e-06,0,0,0,0,0,0,0,0.0177526,-0.0548733,0.511642,-1.55838,0.0414885,1.55629,1.31678,-5.24309e-05,0.000545879,-0.00112034,0.000164854,0.00852187,0.000373687,-0.000886215,0.182071,-27.4843,-0.76079,26.8796,0.654293,3.03948,0.0980684,1.61715,1.56369,1.85118,-0.758313,0.929884,0.191603,0.188074,0.39496,0.207372,0.120492,0.197344,-0.353387,0.0845294,
0.0177509,-0.0548661,0.511641,-1.55838,0.0415732,-0.0145011,0.531384,6.34723e-05,0.000116348,0.000122123,1.21073e-05,0.00158931,0.000123202,2.52044e-06,0,0,0,0,0,0,0,0.0177539,-0.0549668,0.511643,-1.55865,0.0414172,1.55659,1.31678,-0.000768969,-0.0114697,-0.00100347,-0.0408971,0.00587074,0.0539573,-0.00123454,0.209842,-26.1354,-0.685411,24.2889,0.63049,3.00011,0.104477,1.68944,1.38045,1.93339,-0.590566,0.914371,0.0870742,0.0862193,0.35367,0.0946705,0.190976,0.184529,-0.314658,0.0845866,
0.0177512,-0.0548658,0.511642,-1.55838,0.0415781,-0.0145009,0.531384,7.52757e-05,6.09125e-05,0.000140874,6.53991e-06,0.00120858,6.94664e-05,1.06444e-06,0,0,0,0,0,0,0,0.0177539,-0.0549668,0.511643,-1.55865,0.0414172,1.55659,1.31678,-0.000768969,-0.0114697,-0.00100347,-0.0408971,0.00587074,0.0539573,-0.00123454,0.209842,-26.1354,-0.685411,24.2889,0.63049,3.00011,0.104477,0.286652,0.810779,1.41022,-0.290421,0.0532676,0.219014,0.217059,-0.0422664,0.221858,0.146072,0.179958,-0.322711,0.0844255,
0.0177515,-0.0548658,0.511642,-1.55838,0.0415817,-0.0145008,0.531384,7.97446e-05,1.28737e-05,0.000150847,5.45285e-06,0.000915017,1.88674e-05,1.65197e-07,0,0,0,0,0,0,0,0.0177539,-0.0549668,0.511643,-1.55865,0.0414172,1.55659,1.31678,-0.000768969,-0.0114697,-0.00100347,-0.0408971,0.00587074,0.0539573,-0.00123454,0.209842,-26.1354,-0.685411,24.2889,0.63049,3.00011,0.104477,0.286652,0.810779,1.41022,-0.290421,0.0532676,0.219014,0.217059,-0.0422664,0.221858,0.146072,0.179958,-0.322711,0.0844255,
0.0177519,-0.0548659,0.511643,-1.55838,0.0415845,-0.0145009,0.531384,7.94935e-05,-2.8655e-05,0.000155019,7.21551e-06,0.00068677,-2.73199e-05,-3.57352e-07,0,0,0,0,0,0,0,0.0177539,-0.0549668,0.511643,-1.55865,0.0414172,1.55659,1.31678,-0.000768969,-0.0114697,-0.00100347,-0.0408971,0.00587074,0.0539573,-0.00123454,0.209842,-26.1354,-0.685411,24.2889,0.63049,3.00011,0.104477,0.867265,1.35776,0.638885,-0.862044,0.756941,0.302809,0.296313,0.474856,0.33057,-0.18863,0.187058,-0.286195,0.0859718,
0.0177522,-0.0548661,0.511644,-1.55838,0.0415865,-0.0145012,0.531384,7.63195e-05,-6.45075e-05,0.00015545,1.06916e-05,0.000507782,-6.85929e-05,-6.27635e-07,0,0,0,0,0,0,0,0.0177539,-0.0549668,0.511643,-1.55865,0.0414172,1.55659,1.31678,-0.000768969,-0.0114697,-0.00100347,-0.0408971,0.00587074,0.0539573,-0.00123454,0.209842,-26.1354,-0.685411,24.2889,0.63049,3.00011,0.104477,0.867265,1.35776,0.638885,-0.862044,0.756941,0.302809,0.296313,0.474856,0.33057,-0.18863,0.187058,-0.286195,0.0859718,
0.0177525,-0.0548665,0.511644,-1.55838,0.041588,-0.0145016,0.531384,7.14468e-05,-9.54411e-05,0.00015356,1.51057e-05,0.000366196,-0.000104929,-7.31801e-07,0,0,0,0,0,0,0,0.0177539,-0.0549668,0.511643,-1.55865,0.0414172,1.55659,1.31678,-0.000768969,-0.0114697,-0.00100347,-0.0408971,0.00587074,0.0539573,-0.00123454,0.209842,-26.1354,-0.685411,24.2889,0.63049,3.00011,0.104477,1.84001,1.76609,0.607184,-1.18277,1.47898,0.215192,0.205124,0.876025,0.256175,-0.291049,0.169452,-0.264625,0.0863296,
0.0177527,-0.054867,0.511645,-1.55838,0.041589,-0.0145021,0.531384,6.5699e-05,-0.00012213,0.000150315,1.99393e-05,0.000253217,-0.000136585,-7.29302e-07,0,0,0,0,0,0,0,0.0177479,-0.0549777,0.511638,-1.559,0.0413392,1.5572,1.31678,0.00214098,-0.000386526,0.00235706,-0.000127117,-0.00862537,-0.000520389,-0.000545233,0.158268,-27.5597,-0.76079,27.0026,1.22833,3.27202,0.0843355,1.74523,1.56649,1.18817,-0.867936,1.15336,0.151499,0.13258,0.57728,0.18774,-0.0108986,0.175898,-0.221771,0.0856909,
0.017753,-0.0548676,0.511645,-1.55838,0.0415896,-0.0145028,0.531384,5.962e-05,-0.000145168,0.000146365,2.4854e-05,0.000162288,-0.000163963,-6.60894e-07,0,0,0,0,0,0,0,0.0177479,-0.0549777,0.511638,-1.559,0.0413392,1.5572,1.31678,0.00214098,-0.000386526,0.00235706,-0.000127117,-0.00862537,-0.000520389,-0.000545233,0.158268,-27.5597,-0.76079,27.0026,1.22833,3.27202,0.0843355,1.74523,1.56649,1.18817,-0.867936,1.15336,0.151499,0.13258,0.57728,0.18774,-0.0108986,0.175898,-0.221771,0.0856909,
0.0177532,-0.0548683,0.511646,-1.55838,0.04159,-0.0145035,0.531384,5.35601e-05,-0.000165071,0.000142139,2.96363e-05,8.84939e-05,-0.000187525,-5.54243e-07,0,0,0,0,0,0,0,0.0177479,-0.0549777,0.511638,-1.559,0.0413392,1.5572,1.31678,0.00214098,-0.000386526,0.00235706,-0.000127117,-0.00862537,-0.000520389,-0.000545233,0.158268,-27.5597,-0.76079,27.0026,1.22833,3.27202,0.0843355,1.72496,1.67461,1.05204,-0.971667,1.20255,0.206575,0.179563,0.634228,0.254083,-0.0710898,0.192244,-0.227906,0.0857698,
0.0177534,-0.054869,0.511646,-1.55838,0.0415901,-0.0145044,0.531384,4.77364e-05,-0.000182287,0.000137913,3.41584e-05,2.81284e-05,-0.000207743,-4.27881e-07,0,0,0,0,0,0,0,0.0177479,-0.0549777,0.511638,-1.559,0.0413392,1.5572,1.31678,0.00214098,-0.000386526,0.00235706,-0.000127117,-0.00862537,-0.000520389,-0.000545233,0.158268,-27.5597,-0.76079,27.0026,1.22833,3.27202,0.0843355,1.72496,1.67461,1.05204,-0.971667,1.20255,0.206575,0.179563,0.634228,0.254083,-0.0710898,0.192244,-0.227906,0.0857698,
0.0177535,-0.0548698,0.511647,-1.55838,0.04159,-0.0145053,0.531384,4.22747e-05,-0.000197202,0.000133857,3.83511e-05,-2.16224e-05,-0.000225065,-2.93994e-07,0,0,0,0,0,0,0,0.0177479,-0.0549777,0.511638,-1.559,0.0413392,1.5572,1.31678,0.00214098,-0.000386526,0.00235706,-0.000127117,-0.00862537,-0.000520389,-0.000545233,0.158268,-27.5597,-0.76079,27.0026,1.22833,3.27202,0.0843355,1.4592,1.40636,1.00988,-0.811703,1.02867,0.158908,0.132379,0.54763,0.202227,-0.0766097,0.168767,-0.254648,0.0848711,
0.0177537,-0.0548706,0.511648,-1.55838,0.0415897,-0.0145062,0.531384,3.72401e-05,-0.000210145,0.000130072,4.21835e-05,-6.29097e-05,-0.000239904,-1.60386e-07,0,0,0,0,0,0,0,0.0177532,-0.0549644,0.511643,-1.559,0.0413455,1.55724,1.31678,0.00132252,-0.00377731,-2.11379e-05,-0.00505401,-0.00862759,-0.00339205,-0.000942555,0.0828892,-27.7342,-0.812364,26.8518,1.17981,3.07244,0.110886,1.4592,1.40636,1.00988,-0.811703,1.02867,0.158908,0.132379,0.54763,0.202227,-0.0766097,0.168767,-0.254648,0.0848711,
0.0177538,-0.0548715,0.511648,-1.55838,0.0415894,-0.0145072,0.531384,3.26569e-05,-0.000221401,0.000126608,4.56504e-05,-9.739e-05,-0.000252626,-3.18589e-08,0,0,0,0,0,0,0,0.0177532,-0.0549644,0.511643,-1.559,0.0413455,1.55724,1.31678,0.00132252,-0.00377731,-2.11379e-05,-0.00505401,-0.00862759,-0.00339205,-0.000942555,0.0828892,-27.7342,-0.812364,26.8518,1.17981,3.07244,0.110886,1.31406,1.29059,1.44002,-0.621402,0.765197,0.146054,0.117439,0.329688,0.183353,0.0976592,0.174941,-0.262051,0.0864453,
0.0177539,-0.0548724,0.511649,-1.55838,0.0415889,-0.0145083,0.531384,2.85237e-05,-0.000231211,0.000123485,4.87622e-05,-0.00012635,-0.000263551,8.88189e-08,0,0,0,0,0,0,0,0.0177532,-0.0549644,0.511643,-1.559,0.0413455,1.55724,1.31678,0.00132252,-0.00377731,-2.11379e-05,-0.00505401,-0.00862759,-0.00339205,-0.000942555,0.0828892,-27.7342,-0.812364,26.8518,1.17981,3.07244,0.110886,1.56246,1.46763,1.43844,-0.778314,0.974994,0.156918,0.1231,0.458305,0.204333,0.0360636,0.166701,-0.291474,0.0864967,
0.017754,-0.0548734,0.511649,-1.55838,0.0415883,-0.0145094,0.531384,2.4823e-05,-0.000239782,0.000120701,5.1539e-05,-0.000150795,-0.000272956,2.00238e-07,0,0,0,0,0,0,0,0.0177532,-0.0549644,0.511643,-1.559,0.0413455,1.55724,1.31678,0.00132252,-0.00377731,-2.11379e-05,-0.00505401,-0.00862759,-0.00339205,-0.000942555,0.0828892,-27.7342,-0.812364,26.8518,1.17981,3.07244,0.110886,1.56246,1.46763,1.43844,-0.778314,0.974994,0.156918,0.1231,0.458305,0.204333,0.0360636,0.166701,-0.291474,0.0864967,
0.0177541,-0.0548744,0.51165,-1.55838,0.0415876,-0.0145105,0.531384,2.15278e-05,-0.000247289,0.000118242,5.4006e-05,-0.00017152,-0.000281076,3.0188e-07,0,0,0,0,0,0,0,0.0177532,-0.0549644,0.511643,-1.559,0.0413455,1.55724,1.31678,0.00132252,-0.00377731,-2.11379e-05,-0.00505401,-0.00862759,-0.00339205,-0.000942555,0.0828892,-27.7342,-0.812364,26.8518,1.17981,3.07244,0.110886,1.28703,1.41559,1.47949,-0.704713,0.748264,0.21054,0.17008,0.322134,0.261277,0.095062,0.187526,-0.277046,0.0866128,
0.0177542,-0.0548754,0.51165,-1.55838,0.0415868,-0.0145117,0.531384,1.86065e-05,-0.000253884,0.000116089,5.61906e-05,-0.000189158,-0.000288111,3.93795e-07,0,0,0,0,0,0,0,0.0177532,-0.0549644,0.511643,-1.559,0.0413455,1.55724,1.31678,0.00132252,-0.00377731,-2.11379e-05,-0.00505401,-0.00862759,-0.00339205,-0.000942555,0.0828892,-27.7342,-0.812364,26.8518,1.17981,3.07244,0.110886,1.28703,1.41559,1.47949,-0.704713,0.748264,0.21054,0.17008,0.322134,0.261277,0.095062,0.187526,-0.277046,0.0866128,
0.0177542,-0.0548764,0.51165,-1.55838,0.041586,-0.0145128,0.531384,1.60254e-05,-0.000259693,0.000114215,5.81206e-05,-0.000204215,-0.000294227,4.76382e-07,0,0,0,0,0,0,0,0.0177103,-0.0549767,0.511604,-1.55902,0.0414073,1.55725,1.31678,-0.00432926,-0.000535096,-0.00246304,-0.000333236,0.00888184,0.000572724,-0.000210129,0.562931,-27.5597,-0.387865,27.0026,0.635983,3.06603,0.0843355,0.988095,1.52928,1.5926,-0.727324,0.486169,0.346664,0.308812,0.159362,0.394093,0.174467,0.224282,-0.264947,0.0875184,
0.0177543,-0.0548775,0.511651,-1.55838,0.0415851,-0.014514,0.531384,1.37513e-05,-0.000264826,0.000112595,5.98229e-05,-0.000217102,-0.000299566,5.50237e-07,0,0,0,0,0,0,0,0.0177103,-0.0549767,0.511604,-1.55902,0.0414073,1.55725,1.31678,-0.00432926,-0.000535096,-0.00246304,-0.000333236,0.00888184,0.000572724,-0.000210129,0.562931,-27.5597,-0.387865,27.0026,0.635983,3.06603,0.0843355,1.29224,1.60319,1.30639,-0.899295,0.83945,0.295489,0.266043,0.414247,0.342723,-0.00344822,0.188502,-0.301845,0.086315,
0.0177543,-0.0548786,0.511651,-1.55838,0.0415842,-0.0145153,0.531384,1.17521e-05,-0.000269377,0.000111204,6.1323e-05,-0.000228154,-0.000304245,6.16055e-07,0,0,0,0,0,0,0,0.0177103,-0.0549767,0.511604,-1.55902,0.0414073,1.55725,1.31678,-0.00432926,-0.000535096,-0.00246304,-0.000333236,0.00888184,0.000572724,-0.000210129,0.562931,-27.5597,-0.387865,27.0026,0.635983,3.06603,0.0843355,1.29224,1.60319,1.30639,-0.899295,0.83945,0.295489,0.266043,0.414247,0.342723,-0.00344822,0.188502,-0.301845,0.086315,
0.0177544,-0.0548797,0.511652,-1.55838,0.0415833,-0.0145165,0.531384,9.99758e-06,-0.000273425,0.000110016,6.26443e-05,-0.000237645,-0.000308361,6.74568e-07,0,0,0,0,0,0,0,0.0177103,-0.0549767,0.511604,-1.55902,0.0414073,1.55725,1.31678,-0.00432926,-0.000535096,-0.00246304,-0.000333236,0.00888184,0.000572724,-0.000210129,0.562931,-27.5597,-0.387865,27.0026,0.635983,3.06603,0.0843355,1.37867,1.41805,1.17601,-0.801533,0.943134,0.187352,0.170237,0.488939,0.220982,-0.0496801,0.170731,-0.297907,0.085699,
0.0177544,-0.0548808,0.511652,-1.55838,0.0415823,-0.0145177,0.531384,8.46015e-06,-0.000277037,0.000109008,6.38083e-05,-0.000245804,-0.000311995,7.26499e-07,0,0,0,0,0,0,0,0.0177103,-0.0549767,0.511604,-1.55902,0.0414073,1.55725,1.31678,-0.00432926,-0.000535096,-0.00246304,-0.000333236,0.00888184,0.000572724,-0.000210129,0.562931,-27.5597,-0.387865,27.0026,0.635983,3.06603,0.0843355,1.37867,1.41805,1.17601,-0.801533,0.943134,0.187352,0.170237,0.488939,0.220982,-0.0496801,0.170731,-0.297907,0.085699,
0.0177545,-0.0548819,0.511653,-1.55838,0.0415813,-0.014519,0.531384,7.11455e-06,-0.000280272,0.000108159,6.48342e-05,-0.000252819,-0.000315217,7.72539e-07,0,0,0,0,0,0,0,0.0177192,-0.0550059,0.511584,-1.55901,0.0413619,1.55724,1.31678,-0.0006443,-0.00124898,-0.00173551,-0.00412171,0.00607693,-0.000542179,-0.00105127,0.158268,-27.3097,-0.836168,27.0779,0.929867,3.15209,0.110886,1.14828,1.34731,1.33637,-0.680984,0.696289,0.219919,0.217719,0.317532,0.234193,0.0610816,0.189539,-0.273225,0.0866861,
0.0177545,-0.054883,0.511653,-1.55838,0.0415802,-0.0145203,0.531384,5.93802e-06,-0.000283181,0.00010745,6.57394e-05,-0.00025885,-0.000318082,8.13333e-07,0,0,0,0,0,0,0,0.0177192,-0.0550059,0.511584,-1.55901,0.0413619,1.55724,1.31678,-0.0006443,-0.00124898,-0.00173551,-0.00412171,0.00607693,-0.000542179,-0.00105127,0.158268,-27.3097,-0.836168,27.0779,0.929867,3.15209,0.110886,1.14828,1.34731,1.33637,-0.680984,0.696289,0.219919,0.217719,0.317532,0.234193,0.0610816,0.189539,-0.273225,0.0866861,
0.0179603,-0.0551225,0.511851,-1.55814,-0.0146656,-0.0504484,0.531228,-0.0051837,0.000966026,-0.00515755,-0.00234113,-0.335876,-0.216911,-0.000698096,0,0,0,0,0,0,0,0.0177192,-0.0550059,0.511584,-1.55901,0.0413619,1.55724,1.31678,-0.0006443,-0.00124898,-0.00173551,-0.00412171,0.00607693,-0.000542179,-0.00105127,0.158268,-27.3097,-0.836168,27.0779,0.929867,3.15209,0.110886,1.29233,1.42516,1.30232,-0.748442,0.826917,0.215605,0.220024,0.401114,0.225779,0.0232918,0.193034,-0.280816,0.0867302,
0.0178878,-0.0552536,0.511769,-1.55884,-0.00469751,-0.0437111,0.531298,-0.00444771,0.000273055,-0.0043366,-0.00215352,-0.257542,-0.174,-0.00034114,0,0,0,0,0,0,0,0.0177192,-0.0550059,0.511584,-1.55901,0.0413619,1.55724,1.31678,-0.0006443,-0.00124898,-0.00173551,-0.00412171,0.00607693,-0.000542179,-0.00105127,0.158268,-27.3097,-0.836168,27.0779,0.929867,3.15209,0.110886,1.52673,1.47846,1.30626,-0.786337,0.999898,0.175943,0.180495,0.496405,0.187083,0.00326693,0.192499,-0.277213,0.085145,
0.0178698,-0.0552525,0.511752,-1.55884,-0.00571232,-0.0443983,0.531297,-0.00450833,0.00028466,-0.00439948,-0.00216758,-0.253702,-0.171814,-0.000339455,0,0,0,0,0,0,0,0.0177192,-0.0550059,0.511584,-1.55901,0.0413619,1.55724,1.31678,-0.0006443,-0.00124898,-0.00173551,-0.00412171,0.00607693,-0.000542179,-0.00105127,0.158268,-27.3097,-0.836168,27.0779,0.929867,3.15209,0.110886,1.52673,1.47846,1.30626,-0.786337,0.999898,0.175943,0.180495,0.496405,0.187083,0.00326693,0.192499,-0.277213,0.085145,
0.0178515,-0.0552513,0.511734,-1.55885,-0.0067108,-0.0450762,0.531295,-0.00457007,0.000290067,-0.00446322,-0.00218788,-0.249621,-0.169465,-0.000338748,0,0,0,0,0,0,0,0.0177192,-0.0550059,0.511584,-1.55901,0.0413619,1.55724,1.31678,-0.0006443,-0.00124898,-0.00173551,-0.00412171,0.00607693,-0.000542179,-0.00105127,0.158268,-27.3097,-0.836168,27.0779,0.929867,3.15209,0.110886,1.57931,1.63297,1.34021,-0.899939,1.0255,0.229778,0.231762,0.505558,0.246694,0.00332174,0.18854,-0.278395,0.086205,
0.017833,-0.0552501,0.511716,-1.55886,-0.00769186,-0.0457439,0.531294,-0.00463472,0.000289762,-0.00452959,-0.0022165,-0.245263,-0.166923,-0.000339246,0,0,0,0,0,0,0,0.01777,-0.0550316,0.511627,-1.55895,0.0405314,1.55719,1.31679,0.00549626,0.000211535,0.00401295,0.00322848,-0.115448,-0.00368724,0.000917952,-0.476498,-27.3573,-1.36382,26.2805,0.281674,2.92046,0.0706026,1.57931,1.63297,1.34021,-0.899939,1.0255,0.229778,0.231762,0.505558,0.246694,0.00332174,0.18854,-0.278395,0.086205,
0.0178142,-0.055249,0.511697,-1.55887,-0.00865421,-0.0464005,0.531293,-0.00470443,0.00028426,-0.00460063,-0.00225587,-0.240589,-0.164152,-0.000340906,0,0,0,0,0,0,0,0.01777,-0.0550316,0.511627,-1.55895,0.0405314,1.55719,1.31679,0.00549626,0.000211535,0.00401295,0.00322848,-0.115448,-0.00368724,0.000917952,-0.476498,-27.3573,-1.36382,26.2805,0.281674,2.92046,0.0706026,1.12123,1.86626,1.29955,-1.16184,0.719651,0.45955,0.451574,0.355292,0.495728,-0.0379536,0.139147,-0.339443,0.0876181,
0.017795,-0.0552479,0.511679,-1.55888,-0.0095964,-0.0470449,0.531291,-0.00478174,0.00027411,-0.00467885,-0.0023089,-0.235548,-0.161109,-0.000343816,0,0,0,0,0,0,0,0.01777,-0.0550316,0.511627,-1.55895,0.0405314,1.55719,1.31679,0.00549626,0.000211535,0.00401295,0.00322848,-0.115448,-0.00368724,0.000917952,-0.476498,-27.3573,-1.36382,26.2805,0.281674,2.92046,0.0706026,1.12123,1.86626,1.29955,-1.16184,0.719651,0.45955,0.451574,0.355292,0.495728,-0.0379536,0.139147,-0.339443,0.0876181,
0.0177756,-0.0552469,0.51166,-1.55889,-0.0105167,-0.0476759,0.53129,-0.00486982,0.000259935,-0.00476728,-0.00237902,-0.230078,-0.15774,-0.000347935,0,0,0,0,0,0,0,0.01777,-0.0550316,0.511627,-1.55895,0.0405314,1.55719,1.31679,0.00549626,0.000211535,0.00401295,0.00322848,-0.115448,-0.00368724,0.000917952,-0.476498,-27.3573,-1.36382,26.2805,0.281674,2.92046,0.0706026,1.01904,1.80981,1.4045,-1.21778,0.567782,0.456162,0.439488,0.238541,0.5047,-0.0184238,0.0156048,-0.371995,0.0874329,
0.0177557,-0.0552459,0.51164,-1.5589,-0.0114131,-0.0482918,0.531288,-0.0049726,0.000242419,-0.0048698,-0.00247034,-0.224103,-0.153984,-0.000353372,0,0,0,0,0,0,0,0.01777,-0.0550316,0.511627,-1.55895,0.0405314,1.55719,1.31679,0.00549626,0.000211535,0.00401295,0.00322848,-0.115448,-0.00368724,0.000917952,-0.476498,-27.3573,-1.36382,26.2805,0.281674,2.92046,0.0706026,1.33243,1.74017,1.68817,-1.20171,0.656365,0.331362,0.298802,0.222299,0.395517,0.044892,-0.0947153,-0.388438,0.086661,
0.0177353,-0.055245,0.51162,-1.55891,-0.0122832,-0.0488909,0.531287,-0.00509513,0.000222361,-0.00499125,-0.00258775,-0.217531,-0.149763,-0.000359854,0,0,0,0,0,0,0,0.0178087,-0.0550358,0.51171,-1.559,0.0353946,1.55676,1.31678,0.000895078,-0.000909914,5.03915e-05,-0.00675657,-0.172425,-0.0304215,-0.00225624,-0.528073,-27.3097,-1.41142,26.951,0.667111,3.06603,0.110886,1.33243,1.74017,1.68817,-1.20171,0.656365,0.331362,0.298802,0.222299,0.395517,0.044892,-0.0947153,-0.388438,0.086661,
0.0177143,-0.0552442,0.5116,-1.55892,-0.0131242,-0.0494708,0.531285,-0.00524385,0.000200651,-0.00513795,-0.00273709,-0.210242,-0.144988,-0.000367119,0,0,0,0,0,0,0,0.0178087,-0.0550358,0.51171,-1.559,0.0353946,1.55676,1.31678,0.000895078,-0.000909914,5.03915e-05,-0.00675657,-0.172425,-0.0304215,-0.00225624,-0.528073,-27.3097,-1.41142,26.951,0.667111,3.06603,0.110886,1.57836,1.64421,1.92317,-1.11253,0.7412,0.216551,0.17881,0.224041,0.282738,0.105073,-0.135231,-0.397177,0.0863528,
0.0176926,-0.0552435,0.511578,-1.55893,-0.0139326,-0.050029,0.531284,-0.00542716,0.000178316,-0.00531805,-0.00292526,-0.202089,-0.13955,-0.000374733,0,0,0,0,0,0,0,0.0178087,-0.0550358,0.51171,-1.559,0.0353946,1.55676,1.31678,0.000895078,-0.000909914,5.03915e-05,-0.00675657,-0.172425,-0.0304215,-0.00225624,-0.528073,-27.3097,-1.41142,26.951,0.667111,3.06603,0.110886,1.57836,1.64421,1.92317,-1.11253,0.7412,0.216551,0.17881,0.224041,0.282738,0.105073,-0.135231,-0.397177,0.0863528,
0.01767,-0.0552429,0.511556,-1.55895,-0.0147041,-0.0505623,0.531282,-0.00565607,0.000156483,-0.0055423,-0.00316051,-0.192884,-0.13332,-0.000381839,0,0,0,0,0,0,0,0.0178087,-0.0550358,0.51171,-1.559,0.0353946,1.55676,1.31678,0.000895078,-0.000909914,5.03915e-05,-0.00675657,-0.172425,-0.0304215,-0.00225624,-0.528073,-27.3097,-1.41142,26.951,0.667111,3.06603,0.110886,2.1644,1.33692,2.05382,-0.971931,1.12574,-0.0925233,-0.12844,0.41282,-0.029942,0.0569854,-0.249543,-0.450574,0.0862008,
0.0176462,-0.0552423,0.511533,-1.55896,-0.0154336,-0.0510669,0.531281,-0.00594518,0.000136315,-0.0058249,-0.00345267,-0.182383,-0.126144,-0.000386901,0,0,0,0,0,0,0,0.0178087,-0.0550358,0.51171,-1.559,0.0353946,1.55676,1.31678,0.000895078,-0.000909914,5.03915e-05,-0.00675657,-0.172425,-0.0304215,-0.00225624,-0.528073,-27.3097,-1.41142,26.951,0.667111,3.06603,0.110886,2.1644,1.33692,2.05382,-0.971931,1.12574,-0.0925233,-0.12844,0.41282,-0.029942,0.0569854,-0.249543,-0.450574,0.0862008,
0.017621,-0.0552418,0.511508,-1.55897,-0.0161147,-0.0515382,0.531279,-0.00631398,0.000118754,-0.00618492,-0.00381384,-0.170273,-0.11784,-0.000387323,0,0,0,0,0,0,0,0.0178087,-0.0550358,0.51171,-1.559,0.0353946,1.55676,1.31678,0.000895078,-0.000909914,5.03915e-05,-0.00675657,-0.172425,-0.0304215,-0.00225624,-0.528073,-27.3097,-1.41142,26.951,0.667111,3.06603,0.110886,2.39927,1.17109,2.20625,-0.922822,1.26837,-0.238077,-0.273852,0.477317,-0.175253,0.0227117,-0.336582,-0.526793,0.0862459,
0.0175938,-0.0552414,0.511482,-1.55899,-0.0167393,-0.051971,0.531278,-0.00678901,0.000103733,-0.00664826,-0.00426008,-0.156146,-0.10819,-0.000378273,0,0,0,0,0,0,0,0.0178257,-0.0550319,0.511736,-1.55899,0.0301336,1.55605,1.31678,0.00038503,0.00121798,0.00110425,0.000816511,-0.143047,-0.0178081,-0.000812082,-0.551876,-27.4565,-1.463,26.8042,0.379635,2.68792,0.0907442,2.32243,1.29025,2.37199,-1.01235,1.19963,-0.162548,-0.196986,0.435005,-0.0983224,0.0234896,-0.342335,-0.591322,0.085403,
0.0175642,-0.0552411,0.511453,-1.55901,-0.0172971,-0.0523587,0.531276,-0.00740749,8.75375e-05,-0.00725127,-0.00481681,-0.139451,-0.0969225,-0.000348522,0,0,0,0,0,0,0,0.0178257,-0.0550319,0.511736,-1.55899,0.0301336,1.55605,1.31678,0.00038503,0.00121798,0.00110425,0.000816511,-0.143047,-0.0178081,-0.000812082,-0.551876,-27.4565,-1.463,26.8042,0.379635,2.68792,0.0907442,2.32243,1.29025,2.37199,-1.01235,1.19963,-0.162548,-0.196986,0.435005,-0.0983224,0.0234896,-0.342335,-0.591322,0.085403,
0.0175313,-0.0552409,0.51142,-1.55903,-0.0177748,-0.0526933,0.531275,-0.00822502,5.414e-05,-0.00804811,-0.00553698,-0.119429,-0.0836607,-0.000273914,0,0,0,0,0,0,0,0.0178257,-0.0550319,0.511736,-1.55899,0.0301336,1.55605,1.31678,0.00038503,0.00121798,0.00110425,0.000816511,-0.143047,-0.0178081,-0.000812082,-0.551876,-27.4565,-1.463,26.8042,0.379635,2.68792,0.0907442,2.32322,1.36451,2.42755,-1.0969,1.22725,-0.129214,-0.151231,0.463784,-0.0737307,-0.021033,-0.354079,-0.653794,0.0846232,
0.0174939,-0.0552411,0.511384,-1.55906,-0.0181546,-0.0529644,0.531275,-0.00933472,-5.39836e-05,-0.00913007,-0.00656243,-0.0949409,-0.0677616,-0.000148696,0,0,0,0,0,0,0,0.0178257,-0.0550319,0.511736,-1.55899,0.0301336,1.55605,1.31678,0.00038503,0.00121798,0.00110425,0.000816511,-0.143047,-0.0178081,-0.000812082,-0.551876,-27.4565,-1.463,26.8042,0.379635,2.68792,0.0907442,2.32322,1.36451,2.42755,-1.0969,1.22725,-0.129214,-0.151231,0.463784,-0.0737307,-0.021033,-0.354079,-0.653794,0.0846232,
0.0174557,-0.0552385,0.511346,-1.55908,-0.0184615,-0.0531883,0.531275,-0.00955257,0.000651366,-0.00944177,-0.00592571,-0.0767348,-0.0559682,-5.27787e-05,0,0,0,0,0,0,0,0.0178257,-0.0550319,0.511736,-1.55899,0.0301336,1.55605,1.31678,0.00038503,0.00121798,0.00110425,0.000816511,-0.143047,-0.0178081,-0.000812082,-0.551876,-27.4565,-1.463,26.8042,0.379635,2.68792,0.0907442,2.46321,1.30982,2.51049,-1.0193,1.32536,-0.192554,-0.208085,0.514381,-0.14638,-0.0127672,-0.328804,-0.665678,0.0844573,
0.0174182,-0.0552329,0.511309,-1.5591,-0.0187123,-0.0533742,0.531274,-0.00937439,0.00140099,-0.00933135,-0.00499193,-0.0626871,-0.0464883,-1.31586e-05,0,0,0,0,0,0,0,0.0177201,-0.0550299,0.511637,-1.559,0.0258892,1.55596,1.31678,0.000639589,0.00209505,0.000851298,-0.000186459,-0.130154,-0.000534057,-0.000163854,0.25745,-27.4843,-0.661608,26.8042,0.429074,2.70806,0.0980684,2.45821,1.51922,2.54986,-1.1436,1.33217,-0.0969832,-0.111502,0.523811,-0.048924,-0.0156063,-0.293437,-0.675037,0.0860058,
0.0173823,-0.0552248,0.511273,-1.55912,-0.0189188,-0.0535288,0.531274,-0.00898705,0.00200594,-0.00898945,-0.00411582,-0.0516195,-0.0386354,8.78839e-07,0,0,0,0,0,0,0,0.0177201,-0.0550299,0.511637,-1.559,0.0258892,1.55596,1.31678,0.000639589,0.00209505,0.000851298,-0.000186459,-0.130154,-0.000534057,-0.000163854,0.25745,-27.4843,-0.661608,26.8042,0.429074,2.70806,0.0980684,2.45821,1.51922,2.54986,-1.1436,1.33217,-0.0969832,-0.111502,0.523811,-0.048924,-0.0156063,-0.293437,-0.675037,0.0860058,
0.0173483,-0.0552151,0.511239,-1.55913,-0.0190899,-0.053657,0.531275,-0.00848739,0.00244233,-0.00851938,-0.00336653,-0.0427747,-0.0320668,3.26594e-06,0,0,0,0,0,0,0,0.0177201,-0.0550299,0.511637,-1.559,0.0258892,1.55596,1.31678,0.000639589,0.00209505,0.000851298,-0.000186459,-0.130154,-0.000534057,-0.000163854,0.25745,-27.4843,-0.661608,26.8042,0.429074,2.70806,0.0980684,2.07225,1.98157,2.45859,-1.4582,1.11843,0.225419,0.213153,0.441503,0.279696,-0.041263,-0.218652,-0.684047,0.0841229,
0.0173166,-0.0552042,0.511207,-1.55914,-0.0192324,-0.0537633,0.531275,-0.00793253,0.00272964,-0.00798323,-0.00273849,-0.0356238,-0.0265583,-1.24502e-07,0,0,0,0,0,0,0,0.0177201,-0.0550299,0.511637,-1.559,0.0258892,1.55596,1.31678,0.000639589,0.00209505,0.000851298,-0.000186459,-0.130154,-0.000534057,-0.000163854,0.25745,-27.4843,-0.661608,26.8042,0.429074,2.70806,0.0980684,2.07225,1.98157,2.45859,-1.4582,1.11843,0.225419,0.213153,0.441503,0.279696,-0.041263,-0.218652,-0.684047,0.0841229,
0.0172872,-0.0551926,0.511177,-1.55915,-0.0193515,-0.053851,0.531274,-0.00735834,0.00289548,-0.00742043,-0.00221105,-0.0297821,-0.0219373,-6.49395e-06,0,0,0,0,0,0,0,0.0177201,-0.0550299,0.511637,-1.559,0.0258892,1.55596,1.31678,0.000639589,0.00209505,0.000851298,-0.000186459,-0.130154,-0.000534057,-0.000163854,0.25745,-27.4843,-0.661608,26.8042,0.429074,2.70806,0.0980684,1.89163,1.97291,2.45859,-1.3904,1.01062,0.275016,0.265328,0.3927,0.323347,-0.0174443,-0.150734,-0.67814,0.0834126,
0.01726,-0.0551807,0.51115,-1.55916,-0.0194513,-0.0539232,0.531274,-0.00678775,0.00296589,-0.00685635,-0.00176412,-0.0249636,-0.0180611,-1.43248e-05,0,0,0,0,0,0,0,0.0176018,-0.0550345,0.511415,-1.55899,0.0220952,1.55596,1.31679,-0.00377882,-0.000284923,-0.00952232,-0.00117145,-0.0995774,2.33355e-05,0.000245752,0.463749,-27.4327,-0.562425,26.828,0.557247,2.7282,0.0706026,2.08,1.8345,2.53674,-1.23532,1.1324,0.16111,0.158239,0.449993,0.197119,0.00831504,-0.120308,-0.669635,0.0826843,
0.0163464,-0.053463,0.510029,-1.55932,-0.146527,-0.202224,0.529786,-0.0293198,0.0224261,-0.0303918,-0.0207438,-1.22277,-1.09462,-0.00726985,0,0,0,0,0,0,0,0.0176018,-0.0550345,0.511415,-1.55899,0.0220952,1.55596,1.31679,-0.00377882,-0.000284923,-0.00952232,-0.00117145,-0.0995774,2.33355e-05,0.000245752,0.463749,-27.4327,-0.562425,26.828,0.557247,2.7282,0.0706026,2.08,1.8345,2.53674,-1.23532,1.1324,0.16111,0.158239,0.449993,0.197119,0.00831504,-0.120308,-0.669635,0.0826843,
0.015952,-0.053912,0.509665,-1.55906,-0.119139,-0.156752,0.530572,-0.0251518,0.0141421,-0.0257765,-0.0122645,-0.687763,-0.835642,-0.00282857,0,0,0,0,0,0,0,0.0176018,-0.0550345,0.511415,-1.55899,0.0220952,1.55596,1.31679,-0.00377882,-0.000284923,-0.00952232,-0.00117145,-0.0995774,2.33355e-05,0.000245752,0.463749,-27.4327,-0.562425,26.828,0.557247,2.7282,0.0706026,1.91996,2.27679,2.57925,-1.47635,1.03785,0.411203,0.412431,0.410421,0.448156,0.0268207,-0.023724,-0.663813,0.0823354,
0.0158514,-0.0538568,0.509562,-1.55911,-0.121843,-0.160072,0.53056,-0.025146,0.0138063,-0.0257818,-0.0121359,-0.675994,-0.829998,-0.00276172,0,0,0,0,0,0,0,0.0176018,-0.0550345,0.511415,-1.55899,0.0220952,1.55596,1.31679,-0.00377882,-0.000284923,-0.00952232,-0.00117145,-0.0995774,2.33355e-05,0.000245752,0.463749,-27.4327,-0.562425,26.828,0.557247,2.7282,0.0706026,1.91996,2.27679,2.57925,-1.47635,1.03785,0.411203,0.412431,0.410421,0.448156,0.0268207,-0.023724,-0.663813,0.0823354,
0.0157508,-0.0538031,0.509458,-1.55916,-0.124497,-0.163366,0.53055,-0.0251581,0.0134304,-0.0258046,-0.0120367,-0.663481,-0.823567,-0.00269893,0,0,0,0,0,0,0,0.0176018,-0.0550345,0.511415,-1.55899,0.0220952,1.55596,1.31679,-0.00377882,-0.000284923,-0.00952232,-0.00117145,-0.0995774,2.33355e-05,0.000245752,0.463749,-27.4327,-0.562425,26.828,0.557247,2.7282,0.0706026,2.10823,2.86894,2.84871,-1.76698,1.08624,0.629363,0.635505,0.398631,0.666896,0.125757,0.0640869,-0.622275,0.0838099,
0.01565,-0.053751,0.509355,-1.55921,-0.127097,-0.166631,0.530539,-0.0251942,0.013013,-0.0258508,-0.0119748,-0.65009,-0.816169,-0.00264096,0,0,0,0,0,0,0,0.0176018,-0.0550345,0.511415,-1.55899,0.0220952,1.55596,1.31679,-0.00377882,-0.000284923,-0.00952232,-0.00117145,-0.0995774,2.33355e-05,0.000245752,0.463749,-27.4327,-0.562425,26.828,0.557247,2.7282,0.0706026,2.10823,2.86894,2.84871,-1.76698,1.08624,0.629363,0.635505,0.398631,0.666896,0.125757,0.0640869,-0.622275,0.0838099,
0.015549,-0.0537008,0.509251,-1.55925,-0.12964,-0.169861,0.530529,-0.0252612,0.0125525,-0.0259272,-0.01196,-0.635664,-0.807586,-0.00258836,0,0,0,0,0,0,0,0.017601,-0.0550811,0.511235,-1.55856,0.011712,1.5515,1.31679,0.0121634,-0.00517896,0.00854577,0.021618,-0.601357,-0.375874,0.000346405,-1.61908,-26.8852,-2.38738,24.6381,-0.499271,1.52794,0.0641939,4.01302,4.6365,3.35611,-2.89131,2.25805,0.892113,0.908729,0.946521,0.948379,0.173798,0.108777,-0.503407,0.0916399,
0.0154475,-0.0536526,0.509147,-1.5593,-0.13212,-0.173051,0.530519,-0.0253671,0.0120469,-0.0260419,-0.0120038,-0.620024,-0.797556,-0.00254192,0,0,0,0,0,0,0,0.017601,-0.0550811,0.511235,-1.55856,0.011712,1.5515,1.31679,0.0121634,-0.00517896,0.00854577,0.021618,-0.601357,-0.375874,0.000346405,-1.61908,-26.8852,-2.38738,24.6381,-0.499271,1.52794,0.0641939,3.24522,4.51494,3.49689,-2.91431,1.55342,1.03275,1.03373,0.498614,1.1077,0.291338,-0.0520749,-0.516589,0.0963058,
0.0153454,-0.0536066,0.509042,-1.55935,-0.134532,-0.176195,0.530509,-0.0255215,0.0114941,-0.0262043,-0.0121199,-0.60296,-0.785769,-0.0025029,0,0,0,0,0,0,0,0.017601,-0.0550811,0.511235,-1.55856,0.011712,1.5515,1.31679,0.0121634,-0.00517896,0.00854577,0.021618,-0.601357,-0.375874,0.000346405,-1.61908,-26.8852,-2.38738,24.6381,-0.499271,1.52794,0.0641939,3.24522,4.51494,3.49689,-2.91431,1.55342,1.03275,1.03373,0.498614,1.1077,0.291338,-0.0520749,-0.516589,0.0963058,
0.0152425,-0.0535631,0.508937,-1.5594,-0.136869,-0.179282,0.530499,-0.0257354,0.0108916,-0.0264251,-0.0123249,-0.584232,-0.771849,-0.00247169,0,0,0,0,0,0,0,0.017601,-0.0550811,0.511235,-1.55856,0.011712,1.5515,1.31679,0.0121634,-0.00517896,0.00854577,0.021618,-0.601357,-0.375874,0.000346405,-1.61908,-26.8852,-2.38738,24.6381,-0.499271,1.52794,0.0641939,3.2815,3.4772,3.2147,-2.6773,1.68732,0.5281,0.519839,0.621837,0.618085,-0.0182932,-0.474371,-0.761133,0.0939689,
0.0151384,-0.0535221,0.50883,-1.55945,-0.139123,-0.182303,0.530489,-0.0260213,0.0102372,-0.026717,-0.0126381,-0.563563,-0.755351,-0.00245011,0,0,0,0,0,0,0,0.017601,-0.0550811,0.511235,-1.55856,0.011712,1.5515,1.31679,0.0121634,-0.00517896,0.00854577,0.021618,-0.601357,-0.375874,0.000346405,-1.61908,-26.8852,-2.38738,24.6381,-0.499271,1.52794,0.0641939,3.2815,3.4772,3.2147,-2.6773,1.68732,0.5281,0.519839,0.621837,0.618085,-0.0182932,-0.474371,-0.761133,0.0939689,
0.0150328,-0.053484,0.508721,-1.5595,-0.141286,-0.185246,0.530479,-0.0263938,0.00952904,-0.0270941,-0.0130829,-0.540635,-0.735744,-0.00243958,0,0,0,0,0,0,0,0.0177575,-0.0551252,0.511509,-1.55741,-0.00730249,1.53521,1.31678,0.00860121,-0.00285913,0.00846623,0.0284392,-0.621014,-0.581195,-0.00175843,-1.38897,-26.7821,-2.26042,25.1102,-0.352787,1.32928,0.0980684,3.17162,2.71706,3.56125,-2.30766,1.55464,0.19801,0.185872,0.523608,0.285948,-0.0604651,-0.684972,-0.978479,0.090743,
0.0149253,-0.0534489,0.508611,-1.55956,-0.143346,-0.188096,0.530469,-0.0268691,0.00876565,-0.0275727,-0.0136863,-0.515092,-0.7124,-0.00244235,0,0,0,0,0,0,0,0.0177575,-0.0551252,0.511509,-1.55741,-0.00730249,1.53521,1.31678,0.00860121,-0.00285913,0.00846623,0.0284392,-0.621014,-0.581195,-0.00175843,-1.38897,-26.7821,-2.26042,25.1102,-0.352787,1.32928,0.0980684,3.82851,1.98549,4.01378,-1.78413,1.94989,-0.329155,-0.340506,0.695012,-0.256342,-0.0510677,-0.774912,-1.11026,0.088513,
0.0148155,-0.0534171,0.508498,-1.55961,-0.145292,-0.190834,0.53046,-0.0274651,0.00794668,-0.0281704,-0.0144805,-0.486533,-0.684575,-0.0024604,0,0,0,0,0,0,0,0.0177575,-0.0551252,0.511509,-1.55741,-0.00730249,1.53521,1.31678,0.00860121,-0.00285913,0.00846623,0.0284392,-0.621014,-0.581195,-0.00175843,-1.38897,-26.7821,-2.26042,25.1102,-0.352787,1.32928,0.0980684,3.82851,1.98549,4.01378,-1.78413,1.94989,-0.329155,-0.340506,0.695012,-0.256342,-0.0510677,-0.774912,-1.11026,0.088513,
0.0147027,-0.0533889,0.508383,-1.55968,-0.14711,-0.19344,0.53045,-0.028201,0.00707346,-0.0289062,-0.0155028,-0.454517,-0.651393,-0.00249727,0,0,0,0,0,0,0,0.0177575,-0.0551252,0.511509,-1.55741,-0.00730249,1.53521,1.31678,0.00860121,-0.00285913,0.00846623,0.0284392,-0.621014,-0.581195,-0.00175843,-1.38897,-26.7821,-2.26042,25.1102,-0.352787,1.32928,0.0980684,3.19153,1.23766,4.74573,-1.20818,1.32494,-0.508196,-0.521151,0.276169,-0.451034,0.120504,-0.849704,-1.31174,0.0866036,
0.0145863,-0.0533643,0.508264,-1.55974,-0.148785,-0.195887,0.530439,-0.0290964,0.0061495,-0.0297995,-0.0167973,-0.418569,-0.611827,-0.00255694,0,0,0,0,0,0,0,0.0177575,-0.0551252,0.511509,-1.55741,-0.00730249,1.53521,1.31678,0.00860121,-0.00285913,0.00846623,0.0284392,-0.621014,-0.581195,-0.00175843,-1.38897,-26.7821,-2.26042,25.1102,-0.352787,1.32928,0.0980684,3.19153,1.23766,4.74573,-1.20818,1.32494,-0.508196,-0.521151,0.276169,-0.451034,0.120504,-0.849704,-1.31174,0.0866036,
0.0144656,-0.0533435,0.50814,-1.55982,-0.150297,-0.198146,0.530429,-0.0301703,0.00518105,-0.0308694,-0.0184167,-0.378191,-0.564669,-0.00264435,0,0,0,0,0,0,0,0.0177575,-0.0551252,0.511509,-1.55741,-0.00730249,1.53521,1.31678,0.00860121,-0.00285913,0.00846623,0.0284392,-0.621014,-0.581195,-0.00175843,-1.38897,-26.7821,-2.26042,25.1102,-0.352787,1.32928,0.0980684,2.21751,0.433673,4.8749,-0.782647,0.637915,-0.616136,-0.636909,-0.0897425,-0.55979,0.10363,-0.985125,-1.50883,0.083431,
0.0143398,-0.0533268,0.508012,-1.5599,-0.151629,-0.20018,0.530418,-0.0314405,0.00417722,-0.0321331,-0.0204263,-0.332872,-0.508501,-0.00275642,0,0,0,0,0,0,0,0.0178754,-0.055296,0.511739,-1.5573,-0.0267208,1.51576,1.31677,0.000300963,-0.00141195,0.00343456,-0.00120338,-0.517432,-0.575079,0.00499259,-1.15887,-27.1074,-1.98668,25.9552,-0.768436,1.27617,0.0907442,2.21751,0.433673,4.8749,-0.782647,0.637915,-0.616136,-0.636909,-0.0897425,-0.55979,0.10363,-0.985125,-1.50883,0.083431,
0.0142081,-0.0533142,0.507877,-1.55999,-0.152757,-0.201946,0.530407,-0.0329233,0.00314782,-0.033607,-0.0229134,-0.282096,-0.441627,-0.0027868,0,0,0,0,0,0,0,0.0178754,-0.055296,0.511739,-1.5573,-0.0267208,1.51576,1.31677,0.000300963,-0.00141195,0.00343456,-0.00120338,-0.517432,-0.575079,0.00499259,-1.15887,-27.1074,-1.98668,25.9552,-0.768436,1.27617,0.0907442,2.89451,0.299023,4.26921,-0.97759,1.45481,-0.874279,-0.896716,0.505935,-0.803627,-0.328029,-1.0841,-1.65372,0.0817623,
0.0140696,-0.0533058,0.507736,-1.56009,-0.153658,-0.203394,0.530402,-0.0346266,0.00209624,-0.0353188,-0.0260117,-0.225315,-0.361955,-0.00120637,0,0,0,0,0,0,0,0.0178754,-0.055296,0.511739,-1.5573,-0.0267208,1.51576,1.31677,0.000300963,-0.00141195,0.00343456,-0.00120338,-0.517432,-0.575079,0.00499259,-1.15887,-27.1074,-1.98668,25.9552,-0.768436,1.27617,0.0907442,2.89451,0.299023,4.26921,-0.97759,1.45481,-0.874279,-0.896716,0.505935,-0.803627,-0.328029,-1.0841,-1.65372,0.0817623,
0.0139331,-0.0532903,0.507596,-1.56019,-0.154389,-0.204598,0.530398,-0.0341219,0.00388441,-0.0349602,-0.0234323,-0.182659,-0.30085,-0.00104874,0,0,0,0,0,0,0,0.0178754,-0.055296,0.511739,-1.5573,-0.0267208,1.51576,1.31677,0.000300963,-0.00141195,0.00343456,-0.00120338,-0.517432,-0.575079,0.00499259,-1.15887,-27.1074,-1.98668,25.9552,-0.768436,1.27617,0.0907442,2.96019,0.710294,3.75199,-1.39577,1.83506,-0.708067,-0.713548,0.869731,-0.638914,-0.655865,-1.0027,-1.76091,0.0765137,
0.0138023,-0.0532666,0.507462,-1.56027,-0.154986,-0.205603,0.530393,-0.0327039,0.00593409,-0.033645,-0.0197434,-0.149222,-0.251396,-0.00109024,0,0,0,0,0,0,0,0.0178754,-0.055296,0.511739,-1.5573,-0.0267208,1.51576,1.31677,0.000300963,-0.00141195,0.00343456,-0.00120338,-0.517432,-0.575079,0.00499259,-1.15887,-27.1074,-1.98668,25.9552,-0.768436,1.27617,0.0907442,2.79967,0.630184,3.8137,-1.19954,1.70194,-0.69782,-0.691702,0.787286,-0.648999,-0.562537,-0.893034,-1.71088,0.0730767,
0.0136789,-0.0532362,0.507334,-1.56033,-0.155476,-0.206445,0.530388,-0.0308683,0.00758351,-0.031875,-0.0162038,-0.122388,-0.210506,-0.00117117,0,0,0,0,0,0,0,0.0177508,-0.0555394,0.511624,-1.55737,-0.0419161,1.4981,1.31678,-0.00640979,-0.000744113,-0.00387664,-0.00616716,-0.438656,-0.519346,-0.000464502,-0.40112,-27.3335,-1.38762,26.3043,-0.187992,1.87951,0.0706026,2.79967,0.630184,3.8137,-1.19954,1.70194,-0.69782,-0.691702,0.787286,-0.648999,-0.562537,-0.893034,-1.71088,0.0730767,
0.0135635,-0.0532013,0.507214,-1.56038,-0.155878,-0.207151,0.530383,-0.0288514,0.00873312,-0.0298975,-0.0130961,-0.100525,-0.176414,-0.00125761,0,0,0,0,0,0,0,0.0177508,-0.0555394,0.511624,-1.55737,-0.0419161,1.4981,1.31678,-0.00640979,-0.000744113,-0.00387664,-0.00616716,-0.438656,-0.519346,-0.000464502,-0.40112,-27.3335,-1.38762,26.3043,-0.187992,1.87951,0.0706026,2.26246,0.421168,3.64794,-0.991128,1.36176,-0.639944,-0.633939,0.623464,-0.598614,-0.52256,-0.813627,-1.66993,0.0689494,
0.0134563,-0.0531636,0.507103,-1.56043,-0.156208,-0.207742,0.530378,-0.0267829,0.0094361,-0.0278506,-0.0104293,-0.0825022,-0.147895,-0.00133991,0,0,0,0,0,0,0,0.0177508,-0.0555394,0.511624,-1.55737,-0.0419161,1.4981,1.31678,-0.00640979,-0.000744113,-0.00387664,-0.00616716,-0.438656,-0.519346,-0.000464502,-0.40112,-27.3335,-1.38762,26.3043,-0.187992,1.87951,0.0706026,2.26246,0.421168,3.64794,-0.991128,1.36176,-0.639944,-0.633939,0.623464,-0.598614,-0.52256,-0.813627,-1.66993,0.0689494,
0.0133574,-0.0531245,0.507,-1.56046,-0.156478,-0.208238,0.530372,-0.0247398,0.00977655,-0.0258174,-0.00814731,-0.0674979,-0.123998,-0.00141516,0,0,0,0,0,0,0,0.0177508,-0.0555394,0.511624,-1.55737,-0.0419161,1.4981,1.31678,-0.00640979,-0.000744113,-0.00387664,-0.00616716,-0.438656,-0.519346,-0.000464502,-0.40112,-27.3335,-1.38762,26.3043,-0.187992,1.87951,0.0706026,1.26953,0.489938,3.16298,-0.998333,0.852503,-0.330514,-0.327222,0.444319,-0.287873,-0.583299,-0.643284,-1.63895,0.0657457,
0.0132663,-0.0530851,0.506904,-1.56048,-0.156697,-0.208654,0.530367,-0.0227689,0.009835,-0.0238492,-0.00618752,-0.054895,-0.103953,-0.00148271,0,0,0,0,0,0,0,0.0177508,-0.0555394,0.511624,-1.55737,-0.0419161,1.4981,1.31678,-0.00640979,-0.000744113,-0.00387664,-0.00616716,-0.438656,-0.519346,-0.000464502,-0.40112,-27.3335,-1.38762,26.3043,-0.187992,1.87951,0.0706026,1.13785,0.438984,3.34755,-0.704637,0.624829,-0.317981,-0.311079,0.25552,-0.293807,-0.341595,-0.490208,-1.48336,0.0705913,
-0.0103904,-0.0419346,0.481829,-1.57314,-0.15926,-0.216868,0.518417,-0.202919,0.113236,-0.212724,-0.100616,-1.24312,-1.32336,-0.0579548,0,0,0,0,0,0,0,0.0174403,-0.0555426,0.511165,-1.5577,-0.0536389,1.48375,1.31677,-0.0149887,0.00373706,-0.0207614,-0.0156425,-0.332544,-0.423308,0.000679431,0.182071,-27.4089,-0.836168,26.9272,0.526119,2.88018,0.0577852,1.13785,0.438984,3.34755,-0.704637,0.624829,-0.317981,-0.311079,0.25552,-0.293807,-0.341595,-0.490208,-1.48336,0.0705913,
-0.00520262,-0.0468203,0.487413,-1.56873,-0.232407,-0.209608,0.524692,-0.169151,0.0598788,-0.176021,-0.0676128,-0.917256,0.0258003,-0.0211069,0,0,0,0,0,0,0,0.0174403,-0.0555426,0.511165,-1.5577,-0.0536389,1.48375,1.31677,-0.0149887,0.00373706,-0.0207614,-0.0156425,-0.332544,-0.423308,0.000679431,0.182071,-27.4089,-0.836168,26.9272,0.526119,2.88018,0.0577852,1.26241,1.27762,3.48218,-0.948928,0.485467,0.0451515,0.0572314,0.0741269,0.0622266,0.00128559,-0.267679,-1.14007,0.0722923,
-0.00588605,-0.0465873,0.486702,-1.569,-0.235815,-0.209314,0.524611,-0.170859,0.0582548,-0.177767,-0.0664162,-0.852044,0.0733353,-0.0203108,0,0,0,0,0,0,0,0.0174403,-0.0555426,0.511165,-1.5577,-0.0536389,1.48375,1.31677,-0.0149887,0.00373706,-0.0207614,-0.0156425,-0.332544,-0.423308,0.000679431,0.182071,-27.4089,-0.836168,26.9272,0.526119,2.88018,0.0577852,1.26241,1.27762,3.48218,-0.948928,0.485467,0.0451515,0.0572314,0.0741269,0.0622266,0.00128559,-0.267679,-1.14007,0.0722923,
-0.00657595,-0.046361,0.485984,-1.56926,-0.238941,-0.208825,0.524533,-0.172473,0.0565593,-0.179416,-0.0652635,-0.781457,0.122407,-0.0195479,0,0,0,0,0,0,0,0.0174403,-0.0555426,0.511165,-1.5577,-0.0536389,1.48375,1.31677,-0.0149887,0.00373706,-0.0207614,-0.0156425,-0.332544,-0.423308,0.000679431,0.182071,-27.4089,-0.836168,26.9272,0.526119,2.88018,0.0577852,1.09428,3.63185,3.64421,-2.11881,0.0618696,1.19146,1.20779,-0.285362,1.22538,0.472425,0.125067,-0.631511,0.0692271,
-0.00727197,-0.0461419,0.48526,-1.56951,-0.241761,-0.208132,0.524457,-0.174007,0.0547743,-0.180979,-0.0641654,-0.705208,0.173173,-0.0188192,0,0,0,0,0,0,0,0.0174403,-0.0555426,0.511165,-1.5577,-0.0536389,1.48375,1.31677,-0.0149887,0.00373706,-0.0207614,-0.0156425,-0.332544,-0.423308,0.000679431,0.182071,-27.4089,-0.836168,26.9272,0.526119,2.88018,0.0577852,1.09428,3.63185,3.64421,-2.11881,0.0618696,1.19146,1.20779,-0.285362,1.22538,0.472425,0.125067,-0.631511,0.0692271,
-0.00797389,-0.0459304,0.48453,-1.56977,-0.244253,-0.207229,0.524385,-0.175479,0.0528831,-0.182472,-0.0631282,-0.622875,0.225777,-0.0181209,0,0,0,0,0,0,0,0.0174403,-0.0555426,0.511165,-1.5577,-0.0536389,1.48375,1.31677,-0.0149887,0.00373706,-0.0207614,-0.0156425,-0.332544,-0.423308,0.000679431,0.182071,-27.4089,-0.836168,26.9272,0.526119,2.88018,0.0577852,0.230057,5.9334,2.17674,-3.70338,-0.0119483,2.50619,2.51622,-0.057991,2.58905,0.136683,0.587148,-0.379068,0.0500488,
-0.00868152,-0.0457269,0.483794,-1.57001,-0.246389,-0.206108,0.524315,-0.176908,0.0508709,-0.183915,-0.0621543,-0.533923,0.280339,-0.0174695,0,0,0,0,0,0,0,0.0167729,-0.0556427,0.509897,-1.55838,-0.0708309,1.46624,1.31657,-0.035695,-0.00642178,-0.0472628,-0.0471544,-0.888158,-0.580724,-0.0106367,-4.30493,-24.9611,-5.31127,26.5543,-0.921329,2.82799,-0.0767973,-0.214861,3.30028,2.05696,-2.02327,-0.402684,1.44751,1.44942,-0.3156,1.49545,0.187788,0.278855,-0.451774,0.0332361,
-0.00939476,-0.045532,0.483053,-1.57026,-0.24814,-0.20476,0.524248,-0.17831,0.0487265,-0.185322,-0.0612423,-0.437753,0.336935,-0.0168587,0,0,0,0,0,0,0,0.0167729,-0.0556427,0.509897,-1.55838,-0.0708309,1.46624,1.31657,-0.035695,-0.00642178,-0.0472628,-0.0471544,-0.888158,-0.580724,-0.0106367,-4.30493,-24.9611,-5.31127,26.5543,-0.921329,2.82799,-0.0767973,-0.214861,3.30028,2.05696,-2.02327,-0.402684,1.44751,1.44942,-0.3156,1.49545,0.187788,0.278855,-0.451774,0.0332361,
-0.0101135,-0.0453462,0.482306,-1.5705,-0.249475,-0.203178,0.524182,-0.179687,0.0464454,-0.186694,-0.0603849,-0.333758,0.395554,-0.0162982,0,0,0,0,0,0,0,0.0167729,-0.0556427,0.509897,-1.55838,-0.0708309,1.46624,1.31657,-0.035695,-0.00642178,-0.0472628,-0.0471544,-0.888158,-0.580724,-0.0106367,-4.30493,-24.9611,-5.31127,26.5543,-0.921329,2.82799,-0.0767973,3.28795,1.48149,2.10617,-1.05086,1.73249,-0.289833,-0.272905,0.646845,-0.274686,0.167737,-0.3476,-0.251506,0.0250305,
-0.0108376,-0.0451701,0.481554,-1.57074,-0.25036,-0.201353,0.524119,-0.181019,0.0440336,-0.188012,-0.0595647,-0.221443,0.456041,-0.0157998,0,0,0,0,0,0,0,0.0167729,-0.0556427,0.509897,-1.55838,-0.0708309,1.46624,1.31657,-0.035695,-0.00642178,-0.0472628,-0.0471544,-0.888158,-0.580724,-0.0106367,-4.30493,-24.9611,-5.31127,26.5543,-0.921329,2.82799,-0.0767973,3.28795,1.48149,2.10617,-1.05086,1.73249,-0.289833,-0.272905,0.646845,-0.274686,0.167737,-0.3476,-0.251506,0.0250305,
-0.0115666,-0.045004,0.480798,-1.57097,-0.250763,-0.199282,0.524058,-0.182242,0.0415163,-0.189212,-0.0587452,-0.100634,0.517975,-0.0153688,0,0,0,0,0,0,0,0.0167729,-0.0556427,0.509897,-1.55838,-0.0708309,1.46624,1.31657,-0.035695,-0.00642178,-0.0472628,-0.0471544,-0.888158,-0.580724,-0.0106367,-4.30493,-24.9611,-5.31127,26.5543,-0.921329,2.82799,-0.0767973,4.19952,1.52401,1.30602,-1.26324,2.61456,-0.487641,-0.478992,1.2278,-0.454111,-0.123349,-0.397616,-0.152562,0.0144364,
-0.0122994,-0.0448482,0.480037,-1.57121,-0.25065,-0.19696,0.523998,-0.183211,0.0389523,-0.190152,-0.0578532,0.0281524,0.580486,-0.0150221,0,0,0,0,0,0,0,0.0158465,-0.0560134,0.508404,-1.5604,-0.0968579,1.45214,1.3163,-0.0463623,-0.0238037,-0.0736429,-0.071872,-0.762415,-0.362779,-0.00327477,-2.35302,-25.0603,-3.38713,27.1255,0.740353,4.22692,0.050461,3.19422,2.72282,0.894824,-1.97242,2.0072,0.360628,0.361217,0.959464,0.418378,-0.0810108,-0.133926,0.0129728,0.00201761,
-0.013034,-0.0447024,0.479275,-1.57143,-0.249998,-0.194392,0.523939,-0.183646,0.0364577,-0.190554,-0.0567503,0.16307,0.641936,-0.0147936,0,0,0,0,0,0,0,0.0158465,-0.0560134,0.508404,-1.5604,-0.0968579,1.45214,1.3163,-0.0463623,-0.0238037,-0.0736429,-0.071872,-0.762415,-0.362779,-0.00327477,-2.35302,-25.0603,-3.38713,27.1255,0.740353,4.22692,0.050461,3.19422,2.72282,0.894824,-1.97242,2.0072,0.360628,0.361217,0.959464,0.418378,-0.0810108,-0.133926,0.0129728,0.00201761,
-0.0137661,-0.0445654,0.478515,-1.57165,-0.248798,-0.191594,0.52388,-0.183033,0.0342442,-0.189915,-0.0551828,0.299926,0.699445,-0.0147277,0,0,0,0,0,0,0,0.0158465,-0.0560134,0.508404,-1.5604,-0.0968579,1.45214,1.3163,-0.0463623,-0.0238037,-0.0736429,-0.071872,-0.762415,-0.362779,-0.00327477,-2.35302,-25.0603,-3.38713,27.1255,0.740353,4.22692,0.050461,3.04498,1.91254,2.17847,-1.11921,1.04562,0.0834231,0.0829851,0.0380853,0.111021,0.737934,-0.362463,0.293615,-0.00745541,
-0.0144881,-0.0444347,0.477766,-1.57186,-0.247075,-0.188601,0.52382,-0.180505,0.032672,-0.187376,-0.0527101,0.430739,0.748268,-0.0149522,0,0,0,0,0,0,0,0.0158465,-0.0560134,0.508404,-1.5604,-0.0968579,1.45214,1.3163,-0.0463623,-0.0238037,-0.0736429,-0.071872,-0.762415,-0.362779,-0.00327477,-2.35302,-25.0603,-3.38713,27.1255,0.740353,4.22692,0.050461,3.04498,1.91254,2.17847,-1.11921,1.04562,0.0834231,0.0829851,0.0380853,0.111021,0.737934,-0.362463,0.293615,-0.00745541,
-0.0151869,-0.0443054,0.477039,-1.57206,-0.244907,-0.185477,0.523757,-0.174693,0.0323356,-0.181585,-0.0485673,0.542098,0.781076,-0.0157308,0,0,0,0,0,0,0,0.0158465,-0.0560134,0.508404,-1.5604,-0.0968579,1.45214,1.3163,-0.0463623,-0.0238037,-0.0736429,-0.071872,-0.762415,-0.362779,-0.00327477,-2.35302,-25.0603,-3.38713,27.1255,0.740353,4.22692,0.050461,3.35975,0.764492,2.33103,-0.447948,1.17361,-0.512172,-0.511708,0.0566991,-0.501386,0.743361,-0.592117,0.21269,-0.0143928,
-0.0158413,-0.0441683,0.476357,-1.57222,-0.242452,-0.182329,0.523686,-0.163598,0.0342719,-0.170549,-0.0412688,0.613785,0.78692,-0.0176603,0,0,0,0,0,0,0,0.0158465,-0.0560134,0.508404,-1.5604,-0.0968579,1.45214,1.3163,-0.0463623,-0.0238037,-0.0736429,-0.071872,-0.762415,-0.362779,-0.00327477,-2.35302,-25.0603,-3.38713,27.1255,0.740353,4.22692,0.050461,3.35975,0.764492,2.33103,-0.447948,1.17361,-0.512172,-0.511708,0.0566991,-0.501386,0.743361,-0.592117,0.21269,-0.0143928,
-0.0164184,-0.0440053,0.475752,-1.57233,-0.239983,-0.179338,0.523601,-0.144285,0.0407544,-0.151335,-0.0270665,0.617238,0.747741,-0.0212235,0,0,0,0,0,0,0,0.0124592,-0.0564146,0.503743,-1.56438,-0.113541,1.44497,1.3162,-0.102851,-0.00442626,-0.137072,-0.0892906,-0.0968684,-0.000792445,-0.00443054,-1.61908,-25.9609,-2.61351,27.1533,0.367733,3.72246,-0.0429228,4.01737,0.729188,1.63413,-0.573898,2.01019,-0.702324,-0.698673,0.676034,-0.686943,0.358953,-0.548102,0.149205,-0.0177591,
-0.0168653,-0.043772,0.475278,-1.57231,-0.237947,-0.176844,0.52355,-0.11172,0.0583163,-0.118526,0.00581347,0.508957,0.623499,-0.0127289,0,0,0,0,0,0,0,0.0124592,-0.0564146,0.503743,-1.56438,-0.113541,1.44497,1.3162,-0.102851,-0.00442626,-0.137072,-0.0892906,-0.0968684,-0.000792445,-0.00443054,-1.61908,-25.9609,-2.61351,27.1533,0.367733,3.72246,-0.0429228,4.01737,0.729188,1.63413,-0.573898,2.01019,-0.702324,-0.698673,0.676034,-0.686943,0.358953,-0.548102,0.149205,-0.0177591,
-0.0172292,-0.0435393,0.47489,-1.57227,-0.236179,-0.174655,0.523499,-0.0909705,0.05817,-0.0969738,0.0101734,0.441967,0.54714,-0.0128944,0,0,0,0,0,0,0,0.0124592,-0.0564146,0.503743,-1.56438,-0.113541,1.44497,1.3162,-0.102851,-0.00442626,-0.137072,-0.0892906,-0.0968684,-0.000792445,-0.00443054,-1.61908,-25.9609,-2.61351,27.1533,0.367733,3.72246,-0.0429228,4.41532,0.0552181,0.258357,-0.306712,2.88495,-1.09974,-1.09741,1.41777,-1.08518,-0.178006,-0.462065,0.135696,-0.0222669,
-0.0175342,-0.0433265,0.474563,-1.57224,-0.234584,-0.172687,0.523446,-0.0762566,0.0532143,-0.0816646,0.00735055,0.398866,0.492197,-0.0132826,0,0,0,0,0,0,0,0.0124592,-0.0564146,0.503743,-1.56438,-0.113541,1.44497,1.3162,-0.102851,-0.00442626,-0.137072,-0.0892906,-0.0968684,-0.000792445,-0.00443054,-1.61908,-25.9609,-2.61351,27.1533,0.367733,3.72246,-0.0429228,2.58375,-0.630014,0.074363,0.267076,1.70288,-0.931173,-0.934418,0.841775,-0.930491,-0.111162,-0.310308,0.0698229,-0.0242208,
-0.0177952,-0.0431369,0.474282,-1.57222,-0.2331,-0.170889,0.523392,-0.0652551,0.0473876,-0.0702395,0.003477,0.370929,0.449353,-0.0135216,0,0,0,0,0,0,0,0.0124592,-0.0564146,0.503743,-1.56438,-0.113541,1.44497,1.3162,-0.102851,-0.00442626,-0.137072,-0.0892906,-0.0968684,-0.000792445,-0.00443054,-1.61908,-25.9609,-2.61351,27.1533,0.367733,3.72246,-0.0429228,2.58375,-0.630014,0.074363,0.267076,1.70288,-0.931173,-0.934418,0.841775,-0.930491,-0.111162,-0.310308,0.0698229,-0.0242208,
-0.0180223,-0.0429695,0.474036,-1.57222,-0.231688,-0.16923,0.523337,-0.0567753,0.0418531,-0.0614606,0.000119053,0.353086,0.414785,-0.013672,0,0,0,0,0,0,0,0.00855127,-0.0557232,0.499184,-1.56596,-0.113006,1.44648,1.31615,-0.121132,0.0399869,-0.129277,-0.0169801,-0.00754031,0.0707652,-0.00144047,0.868412,-27.8334,-0.0863513,27.0264,0.660702,2.90032,0.017502,1.17577,-0.326102,0.607882,0.313521,0.582229,-0.443926,-0.450074,0.188667,-0.448844,0.159816,-0.0991469,0.0221545,-0.0192507,
-0.0182228,-0.0428219,0.473818,-1.57223,-0.230319,-0.167684,0.523282,-0.0501047,0.0369123,-0.0545791,-0.00247401,0.342086,0.386527,-0.0137734,0,0,0,0,0,0,0,0.00855127,-0.0557232,0.499184,-1.56596,-0.113006,1.44648,1.31615,-0.121132,0.0399869,-0.129277,-0.0169801,-0.00754031,0.0707652,-0.00144047,0.868412,-27.8334,-0.0863513,27.0264,0.660702,2.90032,0.017502,1.17577,-0.326102,0.607882,0.313521,0.582229,-0.443926,-0.450074,0.188667,-0.448844,0.159816,-0.0991469,0.0221545,-0.0192507,
-0.0184019,-0.0426915,0.473622,-1.57225,-0.228976,-0.166231,0.523226,-0.0447718,0.0325998,-0.0490974,-0.00439335,0.335738,0.363318,-0.013845,0,0,0,0,0,0,0,0.00855127,-0.0557232,0.499184,-1.56596,-0.113006,1.44648,1.31615,-0.121132,0.0399869,-0.129277,-0.0169801,-0.00754031,0.0707652,-0.00144047,0.868412,-27.8334,-0.0863513,27.0264,0.660702,2.90032,0.017502,0.651068,0.422214,-0.0317804,-0.262426,0.616161,0.0242051,0.02038,0.400058,0.0344687,-0.158238,0.110535,-0.0662042,-0.0198826,
-0.0185636,-0.042576,0.473443,-1.57227,-0.227646,-0.164854,0.523171,-0.0404475,0.0288709,-0.0446678,-0.00578803,0.332529,0.344228,-0.0138972,0,0,0,0,0,0,0,0.00855127,-0.0557232,0.499184,-1.56596,-0.113006,1.44648,1.31615,-0.121132,0.0399869,-0.129277,-0.0169801,-0.00754031,0.0707652,-0.00144047,0.868412,-27.8334,-0.0863513,27.0264,0.660702,2.90032,0.017502,0.0224568,1.34284,-1.17822,-1.06398,0.800194,0.601023,0.600992,0.79631,0.633741,-0.685911,0.350302,-0.173078,-0.0199327,
-0.0311335,-0.0321149,0.460171,-1.57946,-0.224397,-0.280083,0.513145,-0.339056,0.180289,-0.35455,-0.145742,-1.23048,-1.09221,-0.07616,0,0,0,0,0,0,0,0.00855127,-0.0557232,0.499184,-1.56596,-0.113006,1.44648,1.31615,-0.121132,0.0399869,-0.129277,-0.0169801,-0.00754031,0.0707652,-0.00144047,0.868412,-27.8334,-0.0863513,27.0264,0.660702,2.90032,0.017502,0.0224568,1.34284,-1.17822,-1.06398,0.800194,0.601023,0.600992,0.79631,0.633741,-0.685911,0.350302,-0.173078,-0.0199327,
-0.0249101,-0.0417374,0.464237,-1.57807,-0.229263,-0.172115,0.522106,-0.198777,0.0798569,-0.206826,-0.0681673,-0.219227,-0.198293,-0.0333993,0,0,0,0,0,0,0,0.00855127,-0.0557232,0.499184,-1.56596,-0.113006,1.44648,1.31615,-0.121132,0.0399869,-0.129277,-0.0169801,-0.00754031,0.0707652,-0.00144047,0.868412,-27.8334,-0.0863513,27.0264,0.660702,2.90032,0.017502,-0.208297,2.024,-1.9003,-1.63269,1.03054,0.967542,0.980123,1.10438,1.0062,-1.02359,0.503247,-0.22648,-0.0168624,
-0.0257054,-0.0414234,0.46341,-1.57834,-0.229887,-0.17282,0.521976,-0.198815,0.0784985,-0.206866,-0.0675974,-0.155996,-0.176164,-0.0326549,0,0,0,0,0,0,0,0.00426796,-0.0545819,0.494782,-1.56593,-0.11367,1.44924,1.31613,-0.141788,0.0279874,-0.136343,-0.00422464,-0.0348729,0.103375,-0.00104385,1.57856,-28.3055,0.564283,25.983,0.886837,2.73461,-0.00996382,-0.208297,2.024,-1.9003,-1.63269,1.03054,0.967542,0.980123,1.10438,1.0062,-1.02359,0.503247,-0.22648,-0.0168624,
-0.026501,-0.0411152,0.462582,-1.57861,-0.230242,-0.173431,0.521848,-0.198904,0.0770357,-0.206955,-0.0670248,-0.0887391,-0.152846,-0.0319251,0,0,0,0,0,0,0,0.00426796,-0.0545819,0.494782,-1.56593,-0.11367,1.44924,1.31613,-0.141788,0.0279874,-0.136343,-0.00422464,-0.0348729,0.103375,-0.00104385,1.57856,-28.3055,0.564283,25.983,0.886837,2.73461,-0.00996382,-2.83741,3.80424,-0.906136,-2.46576,-1.29092,2.47398,2.49128,-0.341293,2.51822,-0.369545,0.789664,-0.102552,-0.0193818,
-0.0272973,-0.0408134,0.461754,-1.57887,-0.23031,-0.173944,0.521723,-0.199061,0.075458,-0.207109,-0.0664559,-0.0169245,-0.128247,-0.0312153,0,0,0,0,0,0,0,0.00426796,-0.0545819,0.494782,-1.56593,-0.11367,1.44924,1.31613,-0.141788,0.0279874,-0.136343,-0.00422464,-0.0348729,0.103375,-0.00104385,1.57856,-28.3055,0.564283,25.983,0.886837,2.73461,-0.00996382,-2.83741,3.80424,-0.906136,-2.46576,-1.29092,2.47398,2.49128,-0.341293,2.51822,-0.369545,0.789664,-0.102552,-0.0193818,
-0.0280945,-0.0405184,0.460924,-1.57914,-0.23007,-0.174353,0.521601,-0.199301,0.0737545,-0.207343,-0.0658985,0.0600419,-0.102256,-0.0305213,0,0,0,0,0,0,0,0.00426796,-0.0545819,0.494782,-1.56593,-0.11367,1.44924,1.31613,-0.141788,0.0279874,-0.136343,-0.00422464,-0.0348729,0.103375,-0.00104385,1.57856,-28.3055,0.564283,25.983,0.886837,2.73461,-0.00996382,-3.57652,4.35646,-1.25912,-2.83797,-1.66391,2.92288,2.92242,-0.470251,2.99294,-0.439527,0.921726,-0.0782513,-0.022156,
-0.028893,-0.0402307,0.460094,-1.5794,-0.229498,-0.174652,0.521482,-0.19964,0.0719149,-0.207673,-0.0653622,0.14281,-0.0747388,-0.0298502,0,0,0,0,0,0,0,0.00426796,-0.0545819,0.494782,-1.56593,-0.11367,1.44924,1.31613,-0.141788,0.0279874,-0.136343,-0.00422464,-0.0348729,0.103375,-0.00104385,1.57856,-28.3055,0.564283,25.983,0.886837,2.73461,-0.00996382,-0.157295,2.19221,-1.29572,-1.69035,0.856735,1.03431,1.03868,0.909547,1.07942,-0.858781,0.447401,-0.277226,-0.0268697,
-0.0296934,-0.039951,0.459261,-1.57966,-0.22857,-0.174834,0.521365,-0.200092,0.0699288,-0.208113,-0.0648592,0.232078,-0.0455307,-0.0292061,0,0,0,0,0,0,0,-8.85651e-05,-0.0534572,0.48975,-1.56616,-0.122484,1.44848,1.31572,-0.139031,0.0241245,-0.154465,-0.0214186,-0.260225,-0.00295673,-0.0114086,-0.500302,-27.4327,-1.56218,26.5543,-0.646671,1.94543,0.0706026,-0.157295,2.19221,-1.29572,-1.69035,0.856735,1.03431,1.03868,0.909547,1.07942,-0.858781,0.447401,-0.277226,-0.0268697,
-0.0304961,-0.0396798,0.458426,-1.57992,-0.227256,-0.174892,0.521251,-0.200665,0.0677871,-0.208672,-0.0644063,0.328567,-0.0144343,-0.0285898,0,0,0,0,0,0,0,-8.85651e-05,-0.0534572,0.48975,-1.56616,-0.122484,1.44848,1.31572,-0.139031,0.0241245,-0.154465,-0.0214186,-0.260225,-0.00295673,-0.0114086,-0.500302,-27.4327,-1.56218,26.5543,-0.646671,1.94543,0.0706026,1.57349,0.339328,-0.542495,-0.664839,1.79827,-0.269676,-0.249451,1.27425,-0.259562,-0.858158,-0.0739552,-0.491859,-0.0377188,
-0.0313015,-0.0394179,0.457589,-1.58017,-0.225524,-0.174817,0.521139,-0.20136,0.0654833,-0.20935,-0.064024,0.432977,0.0187835,-0.0280131,0,0,0,0,0,0,0,-8.85651e-05,-0.0534572,0.48975,-1.56616,-0.122484,1.44848,1.31572,-0.139031,0.0241245,-0.154465,-0.0214186,-0.260225,-0.00295673,-0.0114086,-0.500302,-27.4327,-1.56218,26.5543,-0.646671,1.94543,0.0706026,1.57349,0.339328,-0.542495,-0.664839,1.79827,-0.269676,-0.249451,1.27425,-0.259562,-0.858158,-0.0739552,-0.491859,-0.0377188,
-0.0321101,-0.0391658,0.456748,-1.58043,-0.22334,-0.174599,0.521029,-0.202161,0.0630155,-0.210132,-0.0637386,0.545899,0.0543945,-0.0274786,0,0,0,0,0,0,0,-8.85651e-05,-0.0534572,0.48975,-1.56616,-0.122484,1.44848,1.31572,-0.139031,0.0241245,-0.154465,-0.0214186,-0.260225,-0.00295673,-0.0114086,-0.500302,-27.4327,-1.56218,26.5543,-0.646671,1.94543,0.0706026,1.7863,-1.35639,-0.808863,0.245209,2.01993,-1.10283,-1.09202,1.42501,-1.10082,-1.02238,-0.377406,-0.61386,-0.0438493,
-0.0329201,-0.0389233,0.455906,-1.58068,-0.220691,-0.17423,0.520921,-0.202499,0.0606301,-0.210499,-0.0634411,0.662311,0.0923907,-0.0270004,0,0,0,0,0,0,0,-8.85651e-05,-0.0534572,0.48975,-1.56616,-0.122484,1.44848,1.31572,-0.139031,0.0241245,-0.154465,-0.0214186,-0.260225,-0.00295673,-0.0114086,-0.500302,-27.4327,-1.56218,26.5543,-0.646671,1.94543,0.0706026,1.7863,-1.35639,-0.808863,0.245209,2.01993,-1.10283,-1.09202,1.42501,-1.10082,-1.02238,-0.377406,-0.61386,-0.0438493,
-0.0337177,-0.038685,0.455076,-1.58093,-0.217685,-0.173703,0.520814,-0.199399,0.059573,-0.207703,-0.0625217,0.751467,0.131586,-0.0265633,0,0,0,0,0,0,0,-8.85651e-05,-0.0534572,0.48975,-1.56616,-0.122484,1.44848,1.31572,-0.139031,0.0241245,-0.154465,-0.0214186,-0.260225,-0.00295673,-0.0114086,-0.500302,-27.4327,-1.56218,26.5543,-0.646671,1.94543,0.0706026,0.691118,-1.43545,-0.383674,0.352735,1.00428,-0.854255,-0.847917,0.773919,-0.852721,-0.75221,-0.427378,-0.605622,-0.0495075,
-0.0344947,-0.0384503,0.454265,-1.58118,-0.214403,-0.173006,0.520709,-0.194249,0.0586938,-0.202739,-0.0622008,0.82055,0.17437,-0.0262992,0,0,0,0,0,0,0,-0.00461087,-0.0525077,0.484362,-1.56656,-0.124346,1.44842,1.31558,-0.159331,0.0301729,-0.170053,-0.0147473,0.0230587,-0.00278785,0.000458984,-1.44055,-27.5081,-2.3358,25.733,-0.157779,2.4096,-0.0429228,0.660031,-0.934447,0.0377936,0.131232,0.809096,-0.615011,-0.612298,0.58836,-0.607426,-0.570961,-0.371916,-0.563688,-0.0483147,
-0.0352456,-0.0382198,0.453479,-1.58143,-0.210905,-0.172119,0.520604,-0.187724,0.0576032,-0.196303,-0.062626,0.874468,0.221647,-0.0262193,0,0,0,0,0,0,0,-0.00461087,-0.0525077,0.484362,-1.56656,-0.124346,1.44842,1.31558,-0.159331,0.0301729,-0.170053,-0.0147473,0.0230587,-0.00278785,0.000458984,-1.44055,-27.5081,-2.3358,25.733,-0.157779,2.4096,-0.0429228,0.660031,-0.934447,0.0377936,0.131232,0.809096,-0.615011,-0.612298,0.58836,-0.607426,-0.570961,-0.371916,-0.563688,-0.0483147,
-0.0359664,-0.0379951,0.452724,-1.58168,-0.207238,-0.171026,0.520499,-0.1802,0.0561796,-0.188794,-0.0636349,0.91666,0.273383,-0.0263866,0,0,0,0,0,0,0,-0.00461087,-0.0525077,0.484362,-1.56656,-0.124346,1.44842,1.31558,-0.159331,0.0301729,-0.170053,-0.0147473,0.0230587,-0.00278785,0.000458984,-1.44055,-27.5081,-2.3358,25.733,-0.157779,2.4096,-0.0429228,1.42127,-0.605522,-0.10564,-0.175019,1.45411,-0.641297,-0.634672,0.978079,-0.626915,-0.734363,-0.391883,-0.586766,-0.0564535,
-0.0366538,-0.0377774,0.452003,-1.58194,-0.20344,-0.169713,0.520391,-0.171838,0.0544387,-0.180371,-0.0648898,0.949486,0.328189,-0.0269545,0,0,0,0,0,0,0,-0.00461087,-0.0525077,0.484362,-1.56656,-0.124346,1.44842,1.31558,-0.159331,0.0301729,-0.170053,-0.0147473,0.0230587,-0.00278785,0.000458984,-1.44055,-27.5081,-2.3358,25.733,-0.157779,2.4096,-0.0429228,1.42127,-0.605522,-0.10564,-0.175019,1.45411,-0.641297,-0.634672,0.978079,-0.626915,-0.734363,-0.391883,-0.586766,-0.0564535,
-0.0373041,-0.0375672,0.451319,-1.58221,-0.199543,-0.168184,0.520278,-0.162575,0.0525482,-0.170952,-0.065764,0.974414,0.382353,-0.0282598,0,0,0,0,0,0,0,-0.00461087,-0.0525077,0.484362,-1.56656,-0.124346,1.44842,1.31558,-0.159331,0.0301729,-0.170053,-0.0147473,0.0230587,-0.00278785,0.000458984,-1.44055,-27.5081,-2.3358,25.733,-0.157779,2.4096,-0.0429228,2.04371,-1.155,-0.2274,0.153596,1.98992,-1.04964,-1.03827,1.30759,-1.04645,-0.862749,-0.442418,-0.637092,-0.0608242,
-0.0379123,-0.0373632,0.450678,-1.58247,-0.195575,-0.16647,0.520154,-0.152062,0.0509924,-0.160152,-0.0649776,0.992036,0.42846,-0.0309329,0,0,0,0,0,0,0,-0.00999747,-0.0519086,0.478484,-1.56725,-0.117976,1.44859,1.31553,-0.175539,0.01678,-0.194945,-0.0125933,0.337993,0.0128641,-0.000561102,-0.67883,-27.5835,-1.4868,25.011,0.27618,2.26403,-0.0365141,0.68267,-1.73645,-1.07896,0.446612,1.40598,-0.988569,-0.983732,1.17758,-0.984046,-1.11316,-0.368367,-0.713396,-0.0609164,
-0.0384703,-0.0371585,0.45009,-1.5827,-0.191567,-0.164659,0.520013,-0.139485,0.05117,-0.147103,-0.0594261,1.00186,0.452597,-0.0352598,0,0,0,0,0,0,0,-0.00999747,-0.0519086,0.478484,-1.56725,-0.117976,1.44859,1.31553,-0.175539,0.01678,-0.194945,-0.0125933,0.337993,0.0128641,-0.000561102,-0.67883,-27.5835,-1.4868,25.011,0.27618,2.26403,-0.0365141,0.68267,-1.73645,-1.07896,0.446612,1.40598,-0.988569,-0.983732,1.17758,-0.984046,-1.11316,-0.368367,-0.713396,-0.0609164,
-0.0389307,-0.0369143,0.4496,-1.58285,-0.187889,-0.162983,0.519909,-0.115105,0.0610521,-0.122444,-0.0373968,0.91957,0.419078,-0.0261192,0,0,0,0,0,0,0,-0.00999747,-0.0519086,0.478484,-1.56725,-0.117976,1.44859,1.31553,-0.175539,0.01678,-0.194945,-0.0125933,0.337993,0.0128641,-0.000561102,-0.67883,-27.5835,-1.4868,25.011,0.27618,2.26403,-0.0365141,-1.55529,-1.79896,-1.26406,0.638298,-0.0742564,-0.481591,-0.485824,0.444527,-0.477962,-1.00443,-0.146212,-0.741123,-0.0637112,
-0.0393249,-0.0366733,0.449179,-1.58298,-0.184421,-0.161354,0.519804,-0.0985487,0.0602642,-0.105398,-0.0323872,0.86704,0.407192,-0.0260608,0,0,0,0,0,0,0,-0.00999747,-0.0519086,0.478484,-1.56725,-0.117976,1.44859,1.31553,-0.175539,0.01678,-0.194945,-0.0125933,0.337993,0.0128641,-0.000561102,-0.67883,-27.5835,-1.4868,25.011,0.27618,2.26403,-0.0365141,-1.55529,-1.79896,-1.26406,0.638298,-0.0742564,-0.481591,-0.485824,0.444527,-0.477962,-1.00443,-0.146212,-0.741123,-0.0637112,
-0.0396702,-0.0364475,0.448807,-1.58311,-0.181091,-0.159745,0.519699,-0.0863279,0.0564365,-0.0928211,-0.0317875,0.832475,0.402458,-0.0263887,0,0,0,0,0,0,0,-0.00999747,-0.0519086,0.478484,-1.56725,-0.117976,1.44859,1.31553,-0.175539,0.01678,-0.194945,-0.0125933,0.337993,0.0128641,-0.000561102,-0.67883,-27.5835,-1.4868,25.011,0.27618,2.26403,-0.0365141,-2.19761,-1.51337,-0.999974,0.776398,-0.581905,-0.207605,-0.213807,0.154366,-0.214389,-0.79415,0.153745,-0.679157,-0.0640179,
-0.0399779,-0.0362397,0.448475,-1.58324,-0.177852,-0.158143,0.519592,-0.0769186,0.0519537,-0.0831617,-0.0319771,0.809622,0.400305,-0.0266208,0,0,0,0,0,0,0,-0.00999747,-0.0519086,0.478484,-1.56725,-0.117976,1.44859,1.31553,-0.175539,0.01678,-0.194945,-0.0125933,0.337993,0.0128641,-0.000561102,-0.67883,-27.5835,-1.4868,25.011,0.27618,2.26403,-0.0365141,-2.19761,-1.51337,-0.999974,0.776398,-0.581905,-0.207605,-0.213807,0.154366,-0.214389,-0.79415,0.153745,-0.679157,-0.0640179,
-0.0402558,-0.0360495,0.448172,-1.58337,-0.174674,-0.156546,0.519485,-0.0694857,0.0475602,-0.0755556,-0.0320321,0.794692,0.39924,-0.0267812,0,0,0,0,0,0,0,-0.0154965,-0.0509689,0.471696,-1.56766,-0.104727,1.45101,1.31546,-0.176425,0.0251629,-0.216195,-0.0219575,0.423107,0.116853,-0.00285923,1.04694,-28.2301,0.211195,25.7568,1.00311,2.8875,-0.050247,-1.568,-1.00008,-1.3881,0.549747,0.0428567,-0.113132,-0.11629,0.568981,-0.119425,-0.911462,0.363458,-0.570079,-0.065922,
-0.0405098,-0.0358755,0.447895,-1.58349,-0.171533,-0.154951,0.519378,-0.0635047,0.0434798,-0.0694557,-0.0318039,0.78519,0.398737,-0.0268975,0,0,0,0,0,0,0,-0.0154965,-0.0509689,0.471696,-1.56766,-0.104727,1.45101,1.31546,-0.176425,0.0251629,-0.216195,-0.0219575,0.423107,0.116853,-0.00285923,1.04694,-28.2301,0.211195,25.7568,1.00311,2.8875,-0.050247,-1.15826,0.00882519,-1.80967,0.00328635,0.440342,0.28454,0.283048,0.826176,0.287184,-0.944858,0.596681,-0.362936,-0.0686568,
-0.0456944,-0.0331722,0.442662,-1.58949,-0.279994,-0.296021,0.510748,-0.328471,0.152517,-0.341695,-0.15081,-1.20906,-0.801581,-0.0856829,0,0,0,0,0,0,0,-0.0154965,-0.0509689,0.471696,-1.56766,-0.104727,1.45101,1.31546,-0.176425,0.0251629,-0.216195,-0.0219575,0.423107,0.116853,-0.00285923,1.04694,-28.2301,0.211195,25.7568,1.00311,2.8875,-0.050247,-1.15826,0.00882519,-1.80967,0.00328635,0.440342,0.28454,0.283048,0.826176,0.287184,-0.944858,0.596681,-0.362936,-0.0686568,
-0.0476304,-0.0417205,0.438134,-1.58193,-0.196537,-0.108092,0.519678,-0.169962,0.0406146,-0.177526,-0.0792704,-0.285177,0.495025,-0.0455814,0,0,0,0,0,0,0,-0.0154965,-0.0509689,0.471696,-1.56766,-0.104727,1.45101,1.31546,-0.176425,0.0251629,-0.216195,-0.0219575,0.423107,0.116853,-0.00285923,1.04694,-28.2301,0.211195,25.7568,1.00311,2.8875,-0.050247,-0.64762,0.88955,-2.11332,-0.523401,0.845405,0.597011,0.594538,1.05604,0.612065,-0.964042,0.729875,-0.183182,-0.0670513,
-0.0483089,-0.0415622,0.437426,-1.58224,-0.197525,-0.105979,0.519498,-0.169627,0.0395607,-0.17719,-0.0790528,-0.246958,0.528493,-0.0448944,0,0,0,0,0,0,0,-0.0154965,-0.0509689,0.471696,-1.56766,-0.104727,1.45101,1.31546,-0.176425,0.0251629,-0.216195,-0.0219575,0.423107,0.116853,-0.00285923,1.04694,-28.2301,0.211195,25.7568,1.00311,2.8875,-0.050247,-0.64762,0.88955,-2.11332,-0.523401,0.845405,0.597011,0.594538,1.05604,0.612065,-0.964042,0.729875,-0.183182,-0.0670513,
-0.0489863,-0.0414082,0.436718,-1.58256,-0.19835,-0.103724,0.519322,-0.169356,0.0385083,-0.176916,-0.0788831,-0.206105,0.563738,-0.0442279,0,0,0,0,0,0,0,-0.0230969,-0.0497693,0.46363,-1.56783,-0.0927249,1.45275,1.3153,-0.174319,0.0327281,-0.20547,0.00767168,0.0623045,-0.0832096,-0.0224384,-2.55536,-27.2582,-3.21257,22.5949,-0.743717,2.15783,-0.143631,-1.33218,2.66762,-2.24602,-1.64623,0.329404,1.62163,1.61655,0.755683,1.66262,-0.859203,0.929063,-0.015955,-0.0697908,
-0.0496629,-0.0412584,0.436011,-1.58287,-0.198998,-0.10132,0.519147,-0.169158,0.0374505,-0.176711,-0.0787613,-0.162217,0.600827,-0.0435832,0,0,0,0,0,0,0,-0.0230969,-0.0497693,0.46363,-1.56783,-0.0927249,1.45275,1.3153,-0.174319,0.0327281,-0.20547,0.00767168,0.0623045,-0.0832096,-0.0224384,-2.55536,-27.2582,-3.21257,22.5949,-0.743717,2.15783,-0.143631,-2.39792,3.82788,-2.98778,-2.50728,-0.0904534,2.4258,2.40428,0.67774,2.50514,-1.08919,1.11104,-0.0136203,-0.0712635,
-0.0503391,-0.0411129,0.435305,-1.58319,-0.199458,-0.098761,0.518975,-0.169041,0.0363811,-0.176585,-0.0786876,-0.114835,0.639818,-0.0429687,0,0,0,0,0,0,0,-0.0230969,-0.0497693,0.46363,-1.56783,-0.0927249,1.45275,1.3153,-0.174319,0.0327281,-0.20547,0.00767168,0.0623045,-0.0832096,-0.0224384,-2.55536,-27.2582,-3.21257,22.5949,-0.743717,2.15783,-0.143631,-2.39792,3.82788,-2.98778,-2.50728,-0.0904534,2.4258,2.40428,0.67774,2.50514,-1.08919,1.11104,-0.0136203,-0.0712635,
-0.0510152,-0.0409717,0.434599,-1.5835,-0.199712,-0.0960379,0.518806,-0.169015,0.0352942,-0.176545,-0.0786621,-0.0634352,0.680757,-0.0423871,0,0,0,0,0,0,0,-0.0230969,-0.0497693,0.46363,-1.56783,-0.0927249,1.45275,1.3153,-0.174319,0.0327281,-0.20547,0.00767168,0.0623045,-0.0832096,-0.0224384,-2.55536,-27.2582,-3.21257,22.5949,-0.743717,2.15783,-0.143631,-1.02742,1.2463,-3.1524,-1.02642,0.92576,0.88445,0.859076,1.25175,0.939221,-1.30572,0.670668,-0.147101,-0.0769845,
-0.0516915,-0.0408349,0.433892,-1.58382,-0.199741,-0.0931433,0.518638,-0.169087,0.0341852,-0.1766,-0.0786841,-0.00743257,0.723666,-0.0418451,0,0,0,0,0,0,0,-0.0230969,-0.0497693,0.46363,-1.56783,-0.0927249,1.45275,1.3153,-0.174319,0.0327281,-0.20547,0.00767168,0.0623045,-0.0832096,-0.0224384,-2.55536,-27.2582,-3.21257,22.5949,-0.743717,2.15783,-0.143631,-1.02742,1.2463,-3.1524,-1.02642,0.92576,0.88445,0.859076,1.25175,0.939221,-1.30572,0.670668,-0.147101,-0.0769845,
-0.0523686,-0.0407027,0.433185,-1.58413,-0.199526,-0.0900692,0.518473,-0.169265,0.0330502,-0.176757,-0.0787511,0.0538223,0.768529,-0.0413445,0,0,0,0,0,0,0,-0.0277713,-0.0495399,0.458068,-1.56892,-0.0981049,1.45471,1.31494,-0.13641,-0.00429765,-0.172303,-0.0510748,-0.152226,0.125179,-0.00900446,-1.86902,-28.2063,-2.51036,25.856,-0.389408,3.75542,-0.0566557,0.939832,-0.743103,-2.4603,0.149595,1.63467,-0.462632,-0.475736,1.31868,-0.443105,-0.90832,0.0382802,0.090511,-0.0800568,
-0.0530464,-0.0405743,0.432477,-1.58444,-0.199043,-0.0868209,0.518309,-0.169458,0.0321014,-0.176921,-0.0782064,0.120841,0.812057,-0.0409067,0,0,0,0,0,0,0,-0.0277713,-0.0495399,0.458068,-1.56892,-0.0981049,1.45471,1.31494,-0.13641,-0.00429765,-0.172303,-0.0510748,-0.152226,0.125179,-0.00900446,-1.86902,-28.2063,-2.51036,25.856,-0.389408,3.75542,-0.0566557,0.939832,-0.743103,-2.4603,0.149595,1.63467,-0.462632,-0.475736,1.31868,-0.443105,-0.90832,0.0382802,0.090511,-0.0800568,
-0.0537243,-0.0404475,0.43177,-1.58475,-0.198267,-0.0834371,0.518147,-0.169465,0.0316969,-0.176886,-0.0757077,0.193997,0.845948,-0.0405521,0,0,0,0,0,0,0,-0.0277713,-0.0495399,0.458068,-1.56892,-0.0981049,1.45471,1.31494,-0.13641,-0.00429765,-0.172303,-0.0510748,-0.152226,0.125179,-0.00900446,-1.86902,-28.2063,-2.51036,25.856,-0.389408,3.75542,-0.0566557,1.04588,-2.09903,-2.76174,0.880385,1.63064,-1.10429,-1.12586,1.28732,-1.08991,-0.897141,-0.262907,0.17409,-0.0838978,
-0.0544023,-0.0403232,0.431062,-1.58504,-0.197168,-0.0799444,0.517986,-0.169502,0.0310875,-0.176883,-0.072854,0.274572,0.87318,-0.0402839,0,0,0,0,0,0,0,-0.0277713,-0.0495399,0.458068,-1.56892,-0.0981049,1.45471,1.31494,-0.13641,-0.00429765,-0.172303,-0.0510748,-0.152226,0.125179,-0.00900446,-1.86902,-28.2063,-2.51036,25.856,-0.389408,3.75542,-0.0566557,-0.45251,-2.17054,-2.21754,1.00215,0.196389,-0.778202,-0.797198,0.356065,-0.772952,-0.480921,-0.33234,0.247667,-0.0959217,
-0.0550807,-0.0402027,0.430355,-1.58532,-0.195715,-0.0763633,0.517826,-0.169613,0.0301171,-0.176957,-0.0701331,0.363333,0.895288,-0.0401028,0,0,0,0,0,0,0,-0.0277713,-0.0495399,0.458068,-1.56892,-0.0981049,1.45471,1.31494,-0.13641,-0.00429765,-0.172303,-0.0510748,-0.152226,0.125179,-0.00900446,-1.86902,-28.2063,-2.51036,25.856,-0.389408,3.75542,-0.0566557,-0.45251,-2.17054,-2.21754,1.00215,0.196389,-0.778202,-0.797198,0.356065,-0.772952,-0.480921,-0.33234,0.247667,-0.0959217,
-0.0557597,-0.0400875,0.429646,-1.58559,-0.193873,-0.0727103,0.517666,-0.169755,0.0288051,-0.177064,-0.0677025,0.46058,0.913252,-0.0400208,0,0,0,0,0,0,0,-0.0277713,-0.0495399,0.458068,-1.56892,-0.0981049,1.45471,1.31494,-0.13641,-0.00429765,-0.172303,-0.0510748,-0.152226,0.125179,-0.00900446,-1.86902,-28.2063,-2.51036,25.856,-0.389408,3.75542,-0.0566557,0.00981711,-1.68564,-1.6585,0.708866,0.0544463,-0.615011,-0.628689,0.0562196,-0.609042,-0.100833,-0.471662,0.480555,-0.100092,
-0.0564389,-0.0399786,0.428938,-1.58585,-0.19161,-0.0689992,0.517505,-0.169791,0.0272288,-0.177071,-0.0656306,0.565782,0.927772,-0.0400634,0,0,0,0,0,0,0,-0.0325359,-0.0494885,0.452566,-1.57123,-0.100765,1.46295,1.3148,-0.164747,-0.0020725,-0.173819,-0.0912233,0.0124856,0.330666,-0.00408311,-0.603451,-28.6824,-1.26067,26.6058,-0.93964,3.96142,-0.0703886,0.00981711,-1.68564,-1.6585,0.708866,0.0544463,-0.615011,-0.628689,0.0562196,-0.609042,-0.100833,-0.471662,0.480555,-0.100092,
-0.0571167,-0.0398766,0.428231,-1.58611,-0.188902,-0.0652417,0.517344,-0.169436,0.0255063,-0.176704,-0.0639623,0.676814,0.939359,-0.0402733,0,0,0,0,0,0,0,-0.0325359,-0.0494885,0.452566,-1.57123,-0.100765,1.46295,1.3148,-0.164747,-0.0020725,-0.173819,-0.0912233,0.0124856,0.330666,-0.00408311,-0.603451,-28.6824,-1.26067,26.6058,-0.93964,3.96142,-0.0703886,0.759261,-1.84323,-1.54555,0.689964,0.444398,-0.842509,-0.853147,0.194344,-0.835702,-0.0702481,-0.669658,0.532621,-0.10328,
-0.057779,-0.0397769,0.427539,-1.58636,-0.185853,-0.0614543,0.517182,-0.165577,0.0249262,-0.173133,-0.0619282,0.76232,0.946866,-0.0405008,0,0,0,0,0,0,0,-0.0325359,-0.0494885,0.452566,-1.57123,-0.100765,1.46295,1.3148,-0.164747,-0.0020725,-0.173819,-0.0912233,0.0124856,0.330666,-0.00408311,-0.603451,-28.6824,-1.26067,26.6058,-0.93964,3.96142,-0.0703886,0.759261,-1.84323,-1.54555,0.689964,0.444398,-0.842509,-0.853147,0.194344,-0.835702,-0.0702481,-0.669658,0.532621,-0.10328,
-0.058416,-0.0396784,0.426871,-1.5866,-0.182545,-0.0576454,0.517017,-0.159252,0.024605,-0.166982,-0.0606288,0.826893,0.952222,-0.041336,0,0,0,0,0,0,0,-0.0325359,-0.0494885,0.452566,-1.57123,-0.100765,1.46295,1.3148,-0.164747,-0.0020725,-0.173819,-0.0912233,0.0124856,0.330666,-0.00408311,-0.603451,-28.6824,-1.26067,26.6058,-0.93964,3.96142,-0.0703886,1.33276,-1.60353,-2.5549,0.214096,1.29903,-0.840858,-0.850708,0.843767,-0.814206,-0.56752,-0.7613,0.483135,-0.109827,
-0.05902,-0.0395807,0.426236,-1.58684,-0.179044,-0.0538217,0.516843,-0.151012,0.0244416,-0.158792,-0.0598628,0.875347,0.955917,-0.0433581,0,0,0,0,0,0,0,-0.0325359,-0.0494885,0.452566,-1.57123,-0.100765,1.46295,1.3148,-0.164747,-0.0020725,-0.173819,-0.0912233,0.0124856,0.330666,-0.00408311,-0.603451,-28.6824,-1.26067,26.6058,-0.93964,3.96142,-0.0703886,1.78507,-1.62971,-3.36865,0.15914,1.95678,-0.946978,-0.957927,1.3477,-0.914645,-0.873218,-0.698404,0.527088,-0.109635,
-0.0595834,-0.0394789,0.425641,-1.58707,-0.175402,-0.0499946,0.516655,-0.140854,0.0254484,-0.14857,-0.0576418,0.910484,0.956782,-0.0470032,0,0,0,0,0,0,0,-0.0374747,-0.0496054,0.446888,-1.57378,-0.0974903,1.47679,1.31474,-0.153522,0.00251508,-0.191514,-0.0712602,0.196262,0.507075,-0.00167901,0.384403,-28.1825,-0.387865,26.4313,0.599362,3.70232,-0.110672,1.78507,-1.62971,-3.36865,0.15914,1.95678,-0.946978,-0.957927,1.3477,-0.914645,-0.873218,-0.698404,0.527088,-0.109635,
-0.0600722,-0.0393271,0.425123,-1.58719,-0.171845,-0.0465132,0.516503,-0.122187,0.03794,-0.129647,-0.0300376,0.889347,0.870338,-0.0381602,0,0,0,0,0,0,0,-0.0374747,-0.0496054,0.446888,-1.57378,-0.0974903,1.47679,1.31474,-0.153522,0.00251508,-0.191514,-0.0712602,0.196262,0.507075,-0.00167901,0.384403,-28.1825,-0.387865,26.4313,0.599362,3.70232,-0.110672,1.50105,-2.05972,-3.19093,0.669565,1.78196,-1.11009,-1.12081,1.28138,-1.09544,-0.805661,-0.517408,0.483507,-0.113982,
-0.06051,-0.0391732,0.424656,-1.58729,-0.168308,-0.0432399,0.51635,-0.109444,0.038469,-0.116632,-0.0245892,0.884169,0.818336,-0.0381002,0,0,0,0,0,0,0,-0.0374747,-0.0496054,0.446888,-1.57378,-0.0974903,1.47679,1.31474,-0.153522,0.00251508,-0.191514,-0.0712602,0.196262,0.507075,-0.00167901,0.384403,-28.1825,-0.387865,26.4313,0.599362,3.70232,-0.110672,1.50105,-2.05972,-3.19093,0.669565,1.78196,-1.11009,-1.12081,1.28138,-1.09544,-0.805661,-0.517408,0.483507,-0.113982,
-0.0609085,-0.0390298,0.42423,-1.58739,-0.164764,-0.0401149,0.516197,-0.0996388,0.0358725,-0.10661,-0.0252622,0.885959,0.78124,-0.0383741,0,0,0,0,0,0,0,-0.0374747,-0.0496054,0.446888,-1.57378,-0.0974903,1.47679,1.31474,-0.153522,0.00251508,-0.191514,-0.0712602,0.196262,0.507075,-0.00167901,0.384403,-28.1825,-0.387865,26.4313,0.599362,3.70232,-0.110672,0.947503,-1.44435,-2.43949,0.641128,1.18124,-0.707042,-0.718259,0.872173,-0.701488,-0.482058,-0.199112,0.492862,-0.119611,
-0.0612751,-0.0388987,0.423836,-1.5875,-0.1612,-0.0371056,0.516043,-0.0916365,0.0327588,-0.098438,-0.0273208,0.891078,0.752329,-0.0385558,0,0,0,0,0,0,0,-0.0374747,-0.0496054,0.446888,-1.57378,-0.0974903,1.47679,1.31474,-0.153522,0.00251508,-0.191514,-0.0712602,0.196262,0.507075,-0.00167901,0.384403,-28.1825,-0.387865,26.4313,0.599362,3.70232,-0.110672,0.590222,-1.33125,-2.32751,0.782869,0.94438,-0.584423,-0.597884,0.762181,-0.585437,-0.400272,0.0193428,0.502997,-0.120795,
-0.0616147,-0.0387793,0.42347,-1.58761,-0.157609,-0.0341899,0.515888,-0.0849135,0.0298541,-0.0915822,-0.0294322,0.897803,0.728922,-0.0386797,0,0,0,0,0,0,0,-0.0374747,-0.0496054,0.446888,-1.57378,-0.0974903,1.47679,1.31474,-0.153522,0.00251508,-0.191514,-0.0712602,0.196262,0.507075,-0.00167901,0.384403,-28.1825,-0.387865,26.4313,0.599362,3.70232,-0.110672,0.590222,-1.33125,-2.32751,0.782869,0.94438,-0.584423,-0.597884,0.762181,-0.585437,-0.400272,0.0193428,0.502997,-0.120795,
-0.0619314,-0.03867,0.423127,-1.58774,-0.153988,-0.0313512,0.515733,-0.0791738,0.0273207,-0.0857371,-0.0312729,0.905202,0.709675,-0.0387724,0,0,0,0,0,0,0,-0.042606,-0.0494316,0.440805,-1.5762,-0.0880159,1.49569,1.31463,-0.162688,0.0156951,-0.188371,-0.072069,0.343572,0.622654,-0.0036844,1.27307,-29.6544,0.611891,27.2009,1.36291,3.65014,-0.210464,-0.416348,-0.740819,-2.39131,0.579601,0.391534,-0.0934699,-0.106174,0.544953,-0.095322,-0.413415,0.318674,0.443963,-0.123594,
-0.0513583,-0.0342194,0.434127,-1.5879,-0.273034,-0.247031,0.511899,-0.191333,0.0971099,-0.200635,-0.125078,-1.19758,-0.325931,-0.0809611,0,0,0,0,0,0,0,-0.042606,-0.0494316,0.440805,-1.5762,-0.0880159,1.49569,1.31463,-0.162688,0.0156951,-0.188371,-0.072069,0.343572,0.622654,-0.0036844,1.27307,-29.6544,0.611891,27.2009,1.36291,3.65014,-0.210464,-0.416348,-0.740819,-2.39131,0.579601,0.391534,-0.0934699,-0.106174,0.544953,-0.095322,-0.413415,0.318674,0.443963,-0.123594,
-0.0587582,-0.0420979,0.423619,-1.58754,-0.170635,-0.0684987,0.518766,-0.0530141,0.0378589,-0.0583017,-0.0671711,-0.545959,-0.133164,-0.0514665,0,0,0,0,0,0,0,-0.042606,-0.0494316,0.440805,-1.5762,-0.0880159,1.49569,1.31463,-0.162688,0.0156951,-0.188371,-0.072069,0.343572,0.622654,-0.0036844,1.27307,-29.6544,0.611891,27.2009,1.36291,3.65014,-0.210464,-0.847959,0.147443,-2.29635,0.171183,0.1831,0.422733,0.409421,0.475367,0.426533,-0.414052,0.599709,0.399085,-0.124512,
-0.0589648,-0.0419489,0.423391,-1.5878,-0.172905,-0.0690273,0.518563,-0.0516519,0.037236,-0.0569337,-0.0669502,-0.567453,-0.132139,-0.0509718,0,0,0,0,0,0,0,-0.042606,-0.0494316,0.440805,-1.5762,-0.0880159,1.49569,1.31463,-0.162688,0.0156951,-0.188371,-0.072069,0.343572,0.622654,-0.0036844,1.27307,-29.6544,0.611891,27.2009,1.36291,3.65014,-0.210464,-0.847959,0.147443,-2.29635,0.171183,0.1831,0.422733,0.409421,0.475367,0.426533,-0.414052,0.599709,0.399085,-0.124512,
-0.0591661,-0.0418026,0.423169,-1.58807,-0.175267,-0.0695512,0.518361,-0.0503102,0.0365885,-0.0555866,-0.0667144,-0.590483,-0.130965,-0.0504846,0,0,0,0,0,0,0,-0.042606,-0.0494316,0.440805,-1.5762,-0.0880159,1.49569,1.31463,-0.162688,0.0156951,-0.188371,-0.072069,0.343572,0.622654,-0.0036844,1.27307,-29.6544,0.611891,27.2009,1.36291,3.65014,-0.210464,-1.54853,1.44327,-2.04722,-0.53731,-0.273873,1.19954,1.18742,0.238745,1.21332,-0.367548,0.86724,0.332668,-0.127677,
-0.059362,-0.041659,0.422952,-1.58834,-0.177727,-0.0700696,0.518161,-0.0489853,0.0359107,-0.0542567,-0.0664718,-0.615029,-0.129618,-0.0500056,0,0,0,0,0,0,0,-0.0480154,-0.0487554,0.435163,-1.57775,-0.0791236,1.51537,1.31451,-0.164118,0.0321308,-0.179029,-0.018057,0.0860167,0.473674,-0.0157828,0.0551182,-28.8054,-0.661608,23.3646,0.0866663,1.20293,-0.150955,0.0760259,3.28628,-3.43279,-1.88741,1.66193,1.77274,1.75757,1.59575,1.82731,-1.13239,1.17766,0.307068,-0.120918,
-0.0595527,-0.0415182,0.42274,-1.5886,-0.180291,-0.0705818,0.517962,-0.0476769,0.0351956,-0.0529429,-0.0662325,-0.64104,-0.128037,-0.0495362,0,0,0,0,0,0,0,-0.0480154,-0.0487554,0.435163,-1.57775,-0.0791236,1.51537,1.31451,-0.164118,0.0321308,-0.179029,-0.018057,0.0860167,0.473674,-0.0157828,0.0551182,-28.8054,-0.661608,23.3646,0.0866663,1.20293,-0.150955,0.0760259,3.28628,-3.43279,-1.88741,1.66193,1.77274,1.75757,1.59575,1.82731,-1.13239,1.17766,0.307068,-0.120918,
-0.0597383,-0.0413804,0.422533,-1.58887,-0.182965,-0.0710863,0.517766,-0.0463882,0.034435,-0.0516482,-0.0660099,-0.668409,-0.126119,-0.0490781,0,0,0,0,0,0,0,-0.0480154,-0.0487554,0.435163,-1.57775,-0.0791236,1.51537,1.31451,-0.164118,0.0321308,-0.179029,-0.018057,0.0860167,0.473674,-0.0157828,0.0551182,-28.8054,-0.661608,23.3646,0.0866663,1.20293,-0.150955,0.722836,2.45856,-2.90898,-1.37958,1.92175,1.21529,1.20353,1.65104,1.25514,-1.04199,0.97795,0.227568,-0.110439,
-0.0599188,-0.041246,0.422332,-1.58913,-0.185753,-0.071581,0.517572,-0.0451294,0.0336185,-0.050382,-0.0658214,-0.696949,-0.123695,-0.0486299,0,0,0,0,0,0,0,-0.0480154,-0.0487554,0.435163,-1.57775,-0.0791236,1.51537,1.31451,-0.164118,0.0321308,-0.179029,-0.018057,0.0860167,0.473674,-0.0157828,0.0551182,-28.8054,-0.661608,23.3646,0.0866663,1.20293,-0.150955,0.722836,2.45856,-2.90898,-1.37958,1.92175,1.21529,1.20353,1.65104,1.25514,-1.04199,0.97795,0.227568,-0.110439,
-0.0600945,-0.041115,0.422135,-1.58939,-0.188658,-0.0720631,0.517379,-0.0439202,0.0327332,-0.0491631,-0.0656915,-0.726338,-0.120511,-0.0481932,0,0,0,0,0,0,0,-0.0480154,-0.0487554,0.435163,-1.57775,-0.0791236,1.51537,1.31451,-0.164118,0.0321308,-0.179029,-0.018057,0.0860167,0.473674,-0.0157828,0.0551182,-28.8054,-0.661608,23.3646,0.0866663,1.20293,-0.150955,0.235528,0.610896,-2.26245,-0.629571,1.39852,0.366121,0.360165,1.29666,0.394344,-1.08008,0.316817,-0.165241,-0.112989,
-0.0602656,-0.040988,0.421943,-1.58965,-0.191682,-0.0725278,0.517188,-0.0427946,0.0317619,-0.0480244,-0.0656528,-0.756062,-0.116189,-0.0477648,0,0,0,0,0,0,0,-0.0480154,-0.0487554,0.435163,-1.57775,-0.0791236,1.51537,1.31451,-0.164118,0.0321308,-0.179029,-0.018057,0.0860167,0.473674,-0.0157828,0.0551182,-28.8054,-0.661608,23.3646,0.0866663,1.20293,-0.150955,0.235528,0.610896,-2.26245,-0.629571,1.39852,0.366121,0.360165,1.29666,0.394344,-1.08008,0.316817,-0.165241,-0.112989,
-0.0604329,-0.0408652,0.421755,-1.58992,-0.194824,-0.0729686,0.516998,-0.0418092,0.0306823,-0.0470203,-0.0657486,-0.785308,-0.110195,-0.047343,0,0,0,0,0,0,0,-0.0525645,-0.0478712,0.429695,-1.57776,-0.0983675,1.52347,1.31424,-0.0825569,0.0306213,-0.102738,-0.00262202,-0.560817,0.127159,-0.00643149,1.78089,-30.3526,0.913405,24.8087,-0.560612,2.3565,-0.197647,-0.765758,-0.0947628,-2.30744,-0.612657,0.81395,0.190837,0.177075,1.03382,0.235623,-1.30739,-0.101604,-0.489008,-0.115151,
-0.0605971,-0.0407474,0.42157,-1.59018,-0.198075,-0.0733758,0.516811,-0.0410529,0.0294646,-0.0462372,-0.0660351,-0.812814,-0.101787,-0.0469194,0,0,0,0,0,0,0,-0.0525645,-0.0478712,0.429695,-1.57776,-0.0983675,1.52347,1.31424,-0.0825569,0.0306213,-0.102738,-0.00262202,-0.560817,0.127159,-0.00643149,1.78089,-30.3526,0.913405,24.8087,-0.560612,2.3565,-0.197647,-1.63889,-0.452985,-1.44898,-0.343026,-0.250739,0.180793,0.167244,0.268339,0.21614,-0.892348,-0.261093,-0.490982,-0.115626,
-0.0607597,-0.0406351,0.421387,-1.59045,-0.201422,-0.0737356,0.516625,-0.0406623,0.0280697,-0.045808,-0.0665795,-0.836667,-0.0899702,-0.0464828,0,0,0,0,0,0,0,-0.0525645,-0.0478712,0.429695,-1.57776,-0.0983675,1.52347,1.31424,-0.0825569,0.0306213,-0.102738,-0.00262202,-0.560817,0.127159,-0.00643149,1.78089,-30.3526,0.913405,24.8087,-0.560612,2.3565,-0.197647,-1.63889,-0.452985,-1.44898,-0.343026,-0.250739,0.180793,0.167244,0.268339,0.21614,-0.892348,-0.261093,-0.490982,-0.115626,
-0.0609231,-0.0405293,0.421203,-1.59072,-0.204838,-0.0740296,0.516441,-0.0408425,0.0264473,-0.0459323,-0.0674547,-0.854,-0.0734813,-0.0460078,0,0,0,0,0,0,0,-0.0525645,-0.0478712,0.429695,-1.57776,-0.0983675,1.52347,1.31424,-0.0825569,0.0306213,-0.102738,-0.00262202,-0.560817,0.127159,-0.00643149,1.78089,-30.3526,0.913405,24.8087,-0.560612,2.3565,-0.197647,-0.898754,-0.966971,-1.3334,-0.349899,0.296835,-0.244544,-0.25034,0.559005,-0.207387,-1.09185,-0.634111,-0.685719,-0.122928,
-0.0610907,-0.0404312,0.421015,-1.59099,-0.20828,-0.0742329,0.516259,-0.0418908,0.0245362,-0.0469007,-0.0687201,-0.86062,-0.0508287,-0.0454613,0,0,0,0,0,0,0,-0.0525645,-0.0478712,0.429695,-1.57776,-0.0983675,1.52347,1.31424,-0.0825569,0.0306213,-0.102738,-0.00262202,-0.560817,0.127159,-0.00643149,1.78089,-30.3526,0.913405,24.8087,-0.560612,2.3565,-0.197647,-0.898754,-0.966971,-1.3334,-0.349899,0.296835,-0.244544,-0.25034,0.559005,-0.207387,-1.09185,-0.634111,-0.685719,-0.122928,
-0.0612676,-0.0403421,0.420819,-1.59127,-0.211682,-0.0743147,0.51608,-0.0442232,0.0222663,-0.0491207,-0.070387,-0.850562,-0.020454,-0.0447833,0,0,0,0,0,0,0,-0.0546876,-0.0470842,0.426905,-1.57812,-0.11789,1.52643,1.31418,-0.0536781,0.0283127,-0.066066,-0.0117488,-0.604186,0.10001,-0.000604203,0.717655,-30.2535,0.0128308,25.1855,-1.61713,1.80627,-0.204056,-0.827744,-2.49526,-1.09751,0.319741,0.309131,-1.05644,-1.05825,0.555794,-1.03041,-1.20779,-1.09977,-0.942108,-0.123398,
-0.0614611,-0.0402638,0.420606,-1.59156,-0.214945,-0.0742388,0.515904,-0.0483904,0.0195655,-0.0531343,-0.0723679,-0.8157,0.018969,-0.0438933,0,0,0,0,0,0,0,-0.0546876,-0.0470842,0.426905,-1.57812,-0.11789,1.52643,1.31418,-0.0536781,0.0283127,-0.066066,-0.0117488,-0.604186,0.10001,-0.000604203,0.717655,-30.2535,0.0128308,25.1855,-1.61713,1.80627,-0.204056,-0.827744,-2.49526,-1.09751,0.319741,0.309131,-1.05644,-1.05825,0.555794,-1.03041,-1.20779,-1.09977,-0.942108,-0.123398,
-0.0616814,-0.0401984,0.420368,-1.59186,-0.217928,-0.073966,0.515734,-0.0550693,0.0163683,-0.0596129,-0.0744363,-0.745635,0.0681952,-0.0426788,0,0,0,0,0,0,0,-0.0546876,-0.0470842,0.426905,-1.57812,-0.11789,1.52643,1.31418,-0.0536781,0.0283127,-0.066066,-0.0117488,-0.604186,0.10001,-0.000604203,0.717655,-30.2535,0.0128308,25.1855,-1.61713,1.80627,-0.204056,-0.360204,-3.61552,-1.18639,0.859976,0.693853,-1.72529,-1.72376,0.793352,-1.70925,-1.35498,-1.36945,-1.0565,-0.12528,
-0.0619414,-0.0401479,0.420091,-1.59217,-0.22044,-0.0734569,0.515569,-0.0650098,0.0126206,-0.06931,-0.0762413,-0.62816,0.127293,-0.0410132,0,0,0,0,0,0,0,-0.0546876,-0.0470842,0.426905,-1.57812,-0.11789,1.52643,1.31418,-0.0536781,0.0283127,-0.066066,-0.0117488,-0.604186,0.10001,-0.000604203,0.717655,-30.2535,0.0128308,25.1855,-1.61713,1.80627,-0.204056,-0.0723164,-3.98296,-2.07782,0.829411,1.30441,-1.96913,-1.96723,1.2987,-1.94544,-1.78811,-1.50671,-1.13812,-0.129956,
-0.0622572,-0.0401147,0.419759,-1.59248,-0.222241,-0.0726732,0.515414,-0.078952,0.00828598,-0.0829814,-0.0773901,-0.450265,0.195932,-0.0389502,0,0,0,0,0,0,0,-0.0546876,-0.0470842,0.426905,-1.57812,-0.11789,1.52643,1.31418,-0.0536781,0.0283127,-0.066066,-0.0117488,-0.604186,0.10001,-0.000604203,0.717655,-30.2535,0.0128308,25.1855,-1.61713,1.80627,-0.204056,-0.0723164,-3.98296,-2.07782,0.829411,1.30441,-1.96913,-1.96723,1.2987,-1.94544,-1.78811,-1.50671,-1.13812,-0.129956,
-0.0626477,-0.0401013,0.419353,-1.59279,-0.223036,-0.0715787,0.515257,-0.0976099,0.00336731,-0.101354,-0.0774696,-0.198556,0.27362,-0.0392328,0,0,0,0,0,0,0,-0.0546876,-0.0470842,0.426905,-1.57812,-0.11789,1.52643,1.31418,-0.0536781,0.0283127,-0.066066,-0.0117488,-0.604186,0.10001,-0.000604203,0.717655,-30.2535,0.0128308,25.1855,-1.61713,1.80627,-0.204056,-0.3971,-3.85121,-2.29833,0.610378,1.11672,-1.83671,-1.83529,1.20956,-1.80523,-1.84017,-1.59785,-1.12897,-0.134367,
-0.0630732,-0.0400827,0.418909,-1.59307,-0.223081,-0.0702657,0.515103,-0.106381,0.00465406,-0.111103,-0.0703692,-0.0113558,0.328247,-0.038381,0,0,0,0,0,0,0,-0.0558818,-0.0466276,0.425332,-1.57849,-0.137557,1.52935,1.31412,-0.0408182,0.0122768,-0.0451023,-0.0245935,-0.596372,0.101808,0.000877193,-0.0718349,-30.1265,-0.736986,25.5069,-1.40931,2.4627,-0.163772,-0.3971,-3.85121,-2.29833,0.610378,1.11672,-1.83671,-1.83529,1.20956,-1.80523,-1.84017,-1.59785,-1.12897,-0.134367,
-0.0635121,-0.040053,0.418448,-1.59332,-0.222559,-0.0687831,0.514952,-0.109712,0.00740357,-0.115117,-0.0631913,0.130554,0.37065,-0.0378364,0,0,0,0,0,0,0,-0.0558818,-0.0466276,0.425332,-1.57849,-0.137557,1.52935,1.31412,-0.0408182,0.0122768,-0.0451023,-0.0245935,-0.596372,0.101808,0.000877193,-0.0718349,-30.1265,-0.736986,25.5069,-1.40931,2.4627,-0.163772,-0.731768,-3.01459,-1.71858,0.186214,0.506189,-1.33948,-1.34179,0.702919,-1.29854,-1.46133,-1.54245,-0.966934,-0.138779,
-0.0639507,-0.0400123,0.417986,-1.59355,-0.2216,-0.0671632,0.514802,-0.109653,0.0101883,-0.115506,-0.057486,0.239675,0.404982,-0.0375278,0,0,0,0,0,0,0,-0.0558818,-0.0466276,0.425332,-1.57849,-0.137557,1.52935,1.31412,-0.0408182,0.0122768,-0.0451023,-0.0245935,-0.596372,0.101808,0.000877193,-0.0718349,-30.1265,-0.736986,25.5069,-1.40931,2.4627,-0.163772,-0.583475,-2.98768,-1.89211,0.285619,0.616653,-1.33588,-1.34259,0.769592,-1.29493,-1.41878,-1.43048,-0.84285,-0.141552,
-0.0643806,-0.0399619,0.417532,-1.59376,-0.220302,-0.0654302,0.514652,-0.107479,0.0126064,-0.113615,-0.0532815,0.324643,0.433234,-0.0373648,0,0,0,0,0,0,0,-0.0558818,-0.0466276,0.425332,-1.57849,-0.137557,1.52935,1.31412,-0.0408182,0.0122768,-0.0451023,-0.0245935,-0.596372,0.101808,0.000877193,-0.0718349,-30.1265,-0.736986,25.5069,-1.40931,2.4627,-0.163772,-0.583475,-2.98768,-1.89211,0.285619,0.616653,-1.33588,-1.34259,0.769592,-1.29493,-1.41878,-1.43048,-0.84285,-0.141552,
-0.0647967,-0.0399036,0.417091,-1.59396,-0.218735,-0.0636037,0.514503,-0.104026,0.0145765,-0.110334,-0.0502701,0.3916,0.456621,-0.0372929,0,0,0,0,0,0,0,-0.0558818,-0.0466276,0.425332,-1.57849,-0.137557,1.52935,1.31412,-0.0408182,0.0122768,-0.0451023,-0.0245935,-0.596372,0.101808,0.000877193,-0.0718349,-30.1265,-0.736986,25.5069,-1.40931,2.4627,-0.163772,-1.11986,-3.9121,-1.82541,1.11659,0.16668,-1.68049,-1.68716,0.528734,-1.66372,-1.25281,-1.32129,-0.784427,-0.146262,
-0.0709287,-0.0312022,0.410746,-1.59315,-0.259637,-0.21567,0.51103,-0.160051,0.125965,-0.169926,-0.11718,-1.19544,-0.733789,-0.0863542,0,0,0,0,0,0,0,-0.0574763,-0.0466486,0.423491,-1.57971,-0.150019,1.53312,1.31406,-0.0539227,0.00079461,-0.0690285,-0.0462228,-0.168027,0.146042,0.00363446,-0.730404,-29.4283,-1.53838,26.705,0.984799,3.01293,-0.345047,-1.11986,-3.9121,-1.82541,1.11659,0.16668,-1.68049,-1.68716,0.528734,-1.66372,-1.25281,-1.32129,-0.784427,-0.146262,
-0.0777053,-0.036055,0.402,-1.59168,-0.212918,-0.0767902,0.517986,-0.136166,0.0726358,-0.144346,-0.0679741,0.376169,-0.0914519,-0.0504351,0,0,0,0,0,0,0,-0.0574763,-0.0466486,0.423491,-1.57971,-0.150019,1.53312,1.31406,-0.0539227,0.00079461,-0.0690285,-0.0462228,-0.168027,0.146042,0.00363446,-0.730404,-29.4283,-1.53838,26.705,0.984799,3.01293,-0.345047,-1.05301,-4.10493,-1.39014,1.67739,-0.0418805,-1.76486,-1.76635,0.327278,-1.77611,-0.89245,-1.02923,-0.590929,-0.148895,
-0.0782455,-0.0357689,0.401427,-1.59195,-0.211311,-0.0771813,0.517786,-0.135063,0.0715112,-0.143227,-0.0674452,0.401882,-0.097791,-0.0499784,0,0,0,0,0,0,0,-0.0574763,-0.0466486,0.423491,-1.57971,-0.150019,1.53312,1.31406,-0.0539227,0.00079461,-0.0690285,-0.0462228,-0.168027,0.146042,0.00363446,-0.730404,-29.4283,-1.53838,26.705,0.984799,3.01293,-0.345047,-1.05301,-4.10493,-1.39014,1.67739,-0.0418805,-1.76486,-1.76635,0.327278,-1.77611,-0.89245,-1.02923,-0.590929,-0.148895,
-0.078782,-0.0354876,0.400858,-1.59222,-0.209593,-0.0775988,0.517588,-0.134115,0.0703225,-0.142264,-0.0669095,0.429572,-0.104364,-0.0495284,0,0,0,0,0,0,0,-0.0574763,-0.0466486,0.423491,-1.57971,-0.150019,1.53312,1.31406,-0.0539227,0.00079461,-0.0690285,-0.0462228,-0.168027,0.146042,0.00363446,-0.730404,-29.4283,-1.53838,26.705,0.984799,3.01293,-0.345047,-0.362788,-2.82387,-1.03289,1.36153,0.100082,-1.1969,-1.19006,0.245425,-1.22149,-0.433193,-0.562288,-0.155697,-0.149665,
-0.0793153,-0.0352114,0.400292,-1.59249,-0.207754,-0.0780432,0.517391,-0.133318,0.0690658,-0.141453,-0.0663687,0.45958,-0.111106,-0.0490872,0,0,0,0,0,0,0,-0.0574763,-0.0466486,0.423491,-1.57971,-0.150019,1.53312,1.31406,-0.0539227,0.00079461,-0.0690285,-0.0462228,-0.168027,0.146042,0.00363446,-0.730404,-29.4283,-1.53838,26.705,0.984799,3.01293,-0.345047,0.34778,-0.457606,-1.02181,0.151229,0.506384,-0.0974131,-0.0892023,0.39014,-0.104076,-0.244139,-0.078743,0.185936,-0.15329,
-0.0798459,-0.0349404,0.399729,-1.59275,-0.205785,-0.078515,0.517197,-0.132669,0.0677357,-0.14079,-0.0658261,0.492268,-0.117936,-0.0486557,0,0,0,0,0,0,0,-0.0597278,-0.0466974,0.421034,-1.58117,-0.153632,1.5336,1.31389,-0.0805037,-0.0109801,-0.086238,-0.0468032,-0.159926,-0.0930741,-0.00730268,-1.86902,-27.5835,-2.46276,26.7526,1.44897,3.02025,-0.204056,0.34778,-0.457606,-1.02181,0.151229,0.506384,-0.0974131,-0.0892023,0.39014,-0.104076,-0.244139,-0.078743,0.185936,-0.15329,
-0.0803746,-0.0346751,0.399168,-1.59301,-0.203673,-0.079014,0.517004,-0.132167,0.0663251,-0.140274,-0.0652874,0.528027,-0.124753,-0.0482384,0,0,0,0,0,0,0,-0.0597278,-0.0466974,0.421034,-1.58117,-0.153632,1.5336,1.31389,-0.0805037,-0.0109801,-0.086238,-0.0468032,-0.159926,-0.0930741,-0.00730268,-1.86902,-27.5835,-2.46276,26.7526,1.44897,3.02025,-0.204056,-0.424801,0.61035,-0.795165,-0.31576,0.00034663,0.583563,0.584986,0.134672,0.587394,-0.165795,0.256791,0.151222,-0.162142,
-0.0809018,-0.0344158,0.398608,-1.59327,-0.201404,-0.0795396,0.516812,-0.131811,0.0648257,-0.139904,-0.0647623,0.567271,-0.131414,-0.047836,0,0,0,0,0,0,0,-0.0597278,-0.0466974,0.421034,-1.58117,-0.153632,1.5336,1.31389,-0.0805037,-0.0109801,-0.086238,-0.0468032,-0.159926,-0.0930741,-0.00730268,-1.86902,-27.5835,-2.46276,26.7526,1.44897,3.02025,-0.204056,-0.424801,0.61035,-0.795165,-0.31576,0.00034663,0.583563,0.584986,0.134672,0.587394,-0.165795,0.256791,0.151222,-0.162142,
-0.0814282,-0.0341629,0.398049,-1.59353,-0.198962,-0.0800905,0.516623,-0.131599,0.0632279,-0.139679,-0.0642658,0.61043,-0.137722,-0.0474541,0,0,0,0,0,0,0,-0.0597278,-0.0466974,0.421034,-1.58117,-0.153632,1.5336,1.31389,-0.0805037,-0.0109801,-0.086238,-0.0468032,-0.159926,-0.0930741,-0.00730268,-1.86902,-27.5835,-2.46276,26.7526,1.44897,3.02025,-0.204056,1.24588,2.00056,-1.7765,-1.22333,1.88085,0.955316,0.966668,1.42876,0.974275,-0.833539,0.608449,0.0556247,-0.167817,
-0.0819544,-0.0339168,0.397491,-1.59378,-0.19633,-0.0806641,0.516434,-0.13153,0.0615211,-0.139598,-0.0638207,0.657936,-0.143395,-0.0470997,0,0,0,0,0,0,0,-0.0597278,-0.0466974,0.421034,-1.58117,-0.153632,1.5336,1.31389,-0.0805037,-0.0109801,-0.086238,-0.0468032,-0.159926,-0.0930741,-0.00730268,-1.86902,-27.5835,-2.46276,26.7526,1.44897,3.02025,-0.204056,0.975788,2.88441,-2.5964,-1.60489,2.2277,1.45801,1.47024,1.85848,1.4811,-1.19329,1.06612,0.0178638,-0.17246,
-0.0824808,-0.0336781,0.396932,-1.59404,-0.19349,-0.0812562,0.516247,-0.131599,0.059695,-0.139654,-0.0634609,0.710188,-0.148028,-0.046781,0,0,0,0,0,0,0,-0.0597278,-0.0466974,0.421034,-1.58117,-0.153632,1.5336,1.31389,-0.0805037,-0.0109801,-0.086238,-0.0468032,-0.159926,-0.0930741,-0.00730268,-1.86902,-27.5835,-2.46276,26.7526,1.44897,3.02025,-0.204056,0.975788,2.88441,-2.5964,-1.60489,2.2277,1.45801,1.47024,1.85848,1.4811,-1.19329,1.06612,0.0178638,-0.17246,
-0.0830079,-0.0334471,0.396373,-1.59429,-0.19042,-0.0818604,0.516061,-0.131788,0.0577401,-0.139831,-0.0632365,0.767483,-0.151045,-0.0465099,0,0,0,0,0,0,0,-0.0631447,-0.0468907,0.41702,-1.58212,-0.154084,1.53096,1.31384,-0.109352,-0.00521411,-0.140349,-0.00632115,0.0223498,-0.0923055,-0.000778197,0.182071,-27.6073,-0.463243,25.2847,1.18621,2.90032,-0.157364,0.229099,2.77318,-2.73887,-1.4415,1.85897,1.53166,1.54413,1.74593,1.54835,-1.26447,1.204,-0.0705512,-0.171588,
-0.0835362,-0.0332245,0.395813,-1.59454,-0.1871,-0.0824669,0.515876,-0.132062,0.0556508,-0.140097,-0.0632169,0.829888,-0.151628,-0.0463061,0,0,0,0,0,0,0,-0.0631447,-0.0468907,0.41702,-1.58212,-0.154084,1.53096,1.31384,-0.109352,-0.00521411,-0.140349,-0.00632115,0.0223498,-0.0923055,-0.000778197,0.182071,-27.6073,-0.463243,25.2847,1.18621,2.90032,-0.157364,0.229099,2.77318,-2.73887,-1.4415,1.85897,1.53166,1.54413,1.74593,1.54835,-1.26447,1.204,-0.0705512,-0.171588,
-0.0840641,-0.0330102,0.395252,-1.59479,-0.183528,-0.0830623,0.515691,-0.131978,0.0535796,-0.140037,-0.0633892,0.893117,-0.148851,-0.0461639,0,0,0,0,0,0,0,-0.0631447,-0.0468907,0.41702,-1.58212,-0.154084,1.53096,1.31384,-0.109352,-0.00521411,-0.140349,-0.00632115,0.0223498,-0.0923055,-0.000778197,0.182071,-27.6073,-0.463243,25.2847,1.18621,2.90032,-0.157364,-0.180997,2.88932,-2.35864,-1.4677,1.44793,1.65258,1.66547,1.47172,1.66779,-1.13942,1.21808,-0.124699,-0.170836,
-0.0845842,-0.032802,0.394699,-1.59505,-0.179764,-0.0836296,0.515507,-0.130044,0.0520346,-0.138248,-0.0635602,0.940934,-0.141825,-0.0460494,0,0,0,0,0,0,0,-0.0631447,-0.0468907,0.41702,-1.58212,-0.154084,1.53096,1.31384,-0.109352,-0.00521411,-0.140349,-0.00632115,0.0223498,-0.0923055,-0.000778197,0.182071,-27.6073,-0.463243,25.2847,1.18621,2.90032,-0.157364,-1.38579,3.58755,-1.92572,-1.7593,0.449681,2.21857,2.22613,0.870879,2.2392,-0.908142,1.39545,-0.140958,-0.170849,
-0.0850922,-0.0326003,0.394158,-1.59531,-0.175854,-0.0841399,0.515322,-0.126987,0.0504453,-0.135276,-0.0644999,0.977454,-0.127585,-0.0462104,0,0,0,0,0,0,0,-0.0631447,-0.0468907,0.41702,-1.58212,-0.154084,1.53096,1.31384,-0.109352,-0.00521411,-0.140349,-0.00632115,0.0223498,-0.0923055,-0.000778197,0.182071,-27.6073,-0.463243,25.2847,1.18621,2.90032,-0.157364,-1.38579,3.58755,-1.92572,-1.7593,0.449681,2.21857,2.22613,0.870879,2.2392,-0.908142,1.39545,-0.140958,-0.170849,
-0.0855849,-0.0324058,0.393632,-1.59557,-0.171832,-0.0845535,0.515135,-0.123178,0.0486101,-0.131499,-0.0664683,1.0055,-0.103398,-0.0467508,0,0,0,0,0,0,0,-0.0670689,-0.046796,0.411973,-1.58261,-0.150991,1.52859,1.31381,-0.142354,-0.00320441,-0.175952,-0.0218449,0.181486,-0.066415,-0.000667678,0.94379,-28.7816,0.187391,25.8798,1.47277,2.80785,-0.150955,-0.968013,3.15303,-1.94363,-1.47529,0.826206,1.90956,1.91803,1.11627,1.92408,-1.01357,1.37296,-0.222525,-0.17164,
-0.0860602,-0.0322199,0.393124,-1.59585,-0.167724,-0.0848193,0.514944,-0.118817,0.0464701,-0.127117,-0.0695839,1.02702,-0.0664409,-0.047847,0,0,0,0,0,0,0,-0.0670689,-0.046796,0.411973,-1.58261,-0.150991,1.52859,1.31381,-0.142354,-0.00320441,-0.175952,-0.0218449,0.181486,-0.066415,-0.000667678,0.94379,-28.7816,0.187391,25.8798,1.47277,2.80785,-0.150955,-0.968013,3.15303,-1.94363,-1.47529,0.826206,1.90956,1.91803,1.11627,1.92408,-1.01357,1.37296,-0.222525,-0.17164,
-0.086516,-0.0320436,0.392635,-1.59615,-0.163551,-0.084876,0.514745,-0.113949,0.044088,-0.122165,-0.0738094,1.04328,-0.0141667,-0.0497541,0,0,0,0,0,0,0,-0.0670689,-0.046796,0.411973,-1.58261,-0.150991,1.52859,1.31381,-0.142354,-0.00320441,-0.175952,-0.0218449,0.181486,-0.066415,-0.000667678,0.94379,-28.7816,0.187391,25.8798,1.47277,2.80785,-0.150955,-1.20431,2.55155,-1.73952,-1.0687,0.608828,1.63625,1.64141,0.99143,1.64469,-0.971751,1.31145,-0.304451,-0.172866,
-0.0869497,-0.0318764,0.392169,-1.59646,-0.159331,-0.0846581,0.514536,-0.108432,0.0417838,-0.116482,-0.0786134,1.05489,0.054469,-0.0522436,0,0,0,0,0,0,0,-0.0670689,-0.046796,0.411973,-1.58261,-0.150991,1.52859,1.31381,-0.142354,-0.00320441,-0.175952,-0.0218449,0.181486,-0.066415,-0.000667678,0.94379,-28.7816,0.187391,25.8798,1.47277,2.80785,-0.150955,-1.20431,2.55155,-1.73952,-1.0687,0.608828,1.63625,1.64141,0.99143,1.64469,-0.971751,1.31145,-0.304451,-0.172866,
-0.0873348,-0.0317054,0.391751,-1.59678,-0.15532,-0.0841264,0.514354,-0.0962715,0.0427731,-0.104457,-0.0801096,1.00292,0.132912,-0.0454395,0,0,0,0,0,0,0,-0.0670689,-0.046796,0.411973,-1.58261,-0.150991,1.52859,1.31381,-0.142354,-0.00320441,-0.175952,-0.0218449,0.181486,-0.066415,-0.000667678,0.94379,-28.7816,0.187391,25.8798,1.47277,2.80785,-0.150955,-1.09091,2.36053,-1.27786,-0.853578,0.502071,1.51001,1.51349,0.857749,1.51247,-0.809098,1.3085,-0.318125,-0.17218,
