PerkyPenguin/Analysis-on-Approximated-Derivatives/Code_and_Data/PaperData/Real_Robot/Scene_2/contact_change/15/trajectory.csv
Commanded Joint 0 Position,Commanded Joint 1 Position,Commanded Joint 2 Position,Commanded Joint 3 Position,Commanded Joint 4 Position,Commanded Joint 5 Position,Commanded Joint 6 Position,Commanded Joint 0 Velocity,Commanded Joint 1 Velocity,Commanded Joint 2 Velocity,Commanded Joint 3 Velocity,Commanded Joint 4 Velocity,Commanded Joint 5 Velocity,Commanded Joint 6 Velocity,Commanded Joint 0 Torque,Commanded Joint 1 Torque,Commanded Joint 2 Torque,Commanded Joint 3 Torque,Commanded Joint 4 Torque,Commanded Joint 5 Torque,Commanded Joint 6 Torque,Actual Joint 0 Position,Actual Joint 1 Position,Actual Joint 2 Position,Actual Joint 3 Position,Actual Joint 4 Position,Actual Joint 5 Position,Actual Joint 6 Position,Actual Joint 0 Velocity,Actual Joint 1 Velocity,Actual Joint 2 Velocity,Actual Joint 3 Velocity,Actual Joint 4 Velocity,Actual Joint 5 Velocity,Actual Joint 6 Velocity,Actual Joint 0 Torque,Actual Joint 1 Torque,Actual Joint 2 Torque,Actual Joint 3 Torque,Actual Joint 4 Torque,Actual Joint 5 Torque,Actual Joint 6 Torque,EE ext force 0,EE ext force 1,EE ext force 2,EE ext force 3,EE ext force 4,EE ext force 5,joint ext torque 0,joint ext torque 1,joint ext torque 2,joint ext torque 3,joint ext torque 4,joint ext torque 5,joint ext torque 6,
0.021499,-0.0529148,0.513838,-1.56256,0.0371288,-0.0114311,0.532872,0.0110829,0.0310437,0.01532,-0.144126,-0.0714531,0.199461,-0.00124679,0,0,0,0,0,0,0,0.0214275,-0.0530645,0.513731,-1.56112,0.0376091,1.55739,1.31829,9.8086e-06,-0.000628984,0.0010519,-0.000179408,-0.0160564,0.000224409,-0.00062445,0.182071,-27.3811,-0.788561,27.0026,1.11297,3.05962,0.0980684,2.43532,2.14666,2.35883,-1.08253,1.3272,0.210121,0.203747,0.523175,0.234819,0.232195,0.176402,-0.334797,0.0918609,
0.0215571,-0.0527097,0.513916,-1.56318,0.036769,-0.0106,0.532866,0.014538,0.0512531,0.0195426,-0.154944,-0.0899507,0.207758,-0.00133638,0,0,0,0,0,0,0,0.0214275,-0.0530645,0.513731,-1.56112,0.0376091,1.55739,1.31829,9.8086e-06,-0.000628984,0.0010519,-0.000179408,-0.0160564,0.000224409,-0.00062445,0.182071,-27.3811,-0.788561,27.0026,1.11297,3.05962,0.0980684,2.52397,2.16269,2.36773,-1.10661,1.38338,0.188369,0.182616,0.550263,0.213356,0.225602,0.160091,-0.335478,0.0952213,
0.0214246,-0.0530734,0.513729,-1.56113,0.037468,-0.0134054,0.532889,-0.000369831,-0.000448949,-0.000296793,-1.79456e-05,-0.00596509,-5.60975e-05,-1.1888e-05,0,0,0,0,0,0,0,0.0214275,-0.0530645,0.513731,-1.56112,0.0376091,1.55739,1.31829,9.8086e-06,-0.000628984,0.0010519,-0.000179408,-0.0160564,0.000224409,-0.00062445,0.182071,-27.3811,-0.788561,27.0026,1.11297,3.05962,0.0980684,2.3178,2.0747,2.50775,-0.994591,1.17025,0.205098,0.198008,0.40401,0.227214,0.31192,0.168652,-0.325592,0.0970016,
0.021423,-0.053075,0.513728,-1.56113,0.0374488,-0.0134057,0.532889,-0.000410983,-0.000388704,-0.000339454,2.48241e-05,-0.00479969,-8.57567e-05,-5.80805e-06,0,0,0,0,0,0,0,0.0214258,-0.0530643,0.513728,-1.56113,0.037643,1.55739,1.31829,4.45492e-05,-0.000955974,0.00488201,-0.00854629,-0.00851727,-0.0012669,0.000190619,0.209842,-27.2344,-0.713182,26.106,0.770565,3.23174,0.0779268,2.3178,2.0747,2.50775,-0.994591,1.17025,0.205098,0.198008,0.40401,0.227214,0.31192,0.168652,-0.325592,0.0970016,
0.0214213,-0.0530763,0.513727,-1.56113,0.0374332,-0.0134061,0.532889,-0.000425747,-0.000339709,-0.000353758,5.20872e-05,-0.00390381,-0.000100753,-1.81053e-06,0,0,0,0,0,0,0,0.0214258,-0.0530643,0.513728,-1.56113,0.037643,1.55739,1.31829,4.45492e-05,-0.000955974,0.00488201,-0.00854629,-0.00851727,-0.0012669,0.000190619,0.209842,-27.2344,-0.713182,26.106,0.770565,3.23174,0.0779268,2.28209,1.78864,2.50225,-0.769618,1.10377,0.0850152,0.0790788,0.346822,0.0994518,0.366264,0.154768,-0.284836,0.0961394,
0.0214196,-0.0530775,0.513725,-1.56112,0.0374203,-0.0134066,0.532889,-0.00042327,-0.000300855,-0.00034961,6.83734e-05,-0.00320794,-0.000108402,8.04992e-07,0,0,0,0,0,0,0,0.0214258,-0.0530643,0.513728,-1.56113,0.037643,1.55739,1.31829,4.45492e-05,-0.000955974,0.00488201,-0.00854629,-0.00851727,-0.0012669,0.000190619,0.209842,-27.2344,-0.713182,26.106,0.770565,3.23174,0.0779268,2.28209,1.78864,2.50225,-0.769618,1.10377,0.0850152,0.0790788,0.346822,0.0994518,0.366264,0.154768,-0.284836,0.0961394,
0.0214179,-0.0530786,0.513724,-1.56112,0.0374097,-0.013407,0.532889,-0.000409838,-0.000270715,-0.000333811,7.72424e-05,-0.0026617,-0.00011336,2.48311e-06,0,0,0,0,0,0,0,0.0214258,-0.0530643,0.513728,-1.56113,0.037643,1.55739,1.31829,4.45492e-05,-0.000955974,0.00488201,-0.00854629,-0.00851727,-0.0012669,0.000190619,0.209842,-27.2344,-0.713182,26.106,0.770565,3.23174,0.0779268,1.08518,1.33463,1.71728,-0.627177,0.494099,0.216998,0.209662,0.13588,0.233253,0.196675,0.142256,-0.29108,0.0941234,
0.0214164,-0.0530796,0.513723,-1.56112,0.0374008,-0.0134075,0.532889,-0.00038977,-0.000247893,-0.000311022,8.12669e-05,-0.00222831,-0.000118294,3.52301e-06,0,0,0,0,0,0,0,0.0214258,-0.0530643,0.513728,-1.56113,0.037643,1.55739,1.31829,4.45492e-05,-0.000955974,0.00488201,-0.00854629,-0.00851727,-0.0012669,0.000190619,0.209842,-27.2344,-0.713182,26.106,0.770565,3.23174,0.0779268,2.13406,2.25747,0.972687,-1.47885,1.56789,0.341302,0.332592,0.871887,0.386575,-0.211989,0.162353,-0.278936,0.0932686,
0.0219393,-0.0531762,0.514235,-1.56068,0.0234704,-0.0218933,0.532844,0.00558025,-0.00591327,0.00572276,0.0021858,-0.373838,-0.235574,-0.00105796,0,0,0,0,0,0,0,0.0214061,-0.0531311,0.513705,-1.56168,0.037603,1.55813,1.31829,0.000800333,-0.000802704,-0.00169034,0.00201088,0.00720169,0.00102976,-0.000732391,0.360599,-27.3097,-0.510851,27.4747,0.690914,3.25188,0.110886,2.13406,2.25747,0.972687,-1.47885,1.56789,0.341302,0.332592,0.871887,0.386575,-0.211989,0.162353,-0.278936,0.0932686,
0.0219079,-0.0532581,0.5142,-1.56123,0.0245075,-0.0206946,0.532848,0.00570015,-0.00602571,0.0058801,0.00225543,-0.352587,-0.223577,-0.000960482,0,0,0,0,0,0,0,0.0214061,-0.0531311,0.513705,-1.56168,0.037603,1.55813,1.31829,0.000800333,-0.000802704,-0.00169034,0.00201088,0.00720169,0.00102976,-0.000732391,0.360599,-27.3097,-0.510851,27.4747,0.690914,3.25188,0.110886,3.17026,2.4957,1.42559,-1.55403,2.13483,0.15417,0.142374,1.09345,0.20216,-0.112043,0.135796,-0.241246,0.0951012,
0.0219266,-0.0532811,0.51422,-1.56122,0.0230832,-0.021602,0.532844,0.00468223,-0.00575826,0.00486343,0.00162239,-0.356094,-0.226847,-0.000940145,0,0,0,0,0,0,0,0.0214061,-0.0531311,0.513705,-1.56168,0.037603,1.55813,1.31829,0.000800333,-0.000802704,-0.00169034,0.00201088,0.00720169,0.00102976,-0.000732391,0.360599,-27.3097,-0.510851,27.4747,0.690914,3.25188,0.110886,3.17026,2.4957,1.42559,-1.55403,2.13483,0.15417,0.142374,1.09345,0.20216,-0.112043,0.135796,-0.241246,0.0951012,
0.0219415,-0.0533028,0.514235,-1.56122,0.0216485,-0.0225193,0.532841,0.00373542,-0.00543025,0.00391593,0.00107135,-0.358673,-0.229336,-0.000919888,0,0,0,0,0,0,0,0.0214061,-0.0531311,0.513705,-1.56168,0.037603,1.55813,1.31829,0.000800333,-0.000802704,-0.00169034,0.00201088,0.00720169,0.00102976,-0.000732391,0.360599,-27.3097,-0.510851,27.4747,0.690914,3.25188,0.110886,3.20704,2.58542,1.9096,-1.48179,1.96247,0.184306,0.166813,0.90646,0.232617,0.0913471,0.149558,-0.21383,0.095665,
0.021953,-0.0533231,0.514248,-1.56121,0.0202065,-0.023444,0.532837,0.00286067,-0.00506332,0.00303925,0.000589841,-0.360496,-0.231173,-0.000900072,0,0,0,0,0,0,0,0.0214061,-0.0531311,0.513705,-1.56168,0.037603,1.55813,1.31829,0.000800333,-0.000802704,-0.00169034,0.00201088,0.00720169,0.00102976,-0.000732391,0.360599,-27.3097,-0.510851,27.4747,0.690914,3.25188,0.110886,3.20704,2.58542,1.9096,-1.48179,1.96247,0.184306,0.166813,0.90646,0.232617,0.0913471,0.149558,-0.21383,0.095665,
0.0219612,-0.0533418,0.514257,-1.56121,0.0187597,-0.0243739,0.532834,0.00205663,-0.00467425,0.00223251,0.000167966,-0.361698,-0.232468,-0.000880901,0,0,0,0,0,0,0,0.0214061,-0.0531311,0.513705,-1.56168,0.037603,1.55813,1.31829,0.000800333,-0.000802704,-0.00169034,0.00201088,0.00720169,0.00102976,-0.000732391,0.360599,-27.3097,-0.510851,27.4747,0.690914,3.25188,0.110886,2.91677,3.19919,1.73737,-1.96148,1.84457,0.545563,0.526863,0.891289,0.609072,0.00925614,0.193028,-0.232743,0.0961417,
0.0219665,-0.0533589,0.514263,-1.56121,0.0173102,-0.0253071,0.53283,0.00132054,-0.00427585,0.00149322,-0.000202267,-0.362386,-0.233312,-0.000862479,0,0,0,0,0,0,0,0.0214778,-0.0531173,0.513783,-1.56159,0.0356976,1.55802,1.31829,0.00187399,0.00139619,0.0016097,0.00452878,-0.146354,-0.000511276,-0.000669943,-0.40112,-27.5081,-1.31224,26.4313,-0.17609,2.81426,0.0980684,2.68764,2.7987,2.10646,-1.68836,1.45666,0.422155,0.407385,0.5768,0.474964,0.192529,0.0524882,-0.228048,0.0957449,
0.022389,-0.0532846,0.514605,-1.55984,-0.00367752,-0.0552098,0.532362,0.00277606,-0.0105679,0.00190993,0.00186622,-1.13445,-1.16577,-0.0108802,0,0,0,0,0,0,0,0.0214778,-0.0531173,0.513783,-1.56159,0.0356976,1.55802,1.31829,0.00187399,0.00139619,0.0016097,0.00452878,-0.146354,-0.000511276,-0.000669943,-0.40112,-27.5081,-1.31224,26.4313,-0.17609,2.81426,0.0980684,2.68764,2.7987,2.10646,-1.68836,1.45666,0.422155,0.407385,0.5768,0.474964,0.192529,0.0524882,-0.228048,0.0957449,
0.0223192,-0.0532435,0.514552,-1.55995,-0.00787322,-0.0513758,0.532418,0.001074,-0.0090471,0.000296644,0.00128137,-1.14969,-1.0585,-0.0096482,0,0,0,0,0,0,0,0.0214778,-0.0531173,0.513783,-1.56159,0.0356976,1.55802,1.31829,0.00187399,0.00139619,0.0016097,0.00452878,-0.146354,-0.000511276,-0.000669943,-0.40112,-27.5081,-1.31224,26.4313,-0.17609,2.81426,0.0980684,2.39251,2.75342,2.24893,-1.71446,1.19458,0.483955,0.474064,0.414079,0.534373,0.215664,-0.0204733,-0.289059,0.0932808,
0.022312,-0.0532722,0.514542,-1.55996,-0.0125333,-0.0556555,0.53238,-0.0017926,-0.0071791,-0.0025366,-0.00207248,-1.16502,-1.06994,-0.00951345,0,0,0,0,0,0,0,0.0214778,-0.0531173,0.513783,-1.56159,0.0356976,1.55802,1.31829,0.00187399,0.00139619,0.0016097,0.00452878,-0.146354,-0.000511276,-0.000669943,-0.40112,-27.5081,-1.31224,26.4313,-0.17609,2.81426,0.0980684,2.39251,2.75342,2.24893,-1.71446,1.19458,0.483955,0.474064,0.414079,0.534373,0.215664,-0.0204733,-0.289059,0.0932808,
0.0222942,-0.053293,0.514521,-1.55998,-0.0172444,-0.0599662,0.532342,-0.00445918,-0.00518666,-0.00517734,-0.00499937,-1.17778,-1.07768,-0.00937981,0,0,0,0,0,0,0,0.0214778,-0.0531173,0.513783,-1.56159,0.0356976,1.55802,1.31829,0.00187399,0.00139619,0.0016097,0.00452878,-0.146354,-0.000511276,-0.000669943,-0.40112,-27.5081,-1.31224,26.4313,-0.17609,2.81426,0.0980684,3.21738,3.52597,2.31995,-2.3207,1.77711,0.595678,0.590952,0.730385,0.659462,0.12265,-0.0607139,-0.296448,0.0961828,
0.0222665,-0.0533056,0.514491,-1.56001,-0.0219981,-0.0642956,0.532305,-0.00692897,-0.00314557,-0.00762764,-0.00755065,-1.18842,-1.08233,-0.00924771,0,0,0,0,0,0,0,0.0216264,-0.0531454,0.513935,-1.56146,0.0279718,1.55629,1.31829,0.00705903,-0.000670356,0.00941786,0.0223695,-0.434644,-0.199208,0.00135281,-1.00811,-27.3335,-1.8875,25.2332,-0.963444,1.85937,0.050461,3.21738,3.52597,2.31995,-2.3207,1.77711,0.595678,0.590952,0.730385,0.659462,0.12265,-0.0607139,-0.296448,0.0961828,
0.0222296,-0.05331,0.514451,-1.56005,-0.0267873,-0.0686332,0.532269,-0.00920855,-0.00111212,-0.00989323,-0.00977037,-1.19731,-1.08442,-0.00911736,0,0,0,0,0,0,0,0.0216264,-0.0531454,0.513935,-1.56146,0.0279718,1.55629,1.31829,0.00705903,-0.000670356,0.00941786,0.0223695,-0.434644,-0.199208,0.00135281,-1.00811,-27.3335,-1.8875,25.2332,-0.963444,1.85937,0.050461,4.01499,4.21913,3.0575,-2.69151,2.02251,0.67132,0.665966,0.714011,0.743636,0.351737,-0.119369,-0.239094,0.103498,
0.0172084,-0.0522114,0.509101,-1.56318,0.0034212,-0.0503786,0.528612,-0.157566,0.0487108,-0.167192,-0.0787791,-1.01338,-1.19442,-0.0923715,0,0,0,0,0,0,0,0.0216264,-0.0531454,0.513935,-1.56146,0.0279718,1.55629,1.31829,0.00705903,-0.000670356,0.00941786,0.0223695,-0.434644,-0.199208,0.00135281,-1.00811,-27.3335,-1.8875,25.2332,-0.963444,1.85937,0.050461,4.01499,4.21913,3.0575,-2.69151,2.02251,0.67132,0.665966,0.714011,0.743636,0.351737,-0.119369,-0.239094,0.103498,
0.0172846,-0.0524872,0.509216,-1.56304,-0.00849207,-0.0550523,0.529025,-0.156288,0.0458799,-0.165285,-0.0743965,-1.04558,-1.21644,-0.0827399,0,0,0,0,0,0,0,0.0216264,-0.0531454,0.513935,-1.56146,0.0279718,1.55629,1.31829,0.00705903,-0.000670356,0.00941786,0.0223695,-0.434644,-0.199208,0.00135281,-1.00811,-27.3335,-1.8875,25.2332,-0.963444,1.85937,0.050461,4.12934,3.28346,3.34533,-2.43311,2.10783,0.188923,0.180938,0.762221,0.266866,0.132467,-0.514129,-0.596436,0.105908,
0.0166316,-0.0522777,0.508527,-1.56336,-0.0127777,-0.0600174,0.528698,-0.163246,0.0523847,-0.172235,-0.0791949,-1.07142,-1.24127,-0.0816852,0,0,0,0,0,0,0,0.0216264,-0.0531454,0.513935,-1.56146,0.0279718,1.55629,1.31829,0.00705903,-0.000670356,0.00941786,0.0223695,-0.434644,-0.199208,0.00135281,-1.00811,-27.3335,-1.8875,25.2332,-0.963444,1.85937,0.050461,4.09248,2.48502,3.3378,-2.36678,2.15349,-0.187643,-0.196522,0.824874,-0.098257,-0.167794,-0.942488,-0.93233,0.104789,
0.0159537,-0.0520435,0.507813,-1.56369,-0.017155,-0.0650649,0.528375,-0.169474,0.0585486,-0.178455,-0.0834186,-1.09431,-1.26187,-0.0806416,0,0,0,0,0,0,0,0.0216264,-0.0531454,0.513935,-1.56146,0.0279718,1.55629,1.31829,0.00705903,-0.000670356,0.00941786,0.0223695,-0.434644,-0.199208,0.00135281,-1.00811,-27.3335,-1.8875,25.2332,-0.963444,1.85937,0.050461,4.09248,2.48502,3.3378,-2.36678,2.15349,-0.187643,-0.196522,0.824874,-0.098257,-0.167794,-0.942488,-0.93233,0.104789,
0.0152535,-0.0517862,0.507077,-1.56404,-0.0216134,-0.0701807,0.528057,-0.175048,0.0643365,-0.184022,-0.0871163,-1.11459,-1.27894,-0.0796068,0,0,0,0,0,0,0,0.0223362,-0.0531811,0.514631,-1.56042,0.00711048,1.54588,1.31827,0.0181769,-0.00259151,0.0134669,0.0273579,-0.714356,-0.392021,-0.00480162,-2.37683,-26.8337,-3.1848,25.0586,-0.389408,1.86577,-0.0227812,2.26611,3.44387,3.78486,-2.9083,0.678201,0.77561,0.768766,-0.0363079,0.875115,0.110251,-0.828083,-0.953244,0.0889807,
0.0145334,-0.0515072,0.506321,-1.5644,-0.0261436,-0.0753529,0.527743,-0.180031,0.0697291,-0.189001,-0.090334,-1.13256,-1.29306,-0.0785793,0,0,0,0,0,0,0,0.0223362,-0.0531811,0.514631,-1.56042,0.00711048,1.54588,1.31827,0.0181769,-0.00259151,0.0134669,0.0273579,-0.714356,-0.392021,-0.00480162,-2.37683,-26.8337,-3.1848,25.0586,-0.389408,1.86577,-0.0227812,2.26611,3.44387,3.78486,-2.9083,0.678201,0.77561,0.768766,-0.0363079,0.875115,0.110251,-0.828083,-0.953244,0.0889807,
0.011252,-0.0513084,0.502981,-1.56674,-0.00633218,-0.0581239,0.524775,-0.317113,0.106983,-0.330483,-0.156744,-0.977767,-1.20707,-0.158218,0,0,0,0,0,0,0,0.0223362,-0.0531811,0.514631,-1.56042,0.00711048,1.54588,1.31827,0.0181769,-0.00259151,0.0134669,0.0273579,-0.714356,-0.392021,-0.00480162,-2.37683,-26.8337,-3.1848,25.0586,-0.389408,1.86577,-0.0227812,1.4057,2.68002,4.30027,-2.20773,0.0127732,0.687446,0.697488,-0.424997,0.748167,0.266228,-0.736891,-1.10735,0.063688,
0.0121741,-0.0516039,0.50395,-1.5654,-0.0315528,-0.0715308,0.525701,-0.307866,0.100025,-0.320184,-0.143181,-1.00446,-1.22383,-0.138109,0,0,0,0,0,0,0,0.0223362,-0.0531811,0.514631,-1.56042,0.00711048,1.54588,1.31827,0.0181769,-0.00259151,0.0134669,0.0273579,-0.714356,-0.392021,-0.00480162,-2.37683,-26.8337,-3.1848,25.0586,-0.389408,1.86577,-0.0227812,3.90846,0.707866,3.99667,-1.208,2.08951,-0.912683,-0.884188,0.810522,-0.887235,-0.277007,-1.07811,-1.39053,0.0391237,
0.0109065,-0.0511659,0.502633,-1.56599,-0.0356868,-0.0764972,0.525156,-0.31689,0.109496,-0.329247,-0.147439,-1.0335,-1.24161,-0.136155,0,0,0,0,0,0,0,0.0223362,-0.0531811,0.514631,-1.56042,0.00711048,1.54588,1.31827,0.0181769,-0.00259151,0.0134669,0.0273579,-0.714356,-0.392021,-0.00480162,-2.37683,-26.8337,-3.1848,25.0586,-0.389408,1.86577,-0.0227812,3.90846,0.707866,3.99667,-1.208,2.08951,-0.912683,-0.884188,0.810522,-0.887235,-0.277007,-1.07811,-1.39053,0.0391237,
0.00960711,-0.0506932,0.501284,-1.5666,-0.0399266,-0.0815227,0.524619,-0.324856,0.118175,-0.337247,-0.151141,-1.05995,-1.25637,-0.134218,0,0,0,0,0,0,0,0.0223509,-0.0534759,0.514579,-1.56049,-0.0162042,1.5306,1.31711,-0.000937033,-0.00902202,0.00285207,0.000773248,-0.68779,-0.49871,-0.037364,-4.22955,-25.338,-5.16051,24.9832,-0.981754,1.36864,-0.050247,3.55767,-0.186279,3.82447,-0.704382,1.95303,-1.21174,-1.18425,0.786223,-1.19567,-0.391917,-1.16101,-1.51524,0.0199647,
0.00827957,-0.0501888,0.499907,-1.56722,-0.0442623,-0.0865971,0.52409,-0.331885,0.126096,-0.344307,-0.154323,-1.08394,-1.26859,-0.132294,0,0,0,0,0,0,0,0.0223509,-0.0534759,0.514579,-1.56049,-0.0162042,1.5306,1.31711,-0.000937033,-0.00902202,0.00285207,0.000773248,-0.68779,-0.49871,-0.037364,-4.22955,-25.338,-5.16051,24.9832,-0.981754,1.36864,-0.050247,3.55767,-0.186279,3.82447,-0.704382,1.95303,-1.21174,-1.18425,0.786223,-1.19567,-0.391917,-1.16101,-1.51524,0.0199647,
0.00692725,-0.0496557,0.498505,-1.56784,-0.0486848,-0.0917118,0.523568,-0.338079,0.133293,-0.350531,-0.157023,-1.10562,-1.27868,-0.130381,0,0,0,0,0,0,0,0.0223509,-0.0534759,0.514579,-1.56049,-0.0162042,1.5306,1.31711,-0.000937033,-0.00902202,0.00285207,0.000773248,-0.68779,-0.49871,-0.037364,-4.22955,-25.338,-5.16051,24.9832,-0.981754,1.36864,-0.050247,1.3521,-0.413188,3.16422,-0.590623,0.662624,-0.672385,-0.665431,0.228546,-0.639323,-0.479435,-1.00356,-1.56997,-0.0048919,
0.00555315,-0.0490964,0.497081,-1.56848,-0.0531855,-0.0968596,0.523055,-0.343524,0.139807,-0.356009,-0.159278,-1.12517,-1.28696,-0.128476,0,0,0,0,0,0,0,0.0223509,-0.0534759,0.514579,-1.56049,-0.0162042,1.5306,1.31711,-0.000937033,-0.00902202,0.00285207,0.000773248,-0.68779,-0.49871,-0.037364,-4.22955,-25.338,-5.16051,24.9832,-0.981754,1.36864,-0.050247,0.542257,-0.364357,2.53871,-0.698031,0.407765,-0.396054,-0.399427,0.244767,-0.348983,-0.703592,-0.870967,-1.6299,-0.0377264,
0.00717959,-0.0507296,0.498895,-1.56842,-0.0256957,-0.0697112,0.521955,-0.449951,0.149853,-0.464389,-0.211553,-0.920271,-1.19044,-0.21099,0,0,0,0,0,0,0,0.0223509,-0.0534759,0.514579,-1.56049,-0.0162042,1.5306,1.31711,-0.000937033,-0.00902202,0.00285207,0.000773248,-0.68779,-0.49871,-0.037364,-4.22955,-25.338,-5.16051,24.9832,-0.981754,1.36864,-0.050247,0.542257,-0.364357,2.53871,-0.698031,0.407765,-0.396054,-0.399427,0.244767,-0.348983,-0.703592,-0.870967,-1.6299,-0.0377264,
0.00769044,-0.0510849,0.499403,-1.56781,-0.0498698,-0.0871572,0.522214,-0.431278,0.1395,-0.444352,-0.189828,-0.931714,-1.20326,-0.181438,0,0,0,0,0,0,0,0.0207928,-0.0537899,0.512448,-1.56156,-0.0429676,1.50917,1.31523,-0.0581074,-0.0118756,-0.0783769,-0.040779,-0.673259,-0.580001,-0.037649,-5.85217,-23.7908,-6.8347,24.5865,-1.45234,1.52154,-0.197647,1.85763,-0.392015,2.78013,-0.595562,1.28767,-0.753534,-0.754744,0.684059,-0.713248,-0.702434,-0.864654,-1.59849,-0.0689016,
0.00591933,-0.0504797,0.497579,-1.56859,-0.0537442,-0.0920331,0.5215,-0.442777,0.151305,-0.455938,-0.193918,-0.968607,-1.21897,-0.17859,0,0,0,0,0,0,0,0.0207928,-0.0537899,0.512448,-1.56156,-0.0429676,1.50917,1.31523,-0.0581074,-0.0118756,-0.0783769,-0.040779,-0.673259,-0.580001,-0.037649,-5.85217,-23.7908,-6.8347,24.5865,-1.45234,1.52154,-0.197647,1.85763,-0.392015,2.78013,-0.595562,1.28767,-0.753534,-0.754744,0.684059,-0.713248,-0.702434,-0.864654,-1.59849,-0.0689016,
0.00410784,-0.0498316,0.495715,-1.56938,-0.057754,-0.096961,0.520797,-0.452872,0.162037,-0.466107,-0.197441,-1.00244,-1.23197,-0.175767,0,0,0,0,0,0,0,0.0207928,-0.0537899,0.512448,-1.56156,-0.0429676,1.50917,1.31523,-0.0581074,-0.0118756,-0.0783769,-0.040779,-0.673259,-0.580001,-0.037649,-5.85217,-23.7908,-6.8347,24.5865,-1.45234,1.52154,-0.197647,2.5579,-0.00974126,3.07771,-0.730657,1.59139,-0.74486,-0.751198,0.754294,-0.698836,-0.531032,-0.848344,-1.45575,-0.096593,
0.00226094,-0.0491445,0.493815,-1.57018,-0.0618872,-0.101932,0.520105,-0.461725,0.171759,-0.475028,-0.200428,-1.03331,-1.24269,-0.172962,0,0,0,0,0,0,0,0.0207928,-0.0537899,0.512448,-1.56156,-0.0429676,1.50917,1.31523,-0.0581074,-0.0118756,-0.0783769,-0.040779,-0.673259,-0.580001,-0.037649,-5.85217,-23.7908,-6.8347,24.5865,-1.45234,1.52154,-0.197647,2.5579,-0.00974126,3.07771,-0.730657,1.59139,-0.74486,-0.751198,0.754294,-0.698836,-0.531032,-0.848344,-1.45575,-0.096593,
0.000383043,-0.0484224,0.491883,-1.57099,-0.0661326,-0.106938,0.519424,-0.469475,0.18053,-0.482842,-0.202913,-1.06136,-1.25149,-0.170174,0,0,0,0,0,0,0,0.0207928,-0.0537899,0.512448,-1.56156,-0.0429676,1.50917,1.31523,-0.0581074,-0.0118756,-0.0783769,-0.040779,-0.673259,-0.580001,-0.037649,-5.85217,-23.7908,-6.8347,24.5865,-1.45234,1.52154,-0.197647,2.35523,0.490899,2.19416,-1.0929,1.70974,-0.413878,-0.433505,0.942895,-0.345284,-0.696164,-0.682172,-1.27943,-0.128002,
-0.00152191,-0.0476688,0.489925,-1.57181,-0.0704797,-0.111972,0.518755,-0.476239,0.188415,-0.489669,-0.204933,-1.08677,-1.25867,-0.167398,0,0,0,0,0,0,0,0.0207928,-0.0537899,0.512448,-1.56156,-0.0429676,1.50917,1.31523,-0.0581074,-0.0118756,-0.0783769,-0.040779,-0.673259,-0.580001,-0.037649,-5.85217,-23.7908,-6.8347,24.5865,-1.45234,1.52154,-0.197647,0.813652,-0.240229,2.0999,-0.313479,0.537407,-0.282586,-0.312007,0.272513,-0.233151,-0.389355,-0.486567,-1.11244,-0.156824,
0.00303384,-0.0503269,0.494728,-1.57063,-0.0445057,-0.0853702,0.518615,-0.563125,0.184662,-0.57737,-0.253116,-0.855515,-1.17075,-0.251341,0,0,0,0,0,0,0,0.0176008,-0.0542117,0.508584,-1.56361,-0.0633166,1.48841,1.31297,-0.124204,0.00668137,-0.143462,-0.0771916,-0.647494,-0.680069,-0.0846423,-6.00293,-24.1399,-7.00926,25.0586,-0.811466,2.04522,-0.284622,0.813652,-0.240229,2.0999,-0.313479,0.537407,-0.282586,-0.312007,0.272513,-0.233151,-0.389355,-0.486567,-1.11244,-0.156824,
-0.00339023,-0.0495236,0.487078,-1.57336,-0.0964566,-0.131101,0.516375,-0.562641,0.193928,-0.575747,-0.233052,-0.928094,-1.18179,-0.212301,0,0,0,0,0,0,0,0.0176008,-0.0542117,0.508584,-1.56361,-0.0633166,1.48841,1.31297,-0.124204,0.00668137,-0.143462,-0.0771916,-0.647494,-0.680069,-0.0846423,-6.00293,-24.1399,-7.00926,25.0586,-0.811466,2.04522,-0.284622,0.0837548,-0.187401,2.74618,0.00941553,-0.341663,-0.0252889,-0.052758,-0.369536,0.00450375,0.101575,-0.3401,-0.928752,-0.185956,
-0.00568543,-0.0487009,0.48473,-1.57431,-0.10032,-0.135875,0.515541,-0.573799,0.205666,-0.58702,-0.236119,-0.96581,-1.19353,-0.20863,0,0,0,0,0,0,0,0.0176008,-0.0542117,0.508584,-1.56361,-0.0633166,1.48841,1.31297,-0.124204,0.00668137,-0.143462,-0.0771916,-0.647494,-0.680069,-0.0846423,-6.00293,-24.1399,-7.00926,25.0586,-0.811466,2.04522,-0.284622,0.0837548,-0.187401,2.74618,0.00941553,-0.341663,-0.0252889,-0.052758,-0.369536,0.00450375,0.101575,-0.3401,-0.928752,-0.185956,
-0.00801943,-0.0478361,0.482342,-1.57526,-0.104321,-0.140687,0.514721,-0.5835,0.216212,-0.596822,-0.238663,-1.00038,-1.20317,-0.204987,0,0,0,0,0,0,0,0.0176008,-0.0542117,0.508584,-1.56361,-0.0633166,1.48841,1.31297,-0.124204,0.00668137,-0.143462,-0.0771916,-0.647494,-0.680069,-0.0846423,-6.00293,-24.1399,-7.00926,25.0586,-0.811466,2.04522,-0.284622,0.952854,0.799292,1.9938,-0.774554,0.524814,0.226008,0.198007,0.214532,0.280012,-0.170069,-0.256587,-0.785806,-0.21001,
-0.0103871,-0.0469335,0.479921,-1.57623,-0.108449,-0.145532,0.513915,-0.591912,0.225645,-0.605327,-0.240715,-1.03192,-1.21106,-0.201368,0,0,0,0,0,0,0,0.0176008,-0.0542117,0.508584,-1.56361,-0.0633166,1.48841,1.31297,-0.124204,0.00668137,-0.143462,-0.0771916,-0.647494,-0.680069,-0.0846423,-6.00293,-24.1399,-7.00926,25.0586,-0.811466,2.04522,-0.284622,0.952854,0.799292,1.9938,-0.774554,0.524814,0.226008,0.198007,0.214532,0.280012,-0.170069,-0.256587,-0.785806,-0.21001,
-0.0127838,-0.0459973,0.47747,-1.5772,-0.112691,-0.150402,0.513124,-0.599178,0.234047,-0.61268,-0.242305,-1.06056,-1.21746,-0.19777,0,0,0,0,0,0,0,0.012284,-0.0543019,0.501923,-1.56684,-0.0847923,1.46376,1.31006,-0.19357,0.00258625,-0.249948,-0.103737,-0.636109,-0.757759,-0.0939268,-7.22088,-23.2909,-8.15978,24.8364,-0.848087,2.16424,-0.278213,-0.394374,1.0544,0.683867,-1.16353,0.112381,0.730828,0.692318,0.253261,0.809827,-0.584767,-0.110804,-0.811216,-0.231145,
-0.00500795,-0.0497249,0.485966,-1.57486,-0.0883677,-0.124646,0.514035,-0.666239,0.21955,-0.680285,-0.2889,-0.807695,-1.13358,-0.284003,0,0,0,0,0,0,0,0.012284,-0.0543019,0.501923,-1.56684,-0.0847923,1.46376,1.31006,-0.19357,0.00258625,-0.249948,-0.103737,-0.636109,-0.757759,-0.0939268,-7.22088,-23.2909,-8.15978,24.8364,-0.848087,2.16424,-0.278213,-0.264098,1.34693,0.849048,-1.20553,0.0892157,0.850774,0.810472,0.184469,0.9285,-0.425254,-0.0172998,-0.686282,-0.248529,
-0.0109704,-0.0494709,0.47821,-1.57698,-0.11341,-0.151123,0.513081,-0.657565,0.213619,-0.670338,-0.259011,-0.876571,-1.14344,-0.240394,0,0,0,0,0,0,0,0.012284,-0.0543019,0.501923,-1.56684,-0.0847923,1.46376,1.31006,-0.19357,0.00258625,-0.249948,-0.103737,-0.636109,-0.757759,-0.0939268,-7.22088,-23.2909,-8.15978,24.8364,-0.848087,2.16424,-0.278213,-0.264098,1.34693,0.849048,-1.20553,0.0892157,0.850774,0.810472,0.184469,0.9285,-0.425254,-0.0172998,-0.686282,-0.248529,
-0.0136528,-0.0485608,0.475475,-1.57802,-0.117088,-0.155746,0.512137,-0.670602,0.227542,-0.683503,-0.262394,-0.919514,-1.15566,-0.23592,0,0,0,0,0,0,0,0.012284,-0.0543019,0.501923,-1.56684,-0.0847923,1.46376,1.31006,-0.19357,0.00258625,-0.249948,-0.103737,-0.636109,-0.757759,-0.0939268,-7.22088,-23.2909,-8.15978,24.8364,-0.848087,2.16424,-0.278213,1.7153,0.961044,0.91823,-0.956452,1.47233,0.163682,0.133873,0.905807,0.225863,-0.525767,-0.11517,-0.651184,-0.26062,
-0.0163802,-0.0476009,0.472696,-1.57909,-0.120925,-0.160409,0.511212,-0.68186,0.239967,-0.694869,-0.265196,-0.959191,-1.16575,-0.231487,0,0,0,0,0,0,0,0.012284,-0.0543019,0.501923,-1.56684,-0.0847923,1.46376,1.31006,-0.19357,0.00258625,-0.249948,-0.103737,-0.636109,-0.757759,-0.0939268,-7.22088,-23.2909,-8.15978,24.8364,-0.848087,2.16424,-0.278213,1.7153,0.961044,0.91823,-0.956452,1.47233,0.163682,0.133873,0.905807,0.225863,-0.525767,-0.11517,-0.651184,-0.26062,
-0.0191464,-0.0465969,0.469877,-1.58016,-0.124907,-0.165105,0.510303,-0.691548,0.251002,-0.704652,-0.267439,-0.995619,-1.17403,-0.227092,0,0,0,0,0,0,0,0.012284,-0.0543019,0.501923,-1.56684,-0.0847923,1.46376,1.31006,-0.19357,0.00258625,-0.249948,-0.103737,-0.636109,-0.757759,-0.0939268,-7.22088,-23.2909,-8.15978,24.8364,-0.848087,2.16424,-0.278213,1.05108,0.860729,0.297359,-1.10075,1.30034,0.303852,0.275291,0.954087,0.374112,-0.809833,-0.145349,-0.761435,-0.273636,
-0.0219458,-0.0455539,0.467025,-1.58123,-0.129023,-0.169828,0.509412,-0.699844,0.260751,-0.713034,-0.269151,-1.02889,-1.1808,-0.222733,0,0,0,0,0,0,0,0.00463109,-0.054277,0.493675,-1.57072,-0.104955,1.43941,1.30716,-0.292765,0.00240298,-0.303124,-0.131371,-0.596053,-0.757015,-0.114803,-7.24865,-23.2909,-8.26293,23.9398,-0.658573,1.9793,-0.244339,1.05108,0.860729,0.297359,-1.10075,1.30034,0.303852,0.275291,0.954087,0.374112,-0.809833,-0.145349,-0.761435,-0.273636,
-0.0247734,-0.0444766,0.464145,-1.58231,-0.133259,-0.174573,0.508539,-0.706896,0.269314,-0.720167,-0.270363,-1.05916,-1.18628,-0.218406,0,0,0,0,0,0,0,0.00463109,-0.054277,0.493675,-1.57072,-0.104955,1.43941,1.30716,-0.292765,0.00240298,-0.303124,-0.131371,-0.596053,-0.757015,-0.114803,-7.24865,-23.2909,-8.26293,23.9398,-0.658573,1.9793,-0.244339,-0.519321,1.4327,-0.259638,-1.54236,0.445439,0.979645,0.9435,0.619776,1.06935,-0.938336,0.00493898,-0.790093,-0.282899,
-0.0152214,-0.0472615,0.474968,-1.58048,-0.11569,-0.154268,0.508816,-0.723287,0.273475,-0.714554,-0.322534,-0.878849,-1.13089,-0.30101,0,0,0,0,0,0,0,0.00463109,-0.054277,0.493675,-1.57072,-0.104955,1.43941,1.30716,-0.292765,0.00240298,-0.303124,-0.131371,-0.596053,-0.757015,-0.114803,-7.24865,-23.2909,-8.26293,23.9398,-0.658573,1.9793,-0.244339,-0.360448,0.75776,-0.102021,-1.07226,0.525449,0.62089,0.586309,0.64386,0.696351,-0.921088,-0.0588521,-0.848448,-0.288124,
-0.0244351,-0.0474465,0.465148,-1.58285,-0.137639,-0.178836,0.508607,-0.742155,0.245509,-0.733651,-0.295068,-0.906404,-1.04033,-0.245665,0,0,0,0,0,0,0,0.00463109,-0.054277,0.493675,-1.57072,-0.104955,1.43941,1.30716,-0.292765,0.00240298,-0.303124,-0.131371,-0.596053,-0.757015,-0.114803,-7.24865,-23.2909,-8.26293,23.9398,-0.658573,1.9793,-0.244339,-0.360448,0.75776,-0.102021,-1.07226,0.525449,0.62089,0.586309,0.64386,0.696351,-0.921088,-0.0588521,-0.848448,-0.288124,
-0.0274617,-0.0464226,0.462154,-1.58406,-0.141401,-0.182775,0.507645,-0.756642,0.255976,-0.748413,-0.3032,-0.940578,-0.984739,-0.240502,0,0,0,0,0,0,0,0.00463109,-0.054277,0.493675,-1.57072,-0.104955,1.43941,1.30716,-0.292765,0.00240298,-0.303124,-0.131371,-0.596053,-0.757015,-0.114803,-7.24865,-23.2909,-8.26293,23.9398,-0.658573,1.9793,-0.244339,0.0197888,-1.29616,0.446891,0.333016,0.528091,-0.432842,-0.463594,0.519979,-0.39793,-0.731761,-0.331798,-0.925841,-0.288959,
-0.0305375,-0.0453603,0.459105,-1.5853,-0.145289,-0.186439,0.506704,-0.768957,0.265561,-0.762187,-0.310006,-0.97199,-0.916147,-0.235348,0,0,0,0,0,0,0,-0.00506219,-0.053787,0.482894,-1.57534,-0.123638,1.41665,1.30339,-0.331238,0.0276597,-0.347266,-0.157837,-0.59366,-0.711589,-0.124315,-7.39941,-23.2631,-8.23516,23.6145,-1.49536,1.50139,-0.217789,0.0197888,-1.29616,0.446891,0.333016,0.528091,-0.432842,-0.463594,0.519979,-0.39793,-0.731761,-0.331798,-0.925841,-0.288959,
-0.0336462,-0.0442612,0.456001,-1.58656,-0.149296,-0.189812,0.505782,-0.777165,0.274796,-0.776152,-0.314277,-1.00171,-0.843076,-0.230368,0,0,0,0,0,0,0,-0.00506219,-0.053787,0.482894,-1.57534,-0.123638,1.41665,1.30339,-0.331238,0.0276597,-0.347266,-0.157837,-0.59366,-0.711589,-0.124315,-7.39941,-23.2631,-8.23516,23.6145,-1.49536,1.50139,-0.217789,1.35493,-2.46812,0.0393905,0.884817,1.62405,-1.29969,-1.32602,1.17221,-1.27598,-1.01737,-0.587894,-0.987454,-0.288461,
-0.0367809,-0.0431288,0.452846,-1.58783,-0.153412,-0.192874,0.50488,-0.78368,0.28308,-0.78871,-0.317105,-1.02902,-0.765714,-0.225499,0,0,0,0,0,0,0,-0.00506219,-0.053787,0.482894,-1.57534,-0.123638,1.41665,1.30339,-0.331238,0.0276597,-0.347266,-0.157837,-0.59366,-0.711589,-0.124315,-7.39941,-23.2631,-8.23516,23.6145,-1.49536,1.50139,-0.217789,1.35493,-2.46812,0.0393905,0.884817,1.62405,-1.29969,-1.32602,1.17221,-1.27598,-1.01737,-0.587894,-0.987454,-0.288461,
-0.0429391,-0.037746,0.446778,-1.59368,-0.162091,-0.203568,0.49846,-0.806014,0.351609,-0.799525,-0.370935,-1.07419,-0.927859,-0.274404,0,0,0,0,0,0,0,-0.00506219,-0.053787,0.482894,-1.57534,-0.123638,1.41665,1.30339,-0.331238,0.0276597,-0.347266,-0.157837,-0.59366,-0.711589,-0.124315,-7.39941,-23.2631,-8.23516,23.6145,-1.49536,1.50139,-0.217789,0.580549,0.180453,-0.853605,-1.12749,1.51767,0.139958,0.118244,1.31016,0.217156,-1.40742,-0.389654,-0.982627,-0.292113,
-0.0242243,-0.045813,0.465319,-1.58512,-0.13775,-0.178157,0.505385,-0.736408,0.303023,-0.728168,-0.340806,-0.909401,-1.11457,-0.30886,0,0,0,0,0,0,0,-0.00506219,-0.053787,0.482894,-1.57534,-0.123638,1.41665,1.30339,-0.331238,0.0276597,-0.347266,-0.157837,-0.59366,-0.711589,-0.124315,-7.39941,-23.2631,-8.23516,23.6145,-1.49536,1.50139,-0.217789,-0.32062,0.0906468,-0.864802,-1.03865,0.882696,0.306978,0.274667,0.971159,0.390226,-1.3441,-0.365445,-0.995645,-0.288574,
-0.0350964,-0.0458517,0.453366,-1.5891,-0.157256,-0.188552,0.504605,-0.755977,0.260995,-0.747799,-0.339198,-0.908604,-0.365159,-0.249336,0,0,0,0,0,0,0,-0.00506219,-0.053787,0.482894,-1.57534,-0.123638,1.41665,1.30339,-0.331238,0.0276597,-0.347266,-0.157837,-0.59366,-0.711589,-0.124315,-7.39941,-23.2631,-8.23516,23.6145,-1.49536,1.50139,-0.217789,-0.32062,0.0906468,-0.864802,-1.03865,0.882696,0.306978,0.274667,0.971159,0.390226,-1.3441,-0.365445,-0.995645,-0.288574,
-0.0381745,-0.0447691,0.45032,-1.59047,-0.16101,-0.18954,0.503628,-0.769531,0.270628,-0.761606,-0.343636,-0.938438,-0.247008,-0.244445,0,0,0,0,0,0,0,-0.0179875,-0.0529175,0.469506,-1.58146,-0.141745,1.39644,1.29904,-0.421887,0.0395761,-0.44019,-0.193864,-0.561646,-0.548024,-0.119654,-6.68927,-23.7908,-7.53691,24.2374,-2.02637,1.73394,-0.197647,-1.28685,0.523327,-0.186604,-1.24852,-0.12352,0.734393,0.704567,0.280264,0.817608,-1.00661,-0.403693,-0.977608,-0.284397,
-0.041298,-0.0436441,0.447227,-1.59183,-0.164877,-0.190152,0.502676,-0.780867,0.281251,-0.773134,-0.34038,-0.966813,-0.153143,-0.237826,0,0,0,0,0,0,0,-0.0179875,-0.0529175,0.469506,-1.58146,-0.141745,1.39644,1.29904,-0.421887,0.0395761,-0.44019,-0.193864,-0.561646,-0.548024,-0.119654,-6.68927,-23.7908,-7.53691,24.2374,-2.02637,1.73394,-0.197647,-1.28685,0.523327,-0.186604,-1.24852,-0.12352,0.734393,0.704567,0.280264,0.817608,-1.00661,-0.403693,-0.977608,-0.284397,
-0.0444614,-0.0424839,0.444094,-1.59318,-0.168846,-0.190452,0.501745,-0.790848,0.290071,-0.783354,-0.335475,-0.992186,-0.0750187,-0.232758,0,0,0,0,0,0,0,-0.0179875,-0.0529175,0.469506,-1.58146,-0.141745,1.39644,1.29904,-0.421887,0.0395761,-0.44019,-0.193864,-0.561646,-0.548024,-0.119654,-6.68927,-23.7908,-7.53691,24.2374,-2.02637,1.73394,-0.197647,1.56199,-0.737478,-0.0610448,-0.464708,1.81396,-0.507859,-0.529672,1.27317,-0.448532,-1.12226,-0.646463,-0.949313,-0.278588,
-0.0476603,-0.0412966,0.440924,-1.5945,-0.172904,-0.19049,0.500834,-0.799743,0.296824,-0.792504,-0.330099,-1.01461,-0.00931778,-0.227885,0,0,0,0,0,0,0,-0.0179875,-0.0529175,0.469506,-1.58146,-0.141745,1.39644,1.29904,-0.421887,0.0395761,-0.44019,-0.193864,-0.561646,-0.548024,-0.119654,-6.68927,-23.7908,-7.53691,24.2374,-2.02637,1.73394,-0.197647,1.56199,-0.737478,-0.0610448,-0.464708,1.81396,-0.507859,-0.529672,1.27317,-0.448532,-1.12226,-0.646463,-0.949313,-0.278588,
-0.0508911,-0.0400902,0.437721,-1.59579,-0.177042,-0.190305,0.499941,-0.807699,0.301603,-0.800724,-0.324663,-1.03434,0.0461699,-0.223096,0,0,0,0,0,0,0,-0.0179875,-0.0529175,0.469506,-1.58146,-0.141745,1.39644,1.29904,-0.421887,0.0395761,-0.44019,-0.193864,-0.561646,-0.548024,-0.119654,-6.68927,-23.7908,-7.53691,24.2374,-2.02637,1.73394,-0.197647,3.18412,-1.28785,1.1334,0.241339,2.34845,-1.11999,-1.14166,1.28028,-1.08608,-0.589454,-0.674854,-0.760724,-0.277528,
-0.0348236,-0.0441772,0.453602,-1.59073,-0.157594,-0.197244,0.50146,-0.750831,0.310277,-0.743098,-0.38563,-0.917386,-0.789637,-0.310832,0,0,0,0,0,0,0,-0.0329982,-0.0513274,0.454232,-1.58909,-0.160681,1.38187,1.29392,-0.46613,0.0526062,-0.481096,-0.265136,-0.59317,-0.319052,-0.162202,-5.87597,-25.211,-6.63634,24.9594,-1.86158,2.91405,-0.244339,0.886758,0.377149,1.27558,-0.723072,0.502433,0.217496,0.188184,0.183773,0.275765,-0.202653,-0.472546,-0.549853,-0.277214,
-0.0656891,-0.0414329,0.421962,-1.60393,-0.197807,-0.195891,0.495134,-0.779935,0.275209,-0.772966,-0.325193,-0.951019,0.0125763,-0.250437,0,0,0,0,0,0,0,-0.0329982,-0.0513274,0.454232,-1.58909,-0.160681,1.38187,1.29392,-0.46613,0.0526062,-0.481096,-0.265136,-0.59317,-0.319052,-0.162202,-5.87597,-25.211,-6.63634,24.9594,-1.86158,2.91405,-0.244339,0.886758,0.377149,1.27558,-0.723072,0.502433,0.217496,0.188184,0.183773,0.275765,-0.202653,-0.472546,-0.549853,-0.277214,
-0.0688492,-0.0403171,0.418829,-1.60523,-0.201708,-0.195744,0.494144,-0.790017,0.278963,-0.783301,-0.324373,-0.97519,0.0366785,-0.24754,0,0,0,0,0,0,0,-0.0329982,-0.0513274,0.454232,-1.58909,-0.160681,1.38187,1.29392,-0.46613,0.0526062,-0.481096,-0.265136,-0.59317,-0.319052,-0.162202,-5.87597,-25.211,-6.63634,24.9594,-1.86158,2.91405,-0.244339,-0.305417,-0.0492193,1.12136,-0.466015,-0.352874,0.283494,0.252097,-0.272241,0.336337,-0.123496,-0.514653,-0.52404,-0.275209,
-0.072042,-0.0391706,0.415662,-1.60649,-0.205702,-0.195532,0.4932,-0.798195,0.286625,-0.791691,-0.31394,-0.998546,0.0531159,-0.235914,0,0,0,0,0,0,0,-0.0329982,-0.0513274,0.454232,-1.58909,-0.160681,1.38187,1.29392,-0.46613,0.0526062,-0.481096,-0.265136,-0.59317,-0.319052,-0.162202,-5.87597,-25.211,-6.63634,24.9594,-1.86158,2.91405,-0.244339,-0.305417,-0.0492193,1.12136,-0.466015,-0.352874,0.283494,0.252097,-0.272241,0.336337,-0.123496,-0.514653,-0.52404,-0.275209,
-0.0752643,-0.0380098,0.412461,-1.60772,-0.209775,-0.195233,0.492277,-0.80559,0.290198,-0.800174,-0.308988,-1.01831,0.0747933,-0.23076,0,0,0,0,0,0,0,-0.0329982,-0.0513274,0.454232,-1.58909,-0.160681,1.38187,1.29392,-0.46613,0.0526062,-0.481096,-0.265136,-0.59317,-0.319052,-0.162202,-5.87597,-25.211,-6.63634,24.9594,-1.86158,2.91405,-0.244339,1.38449,0.683917,0.49576,-1.0545,1.09299,0.300274,0.273867,0.590707,0.366724,-0.434248,-0.479376,-0.428201,-0.266307,
-0.0784929,-0.0368409,0.409216,-1.60895,-0.213925,-0.194843,0.491373,-0.80714,0.292228,-0.811376,-0.305499,-1.03749,0.0974939,-0.22604,0,0,0,0,0,0,0,-0.0329982,-0.0513274,0.454232,-1.58909,-0.160681,1.38187,1.29392,-0.46613,0.0526062,-0.481096,-0.265136,-0.59317,-0.319052,-0.162202,-5.87597,-25.211,-6.63634,24.9594,-1.86158,2.91405,-0.244339,1.73922,1.79559,-0.295616,-1.85598,1.66303,0.798742,0.777018,1.01481,0.880886,-0.709146,-0.342359,-0.327802,-0.267261,
-0.0623666,-0.0413215,0.425227,-1.60416,-0.194374,-0.204614,0.493411,-0.765652,0.313096,-0.758721,-0.379277,-0.932555,-0.218203,-0.312909,0,0,0,0,0,0,0,-0.0540825,-0.0478708,0.432699,-1.59983,-0.186162,1.37622,1.28807,-0.52071,0.0930113,-0.551217,-0.269514,-0.653583,-0.0295868,-0.127136,-6.12988,-26.5837,-6.7871,25.7806,-1.37909,2.82067,-0.217789,1.73922,1.79559,-0.295616,-1.85598,1.66303,0.798742,0.777018,1.01481,0.880886,-0.709146,-0.342359,-0.327802,-0.267261,
-0.0850083,-0.038737,0.402107,-1.61351,-0.22173,-0.190897,0.490244,-0.784386,0.26395,-0.778262,-0.322722,-0.951854,0.219218,-0.256405,0,0,0,0,0,0,0,-0.0540825,-0.0478708,0.432699,-1.59983,-0.186162,1.37622,1.28807,-0.52071,0.0930113,-0.551217,-0.269514,-0.653583,-0.0295868,-0.127136,-6.12988,-26.5837,-6.7871,25.7806,-1.37909,2.82067,-0.217789,1.84996,-0.253061,-0.403056,-0.421111,1.62127,-0.190738,-0.227243,0.972568,-0.129513,-0.571552,-0.469318,-0.217553,-0.260359,
-0.0881852,-0.0376687,0.398954,-1.61481,-0.225623,-0.189876,0.489233,-0.794213,0.267084,-0.788329,-0.324278,-0.973298,0.255282,-0.252713,0,0,0,0,0,0,0,-0.0540825,-0.0478708,0.432699,-1.59983,-0.186162,1.37622,1.28807,-0.52071,0.0930113,-0.551217,-0.269514,-0.653583,-0.0295868,-0.127136,-6.12988,-26.5837,-6.7871,25.7806,-1.37909,2.82067,-0.217789,1.84996,-0.253061,-0.403056,-0.421111,1.62127,-0.190738,-0.227243,0.972568,-0.129513,-0.571552,-0.469318,-0.217553,-0.260359,
-0.0913956,-0.0365877,0.395765,-1.6161,-0.229596,-0.188732,0.488234,-0.802607,0.270244,-0.797109,-0.322765,-0.993224,0.285925,-0.24991,0,0,0,0,0,0,0,-0.0540825,-0.0478708,0.432699,-1.59983,-0.186162,1.37622,1.28807,-0.52071,0.0930113,-0.551217,-0.269514,-0.653583,-0.0295868,-0.127136,-6.12988,-26.5837,-6.7871,25.7806,-1.37909,2.82067,-0.217789,1.51284,-0.0461635,-1.03056,-0.642769,1.62388,0.000865709,-0.0267767,1.07443,0.0600953,-0.759167,-0.446953,-0.180169,-0.25659,
-0.0945823,-0.035459,0.392544,-1.6173,-0.233691,-0.187729,0.487283,-0.796683,0.282181,-0.805265,-0.301336,-1.02386,0.250915,-0.237682,0,0,0,0,0,0,0,-0.0540825,-0.0478708,0.432699,-1.59983,-0.186162,1.37622,1.28807,-0.52071,0.0930113,-0.551217,-0.269514,-0.653583,-0.0295868,-0.127136,-6.12988,-26.5837,-6.7871,25.7806,-1.37909,2.82067,-0.217789,1.51284,-0.0461635,-1.03056,-0.642769,1.62388,0.000865709,-0.0267767,1.07443,0.0600953,-0.759167,-0.446953,-0.180169,-0.25659,
-0.097776,-0.0343178,0.389314,-1.61848,-0.237883,-0.186753,0.486352,-0.798411,0.285286,-0.807417,-0.295524,-1.04793,0.24393,-0.232629,0,0,0,0,0,0,0,-0.0717044,-0.0442733,0.414728,-1.60803,-0.208233,1.37695,1.28385,-0.566641,0.114007,-0.585738,-0.260144,-0.700093,0.0615954,-0.14863,-4.07879,-27.5081,-4.66063,25.6577,-0.976261,2.32995,-0.130813,2.32692,-0.811838,-1.33031,-0.183944,2.4169,-0.537995,-0.554723,1.60521,-0.497081,-1.00147,-0.488269,-0.27482,-0.254462,
-0.100975,-0.0331757,0.386079,-1.61966,-0.242159,-0.185744,0.48544,-0.799721,0.285527,-0.808808,-0.294515,-1.069,0.252232,-0.228068,0,0,0,0,0,0,0,-0.0717044,-0.0442733,0.414728,-1.60803,-0.208233,1.37695,1.28385,-0.566641,0.114007,-0.585738,-0.260144,-0.700093,0.0615954,-0.14863,-4.07879,-27.5081,-4.66063,25.6577,-0.976261,2.32995,-0.130813,0.967655,2.26772,-1.79549,-2.19365,1.72278,1.24541,1.22295,1.28579,1.33078,-1.12054,-0.158123,-0.207059,-0.254494,
-0.0879969,-0.0363762,0.399117,-1.61646,-0.225992,-0.196535,0.486404,-0.792014,0.308219,-0.78637,-0.375207,-0.979695,0.118584,-0.307717,0,0,0,0,0,0,0,-0.0717044,-0.0442733,0.414728,-1.60803,-0.208233,1.37695,1.28385,-0.566641,0.114007,-0.585738,-0.260144,-0.700093,0.0615954,-0.14863,-4.07879,-27.5081,-4.66063,25.6577,-0.976261,2.32995,-0.130813,0.967655,2.26772,-1.79549,-2.19365,1.72278,1.24541,1.22295,1.28579,1.33078,-1.12054,-0.158123,-0.207059,-0.254494,
-0.106711,-0.0343349,0.379932,-1.62277,-0.249217,-0.181131,0.485247,-0.791834,0.253554,-0.801712,-0.312444,-0.995186,0.421787,-0.250591,0,0,0,0,0,0,0,-0.0717044,-0.0442733,0.414728,-1.60803,-0.208233,1.37695,1.28385,-0.566641,0.114007,-0.585738,-0.260144,-0.700093,0.0615954,-0.14863,-4.07879,-27.5081,-4.66063,25.6577,-0.976261,2.32995,-0.130813,0.306824,0.216922,-1.09775,-0.71888,0.853656,0.340424,0.306368,0.695054,0.401298,-0.719171,-0.327347,-0.196353,-0.247967,
-0.109881,-0.033304,0.37672,-1.624,-0.253313,-0.179351,0.484254,-0.79265,0.257724,-0.802995,-0.309332,-1.02393,0.44503,-0.248278,0,0,0,0,0,0,0,-0.0717044,-0.0442733,0.414728,-1.60803,-0.208233,1.37695,1.28385,-0.566641,0.114007,-0.585738,-0.260144,-0.700093,0.0615954,-0.14863,-4.07879,-27.5081,-4.66063,25.6577,-0.976261,2.32995,-0.130813,0.306824,0.216922,-1.09775,-0.71888,0.853656,0.340424,0.306368,0.695054,0.401298,-0.719171,-0.327347,-0.196353,-0.247967,
-0.113034,-0.032236,0.373526,-1.62518,-0.257545,-0.177628,0.483312,-0.788225,0.267003,-0.798385,-0.293909,-1.05809,0.430905,-0.235429,0,0,0,0,0,0,0,-0.0893756,-0.0397931,0.396596,-1.61547,-0.230276,1.38131,1.2797,-0.600957,0.168772,-0.605287,-0.247139,-0.735384,0.199302,-0.155224,-1.89679,-28.5079,-2.58574,24.5349,-1.06781,1.28258,-0.210464,-0.0973814,-0.80477,0.0959069,0.118656,0.0697516,-0.144951,-0.174873,0.0879157,-0.110006,-0.257823,-0.406332,-0.264853,-0.242553,
-0.116175,-0.031158,0.370346,-1.62634,-0.26188,-0.175891,0.48239,-0.785119,0.269507,-0.795173,-0.289368,-1.08368,0.434028,-0.230582,0,0,0,0,0,0,0,-0.0893756,-0.0397931,0.396596,-1.61547,-0.230276,1.38131,1.2797,-0.600957,0.168772,-0.605287,-0.247139,-0.735384,0.199302,-0.155224,-1.89679,-28.5079,-2.58574,24.5349,-1.06781,1.28258,-0.210464,0.53866,-0.540358,0.301464,-0.0660074,0.514796,-0.137041,-0.150083,0.310235,-0.114281,-0.30085,-0.408455,-0.333538,-0.242903,
-0.119304,-0.0300798,0.367177,-1.62749,-0.266297,-0.174107,0.481484,-0.782207,0.269543,-0.792185,-0.288104,-1.10417,0.446037,-0.226324,0,0,0,0,0,0,0,-0.0893756,-0.0397931,0.396596,-1.61547,-0.230276,1.38131,1.2797,-0.600957,0.168772,-0.605287,-0.247139,-0.735384,0.199302,-0.155224,-1.89679,-28.5079,-2.58574,24.5349,-1.06781,1.28258,-0.210464,0.53866,-0.540358,0.301464,-0.0660074,0.514796,-0.137041,-0.150083,0.310235,-0.114281,-0.30085,-0.408455,-0.333538,-0.242903,
-0.122421,-0.0290062,0.36402,-1.62864,-0.27077,-0.172249,0.480596,-0.779334,0.268385,-0.78924,-0.287829,-1.11826,0.464645,-0.222186,0,0,0,0,0,0,0,-0.0893756,-0.0397931,0.396596,-1.61547,-0.230276,1.38131,1.2797,-0.600957,0.168772,-0.605287,-0.247139,-0.735384,0.199302,-0.155224,-1.89679,-28.5079,-2.58574,24.5349,-1.06781,1.28258,-0.210464,0.183336,1.24709,-0.979867,-1.38751,0.928214,0.838683,0.827264,0.764282,0.886007,-0.856114,-0.240312,-0.353112,-0.247696,
-0.106614,-0.0331972,0.380107,-1.62442,-0.24953,-0.186298,0.48253,-0.801609,0.288783,-0.796757,-0.362007,-0.992462,0.313213,-0.303742,0,0,0,0,0,0,0,-0.0893756,-0.0397931,0.396596,-1.61547,-0.230276,1.38131,1.2797,-0.600957,0.168772,-0.605287,-0.247139,-0.735384,0.199302,-0.155224,-1.89679,-28.5079,-2.58574,24.5349,-1.06781,1.28258,-0.210464,0.183336,1.24709,-0.979867,-1.38751,0.928214,0.838683,0.827264,0.764282,0.886007,-0.856114,-0.240312,-0.353112,-0.247696,
-0.124795,-0.0295614,0.361093,-1.63021,-0.271916,-0.168853,0.481228,-0.783849,0.244106,-0.794784,-0.302699,-0.944582,0.53754,-0.248926,0,0,0,0,0,0,0,-0.0893756,-0.0397931,0.396596,-1.61547,-0.230276,1.38131,1.2797,-0.600957,0.168772,-0.605287,-0.247139,-0.735384,0.199302,-0.155224,-1.89679,-28.5079,-2.58574,24.5349,-1.06781,1.28258,-0.210464,-0.70801,-0.679518,-1.50211,-0.230464,0.482043,0.000805215,-0.0204349,0.664276,0.0376145,-0.978354,-0.431252,-0.393752,-0.240338,
-0.127932,-0.0285798,0.357911,-1.63141,-0.275586,-0.166656,0.480239,-0.78422,0.24541,-0.795458,-0.299415,-0.91747,0.549323,-0.247199,0,0,0,0,0,0,0,-0.108789,-0.0339908,0.376457,-1.62284,-0.254569,1.39134,1.27423,-0.601242,0.209038,-0.617779,-0.203048,-0.751227,0.397474,-0.169763,-2.96002,-30.1781,-3.51012,24.9356,-2.00165,1.39519,-0.250748,-0.70801,-0.679518,-1.50211,-0.230464,0.482043,0.000805215,-0.0204349,0.664276,0.0376145,-0.978354,-0.431252,-0.393752,-0.240338,
-0.131058,-0.0275817,0.354741,-1.63257,-0.27913,-0.164444,0.479301,-0.781333,0.249527,-0.792402,-0.289864,-0.886008,0.553078,-0.234554,0,0,0,0,0,0,0,-0.108789,-0.0339908,0.376457,-1.62284,-0.254569,1.39134,1.27423,-0.601242,0.209038,-0.617779,-0.203048,-0.751227,0.397474,-0.169763,-2.96002,-30.1781,-3.51012,24.9356,-2.00165,1.39519,-0.250748,-1.24849,-2.16069,-1.26869,0.680071,-0.00759152,-0.698162,-0.712109,0.400838,-0.68315,-0.875864,-0.628014,-0.462666,-0.235613,
-0.134174,-0.0265806,0.351581,-1.63371,-0.282502,-0.162216,0.478382,-0.779151,0.250267,-0.790078,-0.284404,-0.843066,0.556855,-0.229864,0,0,0,0,0,0,0,-0.108789,-0.0339908,0.376457,-1.62284,-0.254569,1.39134,1.27423,-0.601242,0.209038,-0.617779,-0.203048,-0.751227,0.397474,-0.169763,-2.96002,-30.1781,-3.51012,24.9356,-2.00165,1.39519,-0.250748,1.36373,-1.34462,-2.47157,0.0105857,2.39943,-0.598315,-0.593806,1.87788,-0.584429,-1.49614,-0.591809,-0.408296,-0.236469,
-0.137282,-0.0255828,0.34843,-1.63483,-0.285671,-0.159983,0.477478,-0.776994,0.249458,-0.787817,-0.28017,-0.792101,0.558238,-0.225795,0,0,0,0,0,0,0,-0.108789,-0.0339908,0.376457,-1.62284,-0.254569,1.39134,1.27423,-0.601242,0.209038,-0.617779,-0.203048,-0.751227,0.397474,-0.169763,-2.96002,-30.1781,-3.51012,24.9356,-2.00165,1.39519,-0.250748,1.36373,-1.34462,-2.47157,0.0105857,2.39943,-0.598315,-0.593806,1.87788,-0.584429,-1.49614,-0.591809,-0.408296,-0.236469,
-0.121812,-0.0296673,0.36439,-1.63042,-0.268358,-0.17439,0.479808,-0.800977,0.272146,-0.796832,-0.349927,-0.980889,0.444602,-0.30372,0,0,0,0,0,0,0,-0.108789,-0.0339908,0.376457,-1.62284,-0.254569,1.39134,1.27423,-0.601242,0.209038,-0.617779,-0.203048,-0.751227,0.397474,-0.169763,-2.96002,-30.1781,-3.51012,24.9356,-2.00165,1.39519,-0.250748,0.353094,1.2096,-2.9947,-1.60384,1.92976,0.877034,0.878417,1.64332,0.912118,-1.6095,-0.340557,-0.296468,-0.235513,
-0.140973,-0.0247995,0.343966,-1.63599,-0.2886,-0.155094,0.476635,-0.77857,0.229407,-0.790275,-0.29187,-0.647947,0.56522,-0.253182,0,0,0,0,0,0,0,-0.129502,-0.0276251,0.35503,-1.63,-0.278757,1.40642,1.26894,-0.645645,0.197704,-0.666675,-0.209399,-0.676882,0.505829,-0.135088,-1.69445,-31.8999,-1.98668,24.9832,-1.5622,1.74035,-0.177505,0.353094,1.2096,-2.9947,-1.60384,1.92976,0.877034,0.878417,1.64332,0.912118,-1.6095,-0.340557,-0.296468,-0.235513,
-0.144092,-0.0238799,0.340799,-1.63715,-0.291001,-0.152848,0.475635,-0.779898,0.229892,-0.791769,-0.289898,-0.600155,0.56158,-0.249864,0,0,0,0,0,0,0,-0.129502,-0.0276251,0.35503,-1.63,-0.278757,1.40642,1.26894,-0.645645,0.197704,-0.666675,-0.209399,-0.676882,0.505829,-0.135088,-1.69445,-31.8999,-1.98668,24.9832,-1.5622,1.74035,-0.177505,-0.723586,-1.66806,-2.51824,0.291267,0.852885,-0.488403,-0.497964,1.04858,-0.470457,-1.27624,-0.596047,-0.306186,-0.230077,
-0.147207,-0.0229608,0.337635,-1.6383,-0.293224,-0.150616,0.474645,-0.778732,0.229789,-0.79084,-0.288189,-0.555783,0.558063,-0.247573,0,0,0,0,0,0,0,-0.129502,-0.0276251,0.35503,-1.63,-0.278757,1.40642,1.26894,-0.645645,0.197704,-0.666675,-0.209399,-0.676882,0.505829,-0.135088,-1.69445,-31.8999,-1.98668,24.9832,-1.5622,1.74035,-0.177505,-0.723586,-1.66806,-2.51824,0.291267,0.852885,-0.488403,-0.497964,1.04858,-0.470457,-1.27624,-0.596047,-0.306186,-0.230077,
-0.150307,-0.0220415,0.334486,-1.63944,-0.295283,-0.148398,0.47366,-0.774883,0.229815,-0.787338,-0.285608,-0.514861,0.554359,-0.246235,0,0,0,0,0,0,0,-0.129502,-0.0276251,0.35503,-1.63,-0.278757,1.40642,1.26894,-0.645645,0.197704,-0.666675,-0.209399,-0.676882,0.505829,-0.135088,-1.69445,-31.8999,-1.98668,24.9832,-1.5622,1.74035,-0.177505,-1.2361,-2.29806,-2.16454,0.760115,0.270556,-0.769276,-0.773763,0.67501,-0.764127,-1.03977,-0.642114,-0.255649,-0.224372,
-0.153379,-0.0211119,0.331365,-1.64056,-0.297195,-0.146207,0.472721,-0.768021,0.232391,-0.780324,-0.277993,-0.478065,0.54787,-0.23465,0,0,0,0,0,0,0,-0.129502,-0.0276251,0.35503,-1.63,-0.278757,1.40642,1.26894,-0.645645,0.197704,-0.666675,-0.209399,-0.676882,0.505829,-0.135088,-1.69445,-31.8999,-1.98668,24.9832,-1.5622,1.74035,-0.177505,0.273538,-0.913147,-2.16533,-0.0319372,1.32989,-0.200689,-0.196501,1.17524,-0.195252,-1.08262,-0.471555,-0.160199,-0.228623,
-0.156427,-0.0201853,0.328268,-1.64166,-0.298942,-0.144007,0.4718,-0.762049,0.231663,-0.774201,-0.275296,-0.436615,0.550053,-0.230311,0,0,0,0,0,0,0,-0.129502,-0.0276251,0.35503,-1.63,-0.278757,1.40642,1.26894,-0.645645,0.197704,-0.666675,-0.209399,-0.676882,0.505829,-0.135088,-1.69445,-31.8999,-1.98668,24.9832,-1.5622,1.74035,-0.177505,0.273538,-0.913147,-2.16533,-0.0319372,1.32989,-0.200689,-0.196501,1.17524,-0.195252,-1.08262,-0.471555,-0.160199,-0.228623,
-0.144714,-0.0230316,0.340651,-1.63866,-0.295378,-0.155506,0.473136,-0.811052,0.255867,-0.823801,-0.33373,-0.839292,0.522134,-0.298995,0,0,0,0,0,0,0,-0.150025,-0.0210363,0.333686,-1.63696,-0.297519,1.42363,1.26475,-0.662866,0.197227,-0.68312,-0.220865,-0.51782,0.555856,-0.137737,-0.781979,-33.3479,-1.08611,25.9552,-0.389408,1.79986,-0.26448,-1.39999,0.606553,-0.743778,-0.73914,-0.524748,0.726253,0.733244,-0.141415,0.727963,-0.37728,-0.238132,-0.0660542,-0.233259,
-0.18564,-0.0112243,0.297421,-1.65072,-0.315464,-0.11861,0.466287,-0.754912,0.216223,-0.768317,-0.281276,-0.160184,0.565393,-0.252189,0,0,0,0,0,0,0,-0.150025,-0.0210363,0.333686,-1.63696,-0.297519,1.42363,1.26475,-0.662866,0.197227,-0.68312,-0.220865,-0.51782,0.555856,-0.137737,-0.781979,-33.3479,-1.08611,25.9552,-0.389408,1.79986,-0.26448,-1.39999,0.606553,-0.743778,-0.73914,-0.524748,0.726253,0.733244,-0.141415,0.727963,-0.37728,-0.238132,-0.0660542,-0.233259,
-0.188636,-0.0103608,0.29437,-1.65183,-0.315965,-0.116391,0.465282,-0.748962,0.215863,-0.762606,-0.27886,-0.125314,0.554722,-0.251436,0,0,0,0,0,0,0,-0.150025,-0.0210363,0.333686,-1.63696,-0.297519,1.42363,1.26475,-0.662866,0.197227,-0.68312,-0.220865,-0.51782,0.555856,-0.137737,-0.781979,-33.3479,-1.08611,25.9552,-0.389408,1.79986,-0.26448,-1.14357,-1.98019,-0.0517974,1.03716,-0.693378,-0.7143,-0.71255,-0.246814,-0.723342,-0.0872316,-0.35408,-0.116455,-0.230607,
-0.191598,-0.00949003,0.291355,-1.65292,-0.316356,-0.114227,0.464323,-0.740359,0.217693,-0.753736,-0.272018,-0.0975787,0.541093,-0.239594,0,0,0,0,0,0,0,-0.150025,-0.0210363,0.333686,-1.63696,-0.297519,1.42363,1.26475,-0.662866,0.197227,-0.68312,-0.220865,-0.51782,0.555856,-0.137737,-0.781979,-33.3479,-1.08611,25.9552,-0.389408,1.79986,-0.26448,0.174609,-0.98923,-0.53212,0.429743,0.558524,-0.322331,-0.309783,0.510264,-0.335207,-0.430094,-0.215733,-0.16825,-0.235234,
-0.194528,-0.00862339,0.288372,-1.654,-0.316628,-0.112087,0.463382,-0.732607,0.216659,-0.745828,-0.26955,-0.0681754,0.535083,-0.235357,0,0,0,0,0,0,0,-0.150025,-0.0210363,0.333686,-1.63696,-0.297519,1.42363,1.26475,-0.662866,0.197227,-0.68312,-0.220865,-0.51782,0.555856,-0.137737,-0.781979,-33.3479,-1.08611,25.9552,-0.389408,1.79986,-0.26448,0.174609,-0.98923,-0.53212,0.429743,0.558524,-0.322331,-0.309783,0.510264,-0.335207,-0.430094,-0.215733,-0.16825,-0.235234,
-0.197429,-0.0077656,0.285418,-1.65507,-0.31678,-0.109951,0.462455,-0.725325,0.214447,-0.738405,-0.268506,-0.0378103,0.533971,-0.23173,0,0,0,0,0,0,0,-0.170497,-0.0142491,0.312481,-1.64379,-0.311116,1.44135,1.26057,-0.656452,0.208826,-0.683206,-0.215753,-0.411795,0.582442,-0.138519,-0.95654,-33.0226,-1.13768,25.3839,0.263363,1.34209,-0.183914,0.261827,0.487001,-1.42197,-0.456948,1.22089,0.417085,0.433136,1.06406,0.406596,-0.946494,0.00771247,-0.292956,-0.237874,
-0.200302,-0.00691857,0.282493,-1.65614,-0.316806,-0.107809,0.461542,-0.718264,0.211759,-0.731214,-0.267613,-0.00666382,0.535479,-0.228237,0,0,0,0,0,0,0,-0.170497,-0.0142491,0.312481,-1.64379,-0.311116,1.44135,1.26057,-0.656452,0.208826,-0.683206,-0.215753,-0.411795,0.582442,-0.138519,-0.95654,-33.0226,-1.13768,25.3839,0.263363,1.34209,-0.183914,0.261827,0.487001,-1.42197,-0.456948,1.22089,0.417085,0.433136,1.06406,0.406596,-0.946494,0.00771247,-0.292956,-0.237874,
-0.187119,-0.0107222,0.296174,-1.65192,-0.317457,-0.119392,0.463957,-0.810222,0.234794,-0.825109,-0.31087,-0.157871,0.559803,-0.297262,0,0,0,0,0,0,0,-0.170497,-0.0142491,0.312481,-1.64379,-0.311116,1.44135,1.26057,-0.656452,0.208826,-0.683206,-0.215753,-0.411795,0.582442,-0.138519,-0.95654,-33.0226,-1.13768,25.3839,0.263363,1.34209,-0.183914,-1.23146,1.03439,-1.02937,-0.675671,0.0639011,0.761326,0.775452,0.405559,0.750827,-0.775336,0.145153,-0.346633,-0.237352,
-0.205188,-0.00515932,0.277113,-1.657,-0.307221,-0.100823,0.46219,-0.714804,0.19172,-0.728468,-0.270127,0.315481,0.540132,-0.252401,0,0,0,0,0,0,0,-0.170497,-0.0142491,0.312481,-1.64379,-0.311116,1.44135,1.26057,-0.656452,0.208826,-0.683206,-0.215753,-0.411795,0.582442,-0.138519,-0.95654,-33.0226,-1.13768,25.3839,0.263363,1.34209,-0.183914,-1.23146,1.03439,-1.02937,-0.675671,0.0639011,0.761326,0.775452,0.405559,0.750827,-0.775336,0.145153,-0.346633,-0.237352,
-0.208012,-0.00439691,0.274233,-1.65807,-0.305884,-0.098717,0.461182,-0.706192,0.190602,-0.720009,-0.268069,0.334155,0.526598,-0.252068,0,0,0,0,0,0,0,-0.170497,-0.0142491,0.312481,-1.64379,-0.311116,1.44135,1.26057,-0.656452,0.208826,-0.683206,-0.215753,-0.411795,0.582442,-0.138519,-0.95654,-33.0226,-1.13768,25.3839,0.263363,1.34209,-0.183914,-0.587426,-0.393784,-1.98226,0.32651,0.999227,-0.0634807,-0.0519672,1.21062,-0.0747109,-1.20838,0.180751,-0.413794,-0.239376,
-0.210794,-0.0036304,0.271397,-1.65912,-0.304501,-0.0966739,0.460221,-0.695486,0.191628,-0.708971,-0.261683,0.345833,0.510768,-0.240281,0,0,0,0,0,0,0,-0.170497,-0.0142491,0.312481,-1.64379,-0.311116,1.44135,1.26057,-0.656452,0.208826,-0.683206,-0.215753,-0.411795,0.582442,-0.138519,-0.95654,-33.0226,-1.13768,25.3839,0.263363,1.34209,-0.183914,-0.37717,0.648313,-2.32881,-0.219695,1.32357,0.482144,0.503314,1.42027,0.462611,-1.3573,0.354718,-0.384603,-0.241688,
-0.213538,-0.00287036,0.2686,-1.66016,-0.303064,-0.0946628,0.459276,-0.685895,0.19001,-0.699241,-0.259471,0.359044,0.50278,-0.236239,0,0,0,0,0,0,0,-0.199138,-0.00515642,0.282573,-1.65192,-0.319158,1.4688,1.25401,-0.688009,0.208514,-0.720897,-0.189571,-0.0747411,0.677334,-0.177231,0.25745,-34.1731,0.211195,25.1855,-0.023197,1.13061,-0.23793,-0.37717,0.648313,-2.32881,-0.219695,1.32357,0.482144,0.503314,1.42027,0.462611,-1.3573,0.354718,-0.384603,-0.241688,
-0.216246,-0.00212097,0.265839,-1.66119,-0.301571,-0.0926629,0.458344,-0.677072,0.187347,-0.690292,-0.258611,0.373256,0.499962,-0.232813,0,0,0,0,0,0,0,-0.199138,-0.00515642,0.282573,-1.65192,-0.319158,1.4688,1.25401,-0.688009,0.208514,-0.720897,-0.189571,-0.0747411,0.677334,-0.177231,0.25745,-34.1731,0.211195,25.1855,-0.023197,1.13061,-0.23793,-0.294958,0.985618,-2.28349,-0.412971,1.36361,0.663205,0.68886,1.41394,0.63916,-1.34904,0.369615,-0.378746,-0.244109,
-0.206565,-0.00495018,0.27566,-1.65827,-0.310725,-0.101301,0.459963,-0.759899,0.203012,-0.774984,-0.30059,0.236585,0.536635,-0.295447,0,0,0,0,0,0,0,-0.199138,-0.00515642,0.282573,-1.65192,-0.319158,1.4688,1.25401,-0.688009,0.208514,-0.720897,-0.189571,-0.0747411,0.677334,-0.177231,0.25745,-34.1731,0.211195,25.1855,-0.023197,1.13061,-0.23793,-0.294958,0.985618,-2.28349,-0.412971,1.36361,0.663205,0.68886,1.41394,0.63916,-1.34904,0.369615,-0.378746,-0.244109,
-0.232514,0.00301214,0.248498,-1.66455,-0.305293,-0.0732534,0.455662,-0.661818,0.162969,-0.675663,-0.262247,0.431005,0.509366,-0.253019,0,0,0,0,0,0,0,-0.199138,-0.00515642,0.282573,-1.65192,-0.319158,1.4688,1.25401,-0.688009,0.208514,-0.720897,-0.189571,-0.0747411,0.677334,-0.177231,0.25745,-34.1731,0.211195,25.1855,-0.023197,1.13061,-0.23793,0.182823,-1.1229,-2.6428,0.976641,1.85084,-0.505951,-0.483783,1.87748,-0.527716,-1.49913,0.281242,-0.423867,-0.240215,
-0.235121,0.00365569,0.245836,-1.6656,-0.303554,-0.0712733,0.454649,-0.65158,0.160887,-0.665518,-0.260484,0.434776,0.495029,-0.253018,0,0,0,0,0,0,0,-0.199138,-0.00515642,0.282573,-1.65192,-0.319158,1.4688,1.25401,-0.688009,0.208514,-0.720897,-0.189571,-0.0747411,0.677334,-0.177231,0.25745,-34.1731,0.211195,25.1855,-0.023197,1.13061,-0.23793,0.182823,-1.1229,-2.6428,0.976641,1.85084,-0.505951,-0.483783,1.87748,-0.527716,-1.49913,0.281242,-0.423867,-0.240215,
-0.23768,0.00429955,0.243222,-1.66661,-0.301818,-0.0693573,0.453684,-0.63983,0.160965,-0.653388,-0.25441,0.433972,0.479,-0.241485,0,0,0,0,0,0,0,-0.221127,0.00151432,0.25973,-1.6578,-0.317158,1.49005,1.24929,-0.696513,0.211385,-0.716893,-0.178354,0.099205,0.648845,-0.126144,1.55078,-35.1967,1.61165,24.7372,-0.359196,1.42815,-0.177505,-1.26725,-0.256892,-2.55871,0.52265,0.830773,-0.0213656,0.00256701,1.31869,-0.0449061,-1.42604,0.400641,-0.430504,-0.235828,
-0.240198,0.00493429,0.24065,-1.66762,-0.300073,-0.0674733,0.452733,-0.629437,0.158685,-0.642907,-0.252264,0.436251,0.471002,-0.237619,0,0,0,0,0,0,0,-0.221127,0.00151432,0.25973,-1.6578,-0.317158,1.49005,1.24929,-0.696513,0.211385,-0.716893,-0.178354,0.099205,0.648845,-0.126144,1.55078,-35.1967,1.61165,24.7372,-0.359196,1.42815,-0.177505,-1.83738,2.18947,-1.858,-0.97736,0.0441659,1.32665,1.3524,0.583327,1.29984,-1.07081,0.549425,-0.307627,-0.236279,
-0.242678,0.00555646,0.238117,-1.66863,-0.29831,-0.0655999,0.451796,-0.620073,0.155543,-0.633459,-0.251385,0.440793,0.468356,-0.234353,0,0,0,0,0,0,0,-0.221127,0.00151432,0.25973,-1.6578,-0.317158,1.49005,1.24929,-0.696513,0.211385,-0.716893,-0.178354,0.099205,0.648845,-0.126144,1.55078,-35.1967,1.61165,24.7372,-0.359196,1.42815,-0.177505,-1.83738,2.18947,-1.858,-0.97736,0.0441659,1.32665,1.3524,0.583327,1.29984,-1.07081,0.549425,-0.307627,-0.236279,
-0.245123,0.00616664,0.235618,-1.66963,-0.296522,-0.0637491,0.450871,-0.611233,0.152544,-0.624526,-0.249393,0.44697,0.462684,-0.231217,0,0,0,0,0,0,0,-0.221127,0.00151432,0.25973,-1.6578,-0.317158,1.49005,1.24929,-0.696513,0.211385,-0.716893,-0.178354,0.099205,0.648845,-0.126144,1.55078,-35.1967,1.61165,24.7372,-0.359196,1.42815,-0.177505,-0.600414,1.12756,-2.06948,-0.319195,0.935459,0.745159,0.769933,1.11746,0.719557,-1.14774,0.451817,-0.27036,-0.230585,
-0.234193,0.00335043,0.246756,-1.66539,-0.30195,-0.0748904,0.45353,-0.7112,0.177934,-0.726173,-0.284735,0.522467,0.466624,-0.294188,0,0,0,0,0,0,0,-0.221127,0.00151432,0.25973,-1.6578,-0.317158,1.49005,1.24929,-0.696513,0.211385,-0.716893,-0.178354,0.099205,0.648845,-0.126144,1.55078,-35.1967,1.61165,24.7372,-0.359196,1.42815,-0.177505,-0.600414,1.12756,-2.06948,-0.319195,0.935459,0.745159,0.769933,1.11746,0.719557,-1.14774,0.451817,-0.27036,-0.230585,
-0.253077,0.00902111,0.227093,-1.66985,-0.2962,-0.0557618,0.450982,-0.61878,0.141229,-0.632491,-0.249714,0.55236,0.406638,-0.253184,0,0,0,0,0,0,0,-0.221127,0.00151432,0.25973,-1.6578,-0.317158,1.49005,1.24929,-0.696513,0.211385,-0.716893,-0.178354,0.099205,0.648845,-0.126144,1.55078,-35.1967,1.61165,24.7372,-0.359196,1.42815,-0.177505,-1.4995,-0.505852,-1.34283,0.687195,-0.0508164,-0.176591,-0.160931,0.560318,-0.188635,-0.809069,0.323396,-0.302454,-0.225568,
-0.255508,0.00957558,0.224606,-1.67085,-0.294,-0.0541986,0.44997,-0.607859,0.138617,-0.621665,-0.247987,0.550043,0.390805,-0.252987,0,0,0,0,0,0,0,-0.242228,0.00776315,0.237681,-1.66378,-0.312196,1.50948,1.24526,-0.668842,0.207652,-0.676909,-0.193405,0.199922,0.604313,-0.117389,2.2887,-36.5416,2.23848,26.2051,0.410763,1.87951,-0.217789,-1.58444,-0.0732172,-0.686336,0.432893,-0.493861,0.049541,0.0717891,0.133866,0.0315552,-0.482175,0.357642,-0.224865,-0.222469,
-0.257891,0.0101281,0.222169,-1.67181,-0.291827,-0.0527029,0.449,-0.595786,0.13813,-0.60925,-0.242252,0.543272,0.373915,-0.242542,0,0,0,0,0,0,0,-0.242228,0.00776315,0.237681,-1.66378,-0.312196,1.50948,1.24526,-0.668842,0.207652,-0.676909,-0.193405,0.199922,0.604313,-0.117389,2.2887,-36.5416,2.23848,26.2051,0.410763,1.87951,-0.217789,-1.58444,-0.0732172,-0.686336,0.432893,-0.493861,0.049541,0.0717891,0.133866,0.0315552,-0.482175,0.357642,-0.224865,-0.222469,
-0.260231,0.0106703,0.219776,-1.67278,-0.289671,-0.051243,0.448044,-0.585037,0.135556,-0.598462,-0.240227,0.538898,0.364983,-0.238949,0,0,0,0,0,0,0,-0.242228,0.00776315,0.237681,-1.66378,-0.312196,1.50948,1.24526,-0.668842,0.207652,-0.676909,-0.193405,0.199922,0.604313,-0.117389,2.2887,-36.5416,2.23848,26.2051,0.410763,1.87951,-0.217789,-0.764629,0.813767,-0.350218,-0.122134,-0.130263,0.543453,0.571871,0.157972,0.516538,-0.349629,0.403852,-0.168064,-0.218929,
-0.262533,0.0111994,0.217421,-1.67373,-0.287526,-0.0497966,0.4471,-0.575332,0.132259,-0.588716,-0.23945,0.536231,0.361607,-0.23592,0,0,0,0,0,0,0,-0.242228,0.00776315,0.237681,-1.66378,-0.312196,1.50948,1.24526,-0.668842,0.207652,-0.676909,-0.193405,0.199922,0.604313,-0.117389,2.2887,-36.5416,2.23848,26.2051,0.410763,1.87951,-0.217789,-0.764629,0.813767,-0.350218,-0.122134,-0.130263,0.543453,0.571871,0.157972,0.516538,-0.349629,0.403852,-0.168064,-0.218929,
-0.264798,0.0117141,0.215102,-1.67469,-0.285386,-0.0483427,0.446168,-0.566429,0.128686,-0.579771,-0.239184,0.535093,0.363465,-0.233033,0,0,0,0,0,0,0,-0.242228,0.00776315,0.237681,-1.66378,-0.312196,1.50948,1.24526,-0.668842,0.207652,-0.676909,-0.193405,0.199922,0.604313,-0.117389,2.2887,-36.5416,2.23848,26.2051,0.410763,1.87951,-0.217789,-0.253678,-0.808129,-0.870955,0.857414,0.559039,-0.358496,-0.329613,0.774443,-0.381186,-0.661769,0.262201,-0.296882,-0.215221,
-0.254397,0.00901881,0.225706,-1.67082,-0.291688,-0.0569716,0.448946,-0.655633,0.146521,-0.67049,-0.274461,0.664073,0.378031,-0.29249,0,0,0,0,0,0,0,-0.262814,0.0139696,0.216457,-1.66952,-0.304008,1.52621,1.24145,-0.648616,0.201007,-0.650045,-0.179529,0.307559,0.506806,-0.137554,2.64179,-37.5414,2.76216,26.705,0.434567,1.87951,-0.183914,-0.951671,-2.21421,-0.989321,1.70917,0.193965,-1.17882,-1.15459,0.751769,-1.18944,-0.735854,0.150109,-0.38788,-0.208505,
-0.291815,0.0204371,0.186753,-1.6815,-0.277548,-0.0241023,0.443095,-0.558698,0.115367,-0.57294,-0.244645,0.62923,0.3573,-0.257779,0,0,0,0,0,0,0,-0.262814,0.0139696,0.216457,-1.66952,-0.304008,1.52621,1.24145,-0.648616,0.201007,-0.650045,-0.179529,0.307559,0.506806,-0.137554,2.64179,-37.5414,2.76216,26.705,0.434567,1.87951,-0.183914,-0.951671,-2.21421,-0.989321,1.70917,0.193965,-1.17882,-1.15459,0.751769,-1.18944,-0.735854,0.150109,-0.38788,-0.208505,
-0.294007,0.0208951,0.184506,-1.68246,-0.275039,-0.0227306,0.442105,-0.547951,0.114505,-0.561771,-0.238533,0.627045,0.34292,-0.247532,0,0,0,0,0,0,0,-0.262814,0.0139696,0.216457,-1.66952,-0.304008,1.52621,1.24145,-0.648616,0.201007,-0.650045,-0.179529,0.307559,0.506806,-0.137554,2.64179,-37.5414,2.76216,26.705,0.434567,1.87951,-0.183914,-1.18455,0.0546634,-1.40468,0.332564,0.257812,0.0658499,0.0965665,0.723477,0.0383057,-0.925932,0.27581,-0.366505,-0.206816,
-0.296159,0.0213428,0.182299,-1.6834,-0.272545,-0.0213928,0.441129,-0.538021,0.111914,-0.551797,-0.235851,0.623613,0.334445,-0.243972,0,0,0,0,0,0,0,-0.262814,0.0139696,0.216457,-1.66952,-0.304008,1.52621,1.24145,-0.648616,0.201007,-0.650045,-0.179529,0.307559,0.506806,-0.137554,2.64179,-37.5414,2.76216,26.705,0.434567,1.87951,-0.183914,-1.18455,0.0546634,-1.40468,0.332564,0.257812,0.0658499,0.0965665,0.723477,0.0383057,-0.925932,0.27581,-0.366505,-0.206816,
-0.298274,0.0217778,0.180128,-1.68434,-0.270068,-0.0200737,0.440165,-0.52884,0.10876,-0.542575,-0.234377,0.619199,0.329769,-0.240958,0,0,0,0,0,0,0,-0.262814,0.0139696,0.216457,-1.66952,-0.304008,1.52621,1.24145,-0.648616,0.201007,-0.650045,-0.179529,0.307559,0.506806,-0.137554,2.64179,-37.5414,2.76216,26.705,0.434567,1.87951,-0.183914,-1.4901,1.16132,-1.33884,-0.342165,0.05452,0.645279,0.679712,0.541312,0.608509,-0.934429,0.331089,-0.387282,-0.206033,
-0.300355,0.0221995,0.177992,-1.68527,-0.267611,-0.0187594,0.439213,-0.520278,0.105421,-0.533973,-0.233413,0.614272,0.328572,-0.238061,0,0,0,0,0,0,0,-0.283025,0.0203026,0.195315,-1.67472,-0.292903,1.54147,1.23625,-0.612126,0.185155,-0.656511,-0.159374,0.394255,0.467872,-0.168497,0.840641,-37.2914,1.11177,25.7568,0.269772,1.67351,-0.210464,-1.4901,1.16132,-1.33884,-0.342165,0.05452,0.645279,0.679712,0.541312,0.608509,-0.934429,0.331089,-0.387282,-0.206033,
-0.293288,0.0203404,0.185215,-1.68207,-0.266199,-0.0257825,0.441165,-0.595167,0.117536,-0.610307,-0.260552,0.909637,0.308044,-0.2949,0,0,0,0,0,0,0,-0.283025,0.0203026,0.195315,-1.67472,-0.292903,1.54147,1.23625,-0.612126,0.185155,-0.656511,-0.159374,0.394255,0.467872,-0.168497,0.840641,-37.2914,1.11177,25.7568,0.269772,1.67351,-0.210464,-0.941468,-1.06493,-2.18282,1.1065,0.879923,-0.569892,-0.542745,1.359,-0.5879,-1.32703,0.223612,-0.477174,-0.202279,
-0.310419,0.0255527,0.167228,-1.68589,-0.259267,-0.0117158,0.437905,-0.51646,0.0871294,-0.530484,-0.228807,0.781834,0.277101,-0.257601,0,0,0,0,0,0,0,-0.283025,0.0203026,0.195315,-1.67472,-0.292903,1.54147,1.23625,-0.612126,0.185155,-0.656511,-0.159374,0.394255,0.467872,-0.168497,0.840641,-37.2914,1.11177,25.7568,0.269772,1.67351,-0.210464,-0.941468,-1.06493,-2.18282,1.1065,0.879923,-0.569892,-0.542745,1.359,-0.5879,-1.32703,0.223612,-0.477174,-0.202279,
-0.312441,0.0258979,0.165152,-1.68678,-0.256152,-0.0106717,0.436913,-0.505451,0.0863026,-0.519072,-0.222796,0.778641,0.261014,-0.248168,0,0,0,0,0,0,0,-0.283025,0.0203026,0.195315,-1.67472,-0.292903,1.54147,1.23625,-0.612126,0.185155,-0.656511,-0.159374,0.394255,0.467872,-0.168497,0.840641,-37.2914,1.11177,25.7568,0.269772,1.67351,-0.210464,-1.00676,-3.039,-2.15516,2.32602,0.767017,-1.66154,-1.64139,1.43874,-1.65768,-1.25088,0.112512,-0.454314,-0.20038,
-0.314422,0.0262332,0.163116,-1.68767,-0.253058,-0.00966815,0.435934,-0.495262,0.0838193,-0.508868,-0.220227,0.773573,0.250897,-0.244803,0,0,0,0,0,0,0,-0.283025,0.0203026,0.195315,-1.67472,-0.292903,1.54147,1.23625,-0.612126,0.185155,-0.656511,-0.159374,0.394255,0.467872,-0.168497,0.840641,-37.2914,1.11177,25.7568,0.269772,1.67351,-0.210464,-0.823745,0.101225,-2.41673,0.532885,0.978789,0.0866351,0.117717,1.36517,0.0606012,-1.35728,0.382733,-0.380149,-0.201828,
-0.316366,0.0265564,0.161119,-1.68854,-0.249989,-0.00868984,0.434966,-0.485859,0.0808232,-0.499453,-0.218871,0.76712,0.244579,-0.241939,0,0,0,0,0,0,0,-0.283025,0.0203026,0.195315,-1.67472,-0.292903,1.54147,1.23625,-0.612126,0.185155,-0.656511,-0.159374,0.394255,0.467872,-0.168497,0.840641,-37.2914,1.11177,25.7568,0.269772,1.67351,-0.210464,-0.823745,0.101225,-2.41673,0.532885,0.978789,0.0866351,0.117717,1.36517,0.0606012,-1.35728,0.382733,-0.380149,-0.201828,
-0.318274,0.0268672,0.159156,-1.68941,-0.24695,-0.00772304,0.434009,-0.477122,0.0776842,-0.490702,-0.218026,0.759911,0.241699,-0.239191,0,0,0,0,0,0,0,-0.302543,0.0256663,0.175135,-1.68016,-0.278944,1.55617,1.2306,-0.607942,0.16104,-0.63575,-0.171049,0.483,0.432676,-0.176819,2.23713,-37.8667,2.41304,25.6339,0.581051,1.50139,-0.157364,-1.64336,0.468513,-2.17598,0.315738,0.335357,0.206263,0.238972,0.984281,0.17913,-1.27323,0.407426,-0.411264,-0.199882,
-0.323109,0.0269869,0.154136,-1.69226,-0.227773,-0.00833285,0.429524,-0.474629,0.0667598,-0.488915,-0.235665,0.935256,0.216443,-0.265964,0,0,0,0,0,0,0,-0.302543,0.0256663,0.175135,-1.68016,-0.278944,1.55617,1.2306,-0.607942,0.16104,-0.63575,-0.171049,0.483,0.432676,-0.176819,2.23713,-37.8667,2.41304,25.6339,0.581051,1.50139,-0.157364,-1.64336,0.468513,-2.17598,0.315738,0.335357,0.206263,0.238972,0.984281,0.17913,-1.27323,0.407426,-0.411264,-0.199882,
-0.311174,0.0252086,0.166416,-1.68657,-0.250993,-0.0134011,0.436097,-0.533876,0.0812556,-0.548722,-0.246412,1.0034,0.233368,-0.292416,0,0,0,0,0,0,0,-0.302543,0.0256663,0.175135,-1.68016,-0.278944,1.55617,1.2306,-0.607942,0.16104,-0.63575,-0.171049,0.483,0.432676,-0.176819,2.23713,-37.8667,2.41304,25.6339,0.581051,1.50139,-0.157364,-1.69076,-0.951,-2.25393,1.24352,0.296351,-0.59808,-0.570523,1.10471,-0.606532,-1.26074,0.373197,-0.39734,-0.192708,
-0.327862,0.0297387,0.149153,-1.69096,-0.243204,-0.000335313,0.432317,-0.460444,0.0589164,-0.474161,-0.220311,0.79896,0.225561,-0.257259,0,0,0,0,0,0,0,-0.302543,0.0256663,0.175135,-1.68016,-0.278944,1.55617,1.2306,-0.607942,0.16104,-0.63575,-0.171049,0.483,0.432676,-0.176819,2.23713,-37.8667,2.41304,25.6339,0.581051,1.50139,-0.157364,-1.14619,-2.1505,-2.53019,2.03643,0.731575,-1.21144,-1.18957,1.47323,-1.20405,-1.32145,0.343143,-0.353911,-0.186746,
-0.329655,0.0299703,0.147306,-1.69181,-0.240059,0.000518652,0.431324,-0.448237,0.0578936,-0.461634,-0.214347,0.786384,0.213491,-0.248363,0,0,0,0,0,0,0,-0.302543,0.0256663,0.175135,-1.68016,-0.278944,1.55617,1.2306,-0.607942,0.16104,-0.63575,-0.171049,0.483,0.432676,-0.176819,2.23713,-37.8667,2.41304,25.6339,0.581051,1.50139,-0.157364,-1.14619,-2.1505,-2.53019,2.03643,0.731575,-1.21144,-1.18957,1.47323,-1.20405,-1.32145,0.343143,-0.353911,-0.186746,
-0.331403,0.0301916,0.145504,-1.69266,-0.236967,0.00134723,0.430343,-0.437082,0.0553176,-0.450539,-0.211725,0.772967,0.207146,-0.245241,0,0,0,0,0,0,0,-0.326943,0.0317385,0.149882,-1.68757,-0.256607,1.57146,1.2238,-0.580346,0.137389,-0.59122,-0.174344,0.57827,0.30945,-0.169052,3.70899,-38.5649,3.78572,26.3797,1.10016,2.03881,-0.157364,-1.40025,0.41658,-1.77451,0.450181,0.145402,0.165612,0.199783,0.768541,0.143609,-0.997575,0.50658,-0.284973,-0.187247,
-0.333111,0.0304007,0.143743,-1.6935,-0.233932,0.00216526,0.429373,-0.426898,0.0522886,-0.440405,-0.210316,0.758795,0.204506,-0.242603,0,0,0,0,0,0,0,-0.326943,0.0317385,0.149882,-1.68757,-0.256607,1.57146,1.2238,-0.580346,0.137389,-0.59122,-0.174344,0.57827,0.30945,-0.169052,3.70899,-38.5649,3.78572,26.3797,1.10016,2.03881,-0.157364,-1.40025,0.41658,-1.77451,0.450181,0.145402,0.165612,0.199783,0.768541,0.143609,-0.997575,0.50658,-0.284973,-0.187247,
-0.334781,0.0305974,0.142018,-1.69434,-0.230955,0.00298647,0.428412,-0.417521,0.0491654,-0.431069,-0.209456,0.744163,0.205303,-0.240091,0,0,0,0,0,0,0,-0.326943,0.0317385,0.149882,-1.68757,-0.256607,1.57146,1.2238,-0.580346,0.137389,-0.59122,-0.174344,0.57827,0.30945,-0.169052,3.70899,-38.5649,3.78572,26.3797,1.10016,2.03881,-0.157364,-2.02541,1.51855,-1.23111,-0.187069,-0.570109,0.675148,0.709972,0.20282,0.649309,-0.7636,0.636974,-0.262867,-0.183221,
-0.336416,0.0307816,0.140329,-1.69518,-0.228037,0.00382588,0.427461,-0.408827,0.0460668,-0.42241,-0.208957,0.729431,0.209853,-0.237723,0,0,0,0,0,0,0,-0.326943,0.0317385,0.149882,-1.68757,-0.256607,1.57146,1.2238,-0.580346,0.137389,-0.59122,-0.174344,0.57827,0.30945,-0.169052,3.70899,-38.5649,3.78572,26.3797,1.10016,2.03881,-0.157364,-1.18359,0.23098,-1.57062,0.666095,0.107394,0.0525911,0.084592,0.719999,0.039695,-0.871129,0.606809,-0.236444,-0.178146,
-0.328953,0.0295747,0.147989,-1.69148,-0.236373,-0.00119789,0.430546,-0.492604,0.0570336,-0.507477,-0.233265,1.0324,0.200324,-0.291463,0,0,0,0,0,0,0,-0.326943,0.0317385,0.149882,-1.68757,-0.256607,1.57146,1.2238,-0.580346,0.137389,-0.59122,-0.174344,0.57827,0.30945,-0.169052,3.70899,-38.5649,3.78572,26.3797,1.10016,2.03881,-0.157364,-1.18359,0.23098,-1.57062,0.666095,0.107394,0.0525911,0.084592,0.719999,0.039695,-0.871129,0.606809,-0.236444,-0.178146,
-0.350298,0.0348679,0.12587,-1.69797,-0.217538,0.0115902,0.425509,-0.416512,0.0415396,-0.430181,-0.204689,0.843837,0.164322,-0.252349,0,0,0,0,0,0,0,-0.326943,0.0317385,0.149882,-1.68757,-0.256607,1.57146,1.2238,-0.580346,0.137389,-0.59122,-0.174344,0.57827,0.30945,-0.169052,3.70899,-38.5649,3.78572,26.3797,1.10016,2.03881,-0.157364,-0.883918,-1.17821,-1.20356,1.42367,0.108404,-0.686673,-0.662231,0.727522,-0.679948,-0.688789,0.474839,-0.216168,-0.176762,
-0.35192,0.0350235,0.124192,-1.69878,-0.214202,0.0122083,0.424512,-0.405685,0.038887,-0.419384,-0.201595,0.833996,0.154526,-0.249262,0,0,0,0,0,0,0,-0.344237,0.035719,0.131724,-1.69306,-0.239411,1.57961,1.21879,-0.509419,0.116643,-0.528281,-0.167174,0.494009,0.219859,-0.149429,3.3797,-38.8625,3.31361,27.0779,0.740353,2.05804,-0.143631,-0.883918,-1.17821,-1.20356,1.42367,0.108404,-0.686673,-0.662231,0.727522,-0.679948,-0.688789,0.474839,-0.216168,-0.176762,
-0.353503,0.0351671,0.122555,-1.69958,-0.210919,0.0127961,0.423525,-0.39564,0.0359037,-0.409373,-0.199635,0.820607,0.146959,-0.246617,0,0,0,0,0,0,0,-0.344237,0.035719,0.131724,-1.69306,-0.239411,1.57961,1.21879,-0.509419,0.116643,-0.528281,-0.167174,0.494009,0.219859,-0.149429,3.3797,-38.8625,3.31361,27.0779,0.740353,2.05804,-0.143631,-0.529789,-0.782782,-1.41218,1.18732,0.46636,-0.427415,-0.39685,0.921425,-0.433031,-0.805226,0.461071,-0.235043,-0.174961,
-0.355048,0.0352987,0.120955,-1.70037,-0.207702,0.0133619,0.422549,-0.386296,0.0328936,-0.400061,-0.19821,0.804442,0.141452,-0.244073,0,0,0,0,0,0,0,-0.344237,0.035719,0.131724,-1.69306,-0.239411,1.57961,1.21879,-0.509419,0.116643,-0.528281,-0.167174,0.494009,0.219859,-0.149429,3.3797,-38.8625,3.31361,27.0779,0.740353,2.05804,-0.143631,-0.529789,-0.782782,-1.41218,1.18732,0.46636,-0.427415,-0.39685,0.921425,-0.433031,-0.805226,0.461071,-0.235043,-0.174961,
-0.356558,0.0354185,0.119389,-1.70116,-0.204557,0.0139157,0.421583,-0.377582,0.0299518,-0.39138,-0.197154,0.786183,0.138433,-0.241628,0,0,0,0,0,0,0,-0.344237,0.035719,0.131724,-1.69306,-0.239411,1.57961,1.21879,-0.509419,0.116643,-0.528281,-0.167174,0.494009,0.219859,-0.149429,3.3797,-38.8625,3.31361,27.0779,0.740353,2.05804,-0.143631,-0.238123,1.25196,-1.37778,-0.0897208,0.592148,0.743696,0.79007,0.742993,0.699665,-0.765019,0.511609,-0.166414,-0.176524,
-0.358036,0.0355269,0.117856,-1.70194,-0.201491,0.0144701,0.420625,-0.369432,0.0271083,-0.383265,-0.196451,0.766429,0.1386,-0.239312,0,0,0,0,0,0,0,-0.344237,0.035719,0.131724,-1.69306,-0.239411,1.57961,1.21879,-0.509419,0.116643,-0.528281,-0.167174,0.494009,0.219859,-0.149429,3.3797,-38.8625,3.31361,27.0779,0.740353,2.05804,-0.143631,-0.369313,0.545981,-1.62387,0.348109,0.572908,0.35256,0.399298,0.837947,0.315389,-0.80485,0.460206,-0.123398,-0.175217,
-0.350475,0.0344427,0.125639,-1.69851,-0.214067,0.0106097,0.42388,-0.423982,0.0310237,-0.438619,-0.217105,1.01227,0.14298,-0.283882,0,0,0,0,0,0,0,-0.360257,0.0389437,0.115119,-1.69809,-0.221688,1.58511,1.21341,-0.501743,0.0950304,-0.513445,-0.15096,0.577931,0.143765,-0.181744,3.30432,-38.8625,3.28584,27.2287,0.404354,2.29058,-0.117081,-0.369313,0.545981,-1.62387,0.348109,0.572908,0.35256,0.399298,0.837947,0.315389,-0.80485,0.460206,-0.123398,-0.175217,
-0.380238,0.0403801,0.0944763,-1.70796,-0.183622,0.0218725,0.415188,-0.350996,0.0128369,-0.364886,-0.198406,0.774238,0.16893,-0.251719,0,0,0,0,0,0,0,-0.360257,0.0389437,0.115119,-1.69809,-0.221688,1.58511,1.21341,-0.501743,0.0950304,-0.513445,-0.15096,0.577931,0.143765,-0.181744,3.30432,-38.8625,3.28584,27.2287,0.404354,2.29058,-0.117081,-0.424541,-0.165953,-1.93219,0.782303,0.690175,-0.039282,0.00443024,1.03649,-0.0675653,-0.920036,0.383089,-0.130575,-0.171562,
-0.381603,0.0404254,0.0930548,-1.70874,-0.180589,0.0225488,0.414193,-0.341331,0.0113121,-0.355384,-0.19511,0.75836,0.169074,-0.248892,0,0,0,0,0,0,0,-0.360257,0.0389437,0.115119,-1.69809,-0.221688,1.58511,1.21341,-0.501743,0.0950304,-0.513445,-0.15096,0.577931,0.143765,-0.181744,3.30432,-38.8625,3.28584,27.2287,0.404354,2.29058,-0.117081,-0.424541,-0.165953,-1.93219,0.782303,0.690175,-0.039282,0.00443024,1.03649,-0.0675653,-0.920036,0.383089,-0.130575,-0.171562,
-0.382934,0.0404628,0.0916669,-1.70951,-0.17761,0.0232251,0.413207,-0.332762,0.00935104,-0.346961,-0.192708,0.744733,0.169062,-0.246423,0,0,0,0,0,0,0,-0.360257,0.0389437,0.115119,-1.69809,-0.221688,1.58511,1.21341,-0.501743,0.0950304,-0.513445,-0.15096,0.577931,0.143765,-0.181744,3.30432,-38.8625,3.28584,27.2287,0.404354,2.29058,-0.117081,-0.857547,-1.48694,-1.75721,1.42505,0.339908,-0.807735,-0.770103,0.92003,-0.818087,-0.814422,0.183807,-0.124107,-0.169196,
-0.384235,0.0404918,0.090309,-1.71027,-0.174675,0.0239003,0.412231,-0.325143,0.00724204,-0.339467,-0.190722,0.733671,0.168796,-0.244016,0,0,0,0,0,0,0,-0.360257,0.0389437,0.115119,-1.69809,-0.221688,1.58511,1.21341,-0.501743,0.0950304,-0.513445,-0.15096,0.577931,0.143765,-0.181744,3.30432,-38.8625,3.28584,27.2287,0.404354,2.29058,-0.117081,-0.857547,-1.48694,-1.75721,1.42505,0.339908,-0.807735,-0.770103,0.92003,-0.818087,-0.814422,0.183807,-0.124107,-0.169196,
-0.385508,0.0405122,0.0889779,-1.71103,-0.171773,0.0245744,0.411264,-0.318352,0.00510124,-0.33279,-0.189,0.725603,0.168531,-0.241663,0,0,0,0,0,0,0,-0.360257,0.0389437,0.115119,-1.69809,-0.221688,1.58511,1.21341,-0.501743,0.0950304,-0.513445,-0.15096,0.577931,0.143765,-0.181744,3.30432,-38.8625,3.28584,27.2287,0.404354,2.29058,-0.117081,-1.09361,-1.88527,-2.11651,1.68695,0.367211,-1.0571,-1.01912,1.06906,-1.06394,-0.955092,0.130367,-0.133469,-0.166134,
-0.386758,0.0405241,0.0876706,-1.71178,-0.168889,0.0252489,0.410307,-0.312288,0.00298526,-0.326829,-0.187501,0.720976,0.168627,-0.239378,0,0,0,0,0,0,0,-0.375064,0.0415749,0.0998264,-1.70268,-0.202622,1.58868,1.20877,-0.48758,0.0761273,-0.480446,-0.149998,0.637064,0.118208,-0.148048,3.58203,-38.9656,3.4366,26.6296,0.343014,2.2503,-0.170181,-0.950201,0.631973,-2.22108,0.262277,0.438756,0.326998,0.376495,0.876712,0.283769,-0.986677,0.316314,-0.0838112,-0.168262,
-0.380677,0.039856,0.0939582,-1.70848,-0.178952,0.0227156,0.413656,-0.368124,-0.000674608,-0.383453,-0.207994,1.01576,0.188438,-0.281434,0,0,0,0,0,0,0,-0.375064,0.0415749,0.0998264,-1.70268,-0.202622,1.58868,1.20877,-0.48758,0.0761273,-0.480446,-0.149998,0.637064,0.118208,-0.148048,3.58203,-38.9656,3.4366,26.6296,0.343014,2.2503,-0.170181,-0.950201,0.631973,-2.22108,0.262277,0.438756,0.326998,0.376495,0.876712,0.283769,-0.986677,0.316314,-0.0838112,-0.168262,
-0.393499,0.0420488,0.0807094,-1.71216,-0.160622,0.0254503,0.410687,-0.320697,-0.00852264,-0.335083,-0.181946,0.965557,0.1101,-0.249191,0,0,0,0,0,0,0,-0.375064,0.0415749,0.0998264,-1.70268,-0.202622,1.58868,1.20877,-0.48758,0.0761273,-0.480446,-0.149998,0.637064,0.118208,-0.148048,3.58203,-38.9656,3.4366,26.6296,0.343014,2.2503,-0.170181,-1.60029,-1.26486,-2.27806,1.32488,0.0710168,-0.799996,-0.759239,0.899421,-0.813646,-0.983159,0.136262,-0.0958655,-0.167287,
-0.394742,0.0420076,0.0794095,-1.71288,-0.156806,0.0258403,0.409701,-0.310602,-0.0103171,-0.324993,-0.178846,0.954019,0.0974785,-0.246496,0,0,0,0,0,0,0,-0.375064,0.0415749,0.0998264,-1.70268,-0.202622,1.58868,1.20877,-0.48758,0.0761273,-0.480446,-0.149998,0.637064,0.118208,-0.148048,3.58203,-38.9656,3.4366,26.6296,0.343014,2.2503,-0.170181,-1.60029,-1.26486,-2.27806,1.32488,0.0710168,-0.799996,-0.759239,0.899421,-0.813646,-0.983159,0.136262,-0.0958655,-0.167287,
-0.395946,0.0419577,0.0781474,-1.71359,-0.153058,0.0261857,0.408725,-0.301098,-0.012477,-0.31552,-0.17687,0.936919,0.0863586,-0.24409,0,0,0,0,0,0,0,-0.375064,0.0415749,0.0998264,-1.70268,-0.202622,1.58868,1.20877,-0.48758,0.0761273,-0.480446,-0.149998,0.637064,0.118208,-0.148048,3.58203,-38.9656,3.4366,26.6296,0.343014,2.2503,-0.170181,-1.66778,-0.78208,-2.62902,1.08439,0.223062,-0.558125,-0.512093,1.0335,-0.583141,-1.15923,0.134127,-0.128386,-0.164755,
-0.397115,0.0418988,0.0769208,-1.71429,-0.149396,0.026493,0.407758,-0.292187,-0.0147154,-0.306652,-0.17547,0.91558,0.0768292,-0.241779,0,0,0,0,0,0,0,-0.389681,0.0434787,0.0843624,-1.70801,-0.182955,1.59193,1.20385,-0.437737,0.0489635,-0.44141,-0.162518,0.616226,0.0946112,-0.147352,3.42731,-38.2396,3.33742,26.6772,0.825497,2.11114,-0.224197,-1.2827,-0.500282,-2.34284,0.899077,0.310725,-0.348155,-0.298072,0.962794,-0.380405,-1.03445,0.16849,-0.105989,-0.167271,
-0.39825,0.0418311,0.0757273,-1.71499,-0.145831,0.0267714,0.406799,-0.283854,-0.0169362,-0.298371,-0.174513,0.891073,0.069609,-0.239567,0,0,0,0,0,0,0,-0.389681,0.0434787,0.0843624,-1.70801,-0.182955,1.59193,1.20385,-0.437737,0.0489635,-0.44141,-0.162518,0.616226,0.0946112,-0.147352,3.42731,-38.2396,3.33742,26.6772,0.825497,2.11114,-0.224197,-1.2827,-0.500282,-2.34284,0.899077,0.310725,-0.348155,-0.298072,0.962794,-0.380405,-1.03445,0.16849,-0.105989,-0.167271,
-0.399355,0.0417546,0.0745647,-1.71568,-0.142374,0.0270346,0.405849,-0.276071,-0.0191038,-0.290646,-0.174015,0.864264,0.0657899,-0.237484,0,0,0,0,0,0,0,-0.389681,0.0434787,0.0843624,-1.70801,-0.182955,1.59193,1.20385,-0.437737,0.0489635,-0.44141,-0.162518,0.616226,0.0946112,-0.147352,3.42731,-38.2396,3.33742,26.6772,0.825497,2.11114,-0.224197,-0.942183,-1.75842,-2.59914,1.79515,0.628384,-0.983477,-0.941351,1.33793,-0.990893,-1.1293,0.213523,-0.109818,-0.16516,
-0.393183,0.0415638,0.0809897,-1.71259,-0.16041,0.0262795,0.409253,-0.312059,-0.0215073,-0.327485,-0.189761,0.997727,0.133534,-0.277212,0,0,0,0,0,0,0,-0.389681,0.0434787,0.0843624,-1.70801,-0.182955,1.59193,1.20385,-0.437737,0.0489635,-0.44141,-0.162518,0.616226,0.0946112,-0.147352,3.42731,-38.2396,3.33742,26.6772,0.825497,2.11114,-0.224197,-0.942183,-1.75842,-2.59914,1.79515,0.628384,-0.983477,-0.941351,1.33793,-0.990893,-1.1293,0.213523,-0.109818,-0.16516,
-0.405581,0.0430104,0.0677839,-1.7171,-0.143736,0.0258227,0.40589,-0.261639,-0.0297208,-0.276278,-0.185732,0.810156,0.152692,-0.248138,0,0,0,0,0,0,0,-0.389681,0.0434787,0.0843624,-1.70801,-0.182955,1.59193,1.20385,-0.437737,0.0489635,-0.44141,-0.162518,0.616226,0.0946112,-0.147352,3.42731,-38.2396,3.33742,26.6772,0.825497,2.11114,-0.224197,-0.246423,-0.828353,-2.82637,1.41464,1.11372,-0.374994,-0.33055,1.54668,-0.392696,-1.21674,0.392771,-0.0862014,-0.166028,
-0.406588,0.0428883,0.0667182,-1.71783,-0.140586,0.0264946,0.404907,-0.251603,-0.0305122,-0.266419,-0.182453,0.787464,0.16797,-0.245593,0,0,0,0,0,0,0,-0.389681,0.0434787,0.0843624,-1.70801,-0.182955,1.59193,1.20385,-0.437737,0.0489635,-0.44141,-0.162518,0.616226,0.0946112,-0.147352,3.42731,-38.2396,3.33742,26.6772,0.825497,2.11114,-0.224197,-0.486142,0.381855,-2.48191,0.681335,0.762933,0.213074,0.266017,1.16918,0.177031,-1.0852,0.486754,-0.0813222,-0.165249,
-0.407558,0.0427622,0.0656879,-1.71855,-0.137526,0.0272086,0.403934,-0.24259,-0.0315399,-0.257572,-0.179276,0.765127,0.178511,-0.243376,0,0,0,0,0,0,0,-0.406416,0.0445901,0.06688,-1.71447,-0.156265,1.59365,1.19691,-0.378135,0.0268095,-0.412816,-0.150845,0.637202,0.0181214,-0.170837,3.17737,-38.3904,3.16286,27.0779,1.00311,2.32354,-0.117081,-0.486142,0.381855,-2.48191,0.681335,0.762933,0.213074,0.266017,1.16918,0.177031,-1.0852,0.486754,-0.0813222,-0.165249,
-0.408496,0.0426311,0.0646893,-1.71925,-0.134551,0.0279509,0.402969,-0.23452,-0.0327772,-0.249655,-0.176372,0.743744,0.185555,-0.241207,0,0,0,0,0,0,0,-0.406416,0.0445901,0.06688,-1.71447,-0.156265,1.59365,1.19691,-0.378135,0.0268095,-0.412816,-0.150845,0.637202,0.0181214,-0.170837,3.17737,-38.3904,3.16286,27.0779,1.00311,2.32354,-0.117081,-1.73607,-1.01029,-1.69792,1.32905,-0.371036,-0.786165,-0.737774,0.586443,-0.796565,-0.769486,0.368082,-0.107729,-0.158147,
-0.409406,0.0424944,0.0637189,-1.71995,-0.131655,0.0287111,0.402013,-0.22731,-0.0341589,-0.242589,-0.173786,0.723947,0.190061,-0.239072,0,0,0,0,0,0,0,-0.406416,0.0445901,0.06688,-1.71447,-0.156265,1.59365,1.19691,-0.378135,0.0268095,-0.412816,-0.150845,0.637202,0.0181214,-0.170837,3.17737,-38.3904,3.16286,27.0779,1.00311,2.32354,-0.117081,-1.73607,-1.01029,-1.69792,1.32905,-0.371036,-0.786165,-0.737774,0.586443,-0.796565,-0.769486,0.368082,-0.107729,-0.158147,
-0.410289,0.042352,0.0627737,-1.72063,-0.128829,0.0294824,0.401065,-0.220886,-0.0356171,-0.2363,-0.171524,0.706403,0.192824,-0.236981,0,0,0,0,0,0,0,-0.406416,0.0445901,0.06688,-1.71447,-0.156265,1.59365,1.19691,-0.378135,0.0268095,-0.412816,-0.150845,0.637202,0.0181214,-0.170837,3.17737,-38.3904,3.16286,27.0779,1.00311,2.32354,-0.117081,-0.939867,-1.21803,-1.76586,1.49052,0.165636,-0.745012,-0.692768,0.875231,-0.760333,-0.797128,0.37934,-0.100419,-0.159868,
-0.405775,0.0424599,0.0675181,-1.71766,-0.141204,0.0281973,0.404471,-0.272796,-0.0440983,-0.289018,-0.194713,0.993461,0.209928,-0.275848,0,0,0,0,0,0,0,-0.406416,0.0445901,0.06688,-1.71447,-0.156265,1.59365,1.19691,-0.378135,0.0268095,-0.412816,-0.150845,0.637202,0.0181214,-0.170837,3.17737,-38.3904,3.16286,27.0779,1.00311,2.32354,-0.117081,-0.939867,-1.21803,-1.76586,1.49052,0.165636,-0.745012,-0.692768,0.875231,-0.760333,-0.797128,0.37934,-0.100419,-0.159868,
-0.420386,0.0431792,0.0521871,-1.72344,-0.11688,0.0310649,0.399033,-0.228898,-0.0449082,-0.244627,-0.166844,0.869443,0.155998,-0.246354,0,0,0,0,0,0,0,-0.418095,0.0449629,0.0545953,-1.71933,-0.138345,1.59426,1.19127,-0.353815,0.00373595,-0.358527,-0.144133,0.499562,0.0180982,-0.150796,3.65741,-38.3904,3.56355,27.2287,0.862118,2.64214,-0.177505,0.11854,0.202943,-2.06713,0.786258,0.903399,0.217454,0.277516,1.13628,0.17641,-0.899871,0.53514,-0.05749,-0.1652,
-0.421268,0.0429933,0.0512418,-1.7241,-0.113423,0.0316372,0.398057,-0.220598,-0.0464792,-0.236335,-0.163459,0.864241,0.143097,-0.24393,0,0,0,0,0,0,0,-0.418095,0.0449629,0.0545953,-1.71933,-0.138345,1.59426,1.19127,-0.353815,0.00373595,-0.358527,-0.144133,0.499562,0.0180982,-0.150796,3.65741,-38.3904,3.56355,27.2287,0.862118,2.64214,-0.177505,-0.641562,-1.38412,-1.83023,1.60083,0.308724,-0.763299,-0.709789,0.943395,-0.778637,-0.751893,0.385615,-0.0267178,-0.165761,
-0.42212,0.0428,0.0503275,-1.72474,-0.110007,0.0321584,0.39709,-0.212805,-0.048319,-0.228579,-0.161081,0.853993,0.130277,-0.241716,0,0,0,0,0,0,0,-0.418095,0.0449629,0.0545953,-1.71933,-0.138345,1.59426,1.19127,-0.353815,0.00373595,-0.358527,-0.144133,0.499562,0.0180982,-0.150796,3.65741,-38.3904,3.56355,27.2287,0.862118,2.64214,-0.177505,-0.641562,-1.38412,-1.83023,1.60083,0.308724,-0.763299,-0.709789,0.943395,-0.778637,-0.751893,0.385615,-0.0267178,-0.165761,
-0.422942,0.0425993,0.0494419,-1.72538,-0.106646,0.032629,0.396132,-0.205549,-0.050182,-0.221379,-0.159249,0.840135,0.117653,-0.239571,0,0,0,0,0,0,0,-0.418095,0.0449629,0.0545953,-1.71933,-0.138345,1.59426,1.19127,-0.353815,0.00373595,-0.358527,-0.144133,0.499562,0.0180982,-0.150796,3.65741,-38.3904,3.56355,27.2287,0.862118,2.64214,-0.177505,-0.596694,-0.597428,-1.85605,1.13306,0.295642,-0.326265,-0.271455,0.835636,-0.351459,-0.728377,0.421988,0.0158481,-0.175624,
-0.423737,0.0423914,0.048583,-1.72601,-0.103352,0.0330522,0.395182,-0.198834,-0.0519786,-0.21473,-0.157835,0.823729,0.105813,-0.23749,0,0,0,0,0,0,0,-0.418095,0.0449629,0.0545953,-1.71933,-0.138345,1.59426,1.19127,-0.353815,0.00373595,-0.358527,-0.144133,0.499562,0.0180982,-0.150796,3.65741,-38.3904,3.56355,27.2287,0.862118,2.64214,-0.177505,-0.596694,-0.597428,-1.85605,1.13306,0.295642,-0.326265,-0.271455,0.835636,-0.351459,-0.728377,0.421988,0.0158481,-0.175624,
-0.424508,0.0421767,0.0477486,-1.72664,-0.10013,0.0334348,0.39424,-0.192632,-0.0536712,-0.208597,-0.15684,0.805485,0.0956511,-0.235484,0,0,0,0,0,0,0,-0.428324,0.0449952,0.0437987,-1.72368,-0.121184,1.59448,1.18718,-0.332102,-0.00275863,-0.337769,-0.13095,0.580378,0.00114971,-0.12962,3.83594,-37.8667,3.63893,27.3517,0.948178,2.80785,-0.250748,-0.635103,0.0222018,-1.96376,0.828027,0.253388,-0.00960114,0.0449518,0.770151,-0.038552,-0.740991,0.502401,0.0510611,-0.182282,
-0.420039,0.0426657,0.0525043,-1.72387,-0.114858,0.0333798,0.397723,-0.219524,-0.0585188,-0.235965,-0.172969,0.983392,0.21233,-0.271835,0,0,0,0,0,0,0,-0.428324,0.0449952,0.0437987,-1.72368,-0.121184,1.59448,1.18718,-0.332102,-0.00275863,-0.337769,-0.13095,0.580378,0.00114971,-0.12962,3.83594,-37.8667,3.63893,27.3517,0.948178,2.80785,-0.250748,-0.784908,0.135383,-1.83965,0.725764,0.0456903,0.0259138,0.0799443,0.601513,-0.00231852,-0.642543,0.508949,0.100672,-0.191206,
-0.439727,0.0424672,0.0316654,-1.73196,-0.0840056,0.0283283,0.389459,-0.174225,-0.0651016,-0.189914,-0.167189,0.720894,0.142679,-0.24373,0,0,0,0,0,0,0,-0.428324,0.0449952,0.0437987,-1.72368,-0.121184,1.59448,1.18718,-0.332102,-0.00275863,-0.337769,-0.13095,0.580378,0.00114971,-0.12962,3.83594,-37.8667,3.63893,27.3517,0.948178,2.80785,-0.250748,-0.784908,0.135383,-1.83965,0.725764,0.0456903,0.0259138,0.0799443,0.601513,-0.00231852,-0.642543,0.508949,0.100672,-0.191206,
-0.440389,0.0422066,0.0309404,-1.73262,-0.0812664,0.0289447,0.388493,-0.165427,-0.0651348,-0.181269,-0.164425,0.684801,0.154097,-0.241442,0,0,0,0,0,0,0,-0.428324,0.0449952,0.0437987,-1.72368,-0.121184,1.59448,1.18718,-0.332102,-0.00275863,-0.337769,-0.13095,0.580378,0.00114971,-0.12962,3.83594,-37.8667,3.63893,27.3517,0.948178,2.80785,-0.250748,-1.49023,-1.34561,-2.07464,1.57768,-0.263632,-0.889249,-0.840709,0.687085,-0.894883,-0.716649,0.369574,0.101361,-0.195845,
-0.441019,0.0419452,0.0302462,-1.73326,-0.0786757,0.0295853,0.387536,-0.157546,-0.0653575,-0.173535,-0.161541,0.647671,0.160174,-0.239351,0,0,0,0,0,0,0,-0.428324,0.0449952,0.0437987,-1.72368,-0.121184,1.59448,1.18718,-0.332102,-0.00275863,-0.337769,-0.13095,0.580378,0.00114971,-0.12962,3.83594,-37.8667,3.63893,27.3517,0.948178,2.80785,-0.250748,-1.49023,-1.34561,-2.07464,1.57768,-0.263632,-0.889249,-0.840709,0.687085,-0.894883,-0.716649,0.369574,0.101361,-0.195845,
-0.441621,0.041682,0.0295795,-1.7339,-0.0762336,0.0302351,0.386587,-0.150548,-0.0658081,-0.16668,-0.158872,0.610528,0.162441,-0.237271,0,0,0,0,0,0,0,-0.428324,0.0449952,0.0437987,-1.72368,-0.121184,1.59448,1.18718,-0.332102,-0.00275863,-0.337769,-0.13095,0.580378,0.00114971,-0.12962,3.83594,-37.8667,3.63893,27.3517,0.948178,2.80785,-0.250748,-1.44716,-1.37116,-2.23669,1.59887,-0.145791,-0.888081,-0.833887,0.788996,-0.901369,-0.788263,0.332814,0.093721,-0.199323,
-0.442199,0.0414162,0.0289367,-1.73453,-0.0739351,0.0308834,0.385646,-0.144413,-0.0664353,-0.160687,-0.156535,0.574623,0.162064,-0.235184,0,0,0,0,0,0,0,-0.437519,0.0448885,0.033543,-1.72744,-0.102682,1.59452,1.18301,-0.286822,-0.0122145,-0.300608,-0.112376,0.574602,0.00115234,-0.131182,2.99884,-36.8907,2.88911,26.2567,0.788876,2.48284,-0.224197,-1.44716,-1.37116,-2.23669,1.59887,-0.145791,-0.888081,-0.833887,0.788996,-0.901369,-0.788263,0.332814,0.093721,-0.199323,
-0.442755,0.0411476,0.0283145,-1.73514,-0.0717688,0.0315237,0.384714,-0.139144,-0.0671674,-0.155565,-0.154576,0.541582,0.160071,-0.233082,0,0,0,0,0,0,0,-0.437519,0.0448885,0.033543,-1.72744,-0.102682,1.59452,1.18301,-0.286822,-0.0122145,-0.300608,-0.112376,0.574602,0.00115234,-0.131182,2.99884,-36.8907,2.88911,26.2567,0.788876,2.48284,-0.224197,-0.627675,0.0196587,-2.79597,0.959896,0.608862,0.0167697,0.0829748,1.15216,-0.0260161,-1.04742,0.452572,0.0704958,-0.207513,
-0.439592,0.0418497,0.0317465,-1.73256,-0.0805823,0.033001,0.38823,-0.176281,-0.0809646,-0.193176,-0.175013,0.963626,0.256439,-0.267745,0,0,0,0,0,0,0,-0.437519,0.0448885,0.033543,-1.72744,-0.102682,1.59452,1.18301,-0.286822,-0.0122145,-0.300608,-0.112376,0.574602,0.00115234,-0.131182,2.99884,-36.8907,2.88911,26.2567,0.788876,2.48284,-0.224197,-0.627675,0.0196587,-2.79597,0.959896,0.608862,0.0167697,0.0829748,1.15216,-0.0260161,-1.04742,0.452572,0.0704958,-0.207513,
-0.44695,0.0416848,0.0233422,-1.73558,-0.0706248,0.0326731,0.385514,-0.14935,-0.0767249,-0.166981,-0.156213,0.735942,0.197077,-0.23991,0,0,0,0,0,0,0,-0.437519,0.0448885,0.033543,-1.72744,-0.102682,1.59452,1.18301,-0.286822,-0.0122145,-0.300608,-0.112376,0.574602,0.00115234,-0.131182,2.99884,-36.8907,2.88911,26.2567,0.788876,2.48284,-0.224197,-1.04225,0.516471,-2.3961,0.595682,0.135904,0.174469,0.240879,0.765856,0.129097,-0.88345,0.484047,0.077227,-0.211733,
-0.447532,0.0413772,0.0226909,-1.73619,-0.0675683,0.0334266,0.384563,-0.145541,-0.0769091,-0.162822,-0.15297,0.764122,0.188376,-0.237657,0,0,0,0,0,0,0,-0.437519,0.0448885,0.033543,-1.72744,-0.102682,1.59452,1.18301,-0.286822,-0.0122145,-0.300608,-0.112376,0.574602,0.00115234,-0.131182,2.99884,-36.8907,2.88911,26.2567,0.788876,2.48284,-0.224197,-1.98133,-0.91651,-2.44559,1.39619,-0.361381,-0.77964,-0.723668,0.74048,-0.796563,-0.929315,0.343876,0.0354674,-0.212804,
-0.448096,0.0410674,0.0220587,-1.73679,-0.0644569,0.0341369,0.383621,-0.140995,-0.0774477,-0.158042,-0.150401,0.777847,0.177579,-0.23549,0,0,0,0,0,0,0,-0.445981,0.0445714,0.0247026,-1.73088,-0.0873632,1.59464,1.17863,-0.23748,-0.0101767,-0.259248,-0.111297,0.452462,0.023005,-0.142868,2.84412,-37.2914,2.76216,26.4789,1.56433,2.47643,-0.224197,-1.98133,-0.91651,-2.44559,1.39619,-0.361381,-0.77964,-0.723668,0.74048,-0.796563,-0.929315,0.343876,0.0354674,-0.212804,
-0.44864,0.0407547,0.0214468,-1.73739,-0.0613337,0.034799,0.382687,-0.136083,-0.0781866,-0.152991,-0.148346,0.780799,0.165537,-0.233421,0,0,0,0,0,0,0,-0.445981,0.0445714,0.0247026,-1.73088,-0.0873632,1.59464,1.17863,-0.23748,-0.0101767,-0.259248,-0.111297,0.452462,0.023005,-0.142868,2.84412,-37.2914,2.76216,26.4789,1.56433,2.47643,-0.224197,-2.08191,-0.917871,-2.72442,1.47984,-0.262054,-0.805594,-0.747478,0.898519,-0.824029,-1.08834,0.345707,-0.0139558,-0.219992,
-0.449164,0.0404385,0.0208552,-1.73797,-0.0582312,0.035412,0.381762,-0.131057,-0.0790328,-0.147888,-0.146759,0.775617,0.153246,-0.231443,0,0,0,0,0,0,0,-0.445981,0.0445714,0.0247026,-1.73088,-0.0873632,1.59464,1.17863,-0.23748,-0.0101767,-0.259248,-0.111297,0.452462,0.023005,-0.142868,2.84412,-37.2914,2.76216,26.4789,1.56433,2.47643,-0.224197,-2.08191,-0.917871,-2.72442,1.47984,-0.262054,-0.805594,-0.747478,0.898519,-0.824029,-1.08834,0.345707,-0.0139558,-0.219992,
-0.446732,0.0411553,0.0235355,-1.73607,-0.0627993,0.0365536,0.384338,-0.13654,-0.0903881,-0.153979,-0.161255,0.95979,0.284552,-0.262248,0,0,0,0,0,0,0,-0.445981,0.0445714,0.0247026,-1.73088,-0.0873632,1.59464,1.17863,-0.23748,-0.0101767,-0.259248,-0.111297,0.452462,0.023005,-0.142868,2.84412,-37.2914,2.76216,26.4789,1.56433,2.47643,-0.224197,-1.89986,-0.523535,-2.72186,1.30265,-0.205833,-0.570783,-0.510147,0.876691,-0.59417,-1.06757,0.428568,0.0093434,-0.2246,
-0.453826,0.0411404,0.0160798,-1.73882,-0.0532753,0.030983,0.381299,-0.10462,-0.0859328,-0.120935,-0.158045,0.640727,0.184416,-0.236658,0,0,0,0,0,0,0,-0.445981,0.0445714,0.0247026,-1.73088,-0.0873632,1.59464,1.17863,-0.23748,-0.0101767,-0.259248,-0.111297,0.452462,0.023005,-0.142868,2.84412,-37.2914,2.76216,26.4789,1.56433,2.47643,-0.224197,-1.89986,-0.523535,-2.72186,1.30265,-0.205833,-0.570783,-0.510147,0.876691,-0.59417,-1.06757,0.428568,0.0093434,-0.2246,
-0.454211,0.0407958,0.0156294,-1.73944,-0.0509061,0.0317558,0.380361,-0.0960557,-0.0861679,-0.112583,-0.155217,0.592293,0.193205,-0.23459,0,0,0,0,0,0,0,-0.445981,0.0445714,0.0247026,-1.73088,-0.0873632,1.59464,1.17863,-0.23748,-0.0101767,-0.259248,-0.111297,0.452462,0.023005,-0.142868,2.84412,-37.2914,2.76216,26.4789,1.56433,2.47643,-0.224197,-1.91459,-0.404972,-2.92624,1.29008,-0.137613,-0.512394,-0.450231,0.9563,-0.537741,-1.14793,0.444379,0.0102243,-0.232552,
-0.454565,0.0404496,0.0152082,-1.74005,-0.04873,0.0325433,0.37943,-0.0885896,-0.0865329,-0.105307,-0.152342,0.544031,0.19689,-0.232686,0,0,0,0,0,0,0,-0.453625,0.0439528,0.0165574,-1.73453,-0.070987,1.59554,1.17359,-0.220596,-0.0208255,-0.231715,-0.100904,0.514043,0.028345,-0.138865,2.64179,-37.216,2.51222,26.2051,1.54602,2.54235,-0.250748,-2.6777,-0.207267,-2.7407,1.14609,-0.673688,-0.600264,-0.539633,0.670711,-0.62202,-1.12171,0.443945,-0.0382577,-0.238967,
-0.454894,0.0401013,0.0148121,-1.74065,-0.0467442,0.033332,0.378507,-0.0821288,-0.0870714,-0.0990137,-0.149768,0.496444,0.197163,-0.230764,0,0,0,0,0,0,0,-0.453625,0.0439528,0.0165574,-1.73453,-0.070987,1.59554,1.17359,-0.220596,-0.0208255,-0.231715,-0.100904,0.514043,0.028345,-0.138865,2.64179,-37.216,2.51222,26.2051,1.54602,2.54235,-0.250748,-2.6777,-0.207267,-2.7407,1.14609,-0.673688,-0.600264,-0.539633,0.670711,-0.62202,-1.12171,0.443945,-0.0382577,-0.238967,
-0.4552,0.0397504,0.0144375,-1.74124,-0.0449424,0.0341134,0.377592,-0.0766158,-0.0877338,-0.0936562,-0.147617,0.450468,0.195362,-0.228803,0,0,0,0,0,0,0,-0.453625,0.0439528,0.0165574,-1.73453,-0.070987,1.59554,1.17359,-0.220596,-0.0208255,-0.231715,-0.100904,0.514043,0.028345,-0.138865,2.64179,-37.216,2.51222,26.2051,1.54602,2.54235,-0.250748,-2.92887,-0.457804,-2.70184,1.30695,-0.852688,-0.799583,-0.743054,0.62118,-0.81252,-1.11196,0.451331,-0.0455592,-0.240107,
-0.455488,0.0393966,0.0140806,-1.74182,-0.0433118,0.0348841,0.376685,-0.0720418,-0.0884455,-0.0892356,-0.145945,0.407637,0.19267,-0.226789,0,0,0,0,0,0,0,-0.453625,0.0439528,0.0165574,-1.73453,-0.070987,1.59554,1.17359,-0.220596,-0.0208255,-0.231715,-0.100904,0.514043,0.028345,-0.138865,2.64179,-37.216,2.51222,26.2051,1.54602,2.54235,-0.250748,-2.92887,-0.457804,-2.70184,1.30695,-0.852688,-0.799583,-0.743054,0.62118,-0.81252,-1.11196,0.451331,-0.0455592,-0.240107,
-0.453711,0.040532,0.0161495,-1.73944,-0.0488968,0.0360767,0.380142,-0.10546,-0.101236,-0.122587,-0.165611,0.896209,0.304391,-0.259099,0,0,0,0,0,0,0,-0.453625,0.0439528,0.0165574,-1.73453,-0.070987,1.59554,1.17359,-0.220596,-0.0208255,-0.231715,-0.100904,0.514043,0.028345,-0.138865,2.64179,-37.216,2.51222,26.2051,1.54602,2.54235,-0.250748,-2.86741,-0.164127,-2.82216,1.16651,-0.775845,-0.63479,-0.580881,0.654413,-0.648151,-1.15727,0.468476,-0.0415342,-0.246089,
-0.459856,0.0399454,0.00952661,-1.74241,-0.0460547,0.0353113,0.376457,-0.0897808,-0.0948332,-0.108338,-0.152819,0.567596,0.241177,-0.233176,0,0,0,0,0,0,0,-0.459566,0.0432317,0.00973154,-1.73791,-0.0566704,1.59711,1.17003,-0.166912,-0.0235053,-0.201558,-0.104084,0.375787,0.0483086,-0.099261,2.74494,-37.1922,2.6114,26.6772,1.1734,2.5158,-0.190323,-2.45308,0.369751,-2.73654,0.816284,-0.568093,-0.260101,-0.207108,0.641682,-0.281543,-1.11169,0.472186,-0.0262347,-0.247549,
-0.460208,0.0395667,0.00910232,-1.74301,-0.0436483,0.0362542,0.375533,-0.0879852,-0.0946769,-0.106071,-0.149826,0.601599,0.235727,-0.231048,0,0,0,0,0,0,0,-0.459566,0.0432317,0.00973154,-1.73791,-0.0566704,1.59711,1.17003,-0.166912,-0.0235053,-0.201558,-0.104084,0.375787,0.0483086,-0.099261,2.74494,-37.1922,2.6114,26.6772,1.1734,2.5158,-0.190323,-2.45308,0.369751,-2.73654,0.816284,-0.568093,-0.260101,-0.207108,0.641682,-0.281543,-1.11169,0.472186,-0.0262347,-0.247549,
-0.460548,0.0391875,0.00869126,-1.7436,-0.0411791,0.0371625,0.374617,-0.0850096,-0.094811,-0.102767,-0.147157,0.617304,0.227081,-0.228923,0,0,0,0,0,0,0,-0.459566,0.0432317,0.00973154,-1.73791,-0.0566704,1.59711,1.17003,-0.166912,-0.0235053,-0.201558,-0.104084,0.375787,0.0483086,-0.099261,2.74494,-37.1922,2.6114,26.6772,1.1734,2.5158,-0.190323,-2.62024,-0.0384897,-2.52802,0.949802,-0.73042,-0.499509,-0.446779,0.546446,-0.51849,-1.0275,0.381698,-0.025887,-0.250616,
-0.460873,0.0388068,0.00829562,-1.74418,-0.0387018,0.0380276,0.373709,-0.0813622,-0.0951596,-0.098909,-0.144878,0.619344,0.216275,-0.226879,0,0,0,0,0,0,0,-0.459566,0.0432317,0.00973154,-1.73791,-0.0566704,1.59711,1.17003,-0.166912,-0.0235053,-0.201558,-0.104084,0.375787,0.0483086,-0.099261,2.74494,-37.1922,2.6114,26.6772,1.1734,2.5158,-0.190323,-2.62024,-0.0384897,-2.52802,0.949802,-0.73042,-0.499509,-0.446779,0.546446,-0.51849,-1.0275,0.381698,-0.025887,-0.250616,
-0.461183,0.0384243,0.0079163,-1.74475,-0.0362566,0.0388444,0.37281,-0.0774098,-0.095638,-0.0948305,-0.143003,0.611276,0.204215,-0.224901,0,0,0,0,0,0,0,-0.459566,0.0432317,0.00973154,-1.73791,-0.0566704,1.59711,1.17003,-0.166912,-0.0235053,-0.201558,-0.104084,0.375787,0.0483086,-0.099261,2.74494,-37.1922,2.6114,26.6772,1.1734,2.5158,-0.190323,-2.01738,0.519399,-2.97933,0.743984,-0.182658,-0.0645546,-0.00193968,0.848982,-0.101627,-1.19691,0.429784,-0.0146505,-0.257509,
-0.461477,0.0380396,0.00755324,-1.74532,-0.033873,0.0396117,0.371918,-0.0734112,-0.0961709,-0.0907649,-0.141545,0.595901,0.191816,-0.222971,0,0,0,0,0,0,0,-0.459566,0.0432317,0.00973154,-1.73791,-0.0566704,1.59711,1.17003,-0.166912,-0.0235053,-0.201558,-0.104084,0.375787,0.0483086,-0.099261,2.74494,-37.1922,2.6114,26.6772,1.1734,2.5158,-0.190323,-2.01738,0.519399,-2.97933,0.743984,-0.182658,-0.0645546,-0.00193968,0.848982,-0.101627,-1.19691,0.429784,-0.0146505,-0.257509,
-0.459654,0.0394309,0.00971083,-1.74293,-0.035933,0.0397347,0.375358,-0.0753704,-0.108485,-0.0940725,-0.158057,0.826193,0.341863,-0.254357,0,0,0,0,0,0,0,-0.464914,0.042293,0.00408472,-1.74109,-0.0459046,1.59865,1.16722,-0.161334,-0.0378934,-0.171099,-0.101269,0.346355,0.0510397,-0.0789056,2.08637,-37.0931,1.88936,26.8518,1.39953,2.70165,-0.258072,-1.71309,0.707172,-2.56829,0.557583,-0.278635,0.0986403,0.164577,0.617964,0.0565792,-0.9477,0.491746,0.0738738,-0.260627,
