PerkyPenguin/Analysis-on-Approximated-Derivatives/Code_and_Data/PaperData/Real_Robot/Scene_2/set_interval/14/trajectory.csv
Commanded Joint 0 Position,Commanded Joint 1 Position,Commanded Joint 2 Position,Commanded Joint 3 Position,Commanded Joint 4 Position,Commanded Joint 5 Position,Commanded Joint 6 Position,Commanded Joint 0 Velocity,Commanded Joint 1 Velocity,Commanded Joint 2 Velocity,Commanded Joint 3 Velocity,Commanded Joint 4 Velocity,Commanded Joint 5 Velocity,Commanded Joint 6 Velocity,Commanded Joint 0 Torque,Commanded Joint 1 Torque,Commanded Joint 2 Torque,Commanded Joint 3 Torque,Commanded Joint 4 Torque,Commanded Joint 5 Torque,Commanded Joint 6 Torque,Actual Joint 0 Position,Actual Joint 1 Position,Actual Joint 2 Position,Actual Joint 3 Position,Actual Joint 4 Position,Actual Joint 5 Position,Actual Joint 6 Position,Actual Joint 0 Velocity,Actual Joint 1 Velocity,Actual Joint 2 Velocity,Actual Joint 3 Velocity,Actual Joint 4 Velocity,Actual Joint 5 Velocity,Actual Joint 6 Velocity,Actual Joint 0 Torque,Actual Joint 1 Torque,Actual Joint 2 Torque,Actual Joint 3 Torque,Actual Joint 4 Torque,Actual Joint 5 Torque,Actual Joint 6 Torque,EE ext force 0,EE ext force 1,EE ext force 2,EE ext force 3,EE ext force 4,EE ext force 5,joint ext torque 0,joint ext torque 1,joint ext torque 2,joint ext torque 3,joint ext torque 4,joint ext torque 5,joint ext torque 6,
-0.179119,-0.172341,0.594055,-1.80559,0.116982,0.131466,0.404516,0.00923036,0.0192603,0.0266863,-0.156908,-0.0723692,0.230818,-0.00114217,0,0,0,0,0,0,0,-0.179187,-0.172404,0.593838,-1.80404,0.117478,1.69998,1.18993,0.00317062,-0.00671265,0.000542171,-0.0011742,-0.00991864,-0.000279266,0.000445257,0.0828892,-22.1681,-3.48631,27.3755,1.26495,3.34435,0.00376909,0.546536,0.563304,-0.389717,-0.334764,0.651913,0.125382,0.151536,0.439143,0.139864,-0.227108,0.168057,-0.0566926,0.0152986,
-0.179071,-0.172193,0.594184,-1.80626,0.116613,0.132424,0.404511,0.012035,0.0370585,0.0324734,-0.16918,-0.0924664,0.239338,-0.00124608,0,0,0,0,0,0,0,-0.179187,-0.172404,0.593838,-1.80404,0.117478,1.69998,1.18993,0.00317062,-0.00671265,0.000542171,-0.0011742,-0.00991864,-0.000279266,0.000445257,0.0828892,-22.1681,-3.48631,27.3755,1.26495,3.34435,0.00376909,0.32658,0.551604,-0.31125,-0.309371,0.467334,0.172048,0.195987,0.333154,0.180766,-0.182564,0.16902,-0.0561497,0.0150028,
-0.179165,-0.172465,0.593859,-1.80403,0.117393,0.129167,0.404534,0.00106091,-0.00280167,0.0010837,0.000940427,-0.00311471,-0.000525944,-2.8736e-05,0,0,0,0,0,0,0,-0.179191,-0.172397,0.593842,-1.80404,0.117495,1.69998,1.18993,0.0010557,-0.00834006,0.00143673,-0.000526521,-0.0188191,0.00046051,-0.000692519,0.134464,-22.2673,-3.51012,27.3279,1.15509,3.33153,0.0440523,0.410672,0.55391,-0.209024,-0.276667,0.478807,0.152611,0.176339,0.322826,0.155627,-0.134379,0.178381,-0.0423977,0.0158985,
-0.179161,-0.172474,0.593863,-1.80403,0.117384,0.129166,0.404534,0.000917869,-0.00238751,0.000942042,0.000877375,-0.00217851,-0.000236718,-2.361e-05,0,0,0,0,0,0,0,-0.179191,-0.172397,0.593842,-1.80404,0.117495,1.69998,1.18993,0.0010557,-0.00834006,0.00143673,-0.000526521,-0.0188191,0.00046051,-0.000692519,0.134464,-22.2673,-3.51012,27.3279,1.15509,3.33153,0.0440523,0.410672,0.55391,-0.209024,-0.276667,0.478807,0.152611,0.176339,0.322826,0.155627,-0.134379,0.178381,-0.0423977,0.0158985,
-0.179158,-0.172482,0.593867,-1.80402,0.117379,0.129166,0.404534,0.000798347,-0.00204909,0.000826649,0.000803929,-0.00147832,-1.45798e-05,-1.89092e-05,0,0,0,0,0,0,0,-0.179191,-0.172397,0.593842,-1.80404,0.117495,1.69998,1.18993,0.0010557,-0.00834006,0.00143673,-0.000526521,-0.0188191,0.00046051,-0.000692519,0.134464,-22.2673,-3.51012,27.3279,1.15509,3.33153,0.0440523,0.271479,0.288386,-0.464815,-0.159847,0.454443,0.0634003,0.0910924,0.35004,0.0601652,-0.217532,0.153428,-0.0279173,0.0150261,
-0.179155,-0.172489,0.593869,-1.80402,0.117375,0.129167,0.404534,0.000698129,-0.00176935,0.000732014,0.000730493,-0.000959942,0.000146271,-1.50702e-05,0,0,0,0,0,0,0,-0.179191,-0.172397,0.593842,-1.80404,0.117495,1.69998,1.18993,0.0010557,-0.00834006,0.00143673,-0.000526521,-0.0188191,0.00046051,-0.000692519,0.134464,-22.2673,-3.51012,27.3279,1.15509,3.33153,0.0440523,0.271479,0.288386,-0.464815,-0.159847,0.454443,0.0634003,0.0910924,0.35004,0.0601652,-0.217532,0.153428,-0.0279173,0.0150261,
-0.179153,-0.172496,0.593872,-1.80402,0.117372,0.129168,0.404534,0.000613463,-0.00153674,0.000653569,0.000660906,-0.000579789,0.000255984,-1.20466e-05,0,0,0,0,0,0,0,-0.179191,-0.172397,0.593842,-1.80404,0.117495,1.69998,1.18993,0.0010557,-0.00834006,0.00143673,-0.000526521,-0.0188191,0.00046051,-0.000692519,0.134464,-22.2673,-3.51012,27.3279,1.15509,3.33153,0.0440523,-0.487555,0.284803,-0.856961,-0.225509,0.0754843,0.236832,0.243652,0.211632,0.256792,-0.325286,0.168348,-0.0310369,0.0157182,
-0.179151,-0.172501,0.593874,-1.80401,0.117371,0.129169,0.404534,0.000541322,-0.0013426,0.000587781,0.00059653,-0.000304082,0.000324819,-9.68364e-06,0,0,0,0,0,0,0,-0.179191,-0.172397,0.593842,-1.80404,0.117495,1.69998,1.18993,0.0010557,-0.00834006,0.00143673,-0.000526521,-0.0188191,0.00046051,-0.000692519,0.134464,-22.2673,-3.51012,27.3279,1.15509,3.33153,0.0440523,-0.487555,0.284803,-0.856961,-0.225509,0.0754843,0.236832,0.243652,0.211632,0.256792,-0.325286,0.168348,-0.0310369,0.0157182,
-0.179149,-0.172506,0.593877,-1.80401,0.117371,0.129171,0.404534,0.000479346,-0.00118009,0.000531985,0.000537729,-0.000107025,0.000361858,-7.82972e-06,0,0,0,0,0,0,0,-0.17919,-0.172395,0.593836,-1.80431,0.117526,1.70026,1.18993,0.000680101,0.000902696,7.79058e-05,0.000773895,-0.00371192,0.00124757,-0.00160563,0.158268,-22.791,-3.41094,27.9745,0.788876,3.55675,0.0376436,0.483942,0.60223,-1.24653,-0.534325,0.910522,0.152368,0.159557,0.678836,0.223091,-0.536157,0.164487,-0.0378733,0.0158333,
-0.179147,-0.17251,0.593879,-1.80401,0.117371,0.129172,0.404534,0.000425705,-0.00104369,0.000484177,0.000484431,3.09797e-05,0.000374717,-6.36167e-06,0,0,0,0,0,0,0,-0.17919,-0.172395,0.593836,-1.80431,0.117526,1.70026,1.18993,0.000680101,0.000902696,7.79058e-05,0.000773895,-0.00371192,0.00124757,-0.00160563,0.158268,-22.791,-3.41094,27.9745,0.788876,3.55675,0.0376436,0.483942,0.60223,-1.24653,-0.534325,0.910522,0.152368,0.159557,0.678836,0.223091,-0.536157,0.164487,-0.0378733,0.0158333,
-0.179146,-0.172514,0.59388,-1.80401,0.117371,0.129173,0.404534,0.000378975,-0.000928888,0.000442846,0.000436367,0.000124798,0.000369615,-5.18579e-06,0,0,0,0,0,0,0,-0.17919,-0.172395,0.593836,-1.80431,0.117526,1.70026,1.18993,0.000680101,0.000902696,7.79058e-05,0.000773895,-0.00371192,0.00124757,-0.00160563,0.158268,-22.791,-3.41094,27.9745,0.788876,3.55675,0.0376436,0.40749,0.524064,-0.898378,-0.40856,0.705058,0.135463,0.144612,0.519651,0.182422,-0.379271,0.156968,-0.0188102,0.0151751,
-0.179144,-0.172517,0.593882,-1.80401,0.117372,0.129175,0.404534,0.000338036,-0.000832,0.000406838,0.000393177,0.000185705,0.000351539,-4.2324e-06,0,0,0,0,0,0,0,-0.17919,-0.172395,0.593836,-1.80431,0.117526,1.70026,1.18993,0.000680101,0.000902696,7.79058e-05,0.000773895,-0.00371192,0.00124757,-0.00160563,0.158268,-22.791,-3.41094,27.9745,0.788876,3.55675,0.0376436,0.308414,0.569431,-0.586986,-0.346229,0.498024,0.179543,0.175605,0.360651,0.21896,-0.220672,0.180023,0.0112108,0.01408,
-0.179143,-0.17252,0.593883,-1.80401,0.117373,0.129176,0.404534,0.000302002,-0.000749995,0.000375265,0.000354465,0.000222249,0.000324428,-3.45e-06,0,0,0,0,0,0,0,-0.17919,-0.172395,0.593836,-1.80431,0.117526,1.70026,1.18993,0.000680101,0.000902696,7.79058e-05,0.000773895,-0.00371192,0.00124757,-0.00160563,0.158268,-22.791,-3.41094,27.9745,0.788876,3.55675,0.0376436,0.308414,0.569431,-0.586986,-0.346229,0.498024,0.179543,0.175605,0.360651,0.21896,-0.220672,0.180023,0.0112108,0.01408,
-0.179142,-0.172523,0.593885,-1.804,0.117374,0.129177,0.404534,0.000270159,-0.000680388,0.000347433,0.000319833,0.000240914,0.000291356,-2.80048e-06,0,0,0,0,0,0,0,-0.179189,-0.17241,0.593836,-1.8042,0.117491,1.70027,1.18993,-0.00143307,0.00236168,-6.59431e-05,0.00287297,0.0102311,-0.000176031,-0.00136873,0.134464,-22.5926,-3.46251,27.3279,1.03973,3.32512,0.0376436,0.326225,0.51441,-0.737559,-0.368675,0.573398,0.149062,0.14229,0.421413,0.200411,-0.299223,0.155254,-0.00617245,0.0137706,
-0.179141,-0.172525,0.593886,-1.804,0.117375,0.129178,0.404534,0.000241925,-0.000621133,0.000322791,0.000288891,0.000246609,0.000254691,-2.25548e-06,0,0,0,0,0,0,0,-0.179189,-0.17241,0.593836,-1.8042,0.117491,1.70027,1.18993,-0.00143307,0.00236168,-6.59431e-05,0.00287297,0.0102311,-0.000176031,-0.00136873,0.134464,-22.5926,-3.46251,27.3279,1.03973,3.32512,0.0376436,0.326225,0.51441,-0.737559,-0.368675,0.573398,0.149062,0.14229,0.421413,0.200411,-0.299223,0.155254,-0.00617245,0.0137706,
-0.17914,-0.172527,0.593887,-1.804,0.117376,0.129179,0.404534,0.000216824,-0.000570545,0.000300897,0.000261274,0.000243051,0.000216226,-1.79374e-06,0,0,0,0,0,0,0,-0.179189,-0.17241,0.593836,-1.8042,0.117491,1.70027,1.18993,-0.00143307,0.00236168,-6.59431e-05,0.00287297,0.0102311,-0.000176031,-0.00136873,0.134464,-22.5926,-3.46251,27.3279,1.03973,3.32512,0.0376436,-0.00568122,0.37682,-0.504901,-0.227888,0.249502,0.166243,0.1575,0.228135,0.196563,-0.190192,0.151719,-0.00497251,0.0117643,
-0.179139,-0.172529,0.593888,-1.804,0.117377,0.12918,0.404534,0.000194457,-0.000527233,0.000281389,0.000236642,0.000233041,0.000177299,-1.39916e-06,0,0,0,0,0,0,0,-0.179189,-0.17241,0.593836,-1.8042,0.117491,1.70027,1.18993,-0.00143307,0.00236168,-6.59431e-05,0.00287297,0.0102311,-0.000176031,-0.00136873,0.134464,-22.5926,-3.46251,27.3279,1.03973,3.32512,0.0376436,-0.00568122,0.37682,-0.504901,-0.227888,0.249502,0.166243,0.1575,0.228135,0.196563,-0.190192,0.151719,-0.00497251,0.0117643,
-0.179139,-0.172531,0.593889,-1.804,0.117378,0.129181,0.404534,0.000174489,-0.000490048,0.000263968,0.000214682,0.000218687,0.000138885,-1.05941e-06,0,0,0,0,0,0,0,-0.179189,-0.17241,0.593836,-1.8042,0.117491,1.70027,1.18993,-0.00143307,0.00236168,-6.59431e-05,0.00287297,0.0102311,-0.000176031,-0.00136873,0.134464,-22.5926,-3.46251,27.3279,1.03973,3.32512,0.0376436,0.367512,0.457988,-0.416417,-0.245265,0.479066,0.116524,0.111804,0.333903,0.145634,-0.168699,0.171599,0.0032846,0.0120602,
-0.179138,-0.172533,0.59389,-1.804,0.117379,0.129181,0.404534,0.000156635,-0.000458039,0.000248382,0.000195111,0.000201565,0.000101676,-7.64965e-07,0,0,0,0,0,0,0,-0.179189,-0.17241,0.593836,-1.8042,0.117491,1.70027,1.18993,-0.00143307,0.00236168,-6.59431e-05,0.00287297,0.0102311,-0.000176031,-0.00136873,0.134464,-22.5926,-3.46251,27.3279,1.03973,3.32512,0.0376436,0.332965,0.45488,-0.558045,-0.286673,0.516937,0.123247,0.121803,0.375313,0.15806,-0.235519,0.160507,-0.0105156,0.012173,
-0.179137,-0.172535,0.593891,-1.804,0.117379,0.129181,0.404534,0.00014065,-0.000430414,0.000234421,0.000177674,0.000182844,6.61436e-05,-5.08353e-07,0,0,0,0,0,0,0,-0.179191,-0.172462,0.593838,-1.80415,0.117467,1.70027,1.18993,-0.000912473,-0.00516636,0.000559119,0.00454888,-0.00338064,4.78458e-05,0.00101817,0.134464,-22.0412,-3.48631,27.2763,1.19171,3.37823,0.00376909,0.332965,0.45488,-0.558045,-0.286673,0.516937,0.123247,0.121803,0.375313,0.15806,-0.235519,0.160507,-0.0105156,0.012173,
-0.179137,-0.172537,0.593892,-1.804,0.11738,0.129181,0.404534,0.000126325,-0.000406515,0.0002219,0.00016214,0.000163385,3.25893e-05,-2.8365e-07,0,0,0,0,0,0,0,-0.179191,-0.172462,0.593838,-1.80415,0.117467,1.70027,1.18993,-0.000912473,-0.00516636,0.000559119,0.00454888,-0.00338064,4.78458e-05,0.00101817,0.134464,-22.0412,-3.48631,27.2763,1.19171,3.37823,0.00376909,-0.0325408,0.490308,-0.347953,-0.2547,0.180299,0.225569,0.221818,0.171337,0.24693,-0.124638,0.172783,-0.00504829,0.0127786,
-0.179136,-0.172538,0.593893,-1.804,0.117381,0.129181,0.404534,0.000113475,-0.000385792,0.000210663,0.000148301,0.000143813,1.18632e-06,-8.61007e-08,0,0,0,0,0,0,0,-0.179191,-0.172462,0.593838,-1.80415,0.117467,1.70027,1.18993,-0.000912473,-0.00516636,0.000559119,0.00454888,-0.00338064,4.78458e-05,0.00101817,0.134464,-22.0412,-3.48631,27.2763,1.19171,3.37823,0.00376909,-0.0325408,0.490308,-0.347953,-0.2547,0.180299,0.225569,0.221818,0.171337,0.24693,-0.124638,0.172783,-0.00504829,0.0127786,
-0.179136,-0.17254,0.593894,-1.804,0.117381,0.129181,0.404534,0.000101941,-0.000367787,0.000200572,0.000135975,0.000124571,-2.79887e-05,8.81616e-08,0,0,0,0,0,0,0,-0.179191,-0.172462,0.593838,-1.80415,0.117467,1.70027,1.18993,-0.000912473,-0.00516636,0.000559119,0.00454888,-0.00338064,4.78458e-05,0.00101817,0.134464,-22.0412,-3.48631,27.2763,1.19171,3.37823,0.00376909,0.603822,0.558377,-0.511396,-0.3616,0.690062,0.107348,0.118608,0.451141,0.140562,-0.236481,0.147513,-0.0148567,0.0133053,
-0.179136,-0.172541,0.593895,-1.804,0.117381,0.129181,0.404534,9.15808e-05,-0.000352113,0.000191508,0.000124994,0.00010597,-5.49297e-05,2.42314e-07,0,0,0,0,0,0,0,-0.179191,-0.172462,0.593838,-1.80415,0.117467,1.70027,1.18993,-0.000912473,-0.00516636,0.000559119,0.00454888,-0.00338064,4.78458e-05,0.00101817,0.134464,-22.0412,-3.48631,27.2763,1.19171,3.37823,0.00376909,0.348727,0.659812,-0.487568,-0.415477,0.5152,0.216889,0.237156,0.360089,0.241226,-0.216282,0.160868,-0.0226904,0.0126994,
-0.179135,-0.172542,0.593895,-1.804,0.117382,0.129181,0.404534,8.22716e-05,-0.000338444,0.000183363,0.000115213,8.82163e-05,-7.96816e-05,3.79e-07,0,0,0,0,0,0,0,-0.179214,-0.172458,0.593822,-1.8041,0.117465,1.70027,1.18993,0.00038242,-0.00830924,0.00096182,0.00384763,-0.0106992,1.91946e-05,0.000383414,0.360599,-22.1166,-3.31175,27.3279,1.22284,3.38463,0.017502,0.348727,0.659812,-0.487568,-0.415477,0.5152,0.216889,0.237156,0.360089,0.241226,-0.216282,0.160868,-0.0226904,0.0126994,
-0.179135,-0.172544,0.593896,-1.804,0.117382,0.12918,0.404534,7.39031e-05,-0.000326505,0.000176043,0.0001065,7.14385e-05,-0.000102325,5.00434e-07,0,0,0,0,0,0,0,-0.179214,-0.172458,0.593822,-1.8041,0.117465,1.70027,1.18993,0.00038242,-0.00830924,0.00096182,0.00384763,-0.0106992,1.91946e-05,0.000383414,0.360599,-22.1166,-3.31175,27.3279,1.22284,3.38463,0.017502,0.508139,0.626868,-0.407936,-0.356445,0.596113,0.164721,0.192686,0.396929,0.17581,-0.187112,0.177724,-0.0136217,0.0139925,
-0.179135,-0.172545,0.593897,-1.804,0.117382,0.12918,0.404534,6.63778e-05,-0.000316064,0.000169465,9.87376e-05,5.57093e-05,-0.000122963,6.08497e-07,0,0,0,0,0,0,0,-0.179214,-0.172458,0.593822,-1.8041,0.117465,1.70027,1.18993,0.00038242,-0.00830924,0.00096182,0.00384763,-0.0106992,1.91946e-05,0.000383414,0.360599,-22.1166,-3.31175,27.3279,1.22284,3.38463,0.017502,0.508139,0.626868,-0.407936,-0.356445,0.596113,0.164721,0.192686,0.396929,0.17581,-0.187112,0.177724,-0.0136217,0.0139925,
-0.179052,-0.172734,0.593945,-1.80376,0.0633249,0.104214,0.404472,-0.00478384,0.00059684,-0.00478825,-0.00216796,-0.319974,-0.150809,-0.000358827,0,0,0,0,0,0,0,-0.179214,-0.172458,0.593822,-1.8041,0.117465,1.70027,1.18993,0.00038242,-0.00830924,0.00096182,0.00384763,-0.0106992,1.91946e-05,0.000383414,0.360599,-22.1166,-3.31175,27.3279,1.22284,3.38463,0.017502,0.828182,0.668479,-0.273492,-0.369569,0.760834,0.109428,0.139042,0.454437,0.121546,-0.1491,0.16414,-0.00872906,0.0126683,
-0.179098,-0.172861,0.593925,-1.80379,0.0730614,0.108719,0.404504,-0.00399274,3.49976e-05,-0.00385327,-0.00197802,-0.247329,-0.121303,-0.000217507,0,0,0,0,0,0,0,-0.179214,-0.172458,0.593822,-1.8041,0.117465,1.70027,1.18993,0.00038242,-0.00830924,0.00096182,0.00384763,-0.0106992,1.91946e-05,0.000383414,0.360599,-22.1166,-3.31175,27.3279,1.22284,3.38463,0.017502,0.666787,0.7294,-0.259485,-0.412796,0.649027,0.172125,0.174687,0.390113,0.209159,-0.140134,0.168594,-0.0171675,0.0120888,
-0.179114,-0.172861,0.593909,-1.8038,0.0720859,0.10824,0.404503,-0.00403086,4.66322e-05,-0.00389468,-0.00199559,-0.243875,-0.119802,-0.000220018,0,0,0,0,0,0,0,-0.179214,-0.172458,0.593822,-1.8041,0.117465,1.70027,1.18993,0.00038242,-0.00830924,0.00096182,0.00384763,-0.0106992,1.91946e-05,0.000383414,0.360599,-22.1166,-3.31175,27.3279,1.22284,3.38463,0.017502,0.666787,0.7294,-0.259485,-0.412796,0.649027,0.172125,0.174687,0.390113,0.209159,-0.140134,0.168594,-0.0171675,0.0120888,
-0.17913,-0.172861,0.593894,-1.80381,0.0711251,0.107767,0.404502,-0.00407027,5.28064e-05,-0.00393633,-0.00201826,-0.240199,-0.118188,-0.000223293,0,0,0,0,0,0,0,-0.179186,-0.172466,0.593829,-1.80406,0.117529,1.70027,1.18994,0.000585598,-0.000662722,-0.000482812,0.00659629,-0.00722455,-0.000893591,0.000717759,-0.0440639,-22.2673,-3.43474,27.0541,0.660702,3.38463,-0.00996382,0.968462,1.0584,-0.53479,-0.706713,0.999194,0.247631,0.232679,0.601036,0.337571,-0.292193,0.177804,-0.0518028,0.0140451,
-0.179147,-0.172861,0.593878,-1.80381,0.07018,0.107301,0.404501,-0.00411258,5.38342e-05,-0.00397962,-0.00204789,-0.236268,-0.116439,-0.000227408,0,0,0,0,0,0,0,-0.179186,-0.172466,0.593829,-1.80406,0.117529,1.70027,1.18994,0.000585598,-0.000662722,-0.000482812,0.00659629,-0.00722455,-0.000893591,0.000717759,-0.0440639,-22.2673,-3.43474,27.0541,0.660702,3.38463,-0.00996382,0.968462,1.0584,-0.53479,-0.706713,0.999194,0.247631,0.232679,0.601036,0.337571,-0.292193,0.177804,-0.0518028,0.0140451,
-0.179163,-0.17286,0.593862,-1.80382,0.0692518,0.106843,0.4045,-0.00415974,5.00357e-05,-0.00402618,-0.00208664,-0.232038,-0.114532,-0.000232286,0,0,0,0,0,0,0,-0.179186,-0.172466,0.593829,-1.80406,0.117529,1.70027,1.18994,0.000585598,-0.000662722,-0.000482812,0.00659629,-0.00722455,-0.000893591,0.000717759,-0.0440639,-22.2673,-3.43474,27.0541,0.660702,3.38463,-0.00996382,0.837572,1.19095,-0.434511,-0.88085,0.893792,0.332282,0.294202,0.514402,0.461266,-0.304952,0.0983241,-0.114046,0.015419,
-0.17918,-0.17286,0.593845,-1.80383,0.068342,0.106393,0.404499,-0.00421409,4.17384e-05,-0.00407804,-0.00213712,-0.227457,-0.112437,-0.000237883,0,0,0,0,0,0,0,-0.179186,-0.172466,0.593829,-1.80406,0.117529,1.70027,1.18994,0.000585598,-0.000662722,-0.000482812,0.00659629,-0.00722455,-0.000893591,0.000717759,-0.0440639,-22.2673,-3.43474,27.0541,0.660702,3.38463,-0.00996382,0.837572,1.19095,-0.434511,-0.88085,0.893792,0.332282,0.294202,0.514402,0.461266,-0.304952,0.0983241,-0.114046,0.015419,
-0.179197,-0.17286,0.593829,-1.80384,0.0674522,0.105953,0.404498,-0.00427855,2.92985e-05,-0.00413767,-0.00220244,-0.222462,-0.110118,-0.000244188,0,0,0,0,0,0,0,-0.179186,-0.172466,0.593829,-1.80406,0.117529,1.70027,1.18994,0.000585598,-0.000662722,-0.000482812,0.00659629,-0.00722455,-0.000893591,0.000717759,-0.0440639,-22.2673,-3.43474,27.0541,0.660702,3.38463,-0.00996382,0.379376,1.16443,-0.194271,-0.92767,0.478788,0.420397,0.34779,0.242282,0.579656,-0.227758,-0.000788844,-0.157029,0.0147944,
-0.179215,-0.17286,0.593812,-1.80385,0.0665843,0.105523,0.404497,-0.00435675,1.31058e-05,-0.00420822,-0.00228635,-0.216972,-0.10753,-0.000250961,0,0,0,0,0,0,0,-0.179111,-0.172454,0.593886,-1.8039,0.11344,1.70013,1.18993,-0.00105582,0.00160699,0.00281407,0.00741541,-0.153661,-0.00977272,0.000478511,-0.603451,-22.6402,-4.01,27.0541,0.17181,3.11272,0.0101778,0.85767,0.984679,-0.0610454,-0.862093,0.731286,0.219507,0.139363,0.334149,0.390223,-0.214132,-0.0896837,-0.159388,0.0154493,
-0.179232,-0.17286,0.593795,-1.80386,0.0657407,0.105104,0.404496,-0.00445335,-6.39698e-06,-0.00429367,-0.00239332,-0.210889,-0.104622,-0.000258046,0,0,0,0,0,0,0,-0.179111,-0.172454,0.593886,-1.8039,0.11344,1.70013,1.18993,-0.00105582,0.00160699,0.00281407,0.00741541,-0.153661,-0.00977272,0.000478511,-0.603451,-22.6402,-4.01,27.0541,0.17181,3.11272,0.0101778,0.85767,0.984679,-0.0610454,-0.862093,0.731286,0.219507,0.139363,0.334149,0.390223,-0.214132,-0.0896837,-0.159388,0.0154493,
-0.179251,-0.17286,0.593777,-1.80387,0.0649244,0.104699,0.404495,-0.00457429,-2.87342e-05,-0.00439918,-0.0025288,-0.204091,-0.10133,-0.000264796,0,0,0,0,0,0,0,-0.179111,-0.172454,0.593886,-1.8039,0.11344,1.70013,1.18993,-0.00105582,0.00160699,0.00281407,0.00741541,-0.153661,-0.00977272,0.000478511,-0.603451,-22.6402,-4.01,27.0541,0.17181,3.11272,0.0101778,0.508536,0.928917,0.474843,-0.763197,0.267218,0.275837,0.199007,0.00649664,0.418645,0.00978899,-0.141803,-0.163172,0.0148376,
-0.17927,-0.17286,0.593759,-1.80388,0.0641387,0.104309,0.404494,-0.0047273,-5.33939e-05,-0.00453142,-0.00269929,-0.196422,-0.0975799,-0.00027049,0,0,0,0,0,0,0,-0.179111,-0.172454,0.593886,-1.8039,0.11344,1.70013,1.18993,-0.00105582,0.00160699,0.00281407,0.00741541,-0.153661,-0.00977272,0.000478511,-0.603451,-22.6402,-4.01,27.0541,0.17181,3.11272,0.0101778,0.508536,0.928917,0.474843,-0.763197,0.267218,0.275837,0.199007,0.00649664,0.418645,0.00978899,-0.141803,-0.163172,0.0148376,
-0.179289,-0.172861,0.59374,-1.80389,0.0633879,0.103936,0.404493,-0.00492245,-7.99042e-05,-0.00469921,-0.00291271,-0.187687,-0.0932806,-0.000273878,0,0,0,0,0,0,0,-0.179111,-0.172454,0.593886,-1.8039,0.11344,1.70013,1.18993,-0.00105582,0.00160699,0.00281407,0.00741541,-0.153661,-0.00977272,0.000478511,-0.603451,-22.6402,-4.01,27.0541,0.17181,3.11272,0.0101778,1.15174,0.61677,0.363229,-0.681166,0.774352,-0.0209466,-0.0864667,0.292199,0.128858,-0.137654,-0.240399,-0.218436,0.0145824,
-0.17931,-0.172861,0.59372,-1.8039,0.0626774,0.103582,0.404492,-0.00517303,-0.000107978,-0.00491419,-0.00317873,-0.177637,-0.0883256,-0.000272869,0,0,0,0,0,0,0,-0.179126,-0.172505,0.593881,-1.8039,0.108078,1.69971,1.18994,-0.0034815,0.00174025,-0.000443419,0.00210218,-0.157761,-0.00660793,0.00104483,-0.29797,-22.2911,-3.86321,27.3279,0.129696,2.9937,-0.0163725,1.15174,0.61677,0.363229,-0.681166,0.774352,-0.0209466,-0.0864667,0.292199,0.128858,-0.137654,-0.240399,-0.218436,0.0145824,
-0.179332,-0.172862,0.5937,-1.80392,0.0620136,0.103252,0.404491,-0.00549678,-0.000137954,-0.00519198,-0.00350976,-0.16595,-0.0825868,-0.000263834,0,0,0,0,0,0,0,-0.179126,-0.172505,0.593881,-1.8039,0.108078,1.69971,1.18994,-0.0034815,0.00174025,-0.000443419,0.00210218,-0.157761,-0.00660793,0.00104483,-0.29797,-22.2911,-3.86321,27.3279,0.129696,2.9937,-0.0163725,1.32993,0.417006,0.298464,-0.634812,0.927987,-0.154717,-0.210371,0.382561,-0.0053856,-0.214041,-0.313308,-0.253046,0.0132187,
-0.179356,-0.172862,0.593678,-1.80393,0.0614047,0.102948,0.40449,-0.00591791,-0.000171953,-0.00555396,-0.00392323,-0.152209,-0.0759082,-0.000239619,0,0,0,0,0,0,0,-0.179126,-0.172505,0.593881,-1.8039,0.108078,1.69971,1.18994,-0.0034815,0.00174025,-0.000443419,0.00210218,-0.157761,-0.00660793,0.00104483,-0.29797,-22.2911,-3.86321,27.3279,0.129696,2.9937,-0.0163725,1.32993,0.417006,0.298464,-0.634812,0.927987,-0.154717,-0.210371,0.382561,-0.0053856,-0.214041,-0.313308,-0.253046,0.0132187,
-0.179382,-0.172863,0.593653,-1.80395,0.0608613,0.102676,0.404489,-0.00647067,-0.000217147,-0.00603043,-0.00444805,-0.135855,-0.0680867,-0.000186222,0,0,0,0,0,0,0,-0.179126,-0.172505,0.593881,-1.8039,0.108078,1.69971,1.18994,-0.0034815,0.00174025,-0.000443419,0.00210218,-0.157761,-0.00660793,0.00104483,-0.29797,-22.2911,-3.86321,27.3279,0.129696,2.9937,-0.0163725,1.17964,0.46266,0.447702,-0.632828,0.762728,-0.0945418,-0.131474,0.274343,0.0310188,-0.14095,-0.315707,-0.248351,0.0121219,
-0.17941,-0.172864,0.593627,-1.80397,0.0603969,0.102441,0.404489,-0.007207,-0.000295068,-0.00666719,-0.00514363,-0.116104,-0.0588201,-8.94192e-05,0,0,0,0,0,0,0,-0.179126,-0.172505,0.593881,-1.8039,0.108078,1.69971,1.18994,-0.0034815,0.00174025,-0.000443419,0.00210218,-0.157761,-0.00660793,0.00104483,-0.29797,-22.2911,-3.86321,27.3279,0.129696,2.9937,-0.0163725,1.50838,0.472607,0.285184,-0.688892,1.06807,-0.165284,-0.174185,0.460898,-0.0484364,-0.242088,-0.330487,-0.265833,0.013386,
-0.179443,-0.172866,0.593597,-1.804,0.0600298,0.10225,0.404488,-0.00821449,-0.000469224,-0.00754223,-0.0061565,-0.0917713,-0.0475518,-0.000190696,0,0,0,0,0,0,0,-0.179126,-0.172505,0.593881,-1.8039,0.108078,1.69971,1.18994,-0.0034815,0.00174025,-0.000443419,0.00210218,-0.157761,-0.00660793,0.00104483,-0.29797,-22.2911,-3.86321,27.3279,0.129696,2.9937,-0.0163725,1.50838,0.472607,0.285184,-0.688892,1.06807,-0.165284,-0.174185,0.460898,-0.0484364,-0.242088,-0.330487,-0.265833,0.013386,
-0.179476,-0.172866,0.593565,-1.80402,0.0597345,0.102093,0.404488,-0.00827092,0.000159595,-0.00789736,-0.00570699,-0.0738281,-0.0394303,-3.98042e-05,0,0,0,0,0,0,0,-0.179201,-0.172542,0.593824,-1.80389,0.103764,1.69934,1.18994,-0.00459561,0.00235411,-0.00599583,0.00161759,-0.118356,-0.00580856,0.00140115,0.384403,-22.3149,-3.31175,27.2525,0.299984,3.09258,-0.0163725,1.42016,0.674383,0.244353,-0.819933,1.04284,-0.0484267,-0.034773,0.45617,0.0578114,-0.259556,-0.31107,-0.277918,0.0139661,
-0.179508,-0.172862,0.593534,-1.80404,0.0594943,0.101961,0.404488,-0.00800812,0.000874808,-0.00785853,-0.00491892,-0.0600605,-0.0329911,4.91195e-05,0,0,0,0,0,0,0,-0.179201,-0.172542,0.593824,-1.80389,0.103764,1.69934,1.18994,-0.00459561,0.00235411,-0.00599583,0.00161759,-0.118356,-0.00580856,0.00140115,0.384403,-22.3149,-3.31175,27.2525,0.299984,3.09258,-0.0163725,1.42016,0.674383,0.244353,-0.819933,1.04284,-0.0484267,-0.034773,0.45617,0.0578114,-0.259556,-0.31107,-0.277918,0.0139661,
-0.179539,-0.172856,0.593503,-1.80406,0.0592972,0.10185,0.404489,-0.00759262,0.00147472,-0.00759827,-0.0041364,-0.0492642,-0.0276666,9.81866e-05,0,0,0,0,0,0,0,-0.179201,-0.172542,0.593824,-1.80389,0.103764,1.69934,1.18994,-0.00459561,0.00235411,-0.00599583,0.00161759,-0.118356,-0.00580856,0.00140115,0.384403,-22.3149,-3.31175,27.2525,0.299984,3.09258,-0.0163725,1.56776,0.954909,0.0434151,-0.991363,1.25804,0.0512659,0.082534,0.607669,0.158796,-0.345906,-0.241848,-0.284701,0.0132674,
-0.179567,-0.172849,0.593474,-1.80407,0.0591345,0.101757,0.404489,-0.00710364,0.00192106,-0.00721591,-0.00344665,-0.0406775,-0.0231963,0.00012623,0,0,0,0,0,0,0,-0.179201,-0.172542,0.593824,-1.80389,0.103764,1.69934,1.18994,-0.00459561,0.00235411,-0.00599583,0.00161759,-0.118356,-0.00580856,0.00140115,0.384403,-22.3149,-3.31175,27.2525,0.299984,3.09258,-0.0163725,1.21145,0.853,0.161406,-0.854286,0.964759,0.0924695,0.13741,0.455777,0.164725,-0.265443,-0.206322,-0.27014,0.0126425,
-0.179593,-0.17284,0.593447,-1.80408,0.0589994,0.10168,0.40449,-0.00658552,0.00222559,-0.00677075,-0.002858,-0.0337752,-0.019427,0.000142386,0,0,0,0,0,0,0,-0.179201,-0.172542,0.593824,-1.80389,0.103764,1.69934,1.18994,-0.00459561,0.00235411,-0.00599583,0.00161759,-0.118356,-0.00580856,0.00140115,0.384403,-22.3149,-3.31175,27.2525,0.299984,3.09258,-0.0163725,1.21145,0.853,0.161406,-0.854286,0.964759,0.0924695,0.13741,0.455777,0.164725,-0.265443,-0.206322,-0.27014,0.0126425,
-0.179618,-0.17283,0.593422,-1.80409,0.0588867,0.101615,0.40449,-0.00606476,0.00241263,-0.00629981,-0.00235788,-0.0281767,-0.0162474,0.000151321,0,0,0,0,0,0,0,-0.179278,-0.172543,0.593733,-1.8039,0.0987747,1.69914,1.18993,0.00206256,-0.000399815,-0.00369702,-0.000411846,-0.10354,-0.00514396,-0.00066902,0.209842,-22.6402,-3.56169,27.5262,0.807186,3.35808,0.0239107,0.799827,0.608015,0.319617,-0.591406,0.619071,0.0813267,0.135304,0.283834,0.108881,-0.164074,-0.152765,-0.250585,0.0118914,
-0.17964,-0.17282,0.593399,-1.8041,0.0587923,0.10156,0.404491,-0.00555755,0.00250697,-0.00582659,-0.00193078,-0.0235984,-0.0135667,0.000155689,0,0,0,0,0,0,0,-0.179278,-0.172543,0.593733,-1.8039,0.0987747,1.69914,1.18993,0.00206256,-0.000399815,-0.00369702,-0.000411846,-0.10354,-0.00514396,-0.00066902,0.209842,-22.6402,-3.56169,27.5262,0.807186,3.35808,0.0239107,0.799827,0.608015,0.319617,-0.591406,0.619071,0.0813267,0.135304,0.283834,0.108881,-0.164074,-0.152765,-0.250585,0.0118914,
-0.1806,-0.17175,0.592158,-1.80373,-0.072717,-0.0140306,0.403809,-0.0258126,0.0157793,-0.0269135,-0.0167874,-1.22571,-0.8498,-0.00364237,0,0,0,0,0,0,0,-0.179278,-0.172543,0.593733,-1.8039,0.0987747,1.69914,1.18993,0.00206256,-0.000399815,-0.00369702,-0.000411846,-0.10354,-0.00514396,-0.00066902,0.209842,-22.6402,-3.56169,27.5262,0.807186,3.35808,0.0239107,1.1313,0.66941,0.249292,-0.571477,0.882646,0.0371552,0.108786,0.443781,0.0478044,-0.182965,-0.0837464,-0.223781,0.0112024,
-0.180689,-0.171901,0.592142,-1.8036,-0.0504529,0.0147242,0.404164,-0.0219009,0.0100959,-0.0227238,-0.0104795,-0.75261,-0.683053,-0.0015032,0,0,0,0,0,0,0,-0.179278,-0.172543,0.593733,-1.8039,0.0987747,1.69914,1.18993,0.00206256,-0.000399815,-0.00369702,-0.000411846,-0.10354,-0.00514396,-0.00066902,0.209842,-22.6402,-3.56169,27.5262,0.807186,3.35808,0.0239107,1.1313,0.66941,0.249292,-0.571477,0.882646,0.0371552,0.108786,0.443781,0.0478044,-0.182965,-0.0837464,-0.223781,0.0112024,
-0.180777,-0.171862,0.592051,-1.80364,-0.053422,0.0120092,0.404158,-0.021868,0.00985853,-0.0227148,-0.0104206,-0.742265,-0.67875,-0.0014908,0,0,0,0,0,0,0,-0.179278,-0.172543,0.593733,-1.8039,0.0987747,1.69914,1.18993,0.00206256,-0.000399815,-0.00369702,-0.000411846,-0.10354,-0.00514396,-0.00066902,0.209842,-22.6402,-3.56169,27.5262,0.807186,3.35808,0.0239107,1.06561,0.464285,0.309148,-0.384866,0.818643,-0.0379681,0.0433366,0.424587,-0.0558875,-0.152645,-0.0550701,-0.216295,0.0101383,
-0.180864,-0.171824,0.59196,-1.80368,-0.0563468,0.00931405,0.404152,-0.0218528,0.009589,-0.02272,-0.0103918,-0.731214,-0.673775,-0.00148248,0,0,0,0,0,0,0,-0.179278,-0.172543,0.593733,-1.8039,0.0987747,1.69914,1.18993,0.00206256,-0.000399815,-0.00369702,-0.000411846,-0.10354,-0.00514396,-0.00066902,0.209842,-22.6402,-3.56169,27.5262,0.807186,3.35808,0.0239107,1.06561,0.464285,0.309148,-0.384866,0.818643,-0.0379681,0.0433366,0.424587,-0.0558875,-0.152645,-0.0550701,-0.216295,0.0101383,
-0.180952,-0.171787,0.591869,-1.80372,-0.0592241,0.00664211,0.404146,-0.0218612,0.00928586,-0.0227448,-0.0104005,-0.719309,-0.667984,-0.00147847,0,0,0,0,0,0,0,-0.179278,-0.172451,0.593691,-1.80359,0.0923595,1.69688,1.18994,0.017231,0.00419185,0.00180162,0.0350937,-0.512998,-0.273986,-0.000292547,-1.26202,-23.1401,-4.31151,24.8364,-0.756534,2.06536,-0.0163725,0.858163,2.35982,0.826217,-1.40568,0.453261,0.881186,0.970625,0.0647922,0.899417,0.208958,0.111184,-0.111879,0.0160852,
-0.181039,-0.171751,0.591778,-1.80376,-0.0620496,0.0039973,0.40414,-0.0219004,0.00894739,-0.0227957,-0.0104558,-0.706372,-0.661204,-0.00148009,0,0,0,0,0,0,0,-0.179278,-0.172451,0.593691,-1.80359,0.0923595,1.69688,1.18994,0.017231,0.00419185,0.00180162,0.0350937,-0.512998,-0.273986,-0.000292547,-1.26202,-23.1401,-4.31151,24.8364,-0.756534,2.06536,-0.0163725,2.61907,2.99563,0.79005,-1.90283,1.63792,0.738916,0.815056,0.601416,0.83762,0.14404,0.0512043,-0.0641343,0.0277815,
-0.181127,-0.171716,0.591686,-1.80381,-0.0648183,0.00138438,0.404134,-0.0219791,0.00857165,-0.0228803,-0.0105684,-0.692198,-0.653229,-0.00148766,0,0,0,0,0,0,0,-0.179278,-0.172451,0.593691,-1.80359,0.0923595,1.69688,1.18994,0.017231,0.00419185,0.00180162,0.0350937,-0.512998,-0.273986,-0.000292547,-1.26202,-23.1401,-4.31151,24.8364,-0.756534,2.06536,-0.0163725,2.61907,2.99563,0.79005,-1.90283,1.63792,0.738916,0.815056,0.601416,0.83762,0.14404,0.0512043,-0.0641343,0.0277815,
-0.181216,-0.171684,0.591594,-1.80385,-0.0675245,-0.00119087,0.404128,-0.0221075,0.00815653,-0.0230079,-0.0107512,-0.676539,-0.643813,-0.00150252,0,0,0,0,0,0,0,-0.179278,-0.172451,0.593691,-1.80359,0.0923595,1.69688,1.18994,0.017231,0.00419185,0.00180162,0.0350937,-0.512998,-0.273986,-0.000292547,-1.26202,-23.1401,-4.31151,24.8364,-0.756534,2.06536,-0.0163725,0.956637,2.77975,0.849885,-1.96167,0.553318,1.01319,1.00851,0.046413,1.18433,0.0773572,-0.0969485,-0.249911,0.0247352,
-0.181305,-0.171653,0.591502,-1.80389,-0.0701609,-0.00372151,0.404122,-0.0222981,0.00769989,-0.0231897,-0.0110197,-0.659103,-0.63266,-0.00152365,0,0,0,0,0,0,0,-0.179278,-0.172451,0.593691,-1.80359,0.0923595,1.69688,1.18994,0.017231,0.00419185,0.00180162,0.0350937,-0.512998,-0.273986,-0.000292547,-1.26202,-23.1401,-4.31151,24.8364,-0.756534,2.06536,-0.0163725,0.956637,2.77975,0.849885,-1.96167,0.553318,1.01319,1.00851,0.046413,1.18433,0.0773572,-0.0969485,-0.249911,0.0247352,
-0.181395,-0.171624,0.591408,-1.80394,-0.0727191,-0.00619918,0.404116,-0.0225659,0.00719974,-0.0234391,-0.0113925,-0.639543,-0.619417,-0.00155406,0,0,0,0,0,0,0,-0.178946,-0.172528,0.5939,-1.80215,0.0694666,1.68284,1.18994,0.0118851,-0.00309243,0.0139353,0.0343715,-0.714029,-0.457068,0.00103592,-1.66668,-22.2157,-5.00975,26.2567,-0.756534,1.39519,-0.0365141,1.26464,1.29163,1.20013,-1.29519,0.711849,0.241864,0.215308,0.129225,0.416447,-0.0872185,-0.466053,-0.497401,0.0188844,
-0.181487,-0.171598,0.591313,-1.80399,-0.0751889,-0.00861384,0.40411,-0.0229284,0.00665451,-0.0237719,-0.011892,-0.617454,-0.603664,-0.00159353,0,0,0,0,0,0,0,-0.178946,-0.172528,0.5939,-1.80215,0.0694666,1.68284,1.18994,0.0118851,-0.00309243,0.0139353,0.0343715,-0.714029,-0.457068,0.00103592,-1.66668,-22.2157,-5.00975,26.2567,-0.756534,1.39519,-0.0365141,1.26464,1.29163,1.20013,-1.29519,0.711849,0.241864,0.215308,0.129225,0.416447,-0.0872185,-0.466053,-0.497401,0.0188844,
-0.18158,-0.171573,0.591216,-1.80404,-0.0775583,-0.0109534,0.404103,-0.0234064,0.00606336,-0.0242068,-0.0125453,-0.592357,-0.584898,-0.00164389,0,0,0,0,0,0,0,-0.178946,-0.172528,0.5939,-1.80215,0.0694666,1.68284,1.18994,0.0118851,-0.00309243,0.0139353,0.0343715,-0.714029,-0.457068,0.00103592,-1.66668,-22.2157,-5.00975,26.2567,-0.756534,1.39519,-0.0365141,1.76889,-0.190182,1.49339,-0.569859,1.05583,-0.569095,-0.604595,0.342602,-0.408478,-0.279978,-0.759411,-0.741964,0.012551,
-0.181676,-0.171552,0.591117,-1.80409,-0.0798131,-0.0132035,0.404096,-0.0240241,0.00542662,-0.0247658,-0.0133847,-0.563698,-0.562518,-0.00170542,0,0,0,0,0,0,0,-0.178946,-0.172528,0.5939,-1.80215,0.0694666,1.68284,1.18994,0.0118851,-0.00309243,0.0139353,0.0343715,-0.714029,-0.457068,0.00103592,-1.66668,-22.2157,-5.00975,26.2567,-0.756534,1.39519,-0.0365141,0.926181,-0.106984,1.70961,-0.630963,0.582469,-0.343441,-0.401454,0.144376,-0.166623,-0.344989,-0.721433,-0.945885,0.00929042,
-0.181776,-0.171533,0.591015,-1.80415,-0.0819365,-0.0153467,0.404089,-0.024809,0.00474608,-0.0254738,-0.01445,-0.530834,-0.535808,-0.00177987,0,0,0,0,0,0,0,-0.178946,-0.172528,0.5939,-1.80215,0.0694666,1.68284,1.18994,0.0118851,-0.00309243,0.0139353,0.0343715,-0.714029,-0.457068,0.00103592,-1.66668,-22.2157,-5.00975,26.2567,-0.756534,1.39519,-0.0365141,0.926181,-0.106984,1.70961,-0.630963,0.582469,-0.343441,-0.401454,0.144376,-0.166623,-0.344989,-0.721433,-0.945885,0.00929042,
-0.181879,-0.171517,0.59091,-1.80421,-0.0839086,-0.0173624,0.404082,-0.0257925,0.00402522,-0.0263594,-0.0157911,-0.493034,-0.503907,-0.00186681,0,0,0,0,0,0,0,-0.178946,-0.172528,0.5939,-1.80215,0.0694666,1.68284,1.18994,0.0118851,-0.00309243,0.0139353,0.0343715,-0.714029,-0.457068,0.00103592,-1.66668,-22.2157,-5.00975,26.2567,-0.756534,1.39519,-0.0365141,0.523919,-0.435971,1.59263,-0.594805,0.575642,-0.416331,-0.47978,0.255783,-0.217864,-0.654586,-0.785544,-1.22947,0.00709406,
-0.181987,-0.171503,0.5908,-1.80428,-0.0857064,-0.0192254,0.404074,-0.0270106,0.00326762,-0.0274551,-0.0174749,-0.449462,-0.46577,-0.00196164,0,0,0,0,0,0,0,-0.178671,-0.17267,0.594061,-1.80125,0.0468974,1.66775,1.18994,0.00358931,0.000339994,0.00206868,0.0223333,-0.66202,-0.448336,-0.000480594,-1.51593,-22.2435,-4.6884,26.1298,-1.06781,1.44829,0.00376909,0.523919,-0.435971,1.59263,-0.594805,0.575642,-0.416331,-0.47978,0.255783,-0.217864,-0.654586,-0.785544,-1.22947,0.00709406,
-0.182101,-0.171494,0.590685,-1.80436,-0.087303,-0.0209058,0.404066,-0.028507,0.00247082,-0.0288006,-0.0196026,-0.399151,-0.420089,-0.00204244,0,0,0,0,0,0,0,-0.178671,-0.17267,0.594061,-1.80125,0.0468974,1.66775,1.18994,0.00358931,0.000339994,0.00206868,0.0223333,-0.66202,-0.448336,-0.000480594,-1.51593,-22.2435,-4.6884,26.1298,-1.06781,1.44829,0.00376909,0.483999,-1.18631,1.79627,-0.256153,0.540855,-0.762748,-0.83596,0.249285,-0.56619,-0.746745,-0.962654,-1.38969,0.00215297,
-0.182222,-0.171487,0.590563,-1.80445,-0.0886667,-0.0223663,0.404058,-0.0303427,0.00160541,-0.0304557,-0.0223569,-0.340915,-0.365116,-0.00201045,0,0,0,0,0,0,0,-0.178671,-0.17267,0.594061,-1.80125,0.0468974,1.66775,1.18994,0.00358931,0.000339994,0.00206868,0.0223333,-0.66202,-0.448336,-0.000480594,-1.51593,-22.2435,-4.6884,26.1298,-1.06781,1.44829,0.00376909,0.608431,-0.581827,1.65084,-0.684359,0.747349,-0.518979,-0.595151,0.371022,-0.280003,-0.845267,-0.916115,-1.43627,-0.0026951,
-0.182353,-0.171485,0.590432,-1.80455,-0.0897592,-0.0235591,0.404053,-0.0325494,0.000556399,-0.0326008,-0.0261392,-0.273114,-0.298201,-0.00108354,0,0,0,0,0,0,0,-0.178671,-0.17267,0.594061,-1.80125,0.0468974,1.66775,1.18994,0.00358931,0.000339994,0.00206868,0.0223333,-0.66202,-0.448336,-0.000480594,-1.51593,-22.2435,-4.6884,26.1298,-1.06781,1.44829,0.00376909,0.608431,-0.581827,1.65084,-0.684359,0.747349,-0.518979,-0.595151,0.371022,-0.280003,-0.845267,-0.916115,-1.43627,-0.0026951,
-0.182481,-0.171475,0.590301,-1.80465,-0.0906484,-0.0245514,0.40405,-0.0321401,0.00252334,-0.032856,-0.0242715,-0.222317,-0.248076,-0.000734533,0,0,0,0,0,0,0,-0.178671,-0.17267,0.594061,-1.80125,0.0468974,1.66775,1.18994,0.00358931,0.000339994,0.00206868,0.0223333,-0.66202,-0.448336,-0.000480594,-1.51593,-22.2435,-4.6884,26.1298,-1.06781,1.44829,0.00376909,1.57624,-0.453227,1.35412,-0.784136,1.56665,-0.686182,-0.72216,0.854708,-0.455015,-1.02138,-0.865864,-1.44124,-0.00394022,
-0.182604,-0.171455,0.590173,-1.80473,-0.091379,-0.0253837,0.404048,-0.0307966,0.00487233,-0.0320026,-0.0209875,-0.182633,-0.208076,-0.000618712,0,0,0,0,0,0,0,-0.178744,-0.173096,0.593957,-1.80107,0.028504,1.65487,1.18993,-0.00616034,-0.0176162,-0.00958226,-0.00113537,-0.552743,-0.394435,-0.000469894,-0.0956386,-21.6683,-3.68468,26.4789,0.111386,1.86577,0.017502,1.57624,-0.453227,1.35412,-0.784136,1.56665,-0.686182,-0.72216,0.854708,-0.455015,-1.02138,-0.865864,-1.44124,-0.00394022,
-0.18272,-0.171428,0.590051,-1.8048,-0.0919826,-0.0260845,0.404046,-0.0290374,0.00683948,-0.0305836,-0.0176409,-0.15091,-0.175205,-0.000592825,0,0,0,0,0,0,0,-0.178744,-0.173096,0.593957,-1.80107,0.028504,1.65487,1.18993,-0.00616034,-0.0176162,-0.00958226,-0.00113537,-0.552743,-0.394435,-0.000469894,-0.0956386,-21.6683,-3.68468,26.4789,0.111386,1.86577,0.017502,1.15293,-0.85409,1.54889,-0.415916,1.23353,-0.771911,-0.777553,0.7108,-0.611509,-0.945317,-0.812646,-1.46049,-0.00491332,
-0.182829,-0.171395,0.589935,-1.80486,-0.0924833,-0.0266759,0.404043,-0.0271026,0.00827307,-0.028884,-0.0146117,-0.125182,-0.147844,-0.000603378,0,0,0,0,0,0,0,-0.178744,-0.173096,0.593957,-1.80107,0.028504,1.65487,1.18993,-0.00616034,-0.0176162,-0.00958226,-0.00113537,-0.552743,-0.394435,-0.000469894,-0.0956386,-21.6683,-3.68468,26.4789,0.111386,1.86577,0.017502,1.15293,-0.85409,1.54889,-0.415916,1.23353,-0.771911,-0.777553,0.7108,-0.611509,-0.945317,-0.812646,-1.46049,-0.00491332,
-0.182929,-0.171358,0.589827,-1.80491,-0.0928997,-0.0271756,0.404041,-0.0251206,0.00921154,-0.0270645,-0.0119651,-0.104098,-0.12494,-0.000629096,0,0,0,0,0,0,0,-0.178744,-0.173096,0.593957,-1.80107,0.028504,1.65487,1.18993,-0.00616034,-0.0176162,-0.00958226,-0.00113537,-0.552743,-0.394435,-0.000469894,-0.0956386,-21.6683,-3.68468,26.4789,0.111386,1.86577,0.017502,0.646165,-1.01313,1.49357,-0.22907,0.969463,-0.729763,-0.723704,0.642021,-0.605826,-0.970766,-0.708155,-1.49347,-0.00586576,
-0.183022,-0.171319,0.589726,-1.80495,-0.0932464,-0.0275985,0.404038,-0.0231656,0.00974153,-0.0252219,-0.00967307,-0.086676,-0.105712,-0.000660771,0,0,0,0,0,0,0,-0.178744,-0.173096,0.593957,-1.80107,0.028504,1.65487,1.18993,-0.00616034,-0.0176162,-0.00958226,-0.00113537,-0.552743,-0.394435,-0.000469894,-0.0956386,-21.6683,-3.68468,26.4789,0.111386,1.86577,0.017502,-0.367404,-1.05364,1.33474,-0.148769,0.43509,-0.515685,-0.495485,0.461842,-0.424714,-1.04659,-0.589542,-1.56907,-0.00840949,
-0.183107,-0.171279,0.589632,-1.80498,-0.0935351,-0.0279566,0.404035,-0.0212819,0.00995188,-0.0234161,-0.00768698,-0.0721735,-0.0895415,-0.00069406,0,0,0,0,0,0,0,-0.178744,-0.173096,0.593957,-1.80107,0.028504,1.65487,1.18993,-0.00616034,-0.0176162,-0.00958226,-0.00113537,-0.552743,-0.394435,-0.000469894,-0.0956386,-21.6683,-3.68468,26.4789,0.111386,1.86577,0.017502,-0.367404,-1.05364,1.33474,-0.148769,0.43509,-0.515685,-0.495485,0.461842,-0.424714,-1.04659,-0.589542,-1.56907,-0.00840949,
-0.204412,-0.163681,0.565953,-1.81356,-0.0807746,-0.0700823,0.398739,-0.185783,0.0843115,-0.202615,-0.0801583,-1.2418,-1.32889,-0.0271997,0,0,0,0,0,0,0,-0.179048,-0.173308,0.59369,-1.80113,0.0137954,1.64508,1.18992,-0.00955685,-0.000978427,-0.0142908,-0.000899367,-0.405059,-0.263083,-0.00316079,-0.119442,-22.0412,-3.88701,27.0026,0.898739,3.26562,0.124619,-0.717973,-0.720496,1.96946,0.0342893,-0.184166,-0.272327,-0.242839,0.0205901,-0.258062,-0.533938,-0.38091,-1.32944,-0.00748736,
-0.199536,-0.166529,0.571001,-1.80997,-0.164718,-0.00205936,0.40136,-0.154145,0.0523479,-0.167507,-0.0605619,-1.00636,0.168781,-0.0115787,0,0,0,0,0,0,0,-0.179048,-0.173308,0.59369,-1.80113,0.0137954,1.64508,1.18992,-0.00955685,-0.000978427,-0.0142908,-0.000899367,-0.405059,-0.263083,-0.00316079,-0.119442,-22.0412,-3.88701,27.0026,0.898739,3.26562,0.124619,-0.717973,-0.720496,1.96946,0.0342893,-0.184166,-0.272327,-0.242839,0.0205901,-0.258062,-0.533938,-0.38091,-1.32944,-0.00748736,
-0.200159,-0.166324,0.570325,-1.81021,-0.168521,-0.00124818,0.401315,-0.155751,0.0510615,-0.169186,-0.059858,-0.95075,0.202796,-0.011287,0,0,0,0,0,0,0,-0.179048,-0.173308,0.59369,-1.80113,0.0137954,1.64508,1.18992,-0.00955685,-0.000978427,-0.0142908,-0.000899367,-0.405059,-0.263083,-0.00316079,-0.119442,-22.0412,-3.88701,27.0026,0.898739,3.26562,0.124619,-0.0997001,0.326477,2.48839,-0.10202,-0.191282,0.0879292,0.132073,-0.149573,0.041938,0.0768081,-0.0308919,-0.899357,-0.0103392,
-0.200788,-0.166125,0.569642,-1.81045,-0.172082,-0.000295291,0.401271,-0.157248,0.0497902,-0.17076,-0.0591755,-0.890382,0.238221,-0.0110164,0,0,0,0,0,0,0,-0.179048,-0.173308,0.59369,-1.80113,0.0137954,1.64508,1.18992,-0.00955685,-0.000978427,-0.0142908,-0.000899367,-0.405059,-0.263083,-0.00316079,-0.119442,-22.0412,-3.88701,27.0026,0.898739,3.26562,0.124619,-0.0997001,0.326477,2.48839,-0.10202,-0.191282,0.0879292,0.132073,-0.149573,0.041938,0.0768081,-0.0308919,-0.899357,-0.0103392,
-0.201423,-0.165931,0.568953,-1.81068,-0.175384,0.000805487,0.401227,-0.158636,0.0485077,-0.172218,-0.0585361,-0.825273,0.275194,-0.0107712,0,0,0,0,0,0,0,-0.179048,-0.173308,0.59369,-1.80113,0.0137954,1.64508,1.18992,-0.00955685,-0.000978427,-0.0142908,-0.000899367,-0.405059,-0.263083,-0.00316079,-0.119442,-22.0412,-3.88701,27.0026,0.898739,3.26562,0.124619,-0.74277,4.5171,2.06966,-2.35202,-0.595868,2.1689,2.22097,-0.487756,2.22428,0.460574,0.617853,-0.452575,0.000566415,
-0.202062,-0.165742,0.568259,-1.81092,-0.178405,0.00206085,0.401185,-0.159928,0.047188,-0.173565,-0.0579529,-0.755257,0.31384,-0.0105596,0,0,0,0,0,0,0,-0.179751,-0.17327,0.592887,-1.80138,-0.00277037,1.63348,1.1899,-0.0201839,-0.00779816,-0.046259,0.00493155,-0.856796,-0.501384,-0.00356424,-5.34436,-21.3429,-8.7628,24.1144,-0.267643,2.97997,0.138352,-1.50683,4.35168,0.667257,-2.30836,-0.484873,2.25936,2.30398,-0.131492,2.33314,-0.0690735,0.857836,-0.476449,0.00711268,
-0.202707,-0.165559,0.567559,-1.81115,-0.181125,0.0034779,0.401144,-0.161141,0.0458066,-0.174808,-0.057433,-0.680028,0.354263,-0.0103828,0,0,0,0,0,0,0,-0.179751,-0.17327,0.592887,-1.80138,-0.00277037,1.63348,1.1899,-0.0201839,-0.00779816,-0.046259,0.00493155,-0.856796,-0.501384,-0.00356424,-5.34436,-21.3429,-8.7628,24.1144,-0.267643,2.97997,0.138352,-1.50683,4.35168,0.667257,-2.30836,-0.484873,2.25936,2.30398,-0.131492,2.33314,-0.0690735,0.857836,-0.476449,0.00711268,
-0.203356,-0.165382,0.566855,-1.81137,-0.183521,0.00506405,0.401103,-0.162293,0.0443402,-0.175963,-0.056978,-0.599144,0.396538,-0.0102549,0,0,0,0,0,0,0,-0.179751,-0.17327,0.592887,-1.80138,-0.00277037,1.63348,1.1899,-0.0201839,-0.00779816,-0.046259,0.00493155,-0.856796,-0.501384,-0.00356424,-5.34436,-21.3429,-8.7628,24.1144,-0.267643,2.97997,0.138352,-1.84542,1.26785,0.835009,-0.604202,-0.91083,0.94083,0.996082,-0.317703,0.900158,-0.135478,0.364567,-0.58396,-0.00987872,
-0.20401,-0.165211,0.566147,-1.8116,-0.18557,0.00682684,0.401062,-0.163403,0.0427679,-0.177043,-0.0565853,-0.512058,0.440698,-0.0101839,0,0,0,0,0,0,0,-0.179751,-0.17327,0.592887,-1.80138,-0.00277037,1.63348,1.1899,-0.0201839,-0.00779816,-0.046259,0.00493155,-0.856796,-0.501384,-0.00356424,-5.34436,-21.3429,-8.7628,24.1144,-0.267643,2.97997,0.138352,-1.84542,1.26785,0.835009,-0.604202,-0.91083,0.94083,0.996082,-0.317703,0.900158,-0.135478,0.364567,-0.58396,-0.00987872,
-0.204668,-0.165046,0.565435,-1.81182,-0.187242,0.00877366,0.401021,-0.164483,0.0410719,-0.178059,-0.0562464,-0.418145,0.486706,-0.0101808,0,0,0,0,0,0,0,-0.179751,-0.17327,0.592887,-1.80138,-0.00277037,1.63348,1.1899,-0.0201839,-0.00779816,-0.046259,0.00493155,-0.856796,-0.501384,-0.00356424,-5.34436,-21.3429,-8.7628,24.1144,-0.267643,2.97997,0.138352,0.924248,0.274603,1.32862,-0.0986587,0.254986,-0.0989934,-0.0236272,-0.0448658,-0.163803,0.29963,-0.129747,-0.166013,-0.0139259,
-0.20533,-0.164889,0.564719,-1.81205,-0.188509,0.0109113,0.40098,-0.165537,0.0392398,-0.179009,-0.0559448,-0.316756,0.534419,-0.0102597,0,0,0,0,0,0,0,-0.180565,-0.173471,0.591562,-1.80266,-0.033961,1.62489,1.1899,-0.031255,-0.0180573,-0.0573493,-0.0619661,-0.89998,-0.20589,0.000300814,-3.11474,-19.8949,-6.75933,27.8992,0.782467,4.16009,0.0239107,0.924248,0.274603,1.32862,-0.0986587,0.254986,-0.0989934,-0.0236272,-0.0448658,-0.163803,0.29963,-0.129747,-0.166013,-0.0139259,
-0.205996,-0.16474,0.564,-1.81227,-0.189338,0.0132454,0.400938,-0.166541,0.0372694,-0.179876,-0.0556502,-0.207324,0.583517,-0.0104397,0,0,0,0,0,0,0,-0.180565,-0.173471,0.591562,-1.80266,-0.033961,1.62489,1.1899,-0.031255,-0.0180573,-0.0573493,-0.0619661,-0.89998,-0.20589,0.000300814,-3.11474,-19.8949,-6.75933,27.8992,0.782467,4.16009,0.0239107,1.568,1.99735,1.38505,-0.962437,0.48005,0.564996,0.613138,-0.0897643,0.564497,0.645142,0.0955077,0.174344,-0.00856108,
-0.206666,-0.1646,0.563277,-1.81249,-0.189697,0.015779,0.400895,-0.167436,0.035176,-0.180601,-0.0553086,-0.0895621,0.633399,-0.0107462,0,0,0,0,0,0,0,-0.180565,-0.173471,0.591562,-1.80266,-0.033961,1.62489,1.1899,-0.031255,-0.0180573,-0.0573493,-0.0619661,-0.89998,-0.20589,0.000300814,-3.11474,-19.8949,-6.75933,27.8992,0.782467,4.16009,0.0239107,1.9886,1.75891,1.30628,-0.886139,0.738355,0.374369,0.432819,0.0268,0.371677,0.61708,0.000431659,0.2034,-0.0128424,
-0.207338,-0.164468,0.562553,-1.81271,-0.189552,0.0185111,0.400851,-0.168083,0.033008,-0.181064,-0.0548236,0.0361796,0.683015,-0.0112117,0,0,0,0,0,0,0,-0.180565,-0.173471,0.591562,-1.80266,-0.033961,1.62489,1.1899,-0.031255,-0.0180573,-0.0573493,-0.0619661,-0.89998,-0.20589,0.000300814,-3.11474,-19.8949,-6.75933,27.8992,0.782467,4.16009,0.0239107,1.9886,1.75891,1.30628,-0.886139,0.738355,0.374369,0.432819,0.0268,0.371677,0.61708,0.000431659,0.2034,-0.0128424,
-0.208011,-0.164344,0.561829,-1.81293,-0.188879,0.0214334,0.400803,-0.168213,0.0308725,-0.181027,-0.0540249,0.168278,0.730591,-0.0118915,0,0,0,0,0,0,0,-0.180565,-0.173471,0.591562,-1.80266,-0.033961,1.62489,1.1899,-0.031255,-0.0180573,-0.0573493,-0.0619661,-0.89998,-0.20589,0.000300814,-3.11474,-19.8949,-6.75933,27.8992,0.782467,4.16009,0.0239107,2.45685,-0.252511,0.657961,0.042368,1.06881,-0.610588,-0.562951,0.244237,-0.628433,0.379185,-0.407341,0.265262,-0.0213304,
-0.20868,-0.164228,0.561109,-1.81314,-0.187668,0.0245264,0.400752,-0.167331,0.0289796,-0.180055,-0.052614,0.302789,0.773231,-0.0128635,0,0,0,0,0,0,0,-0.180565,-0.173471,0.591562,-1.80266,-0.033961,1.62489,1.1899,-0.031255,-0.0180573,-0.0573493,-0.0619661,-0.89998,-0.20589,0.000300814,-3.11474,-19.8949,-6.75933,27.8992,0.782467,4.16009,0.0239107,2.45685,-0.252511,0.657961,0.042368,1.06881,-0.610588,-0.562951,0.244237,-0.628433,0.379185,-0.407341,0.265262,-0.0213304,
-0.209339,-0.164117,0.560399,-1.81334,-0.18594,0.0277518,0.400694,-0.16459,0.0277104,-0.177396,-0.0500762,0.431921,0.806363,-0.0143024,0,0,0,0,0,0,0,-0.183293,-0.173821,0.587682,-1.80582,-0.0626779,1.62253,1.1899,-0.0932792,-0.0105463,-0.115469,-0.0566748,-0.382779,0.0383318,0.00129082,-1.13507,-20.6209,-4.91057,27.6016,0.312802,3.38463,-0.0227812,3.77571,-0.140988,-0.491458,-0.2859,2.38806,-0.837935,-0.798669,1.05575,-0.767982,-0.110447,-0.440923,0.294939,-0.0242619,
-0.209973,-0.164007,0.559712,-1.81352,-0.183771,0.031044,0.400628,-0.158647,0.0277221,-0.17184,-0.0455217,0.542239,0.823049,-0.0165719,0,0,0,0,0,0,0,-0.183293,-0.173821,0.587682,-1.80582,-0.0626779,1.62253,1.1899,-0.0932792,-0.0105463,-0.115469,-0.0566748,-0.382779,0.0383318,0.00129082,-1.13507,-20.6209,-4.91057,27.6016,0.312802,3.38463,-0.0227812,3.77571,-0.140988,-0.491458,-0.2859,2.38806,-0.837935,-0.798669,1.05575,-0.767982,-0.110447,-0.440923,0.294939,-0.0242619,
-0.210563,-0.163886,0.559065,-1.81367,-0.181319,0.0342955,0.400546,-0.14754,0.0301605,-0.161563,-0.0372931,0.613126,0.812874,-0.0204595,0,0,0,0,0,0,0,-0.183293,-0.173821,0.587682,-1.80582,-0.0626779,1.62253,1.1899,-0.0932792,-0.0105463,-0.115469,-0.0566748,-0.382779,0.0383318,0.00129082,-1.13507,-20.6209,-4.91057,27.6016,0.312802,3.38463,-0.0227812,3.0118,-0.142916,-1.37755,-0.430394,2.30237,-0.658578,-0.612399,1.19544,-0.567402,-0.501313,-0.374481,0.205152,-0.0271916,
-0.211077,-0.163737,0.55849,-1.81376,-0.178857,0.03733,0.400441,-0.128448,0.0373217,-0.143879,-0.0216749,0.615262,0.758628,-0.0264161,0,0,0,0,0,0,0,-0.183293,-0.173821,0.587682,-1.80582,-0.0626779,1.62253,1.1899,-0.0932792,-0.0105463,-0.115469,-0.0566748,-0.382779,0.0383318,0.00129082,-1.13507,-20.6209,-4.91057,27.6016,0.312802,3.38463,-0.0227812,2.87627,-1.78011,-0.545631,0.819807,1.73897,-1.36649,-1.29855,0.817803,-1.41983,-0.0916147,-0.484457,0.300498,-0.0248573,
-0.211463,-0.163517,0.558032,-1.81371,-0.17684,0.0398261,0.400384,-0.0964276,0.0549624,-0.11437,0.011432,0.504437,0.624017,-0.0140815,0,0,0,0,0,0,0,-0.183293,-0.173821,0.587682,-1.80582,-0.0626779,1.62253,1.1899,-0.0932792,-0.0105463,-0.115469,-0.0566748,-0.382779,0.0383318,0.00129082,-1.13507,-20.6209,-4.91057,27.6016,0.312802,3.38463,-0.0227812,2.87627,-1.78011,-0.545631,0.819807,1.73897,-1.36649,-1.29855,0.817803,-1.41983,-0.0916147,-0.484457,0.300498,-0.0248573,
-0.211776,-0.163298,0.557659,-1.81364,-0.175091,0.0419878,0.400325,-0.0782874,0.0547393,-0.0933374,0.0173324,0.43718,0.540421,-0.0147378,0,0,0,0,0,0,0,-0.186762,-0.173657,0.583645,-1.80776,-0.0660292,1.62685,1.1899,-0.122697,0.00483629,-0.134236,-0.0650858,0.010852,0.212126,0.000829858,-0.424923,-22.8902,-4.11315,28.1967,0.9967,3.72246,-0.0227812,1.65227,-1.83283,-0.133873,1.08935,0.740427,-1.11326,-1.05271,0.283094,-1.22529,0.182965,-0.33735,0.348005,-0.0263662,
-0.212039,-0.1631,0.557345,-1.81358,-0.173515,0.0439104,0.400263,-0.0656234,0.0494026,-0.078478,0.0152083,0.393949,0.480657,-0.0155442,0,0,0,0,0,0,0,-0.186762,-0.173657,0.583645,-1.80776,-0.0660292,1.62685,1.1899,-0.122697,0.00483629,-0.134236,-0.0650858,0.010852,0.212126,0.000829858,-0.424923,-22.8902,-4.11315,28.1967,0.9967,3.72246,-0.0227812,1.65227,-1.83283,-0.133873,1.08935,0.740427,-1.11326,-1.05271,0.283094,-1.22529,0.182965,-0.33735,0.348005,-0.0263662,
-0.212263,-0.162928,0.557075,-1.81353,-0.172053,0.0456478,0.400199,-0.0561716,0.0431614,-0.0674659,0.0113447,0.365511,0.434354,-0.0160272,0,0,0,0,0,0,0,-0.186762,-0.173657,0.583645,-1.80776,-0.0660292,1.62685,1.1899,-0.122697,0.00483629,-0.134236,-0.0650858,0.010852,0.212126,0.000829858,-0.424923,-22.8902,-4.11315,28.1967,0.9967,3.72246,-0.0227812,-0.103124,-0.775098,-0.801423,0.495215,-0.037301,-0.24286,-0.209764,0.0454767,-0.308564,-0.0262407,-0.0108733,0.291024,-0.0279789,
-0.212459,-0.162778,0.556839,-1.8135,-0.170666,0.0472361,0.400134,-0.0488592,0.0373476,-0.0590363,0.00763497,0.34676,0.397086,-0.0163244,0,0,0,0,0,0,0,-0.186762,-0.173657,0.583645,-1.80776,-0.0660292,1.62685,1.1899,-0.122697,0.00483629,-0.134236,-0.0650858,0.010852,0.212126,0.000829858,-0.424923,-22.8902,-4.11315,28.1967,0.9967,3.72246,-0.0227812,-1.42285,-0.104183,-1.93983,-0.00591811,-0.359377,0.358284,0.382422,0.107888,0.342528,-0.459975,0.219603,0.221154,-0.0284416,
-0.212631,-0.162649,0.556629,-1.81349,-0.169328,0.0487026,0.400068,-0.0430727,0.0323112,-0.0524418,0.00453343,0.334564,0.366602,-0.0165193,0,0,0,0,0,0,0,-0.186762,-0.173657,0.583645,-1.80776,-0.0660292,1.62685,1.1899,-0.122697,0.00483629,-0.134236,-0.0650858,0.010852,0.212126,0.000829858,-0.424923,-22.8902,-4.11315,28.1967,0.9967,3.72246,-0.0227812,-1.42285,-0.104183,-1.93983,-0.00591811,-0.359377,0.358284,0.382422,0.107888,0.342528,-0.459975,0.219603,0.221154,-0.0284416,
-0.22279,-0.15446,0.545606,-1.8168,-0.161379,-0.106636,0.395941,-0.303696,0.153153,-0.332364,-0.11872,-1.21999,-0.773612,-0.0363001,0,0,0,0,0,0,0,-0.186762,-0.173657,0.583645,-1.80776,-0.0660292,1.62685,1.1899,-0.122697,0.00483629,-0.134236,-0.0650858,0.010852,0.212126,0.000829858,-0.424923,-22.8902,-4.11315,28.1967,0.9967,3.72246,-0.0227812,-1.56101,0.226917,-1.74033,-0.0930965,-0.501104,0.538369,0.579096,0.0198897,0.4985,-0.356274,0.32294,0.236473,-0.0276546,
-0.216887,-0.160908,0.550459,-1.8163,-0.18466,0.0166571,0.399217,-0.172777,0.0718772,-0.187766,-0.0493015,-0.259269,-0.372752,-0.0270475,0,0,0,0,0,0,0,-0.19078,-0.172699,0.579234,-1.80826,-0.0659803,1.63325,1.1899,-0.131629,0.0382084,-0.13567,-0.00165976,-0.0192386,0.186707,-0.000248251,1.27307,-23.2631,-2.23662,27.5739,1.06994,2.9937,-0.00996382,-1.56101,0.226917,-1.74033,-0.0930965,-0.501104,0.538369,0.579096,0.0198897,0.4985,-0.356274,0.32294,0.236473,-0.0276546,
-0.217578,-0.160624,0.549708,-1.81649,-0.185468,0.015195,0.39911,-0.172648,0.0709137,-0.187614,-0.048948,-0.202129,-0.365514,-0.026781,0,0,0,0,0,0,0,-0.19078,-0.172699,0.579234,-1.80826,-0.0659803,1.63325,1.1899,-0.131629,0.0382084,-0.13567,-0.00165976,-0.0192386,0.186707,-0.000248251,1.27307,-23.2631,-2.23662,27.5739,1.06994,2.9937,-0.00996382,-1.03493,1.01073,-1.1576,-0.419616,-0.256047,0.763609,0.811894,0.0765961,0.726902,-0.194737,0.458111,0.191807,-0.0268306,
-0.218268,-0.160345,0.548958,-1.81669,-0.186035,0.0137641,0.399004,-0.172554,0.0698381,-0.187487,-0.0485682,-0.141625,-0.357728,-0.0265343,0,0,0,0,0,0,0,-0.19078,-0.172699,0.579234,-1.80826,-0.0659803,1.63325,1.1899,-0.131629,0.0382084,-0.13567,-0.00165976,-0.0192386,0.186707,-0.000248251,1.27307,-23.2631,-2.23662,27.5739,1.06994,2.9937,-0.00996382,-1.03493,1.01073,-1.1576,-0.419616,-0.256047,0.763609,0.811894,0.0765961,0.726902,-0.194737,0.458111,0.191807,-0.0268306,
-0.218958,-0.16007,0.548209,-1.81688,-0.186344,0.0123667,0.398898,-0.172506,0.0686366,-0.187393,-0.0481694,-0.0772917,-0.349358,-0.0263085,0,0,0,0,0,0,0,-0.19078,-0.172699,0.579234,-1.80826,-0.0659803,1.63325,1.1899,-0.131629,0.0382084,-0.13567,-0.00165976,-0.0192386,0.186707,-0.000248251,1.27307,-23.2631,-2.23662,27.5739,1.06994,2.9937,-0.00996382,-3.03619,4.67076,-1.10372,-2.6166,-1.41848,2.87467,2.89818,-0.600521,2.97583,-0.0832466,0.863845,0.136816,-0.0273705,
-0.219648,-0.159801,0.54746,-1.81707,-0.186378,0.0110053,0.398794,-0.172514,0.0672952,-0.187342,-0.0477594,-0.0086014,-0.340344,-0.0261142,0,0,0,0,0,0,0,-0.19078,-0.172699,0.579234,-1.80826,-0.0659803,1.63325,1.1899,-0.131629,0.0382084,-0.13567,-0.00165976,-0.0192386,0.186707,-0.000248251,1.27307,-23.2631,-2.23662,27.5739,1.06994,2.9937,-0.00996382,-1.06307,2.40064,-2.34237,-1.5362,0.540008,1.35827,1.37081,0.736138,1.47986,-0.932912,0.660569,-0.0998391,-0.0133154,
-0.220338,-0.159538,0.54671,-1.81726,-0.186118,0.00968286,0.39869,-0.172591,0.0657994,-0.187346,-0.0473475,0.0650302,-0.330604,-0.0259482,0,0,0,0,0,0,0,-0.19499,-0.171433,0.574018,-1.80779,-0.0746455,1.63435,1.18984,-0.122475,0.0183369,-0.151751,0.00268094,-0.389112,-0.0517238,-0.00165716,1.17389,-22.1166,-2.61351,26.5543,-0.121158,2.38305,-0.00996382,-1.06307,2.40064,-2.34237,-1.5362,0.540008,1.35827,1.37081,0.736138,1.47986,-0.932912,0.660569,-0.0998391,-0.0133154,
-0.221029,-0.159281,0.545961,-1.81745,-0.185541,0.00840278,0.398587,-0.172747,0.0641341,-0.187411,-0.0469465,0.144242,-0.32002,-0.0258283,0,0,0,0,0,0,0,-0.19499,-0.171433,0.574018,-1.80779,-0.0746455,1.63435,1.18984,-0.122475,0.0183369,-0.151751,0.00268094,-0.389112,-0.0517238,-0.00165716,1.17389,-22.1166,-2.61351,26.5543,-0.121158,2.38305,-0.00996382,0.970991,1.81906,-1.6209,-1.29262,1.62828,0.648137,0.724116,1.15476,0.729443,-0.837834,0.354476,-0.170521,-0.019669,
-0.221721,-0.159032,0.54521,-1.81763,-0.184622,0.00716906,0.398484,-0.17299,0.0622841,-0.187547,-0.046574,0.229713,-0.308431,-0.02576,0,0,0,0,0,0,0,-0.19499,-0.171433,0.574018,-1.80779,-0.0746455,1.63435,1.18984,-0.122475,0.0183369,-0.151751,0.00268094,-0.389112,-0.0517238,-0.00165716,1.17389,-22.1166,-2.61351,26.5543,-0.121158,2.38305,-0.00996382,0.970991,1.81906,-1.6209,-1.29262,1.62828,0.648137,0.724116,1.15476,0.729443,-0.837834,0.354476,-0.170521,-0.019669,
-0.222415,-0.158791,0.544459,-1.81782,-0.183334,0.0059866,0.398381,-0.173323,0.0602357,-0.187756,-0.0462534,0.322129,-0.295616,-0.0257554,0,0,0,0,0,0,0,-0.19499,-0.171433,0.574018,-1.80779,-0.0746455,1.63435,1.18984,-0.122475,0.0183369,-0.151751,0.00268094,-0.389112,-0.0517238,-0.00165716,1.17389,-22.1166,-2.61351,26.5543,-0.121158,2.38305,-0.00996382,0.242374,1.16456,-0.919089,-0.989996,0.960439,0.472421,0.54909,0.752932,0.527433,-0.750474,0.129377,-0.389861,-0.02988,
-0.22311,-0.158559,0.543707,-1.818,-0.181645,0.00486149,0.398277,-0.173737,0.0579785,-0.188029,-0.0460172,0.422126,-0.281276,-0.025839,0,0,0,0,0,0,0,-0.19499,-0.171433,0.574018,-1.80779,-0.0746455,1.63435,1.18984,-0.122475,0.0183369,-0.151751,0.00268094,-0.389112,-0.0517238,-0.00165716,1.17389,-22.1166,-2.61351,26.5543,-0.121158,2.38305,-0.00996382,-1.47182,0.177263,-0.105683,-0.395423,-0.294655,0.313348,0.364142,0.130627,0.32623,-0.696709,-0.000531716,-0.736099,-0.0346363,
-0.223806,-0.158337,0.542954,-1.81819,-0.179525,0.00380147,0.398173,-0.174201,0.0555093,-0.188341,-0.0459095,0.530159,-0.265006,-0.0260358,0,0,0,0,0,0,0,-0.19499,-0.171433,0.574018,-1.80779,-0.0746455,1.63435,1.18984,-0.122475,0.0183369,-0.151751,0.00268094,-0.389112,-0.0517238,-0.00165716,1.17389,-22.1166,-2.61351,26.5543,-0.121158,2.38305,-0.00996382,-1.47182,0.177263,-0.105683,-0.395423,-0.294655,0.313348,0.364142,0.130627,0.32623,-0.696709,-0.000531716,-0.736099,-0.0346363,
-0.224505,-0.158126,0.542199,-1.81837,-0.17694,0.00281637,0.398068,-0.174644,0.0528409,-0.188629,-0.0459871,0.646285,-0.246274,-0.0263853,0,0,0,0,0,0,0,-0.19921,-0.170624,0.568739,-1.80784,-0.0820266,1.63293,1.18984,-0.142445,0.0376788,-0.175985,-0.00174328,-0.0992194,-0.0121111,0.000287653,-0.147213,-23.2393,-3.63707,26.1813,-0.407718,1.5609,-0.0301054,-1.70587,-1.15732,0.466983,0.316289,-0.606319,-0.292964,-0.237437,-0.0452097,-0.327909,-0.680716,-0.274714,-0.943723,-0.0382563,
-0.225193,-0.15792,0.541451,-1.81855,-0.173963,0.00191322,0.397961,-0.172024,0.051525,-0.187049,-0.0455192,0.744194,-0.225789,-0.0265815,0,0,0,0,0,0,0,-0.19921,-0.170624,0.568739,-1.80784,-0.0820266,1.63293,1.18984,-0.142445,0.0376788,-0.175985,-0.00174328,-0.0992194,-0.0121111,0.000287653,-0.147213,-23.2393,-3.63707,26.1813,-0.407718,1.5609,-0.0301054,-1.70587,-1.15732,0.466983,0.316289,-0.606319,-0.292964,-0.237437,-0.0452097,-0.327909,-0.680716,-0.274714,-0.943723,-0.0382563,
-0.225861,-0.157716,0.540719,-1.81873,-0.170686,0.00110672,0.397853,-0.16689,0.0510222,-0.183028,-0.0452714,0.81917,-0.201623,-0.0270876,0,0,0,0,0,0,0,-0.19921,-0.170624,0.568739,-1.80784,-0.0820266,1.63293,1.18984,-0.142445,0.0376788,-0.175985,-0.00174328,-0.0992194,-0.0121111,0.000287653,-0.147213,-23.2393,-3.63707,26.1813,-0.407718,1.5609,-0.0301054,-1.98048,-1.51525,0.442712,0.415796,-0.790593,-0.407492,-0.375173,-0.142691,-0.420102,-0.732756,-0.40928,-0.997055,-0.0440457,
-0.226502,-0.157514,0.54001,-1.81892,-0.167177,0.000420078,0.39774,-0.160409,0.0504524,-0.177148,-0.0459217,0.877204,-0.171662,-0.0282454,0,0,0,0,0,0,0,-0.19921,-0.170624,0.568739,-1.80784,-0.0820266,1.63293,1.18984,-0.142445,0.0376788,-0.175985,-0.00174328,-0.0992194,-0.0121111,0.000287653,-0.147213,-23.2393,-3.63707,26.1813,-0.407718,1.5609,-0.0301054,-1.98048,-1.51525,0.442712,0.415796,-0.790593,-0.407492,-0.375173,-0.142691,-0.420102,-0.732756,-0.40928,-0.997055,-0.0440457,
-0.227114,-0.157316,0.539331,-1.81911,-0.163488,-0.000118764,0.397619,-0.153011,0.049494,-0.169896,-0.0475574,0.922319,-0.13471,-0.0303034,0,0,0,0,0,0,0,-0.19921,-0.170624,0.568739,-1.80784,-0.0820266,1.63293,1.18984,-0.142445,0.0376788,-0.175985,-0.00174328,-0.0992194,-0.0121111,0.000287653,-0.147213,-23.2393,-3.63707,26.1813,-0.407718,1.5609,-0.0301054,-1.55876,-0.577,-0.412713,-0.308546,-0.036693,-0.0622874,-0.0417542,0.37322,0.0195034,-1.15305,-0.291389,-1.07045,-0.0460917,
-0.227694,-0.157124,0.538685,-1.81931,-0.159659,-0.000480518,0.397484,-0.144879,0.048088,-0.161443,-0.0499959,0.957223,-0.0904384,-0.033729,0,0,0,0,0,0,0,-0.204096,-0.169583,0.56312,-1.80786,-0.0798659,1.63248,1.18984,-0.178556,0.0184892,-0.193066,0.000863678,0.168217,-0.00982849,0.00128396,-0.0202602,-22.7672,-3.33556,25.9552,0.159909,1.68725,-0.0703886,0.177903,-1.20264,-1.0832,-0.0126779,1.51534,-0.715042,-0.678366,1.34518,-0.618625,-1.60367,-0.289805,-1.16038,-0.0496195,
-0.228238,-0.156938,0.538079,-1.81952,-0.155725,-0.000641434,0.397327,-0.135954,0.046469,-0.151633,-0.0526329,0.98354,-0.040229,-0.039285,0,0,0,0,0,0,0,-0.204096,-0.169583,0.56312,-1.80786,-0.0798659,1.63248,1.18984,-0.178556,0.0184892,-0.193066,0.000863678,0.168217,-0.00982849,0.00128396,-0.0202602,-22.7672,-3.33556,25.9552,0.159909,1.68725,-0.0703886,0.177903,-1.20264,-1.0832,-0.0126779,1.51534,-0.715042,-0.678366,1.34518,-0.618625,-1.60367,-0.289805,-1.16038,-0.0496195,
-0.228741,-0.156756,0.537519,-1.81973,-0.151718,-0.000599721,0.397139,-0.125788,0.045544,-0.139907,-0.0536684,1.00175,0.0104281,-0.0468998,0,0,0,0,0,0,0,-0.204096,-0.169583,0.56312,-1.80786,-0.0798659,1.63248,1.18984,-0.178556,0.0184892,-0.193066,0.000863678,0.168217,-0.00982849,0.00128396,-0.0202602,-22.7672,-3.33556,25.9552,0.159909,1.68725,-0.0703886,-0.0724194,-2.49083,-0.390174,1.03376,1.03981,-1.26995,-1.23756,1.08713,-1.27675,-1.31585,-0.277073,-1.14034,-0.0532329,
-0.229143,-0.156539,0.537045,-1.81991,-0.1481,-0.000442466,0.397008,-0.100569,0.0542344,-0.118466,-0.0440686,0.904632,0.0393138,-0.032879,0,0,0,0,0,0,0,-0.204096,-0.169583,0.56312,-1.80786,-0.0798659,1.63248,1.18984,-0.178556,0.0184892,-0.193066,0.000863678,0.168217,-0.00982849,0.00128396,-0.0202602,-22.7672,-3.33556,25.9552,0.159909,1.68725,-0.0703886,-0.0724194,-2.49083,-0.390174,1.03376,1.03981,-1.26995,-1.23756,1.08713,-1.27675,-1.31585,-0.277073,-1.14034,-0.0532329,
-0.229486,-0.156317,0.536642,-1.82007,-0.144741,-0.000157348,0.396876,-0.0856523,0.0553884,-0.100828,-0.0413609,0.83962,0.0712795,-0.0329454,0,0,0,0,0,0,0,-0.204096,-0.169583,0.56312,-1.80786,-0.0798659,1.63248,1.18984,-0.178556,0.0184892,-0.193066,0.000863678,0.168217,-0.00982849,0.00128396,-0.0202602,-22.7672,-3.33556,25.9552,0.159909,1.68725,-0.0703886,-0.36084,-2.36979,0.130306,1.15514,0.632695,-1.15203,-1.11589,0.816711,-1.20103,-1.05291,-0.175476,-1.09497,-0.0557114,
-0.229785,-0.156102,0.536291,-1.82023,-0.141561,0.000244432,0.396742,-0.0747029,0.0537101,-0.0878037,-0.040245,0.794917,0.100445,-0.0336107,0,0,0,0,0,0,0,-0.204096,-0.169583,0.56312,-1.80786,-0.0798659,1.63248,1.18984,-0.178556,0.0184892,-0.193066,0.000863678,0.168217,-0.00982849,0.00128396,-0.0202602,-22.7672,-3.33556,25.9552,0.159909,1.68725,-0.0703886,-0.36084,-2.36979,0.130306,1.15514,0.632695,-1.15203,-1.11589,0.816711,-1.20103,-1.05291,-0.175476,-1.09497,-0.0557114,
-0.23005,-0.155899,0.535979,-1.82039,-0.138506,0.000746625,0.396605,-0.066334,0.0509348,-0.0779998,-0.0391529,0.763916,0.125548,-0.0340987,0,0,0,0,0,0,0,-0.209419,-0.1691,0.557036,-1.80808,-0.069264,1.63237,1.18981,-0.167434,0.0180391,-0.195529,-0.00992588,0.436854,0.00331561,-0.00125017,0.840641,-23.3901,-2.41118,26.2567,0.63049,1.93902,-0.0630644,-0.683325,-1.94809,-0.25296,0.922354,0.635658,-0.881882,-0.856068,0.904428,-0.906076,-1.20357,-0.034665,-1.11639,-0.0633344,
-0.230289,-0.155707,0.535697,-1.82054,-0.135536,0.00133368,0.396467,-0.0597912,0.0477762,-0.0704743,-0.0377599,0.742383,0.146764,-0.0344394,0,0,0,0,0,0,0,-0.209419,-0.1691,0.557036,-1.80808,-0.069264,1.63237,1.18981,-0.167434,0.0180391,-0.195529,-0.00992588,0.436854,0.00331561,-0.00125017,0.840641,-23.3901,-2.41118,26.2567,0.63049,1.93902,-0.0630644,-1.68345,-2.28639,-0.229001,1.28142,-0.0433201,-0.84936,-0.843897,0.616347,-0.908365,-1.13804,0.0862328,-1.10804,-0.0602238,
-0.230507,-0.155529,0.535438,-1.82069,-0.132626,0.00199218,0.396329,-0.0545829,0.0445537,-0.0645985,-0.0361031,0.727465,0.164625,-0.0346815,0,0,0,0,0,0,0,-0.209419,-0.1691,0.557036,-1.80808,-0.069264,1.63237,1.18981,-0.167434,0.0180391,-0.195529,-0.00992588,0.436854,0.00331561,-0.00125017,0.840641,-23.3901,-2.41118,26.2567,0.63049,1.93902,-0.0630644,-1.68345,-2.28639,-0.229001,1.28142,-0.0433201,-0.84936,-0.843897,0.616347,-0.908365,-1.13804,0.0862328,-1.10804,-0.0602238,
-0.236526,-0.154065,0.528848,-1.82505,-0.234736,-0.0983297,0.394015,-0.297273,0.136352,-0.325807,-0.118757,-1.19394,-0.676169,-0.0505234,0,0,0,0,0,0,0,-0.209419,-0.1691,0.557036,-1.80808,-0.069264,1.63237,1.18981,-0.167434,0.0180391,-0.195529,-0.00992588,0.436854,0.00331561,-0.00125017,0.840641,-23.3901,-2.41118,26.2567,0.63049,1.93902,-0.0630644,-2.11146,-1.493,-0.204961,0.979161,-0.442522,-0.37568,-0.378793,0.357081,-0.436347,-0.918551,0.284275,-0.929185,-0.0561935,
-0.239399,-0.159804,0.523664,-1.81949,-0.139742,0.0689464,0.396542,-0.160394,0.0420734,-0.177179,-0.06504,-0.106884,0.50594,-0.0443256,0,0,0,0,0,0,0,-0.209419,-0.1691,0.557036,-1.80808,-0.069264,1.63237,1.18981,-0.167434,0.0180391,-0.195529,-0.00992588,0.436854,0.00331561,-0.00125017,0.840641,-23.3901,-2.41118,26.2567,0.63049,1.93902,-0.0630644,-2.11146,-1.493,-0.204961,0.979161,-0.442522,-0.37568,-0.378793,0.357081,-0.436347,-0.918551,0.284275,-0.929185,-0.0561935,
-0.24004,-0.159639,0.522956,-1.81975,-0.140006,0.0710756,0.396366,-0.160134,0.0411308,-0.176869,-0.0649172,-0.0661874,0.532302,-0.0440941,0,0,0,0,0,0,0,-0.215931,-0.167929,0.549225,-1.80832,-0.0537978,1.63215,1.18976,-0.160145,0.0270875,-0.177611,-0.0160669,0.20984,-0.0186098,8.50841e-05,1.78089,-23.2393,-1.41142,26.6772,1.03332,2.90673,-0.0969389,-2.72701,0.858685,-0.477033,-0.265428,-0.867181,0.888758,0.870342,0.0422949,0.891444,-0.69118,0.657721,-0.656998,-0.0588391,
-0.24068,-0.159479,0.52225,-1.82001,-0.140097,0.0733162,0.39619,-0.159936,0.0401955,-0.176607,-0.0648796,-0.0225494,0.560144,-0.0438861,0,0,0,0,0,0,0,-0.215931,-0.167929,0.549225,-1.80832,-0.0537978,1.63215,1.18976,-0.160145,0.0270875,-0.177611,-0.0160669,0.20984,-0.0186098,8.50841e-05,1.78089,-23.2393,-1.41142,26.6772,1.03332,2.90673,-0.0969389,-2.72701,0.858685,-0.477033,-0.265428,-0.867181,0.888758,0.870342,0.0422949,0.891444,-0.69118,0.657721,-0.656998,-0.0588391,
-0.241319,-0.159322,0.521544,-1.82027,-0.139999,0.0756744,0.396015,-0.15981,0.0392577,-0.176397,-0.0649242,0.0244452,0.589546,-0.0437067,0,0,0,0,0,0,0,-0.215931,-0.167929,0.549225,-1.80832,-0.0537978,1.63215,1.18976,-0.160145,0.0270875,-0.177611,-0.0160669,0.20984,-0.0186098,8.50841e-05,1.78089,-23.2393,-1.41142,26.6772,1.03332,2.90673,-0.0969389,-3.18696,4.18943,-0.125859,-2.10286,-1.45594,2.58101,2.55533,-0.540454,2.66877,-0.187699,1.00694,-0.355248,-0.0578272,
-0.241958,-0.159168,0.520839,-1.82053,-0.139698,0.0781567,0.395841,-0.15976,0.0383075,-0.176244,-0.0650485,0.0752696,0.620575,-0.0435604,0,0,0,0,0,0,0,-0.215931,-0.167929,0.549225,-1.80832,-0.0537978,1.63215,1.18976,-0.160145,0.0270875,-0.177611,-0.0160669,0.20984,-0.0186098,8.50841e-05,1.78089,-23.2393,-1.41142,26.6772,1.03332,2.90673,-0.0969389,-1.71792,2.41764,-1.07344,-1.26817,-0.0427369,1.46097,1.42782,0.412757,1.56493,-0.772066,0.784807,-0.470196,-0.0650407,
-0.242597,-0.159019,0.520135,-1.82079,-0.139176,0.0807698,0.395667,-0.159796,0.0373353,-0.176154,-0.0652497,0.13046,0.653276,-0.0434508,0,0,0,0,0,0,0,-0.215931,-0.167929,0.549225,-1.80832,-0.0537978,1.63215,1.18976,-0.160145,0.0270875,-0.177611,-0.0160669,0.20984,-0.0186098,8.50841e-05,1.78089,-23.2393,-1.41142,26.6772,1.03332,2.90673,-0.0969389,-1.71792,2.41764,-1.07344,-1.26817,-0.0427369,1.46097,1.42782,0.412757,1.56493,-0.772066,0.784807,-0.470196,-0.0650407,
-0.243237,-0.158874,0.51943,-1.82105,-0.138413,0.0835205,0.395494,-0.159922,0.036332,-0.17613,-0.0655246,0.190613,0.687663,-0.0433907,0,0,0,0,0,0,0,-0.220643,-0.167349,0.543525,-1.80925,-0.0558086,1.63237,1.18968,-0.134553,0.00870996,-0.172531,-0.0450478,-0.0393981,0.120872,-0.00632044,-0.198788,-23.7154,-3.36333,26.7288,-0.798649,4.31298,-0.0365141,-0.20374,0.380536,-1.3576,-0.339138,1.02794,0.225771,0.240233,1.02456,0.284231,-1.06037,0.326864,-0.542931,-0.075507,
-0.243877,-0.158732,0.518726,-1.82131,-0.137388,0.0864153,0.39532,-0.160143,0.0352892,-0.176175,-0.0658683,0.256386,0.723702,-0.043386,0,0,0,0,0,0,0,-0.220643,-0.167349,0.543525,-1.80925,-0.0558086,1.63237,1.18968,-0.134553,0.00870996,-0.172531,-0.0450478,-0.0393981,0.120872,-0.00632044,-0.198788,-23.7154,-3.36333,26.7288,-0.798649,4.31298,-0.0365141,-0.20374,0.380536,-1.3576,-0.339138,1.02794,0.225771,0.240233,1.02456,0.284231,-1.06037,0.326864,-0.542931,-0.075507,
-0.244519,-0.158596,0.518021,-1.82158,-0.136074,0.0894604,0.395146,-0.160458,0.0342005,-0.176285,-0.0662718,0.328473,0.761291,-0.0434523,0,0,0,0,0,0,0,-0.220643,-0.167349,0.543525,-1.80925,-0.0558086,1.63237,1.18968,-0.134553,0.00870996,-0.172531,-0.0450478,-0.0393981,0.120872,-0.00632044,-0.198788,-23.7154,-3.36333,26.7288,-0.798649,4.31298,-0.0365141,0.598954,-0.281306,-1.14865,0.00780895,1.0237,-0.176119,-0.149257,0.78813,-0.153357,-0.622739,0.0331426,-0.136595,-0.0748778,
-0.245163,-0.158463,0.517315,-1.82185,-0.134444,0.0926613,0.394972,-0.160857,0.0330628,-0.176449,-0.0667195,0.407567,0.800224,-0.0436026,0,0,0,0,0,0,0,-0.220643,-0.167349,0.543525,-1.80925,-0.0558086,1.63237,1.18968,-0.134553,0.00870996,-0.172531,-0.0450478,-0.0393981,0.120872,-0.00632044,-0.198788,-23.7154,-3.36333,26.7288,-0.798649,4.31298,-0.0365141,0.305428,-0.179425,-0.903106,0.158094,0.291217,-0.0138608,-0.0103145,0.207091,-0.0256598,-0.0409017,0.0742279,0.333914,-0.0736496,
-0.245807,-0.158334,0.516609,-1.82211,-0.132468,0.0959943,0.394796,-0.161166,0.0322509,-0.176462,-0.0657708,0.493897,0.83324,-0.0438656,0,0,0,0,0,0,0,-0.220643,-0.167349,0.543525,-1.80925,-0.0558086,1.63237,1.18968,-0.134553,0.00870996,-0.172531,-0.0450478,-0.0393981,0.120872,-0.00632044,-0.198788,-23.7154,-3.36333,26.7288,-0.798649,4.31298,-0.0365141,0.305428,-0.179425,-0.903106,0.158094,0.291217,-0.0138608,-0.0103145,0.207091,-0.0256598,-0.0409017,0.0742279,0.333914,-0.0736496,
-0.246453,-0.158209,0.515903,-1.82236,-0.130116,0.0994298,0.394619,-0.161372,0.0314651,-0.176362,-0.0638015,0.588078,0.858882,-0.044281,0,0,0,0,0,0,0,-0.220643,-0.167349,0.543525,-1.80925,-0.0558086,1.63237,1.18968,-0.134553,0.00870996,-0.172531,-0.0450478,-0.0393981,0.120872,-0.00632044,-0.198788,-23.7154,-3.36333,26.7288,-0.798649,4.31298,-0.0365141,0.61364,-0.58764,-1.30532,0.33623,0.605559,-0.243593,-0.235009,0.423604,-0.255726,-0.177665,0.0147247,0.375374,-0.0831365,
-0.247099,-0.158087,0.515199,-1.82261,-0.127355,0.102947,0.39444,-0.161472,0.0303745,-0.176181,-0.061732,0.690305,0.879244,-0.0448684,0,0,0,0,0,0,0,-0.224836,-0.167152,0.537601,-1.81158,-0.0559601,1.63726,1.18951,-0.135382,0.00953239,-0.18358,-0.0798125,0.0617167,0.22627,-0.00395461,-0.551876,-23.8899,-3.51012,27.1771,-0.95795,4.11431,-0.0630644,0.61364,-0.58764,-1.30532,0.33623,0.605559,-0.243593,-0.235009,0.423604,-0.255726,-0.177665,0.0147247,0.375374,-0.0831365,
-0.247737,-0.157968,0.5145,-1.82285,-0.124221,0.106525,0.394258,-0.159498,0.0298737,-0.174733,-0.0592739,0.783278,0.894662,-0.0453209,0,0,0,0,0,0,0,-0.224836,-0.167152,0.537601,-1.81158,-0.0559601,1.63726,1.18951,-0.135382,0.00953239,-0.18358,-0.0798125,0.0617167,0.22627,-0.00395461,-0.551876,-23.8899,-3.51012,27.1771,-0.95795,4.11431,-0.0630644,1.21517,-2.1976,-1.59726,1.13296,0.972395,-1.09736,-1.09005,0.644623,-1.13279,-0.284999,-0.295629,0.433837,-0.091701,
-0.248355,-0.157847,0.513816,-1.82307,-0.120809,0.110149,0.394075,-0.154578,0.0302331,-0.170892,-0.0566277,0.85303,0.906014,-0.0458185,0,0,0,0,0,0,0,-0.224836,-0.167152,0.537601,-1.81158,-0.0559601,1.63726,1.18951,-0.135382,0.00953239,-0.18358,-0.0798125,0.0617167,0.22627,-0.00395461,-0.551876,-23.8899,-3.51012,27.1771,-0.95795,4.11431,-0.0630644,1.21517,-2.1976,-1.59726,1.13296,0.972395,-1.09736,-1.09005,0.644623,-1.13279,-0.284999,-0.295629,0.433837,-0.091701,
-0.248947,-0.157725,0.513156,-1.82329,-0.117186,0.11381,0.393887,-0.148151,0.0305109,-0.165023,-0.0547561,0.905798,0.915122,-0.0470154,0,0,0,0,0,0,0,-0.224836,-0.167152,0.537601,-1.81158,-0.0559601,1.63726,1.18951,-0.135382,0.00953239,-0.18358,-0.0798125,0.0617167,0.22627,-0.00395461,-0.551876,-23.8899,-3.51012,27.1771,-0.95795,4.11431,-0.0630644,1.03332,-1.87063,-2.14779,0.84016,0.923293,-0.87803,-0.894201,0.612408,-0.865256,-0.336874,-0.316919,0.583284,-0.0979956,
-0.24951,-0.157603,0.512526,-1.82351,-0.113404,0.117501,0.39369,-0.140629,0.0304676,-0.157574,-0.0537663,0.945608,0.922633,-0.0492965,0,0,0,0,0,0,0,-0.224836,-0.167152,0.537601,-1.81158,-0.0559601,1.63726,1.18951,-0.135382,0.00953239,-0.18358,-0.0798125,0.0617167,0.22627,-0.00395461,-0.551876,-23.8899,-3.51012,27.1771,-0.95795,4.11431,-0.0630644,0.915327,-1.14055,-2.90094,0.397826,1.19003,-0.493923,-0.512606,0.865029,-0.439925,-0.595217,-0.134315,0.602916,-0.106095,
-0.250038,-0.157481,0.511931,-1.82372,-0.109504,0.121214,0.393476,-0.132114,0.0303344,-0.148649,-0.0531687,0.975,0.928494,-0.05345,0,0,0,0,0,0,0,-0.229735,-0.167039,0.53192,-1.81431,-0.0495762,1.64796,1.18944,-0.16988,0.00511828,-0.184367,-0.093954,0.314375,0.422984,-0.00517875,-0.0440639,-23.3901,-3.28795,27.923,0.465695,4.18664,-0.103348,0.915327,-1.14055,-2.90094,0.397826,1.19003,-0.493923,-0.512606,0.865029,-0.439925,-0.595217,-0.134315,0.602916,-0.106095,
-0.250526,-0.15735,0.511382,-1.8239,-0.10553,0.124816,0.393236,-0.121789,0.0327775,-0.137226,-0.0448202,0.993449,0.900495,-0.0599666,0,0,0,0,0,0,0,-0.229735,-0.167039,0.53192,-1.81431,-0.0495762,1.64796,1.18944,-0.16988,0.00511828,-0.184367,-0.093954,0.314375,0.422984,-0.00517875,-0.0440639,-23.3901,-3.28795,27.923,0.465695,4.18664,-0.103348,0.293111,-1.67979,-2.06558,0.963736,0.415377,-0.647668,-0.658177,0.401892,-0.682476,-0.228197,-0.0778556,0.621917,-0.112118,
-0.250936,-0.157173,0.510907,-1.82396,-0.101734,0.127971,0.393041,-0.102551,0.0443852,-0.118764,-0.0152195,0.94886,0.788685,-0.0488188,0,0,0,0,0,0,0,-0.229735,-0.167039,0.53192,-1.81431,-0.0495762,1.64796,1.18944,-0.16988,0.00511828,-0.184367,-0.093954,0.314375,0.422984,-0.00517875,-0.0440639,-23.3901,-3.28795,27.923,0.465695,4.18664,-0.103348,0.293111,-1.67979,-2.06558,0.963736,0.415377,-0.647668,-0.658177,0.401892,-0.682476,-0.228197,-0.0778556,0.621917,-0.112118,
-0.251299,-0.156998,0.510484,-1.82399,-0.0980249,0.130845,0.392845,-0.0907384,0.0435628,-0.105736,-0.00842672,0.927398,0.718411,-0.049017,0,0,0,0,0,0,0,-0.229735,-0.167039,0.53192,-1.81431,-0.0495762,1.64796,1.18944,-0.16988,0.00511828,-0.184367,-0.093954,0.314375,0.422984,-0.00517875,-0.0440639,-23.3901,-3.28795,27.923,0.465695,4.18664,-0.103348,0.695028,-1.26055,-1.82313,0.862588,0.634487,-0.521225,-0.52719,0.494448,-0.564426,-0.133442,0.0770179,0.636404,-0.113991,
-0.251627,-0.156841,0.5101,-1.82403,-0.0943579,0.133516,0.392647,-0.0819973,0.0394577,-0.0960503,-0.00880418,0.916741,0.667842,-0.0494767,0,0,0,0,0,0,0,-0.229735,-0.167039,0.53192,-1.81431,-0.0495762,1.64796,1.18944,-0.16988,0.00511828,-0.184367,-0.093954,0.314375,0.422984,-0.00517875,-0.0440639,-23.3901,-3.28795,27.923,0.465695,4.18664,-0.103348,0.695028,-1.26055,-1.82313,0.862588,0.634487,-0.521225,-0.52719,0.494448,-0.564426,-0.133442,0.0770179,0.636404,-0.113991,
-0.251927,-0.156701,0.509747,-1.82407,-0.0907108,0.13603,0.392448,-0.0750599,0.0349921,-0.088399,-0.0111373,0.911778,0.628563,-0.049737,0,0,0,0,0,0,0,-0.229735,-0.167039,0.53192,-1.81431,-0.0495762,1.64796,1.18944,-0.16988,0.00511828,-0.184367,-0.093954,0.314375,0.422984,-0.00517875,-0.0440639,-23.3901,-3.28795,27.923,0.465695,4.18664,-0.103348,1.22686,-0.979012,-2.45084,0.690206,1.40024,-0.482641,-0.479763,1.0501,-0.498197,-0.501602,0.22657,0.534756,-0.117869,
-0.252204,-0.156577,0.509418,-1.82413,-0.0870705,0.138418,0.392248,-0.0693558,0.0310197,-0.082141,-0.01375,0.910066,0.5969,-0.0498892,0,0,0,0,0,0,0,-0.234733,-0.166808,0.526288,-1.81721,-0.0364931,1.66388,1.18935,-0.152674,0.0164613,-0.185345,-0.0731192,0.441224,0.564886,-0.00162256,1.17389,-24.0883,-1.8637,28.6212,1.5039,3.92846,-0.123489,0.223369,-0.92613,-2.07267,0.884759,0.669314,-0.29714,-0.309467,0.712732,-0.350648,-0.370883,0.426837,0.468112,-0.120003,
-0.252463,-0.156466,0.50911,-1.82419,-0.0834294,0.140702,0.392049,-0.0645737,0.0277136,-0.0769199,-0.01615,0.910282,0.570943,-0.049988,0,0,0,0,0,0,0,-0.234733,-0.166808,0.526288,-1.81721,-0.0364931,1.66388,1.18935,-0.152674,0.0164613,-0.185345,-0.0731192,0.441224,0.564886,-0.00162256,1.17389,-24.0883,-1.8637,28.6212,1.5039,3.92846,-0.123489,0.223369,-0.92613,-2.07267,0.884759,0.669314,-0.29714,-0.309467,0.712732,-0.350648,-0.370883,0.426837,0.468112,-0.120003,
-0.24235,-0.155738,0.52059,-1.82277,-0.237206,-0.0498751,0.393021,-0.177642,0.0746496,-0.195673,-0.0934843,-1.17982,-0.157167,-0.0601038,0,0,0,0,0,0,0,-0.234733,-0.166808,0.526288,-1.81721,-0.0364931,1.66388,1.18935,-0.152674,0.0164613,-0.185345,-0.0731192,0.441224,0.564886,-0.00162256,1.17389,-24.0883,-1.8637,28.6212,1.5039,3.92846,-0.123489,0.672312,-0.492005,-1.66065,0.779311,0.861472,-0.168887,-0.182668,0.76365,-0.227118,-0.228355,0.566931,0.464692,-0.119702,
-0.24979,-0.161312,0.509222,-1.82488,-0.099276,0.112551,0.394413,-0.0480472,0.0236595,-0.0561884,-0.0461609,-0.491949,-0.0330095,-0.0556738,0,0,0,0,0,0,0,-0.234733,-0.166808,0.526288,-1.81721,-0.0364931,1.66388,1.18935,-0.152674,0.0164613,-0.185345,-0.0731192,0.441224,0.564886,-0.00162256,1.17389,-24.0883,-1.8637,28.6212,1.5039,3.92846,-0.123489,0.672312,-0.492005,-1.66065,0.779311,0.861472,-0.168887,-0.182668,0.76365,-0.227118,-0.228355,0.566931,0.464692,-0.119702,
-0.249978,-0.161218,0.509001,-1.82506,-0.101321,0.112439,0.394191,-0.0471281,0.0234372,-0.0552572,-0.0461362,-0.511176,-0.0280429,-0.0554416,0,0,0,0,0,0,0,-0.234733,-0.166808,0.526288,-1.81721,-0.0364931,1.66388,1.18935,-0.152674,0.0164613,-0.185345,-0.0731192,0.441224,0.564886,-0.00162256,1.17389,-24.0883,-1.8637,28.6212,1.5039,3.92846,-0.123489,0.99397,0.112438,-1.74885,0.409891,1.16383,0.0740325,0.0599523,0.913883,0.0475915,-0.287117,0.635279,0.444971,-0.123308,
-0.250163,-0.161125,0.508784,-1.82525,-0.103447,0.112347,0.39397,-0.0462248,0.0231995,-0.0543439,-0.0460826,-0.531664,-0.0229325,-0.0552142,0,0,0,0,0,0,0,-0.239324,-0.165755,0.520868,-1.81857,-0.0231932,1.68081,1.18927,-0.148132,0.0381612,-0.169699,-0.0247508,0.38441,0.481771,-0.000782928,1.55078,-24.7627,-1.43523,27.4747,1.22284,3.03307,-0.123489,0.99397,0.112438,-1.74885,0.409891,1.16383,0.0740325,0.0599523,0.913883,0.0475915,-0.287117,0.635279,0.444971,-0.123308,
-0.250344,-0.161033,0.50857,-1.82543,-0.105661,0.112276,0.39375,-0.0453332,0.0229422,-0.0534431,-0.046009,-0.553418,-0.0176875,-0.0549906,0,0,0,0,0,0,0,-0.239324,-0.165755,0.520868,-1.81857,-0.0231932,1.68081,1.18927,-0.148132,0.0381612,-0.169699,-0.0247508,0.38441,0.481771,-0.000782928,1.55078,-24.7627,-1.43523,27.4747,1.22284,3.03307,-0.123489,-0.0749689,2.84388,-1.8463,-1.23148,0.524586,1.58996,1.56441,0.463729,1.65844,-0.190838,0.896151,0.480339,-0.12225,
-0.250522,-0.160943,0.50836,-1.82561,-0.107967,0.112227,0.393531,-0.0444519,0.0226609,-0.052551,-0.0459264,-0.576412,-0.0122912,-0.0547714,0,0,0,0,0,0,0,-0.239324,-0.165755,0.520868,-1.81857,-0.0231932,1.68081,1.18927,-0.148132,0.0381612,-0.169699,-0.0247508,0.38441,0.481771,-0.000782928,1.55078,-24.7627,-1.43523,27.4747,1.22284,3.03307,-0.123489,1.26221,1.93446,-2.16672,-0.793907,1.60651,0.917002,0.907057,1.11517,0.984203,-0.468731,0.762824,0.40869,-0.113777,
-0.250697,-0.160853,0.508153,-1.8258,-0.110369,0.1122,0.393313,-0.043583,0.02235,-0.0516676,-0.0458481,-0.600567,-0.00669315,-0.0545581,0,0,0,0,0,0,0,-0.239324,-0.165755,0.520868,-1.81857,-0.0231932,1.68081,1.18927,-0.148132,0.0381612,-0.169699,-0.0247508,0.38441,0.481771,-0.000782928,1.55078,-24.7627,-1.43523,27.4747,1.22284,3.03307,-0.123489,1.26221,1.93446,-2.16672,-0.793907,1.60651,0.917002,0.907057,1.11517,0.984203,-0.468731,0.762824,0.40869,-0.113777,
-0.250867,-0.160765,0.50795,-1.82598,-0.112872,0.112197,0.393096,-0.0427344,0.0220023,-0.0507968,-0.0457913,-0.62573,-0.000797805,-0.0543498,0,0,0,0,0,0,0,-0.239324,-0.165755,0.520868,-1.81857,-0.0231932,1.68081,1.18927,-0.148132,0.0381612,-0.169699,-0.0247508,0.38441,0.481771,-0.000782928,1.55078,-24.7627,-1.43523,27.4747,1.22284,3.03307,-0.123489,0.206206,1.73702,-1.80576,-0.924105,0.894478,0.970812,0.981241,0.719831,1.03558,-0.532263,0.496071,0.157387,-0.115853,
-0.251035,-0.160679,0.50775,-1.82616,-0.115478,0.112219,0.392879,-0.0419228,0.0216085,-0.0499502,-0.0457786,-0.651622,0.00555013,-0.0541461,0,0,0,0,0,0,0,-0.239324,-0.165755,0.520868,-1.81857,-0.0231932,1.68081,1.18927,-0.148132,0.0381612,-0.169699,-0.0247508,0.38441,0.481771,-0.000782928,1.55078,-24.7627,-1.43523,27.4747,1.22284,3.03307,-0.123489,0.206206,1.73702,-1.80576,-0.924105,0.894478,0.970812,0.981241,0.719831,1.03558,-0.532263,0.496071,0.157387,-0.115853,
-0.2512,-0.160594,0.507554,-1.82635,-0.118189,0.11227,0.392663,-0.0411771,0.0211555,-0.0491501,-0.0458393,-0.677776,0.0125845,-0.0539461,0,0,0,0,0,0,0,-0.243073,-0.16445,0.516498,-1.81836,-0.02933,1.68716,1.18922,-0.0918504,0.0445129,-0.120506,0.00288803,-0.38351,0.178917,-0.0038287,0.689884,-26.0838,-1.81212,25.9552,-1.39099,2.01867,-0.0365141,-1.72528,0.56801,-1.09221,-0.567402,-0.59632,0.672153,0.667709,-0.112546,0.7255,-0.479166,0.00549559,-0.141529,-0.118581,
-0.251362,-0.160512,0.50736,-1.82653,-0.121003,0.112352,0.392448,-0.0405467,0.0206252,-0.0484347,-0.0460117,-0.703441,0.0206408,-0.0537447,0,0,0,0,0,0,0,-0.243073,-0.16445,0.516498,-1.81836,-0.02933,1.68716,1.18922,-0.0918504,0.0445129,-0.120506,0.00288803,-0.38351,0.178917,-0.0038287,0.689884,-26.0838,-1.81212,25.9552,-1.39099,2.01867,-0.0365141,-2.41972,-1.20428,-0.193678,0.29968,-1.37356,-0.12292,-0.141825,-0.576987,-0.111665,-0.341189,-0.434498,-0.358985,-0.121607,
-0.251522,-0.160432,0.507168,-1.82672,-0.123913,0.112473,0.392234,-0.0401093,0.0199921,-0.0478674,-0.0463438,-0.727439,0.030179,-0.0535382,0,0,0,0,0,0,0,-0.243073,-0.16445,0.516498,-1.81836,-0.02933,1.68716,1.18922,-0.0918504,0.0445129,-0.120506,0.00288803,-0.38351,0.178917,-0.0038287,0.689884,-26.0838,-1.81212,25.9552,-1.39099,2.01867,-0.0365141,-2.41972,-1.20428,-0.193678,0.29968,-1.37356,-0.12292,-0.141825,-0.576987,-0.111665,-0.341189,-0.434498,-0.358985,-0.121607,
-0.251682,-0.160355,0.506978,-1.8269,-0.126905,0.11264,0.392021,-0.0399848,0.0192209,-0.0475476,-0.0468924,-0.747964,0.0417994,-0.0533126,0,0,0,0,0,0,0,-0.243073,-0.16445,0.516498,-1.81836,-0.02933,1.68716,1.18922,-0.0918504,0.0445129,-0.120506,0.00288803,-0.38351,0.178917,-0.0038287,0.689884,-26.0838,-1.81212,25.9552,-1.39099,2.01867,-0.0365141,-1.38107,-1.5104,-0.444476,0.236934,-0.448417,-0.459628,-0.468484,-0.0541922,-0.404751,-0.656572,-0.637924,-0.523505,-0.126948,
-0.251844,-0.160282,0.506788,-1.8271,-0.129954,0.112865,0.391809,-0.0403534,0.0182632,-0.0476267,-0.047717,-0.76231,0.0562321,-0.0530525,0,0,0,0,0,0,0,-0.243073,-0.16445,0.516498,-1.81836,-0.02933,1.68716,1.18922,-0.0918504,0.0445129,-0.120506,0.00288803,-0.38351,0.178917,-0.0038287,0.689884,-26.0838,-1.81212,25.9552,-1.39099,2.01867,-0.0365141,-1.38107,-1.5104,-0.444476,0.236934,-0.448417,-0.459628,-0.468484,-0.0541922,-0.404751,-0.656572,-0.637924,-0.523505,-0.126948,
-0.25201,-0.160214,0.506594,-1.82729,-0.13302,0.113162,0.391598,-0.0414752,0.0170544,-0.0483281,-0.0488644,-0.766518,0.074273,-0.0527247,0,0,0,0,0,0,0,-0.245884,-0.162428,0.512347,-1.81844,-0.0491298,1.69488,1.1892,-0.0461719,0.0390745,-0.0803708,0.00795989,-0.510106,0.188485,8.3199e-05,0.689884,-25.3102,-1.9113,25.3601,-1.77643,1.94543,-0.177505,-0.977493,-1.93294,-1.23233,0.129113,0.286843,-0.75503,-0.766053,0.467799,-0.632681,-1.1996,-0.881076,-0.736013,-0.131434,
-0.252185,-0.160152,0.506395,-1.82749,-0.13604,0.113549,0.391389,-0.0437116,0.0155134,-0.0499681,-0.0503399,-0.754986,0.0966297,-0.0522812,0,0,0,0,0,0,0,-0.245884,-0.162428,0.512347,-1.81844,-0.0491298,1.69488,1.1892,-0.0461719,0.0390745,-0.0803708,0.00795989,-0.510106,0.188485,8.3199e-05,0.689884,-25.3102,-1.9113,25.3601,-1.77643,1.94543,-0.177505,-0.977493,-1.93294,-1.23233,0.129113,0.286843,-0.75503,-0.766053,0.467799,-0.632681,-1.1996,-0.881076,-0.736013,-0.131434,
-0.252375,-0.160097,0.506183,-1.8277,-0.138921,0.114043,0.391182,-0.0475355,0.0135427,-0.052973,-0.0520687,-0.720132,0.123679,-0.0516472,0,0,0,0,0,0,0,-0.245884,-0.162428,0.512347,-1.81844,-0.0491298,1.69488,1.1892,-0.0461719,0.0390745,-0.0803708,0.00795989,-0.510106,0.188485,8.3199e-05,0.689884,-25.3102,-1.9113,25.3601,-1.77643,1.94543,-0.177505,-0.978743,-2.9369,-1.79604,0.393279,0.61783,-1.27101,-1.2689,0.773282,-1.13049,-1.63657,-1.1933,-0.941625,-0.137927,
-0.252589,-0.160053,0.505951,-1.82792,-0.14153,0.114664,0.390979,-0.0535183,0.0110323,-0.0578808,-0.0538725,-0.652312,0.155246,-0.0507052,0,0,0,0,0,0,0,-0.245884,-0.162428,0.512347,-1.81844,-0.0491298,1.69488,1.1892,-0.0461719,0.0390745,-0.0803708,0.00795989,-0.510106,0.188485,8.3199e-05,0.689884,-25.3102,-1.9113,25.3601,-1.77643,1.94543,-0.177505,-0.615301,-3.58559,-1.92707,0.705804,0.930585,-1.65826,-1.64559,0.983577,-1.5306,-1.75853,-1.30468,-0.989139,-0.139394,
-0.252838,-0.160022,0.50569,-1.82814,-0.143691,0.115427,0.390782,-0.0622842,0.00785791,-0.0653182,-0.0555099,-0.540196,0.190662,-0.0493033,0,0,0,0,0,0,0,-0.245884,-0.162428,0.512347,-1.81844,-0.0491298,1.69488,1.1892,-0.0461719,0.0390745,-0.0803708,0.00795989,-0.510106,0.188485,8.3199e-05,0.689884,-25.3102,-1.9113,25.3601,-1.77643,1.94543,-0.177505,-0.615301,-3.58559,-1.92707,0.705804,0.930585,-1.65826,-1.64559,0.983577,-1.5306,-1.75853,-1.30468,-0.989139,-0.139394,
-0.253136,-0.160006,0.505386,-1.82837,-0.145176,0.116344,0.390592,-0.0744644,0.00385793,-0.0759627,-0.0568245,-0.371447,0.229306,-0.0475628,0,0,0,0,0,0,0,-0.24661,-0.161475,0.510326,-1.81864,-0.0666109,1.7017,1.18917,-0.0158535,0.0303695,-0.0577044,-0.00696528,-0.547025,0.222513,0.000979762,-0.0440639,-25.8101,-2.83568,26.8796,-1.15296,2.53594,-0.190323,-0.466466,-4.059,-1.45726,0.999443,0.762535,-1.92189,-1.9078,0.805619,-1.8218,-1.54184,-1.41765,-0.945636,-0.141473,
-0.253499,-0.160012,0.505024,-1.8286,-0.145706,0.11743,0.390388,-0.0908237,-0.00127499,-0.0905424,-0.0580033,-0.132455,0.271475,-0.0508873,0,0,0,0,0,0,0,-0.24661,-0.161475,0.510326,-1.81864,-0.0666109,1.7017,1.18917,-0.0158535,0.0303695,-0.0577044,-0.00696528,-0.547025,0.222513,0.000979762,-0.0440639,-25.8101,-2.83568,26.8796,-1.15296,2.53594,-0.190323,-0.466466,-4.059,-1.45726,0.999443,0.762535,-1.92189,-1.9078,0.805619,-1.8218,-1.54184,-1.41765,-0.945636,-0.141473,
-0.253883,-0.160011,0.504625,-1.82881,-0.145534,0.118624,0.390191,-0.0959577,0.000192477,-0.0997125,-0.0527944,0.0430324,0.298518,-0.0494051,0,0,0,0,0,0,0,-0.24661,-0.161475,0.510326,-1.81864,-0.0666109,1.7017,1.18917,-0.0158535,0.0303695,-0.0577044,-0.00696528,-0.547025,0.222513,0.000979762,-0.0440639,-25.8101,-2.83568,26.8796,-1.15296,2.53594,-0.190323,-0.31775,-3.91006,-1.18514,0.909598,0.6931,-1.87021,-1.8557,0.680493,-1.76931,-1.38375,-1.45717,-0.890791,-0.147289,
-0.254271,-0.159997,0.504211,-1.829,-0.144834,0.1199,0.389997,-0.0968965,0.00342466,-0.10353,-0.0471567,0.175068,0.318987,-0.0482712,0,0,0,0,0,0,0,-0.24661,-0.161475,0.510326,-1.81864,-0.0666109,1.7017,1.18917,-0.0158535,0.0303695,-0.0577044,-0.00696528,-0.547025,0.222513,0.000979762,-0.0440639,-25.8101,-2.83568,26.8796,-1.15296,2.53594,-0.190323,-0.31775,-3.91006,-1.18514,0.909598,0.6931,-1.87021,-1.8557,0.680493,-1.76931,-1.38375,-1.45717,-0.890791,-0.147289,
-0.254652,-0.15997,0.503795,-1.82917,-0.14373,0.121243,0.389807,-0.0954311,0.00682559,-0.103957,-0.0426188,0.275962,0.335767,-0.0475407,0,0,0,0,0,0,0,-0.24661,-0.161475,0.510326,-1.81864,-0.0666109,1.7017,1.18917,-0.0158535,0.0303695,-0.0577044,-0.00696528,-0.547025,0.222513,0.000979762,-0.0440639,-25.8101,-2.83568,26.8796,-1.15296,2.53594,-0.190323,0.0170442,-3.50127,-1.45716,0.70445,0.987191,-1.7055,-1.68717,0.840961,-1.59192,-1.41531,-1.36276,-0.806241,-0.151617,
-0.255022,-0.15993,0.503386,-1.82933,-0.142314,0.122643,0.389619,-0.092555,0.00987506,-0.102291,-0.0393125,0.354041,0.349902,-0.0470725,0,0,0,0,0,0,0,-0.24661,-0.161475,0.510326,-1.81864,-0.0666109,1.7017,1.18917,-0.0158535,0.0303695,-0.0577044,-0.00696528,-0.547025,0.222513,0.000979762,-0.0440639,-25.8101,-2.83568,26.8796,-1.15296,2.53594,-0.190323,-1.18688,-3.82681,-1.71839,0.998277,0.29291,-1.66197,-1.64725,0.601743,-1.58555,-1.47602,-1.25648,-0.81421,-0.164659,
-0.255378,-0.159881,0.502988,-1.82947,-0.140653,0.12409,0.389432,-0.0888967,0.0124338,-0.0993798,-0.0370091,0.41516,0.361862,-0.0467746,0,0,0,0,0,0,0,-0.247429,-0.16108,0.508706,-1.81906,-0.078636,1.7086,1.18913,-0.0416328,0.00590534,-0.05596,-0.0160572,-0.188112,0.243346,-0.000586546,-0.424923,-25.6117,-3.56169,26.828,0.514218,2.60186,-0.157364,-1.18688,-3.82681,-1.71839,0.998277,0.29291,-1.66197,-1.64725,0.601743,-1.58555,-1.47602,-1.25648,-0.81421,-0.164659,
-0.255717,-0.159823,0.502605,-1.82962,-0.138799,0.125578,0.389246,-0.0848642,0.0144995,-0.0957816,-0.0354406,0.46352,0.371947,-0.0465893,0,0,0,0,0,0,0,-0.247429,-0.16108,0.508706,-1.81906,-0.078636,1.7086,1.18913,-0.0416328,0.00590534,-0.05596,-0.0160572,-0.188112,0.243346,-0.000586546,-0.424923,-25.6117,-3.56169,26.828,0.514218,2.60186,-0.157364,-1.96746,-3.77833,-1.59332,1.24228,-0.338112,-1.49649,-1.47788,0.306342,-1.48023,-1.28503,-1.0202,-0.704968,-0.164662,
-0.259526,-0.153339,0.498585,-1.8281,-0.213531,-0.0207539,0.39063,-0.130963,0.0859059,-0.144641,-0.0792055,-1.18686,-0.558138,-0.0712584,0,0,0,0,0,0,0,-0.247429,-0.16108,0.508706,-1.81906,-0.078636,1.7086,1.18913,-0.0416328,0.00590534,-0.05596,-0.0160572,-0.188112,0.243346,-0.000586546,-0.424923,-25.6117,-3.56169,26.828,0.514218,2.60186,-0.157364,-1.96746,-3.77833,-1.59332,1.24228,-0.338112,-1.49649,-1.47788,0.306342,-1.48023,-1.28503,-1.0202,-0.704968,-0.164662,
-0.264174,-0.153003,0.489893,-1.82636,-0.142523,0.105652,0.393724,-0.105275,0.0574468,-0.118775,-0.044506,0.274703,-0.19666,-0.052287,0,0,0,0,0,0,0,-0.247429,-0.16108,0.508706,-1.81906,-0.078636,1.7086,1.18913,-0.0416328,0.00590534,-0.05596,-0.0160572,-0.188112,0.243346,-0.000586546,-0.424923,-25.6117,-3.56169,26.828,0.514218,2.60186,-0.157364,-1.30765,-2.76007,-0.515302,1.16797,-0.58064,-1.03045,-0.986647,-0.0749272,-1.10126,-0.487332,-0.631776,-0.30466,-0.174222,
-0.264592,-0.152776,0.489422,-1.82653,-0.141353,0.104828,0.393516,-0.104494,0.0565584,-0.117931,-0.0440375,0.292619,-0.205998,-0.0521527,0,0,0,0,0,0,0,-0.247429,-0.16108,0.508706,-1.81906,-0.078636,1.7086,1.18913,-0.0416328,0.00590534,-0.05596,-0.0160572,-0.188112,0.243346,-0.000586546,-0.424923,-25.6117,-3.56169,26.828,0.514218,2.60186,-0.157364,-0.0746785,-1.11883,-0.277121,0.702195,-0.0377989,-0.347475,-0.270649,0.0757502,-0.463459,-0.032951,-0.0866348,0.0982356,-0.163838,
-0.265008,-0.152554,0.488953,-1.82671,-0.140104,0.103965,0.393308,-0.103815,0.0556033,-0.117187,-0.0435605,0.312229,-0.215737,-0.0520321,0,0,0,0,0,0,0,-0.24934,-0.161096,0.506611,-1.81995,-0.0802873,1.7129,1.18896,-0.0645098,-0.0021233,-0.0787599,-0.0186603,-0.11959,-0.0356742,-0.0117393,-0.476498,-23.8899,-3.56169,26.2567,0.331112,2.97997,-0.083206,-0.0746785,-1.11883,-0.277121,0.702195,-0.0377989,-0.347475,-0.270649,0.0757502,-0.463459,-0.032951,-0.0866348,0.0982356,-0.163838,
-0.265421,-0.152336,0.488487,-1.82688,-0.138769,0.103061,0.3931,-0.103233,0.0545753,-0.116539,-0.0430807,0.333825,-0.225812,-0.0519292,0,0,0,0,0,0,0,-0.24934,-0.161096,0.506611,-1.81995,-0.0802873,1.7129,1.18896,-0.0645098,-0.0021233,-0.0787599,-0.0186603,-0.11959,-0.0356742,-0.0117393,-0.476498,-23.8899,-3.56169,26.2567,0.331112,2.97997,-0.083206,0.0578495,1.11335,-0.555926,-0.34393,0.105502,0.775411,0.855276,0.0972678,0.693497,0.108945,0.400908,0.333499,-0.15445,
-0.265832,-0.152122,0.488023,-1.82705,-0.137338,0.102117,0.392892,-0.102748,0.0534668,-0.115982,-0.0426075,0.357729,-0.236128,-0.0518481,0,0,0,0,0,0,0,-0.24934,-0.161096,0.506611,-1.81995,-0.0802873,1.7129,1.18896,-0.0645098,-0.0021233,-0.0787599,-0.0186603,-0.11959,-0.0356742,-0.0117393,-0.476498,-23.8899,-3.56169,26.2567,0.331112,2.97997,-0.083206,0.0578495,1.11335,-0.555926,-0.34393,0.105502,0.775411,0.855276,0.0972678,0.693497,0.108945,0.400908,0.333499,-0.15445,
-0.266241,-0.151913,0.487561,-1.82722,-0.135801,0.101131,0.392685,-0.102357,0.0522685,-0.115516,-0.0421556,0.384291,-0.246536,-0.0517941,0,0,0,0,0,0,0,-0.24934,-0.161096,0.506611,-1.81995,-0.0802873,1.7129,1.18896,-0.0645098,-0.0021233,-0.0787599,-0.0186603,-0.11959,-0.0356742,-0.0117393,-0.476498,-23.8899,-3.56169,26.2567,0.331112,2.97997,-0.083206,-0.279269,1.49475,-1.15509,-0.593093,0.365204,0.994364,1.04615,0.424697,0.968736,-0.319041,0.555869,0.121485,-0.158553,
-0.266649,-0.151709,0.4871,-1.82738,-0.134145,0.100104,0.392478,-0.102061,0.0509704,-0.115139,-0.0417469,0.413885,-0.256807,-0.0517746,0,0,0,0,0,0,0,-0.24934,-0.161096,0.506611,-1.81995,-0.0802873,1.7129,1.18896,-0.0645098,-0.0021233,-0.0787599,-0.0186603,-0.11959,-0.0356742,-0.0117393,-0.476498,-23.8899,-3.56169,26.2567,0.331112,2.97997,-0.083206,-0.279269,1.49475,-1.15509,-0.593093,0.365204,0.994364,1.04615,0.424697,0.968736,-0.319041,0.555869,0.121485,-0.158553,
-0.267057,-0.151511,0.486641,-1.82755,-0.132357,0.0990372,0.392271,-0.101859,0.0495619,-0.114848,-0.0414148,0.446904,-0.266598,-0.0518008,0,0,0,0,0,0,0,-0.24934,-0.161096,0.506611,-1.81995,-0.0802873,1.7129,1.18896,-0.0645098,-0.0021233,-0.0787599,-0.0186603,-0.11959,-0.0356742,-0.0117393,-0.476498,-23.8899,-3.56169,26.2567,0.331112,2.97997,-0.083206,0.153019,2.15241,-1.60827,-1.04877,1.07376,1.23071,1.28135,0.912151,1.26267,-0.702062,0.664986,-0.0725508,-0.160114,
-0.267464,-0.151318,0.486182,-1.82771,-0.130423,0.0979356,0.392063,-0.101746,0.0480333,-0.11464,-0.0412089,0.483723,-0.275396,-0.0518837,0,0,0,0,0,0,0,-0.251735,-0.161144,0.503364,-1.82004,-0.0840694,1.71011,1.18893,-0.0846273,-0.00448933,-0.110658,0.00603024,-0.0277659,-0.111467,0.000718435,-0.476498,-23.1163,-3.46251,26.3797,2.01019,3.60985,-0.157364,0.153019,2.15241,-1.60827,-1.04877,1.07376,1.23071,1.28135,0.912151,1.26267,-0.702062,0.664986,-0.0725508,-0.160114,
-0.267871,-0.151133,0.485724,-1.82788,-0.128324,0.0968058,0.391855,-0.101711,0.0463783,-0.114503,-0.0412005,0.524645,-0.282449,-0.0520449,0,0,0,0,0,0,0,-0.251735,-0.161144,0.503364,-1.82004,-0.0840694,1.71011,1.18893,-0.0846273,-0.00448933,-0.110658,0.00603024,-0.0277659,-0.111467,0.000718435,-0.476498,-23.1163,-3.46251,26.3797,2.01019,3.60985,-0.157364,1.19523,3.00359,-1.86366,-1.39845,1.91574,1.50773,1.55292,1.37366,1.57128,-0.774638,0.9278,-0.00598983,-0.156187,
-0.268277,-0.150955,0.485267,-1.82805,-0.126045,0.0956591,0.391646,-0.10172,0.0445984,-0.114411,-0.0414908,0.569766,-0.286672,-0.05231,0,0,0,0,0,0,0,-0.251735,-0.161144,0.503364,-1.82004,-0.0840694,1.71011,1.18893,-0.0846273,-0.00448933,-0.110658,0.00603024,-0.0277659,-0.111467,0.000718435,-0.476498,-23.1163,-3.46251,26.3797,2.01019,3.60985,-0.157364,0.864792,3.44608,-1.43239,-1.49406,1.58637,1.76899,1.8147,1.1735,1.81203,-0.619306,1.09165,-0.0380166,-0.155246,
-0.268684,-0.150784,0.484809,-1.82821,-0.12357,0.094513,0.391435,-0.101705,0.0427114,-0.114305,-0.0422161,0.618741,-0.286535,-0.0527165,0,0,0,0,0,0,0,-0.251735,-0.161144,0.503364,-1.82004,-0.0840694,1.71011,1.18893,-0.0846273,-0.00448933,-0.110658,0.00603024,-0.0277659,-0.111467,0.000718435,-0.476498,-23.1163,-3.46251,26.3797,2.01019,3.60985,-0.157364,0.864792,3.44608,-1.43239,-1.49406,1.58637,1.76899,1.8147,1.1735,1.81203,-0.619306,1.09165,-0.0380166,-0.155246,
-0.26909,-0.150621,0.484353,-1.82839,-0.120889,0.0933932,0.391222,-0.10152,0.0407657,-0.114064,-0.0435519,0.670361,-0.279948,-0.0533179,0,0,0,0,0,0,0,-0.251735,-0.161144,0.503364,-1.82004,-0.0840694,1.71011,1.18893,-0.0846273,-0.00448933,-0.110658,0.00603024,-0.0277659,-0.111467,0.000718435,-0.476498,-23.1163,-3.46251,26.3797,2.01019,3.60985,-0.157364,0.33993,3.29206,-1.13151,-1.38779,1.32401,1.73455,1.78975,1.10256,1.7578,-0.715449,1.10548,-0.274536,-0.157077,
-0.269494,-0.150465,0.483899,-1.82857,-0.118001,0.0923365,0.391005,-0.1009,0.0388608,-0.11346,-0.045706,0.721907,-0.264178,-0.0541889,0,0,0,0,0,0,0,-0.255185,-0.161386,0.499279,-1.82004,-0.0836489,1.70606,1.18891,-0.119825,0.00202171,-0.123835,0.00192386,0.0557008,-0.0997064,-0.00106612,0.209842,-23.9891,-2.71269,26.4789,1.04522,2.42974,-0.137222,0.33993,3.29206,-1.13151,-1.38779,1.32401,1.73455,1.78975,1.10256,1.7578,-0.715449,1.10548,-0.274536,-0.157077,
-0.269892,-0.150317,0.483451,-1.82877,-0.114927,0.091393,0.390783,-0.099399,0.0371702,-0.112101,-0.0488945,0.768404,-0.235873,-0.0554369,0,0,0,0,0,0,0,-0.255185,-0.161386,0.499279,-1.82004,-0.0836489,1.70606,1.18891,-0.119825,0.00202171,-0.123835,0.00192386,0.0557008,-0.0997064,-0.00106612,0.209842,-23.9891,-2.71269,26.4789,1.04522,2.42974,-0.137222,0.0773069,2.20146,-0.662484,-0.702839,1.06927,1.20199,1.26103,1.02196,1.17226,-0.702019,1.01173,-0.444863,-0.157265,
-0.270277,-0.150173,0.483013,-1.82898,-0.111719,0.0906277,0.390555,-0.0963785,0.035951,-0.109397,-0.0532918,0.802175,-0.191317,-0.0571852,0,0,0,0,0,0,0,-0.255185,-0.161386,0.499279,-1.82004,-0.0836489,1.70606,1.18891,-0.119825,0.00202171,-0.123835,0.00192386,0.0557008,-0.0997064,-0.00106612,0.209842,-23.9891,-2.71269,26.4789,1.04522,2.42974,-0.137222,0.0773069,2.20146,-0.662484,-0.702839,1.06927,1.20199,1.26103,1.02196,1.17226,-0.702019,1.01173,-0.444863,-0.157265,
-0.270641,-0.150031,0.482595,-1.82922,-0.108466,0.0901199,0.390318,-0.0910452,0.0355346,-0.104596,-0.0589486,0.813192,-0.126958,-0.0590878,0,0,0,0,0,0,0,-0.255185,-0.161386,0.499279,-1.82004,-0.0836489,1.70606,1.18891,-0.119825,0.00202171,-0.123835,0.00192386,0.0557008,-0.0997064,-0.00106612,0.209842,-23.9891,-2.71269,26.4789,1.04522,2.42974,-0.137222,-0.63796,2.0719,-0.50738,-0.640459,0.602799,1.22827,1.27399,0.804518,1.19804,-0.718495,0.988309,-0.553634,-0.163084,
-0.270969,-0.149885,0.482206,-1.82948,-0.105308,0.0899598,0.390107,-0.0820511,0.0363749,-0.0971868,-0.065686,0.7894,-0.0400105,-0.0527231,0,0,0,0,0,0,0,-0.255185,-0.161386,0.499279,-1.82004,-0.0836489,1.70606,1.18891,-0.119825,0.00202171,-0.123835,0.00192386,0.0557008,-0.0997064,-0.00106612,0.209842,-23.9891,-2.71269,26.4789,1.04522,2.42974,-0.137222,-0.360026,2.11807,-0.968876,-0.773207,1.07434,1.20297,1.23059,1.13913,1.22311,-1.00984,0.967972,-0.654117,-0.166781,
-0.271273,-0.149732,0.481847,-1.82974,-0.102217,0.0900642,0.389897,-0.0758232,0.0382733,-0.0898249,-0.0661017,0.772775,0.0260908,-0.0526225,0,0,0,0,0,0,0,-0.255185,-0.161386,0.499279,-1.82004,-0.0836489,1.70606,1.18891,-0.119825,0.00202171,-0.123835,0.00192386,0.0557008,-0.0997064,-0.00106612,0.209842,-23.9891,-2.71269,26.4789,1.04522,2.42974,-0.137222,-0.360026,2.11807,-0.968876,-0.773207,1.07434,1.20297,1.23059,1.13913,1.22311,-1.00984,0.967972,-0.654117,-0.166781,
-0.271556,-0.149573,0.481511,-1.83,-0.0991699,0.0903787,0.389685,-0.0707399,0.0397662,-0.0838752,-0.0642514,0.761815,0.0786223,-0.0529326,0,0,0,0,0,0,0,-0.259117,-0.16131,0.495071,-1.82006,-0.0783825,1.70346,1.18889,-0.130456,0.0128109,-0.143494,3.08957e-05,0.293529,-0.0682602,-0.000987224,1.24927,-24.6874,-1.51061,26.5027,0.141598,2.4627,-0.177505,-1.44348,0.919085,0.0915874,-0.114377,-0.169699,0.745151,0.751238,0.350084,0.714073,-0.598038,0.66804,-0.693738,-0.172937,
-0.271822,-0.149411,0.481195,-1.83025,-0.0961498,0.0908639,0.389472,-0.066573,0.0405485,-0.0791138,-0.0616226,0.755006,0.121302,-0.05321,0,0,0,0,0,0,0,-0.259117,-0.16131,0.495071,-1.82006,-0.0783825,1.70346,1.18889,-0.130456,0.0128109,-0.143494,3.08957e-05,0.293529,-0.0682602,-0.000987224,1.24927,-24.6874,-1.51061,26.5027,0.141598,2.4627,-0.177505,-1.44348,0.919085,0.0915874,-0.114377,-0.169699,0.745151,0.751238,0.350084,0.714073,-0.598038,0.66804,-0.693738,-0.172937,
