PerkyPenguin/Analysis-on-Approximated-Derivatives/Code_and_Data/PaperData/Real_Robot/Scene_1/set_interval/4/trajectory.csv
Commanded Joint 0 Position,Commanded Joint 1 Position,Commanded Joint 2 Position,Commanded Joint 3 Position,Commanded Joint 4 Position,Commanded Joint 5 Position,Commanded Joint 6 Position,Commanded Joint 0 Velocity,Commanded Joint 1 Velocity,Commanded Joint 2 Velocity,Commanded Joint 3 Velocity,Commanded Joint 4 Velocity,Commanded Joint 5 Velocity,Commanded Joint 6 Velocity,Commanded Joint 0 Torque,Commanded Joint 1 Torque,Commanded Joint 2 Torque,Commanded Joint 3 Torque,Commanded Joint 4 Torque,Commanded Joint 5 Torque,Commanded Joint 6 Torque,Actual Joint 0 Position,Actual Joint 1 Position,Actual Joint 2 Position,Actual Joint 3 Position,Actual Joint 4 Position,Actual Joint 5 Position,Actual Joint 6 Position,Actual Joint 0 Velocity,Actual Joint 1 Velocity,Actual Joint 2 Velocity,Actual Joint 3 Velocity,Actual Joint 4 Velocity,Actual Joint 5 Velocity,Actual Joint 6 Velocity,Actual Joint 0 Torque,Actual Joint 1 Torque,Actual Joint 2 Torque,Actual Joint 3 Torque,Actual Joint 4 Torque,Actual Joint 5 Torque,Actual Joint 6 Torque,EE ext force 0,EE ext force 1,EE ext force 2,EE ext force 3,EE ext force 4,EE ext force 5,joint ext torque 0,joint ext torque 1,joint ext torque 2,joint ext torque 3,joint ext torque 4,joint ext torque 5,joint ext torque 6,
0.0130541,-0.196766,-0.332706,-1.6609,-0.0928629,-0.0898667,-0.383147,-0.00149305,0.017986,-0.0113856,-0.151476,0.00279386,0.199709,-0.00218578,0,0,0,0,0,0,0,0.0130498,-0.196821,-0.332613,-1.65936,-0.0928452,1.47893,0.402275,-0.0003784,-0.00329012,-0.000469884,0.000604253,0.00971691,-0.000182701,0.000232589,-0.0202602,-25.4372,1.88936,25.856,0.299984,2.9937,-0.0566557,-1.41378,0.0856348,-0.641473,0.00696214,-0.509847,-0.161594,-0.0565446,-0.0464015,-0.254594,-0.395991,-0.148772,-0.328797,-0.0431508,
0.0130426,-0.196621,-0.332763,-1.66154,-0.0928539,-0.0890392,-0.383156,-0.00287961,0.0363655,-0.0144393,-0.160523,0.00223775,0.206882,-0.00207338,0,0,0,0,0,0,0,0.0130498,-0.196821,-0.332613,-1.65936,-0.0928452,1.47893,0.402275,-0.0003784,-0.00329012,-0.000469884,0.000604253,0.00971691,-0.000182701,0.000232589,-0.0202602,-25.4372,1.88936,25.856,0.299984,2.9937,-0.0566557,-1.5604,0.185105,-0.511545,-0.0913824,-0.677795,-0.141975,-0.0348548,-0.164808,-0.224043,-0.322367,-0.148273,-0.322403,-0.0436439,
0.0130492,-0.196857,-0.332615,-1.65935,-0.0927559,-0.0918661,-0.383123,6.62534e-05,-0.00183137,5.29988e-05,0.000867771,0.00385256,5.05133e-06,1.00855e-05,0,0,0,0,0,0,0,0.0130498,-0.196821,-0.332613,-1.65936,-0.0928452,1.47893,0.402275,-0.0003784,-0.00329012,-0.000469884,0.000604253,0.00971691,-0.000182701,0.000232589,-0.0202602,-25.4372,1.88936,25.856,0.299984,2.9937,-0.0566557,-1.5604,0.185105,-0.511545,-0.0913824,-0.677795,-0.141975,-0.0348548,-0.164808,-0.224043,-0.322367,-0.148273,-0.322403,-0.0436439,
0.0130496,-0.196863,-0.332614,-1.65934,-0.0927435,-0.0918657,-0.383123,9.59962e-05,-0.00162745,9.02807e-05,0.000793641,0.00310913,0.000102355,6.75061e-06,0,0,0,0,0,0,0,0.0130498,-0.196821,-0.332613,-1.65936,-0.0928452,1.47893,0.402275,-0.0003784,-0.00329012,-0.000469884,0.000604253,0.00971691,-0.000182701,0.000232589,-0.0202602,-25.4372,1.88936,25.856,0.299984,2.9937,-0.0566557,-1.30761,0.178164,-0.72674,-0.0435687,-0.401021,-0.0994071,0.00793728,0.0271749,-0.191869,-0.437937,-0.138186,-0.326338,-0.0440093,
0.0130501,-0.196869,-0.332614,-1.65934,-0.0927334,-0.091865,-0.383123,0.000112021,-0.00145231,0.000108805,0.000721861,0.00252322,0.000170536,4.44133e-06,0,0,0,0,0,0,0,0.0130498,-0.196821,-0.332613,-1.65936,-0.0928452,1.47893,0.402275,-0.0003784,-0.00329012,-0.000469884,0.000604253,0.00971691,-0.000182701,0.000232589,-0.0202602,-25.4372,1.88936,25.856,0.299984,2.9937,-0.0566557,-1.30761,0.178164,-0.72674,-0.0435687,-0.401021,-0.0994071,0.00793728,0.0271749,-0.191869,-0.437937,-0.138186,-0.326338,-0.0440093,
0.0130505,-0.196874,-0.332614,-1.65934,-0.0927251,-0.0918642,-0.383123,0.000118781,-0.00130146,0.000114922,0.000655059,0.00205676,0.000212667,2.88976e-06,0,0,0,0,0,0,0,0.0130498,-0.196821,-0.332613,-1.65936,-0.0928452,1.47893,0.402275,-0.0003784,-0.00329012,-0.000469884,0.000604253,0.00971691,-0.000182701,0.000232589,-0.0202602,-25.4372,1.88936,25.856,0.299984,2.9937,-0.0566557,-1.68601,0.164317,-0.877963,-0.0273433,-0.654073,-0.171767,-0.0672908,-0.0997678,-0.262347,-0.429021,-0.150316,-0.307225,-0.0445925,
0.013051,-0.196879,-0.332613,-1.65933,-0.0927184,-0.0918632,-0.383123,0.000119439,-0.00117147,0.000113036,0.000593999,0.00168167,0.000233084,1.88165e-06,0,0,0,0,0,0,0,0.0130551,-0.196917,-0.332606,-1.65967,-0.0928671,1.47937,0.402275,0.000172478,-0.0106038,-0.00057454,-0.0220924,0.00211804,0.0445297,-0.000619346,-0.0956386,-24.3382,1.78621,24.6103,0.465695,3.03948,-0.0227812,-3.01203,0.374594,-1.26106,-0.148469,-1.56832,-0.309318,-0.202286,-0.5718,-0.388229,-0.379551,-0.158733,-0.279395,-0.0450028,
0.0130515,-0.196883,-0.332613,-1.65933,-0.0927129,-0.0918623,-0.383123,0.000116205,-0.00105949,0.000106179,0.000538723,0.00137714,0.000236129,1.25647e-06,0,0,0,0,0,0,0,0.0130551,-0.196917,-0.332606,-1.65967,-0.0928671,1.47937,0.402275,0.000172478,-0.0106038,-0.00057454,-0.0220924,0.00211804,0.0445297,-0.000619346,-0.0956386,-24.3382,1.78621,24.6103,0.465695,3.03948,-0.0227812,-3.01203,0.374594,-1.26106,-0.148469,-1.56832,-0.309318,-0.202286,-0.5718,-0.388229,-0.379551,-0.158733,-0.279395,-0.0450028,
0.0130519,-0.196887,-0.332612,-1.65933,-0.0927084,-0.0918614,-0.383123,0.000110601,-0.00096307,9.64105e-05,0.000488981,0.00112765,0.000225718,8.97669e-07,0,0,0,0,0,0,0,0.0130551,-0.196917,-0.332606,-1.65967,-0.0928671,1.47937,0.402275,0.000172478,-0.0106038,-0.00057454,-0.0220924,0.00211804,0.0445297,-0.000619346,-0.0956386,-24.3382,1.78621,24.6103,0.465695,3.03948,-0.0227812,-0.79564,-0.177074,-1.73563,0.345065,0.303014,-0.164032,-0.0655514,0.557913,-0.301894,-0.806745,-0.153079,-0.251799,-0.0459962,
0.0130523,-0.196891,-0.332612,-1.65933,-0.0927047,-0.0918606,-0.383123,0.000103665,-0.00088006,8.51185e-05,0.0004444,0.000921562,0.000205216,7.21952e-07,0,0,0,0,0,0,0,0.0130551,-0.196917,-0.332606,-1.65967,-0.0928671,1.47937,0.402275,0.000172478,-0.0106038,-0.00057454,-0.0220924,0.00211804,0.0445297,-0.000619346,-0.0956386,-24.3382,1.78621,24.6103,0.465695,3.03948,-0.0227812,-0.79564,-0.177074,-1.73563,0.345065,0.303014,-0.164032,-0.0655514,0.557913,-0.301894,-0.806745,-0.153079,-0.251799,-0.0459962,
0.0130527,-0.196894,-0.332612,-1.65933,-0.0927017,-0.0918599,-0.383123,9.60943e-05,-0.000808606,7.32225e-05,0.000404562,0.000750026,0.000177436,6.70231e-07,0,0,0,0,0,0,0,0.0130551,-0.196917,-0.332606,-1.65967,-0.0928671,1.47937,0.402275,0.000172478,-0.0106038,-0.00057454,-0.0220924,0.00211804,0.0445297,-0.000619346,-0.0956386,-24.3382,1.78621,24.6103,0.465695,3.03948,-0.0227812,-1.44543,0.0439427,-1.0436,0.0699932,-0.489581,-0.182358,-0.0819122,-0.0158657,-0.280709,-0.43569,-0.143449,-0.221195,-0.0434895,
0.0130531,-0.196897,-0.332611,-1.65933,-0.0926993,-0.0918593,-0.383123,8.83517e-05,-0.000747098,6.13198e-05,0.000369042,0.000606279,0.000144677,7.00799e-07,0,0,0,0,0,0,0,0.0130391,-0.196768,-0.332616,-1.65967,-0.09285,1.47964,0.402279,-0.00249428,0.000521241,-0.000485657,0.00246418,0.00613215,-0.00117677,0.000833122,0.134464,-26.0838,1.93696,25.7806,0.349423,3.02666,-0.0630644,-1.44543,0.0439427,-1.0436,0.0699932,-0.489581,-0.182358,-0.0819122,-0.0158657,-0.280709,-0.43569,-0.143449,-0.221195,-0.0434895,
0.0130534,-0.1969,-0.332611,-1.65932,-0.0926973,-0.0918588,-0.383123,8.0735e-05,-0.000694143,4.97858e-05,0.000337429,0.000485092,0.000108789,7.84339e-07,0,0,0,0,0,0,0,0.0130391,-0.196768,-0.332616,-1.65967,-0.09285,1.47964,0.402279,-0.00249428,0.000521241,-0.000485657,0.00246418,0.00613215,-0.00117677,0.000833122,0.134464,-26.0838,1.93696,25.7806,0.349423,3.02666,-0.0630644,-1.15592,-0.0136547,-1.17757,0.121599,-0.206938,-0.156227,-0.0482665,0.16944,-0.268248,-0.525513,-0.159424,-0.224822,-0.0430553,
0.0130537,-0.196902,-0.332611,-1.65932,-0.0926958,-0.0918586,-0.383123,7.343e-05,-0.000648541,3.8845e-05,0.00030933,0.00038238,7.12305e-05,9.00346e-07,0,0,0,0,0,0,0,0.0130391,-0.196768,-0.332616,-1.65967,-0.09285,1.47964,0.402279,-0.00249428,0.000521241,-0.000485657,0.00246418,0.00613215,-0.00117677,0.000833122,0.134464,-26.0838,1.93696,25.7806,0.349423,3.02666,-0.0630644,-1.83982,0.210045,-1.35787,-0.0135176,-0.633697,-0.176232,-0.0637808,-0.0290171,-0.279374,-0.547014,-0.161111,-0.265074,-0.0432208,
0.013054,-0.196905,-0.332611,-1.65932,-0.0926946,-0.0918584,-0.383123,6.65451e-05,-0.000609261,2.86203e-05,0.000284384,0.000294919,3.31347e-05,1.03457e-06,0,0,0,0,0,0,0,0.0130391,-0.196768,-0.332616,-1.65967,-0.09285,1.47964,0.402279,-0.00249428,0.000521241,-0.000485657,0.00246418,0.00613215,-0.00117677,0.000833122,0.134464,-26.0838,1.93696,25.7806,0.349423,3.02666,-0.0630644,-1.83982,0.210045,-1.35787,-0.0135176,-0.633697,-0.176232,-0.0637808,-0.0290171,-0.279374,-0.547014,-0.161111,-0.265074,-0.0432208,
0.0130542,-0.196907,-0.332611,-1.65932,-0.0926937,-0.0918584,-0.383123,6.01369e-05,-0.000575415,1.91662e-05,0.000262257,0.000220143,-4.63779e-06,1.1772e-06,0,0,0,0,0,0,0,0.0130391,-0.196768,-0.332616,-1.65967,-0.09285,1.47964,0.402279,-0.00249428,0.000521241,-0.000485657,0.00246418,0.00613215,-0.00117677,0.000833122,0.134464,-26.0838,1.93696,25.7806,0.349423,3.02666,-0.0630644,-2.16437,0.321286,-0.878346,-0.170196,-1.0773,-0.183366,-0.0703187,-0.363044,-0.262656,-0.313773,-0.155251,-0.251654,-0.0440247,
0.0130544,-0.196909,-0.332611,-1.65932,-0.0926931,-0.0918586,-0.383123,5.42272e-05,-0.000546243,1.04929e-05,0.000242644,0.000155987,-4.1449e-05,1.32157e-06,0,0,0,0,0,0,0,0.0130391,-0.196768,-0.332616,-1.65967,-0.09285,1.47964,0.402279,-0.00249428,0.000521241,-0.000485657,0.00246418,0.00613215,-0.00117677,0.000833122,0.134464,-26.0838,1.93696,25.7806,0.349423,3.02666,-0.0630644,-2.16437,0.321286,-0.878346,-0.170196,-1.0773,-0.183366,-0.0703187,-0.363044,-0.262656,-0.313773,-0.155251,-0.251654,-0.0440247,
0.0130546,-0.196911,-0.332611,-1.65932,-0.0926927,-0.0918589,-0.383123,4.88147e-05,-0.000521092,2.58235e-06,0.000225272,0.000100772,-7.68414e-05,1.46326e-06,0,0,0,0,0,0,0,0.0130462,-0.196735,-0.332614,-1.65961,-0.0928596,1.47965,0.402278,0.000204864,-0.000539005,0.000144216,0.00323451,-0.00906185,0.00393015,0.00106179,0.0313145,-25.7109,1.93696,25.9076,0.440975,3.01293,-0.0566557,-1.58012,0.252989,-0.986761,-0.0765925,-0.564225,-0.111436,-0.00171049,-0.0452572,-0.203937,-0.452008,-0.136668,-0.27705,-0.0441054,
0.0130548,-0.196913,-0.332611,-1.65932,-0.0926925,-0.0918594,-0.383123,4.3884e-05,-0.000499403,-4.60091e-06,0.000209893,5.31276e-05,-0.000110502,1.5994e-06,0,0,0,0,0,0,0,0.0130462,-0.196735,-0.332614,-1.65961,-0.0928596,1.47965,0.402278,0.000204864,-0.000539005,0.000144216,0.00323451,-0.00906185,0.00393015,0.00106179,0.0313145,-25.7109,1.93696,25.9076,0.440975,3.01293,-0.0566557,-1.52164,0.20822,-0.952492,-0.0471611,-0.531587,-0.122065,-0.00745928,-0.0326339,-0.221376,-0.446456,-0.138008,-0.276995,-0.0426992,
0.013055,-0.196915,-0.332611,-1.65932,-0.0926925,-0.0918599,-0.383122,3.94106e-05,-0.000480696,-1.11021e-05,0.000196284,1.19213e-05,-0.000142231,1.72824e-06,0,0,0,0,0,0,0,0.0130462,-0.196735,-0.332614,-1.65961,-0.0928596,1.47965,0.402278,0.000204864,-0.000539005,0.000144216,0.00323451,-0.00906185,0.00393015,0.00106179,0.0313145,-25.7109,1.93696,25.9076,0.440975,3.01293,-0.0566557,-1.52164,0.20822,-0.952492,-0.0471611,-0.531587,-0.122065,-0.00745928,-0.0326339,-0.221376,-0.446456,-0.138008,-0.276995,-0.0426992,
0.0130551,-0.196917,-0.332611,-1.65932,-0.0926926,-0.0918606,-0.383122,3.53654e-05,-0.000464561,-1.69712e-05,0.000184248,-2.37871e-05,-0.000171918,1.84882e-06,0,0,0,0,0,0,0,0.0130462,-0.196735,-0.332614,-1.65961,-0.0928596,1.47965,0.402278,0.000204864,-0.000539005,0.000144216,0.00323451,-0.00906185,0.00393015,0.00106179,0.0313145,-25.7109,1.93696,25.9076,0.440975,3.01293,-0.0566557,-2.36831,0.0598016,-0.571198,-0.0294543,-1.32011,-0.34302,-0.224432,-0.539075,-0.433971,-0.198346,-0.184177,-0.274897,-0.0394283,
0.0130552,-0.196919,-0.332611,-1.65932,-0.0926928,-0.0918614,-0.383122,3.17167e-05,-0.000450644,-2.22596e-05,0.000173606,-5.4784e-05,-0.000199522,1.9607e-06,0,0,0,0,0,0,0,0.0130462,-0.196735,-0.332614,-1.65961,-0.0928596,1.47965,0.402278,0.000204864,-0.000539005,0.000144216,0.00323451,-0.00906185,0.00393015,0.00106179,0.0313145,-25.7109,1.93696,25.9076,0.440975,3.01293,-0.0566557,-2.36831,0.0598016,-0.571198,-0.0294543,-1.32011,-0.34302,-0.224432,-0.539075,-0.433971,-0.198346,-0.184177,-0.274897,-0.0394283,
0.0130553,-0.19692,-0.332611,-1.65932,-0.0926931,-0.0918623,-0.383122,2.84327e-05,-0.000438643,-2.70182e-05,0.000164202,-8.17304e-05,-0.000225051,2.0638e-06,0,0,0,0,0,0,0,0.0130737,-0.196732,-0.33258,-1.6596,-0.0928487,1.47964,0.402282,-0.000180687,-0.00353076,0.00111312,0.00122954,0.00084826,-0.00126881,0.000270473,-0.274166,-25.5602,1.86159,26.106,0.386044,3.23174,-0.0566557,-1.81568,0.232928,-0.696848,-0.115805,-0.836569,-0.168555,-0.0613837,-0.238397,-0.248363,-0.327847,-0.153962,-0.290515,-0.0393489,
0.0130554,-0.196922,-0.332611,-1.65931,-0.0926935,-0.0918633,-0.383122,2.54818e-05,-0.000428297,-3.12956e-05,0.000155894,-0.000105185,-0.000248553,2.15831e-06,0,0,0,0,0,0,0,0.0130737,-0.196732,-0.33258,-1.6596,-0.0928487,1.47964,0.402282,-0.000180687,-0.00353076,0.00111312,0.00122954,0.00084826,-0.00126881,0.000270473,-0.274166,-25.5602,1.86159,26.106,0.386044,3.23174,-0.0566557,-1.71194,0.0851228,-0.729732,-0.00286744,-0.749958,-0.21963,-0.130024,-0.186033,-0.296059,-0.34608,-0.15651,-0.282546,-0.0390611,
0.0130555,-0.196924,-0.332611,-1.65931,-0.092694,-0.0918644,-0.383122,2.2834e-05,-0.000419383,-3.51378e-05,0.000148557,-0.000125622,-0.000270103,2.24456e-06,0,0,0,0,0,0,0,0.0130737,-0.196732,-0.33258,-1.6596,-0.0928487,1.47964,0.402282,-0.000180687,-0.00353076,0.00111312,0.00122954,0.00084826,-0.00126881,0.000270473,-0.274166,-25.5602,1.86159,26.106,0.386044,3.23174,-0.0566557,-1.71194,0.0851228,-0.729732,-0.00286744,-0.749958,-0.21963,-0.130024,-0.186033,-0.296059,-0.34608,-0.15651,-0.282546,-0.0390611,
0.0130556,-0.196925,-0.332612,-1.65931,-0.0926946,-0.0918655,-0.383122,2.04609e-05,-0.000411709,-3.85876e-05,0.000142081,-0.000143446,-0.000289793,2.32299e-06,0,0,0,0,0,0,0,0.0130737,-0.196732,-0.33258,-1.6596,-0.0928487,1.47964,0.402282,-0.000180687,-0.00353076,0.00111312,0.00122954,0.00084826,-0.00126881,0.000270473,-0.274166,-25.5602,1.86159,26.106,0.386044,3.23174,-0.0566557,-1.08983,0.0385438,-0.854316,0.0615008,-0.219928,-0.131256,-0.0547657,0.137055,-0.208651,-0.472803,-0.14406,-0.285501,-0.0398868,
0.0130557,-0.196927,-0.332612,-1.65931,-0.0926952,-0.0918668,-0.383122,1.8336e-05,-0.000405108,-4.16845e-05,0.000136368,-0.000159003,-0.000307729,2.39409e-06,0,0,0,0,0,0,0,0.0130737,-0.196732,-0.33258,-1.6596,-0.0928487,1.47964,0.402282,-0.000180687,-0.00353076,0.00111312,0.00122954,0.00084826,-0.00126881,0.000270473,-0.274166,-25.5602,1.86159,26.106,0.386044,3.23174,-0.0566557,-1.08983,0.0385438,-0.854316,0.0615008,-0.219928,-0.131256,-0.0547657,0.137055,-0.208651,-0.472803,-0.14406,-0.285501,-0.0398868,
0.0130557,-0.196929,-0.332612,-1.65931,-0.0926959,-0.0918681,-0.383122,1.64349e-05,-0.00039944,-4.44644e-05,0.000131329,-0.00017259,-0.000324022,2.45837e-06,0,0,0,0,0,0,0,0.0130737,-0.196732,-0.33258,-1.6596,-0.0928487,1.47964,0.402282,-0.000180687,-0.00353076,0.00111312,0.00122954,0.00084826,-0.00126881,0.000270473,-0.274166,-25.5602,1.86159,26.106,0.386044,3.23174,-0.0566557,-1.20753,0.00407971,-0.613689,0.0465275,-0.398694,-0.168307,-0.0915498,-0.00220597,-0.239702,-0.368344,-0.150716,-0.285229,-0.0398648,
0.0129302,-0.196797,-0.332706,-1.65923,-0.0912692,-0.092787,-0.383122,-0.0112147,0.00163898,-0.0100768,0.0103902,0.175726,-0.104465,0.000364734,0,0,0,0,0,0,0,0.0130579,-0.196779,-0.332553,-1.65956,-0.092844,1.47964,0.402276,0.000241811,-0.00899289,0.000600576,0.00212256,0.00430211,-0.00329437,-0.000739656,-0.0440639,-25.0603,1.93696,25.733,0.343014,3.17864,-0.0227812,-1.20753,0.00407971,-0.613689,0.0465275,-0.398694,-0.168307,-0.0915498,-0.00220597,-0.239702,-0.368344,-0.150716,-0.285229,-0.0398648,
0.0129405,-0.196802,-0.33264,-1.65941,-0.0913163,-0.0920898,-0.383122,-0.011176,-0.00168992,-0.00982227,0.0118561,0.172153,-0.104458,0.00034643,0,0,0,0,0,0,0,0.0130579,-0.196779,-0.332553,-1.65956,-0.092844,1.47964,0.402276,0.000241811,-0.00899289,0.000600576,0.00212256,0.00430211,-0.00329437,-0.000739656,-0.0440639,-25.0603,1.93696,25.733,0.343014,3.17864,-0.0227812,-1.15749,0.0220228,-0.558434,0.0145784,-0.396682,-0.151584,-0.0753232,-0.0164989,-0.217746,-0.334992,-0.154399,-0.266379,-0.0393111,
0.012896,-0.196811,-0.332682,-1.65937,-0.0905047,-0.0925858,-0.38312,-0.0111221,-0.00227908,-0.0105326,0.0100684,0.202881,-0.123985,0.000477445,0,0,0,0,0,0,0,0.0130579,-0.196779,-0.332553,-1.65956,-0.092844,1.47964,0.402276,0.000241811,-0.00899289,0.000600576,0.00212256,0.00430211,-0.00329437,-0.000739656,-0.0440639,-25.0603,1.93696,25.733,0.343014,3.17864,-0.0227812,-1.00524,0.0587432,-0.785238,0.0335329,-0.181929,-0.107422,-0.0313428,0.147191,-0.180777,-0.454427,-0.144753,-0.282621,-0.0397547,
0.0128538,-0.196823,-0.332724,-1.65934,-0.0895987,-0.0931461,-0.383118,-0.0105503,-0.00284959,-0.0104616,0.00834805,0.226519,-0.140084,0.000549339,0,0,0,0,0,0,0,0.0130579,-0.196779,-0.332553,-1.65956,-0.092844,1.47964,0.402276,0.000241811,-0.00899289,0.000600576,0.00212256,0.00430211,-0.00329437,-0.000739656,-0.0440639,-25.0603,1.93696,25.733,0.343014,3.17864,-0.0227812,-1.00524,0.0587432,-0.785238,0.0335329,-0.181929,-0.107422,-0.0313428,0.147191,-0.180777,-0.454427,-0.144753,-0.282621,-0.0397547,
0.0128151,-0.196836,-0.332764,-1.65931,-0.0886192,-0.0937597,-0.383116,-0.0096843,-0.0032936,-0.00990965,0.00684299,0.244859,-0.15341,0.000585551,0,0,0,0,0,0,0,0.0130579,-0.196779,-0.332553,-1.65956,-0.092844,1.47964,0.402276,0.000241811,-0.00899289,0.000600576,0.00212256,0.00430211,-0.00329437,-0.000739656,-0.0440639,-25.0603,1.93696,25.733,0.343014,3.17864,-0.0227812,-1.35753,-0.0404077,-0.386071,0.0639108,-0.6147,-0.214037,-0.138102,-0.168252,-0.283839,-0.255855,-0.13052,-0.276039,-0.041092,
0.0127804,-0.19685,-0.3328,-1.65929,-0.0875825,-0.0944174,-0.383113,-0.00866593,-0.00359406,-0.00907646,0.00556325,0.259187,-0.164415,0.000599165,0,0,0,0,0,0,0,0.0130292,-0.19673,-0.332563,-1.65951,-0.0925206,1.47966,0.402274,-0.00390765,0.00116296,-0.00398063,0.0103716,0.0371708,-0.000744875,-0.000992758,0.233646,-25.7625,2.03615,26.0068,0.893246,2.9937,-0.00996382,-1.35753,-0.0404077,-0.386071,0.0639108,-0.6147,-0.214037,-0.138102,-0.168252,-0.283839,-0.255855,-0.13052,-0.276039,-0.041092,
0.01275,-0.196865,-0.332832,-1.65927,-0.0865007,-0.0951112,-0.383111,-0.00758623,-0.00376385,-0.00809472,0.00448208,0.27044,-0.17346,0.00059831,0,0,0,0,0,0,0,0.0130292,-0.19673,-0.332563,-1.65951,-0.0925206,1.47966,0.402274,-0.00390765,0.00116296,-0.00398063,0.0103716,0.0371708,-0.000744875,-0.000992758,0.233646,-25.7625,2.03615,26.0068,0.893246,2.9937,-0.00996382,-0.750116,-0.0972735,-0.50607,0.190392,-0.119918,-0.129149,-0.0501598,0.122652,-0.224794,-0.375167,-0.0620342,-0.275532,-0.0426875,
0.012724,-0.196881,-0.33286,-1.65926,-0.0853835,-0.0958346,-0.383108,-0.00650334,-0.00382429,-0.00705177,0.00356748,0.27931,-0.180847,0.000588303,0,0,0,0,0,0,0,0.0130292,-0.19673,-0.332563,-1.65951,-0.0925206,1.47966,0.402274,-0.00390765,0.00116296,-0.00398063,0.0103716,0.0371708,-0.000744875,-0.000992758,0.233646,-25.7625,2.03615,26.0068,0.893246,2.9937,-0.00996382,-0.92084,-0.222567,-0.35227,0.324225,-0.327244,-0.214157,-0.124418,-0.0297471,-0.334847,-0.299254,-0.00353882,-0.277921,-0.0428342,
0.0127022,-0.196896,-0.332884,-1.65925,-0.0842382,-0.096582,-0.383106,-0.00545355,-0.00379747,-0.00600409,0.00279089,0.286311,-0.186836,0.000572583,0,0,0,0,0,0,0,0.0130292,-0.19673,-0.332563,-1.65951,-0.0925206,1.47966,0.402274,-0.00390765,0.00116296,-0.00398063,0.0103716,0.0371708,-0.000744875,-0.000992758,0.233646,-25.7625,2.03615,26.0068,0.893246,2.9937,-0.00996382,-0.92084,-0.222567,-0.35227,0.324225,-0.327244,-0.214157,-0.124418,-0.0297471,-0.334847,-0.299254,-0.00353882,-0.277921,-0.0428342,
0.0126844,-0.196911,-0.332904,-1.65924,-0.0830709,-0.0973486,-0.383104,-0.0044585,-0.00370361,-0.00498717,0.00212881,0.291831,-0.191649,0.000553624,0,0,0,0,0,0,0,0.0130292,-0.19673,-0.332563,-1.65951,-0.0925206,1.47966,0.402274,-0.00390765,0.00116296,-0.00398063,0.0103716,0.0371708,-0.000744875,-0.000992758,0.233646,-25.7625,2.03615,26.0068,0.893246,2.9937,-0.00996382,-1.17028,-0.436855,-0.260631,0.505394,-0.557211,-0.354022,-0.253912,-0.178757,-0.501776,-0.242911,0.0197624,-0.285469,-0.0425099,
0.0126703,-0.196925,-0.33292,-1.65923,-0.0818863,-0.0981305,-0.383102,-0.00353002,-0.00356015,-0.00402223,0.00156232,0.296165,-0.195475,0.000533091,0,0,0,0,0,0,0,0.0130044,-0.196703,-0.3326,-1.65952,-0.0900397,1.47962,0.402279,0.000670115,0.000899888,-7.49849e-05,-0.0013722,0.102918,0.000759968,-0.000679084,0.309024,-25.9847,2.23848,26.2805,1.32629,2.93328,-0.0227812,-1.17028,-0.436855,-0.260631,0.505394,-0.557211,-0.354022,-0.253912,-0.178757,-0.501776,-0.242911,0.0197624,-0.285469,-0.0425099,
0.0126596,-0.196939,-0.332933,-1.65923,-0.0806881,-0.0989244,-0.3831,-0.00267342,-0.00338172,-0.00312093,0.00107624,0.299536,-0.198474,0.000512006,0,0,0,0,0,0,0,0.0130044,-0.196703,-0.3326,-1.65952,-0.0900397,1.47962,0.402279,0.000670115,0.000899888,-7.49849e-05,-0.0013722,0.102918,0.000759968,-0.000679084,0.309024,-25.9847,2.23848,26.2805,1.32629,2.93328,-0.0227812,-0.74365,-0.157403,-0.443629,0.423405,-0.173844,-0.15066,-0.050716,0.0624182,-0.304906,-0.37951,0.130199,-0.303792,-0.0430727,
0.012652,-0.196951,-0.332942,-1.65923,-0.0794796,-0.0997275,-0.383098,-0.00188979,-0.00318027,-0.00228855,0.000658311,0.302122,-0.200783,0.000491008,0,0,0,0,0,0,0,0.0130044,-0.196703,-0.3326,-1.65952,-0.0900397,1.47962,0.402279,0.000670115,0.000899888,-7.49849e-05,-0.0013722,0.102918,0.000759968,-0.000679084,0.309024,-25.9847,2.23848,26.2805,1.32629,2.93328,-0.0227812,-1.03277,0.00966199,-0.136863,0.31363,-0.526011,-0.12691,-0.0237469,-0.193005,-0.273091,-0.234652,0.196925,-0.310993,-0.0421986,
0.0126473,-0.196963,-0.332948,-1.65922,-0.0782634,-0.100538,-0.383096,-0.00117754,-0.0029654,-0.00152621,0.000298566,0.304058,-0.202515,0.000470702,0,0,0,0,0,0,0,0.0130044,-0.196703,-0.3326,-1.65952,-0.0900397,1.47962,0.402279,0.000670115,0.000899888,-7.49849e-05,-0.0013722,0.102918,0.000759968,-0.000679084,0.309024,-25.9847,2.23848,26.2805,1.32629,2.93328,-0.0227812,-1.03277,0.00966199,-0.136863,0.31363,-0.526011,-0.12691,-0.0237469,-0.193005,-0.273091,-0.234652,0.196925,-0.310993,-0.0421986,
0.0126452,-0.196974,-0.332952,-1.65922,-0.0770416,-0.101353,-0.383094,-0.00053338,-0.00274467,-0.000832408,-1.12034e-05,0.305454,-0.203766,0.000451112,0,0,0,0,0,0,0,0.0130044,-0.196703,-0.3326,-1.65952,-0.0900397,1.47962,0.402279,0.000670115,0.000899888,-7.49849e-05,-0.0013722,0.102918,0.000759968,-0.000679084,0.309024,-25.9847,2.23848,26.2805,1.32629,2.93328,-0.0227812,-0.834985,-0.0198026,-0.0705694,0.396652,-0.401185,-0.105233,-0.00416458,-0.134871,-0.264426,-0.251745,0.265166,-0.32878,-0.0421942,
0.0126454,-0.196984,-0.332952,-1.65923,-0.075816,-0.102171,-0.383092,4.68594e-05,-0.00252392,-0.000204027,-0.00027781,0.306398,-0.204616,0.000432637,0,0,0,0,0,0,0,0.0130044,-0.196703,-0.3326,-1.65952,-0.0900397,1.47962,0.402279,0.000670115,0.000899888,-7.49849e-05,-0.0013722,0.102918,0.000759968,-0.000679084,0.309024,-25.9847,2.23848,26.2805,1.32629,2.93328,-0.0227812,-0.834985,-0.0198026,-0.0705694,0.396652,-0.401185,-0.105233,-0.00416458,-0.134871,-0.264426,-0.251745,0.265166,-0.32878,-0.0421942,
0.0126476,-0.196993,-0.332951,-1.65923,-0.0745882,-0.102992,-0.383091,0.000567809,-0.00230755,0.000362971,-0.000506965,0.306958,-0.205133,0.000415254,0,0,0,0,0,0,0,0.0129875,-0.196725,-0.332625,-1.6595,-0.0866895,1.47956,0.402279,0.00226637,0.00261134,-0.000406207,-0.00124962,0.120718,-0.00611215,-0.00085154,0.412174,-25.7109,2.33766,25.983,1.31439,2.74102,-0.0163725,-0.664381,0.359535,-0.0228094,0.211788,-0.275534,0.0946254,0.192751,-0.065081,-0.0546353,-0.297563,0.37642,-0.375146,-0.0408078,
0.0126518,-0.197002,-0.332947,-1.65923,-0.0733594,-0.103813,-0.383089,0.00103425,-0.00209879,0.000873058,-0.000703496,0.307194,-0.205372,0.000398992,0,0,0,0,0,0,0,0.0129875,-0.196725,-0.332625,-1.6595,-0.0866895,1.47956,0.402279,0.00226637,0.00261134,-0.000406207,-0.00124962,0.120718,-0.00611215,-0.00085154,0.412174,-25.7109,2.33766,25.983,1.31439,2.74102,-0.0163725,-0.782261,0.308194,0.063727,0.268867,-0.385414,0.0496382,0.150607,-0.136447,-0.108738,-0.273374,0.399276,-0.397817,-0.0395589,
0.0126576,-0.197009,-0.332942,-1.65923,-0.0721308,-0.104635,-0.383088,0.00145092,-0.00189994,0.00133083,-0.000871516,0.307153,-0.205379,0.000383808,0,0,0,0,0,0,0,0.0129875,-0.196725,-0.332625,-1.6595,-0.0866895,1.47956,0.402279,0.00226637,0.00261134,-0.000406207,-0.00124962,0.120718,-0.00611215,-0.00085154,0.412174,-25.7109,2.33766,25.983,1.31439,2.74102,-0.0163725,-0.782261,0.308194,0.063727,0.268867,-0.385414,0.0496382,0.150607,-0.136447,-0.108738,-0.273374,0.399276,-0.397817,-0.0395589,
0.0126649,-0.197016,-0.332935,-1.65924,-0.0709033,-0.105455,-0.383086,0.00182236,-0.00171251,0.00174085,-0.00101455,0.306874,-0.205193,0.000369671,0,0,0,0,0,0,0,0.0129875,-0.196725,-0.332625,-1.6595,-0.0866895,1.47956,0.402279,0.00226637,0.00261134,-0.000406207,-0.00124962,0.120718,-0.00611215,-0.00085154,0.412174,-25.7109,2.33766,25.983,1.31439,2.74102,-0.0163725,-0.463234,0.229684,-0.0303227,0.391784,-0.0770384,0.0702631,0.164748,0.0648536,-0.10239,-0.387469,0.437801,-0.437177,-0.0399366,
0.0126735,-0.197022,-0.332927,-1.65924,-0.0696777,-0.106275,-0.383085,0.00215282,-0.00153743,0.00210749,-0.00113563,0.30639,-0.204846,0.000356556,0,0,0,0,0,0,0,0.0129875,-0.196725,-0.332625,-1.6595,-0.0866895,1.47956,0.402279,0.00226637,0.00261134,-0.000406207,-0.00124962,0.120718,-0.00611215,-0.00085154,0.412174,-25.7109,2.33766,25.983,1.31439,2.74102,-0.0163725,-0.463234,0.229684,-0.0303227,0.391784,-0.0770384,0.0702631,0.164748,0.0648536,-0.10239,-0.387469,0.437801,-0.437177,-0.0399366,
0.0126833,-0.197028,-0.332917,-1.65925,-0.0684548,-0.107092,-0.383083,0.00244632,-0.00137515,0.00243486,-0.00123738,0.305729,-0.204366,0.000344289,0,0,0,0,0,0,0,0.0130323,-0.196741,-0.332557,-1.65949,-0.0818267,1.47936,0.402281,-0.00037231,-0.00217152,0.00113769,0.000721345,0.129329,-0.00710922,0.000495571,-0.0440639,-25.5364,1.81398,25.9076,1.12487,2.72179,-0.050247,-1.00675,0.150041,0.197993,0.434389,-0.55088,-0.0642097,0.0264991,-0.227963,-0.233453,-0.271801,0.439883,-0.473361,-0.0387894,
0.0126941,-0.197033,-0.332906,-1.65925,-0.0672351,-0.107907,-0.383082,0.00270651,-0.0012258,0.00272681,-0.0013221,0.304915,-0.203773,0.000332912,0,0,0,0,0,0,0,0.0130323,-0.196741,-0.332557,-1.65949,-0.0818267,1.47936,0.402281,-0.00037231,-0.00217152,0.00113769,0.000721345,0.129329,-0.00710922,0.000495571,-0.0440639,-25.5364,1.81398,25.9076,1.12487,2.72179,-0.050247,-0.688995,0.0337465,0.122575,0.53841,-0.257332,-0.0609005,0.0205624,-0.04048,-0.23556,-0.358503,0.437802,-0.491711,-0.03931,
0.0127058,-0.197037,-0.332894,-1.65926,-0.0660193,-0.10872,-0.383081,0.00293676,-0.00108919,0.00298685,-0.00139177,0.303969,-0.203088,0.000322326,0,0,0,0,0,0,0,0.0130323,-0.196741,-0.332557,-1.65949,-0.0818267,1.47936,0.402281,-0.00037231,-0.00217152,0.00113769,0.000721345,0.129329,-0.00710922,0.000495571,-0.0440639,-25.5364,1.81398,25.9076,1.12487,2.72179,-0.050247,-0.688995,0.0337465,0.122575,0.53841,-0.257332,-0.0609005,0.0205624,-0.04048,-0.23556,-0.358503,0.437802,-0.491711,-0.03931,
0.0127184,-0.197041,-0.332881,-1.65926,-0.0648076,-0.109529,-0.383079,0.00314014,-0.000964978,0.00321821,-0.00144816,0.302906,-0.202324,0.000312464,0,0,0,0,0,0,0,0.0130323,-0.196741,-0.332557,-1.65949,-0.0818267,1.47936,0.402281,-0.00037231,-0.00217152,0.00113769,0.000721345,0.129329,-0.00710922,0.000495571,-0.0440639,-25.5364,1.81398,25.9076,1.12487,2.72179,-0.050247,-0.621578,-0.179895,0.119462,0.700408,-0.171964,-0.147428,-0.0739813,0.0217851,-0.331539,-0.398539,0.423266,-0.520575,-0.0384471,
0.0127317,-0.197044,-0.332868,-1.65927,-0.0636007,-0.110335,-0.383078,0.00331942,-0.00085266,0.00342384,-0.00149279,0.301743,-0.201495,0.000303256,0,0,0,0,0,0,0,0.0130323,-0.196741,-0.332557,-1.65949,-0.0818267,1.47936,0.402281,-0.00037231,-0.00217152,0.00113769,0.000721345,0.129329,-0.00710922,0.000495571,-0.0440639,-25.5364,1.81398,25.9076,1.12487,2.72179,-0.050247,-0.658377,-0.0263772,0.225345,0.549792,-0.231133,-0.0848555,-0.0219916,-0.0231364,-0.241628,-0.356431,0.40905,-0.523364,-0.0392543,
0.0127456,-0.197047,-0.332853,-1.65928,-0.0623987,-0.111137,-0.383077,0.00347712,-0.000751645,0.0036064,-0.00152701,0.300492,-0.200612,0.000294649,0,0,0,0,0,0,0,0.013045,-0.196735,-0.332533,-1.65949,-0.0776864,1.47924,0.402283,-0.000902185,0.0021493,0.00335663,-0.000365796,0.139393,-0.00652404,0.00116009,-0.0440639,-25.6117,1.86159,25.9076,1.35101,2.62841,-0.0566557,-0.658377,-0.0263772,0.225345,0.549792,-0.231133,-0.0848555,-0.0219916,-0.0231364,-0.241628,-0.356431,0.40905,-0.523364,-0.0392543,
0.012768,-0.196704,-0.332755,-1.65909,-0.0882408,-0.0949357,-0.383092,-0.0265367,0.00343527,-0.0219824,0.0369117,0.52508,-0.422303,0.00328958,0,0,0,0,0,0,0,0.013045,-0.196735,-0.332533,-1.65949,-0.0776864,1.47924,0.402283,-0.000902185,0.0021493,0.00335663,-0.000365796,0.139393,-0.00652404,0.00116009,-0.0440639,-25.6117,1.86159,25.9076,1.35101,2.62841,-0.0566557,-0.626018,-0.0408469,0.162467,0.569288,-0.153708,-0.0857641,-0.0316771,0.0439177,-0.238142,-0.411304,0.400401,-0.550465,-0.039947,
0.0128197,-0.196584,-0.332684,-1.6591,-0.0720835,-0.0951599,-0.383087,-0.0204803,0.00901346,-0.0165883,0.030905,0.589598,-0.402983,0.00307347,0,0,0,0,0,0,0,0.013045,-0.196735,-0.332533,-1.65949,-0.0776864,1.47924,0.402283,-0.000902185,0.0021493,0.00335663,-0.000365796,0.139393,-0.00652404,0.00116009,-0.0440639,-25.6117,1.86159,25.9076,1.35101,2.62841,-0.0566557,-0.626018,-0.0408469,0.162467,0.569288,-0.153708,-0.0857641,-0.0316771,0.0439177,-0.238142,-0.411304,0.400401,-0.550465,-0.039947,
0.0127435,-0.196567,-0.33275,-1.659,-0.069376,-0.0970601,-0.383073,-0.019052,0.0041753,-0.0166721,0.0246816,0.676869,-0.47506,0.00336005,0,0,0,0,0,0,0,0.013045,-0.196735,-0.332533,-1.65949,-0.0776864,1.47924,0.402283,-0.000902185,0.0021493,0.00335663,-0.000365796,0.139393,-0.00652404,0.00116009,-0.0440639,-25.6117,1.86159,25.9076,1.35101,2.62841,-0.0566557,-1.06283,-0.15467,0.345989,0.599168,-0.546327,-0.213699,-0.160141,-0.203117,-0.360946,-0.294487,0.364464,-0.55464,-0.0403881,
0.0126772,-0.196566,-0.332811,-1.65892,-0.0663921,-0.0991883,-0.383059,-0.0165833,0.000181105,-0.0151912,0.0186979,0.745977,-0.53203,0.00351195,0,0,0,0,0,0,0,0.013045,-0.196735,-0.332533,-1.65949,-0.0776864,1.47924,0.402283,-0.000902185,0.0021493,0.00335663,-0.000365796,0.139393,-0.00652404,0.00116009,-0.0440639,-25.6117,1.86159,25.9076,1.35101,2.62841,-0.0566557,-1.06283,-0.15467,0.345989,0.599168,-0.546327,-0.213699,-0.160141,-0.203117,-0.360946,-0.294487,0.364464,-0.55464,-0.0403881,
0.0126229,-0.196578,-0.332862,-1.65887,-0.0631871,-0.101497,-0.383045,-0.0135702,-0.00282495,-0.0127852,0.01346,0.801259,-0.577102,0.0035835,0,0,0,0,0,0,0,0.013045,-0.196735,-0.332533,-1.65949,-0.0776864,1.47924,0.402283,-0.000902185,0.0021493,0.00335663,-0.000365796,0.139393,-0.00652404,0.00116009,-0.0440639,-25.6117,1.86159,25.9076,1.35101,2.62841,-0.0566557,-0.890473,-0.15077,0.59031,0.554988,-0.505774,-0.17974,-0.132188,-0.219025,-0.314105,-0.219914,0.362857,-0.549766,-0.0418569,
0.0125816,-0.196597,-0.332902,-1.65883,-0.0598036,-0.103947,-0.38303,-0.0103171,-0.00494045,-0.00987342,0.00901261,0.845875,-0.612552,0.00360376,0,0,0,0,0,0,0,0.013021,-0.196684,-0.332542,-1.65947,-0.0720966,1.4789,0.402282,-0.00380468,0.00648663,-0.00102547,0.000480371,0.234267,-0.0317368,0.000797312,0.134464,-26.1354,1.91316,26.5781,1.62567,2.40319,-0.050247,-0.485243,-0.635343,0.860511,0.886377,-0.275543,-0.324909,-0.277675,-0.125871,-0.48968,-0.185841,0.350941,-0.562343,-0.0426183,
0.0125536,-0.196623,-0.332929,-1.65881,-0.0562749,-0.106507,-0.383016,-0.00701549,-0.00632068,-0.00673158,0.00527219,0.882168,-0.640144,0.00359022,0,0,0,0,0,0,0,0.013021,-0.196684,-0.332542,-1.65947,-0.0720966,1.4789,0.402282,-0.00380468,0.00648663,-0.00102547,0.000480371,0.234267,-0.0317368,0.000797312,0.134464,-26.1354,1.91316,26.5781,1.62567,2.40319,-0.050247,-0.485243,-0.635343,0.860511,0.886377,-0.275543,-0.324909,-0.277675,-0.125871,-0.48968,-0.185841,0.350941,-0.562343,-0.0426183,
0.0125384,-0.196651,-0.332943,-1.6588,-0.0526273,-0.109153,-0.383002,-0.00378544,-0.00711895,-0.00353976,0.00213268,0.911897,-0.6613,0.00355425,0,0,0,0,0,0,0,0.013021,-0.196684,-0.332542,-1.65947,-0.0720966,1.4789,0.402282,-0.00380468,0.00648663,-0.00102547,0.000480371,0.234267,-0.0317368,0.000797312,0.134464,-26.1354,1.91316,26.5781,1.62567,2.40319,-0.050247,-0.348992,-0.935199,1.12725,1.1481,-0.239329,-0.430478,-0.366007,-0.138182,-0.639358,-0.154379,0.402059,-0.611074,-0.0433744,
0.0125356,-0.196681,-0.332945,-1.6588,-0.0488817,-0.111861,-0.382988,-0.000700364,-0.00746919,-0.000413088,-0.000503738,0.936396,-0.677186,0.00350405,0,0,0,0,0,0,0,0.013021,-0.196684,-0.332542,-1.65947,-0.0720966,1.4789,0.402282,-0.00380468,0.00648663,-0.00102547,0.000480371,0.234267,-0.0317368,0.000797312,0.134464,-26.1354,1.91316,26.5781,1.62567,2.40319,-0.050247,-0.348992,-0.935199,1.12725,1.1481,-0.239329,-0.430478,-0.366007,-0.138182,-0.639358,-0.154379,0.402059,-0.611074,-0.0433744,
0.0125444,-0.196711,-0.332934,-1.65881,-0.045055,-0.114616,-0.382974,0.00219751,-0.00748273,0.00257731,-0.00271985,0.95669,-0.688758,0.00344424,0,0,0,0,0,0,0,0.013021,-0.196684,-0.332542,-1.65947,-0.0720966,1.4789,0.402282,-0.00380468,0.00648663,-0.00102547,0.000480371,0.234267,-0.0317368,0.000797312,0.134464,-26.1354,1.91316,26.5781,1.62567,2.40319,-0.050247,0.0216877,-0.510883,1.05978,1.00569,0.136405,-0.164265,-0.0769465,0.112601,-0.39793,-0.336056,0.55111,-0.726499,-0.0445331,
0.0125639,-0.19674,-0.332913,-1.65883,-0.0411607,-0.117404,-0.38296,0.00488672,-0.00724991,0.00539025,-0.00458402,0.973568,-0.696806,0.00337929,0,0,0,0,0,0,0,0.0128038,-0.196676,-0.332851,-1.65931,-0.0599487,1.47667,0.402277,-0.00853171,-0.00157163,-0.0111442,0.0009584,0.470672,-0.0986399,-0.00196289,0.94379,-25.8617,2.5876,25.9314,1.94976,2.03881,-0.0026396,0.0216877,-0.510883,1.05978,1.00569,0.136405,-0.164265,-0.0769465,0.112601,-0.39793,-0.336056,0.55111,-0.726499,-0.0445331,
0.0125934,-0.196767,-0.332881,-1.65886,-0.0372101,-0.120212,-0.382947,0.00735963,-0.00684273,0.00800462,-0.0061521,0.987648,-0.701977,0.00331135,0,0,0,0,0,0,0,0.0128038,-0.196676,-0.332851,-1.65931,-0.0599487,1.47667,0.402277,-0.00853171,-0.00157163,-0.0111442,0.0009584,0.470672,-0.0986399,-0.00196289,0.94379,-25.8617,2.5876,25.9314,1.94976,2.03881,-0.0026396,-0.47994,-0.246788,1.48681,0.834497,-0.377635,-0.126157,-0.0206109,-0.234522,-0.358999,-0.175102,0.631468,-0.789103,-0.0447573,
0.0126319,-0.196793,-0.332839,-1.65889,-0.0332124,-0.123031,-0.382934,0.00961754,-0.0063179,0.0104127,-0.00747003,0.999417,-0.704803,0.00324262,0,0,0,0,0,0,0,0.0128038,-0.196676,-0.332851,-1.65931,-0.0599487,1.47667,0.402277,-0.00853171,-0.00157163,-0.0111442,0.0009584,0.470672,-0.0986399,-0.00196289,0.94379,-25.8617,2.5876,25.9314,1.94976,2.03881,-0.0026396,-0.280992,-0.262496,1.77329,0.884061,-0.320535,-0.091136,0.0279001,-0.245079,-0.34482,-0.125682,0.703401,-0.821998,-0.04433,
0.0126785,-0.196815,-0.332789,-1.65892,-0.0291754,-0.125854,-0.382922,0.0116675,-0.00571946,0.0126157,-0.00857552,1.00926,-0.705722,0.00317385,0,0,0,0,0,0,0,0.0128038,-0.196676,-0.332851,-1.65931,-0.0599487,1.47667,0.402277,-0.00853171,-0.00157163,-0.0111442,0.0009584,0.470672,-0.0986399,-0.00196289,0.94379,-25.8617,2.5876,25.9314,1.94976,2.03881,-0.0026396,-0.280992,-0.262496,1.77329,0.884061,-0.320535,-0.091136,0.0279001,-0.245079,-0.34482,-0.125682,0.703401,-0.821998,-0.04433,
0.0127326,-0.196836,-0.33273,-1.65896,-0.0251054,-0.128674,-0.382909,0.01352,-0.00508119,0.01462,-0.0094998,1.0175,-0.70509,0.00310627,0,0,0,0,0,0,0,0.0128038,-0.196676,-0.332851,-1.65931,-0.0599487,1.47667,0.402277,-0.00853171,-0.00157163,-0.0111442,0.0009584,0.470672,-0.0986399,-0.00196289,0.94379,-25.8617,2.5876,25.9314,1.94976,2.03881,-0.0026396,-0.331226,-0.154283,1.78929,0.938995,-0.304148,-0.0439565,0.0881604,-0.213872,-0.327401,-0.215142,0.816849,-0.924807,-0.0423031,
0.0127934,-0.196854,-0.332664,-1.659,-0.0210079,-0.131487,-0.382897,0.0151874,-0.00442861,0.0164357,-0.0102689,1.02437,-0.703204,0.00304011,0,0,0,0,0,0,0,0.0128038,-0.196676,-0.332851,-1.65931,-0.0599487,1.47667,0.402277,-0.00853171,-0.00157163,-0.0111442,0.0009584,0.470672,-0.0986399,-0.00196289,0.94379,-25.8617,2.5876,25.9314,1.94976,2.03881,-0.0026396,-0.331226,-0.154283,1.78929,0.938995,-0.304148,-0.0439565,0.0881604,-0.213872,-0.327401,-0.215142,0.816849,-0.924807,-0.0423031,
0.0128601,-0.196869,-0.332592,-1.65904,-0.0168876,-0.134288,-0.382885,0.016683,-0.00378062,0.0180746,-0.0109045,1.03009,-0.700303,0.00297586,0,0,0,0,0,0,0,0.0124512,-0.1967,-0.33329,-1.65922,-0.0424495,1.47214,0.402285,-0.0121131,-0.00376843,-0.0122383,0.00583988,0.598054,-0.171145,0.000511037,1.37622,-25.5126,3.0359,25.4315,1.94976,2.01867,-0.0429228,-0.481483,0.425006,1.83166,0.607817,-0.402768,0.197761,0.342832,-0.261628,-0.0742033,-0.247142,0.927402,-0.997522,-0.0396871,
0.0129322,-0.196881,-0.332514,-1.65909,-0.0127483,-0.137074,-0.382873,0.0180205,-0.00315093,0.0195493,-0.0114251,1.03482,-0.696586,0.00291382,0,0,0,0,0,0,0,0.0124512,-0.1967,-0.33329,-1.65922,-0.0424495,1.47214,0.402285,-0.0121131,-0.00376843,-0.0122383,0.00583988,0.598054,-0.171145,0.000511037,1.37622,-25.5126,3.0359,25.4315,1.94976,2.01867,-0.0429228,-0.481483,0.425006,1.83166,0.607817,-0.402768,0.197761,0.342832,-0.261628,-0.0742033,-0.247142,0.927402,-0.997522,-0.0396871,
0.013009,-0.196891,-0.33243,-1.65914,-0.00859349,-0.139843,-0.382862,0.0192128,-0.00254914,0.0208729,-0.011846,1.0387,-0.692216,0.00285383,0,0,0,0,0,0,0,0.0124512,-0.1967,-0.33329,-1.65922,-0.0424495,1.47214,0.402285,-0.0121131,-0.00376843,-0.0122383,0.00583988,0.598054,-0.171145,0.000511037,1.37622,-25.5126,3.0359,25.4315,1.94976,2.01867,-0.0429228,-0.342162,0.646053,1.63514,0.533459,-0.176043,0.328881,0.482572,-0.0818186,0.0469219,-0.400952,0.978403,-1.06348,-0.0375336,
0.0130901,-0.196899,-0.332342,-1.65919,-0.00442604,-0.142593,-0.382851,0.0202729,-0.00198166,0.0220579,-0.0121805,1.04186,-0.687326,0.00279593,0,0,0,0,0,0,0,0.0124512,-0.1967,-0.33329,-1.65922,-0.0424495,1.47214,0.402285,-0.0121131,-0.00376843,-0.0122383,0.00583988,0.598054,-0.171145,0.000511037,1.37622,-25.5126,3.0359,25.4315,1.94976,2.01867,-0.0429228,-0.377834,0.553054,1.76584,0.632793,-0.23395,0.285782,0.451746,-0.129406,-0.0190324,-0.380693,1.01426,-1.095,-0.0332688,
0.013175,-0.196905,-0.33225,-1.65924,-0.000248473,-0.145321,-0.38284,0.0212126,-0.0014525,0.0231164,-0.0124402,1.04439,-0.682024,0.00274034,0,0,0,0,0,0,0,0.0124512,-0.1967,-0.33329,-1.65922,-0.0424495,1.47214,0.402285,-0.0121131,-0.00376843,-0.0122383,0.00583988,0.598054,-0.171145,0.000511037,1.37622,-25.5126,3.0359,25.4315,1.94976,2.01867,-0.0429228,-0.377834,0.553054,1.76584,0.632793,-0.23395,0.285782,0.451746,-0.129406,-0.0190324,-0.380693,1.01426,-1.095,-0.0332688,
0.0132631,-0.196909,-0.332153,-1.65929,0.00393703,-0.148026,-0.382829,0.022043,-0.000963789,0.0240598,-0.012635,1.04638,-0.676399,0.00268661,0,0,0,0,0,0,0,0.011992,-0.196718,-0.333706,-1.65916,-0.0141444,1.4627,0.402286,-0.00788318,0.00256863,-0.00553612,0.0012186,0.686075,-0.239328,0.000701132,1.27307,-25.4372,2.91292,25.5069,2.24273,1.93261,-0.0429228,-0.405616,0.472975,1.91337,0.666738,-0.29758,0.252312,0.428331,-0.18451,-0.0617201,-0.333389,1.00282,-1.10463,-0.0315992,
0.0133542,-0.196911,-0.332054,-1.65934,0.00812858,-0.150708,-0.382819,0.0227747,-0.000516272,0.0248988,-0.0127735,1.04789,-0.670523,0.00263498,0,0,0,0,0,0,0,0.011992,-0.196718,-0.333706,-1.65916,-0.0141444,1.4627,0.402286,-0.00788318,0.00256863,-0.00553612,0.0012186,0.686075,-0.239328,0.000701132,1.27307,-25.4372,2.91292,25.5069,2.24273,1.93261,-0.0429228,-0.160718,0.291734,1.74399,0.79698,-0.023824,0.219379,0.399171,0.00672872,-0.111298,-0.437598,0.961177,-1.11286,-0.0298174,
0.0134479,-0.196912,-0.331951,-1.65939,0.0123245,-0.153366,-0.382808,0.0234171,-0.00010963,0.0256432,-0.0128634,1.04898,-0.664451,0.00258497,0,0,0,0,0,0,0,0.011992,-0.196718,-0.333706,-1.65916,-0.0141444,1.4627,0.402286,-0.00788318,0.00256863,-0.00553612,0.0012186,0.686075,-0.239328,0.000701132,1.27307,-25.4372,2.91292,25.5069,2.24273,1.93261,-0.0429228,-0.160718,0.291734,1.74399,0.79698,-0.023824,0.219379,0.399171,0.00672872,-0.111298,-0.437598,0.961177,-1.11286,-0.0298174,
0.0135438,-0.196911,-0.331846,-1.65944,0.0165234,-0.155999,-0.382798,0.0239789,0.000257221,0.0263022,-0.0129111,1.04972,-0.658232,0.00253684,0,0,0,0,0,0,0,0.011992,-0.196718,-0.333706,-1.65916,-0.0141444,1.4627,0.402286,-0.00788318,0.00256863,-0.00553612,0.0012186,0.686075,-0.239328,0.000701132,1.27307,-25.4372,2.91292,25.5069,2.24273,1.93261,-0.0429228,-0.38139,-0.159948,1.82656,1.00196,-0.218738,-0.0174522,0.165801,-0.115487,-0.357004,-0.349569,0.828455,-1.07519,-0.0283123,
0.0136417,-0.196908,-0.331739,-1.65949,0.0207239,-0.158607,-0.382788,0.024468,0.000585916,0.0268839,-0.0129225,1.05014,-0.651901,0.0024902,0,0,0,0,0,0,0,0.011992,-0.196718,-0.333706,-1.65916,-0.0141444,1.4627,0.402286,-0.00788318,0.00256863,-0.00553612,0.0012186,0.686075,-0.239328,0.000701132,1.27307,-25.4372,2.91292,25.5069,2.24273,1.93261,-0.0429228,-0.38139,-0.159948,1.82656,1.00196,-0.218738,-0.0174522,0.165801,-0.115487,-0.357004,-0.349569,0.828455,-1.07519,-0.0283123,
0.0330386,-0.196864,-0.310219,-1.66605,0.0213246,-0.214384,-0.382041,0.214546,0.0223818,0.239282,-0.0810069,1.06792,-1.01308,0.00679345,0,0,0,0,0,0,0,0.0118875,-0.196722,-0.33375,-1.65915,0.00968946,1.45363,0.402286,0.00132979,0.00358094,-0.000163325,-0.00210788,0.773268,-0.30041,0.000411768,0.967594,-25.4372,2.86134,25.6577,1.85821,2.13769,-0.0365141,-0.388549,-0.178683,1.62414,0.929051,-0.120644,-0.019973,0.156582,-0.0136499,-0.338457,-0.416033,0.709779,-1.066,-0.0285767,
0.0137167,-0.196837,-0.331778,-1.65939,-0.0737371,-0.0970806,-0.38297,0.0788706,-0.0154175,0.0894336,0.00154464,0.416977,-0.635239,0.0120298,0,0,0,0,0,0,0,0.0118875,-0.196722,-0.33375,-1.65915,0.00968946,1.45363,0.402286,0.00132979,0.00358094,-0.000163325,-0.00210788,0.773268,-0.30041,0.000411768,0.967594,-25.4372,2.86134,25.6577,1.85821,2.13769,-0.0365141,-0.388549,-0.178683,1.62414,0.929051,-0.120644,-0.019973,0.156582,-0.0136499,-0.338457,-0.416033,0.709779,-1.066,-0.0285767,
0.0127776,-0.196897,-0.332834,-1.65926,0.01841,-0.124817,-0.382957,0.10011,-0.0204664,0.108122,-0.0152753,0.726269,-0.771798,0.0124486,0,0,0,0,0,0,0,0.0118875,-0.196722,-0.33375,-1.65915,0.00968946,1.45363,0.402286,0.00132979,0.00358094,-0.000163325,-0.00210788,0.773268,-0.30041,0.000411768,0.967594,-25.4372,2.86134,25.6577,1.85821,2.13769,-0.0365141,-0.580548,-0.0379963,1.69119,0.725395,-0.318662,0.012866,0.174368,-0.144917,-0.262657,-0.317454,0.641562,-1.01747,-0.0287836,
0.0132552,-0.196988,-0.332308,-1.65935,0.021378,-0.128311,-0.38291,0.119394,-0.022798,0.131277,-0.0222351,0.742002,-0.873611,0.0118195,0,0,0,0,0,0,0,0.0118875,-0.196722,-0.33375,-1.65915,0.00968946,1.45363,0.402286,0.00132979,0.00358094,-0.000163325,-0.00210788,0.773268,-0.30041,0.000411768,0.967594,-25.4372,2.86134,25.6577,1.85821,2.13769,-0.0365141,-0.956482,-1.09837,1.74463,1.34206,-0.67007,-0.53309,-0.372484,-0.373905,-0.848491,-0.161574,0.456101,-0.909184,-0.0259201,
0.0137959,-0.197081,-0.331709,-1.65946,0.0244323,-0.13214,-0.382865,0.135188,-0.0232585,0.149915,-0.0289067,0.763569,-0.957081,0.0112999,0,0,0,0,0,0,0,0.0118875,-0.196722,-0.33375,-1.65915,0.00968946,1.45363,0.402286,0.00132979,0.00358094,-0.000163325,-0.00210788,0.773268,-0.30041,0.000411768,0.967594,-25.4372,2.86134,25.6577,1.85821,2.13769,-0.0365141,-0.956482,-1.09837,1.74463,1.34206,-0.67007,-0.53309,-0.372484,-0.373905,-0.848491,-0.161574,0.456101,-0.909184,-0.0259201,
0.014389,-0.197171,-0.331048,-1.6596,0.027584,-0.136242,-0.382821,0.148266,-0.0223772,0.165108,-0.0350986,0.787921,-1.02569,0.0108668,0,0,0,0,0,0,0,0.0123823,-0.196771,-0.333149,-1.65922,0.0322086,1.44273,0.40229,0.043524,0.0134811,0.0307348,0.00390102,0.571312,-0.349737,0.000656519,-0.274166,-25.5126,2.21467,25.8322,0.800778,2.42333,-0.0301054,-0.756001,-0.26303,0.941636,0.815585,-0.169206,-0.123986,0.0401147,0.0623268,-0.402611,-0.525201,0.449644,-0.962094,-0.0179402,
0.0150258,-0.197253,-0.330338,-1.65977,0.0308362,-0.140571,-0.382779,0.1592,-0.0205686,0.177639,-0.0407348,0.813073,-1.08219,0.0104939,0,0,0,0,0,0,0,0.0123823,-0.196771,-0.333149,-1.65922,0.0322086,1.44273,0.40229,0.043524,0.0134811,0.0307348,0.00390102,0.571312,-0.349737,0.000656519,-0.274166,-25.5126,2.21467,25.8322,0.800778,2.42333,-0.0301054,-0.756001,-0.26303,0.941636,0.815585,-0.169206,-0.123986,0.0401147,0.0623268,-0.402611,-0.525201,0.449644,-0.962094,-0.0179402,
0.0156994,-0.197326,-0.329585,-1.65995,0.0341873,-0.145086,-0.382738,0.168415,-0.0181485,0.188076,-0.0457961,0.837773,-1.12876,0.0101673,0,0,0,0,0,0,0,0.0123823,-0.196771,-0.333149,-1.65922,0.0322086,1.44273,0.40229,0.043524,0.0134811,0.0307348,0.00390102,0.571312,-0.349737,0.000656519,-0.274166,-25.5126,2.21467,25.8322,0.800778,2.42333,-0.0301054,-1.5271,-0.156392,1.14054,0.478478,-0.830183,-0.21752,-0.11845,-0.333884,-0.37952,-0.296426,0.244097,-0.902873,-0.0136543,
0.0164043,-0.197387,-0.328798,-1.66015,0.0376324,-0.149755,-0.382699,0.176229,-0.015353,0.196843,-0.0502924,0.861269,-1.16717,0.00987322,0,0,0,0,0,0,0,0.0123823,-0.196771,-0.333149,-1.65922,0.0322086,1.44273,0.40229,0.043524,0.0134811,0.0307348,0.00390102,0.571312,-0.349737,0.000656519,-0.274166,-25.5126,2.21467,25.8322,0.800778,2.42333,-0.0301054,-1.00001,-1.03847,1.08459,0.867496,-0.390541,-0.521511,-0.446412,-0.0694126,-0.67657,-0.304812,-0.0481351,-0.812654,-0.011751,
0.0171359,-0.197436,-0.327981,-1.66037,0.041165,-0.15455,-0.382661,0.182886,-0.0123565,0.204256,-0.05425,0.883137,-1.19885,0.00960506,0,0,0,0,0,0,0,0.0123823,-0.196771,-0.333149,-1.65922,0.0322086,1.44273,0.40229,0.043524,0.0134811,0.0307348,0.00390102,0.571312,-0.349737,0.000656519,-0.274166,-25.5126,2.21467,25.8322,0.800778,2.42333,-0.0301054,-1.00001,-1.03847,1.08459,0.867496,-0.390541,-0.521511,-0.446412,-0.0694126,-0.67657,-0.304812,-0.0481351,-0.812654,-0.011751,
0.0178902,-0.197474,-0.327139,-1.6606,0.0447777,-0.15945,-0.382623,0.188573,-0.00928668,0.210555,-0.0577039,0.903175,-1.22496,0.00935506,0,0,0,0,0,0,0,0.0123823,-0.196771,-0.333149,-1.65922,0.0322086,1.44273,0.40229,0.043524,0.0134811,0.0307348,0.00390102,0.571312,-0.349737,0.000656519,-0.274166,-25.5126,2.21467,25.8322,0.800778,2.42333,-0.0301054,-1.13693,-1.04567,1.15304,0.862875,-0.454006,-0.53506,-0.45721,-0.0876581,-0.690789,-0.328105,-0.0685771,-0.877755,-0.00925584,
0.018664,-0.1975,-0.326275,-1.66085,0.0484631,-0.164407,-0.382587,0.193466,-0.00670451,0.216015,-0.062149,0.921352,-1.2391,0.00915692,0,0,0,0,0,0,0,0.0138577,-0.196853,-0.331368,-1.65918,0.0522734,1.42839,0.402294,0.0515364,-0.00511554,0.0666877,-0.000384245,0.603279,-0.487782,0.000106142,1.75708,-25.0881,3.8611,24.7849,1.77856,1.69366,-0.0301054,-1.13693,-1.04567,1.15304,0.862875,-0.454006,-0.53506,-0.45721,-0.0876581,-0.690789,-0.328105,-0.0685771,-0.877755,-0.00925584,
0.0194548,-0.197518,-0.325392,-1.66112,0.0522139,-0.169371,-0.382551,0.197701,-0.00436887,0.220718,-0.0670775,0.937698,-1.24103,0.00898621,0,0,0,0,0,0,0,0.0138577,-0.196853,-0.331368,-1.65918,0.0522734,1.42839,0.402294,0.0515364,-0.00511554,0.0666877,-0.000384245,0.603279,-0.487782,0.000106142,1.75708,-25.0881,3.8611,24.7849,1.77856,1.69366,-0.0301054,-0.648171,-0.53864,0.989619,0.614312,-0.0323765,-0.220421,-0.149482,0.172481,-0.361523,-0.463854,0.0592775,-0.902382,-0.00841391,
0.0202602,-0.197525,-0.324493,-1.6614,0.0560229,-0.174313,-0.382515,0.201342,-0.00185196,0.224705,-0.0712376,0.952252,-1.23555,0.00881297,0,0,0,0,0,0,0,0.0138577,-0.196853,-0.331368,-1.65918,0.0522734,1.42839,0.402294,0.0515364,-0.00511554,0.0666877,-0.000384245,0.603279,-0.487782,0.000106142,1.75708,-25.0881,3.8611,24.7849,1.77856,1.69366,-0.0301054,-0.648171,-0.53864,0.989619,0.614312,-0.0323765,-0.220421,-0.149482,0.172481,-0.361523,-0.463854,0.0592775,-0.902382,-0.00841391,
0.021078,-0.197522,-0.323581,-1.6617,0.0598832,-0.179214,-0.382481,0.204446,0.000808078,0.22809,-0.0744686,0.965085,-1.22525,0.00863965,0,0,0,0,0,0,0,0.0138577,-0.196853,-0.331368,-1.65918,0.0522734,1.42839,0.402294,0.0515364,-0.00511554,0.0666877,-0.000384245,0.603279,-0.487782,0.000106142,1.75708,-25.0881,3.8611,24.7849,1.77856,1.69366,-0.0301054,-1.31692,-0.487331,0.758923,0.602804,-0.403119,-0.300083,-0.220126,0.0234304,-0.447855,-0.527259,0.0333835,-0.960872,-0.00775324,
0.0219063,-0.197508,-0.322657,-1.66201,0.0637884,-0.184061,-0.382447,0.207075,0.00349242,0.230962,-0.076883,0.976304,-1.21165,0.00846909,0,0,0,0,0,0,0,0.0138577,-0.196853,-0.331368,-1.65918,0.0522734,1.42839,0.402294,0.0515364,-0.00511554,0.0666877,-0.000384245,0.603279,-0.487782,0.000106142,1.75708,-25.0881,3.8611,24.7849,1.77856,1.69366,-0.0301054,-1.6965,-1.10299,0.52926,1.06481,-0.526241,-0.626216,-0.545326,0.0223521,-0.818542,-0.640352,-0.0443131,-1.02221,-0.00712104,
0.0227434,-0.197484,-0.321723,-1.66232,0.0677326,-0.188844,-0.382414,0.209286,0.00609928,0.233392,-0.0786352,0.986042,-1.1958,0.00830101,0,0,0,0,0,0,0,0.0159293,-0.196986,-0.328551,-1.65918,0.0723309,1.41071,0.402292,0.0742553,-0.00473394,0.0965661,-0.00178867,0.670887,-0.591869,-0.000349914,1.98322,-24.8103,4.03566,24.7372,1.80877,1.78612,-0.00996382,-1.6965,-1.10299,0.52926,1.06481,-0.526241,-0.626216,-0.545326,0.0223521,-0.818542,-0.640352,-0.0443131,-1.02221,-0.00712104,
0.0235879,-0.197449,-0.320782,-1.66264,0.0717103,-0.193557,-0.382381,0.211127,0.00855986,0.235436,-0.0798623,0.994437,-1.1784,0.00813712,0,0,0,0,0,0,0,0.0159293,-0.196986,-0.328551,-1.65918,0.0723309,1.41071,0.402292,0.0742553,-0.00473394,0.0965661,-0.00178867,0.670887,-0.591869,-0.000349914,1.98322,-24.8103,4.03566,24.7372,1.80877,1.78612,-0.00996382,-1.9243,-0.711928,0.622084,0.833526,-0.749092,-0.484339,-0.415376,-0.122779,-0.649071,-0.589487,0.0474285,-1.04011,-0.006889,
0.0244385,-0.197406,-0.319833,-1.66296,0.0757169,-0.198197,-0.382349,0.212641,0.0108345,0.237139,-0.0806731,1.00163,-1.15993,0.00797636,0,0,0,0,0,0,0,0.0159293,-0.196986,-0.328551,-1.65918,0.0723309,1.41071,0.402292,0.0742553,-0.00473394,0.0965661,-0.00178867,0.670887,-0.591869,-0.000349914,1.98322,-24.8103,4.03566,24.7372,1.80877,1.78612,-0.00996382,-1.9243,-0.711928,0.622084,0.833526,-0.749092,-0.484339,-0.415376,-0.122779,-0.649071,-0.589487,0.0474285,-1.04011,-0.006889,
0.025294,-0.197354,-0.318879,-1.66329,0.0797479,-0.20276,-0.382318,0.213862,0.0129044,0.238539,-0.0811524,1.00775,-1.14076,0.00781965,0,0,0,0,0,0,0,0.0159293,-0.196986,-0.328551,-1.65918,0.0723309,1.41071,0.402292,0.0742553,-0.00473394,0.0965661,-0.00178867,0.670887,-0.591869,-0.000349914,1.98322,-24.8103,4.03566,24.7372,1.80877,1.78612,-0.00996382,-1.80166,-0.0794424,0.588967,0.535303,-0.629422,-0.17466,-0.123678,-0.041845,-0.313299,-0.679087,0.233101,-1.11345,-0.00607057,
0.0261532,-0.197295,-0.31792,-1.66361,0.0837995,-0.207245,-0.382287,0.21482,0.0147646,0.239666,-0.0813657,1.01292,-1.12113,0.00766672,0,0,0,0,0,0,0,0.0159293,-0.196986,-0.328551,-1.65918,0.0723309,1.41071,0.402292,0.0742553,-0.00473394,0.0965661,-0.00178867,0.670887,-0.591869,-0.000349914,1.98322,-24.8103,4.03566,24.7372,1.80877,1.78612,-0.00996382,-1.80166,-0.0794424,0.588967,0.535303,-0.629422,-0.17466,-0.123678,-0.041845,-0.313299,-0.679087,0.233101,-1.11345,-0.00607057,
0.0270154,-0.19723,-0.316958,-1.66394,0.0878685,-0.21165,-0.382257,0.215544,0.0164195,0.240551,-0.0813638,1.01724,-1.10124,0.00751791,0,0,0,0,0,0,0,0.0159293,-0.196986,-0.328551,-1.65918,0.0723309,1.41071,0.402292,0.0742553,-0.00473394,0.0965661,-0.00178867,0.670887,-0.591869,-0.000349914,1.98322,-24.8103,4.03566,24.7372,1.80877,1.78612,-0.00996382,-2.31802,-0.0797615,0.983219,0.559518,-1.19898,-0.257859,-0.214895,-0.439721,-0.391433,-0.471081,0.31844,-1.11319,-0.00559555,
0.0278796,-0.197158,-0.315993,-1.66426,0.0919517,-0.215974,-0.382228,0.216057,0.0178788,0.241216,-0.0811865,1.02081,-1.08121,0.00737244,0,0,0,0,0,0,0,0.0184044,-0.196963,-0.324994,-1.65936,0.0919657,1.39149,0.402297,0.082575,0.00322516,0.12541,-0.00709945,0.628627,-0.640869,-0.000803283,1.93164,-25.1357,3.8611,24.5627,2.52929,1.6607,-0.00996382,-1.71456,0.47318,0.412679,0.369776,-0.567636,0.0795644,0.114774,-0.00934189,-0.0541311,-0.751341,0.491152,-1.11664,-0.0061862,
0.0287452,-0.197082,-0.315026,-1.66459,0.0960466,-0.220219,-0.382199,0.216381,0.0191552,0.241685,-0.0808656,1.02372,-1.06114,0.00723029,0,0,0,0,0,0,0,0.0184044,-0.196963,-0.324994,-1.65936,0.0919657,1.39149,0.402297,0.082575,0.00322516,0.12541,-0.00709945,0.628627,-0.640869,-0.000803283,1.93164,-25.1357,3.8611,24.5627,2.52929,1.6607,-0.00996382,-1.71456,0.47318,0.412679,0.369776,-0.567636,0.0795644,0.114774,-0.00934189,-0.0541311,-0.751341,0.491152,-1.11664,-0.0061862,
0.0296113,-0.197001,-0.314059,-1.66491,0.100151,-0.224383,-0.38217,0.216537,0.0202633,0.241978,-0.080426,1.02605,-1.04112,0.00709197,0,0,0,0,0,0,0,0.0184044,-0.196963,-0.324994,-1.65936,0.0919657,1.39149,0.402297,0.082575,0.00322516,0.12541,-0.00709945,0.628627,-0.640869,-0.000803283,1.93164,-25.1357,3.8611,24.5627,2.52929,1.6607,-0.00996382,-1.67687,0.811545,-0.0585638,0.330343,-0.413447,0.221282,0.260816,0.129971,0.0663437,-0.924973,0.657225,-1.11272,-0.00483679,
0.0304775,-0.196916,-0.31309,-1.66523,0.104262,-0.228468,-0.382143,0.216541,0.021218,0.242112,-0.0798883,1.02786,-1.02117,0.00695699,0,0,0,0,0,0,0,0.0184044,-0.196963,-0.324994,-1.65936,0.0919657,1.39149,0.402297,0.082575,0.00322516,0.12541,-0.00709945,0.628627,-0.640869,-0.000803283,1.93164,-25.1357,3.8611,24.5627,2.52929,1.6607,-0.00996382,-1.67687,0.811545,-0.0585638,0.330343,-0.413447,0.221282,0.260816,0.129971,0.0663437,-0.924973,0.657225,-1.11272,-0.00483679,
0.0313431,-0.196828,-0.312122,-1.66554,0.108379,-0.232473,-0.382115,0.21641,0.0220339,0.242105,-0.0792692,1.0292,-1.00135,0.00682473,0,0,0,0,0,0,0,0.0184044,-0.196963,-0.324994,-1.65936,0.0919657,1.39149,0.402297,0.082575,0.00322516,0.12541,-0.00709945,0.628627,-0.640869,-0.000803283,1.93164,-25.1357,3.8611,24.5627,2.52929,1.6607,-0.00996382,-2.2105,0.365339,-0.203187,0.751436,-0.786275,-0.0732088,-0.016178,-0.072538,-0.28951,-0.919667,0.706183,-1.10444,-0.00314397,
0.0135217,-0.19726,-0.332079,-1.6598,0.0170894,-0.124441,-0.382945,0.182203,-0.0544185,0.195662,-0.0656623,0.589247,-0.740439,0.0134806,0,0,0,0,0,0,0,0.0213506,-0.196933,-0.320837,-1.65973,0.110734,1.37134,0.402299,0.103191,0.00203944,0.150989,-0.0172295,0.597863,-0.646837,8.77533e-05,1.55078,-25.338,3.36122,24.9356,2.96966,1.80627,-0.0227812,-2.01527,0.982119,-0.117349,0.380211,-0.767653,0.220871,0.275876,-0.116205,0.0330156,-0.841443,0.857442,-1.0443,-0.00537266,
0.0238396,-0.197323,-0.318107,-1.66062,0.117706,-0.209174,-0.382945,0.238852,-0.037228,0.26415,-0.0863308,0.595438,-0.891077,0.0124905,0,0,0,0,0,0,0,0.0213506,-0.196933,-0.320837,-1.65973,0.110734,1.37134,0.402299,0.103191,0.00203944,0.150989,-0.0172295,0.597863,-0.646837,8.77533e-05,1.55078,-25.338,3.36122,24.9356,2.96966,1.80627,-0.0227812,-2.01527,0.982119,-0.117349,0.380211,-0.767653,0.220871,0.275876,-0.116205,0.0330156,-0.841443,0.857442,-1.0443,-0.00537266,
0.0248877,-0.197468,-0.316942,-1.66099,0.120201,-0.213007,-0.382897,0.262017,-0.0364226,0.291433,-0.0926017,0.623864,-0.958368,0.0120105,0,0,0,0,0,0,0,0.0213506,-0.196933,-0.320837,-1.65973,0.110734,1.37134,0.402299,0.103191,0.00203944,0.150989,-0.0172295,0.597863,-0.646837,8.77533e-05,1.55078,-25.338,3.36122,24.9356,2.96966,1.80627,-0.0227812,-1.99049,1.08922,-0.147517,0.293335,-0.814882,0.260257,0.304087,-0.170552,0.0912895,-0.775255,0.876768,-0.964251,-0.0073556,
0.0260119,-0.197604,-0.315687,-1.66138,0.122828,-0.217068,-0.382851,0.281064,-0.0340217,0.313638,-0.0976483,0.656673,-1.01503,0.0115779,0,0,0,0,0,0,0,0.0213506,-0.196933,-0.320837,-1.65973,0.110734,1.37134,0.402299,0.103191,0.00203944,0.150989,-0.0172295,0.597863,-0.646837,8.77533e-05,1.55078,-25.338,3.36122,24.9356,2.96966,1.80627,-0.0227812,-1.99049,1.08922,-0.147517,0.293335,-0.814882,0.260257,0.304087,-0.170552,0.0912895,-0.775255,0.876768,-0.964251,-0.0073556,
0.0271995,-0.197728,-0.314359,-1.66179,0.125592,-0.221317,-0.382806,0.296877,-0.030789,0.331892,-0.102015,0.691039,-1.06234,0.0111841,0,0,0,0,0,0,0,0.0213506,-0.196933,-0.320837,-1.65973,0.110734,1.37134,0.402299,0.103191,0.00203944,0.150989,-0.0172295,0.597863,-0.646837,8.77533e-05,1.55078,-25.338,3.36122,24.9356,2.96966,1.80627,-0.0227812,-2.18298,2.5441,-0.238605,-0.754932,-0.976605,0.879683,0.9114,-0.254341,0.81956,-0.747991,0.971935,-0.955126,-0.00835363,
0.0284403,-0.197839,-0.312971,-1.66222,0.128493,-0.225687,-0.382763,0.310218,-0.0277672,0.347185,-0.107624,0.725127,-1.0926,0.0108689,0,0,0,0,0,0,0,0.0213506,-0.196933,-0.320837,-1.65973,0.110734,1.37134,0.402299,0.103191,0.00203944,0.150989,-0.0172295,0.597863,-0.646837,8.77533e-05,1.55078,-25.338,3.36122,24.9356,2.96966,1.80627,-0.0227812,-2.18298,2.5441,-0.238605,-0.754932,-0.976605,0.879683,0.9114,-0.254341,0.81956,-0.747991,0.971935,-0.955126,-0.00835363,
0.0297265,-0.197938,-0.311531,-1.66267,0.131524,-0.230116,-0.38272,0.321536,-0.0247224,0.360042,-0.113547,0.757805,-1.10724,0.0105972,0,0,0,0,0,0,0,0.0252576,-0.196915,-0.316141,-1.66051,0.128773,1.35086,0.402305,0.134482,0.00605391,0.150548,-0.0289315,0.414564,-0.547524,0.000339555,0.741459,-25.8101,2.63917,25.3085,2.07153,2.25762,-0.0365141,-1.92604,1.14306,-0.904863,0.178998,-0.547829,0.278974,0.314881,0.07619,0.133825,-0.947479,0.734144,-0.846254,-0.00495804,
0.0310508,-0.198022,-0.310047,-1.66315,0.134677,-0.234572,-0.382679,0.331072,-0.0211435,0.370781,-0.118052,0.788419,-1.1139,0.010295,0,0,0,0,0,0,0,0.0252576,-0.196915,-0.316141,-1.66051,0.128773,1.35086,0.402305,0.134482,0.00605391,0.150548,-0.0289315,0.414564,-0.547524,0.000339555,0.741459,-25.8101,2.63917,25.3085,2.07153,2.25762,-0.0365141,-2.4417,0.287917,-0.613041,0.552752,-1.11155,-0.177575,-0.113695,-0.320793,-0.352985,-0.658779,0.50144,-0.712929,-0.0043612,
0.0324074,-0.198093,-0.308528,-1.66364,0.137944,-0.239009,-0.382639,0.339171,-0.0176885,0.379881,-0.122407,0.816589,-1.10929,0.0100219,0,0,0,0,0,0,0,0.0252576,-0.196915,-0.316141,-1.66051,0.128773,1.35086,0.402305,0.134482,0.00605391,0.150548,-0.0289315,0.414564,-0.547524,0.000339555,0.741459,-25.8101,2.63917,25.3085,2.07153,2.25762,-0.0365141,-2.4417,0.287917,-0.613041,0.552752,-1.11155,-0.177575,-0.113695,-0.320793,-0.352985,-0.658779,0.50144,-0.712929,-0.0043612,
0.0337917,-0.19815,-0.306978,-1.66414,0.141312,-0.243385,-0.3826,0.346057,-0.0143655,0.387598,-0.126482,0.842158,-1.09404,0.00978371,0,0,0,0,0,0,0,0.0252576,-0.196915,-0.316141,-1.66051,0.128773,1.35086,0.402305,0.134482,0.00605391,0.150548,-0.0289315,0.414564,-0.547524,0.000339555,0.741459,-25.8101,2.63917,25.3085,2.07153,2.25762,-0.0365141,-2.16626,0.781071,-0.672003,0.155294,-0.889039,0.0931523,0.140844,-0.183168,-0.0287817,-0.690426,0.495089,-0.70106,-0.00684143,
0.035199,-0.198194,-0.305401,-1.66466,0.144773,-0.247678,-0.382562,0.351839,-0.0108925,0.394065,-0.129387,0.86513,-1.0731,0.00955014,0,0,0,0,0,0,0,0.0252576,-0.196915,-0.316141,-1.66051,0.128773,1.35086,0.402305,0.134482,0.00605391,0.150548,-0.0289315,0.414564,-0.547524,0.000339555,0.741459,-25.8101,2.63917,25.3085,2.07153,2.25762,-0.0365141,-2.16626,0.781071,-0.672003,0.155294,-0.889039,0.0931523,0.140844,-0.183168,-0.0287817,-0.690426,0.495089,-0.70106,-0.00684143,
0.0366256,-0.198223,-0.303803,-1.66518,0.148315,-0.251873,-0.382525,0.356637,-0.00737967,0.399453,-0.131181,0.885593,-1.04897,0.00932126,0,0,0,0,0,0,0,0.0314293,-0.197163,-0.308108,-1.66215,0.147285,1.32628,0.402308,0.151948,-0.00268501,0.213791,-0.0444912,0.493469,-0.60153,0.000674265,2.74494,-24.7112,4.63869,24.2136,2.02301,1.85296,-0.0630644,-2.12939,0.590992,-0.75299,0.280657,-0.792854,0.0229803,0.0632486,-0.101331,-0.103983,-0.752042,0.457442,-0.724165,-0.00617455,
0.0380679,-0.198239,-0.302188,-1.66571,0.15193,-0.255966,-0.382488,0.360575,-0.00397195,0.403908,-0.132104,0.903691,-1.02305,0.00910226,0,0,0,0,0,0,0,0.0314293,-0.197163,-0.308108,-1.66215,0.147285,1.32628,0.402308,0.151948,-0.00268501,0.213791,-0.0444912,0.493469,-0.60153,0.000674265,2.74494,-24.7112,4.63869,24.2136,2.02301,1.85296,-0.0630644,-2.12939,0.590992,-0.75299,0.280657,-0.792854,0.0229803,0.0632486,-0.101331,-0.103983,-0.752042,0.457442,-0.724165,-0.00617455,
0.0395229,-0.198242,-0.300558,-1.66624,0.155608,-0.25995,-0.382453,0.363761,-0.000772789,0.407554,-0.132377,0.919599,-0.996186,0.00889167,0,0,0,0,0,0,0,0.0314293,-0.197163,-0.308108,-1.66215,0.147285,1.32628,0.402308,0.151948,-0.00268501,0.213791,-0.0444912,0.493469,-0.60153,0.000674265,2.74494,-24.7112,4.63869,24.2136,2.02301,1.85296,-0.0630644,-2.60215,-0.183554,-1.07433,0.737771,-1.01786,-0.381427,-0.324101,-0.177236,-0.553294,-0.789916,0.26922,-0.684112,-0.00661656,
0.0409881,-0.198234,-0.298916,-1.66677,0.159343,-0.263826,-0.382418,0.366289,0.00215932,0.410495,-0.132174,0.933502,-0.968911,0.00869163,0,0,0,0,0,0,0,0.0314293,-0.197163,-0.308108,-1.66215,0.147285,1.32628,0.402308,0.151948,-0.00268501,0.213791,-0.0444912,0.493469,-0.60153,0.000674265,2.74494,-24.7112,4.63869,24.2136,2.02301,1.85296,-0.0630644,-2.20015,-0.301734,-1.62019,0.822948,-0.419403,-0.352732,-0.296313,0.284528,-0.536252,-1.10159,0.180932,-0.74393,-0.00651896,
0.042461,-0.198215,-0.297264,-1.6673,0.163125,-0.267592,-0.382384,0.36824,0.00480007,0.412816,-0.131618,0.945587,-0.941551,0.00850057,0,0,0,0,0,0,0,0.0314293,-0.197163,-0.308108,-1.66215,0.147285,1.32628,0.402308,0.151948,-0.00268501,0.213791,-0.0444912,0.493469,-0.60153,0.000674265,2.74494,-24.7112,4.63869,24.2136,2.02301,1.85296,-0.0630644,-2.20015,-0.301734,-1.62019,0.822948,-0.419403,-0.352732,-0.296313,0.284528,-0.536252,-1.10159,0.180932,-0.74393,-0.00651896,
0.0439398,-0.198186,-0.295606,-1.66782,0.166949,-0.271249,-0.382351,0.369683,0.00714697,0.414595,-0.1308,0.956031,-0.914316,0.00831884,0,0,0,0,0,0,0,0.0314293,-0.197163,-0.308108,-1.66215,0.147285,1.32628,0.402308,0.151948,-0.00268501,0.213791,-0.0444912,0.493469,-0.60153,0.000674265,2.74494,-24.7112,4.63869,24.2136,2.02301,1.85296,-0.0630644,-2.85116,0.203416,-1.1391,0.402558,-1.06355,-0.191629,-0.136904,-0.134769,-0.32461,-0.889976,0.21314,-0.800623,-0.00723859,
0.0454225,-0.198149,-0.293942,-1.66834,0.170809,-0.274799,-0.382318,0.370681,0.00921097,0.415895,-0.129783,0.965002,-0.887336,0.00814533,0,0,0,0,0,0,0,0.0368459,-0.197236,-0.300813,-1.66361,0.16555,1.30719,0.402306,0.186313,0.000362035,0.231002,-0.0526827,0.595226,-0.555869,-0.00116281,2.76874,-24.9889,4.58711,24.7372,2.76184,1.75316,-0.0026396,-2.85116,0.203416,-1.1391,0.402558,-1.06355,-0.191629,-0.136904,-0.134769,-0.32461,-0.889976,0.21314,-0.800623,-0.00723859,
0.0469076,-0.198105,-0.292275,-1.66885,0.1747,-0.278242,-0.382286,0.371285,0.0110103,0.416773,-0.128615,0.972654,-0.860691,0.00798026,0,0,0,0,0,0,0,0.0368459,-0.197236,-0.300813,-1.66361,0.16555,1.30719,0.402306,0.186313,0.000362035,0.231002,-0.0526827,0.595226,-0.555869,-0.00116281,2.76874,-24.9889,4.58711,24.7372,2.76184,1.75316,-0.0026396,-2.695,0.32044,-0.776177,0.335914,-1.11664,-0.116368,-0.0573873,-0.240071,-0.248326,-0.752449,0.295791,-0.779597,-0.00722132,
0.0483938,-0.198055,-0.290606,-1.66936,0.178616,-0.281579,-0.382255,0.371543,0.0125668,0.41728,-0.12733,0.979129,-0.834427,0.00782307,0,0,0,0,0,0,0,0.0368459,-0.197236,-0.300813,-1.66361,0.16555,1.30719,0.402306,0.186313,0.000362035,0.231002,-0.0526827,0.595226,-0.555869,-0.00116281,2.76874,-24.9889,4.58711,24.7372,2.76184,1.75316,-0.0026396,-2.74655,-0.282141,-0.948736,0.874051,-1.03835,-0.391475,-0.320439,-0.160014,-0.594811,-0.875685,0.328936,-0.827022,-0.00553485,
0.0498798,-0.197999,-0.288936,-1.66987,0.182554,-0.284814,-0.382224,0.371496,0.0139034,0.417459,-0.125954,0.984555,-0.808573,0.00767173,0,0,0,0,0,0,0,0.0368459,-0.197236,-0.300813,-1.66361,0.16555,1.30719,0.402306,0.186313,0.000362035,0.231002,-0.0526827,0.595226,-0.555869,-0.00116281,2.76874,-24.9889,4.58711,24.7372,2.76184,1.75316,-0.0026396,-2.74655,-0.282141,-0.948736,0.874051,-1.03835,-0.391475,-0.320439,-0.160014,-0.594811,-0.875685,0.328936,-0.827022,-0.00553485,
0.0513645,-0.197939,-0.287267,-1.67036,0.186511,-0.287946,-0.382194,0.37118,0.0150431,0.417348,-0.124508,0.989049,-0.78314,0.00752779,0,0,0,0,0,0,0,0.0368459,-0.197236,-0.300813,-1.66361,0.16555,1.30719,0.402306,0.186313,0.000362035,0.231002,-0.0526827,0.595226,-0.555869,-0.00116281,2.76874,-24.9889,4.58711,24.7372,2.76184,1.75316,-0.0026396,-3.26295,-0.723911,-1.29458,1.31983,-1.2562,-0.661012,-0.583228,-0.220953,-0.922297,-1.00756,0.377054,-0.874829,-0.00606305,
0.052847,-0.197875,-0.285599,-1.67086,0.190481,-0.290979,-0.382164,0.370628,0.0160076,0.416983,-0.123006,0.992715,-0.758137,0.00738934,0,0,0,0,0,0,0,0.043833,-0.197174,-0.292701,-1.6654,0.184638,1.29019,0.402315,0.221853,0.0042522,0.278251,-0.0565284,0.596496,-0.478851,0.000621749,2.01099,-25.5602,3.68654,24.7849,3.54919,1.72021,-0.050247,-3.26295,-0.723911,-1.29458,1.31983,-1.2562,-0.661012,-0.583228,-0.220953,-0.922297,-1.00756,0.377054,-0.874829,-0.00606305,
0.0543265,-0.197808,-0.283933,-1.67134,0.194464,-0.293913,-0.382135,0.369868,0.0168171,0.416393,-0.12146,0.995648,-0.733563,0.00725736,0,0,0,0,0,0,0,0.043833,-0.197174,-0.292701,-1.6654,0.184638,1.29019,0.402315,0.221853,0.0042522,0.278251,-0.0565284,0.596496,-0.478851,0.000621749,2.01099,-25.5602,3.68654,24.7849,3.54919,1.72021,-0.050247,-2.40036,0.24235,-1.35911,0.778496,-0.64584,-0.135191,-0.0670524,0.109997,-0.358539,-1.09434,0.60546,-0.847038,-0.00952223,
0.0558022,-0.197738,-0.282271,-1.67182,0.198456,-0.296751,-0.382107,0.368924,0.0174899,0.415605,-0.119882,0.997931,-0.709415,0.00713002,0,0,0,0,0,0,0,0.043833,-0.197174,-0.292701,-1.6654,0.184638,1.29019,0.402315,0.221853,0.0042522,0.278251,-0.0565284,0.596496,-0.478851,0.000621749,2.01099,-25.5602,3.68654,24.7849,3.54919,1.72021,-0.050247,-2.40036,0.24235,-1.35911,0.778496,-0.64584,-0.135191,-0.0670524,0.109997,-0.358539,-1.09434,0.60546,-0.847038,-0.00952223,
0.0572735,-0.197666,-0.280612,-1.6723,0.202454,-0.299493,-0.382079,0.36782,0.0180429,0.414643,-0.11828,0.999639,-0.685689,0.00700674,0,0,0,0,0,0,0,0.043833,-0.197174,-0.292701,-1.6654,0.184638,1.29019,0.402315,0.221853,0.0042522,0.278251,-0.0565284,0.596496,-0.478851,0.000621749,2.01099,-25.5602,3.68654,24.7849,3.54919,1.72021,-0.050247,-2.0984,1.68164,-0.943283,-0.162495,-0.629611,0.544822,0.610448,0.0457854,0.401217,-0.959464,0.853707,-0.853996,-0.011895,
0.0244571,-0.197641,-0.317461,-1.66115,0.116691,-0.207946,-0.382957,0.307481,-0.067105,0.338937,-0.137688,0.489605,-0.743954,0.0116118,0,0,0,0,0,0,0,0.043833,-0.197174,-0.292701,-1.6654,0.184638,1.29019,0.402315,0.221853,0.0042522,0.278251,-0.0565284,0.596496,-0.478851,0.000621749,2.01099,-25.5602,3.68654,24.7849,3.54919,1.72021,-0.050247,-1.91558,2.06726,-0.853309,-0.370131,-0.545613,0.733765,0.810352,0.071167,0.592533,-0.941735,0.964622,-0.849171,-0.0106634,
0.0478199,-0.197593,-0.288277,-1.66692,0.191472,-0.287219,-0.382951,0.367145,-0.0398027,0.409537,-0.140794,0.579583,-0.59084,0.01083,0,0,0,0,0,0,0,0.0509273,-0.197098,-0.283645,-1.66736,0.202971,1.27583,0.402312,0.237258,0.00397014,0.285183,-0.0632382,0.551802,-0.424425,-8.93928e-05,1.72931,-25.7625,3.16286,24.9594,3.58581,1.68725,-0.00996382,-1.91558,2.06726,-0.853309,-0.370131,-0.545613,0.733765,0.810352,0.071167,0.592533,-0.941735,0.964622,-0.849171,-0.0106634,
0.0493902,-0.197745,-0.286519,-1.6675,0.193893,-0.289712,-0.382909,0.392562,-0.0381121,0.439623,-0.146289,0.60525,-0.623328,0.0104842,0,0,0,0,0,0,0,0.0509273,-0.197098,-0.283645,-1.66736,0.202971,1.27583,0.402312,0.237258,0.00397014,0.285183,-0.0632382,0.551802,-0.424425,-8.93928e-05,1.72931,-25.7625,3.16286,24.9594,3.58581,1.68725,-0.00996382,-2.30195,1.65259,-0.567328,-0.0213564,-0.97495,0.480327,0.554168,-0.240675,0.308074,-0.776849,1.02764,-0.819767,-0.00755503,
0.0510435,-0.197886,-0.284663,-1.66811,0.196437,-0.29228,-0.382869,0.413315,-0.0352624,0.463985,-0.151175,0.636167,-0.641984,0.0101955,0,0,0,0,0,0,0,0.0509273,-0.197098,-0.283645,-1.66736,0.202971,1.27583,0.402312,0.237258,0.00397014,0.285183,-0.0632382,0.551802,-0.424425,-8.93928e-05,1.72931,-25.7625,3.16286,24.9594,3.58581,1.68725,-0.00996382,-2.30195,1.65259,-0.567328,-0.0213564,-0.97495,0.480327,0.554168,-0.240675,0.308074,-0.776849,1.02764,-0.819767,-0.00755503,
0.052765,-0.198013,-0.282728,-1.66873,0.199114,-0.294871,-0.382829,0.430388,-0.0318296,0.483867,-0.155651,0.669219,-0.647767,0.00998945,0,0,0,0,0,0,0,0.0509273,-0.197098,-0.283645,-1.66736,0.202971,1.27583,0.402312,0.237258,0.00397014,0.285183,-0.0632382,0.551802,-0.424425,-8.93928e-05,1.72931,-25.7625,3.16286,24.9594,3.58581,1.68725,-0.00996382,-2.26984,2.67862,-0.790114,-0.675258,-0.895887,0.934253,1.00242,-0.156091,0.818123,-0.850788,1.16071,-0.819121,-0.00650157,
0.0545424,-0.198124,-0.280727,-1.66936,0.201924,-0.297466,-0.38279,0.444351,-0.0275718,0.500035,-0.158313,0.702423,-0.64875,0.00973943,0,0,0,0,0,0,0,0.0509273,-0.197098,-0.283645,-1.66736,0.202971,1.27583,0.402312,0.237258,0.00397014,0.285183,-0.0632382,0.551802,-0.424425,-8.93928e-05,1.72931,-25.7625,3.16286,24.9594,3.58581,1.68725,-0.00996382,-2.54713,1.1356,-1.02128,0.292482,-1.00413,0.217416,0.28741,-0.198789,0.0253074,-0.866352,0.907217,-0.75482,-0.00481857,
0.0563659,-0.198217,-0.278674,-1.67001,0.204862,-0.300033,-0.382752,0.455872,-0.0233396,0.513317,-0.160581,0.734476,-0.641803,0.00949835,0,0,0,0,0,0,0,0.0509273,-0.197098,-0.283645,-1.66736,0.202971,1.27583,0.402312,0.237258,0.00397014,0.285183,-0.0632382,0.551802,-0.424425,-8.93928e-05,1.72931,-25.7625,3.16286,24.9594,3.58581,1.68725,-0.00996382,-2.54713,1.1356,-1.02128,0.292482,-1.00413,0.217416,0.28741,-0.198789,0.0253074,-0.866352,0.907217,-0.75482,-0.00481857,
0.0582275,-0.198294,-0.276577,-1.67066,0.20792,-0.302541,-0.382714,0.465396,-0.0193106,0.524264,-0.162601,0.764591,-0.626845,0.00929967,0,0,0,0,0,0,0,0.058602,-0.197084,-0.274211,-1.6693,0.216511,1.26535,0.402314,0.244557,-0.000983727,0.343092,-0.0668948,0.375705,-0.285145,0.000202527,2.46723,-25.7863,3.63893,24.4357,2.32788,1.57464,-0.0365141,-3.11042,-0.740534,-1.1768,1.40749,-1.35823,-0.661319,-0.547207,-0.399137,-0.967541,-0.806309,0.548074,-0.675318,-0.00278942,
0.0601202,-0.198355,-0.274444,-1.67131,0.21109,-0.304973,-0.382678,0.473171,-0.0152614,0.533208,-0.163654,0.792365,-0.608083,0.00911261,0,0,0,0,0,0,0,0.058602,-0.197084,-0.274211,-1.6693,0.216511,1.26535,0.402314,0.244557,-0.000983727,0.343092,-0.0668948,0.375705,-0.285145,0.000202527,2.46723,-25.7863,3.63893,24.4357,2.32788,1.57464,-0.0365141,-3.11042,-0.740534,-1.1768,1.40749,-1.35823,-0.661319,-0.547207,-0.399137,-0.967541,-0.806309,0.548074,-0.675318,-0.00278942,
0.062038,-0.198401,-0.272282,-1.67197,0.21436,-0.307323,-0.382642,0.479446,-0.0113051,0.540465,-0.163843,0.817632,-0.587435,0.00893327,0,0,0,0,0,0,0,0.058602,-0.197084,-0.274211,-1.6693,0.216511,1.26535,0.402314,0.244557,-0.000983727,0.343092,-0.0668948,0.375705,-0.285145,0.000202527,2.46723,-25.7863,3.63893,24.4357,2.32788,1.57464,-0.0365141,-3.06422,-0.467471,-1.23601,1.17324,-1.28564,-0.511431,-0.407004,-0.335465,-0.784794,-0.838754,0.529909,-0.687761,-0.00532443,
0.0639757,-0.198431,-0.270097,-1.67262,0.217722,-0.309586,-0.382607,0.484445,-0.0075677,0.546294,-0.163392,0.840371,-0.565874,0.0087662,0,0,0,0,0,0,0,0.058602,-0.197084,-0.274211,-1.6693,0.216511,1.26535,0.402314,0.244557,-0.000983727,0.343092,-0.0668948,0.375705,-0.285145,0.000202527,2.46723,-25.7863,3.63893,24.4357,2.32788,1.57464,-0.0365141,-3.06422,-0.467471,-1.23601,1.17324,-1.28564,-0.511431,-0.407004,-0.335465,-0.784794,-0.838754,0.529909,-0.687761,-0.00532443,
0.0659291,-0.198447,-0.267894,-1.67327,0.221164,-0.311762,-0.382573,0.488353,-0.00412912,0.550912,-0.162491,0.860653,-0.543927,0.0086084,0,0,0,0,0,0,0,0.058602,-0.197084,-0.274211,-1.6693,0.216511,1.26535,0.402314,0.244557,-0.000983727,0.343092,-0.0668948,0.375705,-0.285145,0.000202527,2.46723,-25.7863,3.63893,24.4357,2.32788,1.57464,-0.0365141,-2.72776,-0.150504,-1.26859,0.93111,-0.96448,-0.303949,-0.223006,-0.119484,-0.537306,-0.934622,0.537516,-0.740561,-0.00629095,
0.0678944,-0.198451,-0.265676,-1.67392,0.224679,-0.313849,-0.382539,0.491327,-0.00102552,0.554497,-0.161278,0.878606,-0.521887,0.00846216,0,0,0,0,0,0,0,0.0675793,-0.197162,-0.263275,-1.67166,0.229185,1.25732,0.402316,0.294828,-0.00565068,0.343041,-0.0735135,0.428206,-0.217037,0.000475394,2.66956,-25.1119,4.16261,24.5349,2.34619,1.67351,-0.050247,-2.46369,-0.0774728,-1.63294,0.726527,-0.596675,-0.199901,-0.117361,0.169505,-0.405175,-1.08932,0.368135,-0.739937,-0.00738095,
0.0698684,-0.198444,-0.263447,-1.67455,0.228256,-0.315849,-0.382506,0.493497,0.00173738,0.557197,-0.159843,0.894386,-0.499926,0.00832471,0,0,0,0,0,0,0,0.0675793,-0.197162,-0.263275,-1.67166,0.229185,1.25732,0.402316,0.294828,-0.00565068,0.343041,-0.0735135,0.428206,-0.217037,0.000475394,2.66956,-25.1119,4.16261,24.5349,2.34619,1.67351,-0.050247,-2.46369,-0.0774728,-1.63294,0.726527,-0.596675,-0.199901,-0.117361,0.169505,-0.405175,-1.08932,0.368135,-0.739937,-0.00738095,
0.0718483,-0.198428,-0.26121,-1.67519,0.231889,-0.317762,-0.382473,0.494975,0.0041718,0.559135,-0.158248,0.908168,-0.478141,0.00819674,0,0,0,0,0,0,0,0.0675793,-0.197162,-0.263275,-1.67166,0.229185,1.25732,0.402316,0.294828,-0.00565068,0.343041,-0.0735135,0.428206,-0.217037,0.000475394,2.66956,-25.1119,4.16261,24.5349,2.34619,1.67351,-0.050247,-2.17705,0.0566987,-2.1489,0.514447,-0.149781,-0.0762248,-0.00728926,0.531008,-0.244456,-1.31313,0.226587,-0.74864,-0.0080707,
0.0738317,-0.198403,-0.258969,-1.67581,0.235569,-0.319588,-0.382441,0.495852,0.00629984,0.560415,-0.156533,0.920126,-0.456592,0.0080764,0,0,0,0,0,0,0,0.0675793,-0.197162,-0.263275,-1.67166,0.229185,1.25732,0.402316,0.294828,-0.00565068,0.343041,-0.0735135,0.428206,-0.217037,0.000475394,2.66956,-25.1119,4.16261,24.5349,2.34619,1.67351,-0.050247,-2.17705,0.0566987,-2.1489,0.514447,-0.149781,-0.0762248,-0.00728926,0.531008,-0.244456,-1.31313,0.226587,-0.74864,-0.0080707,
0.0758166,-0.19837,-0.256724,-1.67643,0.239291,-0.321329,-0.382409,0.496209,0.0081478,0.561126,-0.154727,0.930435,-0.435317,0.0079632,0,0,0,0,0,0,0,0.0675793,-0.197162,-0.263275,-1.67166,0.229185,1.25732,0.402316,0.294828,-0.00565068,0.343041,-0.0735135,0.428206,-0.217037,0.000475394,2.66956,-25.1119,4.16261,24.5349,2.34619,1.67351,-0.050247,-2.6384,0.342863,-1.71918,0.264067,-0.651601,0.0342976,0.0952909,0.194392,-0.094288,-1.1203,0.247338,-0.777558,-0.00722208,
0.077801,-0.198331,-0.254479,-1.67704,0.243048,-0.322987,-0.382377,0.496114,0.0097435,0.561342,-0.152852,0.939259,-0.414339,0.00785787,0,0,0,0,0,0,0,0.0675793,-0.197162,-0.263275,-1.67166,0.229185,1.25732,0.402316,0.294828,-0.00565068,0.343041,-0.0735135,0.428206,-0.217037,0.000475394,2.66956,-25.1119,4.16261,24.5349,2.34619,1.67351,-0.050247,-2.06097,1.02486,-1.65156,-0.175593,-0.244321,0.405822,0.473315,0.423888,0.302502,-1.1646,0.355835,-0.788498,-0.00799797,
0.0797835,-0.198287,-0.252234,-1.67765,0.246835,-0.324561,-0.382346,0.495627,0.0111139,0.561129,-0.150922,0.946753,-0.393674,0.00775703,0,0,0,0,0,0,0,0.0799117,-0.197142,-0.248485,-1.67467,0.250773,1.2509,0.40231,0.324405,0.000792171,0.373891,-0.0710577,0.548714,-0.096776,-0.00123642,1.93164,-25.5126,3.08748,24.4357,3.19488,1.32287,0.00376909,-2.06097,1.02486,-1.65156,-0.175593,-0.244321,0.405822,0.473315,0.423888,0.302502,-1.1646,0.355835,-0.788498,-0.00799797,
0.0817627,-0.198237,-0.249992,-1.67824,0.250647,-0.326055,-0.382316,0.494796,0.0122846,0.560543,-0.148951,0.953062,-0.373336,0.00766273,0,0,0,0,0,0,0,0.0799117,-0.197142,-0.248485,-1.67467,0.250773,1.2509,0.40231,0.324405,0.000792171,0.373891,-0.0710577,0.548714,-0.096776,-0.00123642,1.93164,-25.5126,3.08748,24.4357,3.19488,1.32287,0.00376909,-2.15931,-0.594252,-1.78915,1.04202,-0.218501,-0.350106,-0.266572,0.425004,-0.585853,-1.23848,0.299582,-0.786244,-0.00317626,
0.0837383,-0.198185,-0.247753,-1.67883,0.254473,-0.327468,-0.382285,0.49388,0.0132191,0.559738,-0.146867,0.956383,-0.353311,0.00754826,0,0,0,0,0,0,0,0.0799117,-0.197142,-0.248485,-1.67467,0.250773,1.2509,0.40231,0.324405,0.000792171,0.373891,-0.0710577,0.548714,-0.096776,-0.00123642,1.93164,-25.5126,3.08748,24.4357,3.19488,1.32287,0.00376909,-2.15931,-0.594252,-1.78915,1.04202,-0.218501,-0.350106,-0.266572,0.425004,-0.585853,-1.23848,0.299582,-0.786244,-0.00317626,
0.0857125,-0.19813,-0.245516,-1.67941,0.258273,-0.328802,-0.382256,0.493568,0.013735,0.559162,-0.144419,0.950053,-0.333546,0.00734783,0,0,0,0,0,0,0,0.0799117,-0.197142,-0.248485,-1.67467,0.250773,1.2509,0.40231,0.324405,0.000792171,0.373891,-0.0710577,0.548714,-0.096776,-0.00123642,1.93164,-25.5126,3.08748,24.4357,3.19488,1.32287,0.00376909,-2.56779,-1.32129,-1.59507,1.60173,-0.620622,-0.72799,-0.641722,0.129429,-1.01619,-1.1033,0.320513,-0.751587,-0.00295369,
0.087685,-0.198074,-0.243282,-1.67998,0.262025,-0.330059,-0.382227,0.493119,0.0139942,0.558717,-0.141864,0.937959,-0.31413,0.0071706,0,0,0,0,0,0,0,0.0799117,-0.197142,-0.248485,-1.67467,0.250773,1.2509,0.40231,0.324405,0.000792171,0.373891,-0.0710577,0.548714,-0.096776,-0.00123642,1.93164,-25.5126,3.08748,24.4357,3.19488,1.32287,0.00376909,-2.36213,-0.270568,-1.67072,1.00409,-0.458772,-0.249058,-0.155312,0.239993,-0.506309,-1.15782,0.546396,-0.758002,-0.0056104,
0.0896546,-0.198017,-0.241049,-1.68053,0.265714,-0.331239,-0.382199,0.492404,0.0140973,0.558159,-0.139308,0.922371,-0.295121,0.00701206,0,0,0,0,0,0,0,0.0904061,-0.197052,-0.235326,-1.67709,0.268776,1.24908,0.402319,0.332261,0.00600875,0.410772,-0.0793909,0.549218,-0.0139184,0.000471044,2.0586,-26.2346,3.06367,24.5627,3.64074,1.16356,-0.0301054,-2.36213,-0.270568,-1.67072,1.00409,-0.458772,-0.249058,-0.155312,0.239993,-0.506309,-1.15782,0.546396,-0.758002,-0.0056104,
0.0916202,-0.197961,-0.238819,-1.68108,0.269333,-0.332345,-0.382172,0.491386,0.0141068,0.557366,-0.136801,0.904655,-0.276545,0.00686805,0,0,0,0,0,0,0,0.0904061,-0.197052,-0.235326,-1.67709,0.268776,1.24908,0.402319,0.332261,0.00600875,0.410772,-0.0793909,0.549218,-0.0139184,0.000471044,2.0586,-26.2346,3.06367,24.5627,3.64074,1.16356,-0.0301054,-2.64616,0.384815,-1.20274,0.67259,-0.852582,0.02268,0.116914,-0.0511319,-0.213181,-0.982412,0.766792,-0.789112,-0.00543554,
0.0935804,-0.197905,-0.236594,-1.68162,0.272876,-0.333379,-0.382145,0.49007,0.0140598,0.556293,-0.134361,0.885645,-0.258409,0.00673375,0,0,0,0,0,0,0,0.0904061,-0.197052,-0.235326,-1.67709,0.268776,1.24908,0.402319,0.332261,0.00600875,0.410772,-0.0793909,0.549218,-0.0139184,0.000471044,2.0586,-26.2346,3.06367,24.5627,3.64074,1.16356,-0.0301054,-2.64616,0.384815,-1.20274,0.67259,-0.852582,0.02268,0.116914,-0.0511319,-0.213181,-0.982412,0.766792,-0.789112,-0.00543554,
0.0483153,-0.197892,-0.287755,-1.66747,0.190732,-0.284593,-0.382954,0.421621,-0.0651624,0.469219,-0.187813,0.501882,-0.304842,0.0105878,0,0,0,0,0,0,0,0.0904061,-0.197052,-0.235326,-1.67709,0.268776,1.24908,0.402319,0.332261,0.00600875,0.410772,-0.0793909,0.549218,-0.0139184,0.000471044,2.0586,-26.2346,3.06367,24.5627,3.64074,1.16356,-0.0301054,-2.61597,0.473151,-1.0572,0.675027,-0.885659,0.0627811,0.142421,-0.0992592,-0.166546,-0.935782,0.858579,-0.78828,-0.00721034,
0.0956759,-0.19743,-0.229391,-1.67897,0.275322,-0.321915,-0.382961,0.472426,-0.0348621,0.533369,-0.169135,0.560926,-0.036253,0.00982906,0,0,0,0,0,0,0,0.0904061,-0.197052,-0.235326,-1.67709,0.268776,1.24908,0.402319,0.332261,0.00600875,0.410772,-0.0793909,0.549218,-0.0139184,0.000471044,2.0586,-26.2346,3.06367,24.5627,3.64074,1.16356,-0.0301054,-2.61597,0.473151,-1.0572,0.675027,-0.885659,0.0627811,0.142421,-0.0992592,-0.166546,-0.935782,0.858579,-0.78828,-0.00721034,
0.0976629,-0.197561,-0.227143,-1.67966,0.277674,-0.322116,-0.382922,0.496743,-0.0327253,0.562131,-0.174025,0.587824,-0.0502451,0.00973469,0,0,0,0,0,0,0,0.101567,-0.19682,-0.222078,-1.67954,0.285182,1.24907,0.402316,0.329373,0.00900174,0.408782,-0.0756156,0.490459,-0.000401019,-0.00070494,1.57856,-26.5837,2.26228,24.5111,3.34777,1.14983,-0.0026396,-2.48796,2.21165,-1.09049,-0.470777,-0.77297,0.878994,0.945693,0.0250708,0.753759,-0.989109,1.07414,-0.835158,-0.0129199,
0.0997278,-0.197676,-0.224802,-1.68037,0.280148,-0.322368,-0.382884,0.516236,-0.0288775,0.585145,-0.175992,0.618541,-0.0628904,0.00959331,0,0,0,0,0,0,0,0.101567,-0.19682,-0.222078,-1.67954,0.285182,1.24907,0.402316,0.329373,0.00900174,0.408782,-0.0756156,0.490459,-0.000401019,-0.00070494,1.57856,-26.5837,2.26228,24.5111,3.34777,1.14983,-0.0026396,-1.70943,3.73219,-0.991887,-1.47077,-0.229347,1.62957,1.69097,0.358808,1.58377,-1.04479,1.2735,-0.854287,-0.0138667,
0.101856,-0.197775,-0.222388,-1.68107,0.28275,-0.322647,-0.382846,0.532035,-0.0247005,0.603697,-0.177238,0.650591,-0.0698253,0.00942823,0,0,0,0,0,0,0,0.101567,-0.19682,-0.222078,-1.67954,0.285182,1.24907,0.402316,0.329373,0.00900174,0.408782,-0.0756156,0.490459,-0.000401019,-0.00070494,1.57856,-26.5837,2.26228,24.5111,3.34777,1.14983,-0.0026396,-1.70943,3.73219,-0.991887,-1.47077,-0.229347,1.62957,1.69097,0.358808,1.58377,-1.04479,1.2735,-0.854287,-0.0138667,
0.104035,-0.197858,-0.219913,-1.68179,0.285479,-0.322927,-0.382809,0.544884,-0.0206375,0.618723,-0.178291,0.682303,-0.0698321,0.00930143,0,0,0,0,0,0,0,0.101567,-0.19682,-0.222078,-1.67954,0.285182,1.24907,0.402316,0.329373,0.00900174,0.408782,-0.0756156,0.490459,-0.000401019,-0.00070494,1.57856,-26.5837,2.26228,24.5111,3.34777,1.14983,-0.0026396,-2.28004,0.353326,-1.39503,0.830657,-0.426142,0.0513484,0.108788,0.225724,-0.188568,-1.15077,0.928995,-0.825488,-0.00675377,
0.106256,-0.197924,-0.217389,-1.6825,0.28833,-0.323192,-0.382772,0.555224,-0.0165637,0.630831,-0.178572,0.712653,-0.0663321,0.00918745,0,0,0,0,0,0,0,0.101567,-0.19682,-0.222078,-1.67954,0.285182,1.24907,0.402316,0.329373,0.00900174,0.408782,-0.0756156,0.490459,-0.000401019,-0.00070494,1.57856,-26.5837,2.26228,24.5111,3.34777,1.14983,-0.0026396,-2.28004,0.353326,-1.39503,0.830657,-0.426142,0.0513484,0.108788,0.225724,-0.188568,-1.15077,0.928995,-0.825488,-0.00675377,
0.108511,-0.197974,-0.214827,-1.68321,0.29129,-0.323435,-0.382736,0.563578,-0.0126457,0.640581,-0.178139,0.740017,-0.0607439,0.00906315,0,0,0,0,0,0,0,0.101567,-0.19682,-0.222078,-1.67954,0.285182,1.24907,0.402316,0.329373,0.00900174,0.408782,-0.0756156,0.490459,-0.000401019,-0.00070494,1.57856,-26.5837,2.26228,24.5111,3.34777,1.14983,-0.0026396,-3.32247,-1.64242,-1.617,2.08378,-1.10636,-0.889329,-0.773944,-0.177686,-1.26768,-1.10365,0.625022,-0.792962,-0.0025879,
0.110797,-0.198012,-0.212231,-1.68392,0.294298,-0.323649,-0.382701,0.571565,-0.00935816,0.649044,-0.176611,0.751883,-0.0536181,0.00879266,0,0,0,0,0,0,0,0.113207,-0.196858,-0.207945,-1.68211,0.296367,1.25034,0.402319,0.361043,-0.00807414,0.469835,-0.0858725,0.349541,0.0689666,-0.000394985,1.50318,-26.2862,2.51222,23.9398,2.95135,1.25603,-0.0301054,-3.32247,-1.64242,-1.617,2.08378,-1.10636,-0.889329,-0.773944,-0.177686,-1.26768,-1.10365,0.625022,-0.792962,-0.0025879,
0.11311,-0.198038,-0.209605,-1.68462,0.297314,-0.323831,-0.382666,0.578205,-0.0065878,0.65641,-0.174625,0.754144,-0.0454522,0.00855763,0,0,0,0,0,0,0,0.113207,-0.196858,-0.207945,-1.68211,0.296367,1.25034,0.402319,0.361043,-0.00807414,0.469835,-0.0858725,0.349541,0.0689666,-0.000394985,1.50318,-26.2862,2.51222,23.9398,2.95135,1.25603,-0.0301054,-3.24008,-0.585781,-1.89914,1.28447,-0.93522,-0.372439,-0.273864,0.011699,-0.662841,-1.21773,0.651857,-0.810333,-0.00562732,
0.115444,-0.198055,-0.206955,-1.68531,0.300315,-0.323977,-0.382633,0.583484,-0.00423249,0.662523,-0.172455,0.750267,-0.0365685,0.00835567,0,0,0,0,0,0,0,0.113207,-0.196858,-0.207945,-1.68211,0.296367,1.25034,0.402319,0.361043,-0.00807414,0.469835,-0.0858725,0.349541,0.0689666,-0.000394985,1.50318,-26.2862,2.51222,23.9398,2.95135,1.25603,-0.0301054,-3.24008,-0.585781,-1.89914,1.28447,-0.93522,-0.372439,-0.273864,0.011699,-0.662841,-1.21773,0.651857,-0.810333,-0.00562732,
0.117794,-0.198064,-0.204286,-1.68599,0.303285,-0.324086,-0.3826,0.587496,-0.00221153,0.66737,-0.170226,0.742376,-0.02717,0.00817487,0,0,0,0,0,0,0,0.113207,-0.196858,-0.207945,-1.68211,0.296367,1.25034,0.402319,0.361043,-0.00807414,0.469835,-0.0858725,0.349541,0.0689666,-0.000394985,1.50318,-26.2862,2.51222,23.9398,2.95135,1.25603,-0.0301054,-3.72328,0.428541,-1.93692,0.47572,-1.27096,0.116639,0.165072,-0.10735,-0.0446329,-1.20007,0.653227,-0.857082,-0.00994187,
0.120155,-0.198066,-0.201602,-1.68666,0.306212,-0.324156,-0.382568,0.590369,-0.00046458,0.671027,-0.167993,0.73181,-0.0173865,0.00801178,0,0,0,0,0,0,0,0.113207,-0.196858,-0.207945,-1.68211,0.296367,1.25034,0.402319,0.361043,-0.00807414,0.469835,-0.0858725,0.349541,0.0689666,-0.000394985,1.50318,-26.2862,2.51222,23.9398,2.95135,1.25603,-0.0301054,-3.19117,1.09981,-2.46257,-0.138798,-0.724743,0.466024,0.508357,0.305424,0.369936,-1.3801,0.558798,-0.794625,-0.0122813,
0.122524,-0.198062,-0.198907,-1.68733,0.30909,-0.324185,-0.382537,0.592236,0.00105401,0.673601,-0.165778,0.719451,-0.00730645,0.00786054,0,0,0,0,0,0,0,0.12537,-0.196878,-0.193376,-1.68512,0.309404,1.25308,0.402322,0.377744,-0.00213321,0.459696,-0.0829149,0.46538,0.0804625,0.000582417,1.70551,-26.0838,2.76216,24.1144,2.5476,1.52154,-0.0566557,-3.19117,1.09981,-2.46257,-0.138798,-0.724743,0.466024,0.508357,0.305424,0.369936,-1.3801,0.558798,-0.794625,-0.0122813,
0.124897,-0.198052,-0.196206,-1.68798,0.311914,-0.324173,-0.382506,0.593221,0.0023801,0.675214,-0.16359,0.705934,0.00300229,0.00771704,0,0,0,0,0,0,0,0.12537,-0.196878,-0.193376,-1.68512,0.309404,1.25308,0.402322,0.377744,-0.00213321,0.459696,-0.0829149,0.46538,0.0804625,0.000582417,1.70551,-26.0838,2.76216,24.1144,2.5476,1.52154,-0.0566557,-2.70607,0.576041,-2.93423,0.0999511,-0.247728,0.239896,0.284115,0.608976,0.126096,-1.5091,0.393224,-0.687342,-0.0116773,
0.127271,-0.198038,-0.193502,-1.68863,0.314681,-0.324119,-0.382476,0.593433,0.00354515,0.675977,-0.161434,0.691804,0.0134822,0.00758316,0,0,0,0,0,0,0,0.12537,-0.196878,-0.193376,-1.68512,0.309404,1.25308,0.402322,0.377744,-0.00213321,0.459696,-0.0829149,0.46538,0.0804625,0.000582417,1.70551,-26.0838,2.76216,24.1144,2.5476,1.52154,-0.0566557,-2.53656,0.281535,-2.9413,0.262902,-0.154105,0.10964,0.150709,0.63602,-0.0130171,-1.48145,0.346735,-0.632983,-0.0101066,
0.129643,-0.19802,-0.190798,-1.68926,0.317391,-0.324023,-0.382446,0.592952,0.00458069,0.675978,-0.159322,0.677677,0.0240773,0.0074521,0,0,0,0,0,0,0,0.12537,-0.196878,-0.193376,-1.68512,0.309404,1.25308,0.402322,0.377744,-0.00213321,0.459696,-0.0829149,0.46538,0.0804625,0.000582417,1.70551,-26.0838,2.76216,24.1144,2.5476,1.52154,-0.0566557,-2.53656,0.281535,-2.9413,0.262902,-0.154105,0.10964,0.150709,0.63602,-0.0130171,-1.48145,0.346735,-0.632983,-0.0101066,
0.13201,-0.197998,-0.188097,-1.68989,0.320049,-0.323884,-0.382416,0.591802,0.00552615,0.675279,-0.157282,0.664494,0.0347267,0.00735021,0,0,0,0,0,0,0,0.12537,-0.196878,-0.193376,-1.68512,0.309404,1.25308,0.402322,0.377744,-0.00213321,0.459696,-0.0829149,0.46538,0.0804625,0.000582417,1.70551,-26.0838,2.76216,24.1144,2.5476,1.52154,-0.0566557,-2.24303,-0.232877,-2.5791,0.606622,-0.17731,-0.142284,-0.0910143,0.490333,-0.299563,-1.2609,0.320531,-0.503963,-0.00759192,
0.13437,-0.197972,-0.185401,-1.69051,0.322656,-0.323702,-0.382387,0.590169,0.00637352,0.674021,-0.155256,0.651526,0.0453951,0.00731223,0,0,0,0,0,0,0,0.12537,-0.196878,-0.193376,-1.68512,0.309404,1.25308,0.402322,0.377744,-0.00213321,0.459696,-0.0829149,0.46538,0.0804625,0.000582417,1.70551,-26.0838,2.76216,24.1144,2.5476,1.52154,-0.0566557,-2.24303,-0.232877,-2.5791,0.606622,-0.17731,-0.142284,-0.0910143,0.490333,-0.299563,-1.2609,0.320531,-0.503963,-0.00759192,
0.136726,-0.197944,-0.182711,-1.69112,0.325184,-0.323478,-0.382358,0.588842,0.0069489,0.672636,-0.152885,0.632065,0.0561403,0.00717674,0,0,0,0,0,0,0,0.137538,-0.196807,-0.178966,-1.68765,0.323211,1.25505,0.402321,0.405433,0.00116261,0.501053,-0.0819061,0.444877,0.055512,0.000707323,1.12232,-26.8337,1.86159,24.1898,3.24432,1.4547,-0.050247,-2.00646,-0.486913,-2.52821,0.83319,-0.0992275,-0.291254,-0.237763,0.466909,-0.475454,-1.17718,0.367113,-0.397349,-0.00705864,
0.139075,-0.197915,-0.180026,-1.69173,0.327622,-0.32321,-0.38233,0.587203,0.00733986,0.671136,-0.150484,0.609506,0.066889,0.00704262,0,0,0,0,0,0,0,0.137538,-0.196807,-0.178966,-1.68765,0.323211,1.25505,0.402321,0.405433,0.00116261,0.501053,-0.0819061,0.444877,0.055512,0.000707323,1.12232,-26.8337,1.86159,24.1898,3.24432,1.4547,-0.050247,-2.00646,-0.486913,-2.52821,0.83319,-0.0992275,-0.291254,-0.237763,0.466909,-0.475454,-1.17718,0.367113,-0.397349,-0.00705864,
0.141415,-0.197884,-0.177349,-1.69232,0.329964,-0.3229,-0.382303,0.585209,0.00761735,0.669372,-0.14814,0.585577,0.0775661,0.00692282,0,0,0,0,0,0,0,0.137538,-0.196807,-0.178966,-1.68765,0.323211,1.25505,0.402321,0.405433,0.00116261,0.501053,-0.0819061,0.444877,0.055512,0.000707323,1.12232,-26.8337,1.86159,24.1898,3.24432,1.4547,-0.050247,-2.86861,0.0537168,-2.39041,0.500075,-0.841827,-0.0685683,-0.0181558,0.035155,-0.212377,-1.00841,0.471464,-0.37483,-0.00629792,
0.143747,-0.197853,-0.174679,-1.6929,0.332209,-0.322547,-0.382275,0.582884,0.00782725,0.667295,-0.145872,0.561174,0.0881215,0.00681373,0,0,0,0,0,0,0,0.137538,-0.196807,-0.178966,-1.68765,0.323211,1.25505,0.402321,0.405433,0.00116261,0.501053,-0.0819061,0.444877,0.055512,0.000707323,1.12232,-26.8337,1.86159,24.1898,3.24432,1.4547,-0.050247,-2.65775,0.0844446,-2.44478,0.511668,-0.714103,-0.0748161,-0.0383797,0.0866314,-0.212335,-0.990538,0.521119,-0.303153,-0.00649372,
0.146068,-0.197821,-0.17202,-1.69348,0.334356,-0.322153,-0.382248,0.580265,0.00799603,0.664912,-0.143678,0.536756,0.0985265,0.00671006,0,0,0,0,0,0,0,0.137538,-0.196807,-0.178966,-1.68765,0.323211,1.25505,0.402321,0.405433,0.00116261,0.501053,-0.0819061,0.444877,0.055512,0.000707323,1.12232,-26.8337,1.86159,24.1898,3.24432,1.4547,-0.050247,-2.65775,0.0844446,-2.44478,0.511668,-0.714103,-0.0748161,-0.0383797,0.0866314,-0.212335,-0.990538,0.521119,-0.303153,-0.00649372,
0.148378,-0.197789,-0.169371,-1.69404,0.336406,-0.321718,-0.382222,0.577399,0.00813821,0.662255,-0.141547,0.512553,0.108765,0.00660996,0,0,0,0,0,0,0,0.156058,-0.196374,-0.156979,-1.69065,0.339346,1.25658,0.402319,0.431347,0.0105089,0.518425,-0.063312,0.311594,0.0358674,-0.000425503,2.03479,-27.159,2.5638,24.4873,3.15826,1.64055,-0.0301054,-2.53475,0.681154,-2.55185,0.155228,-0.584857,0.189921,0.208201,0.196553,0.0905187,-1.03864,0.639575,-0.293184,-0.00815345,
0.150675,-0.197756,-0.166733,-1.6946,0.338361,-0.321243,-0.382196,0.574326,0.00826142,0.659362,-0.13947,0.488678,0.118827,0.0065113,0,0,0,0,0,0,0,0.156058,-0.196374,-0.156979,-1.69065,0.339346,1.25658,0.402319,0.431347,0.0105089,0.518425,-0.063312,0.311594,0.0358674,-0.000425503,2.03479,-27.159,2.5638,24.4873,3.15826,1.64055,-0.0301054,-2.53475,0.681154,-2.55185,0.155228,-0.584857,0.189921,0.208201,0.196553,0.0905187,-1.03864,0.639575,-0.293184,-0.00815345,
0.152959,-0.197722,-0.164108,-1.69515,0.340221,-0.320728,-0.38217,0.571087,0.00836953,0.656268,-0.137441,0.465183,0.128707,0.00641494,0,0,0,0,0,0,0,0.156058,-0.196374,-0.156979,-1.69065,0.339346,1.25658,0.402319,0.431347,0.0105089,0.518425,-0.063312,0.311594,0.0358674,-0.000425503,2.03479,-27.159,2.5638,24.4873,3.15826,1.64055,-0.0301054,-2.65584,0.846495,-2.53406,0.0829979,-0.67821,0.265781,0.292287,0.144594,0.162723,-1.02057,0.708901,-0.28848,-0.00735926,
0.0961049,-0.197636,-0.228958,-1.67924,0.273526,-0.319897,-0.382963,0.518245,-0.0524003,0.582913,-0.190137,0.357631,0.181533,0.00953867,0,0,0,0,0,0,0,0.156058,-0.196374,-0.156979,-1.69065,0.339346,1.25658,0.402319,0.431347,0.0105089,0.518425,-0.063312,0.311594,0.0358674,-0.000425503,2.03479,-27.159,2.5638,24.4873,3.15826,1.64055,-0.0301054,-2.65584,0.846495,-2.53406,0.0829979,-0.67821,0.265781,0.292287,0.144594,0.162723,-1.02057,0.708901,-0.28848,-0.00735926,
0.162362,-0.196765,-0.149802,-1.69267,0.342832,-0.312021,-0.382964,0.555827,-0.0345905,0.633833,-0.183625,0.286602,0.213257,0.00971778,0,0,0,0,0,0,0,0.156058,-0.196374,-0.156979,-1.69065,0.339346,1.25658,0.402319,0.431347,0.0105089,0.518425,-0.063312,0.311594,0.0358674,-0.000425503,2.03479,-27.159,2.5638,24.4873,3.15826,1.64055,-0.0301054,-3.42959,0.454345,-2.19944,0.401322,-1.40484,0.089733,0.105594,-0.35043,-0.0219209,-0.79717,0.741483,-0.269337,-0.00793897,
0.164674,-0.196886,-0.147162,-1.69342,0.343982,-0.311116,-0.382926,0.577931,-0.0302236,0.660083,-0.185597,0.287386,0.226248,0.00942518,0,0,0,0,0,0,0,0.156058,-0.196374,-0.156979,-1.69065,0.339346,1.25658,0.402319,0.431347,0.0105089,0.518425,-0.063312,0.311594,0.0358674,-0.000425503,2.03479,-27.159,2.5638,24.4873,3.15826,1.64055,-0.0301054,-3.42959,0.454345,-2.19944,0.401322,-1.40484,0.089733,0.105594,-0.35043,-0.0219209,-0.79717,0.741483,-0.269337,-0.00793897,
0.167056,-0.196987,-0.144438,-1.69416,0.345141,-0.310164,-0.38289,0.595595,-0.0253333,0.681032,-0.18583,0.289896,0.237982,0.00915701,0,0,0,0,0,0,0,0.170597,-0.195855,-0.139477,-1.69267,0.347848,1.25837,0.40232,0.44102,0.0065072,0.520994,-0.0622207,0.185298,0.0641381,5.68336e-05,-2.02374,-27.6589,-1.78832,24.4119,2.08343,1.90606,-0.0429228,-2.76884,1.929,-2.60177,-0.626498,-0.732471,0.777564,0.790812,0.184055,0.742989,-1.03767,0.868234,-0.290456,-0.0115165,
0.169494,-0.197069,-0.141647,-1.6949,0.346317,-0.309172,-0.382854,0.609474,-0.0203991,0.697616,-0.185115,0.293938,0.247974,0.00892788,0,0,0,0,0,0,0,0.170597,-0.195855,-0.139477,-1.69267,0.347848,1.25837,0.40232,0.44102,0.0065072,0.520994,-0.0622207,0.185298,0.0641381,5.68336e-05,-2.02374,-27.6589,-1.78832,24.4119,2.08343,1.90606,-0.0429228,-1.78092,1.13924,-2.80365,-0.15139,0.0754194,0.40166,0.392491,0.619157,0.336614,-1.17519,0.749046,-0.236902,-0.0110305,
0.171975,-0.197132,-0.138805,-1.69564,0.347515,-0.308147,-0.382819,0.620128,-0.0156971,0.710582,-0.18398,0.299578,0.256418,0.00884269,0,0,0,0,0,0,0,0.170597,-0.195855,-0.139477,-1.69267,0.347848,1.25837,0.40232,0.44102,0.0065072,0.520994,-0.0622207,0.185298,0.0641381,5.68336e-05,-2.02374,-27.6589,-1.78832,24.4119,2.08343,1.90606,-0.0429228,-1.78092,1.13924,-2.80365,-0.15139,0.0754194,0.40166,0.392491,0.619157,0.336614,-1.17519,0.749046,-0.236902,-0.0110305,
0.174492,-0.197178,-0.13592,-1.69636,0.348693,-0.307092,-0.382784,0.629447,-0.0116405,0.721113,-0.181937,0.294293,0.263795,0.00862334,0,0,0,0,0,0,0,0.170597,-0.195855,-0.139477,-1.69267,0.347848,1.25837,0.40232,0.44102,0.0065072,0.520994,-0.0622207,0.185298,0.0641381,5.68336e-05,-2.02374,-27.6589,-1.78832,24.4119,2.08343,1.90606,-0.0429228,-2.20162,-0.929023,-2.7154,1.21585,-0.301755,-0.535057,-0.523037,0.263054,-0.72232,-1.04829,0.529493,-0.179791,-0.00917334,
0.177039,-0.197211,-0.133002,-1.69708,0.349826,-0.30601,-0.38275,0.636733,-0.00820021,0.729673,-0.179713,0.28327,0.270397,0.00842197,0,0,0,0,0,0,0,0.170597,-0.195855,-0.139477,-1.69267,0.347848,1.25837,0.40232,0.44102,0.0065072,0.520994,-0.0622207,0.185298,0.0641381,5.68336e-05,-2.02374,-27.6589,-1.78832,24.4119,2.08343,1.90606,-0.0429228,-2.20162,-0.929023,-2.7154,1.21585,-0.301755,-0.535057,-0.523037,0.263054,-0.72232,-1.04829,0.529493,-0.179791,-0.00917334,
0.179608,-0.197232,-0.130056,-1.69779,0.350902,-0.304904,-0.382717,0.642177,-0.00527636,0.736343,-0.177522,0.269185,0.276409,0.00824894,0,0,0,0,0,0,0,0.184821,-0.195928,-0.122351,-1.69513,0.351632,1.26224,0.402322,0.468196,-0.00563579,0.561105,-0.0824946,0.0906604,0.170576,-0.00306243,-0.222592,-26.6353,0.588087,24.2136,2.60894,1.89965,-0.0630644,-2.83612,-0.481209,-2.67776,0.849961,-0.794706,-0.272826,-0.18774,0.0188759,-0.476909,-0.979327,0.519008,-0.202243,-0.00901211,
0.182192,-0.197243,-0.127091,-1.69849,0.351916,-0.303776,-0.382685,0.646027,-0.00277413,0.741296,-0.175413,0.253456,0.281984,0.00809166,0,0,0,0,0,0,0,0.184821,-0.195928,-0.122351,-1.69513,0.351632,1.26224,0.402322,0.468196,-0.00563579,0.561105,-0.0824946,0.0906604,0.170576,-0.00306243,-0.222592,-26.6353,0.588087,24.2136,2.60894,1.89965,-0.0630644,-2.54035,-0.468426,-3.15904,0.741826,-0.383307,-0.265577,-0.235661,0.343981,-0.413968,-1.18661,0.452845,-0.199444,-0.0107084,
0.184786,-0.197246,-0.124112,-1.69919,0.352864,-0.302627,-0.382653,0.648517,-0.000618644,0.744746,-0.173378,0.236846,0.287251,0.00794903,0,0,0,0,0,0,0,0.184821,-0.195928,-0.122351,-1.69513,0.351632,1.26224,0.402322,0.468196,-0.00563579,0.561105,-0.0824946,0.0906604,0.170576,-0.00306243,-0.222592,-26.6353,0.588087,24.2136,2.60894,1.89965,-0.0630644,-2.54035,-0.468426,-3.15904,0.741826,-0.383307,-0.265577,-0.235661,0.343981,-0.413968,-1.18661,0.452845,-0.199444,-0.0107084,
0.187386,-0.197241,-0.121124,-1.69987,0.353743,-0.301458,-0.382622,0.649861,0.00124741,0.746909,-0.171397,0.219783,0.29231,0.00781659,0,0,0,0,0,0,0,0.184821,-0.195928,-0.122351,-1.69513,0.351632,1.26224,0.402322,0.468196,-0.00563579,0.561105,-0.0824946,0.0906604,0.170576,-0.00306243,-0.222592,-26.6353,0.588087,24.2136,2.60894,1.89965,-0.0630644,-3.12604,0.225587,-3.22267,0.146295,-0.839547,0.0987201,0.0777962,0.156088,0.0659514,-1.12851,0.419612,-0.195417,-0.0116854,
0.189987,-0.197229,-0.118133,-1.70055,0.354553,-0.300269,-0.382591,0.65024,0.00286876,0.747977,-0.169451,0.202543,0.297236,0.00768727,0,0,0,0,0,0,0,0.184821,-0.195928,-0.122351,-1.69513,0.351632,1.26224,0.402322,0.468196,-0.00563579,0.561105,-0.0824946,0.0906604,0.170576,-0.00306243,-0.222592,-26.6353,0.588087,24.2136,2.60894,1.89965,-0.0630644,-3.12604,0.225587,-3.22267,0.146295,-0.839547,0.0987201,0.0777962,0.156088,0.0659514,-1.12851,0.419612,-0.195417,-0.0116854,
0.192586,-0.197212,-0.11514,-1.70122,0.355295,-0.299061,-0.382561,0.649803,0.00428413,0.748116,-0.167529,0.185408,0.302074,0.00756631,0,0,0,0,0,0,0,0.184821,-0.195928,-0.122351,-1.69513,0.351632,1.26224,0.402322,0.468196,-0.00563579,0.561105,-0.0824946,0.0906604,0.170576,-0.00306243,-0.222592,-26.6353,0.588087,24.2136,2.60894,1.89965,-0.0630644,-2.37196,0.0941671,-3.3587,0.0985285,-0.318587,0.0114201,-0.0112893,0.437388,-0.0112243,-1.15667,0.281218,-0.0932498,-0.0100232,
0.19518,-0.19719,-0.11215,-1.70188,0.35597,-0.297834,-0.382531,0.64865,0.005533,0.747443,-0.165642,0.168897,0.306842,0.00742421,0,0,0,0,0,0,0,0.19967,-0.195911,-0.104867,-1.69765,0.354491,1.26817,0.402316,0.483845,0.00138855,0.563563,-0.0769257,0.0902666,0.199401,-0.000788639,1.55078,-26.8852,1.83778,24.3365,3.10974,1.87951,-0.0026396,-2.37196,0.0941671,-3.3587,0.0985285,-0.318587,0.0114201,-0.0112893,0.437388,-0.0112243,-1.15667,0.281218,-0.0932498,-0.0100232,
0.197767,-0.197163,-0.109166,-1.70254,0.356587,-0.296587,-0.382502,0.646775,0.00666807,0.746019,-0.163848,0.154278,0.311522,0.00726107,0,0,0,0,0,0,0,0.19967,-0.195911,-0.104867,-1.69765,0.354491,1.26817,0.402316,0.483845,0.00138855,0.563563,-0.0769257,0.0902666,0.199401,-0.000788639,1.55078,-26.8852,1.83778,24.3365,3.10974,1.87951,-0.0026396,-2.07782,0.893203,-3.67731,-0.4937,-0.00616352,0.36141,0.349665,0.712276,0.375691,-1.27868,0.327862,-0.0595136,-0.0103495,
0.200344,-0.197133,-0.10619,-1.70319,0.357154,-0.295323,-0.382473,0.644268,0.00771541,0.743959,-0.162126,0.141651,0.316093,0.00725026,0,0,0,0,0,0,0,0.19967,-0.195911,-0.104867,-1.69765,0.354491,1.26817,0.402316,0.483845,0.00138855,0.563563,-0.0769257,0.0902666,0.199401,-0.000788639,1.55078,-26.8852,1.83778,24.3365,3.10974,1.87951,-0.0026396,-2.07782,0.893203,-3.67731,-0.4937,-0.00616352,0.36141,0.349665,0.712276,0.375691,-1.27868,0.327862,-0.0595136,-0.0103495,
