PerkyPenguin/Analysis-on-Approximated-Derivatives/Code_and_Data/PaperData/Real_Robot/Scene_1/set_interval/17/trajectory.csv
Commanded Joint 0 Position,Commanded Joint 1 Position,Commanded Joint 2 Position,Commanded Joint 3 Position,Commanded Joint 4 Position,Commanded Joint 5 Position,Commanded Joint 6 Position,Commanded Joint 0 Velocity,Commanded Joint 1 Velocity,Commanded Joint 2 Velocity,Commanded Joint 3 Velocity,Commanded Joint 4 Velocity,Commanded Joint 5 Velocity,Commanded Joint 6 Velocity,Commanded Joint 0 Torque,Commanded Joint 1 Torque,Commanded Joint 2 Torque,Commanded Joint 3 Torque,Commanded Joint 4 Torque,Commanded Joint 5 Torque,Commanded Joint 6 Torque,Actual Joint 0 Position,Actual Joint 1 Position,Actual Joint 2 Position,Actual Joint 3 Position,Actual Joint 4 Position,Actual Joint 5 Position,Actual Joint 6 Position,Actual Joint 0 Velocity,Actual Joint 1 Velocity,Actual Joint 2 Velocity,Actual Joint 3 Velocity,Actual Joint 4 Velocity,Actual Joint 5 Velocity,Actual Joint 6 Velocity,Actual Joint 0 Torque,Actual Joint 1 Torque,Actual Joint 2 Torque,Actual Joint 3 Torque,Actual Joint 4 Torque,Actual Joint 5 Torque,Actual Joint 6 Torque,EE ext force 0,EE ext force 1,EE ext force 2,EE ext force 3,EE ext force 4,EE ext force 5,joint ext torque 0,joint ext torque 1,joint ext torque 2,joint ext torque 3,joint ext torque 4,joint ext torque 5,joint ext torque 6,
0.0138043,-0.204135,-0.330134,-1.662,-0.0930764,-0.0894314,-0.383176,-0.00211819,0.017297,-0.0124385,-0.151863,0.000167822,0.199414,-0.00215091,0,0,0,0,0,0,0,0.0138087,-0.204199,-0.330036,-1.66046,-0.0930102,1.47936,0.402242,-0.000347989,-0.00362811,0.000164145,0.000618029,0.00257706,0.000140157,-0.00040472,-0.0440639,-25.0365,1.96077,25.9076,0.324703,2.98638,-0.0301054,-0.816286,-0.081143,-0.224719,0.0855612,-0.185797,-0.131386,-0.0438468,0.0792427,-0.214634,-0.331824,-0.138974,-0.347382,-0.0451822,
0.0137908,-0.203993,-0.330196,-1.66264,-0.0930779,-0.0886074,-0.383184,-0.00337292,0.0353839,-0.0153831,-0.160874,-0.000380703,0.205998,-0.002043,0,0,0,0,0,0,0,0.0138087,-0.204199,-0.330036,-1.66046,-0.0930102,1.47936,0.402242,-0.000347989,-0.00362811,0.000164145,0.000618029,0.00257706,0.000140157,-0.00040472,-0.0440639,-25.0365,1.96077,25.9076,0.324703,2.98638,-0.0301054,-1.26975,-0.0681053,0.0325562,0.0206532,-0.637798,-0.206575,-0.11642,-0.2211,-0.277353,-0.169842,-0.155215,-0.338501,-0.0439374,
0.0138069,-0.204237,-0.330037,-1.66044,-0.0929836,-0.0914344,-0.383156,-9.44233e-05,-0.00190654,-6.6146e-05,0.000956602,0.00121528,0.000238937,7.96631e-06,0,0,0,0,0,0,0,0.0138087,-0.204199,-0.330036,-1.66046,-0.0930102,1.47936,0.402242,-0.000347989,-0.00362811,0.000164145,0.000618029,0.00257706,0.000140157,-0.00040472,-0.0440639,-25.0365,1.96077,25.9076,0.324703,2.98638,-0.0301054,-1.26975,-0.0681053,0.0325562,0.0206532,-0.637798,-0.206575,-0.11642,-0.2211,-0.277353,-0.169842,-0.155215,-0.338501,-0.0439374,
0.0138065,-0.204244,-0.330038,-1.66044,-0.0929796,-0.0914332,-0.383156,-8.1632e-05,-0.0016913,-6.4139e-05,0.000864441,0.000985138,0.000319495,7.24031e-06,0,0,0,0,0,0,0,0.0138087,-0.204199,-0.330036,-1.66046,-0.0930102,1.47936,0.402242,-0.000347989,-0.00362811,0.000164145,0.000618029,0.00257706,0.000140157,-0.00040472,-0.0440639,-25.0365,1.96077,25.9076,0.324703,2.98638,-0.0301054,-0.664611,-0.0354026,-0.220739,0.0444065,-0.0813642,-0.0815289,0.00361871,0.133685,-0.158687,-0.335892,-0.138209,-0.333744,-0.0478679,
0.0138062,-0.20425,-0.330038,-1.66044,-0.0929765,-0.0914317,-0.383156,-7.03406e-05,-0.00150901,-6.25428e-05,0.000778685,0.00079099,0.000365893,6.52421e-06,0,0,0,0,0,0,0,0.0138087,-0.204199,-0.330036,-1.66046,-0.0930102,1.47936,0.402242,-0.000347989,-0.00362811,0.000164145,0.000618029,0.00257706,0.000140157,-0.00040472,-0.0440639,-25.0365,1.96077,25.9076,0.324703,2.98638,-0.0301054,-0.961524,0.124489,-0.650511,-0.0192832,-0.166243,-0.0607823,0.0229157,0.148025,-0.135091,-0.446749,-0.136508,-0.322608,-0.0478609,
0.013806,-0.204255,-0.330038,-1.66043,-0.0929739,-0.0914302,-0.383156,-6.05733e-05,-0.00135338,-6.13658e-05,0.000701341,0.000627348,0.000384205,5.90041e-06,0,0,0,0,0,0,0,0.0138046,-0.204299,-0.330039,-1.66082,-0.0930356,1.47991,0.402243,-0.000850838,-0.0060334,-0.00117335,-0.0194568,0.00909243,0.0508311,0.000167705,0.00751081,-24.0645,1.96077,25.1578,0.514218,3.09899,-0.0429228,-0.961524,0.124489,-0.650511,-0.0192832,-0.166243,-0.0607823,0.0229157,0.148025,-0.135091,-0.446749,-0.136508,-0.322608,-0.0478609,
0.0138058,-0.20426,-0.330038,-1.66043,-0.092972,-0.0914286,-0.383156,-5.21831e-05,-0.00121998,-6.05484e-05,0.000632371,0.000489369,0.000380865,5.37866e-06,0,0,0,0,0,0,0,0.0138046,-0.204299,-0.330039,-1.66082,-0.0930356,1.47991,0.402243,-0.000850838,-0.0060334,-0.00117335,-0.0194568,0.00909243,0.0508311,0.000167705,0.00751081,-24.0645,1.96077,25.1578,0.514218,3.09899,-0.0429228,-2.1974,0.200997,-1.12728,-0.0300193,-0.966485,-0.242101,-0.152126,-0.24113,-0.31986,-0.451996,-0.157403,-0.305951,-0.0469222,
0.0138056,-0.204265,-0.330039,-1.66043,-0.0929705,-0.0914272,-0.383156,-4.49902e-05,-0.00110538,-6.00223e-05,0.000571128,0.000372942,0.0003615,4.949e-06,0,0,0,0,0,0,0,0.0138046,-0.204299,-0.330039,-1.66082,-0.0930356,1.47991,0.402243,-0.000850838,-0.0060334,-0.00117335,-0.0194568,0.00909243,0.0508311,0.000167705,0.00751081,-24.0645,1.96077,25.1578,0.514218,3.09899,-0.0429228,-2.1974,0.200997,-1.12728,-0.0300193,-0.966485,-0.242101,-0.152126,-0.24113,-0.31986,-0.451996,-0.157403,-0.305951,-0.0469222,
0.0138055,-0.204269,-0.330039,-1.66043,-0.0929694,-0.0914259,-0.383156,-3.88242e-05,-0.00100678,-5.97263e-05,0.00051683,0.000274614,0.000330712,4.59745e-06,0,0,0,0,0,0,0,0.0138046,-0.204299,-0.330039,-1.66082,-0.0930356,1.47991,0.402243,-0.000850838,-0.0060334,-0.00117335,-0.0194568,0.00909243,0.0508311,0.000167705,0.00751081,-24.0645,1.96077,25.1578,0.514218,3.09899,-0.0429228,-0.652668,-0.241599,-1.37929,0.350994,0.286468,-0.165454,-0.0739803,0.493986,-0.295443,-0.701244,-0.144447,-0.263922,-0.0490429,
0.0138053,-0.204272,-0.330039,-1.66043,-0.0929686,-0.0914247,-0.383156,-3.3535e-05,-0.000921822,-5.96092e-05,0.000468719,0.0001915,0.000292151,4.31064e-06,0,0,0,0,0,0,0,0.0138046,-0.204299,-0.330039,-1.66082,-0.0930356,1.47991,0.402243,-0.000850838,-0.0060334,-0.00117335,-0.0194568,0.00909243,0.0508311,0.000167705,0.00751081,-24.0645,1.96077,25.1578,0.514218,3.09899,-0.0429228,-1.15373,-0.182836,-0.502541,0.158268,-0.466963,-0.229869,-0.138328,-0.0902929,-0.321808,-0.266069,-0.148843,-0.219004,-0.0471364,
0.0138052,-0.204276,-0.330039,-1.66042,-0.0929681,-0.0914237,-0.383156,-2.89935e-05,-0.000848547,-5.96298e-05,0.000426098,0.000121188,0.000248662,4.07705e-06,0,0,0,0,0,0,0,0.0138046,-0.204299,-0.330039,-1.66082,-0.0930356,1.47991,0.402243,-0.000850838,-0.0060334,-0.00117335,-0.0194568,0.00909243,0.0508311,0.000167705,0.00751081,-24.0645,1.96077,25.1578,0.514218,3.09899,-0.0429228,-1.15373,-0.182836,-0.502541,0.158268,-0.466963,-0.229869,-0.138328,-0.0902929,-0.321808,-0.266069,-0.148843,-0.219004,-0.0471364,
0.0138051,-0.204279,-0.330039,-1.66042,-0.0929679,-0.0914229,-0.383156,-2.50897e-05,-0.000785279,-5.97546e-05,0.000388345,6.16571e-05,0.000202432,3.88702e-06,0,0,0,0,0,0,0,0.0138096,-0.204154,-0.330034,-1.66085,-0.0930531,1.48016,0.402246,-0.00258805,0.00801443,-0.00145468,0.00117848,-0.0014297,0.00249488,0.000592302,-0.0440639,-25.9093,1.93696,26.0306,0.63049,3.07976,-0.0630644,-0.429634,-0.157993,-0.834505,0.19342,0.214924,-0.0894072,0.00240697,0.349848,-0.194549,-0.478017,-0.140059,-0.216131,-0.048256,
0.013805,-0.204282,-0.33004,-1.66042,-0.0929679,-0.0914223,-0.383156,-2.17302e-05,-0.000730597,-5.99569e-05,0.000354904,1.12175e-05,0.000155117,3.7326e-06,0,0,0,0,0,0,0,0.0138096,-0.204154,-0.330034,-1.66085,-0.0930531,1.48016,0.402246,-0.00258805,0.00801443,-0.00145468,0.00117848,-0.0014297,0.00249488,0.000592302,-0.0440639,-25.9093,1.93696,26.0306,0.63049,3.07976,-0.0630644,-0.429634,-0.157993,-0.834505,0.19342,0.214924,-0.0894072,0.00240697,0.349848,-0.194549,-0.478017,-0.140059,-0.216131,-0.048256,
0.0138049,-0.204285,-0.33004,-1.66042,-0.092968,-0.0914218,-0.383156,-1.88354e-05,-0.000683293,-6.02154e-05,0.000325284,-3.155e-05,0.000107951,3.60726e-06,0,0,0,0,0,0,0,0.0138096,-0.204154,-0.330034,-1.66085,-0.0930531,1.48016,0.402246,-0.00258805,0.00801443,-0.00145468,0.00117848,-0.0014297,0.00249488,0.000592302,-0.0440639,-25.9093,1.93696,26.0306,0.63049,3.07976,-0.0630644,-1.10771,-0.046261,-0.922146,0.115742,-0.255097,-0.160091,-0.0531426,0.105192,-0.267626,-0.448889,-0.155628,-0.24083,-0.0447395,
0.0138049,-0.204287,-0.33004,-1.66042,-0.0929682,-0.0914216,-0.383156,-1.6338e-05,-0.000642337,-6.05131e-05,0.000299049,-6.78369e-05,6.18334e-05,3.50563e-06,0,0,0,0,0,0,0,0.0138096,-0.204154,-0.330034,-1.66085,-0.0930531,1.48016,0.402246,-0.00258805,0.00801443,-0.00145468,0.00117848,-0.0014297,0.00249488,0.000592302,-0.0440639,-25.9093,1.93696,26.0306,0.63049,3.07976,-0.0630644,-1.61364,0.0376489,-0.698706,0.0176534,-0.734292,-0.209454,-0.096574,-0.204941,-0.305898,-0.299023,-0.15594,-0.238361,-0.0460293,
0.0138048,-0.20429,-0.33004,-1.66042,-0.0929686,-0.0914215,-0.383156,-1.41803e-05,-0.000606851,-6.08367e-05,0.000275815,-9.86447e-05,1.74018e-05,3.42334e-06,0,0,0,0,0,0,0,0.0138096,-0.204154,-0.330034,-1.66085,-0.0930531,1.48016,0.402246,-0.00258805,0.00801443,-0.00145468,0.00117848,-0.0014297,0.00249488,0.000592302,-0.0440639,-25.9093,1.93696,26.0306,0.63049,3.07976,-0.0630644,-1.61364,0.0376489,-0.698706,0.0176534,-0.734292,-0.209454,-0.096574,-0.204941,-0.305898,-0.299023,-0.15594,-0.238361,-0.0460293,
0.0138048,-0.204292,-0.330041,-1.66042,-0.0929691,-0.0914216,-0.383156,-1.23137e-05,-0.000576083,-6.11757e-05,0.000255238,-0.000124816,-2.49112e-05,3.35677e-06,0,0,0,0,0,0,0,0.0138178,-0.204138,-0.330034,-1.66083,-0.0930457,1.48018,0.402242,0.000602791,0.000127119,0.00111616,-0.00707784,-0.00415306,-0.000242506,-4.03224e-05,-0.171017,-25.7863,1.91316,26.6296,0.60577,2.97997,-0.0301054,-1.20116,0.0978431,-0.660621,-0.00238991,-0.403088,-0.113767,-0.0112064,-0.0104128,-0.204064,-0.368024,-0.129272,-0.270422,-0.0444638,
0.0138047,-0.204294,-0.330041,-1.66042,-0.0929697,-0.0914219,-0.383156,-1.06966e-05,-0.000549391,-6.1522e-05,0.000237017,-0.000147061,-6.48314e-05,3.303e-06,0,0,0,0,0,0,0,0.0138178,-0.204138,-0.330034,-1.66083,-0.0930457,1.48018,0.402242,0.000602791,0.000127119,0.00111616,-0.00707784,-0.00415306,-0.000242506,-4.03224e-05,-0.171017,-25.7863,1.91316,26.6296,0.60577,2.97997,-0.0301054,-1.20116,0.0978431,-0.660621,-0.00238991,-0.403088,-0.113767,-0.0112064,-0.0104128,-0.204064,-0.368024,-0.129272,-0.270422,-0.0444638,
0.0138047,-0.204296,-0.330041,-1.66041,-0.0929704,-0.0914223,-0.383156,-9.2935e-06,-0.000526222,-6.18696e-05,0.000220884,-0.000165977,-0.000102206,3.25961e-06,0,0,0,0,0,0,0,0.0138178,-0.204138,-0.330034,-1.66083,-0.0930457,1.48018,0.402242,0.000602791,0.000127119,0.00111616,-0.00707784,-0.00415306,-0.000242506,-4.03224e-05,-0.171017,-25.7863,1.91316,26.6296,0.60577,2.97997,-0.0301054,-1.24609,0.0574097,-0.690944,0.0259406,-0.409131,-0.13999,-0.0393879,-0.00157513,-0.231098,-0.388692,-0.142197,-0.285099,-0.0451074,
0.0138047,-0.204298,-0.330041,-1.66041,-0.0929711,-0.0914228,-0.383156,-8.07437e-06,-0.000506104,-6.22138e-05,0.000206601,-0.00018207,-0.000136973,3.22465e-06,0,0,0,0,0,0,0,0.0138178,-0.204138,-0.330034,-1.66083,-0.0930457,1.48018,0.402242,0.000602791,0.000127119,0.00111616,-0.00707784,-0.00415306,-0.000242506,-4.03224e-05,-0.171017,-25.7863,1.91316,26.6296,0.60577,2.97997,-0.0301054,-1.56242,0.0809605,-0.655405,-0.00343316,-0.663477,-0.184087,-0.0864557,-0.150077,-0.267029,-0.339007,-0.149317,-0.288428,-0.0466912,
0.0138046,-0.2043,-0.330042,-1.66041,-0.0929719,-0.0914235,-0.383156,-7.01345e-06,-0.000488631,-6.25514e-05,0.000193958,-0.000195765,-0.000169141,3.1965e-06,0,0,0,0,0,0,0,0.0138178,-0.204138,-0.330034,-1.66083,-0.0930457,1.48018,0.402242,0.000602791,0.000127119,0.00111616,-0.00707784,-0.00415306,-0.000242506,-4.03224e-05,-0.171017,-25.7863,1.91316,26.6296,0.60577,2.97997,-0.0301054,-1.56242,0.0809605,-0.655405,-0.00343316,-0.663477,-0.184087,-0.0864557,-0.150077,-0.267029,-0.339007,-0.149317,-0.288428,-0.0466912,
0.0138046,-0.204302,-0.330042,-1.66041,-0.0929727,-0.0914243,-0.383156,-6.08882e-06,-0.000473452,-6.288e-05,0.000182768,-0.000207422,-0.000198766,3.17386e-06,0,0,0,0,0,0,0,0.0138315,-0.204153,-0.330015,-1.66078,-0.0930337,1.48017,0.402248,8.66725e-05,-0.00625762,-0.00034617,0.000651707,0.00384496,-0.00426402,0.00144239,-0.274166,-25.461,1.78621,26.2051,0.495907,3.12554,-0.0703886,-1.90597,-0.0220351,-0.371016,0.0164431,-1.03107,-0.295187,-0.198788,-0.402986,-0.371167,-0.189164,-0.170076,-0.287377,-0.043277,
0.0138046,-0.204304,-0.330042,-1.66041,-0.0929736,-0.0914252,-0.383156,-5.28173e-06,-0.000460267,-6.31981e-05,0.000172866,-0.000217347,-0.000225941,3.15566e-06,0,0,0,0,0,0,0,0.0138315,-0.204153,-0.330015,-1.66078,-0.0930337,1.48017,0.402248,8.66725e-05,-0.00625762,-0.00034617,0.000651707,0.00384496,-0.00426402,0.00144239,-0.274166,-25.461,1.78621,26.2051,0.495907,3.12554,-0.0703886,-1.90597,-0.0220351,-0.371016,0.0164431,-1.03107,-0.295187,-0.198788,-0.402986,-0.371167,-0.189164,-0.170076,-0.287377,-0.043277,
0.0138046,-0.204306,-0.330042,-1.66041,-0.0929745,-0.0914262,-0.383156,-4.57618e-06,-0.000448815,-6.35049e-05,0.000164107,-0.000225796,-0.000250782,3.14103e-06,0,0,0,0,0,0,0,0.0138315,-0.204153,-0.330015,-1.66078,-0.0930337,1.48017,0.402248,8.66725e-05,-0.00625762,-0.00034617,0.000651707,0.00384496,-0.00426402,0.00144239,-0.274166,-25.461,1.78621,26.2051,0.495907,3.12554,-0.0703886,-1.15309,-0.0983309,-0.656315,0.134066,-0.335337,-0.198008,-0.113841,0.0415841,-0.285574,-0.399272,-0.152672,-0.295881,-0.0438064,
0.0138046,-0.204307,-0.330043,-1.66041,-0.0929754,-0.0914273,-0.383156,-3.95845e-06,-0.000438871,-6.38e-05,0.000156359,-0.000232989,-0.00027342,3.12927e-06,0,0,0,0,0,0,0,0.0138315,-0.204153,-0.330015,-1.66078,-0.0930337,1.48017,0.402248,8.66725e-05,-0.00625762,-0.00034617,0.000651707,0.00384496,-0.00426402,0.00144239,-0.274166,-25.461,1.78621,26.2051,0.495907,3.12554,-0.0703886,-1.01846,-0.0460977,-0.69792,0.11277,-0.214027,-0.153199,-0.0767058,0.118634,-0.234687,-0.43618,-0.138473,-0.300861,-0.0425661,
0.0138045,-0.204309,-0.330043,-1.66041,-0.0929764,-0.0914285,-0.383156,-3.41681e-06,-0.000430242,-6.40832e-05,0.000149509,-0.000239109,-0.000293995,3.11982e-06,0,0,0,0,0,0,0,0.0138315,-0.204153,-0.330015,-1.66078,-0.0930337,1.48017,0.402248,8.66725e-05,-0.00625762,-0.00034617,0.000651707,0.00384496,-0.00426402,0.00144239,-0.274166,-25.461,1.78621,26.2051,0.495907,3.12554,-0.0703886,-1.01846,-0.0460977,-0.69792,0.11277,-0.214027,-0.153199,-0.0767058,0.118634,-0.234687,-0.43618,-0.138473,-0.300861,-0.0425661,
0.0138045,-0.204311,-0.330043,-1.66041,-0.0929774,-0.0914297,-0.383156,-2.94117e-06,-0.00042276,-6.43548e-05,0.000143454,-0.000244316,-0.000312652,3.1122e-06,0,0,0,0,0,0,0,0.0138315,-0.204153,-0.330015,-1.66078,-0.0930337,1.48017,0.402248,8.66725e-05,-0.00625762,-0.00034617,0.000651707,0.00384496,-0.00426402,0.00144239,-0.274166,-25.461,1.78621,26.2051,0.495907,3.12554,-0.0703886,-1.16684,-0.146753,-0.253016,0.103423,-0.502543,-0.224314,-0.141809,-0.120336,-0.300018,-0.236433,-0.158521,-0.284873,-0.0426625,
0.0138045,-0.204312,-0.330043,-1.66041,-0.0929784,-0.0914311,-0.383156,-2.5229e-06,-0.000416278,-6.46152e-05,0.000138104,-0.000248741,-0.000329533,3.10604e-06,0,0,0,0,0,0,0,0.0138238,-0.204202,-0.330015,-1.66076,-0.0930475,1.48019,0.402245,-0.000297827,0.00447753,-0.000251003,-0.00111773,-0.0022587,-0.000576839,9.00729e-05,-0.119442,-25.0365,1.88936,26.0306,0.612179,3.02666,-0.050247,-1.16684,-0.146753,-0.253016,0.103423,-0.502543,-0.224314,-0.141809,-0.120336,-0.300018,-0.236433,-0.158521,-0.284873,-0.0426625,
0.0136877,-0.204178,-0.330128,-1.66034,-0.0914894,-0.0923182,-0.383155,-0.011377,0.00144678,-0.010141,0.0100828,0.172017,-0.0999327,0.000370142,0,0,0,0,0,0,0,0.0138238,-0.204202,-0.330015,-1.66076,-0.0930475,1.48019,0.402245,-0.000297827,0.00447753,-0.000251003,-0.00111773,-0.0022587,-0.000576839,9.00729e-05,-0.119442,-25.0365,1.88936,26.0306,0.612179,3.02666,-0.050247,-0.66852,-0.191338,-0.391441,0.171035,-0.0587762,-0.156583,-0.0763915,0.156902,-0.243221,-0.358887,-0.146778,-0.292782,-0.0430121,
0.0137058,-0.204115,-0.330107,-1.66067,-0.0915914,-0.0914861,-0.383152,-0.0110932,0.00613671,-0.0100644,0.00757034,0.166665,-0.0996979,0.000342826,0,0,0,0,0,0,0,0.0138238,-0.204202,-0.330015,-1.66076,-0.0930475,1.48019,0.402245,-0.000297827,0.00447753,-0.000251003,-0.00111773,-0.0022587,-0.000576839,9.00729e-05,-0.119442,-25.0365,1.88936,26.0306,0.612179,3.02666,-0.050247,-0.66852,-0.191338,-0.391441,0.171035,-0.0587762,-0.156583,-0.0763915,0.156902,-0.243221,-0.358887,-0.146778,-0.292782,-0.0430121,
0.0136619,-0.204097,-0.33015,-1.66065,-0.0907997,-0.0919628,-0.38315,-0.0109795,0.0045149,-0.0106857,0.00622585,0.197913,-0.119179,0.000471128,0,0,0,0,0,0,0,0.0138238,-0.204202,-0.330015,-1.66076,-0.0930475,1.48019,0.402245,-0.000297827,0.00447753,-0.000251003,-0.00111773,-0.0022587,-0.000576839,9.00729e-05,-0.119442,-25.0365,1.88936,26.0306,0.612179,3.02666,-0.050247,-0.979827,-0.158495,-0.198388,0.112866,-0.384179,-0.196792,-0.115175,-0.0642873,-0.273586,-0.235031,-0.147726,-0.280312,-0.0426401,
0.0136204,-0.204084,-0.330192,-1.66063,-0.0899115,-0.0925036,-0.383148,-0.0103725,0.00307327,-0.0105478,0.00493944,0.222047,-0.135187,0.000542805,0,0,0,0,0,0,0,0.0138238,-0.204202,-0.330015,-1.66076,-0.0930475,1.48019,0.402245,-0.000297827,0.00447753,-0.000251003,-0.00111773,-0.0022587,-0.000576839,9.00729e-05,-0.119442,-25.0365,1.88936,26.0306,0.612179,3.02666,-0.050247,-0.831349,-0.26277,-0.323795,0.210424,-0.214885,-0.212878,-0.126184,0.0543687,-0.306622,-0.308063,-0.153208,-0.286908,-0.0464479,
0.0135825,-0.204077,-0.330232,-1.66061,-0.0889482,-0.0930971,-0.383146,-0.00948731,0.00188168,-0.00994522,0.00383145,0.240843,-0.148369,0.000579411,0,0,0,0,0,0,0,0.0138036,-0.204199,-0.330027,-1.66069,-0.0928354,1.48019,0.402242,0.000662101,0.0126997,2.72784e-06,-0.00110735,0.0206927,9.13071e-05,-0.000202862,0.0313145,-25.2864,1.96077,26.2289,1.01501,2.97997,-0.0227812,-0.831349,-0.26277,-0.323795,0.210424,-0.214885,-0.212878,-0.126184,0.0543687,-0.306622,-0.308063,-0.153208,-0.286908,-0.0464479,
0.0135486,-0.204073,-0.330268,-1.6606,-0.0879258,-0.0937338,-0.383143,-0.00846021,0.000934646,-0.00907367,0.00290682,0.255582,-0.159189,0.000593764,0,0,0,0,0,0,0,0.0138036,-0.204199,-0.330027,-1.66069,-0.0928354,1.48019,0.402242,0.000662101,0.0126997,2.72784e-06,-0.00110735,0.0206927,9.13071e-05,-0.000202862,0.0313145,-25.2864,1.96077,26.2289,1.01501,2.97997,-0.0227812,-0.633139,-0.285957,-0.104563,0.253053,-0.157754,-0.188177,-0.0940783,0.0444689,-0.295688,-0.252363,-0.0950094,-0.28851,-0.0452834,
0.0135191,-0.204072,-0.3303,-1.66059,-0.086857,-0.0944059,-0.383141,-0.00737894,0.000203474,-0.00806305,0.00214075,0.267203,-0.168024,0.000593736,0,0,0,0,0,0,0,0.0138036,-0.204199,-0.330027,-1.66069,-0.0928354,1.48019,0.402242,0.000662101,0.0126997,2.72784e-06,-0.00110735,0.0206927,9.13071e-05,-0.000202862,0.0313145,-25.2864,1.96077,26.2289,1.01501,2.97997,-0.0227812,-0.633139,-0.285957,-0.104563,0.253053,-0.157754,-0.188177,-0.0940783,0.0444689,-0.295688,-0.252363,-0.0950094,-0.28851,-0.0452834,
0.0134939,-0.204074,-0.330328,-1.66058,-0.0857514,-0.0951067,-0.383138,-0.00629934,-0.000345522,-0.0069986,0.00150499,0.276399,-0.175187,0.00058443,0,0,0,0,0,0,0,0.0138036,-0.204199,-0.330027,-1.66069,-0.0928354,1.48019,0.402242,0.000662101,0.0126997,2.72784e-06,-0.00110735,0.0206927,9.13071e-05,-0.000202862,0.0313145,-25.2864,1.96077,26.2289,1.01501,2.97997,-0.0227812,-0.697244,-0.361473,0.0810212,0.337037,-0.295785,-0.230806,-0.121957,-0.074044,-0.361352,-0.172797,-0.0423807,-0.286284,-0.0450317,
0.0134729,-0.204077,-0.330352,-1.66058,-0.0846167,-0.0958305,-0.383136,-0.00525609,-0.000744575,-0.00593516,0.000974996,0.283687,-0.180948,0.000569606,0,0,0,0,0,0,0,0.0138036,-0.204199,-0.330027,-1.66069,-0.0928354,1.48019,0.402242,0.000662101,0.0126997,2.72784e-06,-0.00110735,0.0206927,9.13071e-05,-0.000202862,0.0313145,-25.2864,1.96077,26.2289,1.01501,2.97997,-0.0227812,-0.376732,-0.46098,-0.0469124,0.517894,-0.012552,-0.21661,-0.0953529,0.0995839,-0.388202,-0.274387,0.039513,-0.300067,-0.0444304,
0.0134558,-0.204081,-0.330371,-1.66058,-0.0834588,-0.0965726,-0.383134,-0.00426969,-0.00102242,-0.00490694,0.000530948,0.289457,-0.185536,0.000551359,0,0,0,0,0,0,0,0.0138036,-0.204199,-0.330027,-1.66069,-0.0928354,1.48019,0.402242,0.000662101,0.0126997,2.72784e-06,-0.00110735,0.0206927,9.13071e-05,-0.000202862,0.0313145,-25.2864,1.96077,26.2289,1.01501,2.97997,-0.0227812,-0.376732,-0.46098,-0.0469124,0.517894,-0.012552,-0.21661,-0.0953529,0.0995839,-0.388202,-0.274387,0.039513,-0.300067,-0.0444304,
0.0134424,-0.204085,-0.330387,-1.66058,-0.0822828,-0.0973292,-0.383132,-0.00335113,-0.00120374,-0.00393419,0.000157265,0.294008,-0.189144,0.000531434,0,0,0,0,0,0,0,0.0137481,-0.204175,-0.330075,-1.66069,-0.0906735,1.48016,0.402248,-0.00113546,0.00128895,-0.00359546,-0.00216323,0.0891916,-0.0011678,-0.000261381,0.412174,-25.4372,2.28609,26.2567,1.09466,2.96715,-0.0429228,-0.552175,-0.361175,0.117591,0.491087,-0.215713,-0.200615,-0.0706772,-0.0458474,-0.380713,-0.207471,0.111602,-0.317868,-0.0445738,
0.0134324,-0.204091,-0.330399,-1.66058,-0.0810925,-0.0980969,-0.38313,-0.00250515,-0.00130936,-0.00302777,-0.000158301,0.297569,-0.191938,0.000510956,0,0,0,0,0,0,0,0.0137481,-0.204175,-0.330075,-1.66069,-0.0906735,1.48016,0.402248,-0.00113546,0.00128895,-0.00359546,-0.00216323,0.0891916,-0.0011678,-0.000261381,0.412174,-25.4372,2.28609,26.2567,1.09466,2.96715,-0.0429228,-0.552175,-0.361175,0.117591,0.491087,-0.215713,-0.200615,-0.0706772,-0.0458474,-0.380713,-0.207471,0.111602,-0.317868,-0.0445738,
0.0134254,-0.204096,-0.330408,-1.66058,-0.0798913,-0.0988732,-0.383128,-0.00173244,-0.00135657,-0.00219236,-0.000425419,0.300317,-0.194054,0.000490524,0,0,0,0,0,0,0,0.0137481,-0.204175,-0.330075,-1.66069,-0.0906735,1.48016,0.402248,-0.00113546,0.00128895,-0.00359546,-0.00216323,0.0891916,-0.0011678,-0.000261381,0.412174,-25.4372,2.28609,26.2567,1.09466,2.96715,-0.0429228,-0.333418,-0.391323,-0.0618269,0.601251,0.0264587,-0.175007,-0.0388512,0.1217,-0.381509,-0.325946,0.165847,-0.342345,-0.0434778,
0.0134213,-0.204102,-0.330414,-1.66058,-0.0786817,-0.0996556,-0.383126,-0.00103108,-0.00135953,-0.0014286,-0.00065179,0.302395,-0.195609,0.000470685,0,0,0,0,0,0,0,0.0137481,-0.204175,-0.330075,-1.66069,-0.0906735,1.48016,0.402248,-0.00113546,0.00128895,-0.00359546,-0.00216323,0.0891916,-0.0011678,-0.000261381,0.412174,-25.4372,2.28609,26.2567,1.09466,2.96715,-0.0429228,-0.367424,-0.281323,0.0345596,0.587109,-0.0461927,-0.129536,0.00213752,0.0603584,-0.337572,-0.300827,0.252298,-0.35865,-0.0451761,
0.0134197,-0.204107,-0.330417,-1.66059,-0.077466,-0.100442,-0.383124,-0.000397616,-0.00132975,-0.000734606,-0.000843614,0.303912,-0.196698,0.000451617,0,0,0,0,0,0,0,0.0137481,-0.204175,-0.330075,-1.66069,-0.0906735,1.48016,0.402248,-0.00113546,0.00128895,-0.00359546,-0.00216323,0.0891916,-0.0011678,-0.000261381,0.412174,-25.4372,2.28609,26.2567,1.09466,2.96715,-0.0429228,-0.367424,-0.281323,0.0345596,0.587109,-0.0461927,-0.129536,0.00213752,0.0603584,-0.337572,-0.300827,0.252298,-0.35865,-0.0451761,
0.0134204,-0.204112,-0.330417,-1.66059,-0.0762462,-0.101232,-0.383122,0.000172263,-0.00127649,-0.000106956,-0.00100594,0.30496,-0.197403,0.000433619,0,0,0,0,0,0,0,0.0137447,-0.204198,-0.330083,-1.66066,-0.087255,1.48013,0.402246,0.000289675,-0.00212495,0.000205491,0.000214615,0.122026,0.000399635,-0.000609522,0.384403,-25.1357,2.26228,25.856,1.00311,2.89391,-0.0227812,-0.770986,-0.0682324,0.42937,0.427005,-0.520069,-0.106303,0.0257487,-0.277956,-0.296104,-0.10695,0.318297,-0.364757,-0.0430136,
0.0134232,-0.204117,-0.330415,-1.66059,-0.0750238,-0.102023,-0.383121,0.000683295,-0.00120712,0.000458614,-0.00114291,0.30561,-0.197789,0.000416548,0,0,0,0,0,0,0,0.0137447,-0.204198,-0.330083,-1.66066,-0.087255,1.48013,0.402246,0.000289675,-0.00212495,0.000205491,0.000214615,0.122026,0.000399635,-0.000609522,0.384403,-25.1357,2.26228,25.856,1.00311,2.89391,-0.0227812,-0.770986,-0.0682324,0.42937,0.427005,-0.520069,-0.106303,0.0257487,-0.277956,-0.296104,-0.10695,0.318297,-0.364757,-0.0430136,
0.0134277,-0.204121,-0.330411,-1.6606,-0.0738001,-0.102815,-0.383119,0.00114031,-0.00112741,0.000966764,-0.00125798,0.305923,-0.197912,0.00040061,0,0,0,0,0,0,0,0.0137447,-0.204198,-0.330083,-1.66066,-0.087255,1.48013,0.402246,0.000289675,-0.00212495,0.000205491,0.000214615,0.122026,0.000399635,-0.000609522,0.384403,-25.1357,2.26228,25.856,1.00311,2.89391,-0.0227812,-0.14418,-0.0265115,0.0350751,0.52794,0.132366,0.0236103,0.151783,0.164449,-0.190013,-0.37338,0.386248,-0.406205,-0.0435251,
0.0134339,-0.204126,-0.330406,-1.6606,-0.0725763,-0.103606,-0.383118,0.00154807,-0.0010419,0.00142225,-0.00135403,0.305947,-0.197819,0.000385722,0,0,0,0,0,0,0,0.0137447,-0.204198,-0.330083,-1.66066,-0.087255,1.48013,0.402246,0.000289675,-0.00212495,0.000205491,0.000214615,0.122026,0.000399635,-0.000609522,0.384403,-25.1357,2.26228,25.856,1.00311,2.89391,-0.0227812,-0.14418,-0.0265115,0.0350751,0.52794,0.132366,0.0236103,0.151783,0.164449,-0.190013,-0.37338,0.386248,-0.406205,-0.0435251,
0.0134416,-0.204129,-0.330398,-1.66061,-0.0713534,-0.104396,-0.383116,0.00191112,-0.000954036,0.00182974,-0.00143351,0.305725,-0.197545,0.00037185,0,0,0,0,0,0,0,0.0137447,-0.204198,-0.330083,-1.66066,-0.087255,1.48013,0.402246,0.000289675,-0.00212495,0.000205491,0.000214615,0.122026,0.000399635,-0.000609522,0.384403,-25.1357,2.26228,25.856,1.00311,2.89391,-0.0227812,-0.598605,-0.0279509,0.28534,0.529678,-0.295919,-0.0588273,0.0600231,-0.111904,-0.262387,-0.251361,0.416637,-0.434836,-0.0429421,
0.0134505,-0.204133,-0.33039,-1.66062,-0.0701322,-0.105185,-0.383115,0.00223375,-0.00086644,0.00219371,-0.00149849,0.30529,-0.197124,0.000358932,0,0,0,0,0,0,0,0.0137447,-0.204198,-0.330083,-1.66066,-0.087255,1.48013,0.402246,0.000289675,-0.00212495,0.000205491,0.000214615,0.122026,0.000399635,-0.000609522,0.384403,-25.1357,2.26228,25.856,1.00311,2.89391,-0.0227812,-0.58244,-0.154129,0.311708,0.63108,-0.263027,-0.114267,-0.0123505,-0.0840738,-0.314455,-0.275114,0.4159,-0.465295,-0.0439589,
0.0134606,-0.204136,-0.33038,-1.66062,-0.0689135,-0.105971,-0.383113,0.00251991,-0.000781044,0.00251833,-0.00155076,0.304671,-0.196581,0.000346911,0,0,0,0,0,0,0,0.0137932,-0.204178,-0.330037,-1.66068,-0.08222,1.48008,0.40225,0.00109354,0.00159229,0.000530131,-0.00158136,0.116276,4.52469e-05,0.000250204,-0.0956386,-25.3856,1.86159,26.0544,1.41235,2.68151,-0.0630644,-0.58244,-0.154129,0.311708,0.63108,-0.263027,-0.114267,-0.0123505,-0.0840738,-0.314455,-0.275114,0.4159,-0.465295,-0.0439589,
0.0134717,-0.204139,-0.330368,-1.66063,-0.067698,-0.106755,-0.383112,0.00277328,-0.000699239,0.0028075,-0.00159185,0.303893,-0.195936,0.000335729,0,0,0,0,0,0,0,0.0137932,-0.204178,-0.330037,-1.66068,-0.08222,1.48008,0.40225,0.00109354,0.00159229,0.000530131,-0.00158136,0.116276,4.52469e-05,0.000250204,-0.0956386,-25.3856,1.86159,26.0544,1.41235,2.68151,-0.0630644,-0.151832,-0.208622,0.231405,0.718434,0.122862,-0.062446,0.0235166,0.158538,-0.264997,-0.389242,0.444458,-0.494898,-0.0464898,
0.0134836,-0.204141,-0.330356,-1.66064,-0.0664861,-0.107536,-0.383111,0.0029972,-0.000621987,0.0030648,-0.00162309,0.302977,-0.195209,0.000325363,0,0,0,0,0,0,0,0.0137932,-0.204178,-0.330037,-1.66068,-0.08222,1.48008,0.40225,0.00109354,0.00159229,0.000530131,-0.00158136,0.116276,4.52469e-05,0.000250204,-0.0956386,-25.3856,1.86159,26.0544,1.41235,2.68151,-0.0630644,-0.151832,-0.208622,0.231405,0.718434,0.122862,-0.062446,0.0235166,0.158538,-0.264997,-0.389242,0.444458,-0.494898,-0.0464898,
0.0134964,-0.204143,-0.330343,-1.66064,-0.0652783,-0.108313,-0.383109,0.00319471,-0.000549916,0.00329348,-0.00164564,0.301941,-0.194413,0.00031559,0,0,0,0,0,0,0,0.0137932,-0.204178,-0.330037,-1.66068,-0.08222,1.48008,0.40225,0.00109354,0.00159229,0.000530131,-0.00158136,0.116276,4.52469e-05,0.000250204,-0.0956386,-25.3856,1.86159,26.0544,1.41235,2.68151,-0.0630644,-0.427786,-0.245053,0.536761,0.684903,-0.1844,-0.131665,-0.0587511,-0.0553323,-0.311959,-0.254549,0.42345,-0.508294,-0.0442634,
0.0135099,-0.204145,-0.330329,-1.66065,-0.0640751,-0.109088,-0.383108,0.00336856,-0.000483388,0.00349651,-0.00166051,0.300801,-0.19356,0.000306512,0,0,0,0,0,0,0,0.0137932,-0.204178,-0.330037,-1.66068,-0.08222,1.48008,0.40225,0.00109354,0.00159229,0.000530131,-0.00158136,0.116276,4.52469e-05,0.000250204,-0.0956386,-25.3856,1.86159,26.0544,1.41235,2.68151,-0.0630644,-0.427786,-0.245053,0.536761,0.684903,-0.1844,-0.131665,-0.0587511,-0.0553323,-0.311959,-0.254549,0.42345,-0.508294,-0.0442634,
0.013524,-0.204147,-0.330314,-1.66066,-0.0628768,-0.109858,-0.383107,0.00352124,-0.00042257,0.00367658,-0.0016686,0.299569,-0.19266,0.000298013,0,0,0,0,0,0,0,0.0138045,-0.204205,-0.330023,-1.66065,-0.0779604,1.47992,0.402245,-0.00073711,0.00430157,0.000498466,-0.000123712,0.149829,-0.000619013,-0.000683982,-0.0718349,-25.1357,1.91316,25.856,1.1615,2.622,-0.0163725,-0.196211,-0.270305,0.404216,0.71781,0.0885891,-0.103662,-0.0465196,0.141289,-0.276733,-0.37291,0.407061,-0.547682,-0.0451425,
0.0135345,-0.20401,-0.330218,-1.66034,-0.0885198,-0.0944138,-0.383122,-0.0262339,0.0118028,-0.0217825,0.0335673,0.519132,-0.426757,0.00325358,0,0,0,0,0,0,0,0.0138045,-0.204205,-0.330023,-1.66065,-0.0779604,1.47992,0.402245,-0.00073711,0.00430157,0.000498466,-0.000123712,0.149829,-0.000619013,-0.000683982,-0.0718349,-25.1357,1.91316,25.856,1.1615,2.622,-0.0163725,-0.327504,-0.275152,0.508427,0.695657,-0.0242789,-0.130705,-0.0827891,0.0730975,-0.29048,-0.340666,0.389681,-0.570551,-0.0444212,
0.0135753,-0.204035,-0.330179,-1.66026,-0.0722961,-0.0944722,-0.383125,-0.0204564,0.0103634,-0.016553,0.0312167,0.592768,-0.404815,0.00307199,0,0,0,0,0,0,0,0.0138045,-0.204205,-0.330023,-1.66065,-0.0779604,1.47992,0.402245,-0.00073711,0.00430157,0.000498466,-0.000123712,0.149829,-0.000619013,-0.000683982,-0.0718349,-25.1357,1.91316,25.856,1.1615,2.622,-0.0163725,-0.327504,-0.275152,0.508427,0.695657,-0.0242789,-0.130705,-0.0827891,0.0730975,-0.29048,-0.340666,0.389681,-0.570551,-0.0444212,
0.0135001,-0.204013,-0.330245,-1.66016,-0.0695807,-0.0963864,-0.383111,-0.0187969,0.00538774,-0.0163784,0.0249692,0.678845,-0.478542,0.00334891,0,0,0,0,0,0,0,0.0138045,-0.204205,-0.330023,-1.66065,-0.0779604,1.47992,0.402245,-0.00073711,0.00430157,0.000498466,-0.000123712,0.149829,-0.000619013,-0.000683982,-0.0718349,-25.1357,1.91316,25.856,1.1615,2.622,-0.0163725,-0.617264,-0.393643,0.654378,0.728508,-0.291051,-0.23314,-0.184127,-0.0971773,-0.389859,-0.251525,0.348072,-0.57076,-0.0455478,
0.0134354,-0.204008,-0.330304,-1.66008,-0.0665922,-0.0985338,-0.383097,-0.0161678,0.0012997,-0.0147143,0.0189487,0.747124,-0.536867,0.00349378,0,0,0,0,0,0,0,0.0138045,-0.204205,-0.330023,-1.66065,-0.0779604,1.47992,0.402245,-0.00073711,0.00430157,0.000498466,-0.000123712,0.149829,-0.000619013,-0.000683982,-0.0718349,-25.1357,1.91316,25.856,1.1615,2.622,-0.0163725,-0.617264,-0.393643,0.654378,0.728508,-0.291051,-0.23314,-0.184127,-0.0971773,-0.389859,-0.251525,0.348072,-0.57076,-0.0455478,
0.0133832,-0.204015,-0.330352,-1.66003,-0.0633849,-0.100866,-0.383083,-0.0130451,-0.00176794,-0.0121789,0.0136683,0.801832,-0.583068,0.00356053,0,0,0,0,0,0,0,0.0138045,-0.204205,-0.330023,-1.66065,-0.0779604,1.47992,0.402245,-0.00073711,0.00430157,0.000498466,-0.000123712,0.149829,-0.000619013,-0.000683982,-0.0718349,-25.1357,1.91316,25.856,1.1615,2.622,-0.0163725,-0.488431,-0.577491,0.749437,0.850461,-0.203112,-0.292094,-0.248059,-0.0526157,-0.455773,-0.252833,0.334058,-0.589546,-0.0462942,
0.0133444,-0.204031,-0.330389,-1.65999,-0.0600007,-0.103344,-0.383069,-0.00971875,-0.00392164,-0.00917641,0.00917642,0.846055,-0.619472,0.00357712,0,0,0,0,0,0,0,0.0137686,-0.204157,-0.330046,-1.66063,-0.0722728,1.47963,0.402244,-0.00363184,0.00315775,-0.00200051,-0.000461226,0.246314,-0.0201108,-0.00158194,0.25745,-25.6355,2.06392,26.5305,1.44256,2.53594,-0.00996382,-0.488431,-0.577491,0.749437,0.850461,-0.203112,-0.292094,-0.248059,-0.0526157,-0.455773,-0.252833,0.334058,-0.589546,-0.0462942,
0.0133189,-0.204052,-0.330413,-1.65997,-0.0564724,-0.105936,-0.383055,-0.00636974,-0.00532332,-0.00597177,0.00539188,0.88208,-0.647883,0.00356143,0,0,0,0,0,0,0,0.0137686,-0.204157,-0.330046,-1.66063,-0.0722728,1.47963,0.402244,-0.00363184,0.00315775,-0.00200051,-0.000461226,0.246314,-0.0201108,-0.00158194,0.25745,-25.6355,2.06392,26.5305,1.44256,2.53594,-0.00996382,-0.0410402,-0.926392,1.20809,1.06929,-0.0189422,-0.366701,-0.311701,-0.0195295,-0.559021,-0.148643,0.343518,-0.597156,-0.0461137,
0.0133064,-0.204077,-0.330424,-1.65996,-0.0528259,-0.108615,-0.38304,-0.00311068,-0.00613127,-0.00273728,0.00220988,0.911628,-0.669751,0.00352383,0,0,0,0,0,0,0,0.0137686,-0.204157,-0.330046,-1.66063,-0.0722728,1.47963,0.402244,-0.00363184,0.00315775,-0.00200051,-0.000461226,0.246314,-0.0201108,-0.00158194,0.25745,-25.6355,2.06392,26.5305,1.44256,2.53594,-0.00996382,0.384392,-1.25634,1.31485,1.3774,0.295072,-0.431773,-0.350673,0.148439,-0.685276,-0.206124,0.394242,-0.638285,-0.0473643,
0.0133064,-0.204103,-0.330422,-1.65996,-0.0490818,-0.11136,-0.383027,-9.53707e-06,-0.00648308,0.000417465,-0.000466704,0.936007,-0.686263,0.0034721,0,0,0,0,0,0,0,0.0137686,-0.204157,-0.330046,-1.66063,-0.0722728,1.47963,0.402244,-0.00363184,0.00315775,-0.00200051,-0.000461226,0.246314,-0.0201108,-0.00158194,0.25745,-25.6355,2.06392,26.5305,1.44256,2.53594,-0.00996382,0.384392,-1.25634,1.31485,1.3774,0.295072,-0.431773,-0.350673,0.148439,-0.685276,-0.206124,0.394242,-0.638285,-0.0473643,
0.013318,-0.204129,-0.330409,-1.65997,-0.0452569,-0.114153,-0.383013,0.00289528,-0.0064928,0.00342547,-0.00272037,0.956222,-0.698394,0.00341176,0,0,0,0,0,0,0,0.0137686,-0.204157,-0.330046,-1.66063,-0.0722728,1.47963,0.402244,-0.00363184,0.00315775,-0.00200051,-0.000461226,0.246314,-0.0201108,-0.00158194,0.25745,-25.6355,2.06392,26.5305,1.44256,2.53594,-0.00996382,0.153625,-0.856549,1.57063,1.19082,0.0660885,-0.283219,-0.17114,-0.00507664,-0.554673,-0.171178,0.532479,-0.731595,-0.0466161,
0.0133403,-0.204154,-0.330384,-1.65999,-0.0413647,-0.116981,-0.383,0.00558508,-0.00625272,0.00624841,-0.00461933,0.973049,-0.706944,0.00334601,0,0,0,0,0,0,0,0.0134995,-0.204153,-0.330307,-1.66047,-0.0601589,1.47747,0.402245,-0.00918115,-0.00303067,-0.00879168,0.00288387,0.469714,-0.106751,-0.00138391,0.995365,-25.461,2.78596,25.6339,1.76574,2.19079,-0.0163725,0.153625,-0.856549,1.57063,1.19082,0.0660885,-0.283219,-0.17114,-0.00507664,-0.554673,-0.171178,0.532479,-0.731595,-0.0466161,
0.0133725,-0.204177,-0.330348,-1.66002,-0.0374164,-0.119831,-0.382986,0.00805412,-0.00583628,0.00886735,-0.00621957,0.987097,-0.71257,0.00327798,0,0,0,0,0,0,0,0.0134995,-0.204153,-0.330307,-1.66047,-0.0601589,1.47747,0.402245,-0.00918115,-0.00303067,-0.00879168,0.00288387,0.469714,-0.106751,-0.00138391,0.995365,-25.461,2.78596,25.6339,1.76574,2.19079,-0.0163725,-0.285228,-0.68099,1.85193,1.08372,-0.344871,-0.271843,-0.136038,-0.270784,-0.552967,-0.0649713,0.5863,-0.78642,-0.047162,
0.0134138,-0.204198,-0.330303,-1.66005,-0.033421,-0.122694,-0.382974,0.0103051,-0.00530118,0.0112761,-0.0075671,0.998848,-0.715812,0.00320868,0,0,0,0,0,0,0,0.0134995,-0.204153,-0.330307,-1.66047,-0.0601589,1.47747,0.402245,-0.00918115,-0.00303067,-0.00879168,0.00288387,0.469714,-0.106751,-0.00138391,0.995365,-25.461,2.78596,25.6339,1.76574,2.19079,-0.0163725,0.196725,-0.383782,1.91623,0.969354,0.028198,-0.0468868,0.10081,-0.0587393,-0.34019,-0.157925,0.702224,-0.846088,-0.0448072,
0.0134631,-0.204217,-0.330249,-1.66008,-0.0293862,-0.125563,-0.382961,0.0123461,-0.00469222,0.0134768,-0.00869996,1.00868,-0.717111,0.00314016,0,0,0,0,0,0,0,0.0134995,-0.204153,-0.330307,-1.66047,-0.0601589,1.47747,0.402245,-0.00918115,-0.00303067,-0.00879168,0.00288387,0.469714,-0.106751,-0.00138391,0.995365,-25.461,2.78596,25.6339,1.76574,2.19079,-0.0163725,0.196725,-0.383782,1.91623,0.969354,0.028198,-0.0468868,0.10081,-0.0587393,-0.34019,-0.157925,0.702224,-0.846088,-0.0448072,
0.0135199,-0.204233,-0.330187,-1.66012,-0.0253186,-0.12843,-0.382949,0.0141883,-0.00404367,0.0154769,-0.00964961,1.01691,-0.716829,0.00307238,0,0,0,0,0,0,0,0.0134995,-0.204153,-0.330307,-1.66047,-0.0601589,1.47747,0.402245,-0.00918115,-0.00303067,-0.00879168,0.00288387,0.469714,-0.106751,-0.00138391,0.995365,-25.461,2.78596,25.6339,1.76574,2.19079,-0.0163725,-0.157933,-0.251398,2.17855,0.952943,-0.295872,-0.0410591,0.120061,-0.265908,-0.350857,-0.0998458,0.804582,-0.931291,-0.042811,
0.0135833,-0.204247,-0.330118,-1.66016,-0.0212235,-0.131291,-0.382937,0.0158446,-0.00338139,0.0172869,-0.0104424,1.02378,-0.715262,0.00300649,0,0,0,0,0,0,0,0.0130614,-0.204167,-0.330663,-1.66037,-0.0417158,1.47264,0.40225,-0.00893906,-0.00492221,-0.0100132,0.00318093,0.60888,-0.181927,0.000983901,1.47541,-25.2626,3.06367,25.4077,1.96167,2.05804,-0.0566557,-0.157933,-0.251398,2.17855,0.952943,-0.295872,-0.0410591,0.120061,-0.265908,-0.350857,-0.0998458,0.804582,-0.931291,-0.042811,
0.0136526,-0.204258,-0.330042,-1.66021,-0.0171055,-0.134142,-0.382925,0.0173287,-0.00272448,0.0189192,-0.0111001,1.0295,-0.712655,0.00294212,0,0,0,0,0,0,0,0.0130614,-0.204167,-0.330663,-1.66037,-0.0417158,1.47264,0.40225,-0.00893906,-0.00492221,-0.0100132,0.00318093,0.60888,-0.181927,0.000983901,1.47541,-25.2626,3.06367,25.4077,1.96167,2.05804,-0.0566557,-0.318774,-0.265353,2.12396,1.0511,-0.356027,-0.0674146,0.109287,-0.274696,-0.408615,-0.168132,0.862693,-0.998786,-0.0411371,
0.0137272,-0.204266,-0.329961,-1.66025,-0.0129685,-0.136979,-0.382913,0.0186542,-0.00208673,0.0203868,-0.0116411,1.03423,-0.709206,0.00287976,0,0,0,0,0,0,0,0.0130614,-0.204167,-0.330663,-1.66037,-0.0417158,1.47264,0.40225,-0.00893906,-0.00492221,-0.0100132,0.00318093,0.60888,-0.181927,0.000983901,1.47541,-25.2626,3.06367,25.4077,1.96167,2.05804,-0.0566557,-0.318774,-0.265353,2.12396,1.0511,-0.356027,-0.0674146,0.109287,-0.274696,-0.408615,-0.168132,0.862693,-0.998786,-0.0411371,
0.0138065,-0.204272,-0.329874,-1.6603,-0.00881607,-0.139799,-0.382902,0.0198347,-0.00147774,0.0217028,-0.012081,1.03812,-0.705082,0.00281949,0,0,0,0,0,0,0,0.0130614,-0.204167,-0.330663,-1.66037,-0.0417158,1.47264,0.40225,-0.00893906,-0.00492221,-0.0100132,0.00318093,0.60888,-0.181927,0.000983901,1.47541,-25.2626,3.06367,25.4077,1.96167,2.05804,-0.0566557,-0.0399051,0.311793,1.90612,0.741504,-0.0179914,0.249732,0.432899,-0.0284377,-0.0802897,-0.351964,0.957595,-1.07312,-0.0404286,
0.0138901,-0.204275,-0.329782,-1.66035,-0.00465095,-0.142601,-0.382891,0.0208831,-0.000903829,0.0228801,-0.0124326,1.04128,-0.70042,0.00276172,0,0,0,0,0,0,0,0.0130614,-0.204167,-0.330663,-1.66037,-0.0417158,1.47264,0.40225,-0.00893906,-0.00492221,-0.0100132,0.00318093,0.60888,-0.181927,0.000983901,1.47541,-25.2626,3.06367,25.4077,1.96167,2.05804,-0.0566557,-0.173907,0.331218,2.10547,0.721155,-0.1821,0.242396,0.43481,-0.148342,-0.0922291,-0.281498,0.975449,-1.09343,-0.0388995,
0.0139773,-0.204277,-0.329687,-1.6604,-0.00047571,-0.145382,-0.38288,0.0218114,-0.00036882,0.0239309,-0.0127066,1.04381,-0.695335,0.00270596,0,0,0,0,0,0,0,0.0130614,-0.204167,-0.330663,-1.66037,-0.0417158,1.47264,0.40225,-0.00893906,-0.00492221,-0.0100132,0.00318093,0.60888,-0.181927,0.000983901,1.47541,-25.2626,3.06367,25.4077,1.96167,2.05804,-0.0566557,-0.173907,0.331218,2.10547,0.721155,-0.1821,0.242396,0.43481,-0.148342,-0.0922291,-0.281498,0.975449,-1.09343,-0.0388995,
0.0140679,-0.204276,-0.329587,-1.66045,0.00370747,-0.148142,-0.38287,0.0226309,0.000125259,0.0248668,-0.0129126,1.04579,-0.689923,0.00265243,0,0,0,0,0,0,0,0.0127203,-0.204204,-0.330893,-1.66026,-0.0218605,1.46606,0.402244,-0.01341,-0.00230123,-0.00120296,0.00344132,0.654757,-0.23628,-0.000588322,1.52698,-24.9611,3.0359,25.4315,2.34619,1.86577,-0.0026396,0.204176,0.196243,1.92903,0.876932,0.19609,0.254299,0.45576,0.102028,-0.111199,-0.421658,0.991394,-1.1188,-0.0360954,
0.0141613,-0.204274,-0.329484,-1.6605,0.00789669,-0.150879,-0.382859,0.023352,0.000577539,0.0256984,-0.0130595,1.04731,-0.684259,0.00260086,0,0,0,0,0,0,0,0.0127203,-0.204204,-0.330893,-1.66026,-0.0218605,1.46606,0.402244,-0.01341,-0.00230123,-0.00120296,0.00344132,0.654757,-0.23628,-0.000588322,1.52698,-24.9611,3.0359,25.4315,2.34619,1.86577,-0.0026396,0.204176,0.196243,1.92903,0.876932,0.19609,0.254299,0.45576,0.102028,-0.111199,-0.421658,0.991394,-1.1188,-0.0360954,
0.0142572,-0.20427,-0.329379,-1.66056,0.0120903,-0.153592,-0.382849,0.0239841,0.000988082,0.0264355,-0.0131558,1.0484,-0.678401,0.00255099,0,0,0,0,0,0,0,0.0127203,-0.204204,-0.330893,-1.66026,-0.0218605,1.46606,0.402244,-0.01341,-0.00230123,-0.00120296,0.00344132,0.654757,-0.23628,-0.000588322,1.52698,-24.9611,3.0359,25.4315,2.34619,1.86577,-0.0026396,0.131775,0.169235,2.07875,0.862496,0.0883975,0.23616,0.440816,0.0185643,-0.1268,-0.356892,0.977548,-1.11788,-0.0350028,
0.0143553,-0.204265,-0.32927,-1.66061,0.0162868,-0.156282,-0.382839,0.0245359,0.00135769,0.0270873,-0.0132091,1.04914,-0.672394,0.00250282,0,0,0,0,0,0,0,0.0127203,-0.204204,-0.330893,-1.66026,-0.0218605,1.46606,0.402244,-0.01341,-0.00230123,-0.00120296,0.00344132,0.654757,-0.23628,-0.000588322,1.52698,-24.9611,3.0359,25.4315,2.34619,1.86577,-0.0026396,0.219732,-0.298533,2.25512,1.07682,0.0708206,0.0459906,0.251377,-0.0290326,-0.325518,-0.247994,0.863572,-1.05662,-0.0346135,
0.0144554,-0.204258,-0.32916,-1.66066,0.0204851,-0.158947,-0.382829,0.0250153,0.00168798,0.0276621,-0.0132256,1.04956,-0.666272,0.00245623,0,0,0,0,0,0,0,0.0127203,-0.204204,-0.330893,-1.66026,-0.0218605,1.46606,0.402244,-0.01341,-0.00230123,-0.00120296,0.00344132,0.654757,-0.23628,-0.000588322,1.52698,-24.9611,3.0359,25.4315,2.34619,1.86577,-0.0026396,0.219732,-0.298533,2.25512,1.07682,0.0708206,0.0459906,0.251377,-0.0290326,-0.325518,-0.247994,0.863572,-1.05662,-0.0346135,
0.0145571,-0.20425,-0.329047,-1.66072,0.0246839,-0.161587,-0.38282,0.0254295,0.00198102,0.0281673,-0.0132106,1.0497,-0.660063,0.00241117,0,0,0,0,0,0,0,0.0125612,-0.204262,-0.330932,-1.66016,0.00883893,1.45412,0.40225,0.000400616,-0.00278953,1.96855e-05,-0.00177912,0.783456,-0.323482,0.00147281,1.01917,-24.6874,2.93672,25.4831,1.52221,2.27044,-0.0630644,0.534439,-0.332186,2.03429,1.0467,0.432158,0.0910833,0.279541,0.229181,-0.259306,-0.376445,0.772621,-1.06284,-0.0344656,
0.01447,-0.20429,-0.329276,-1.66055,-0.0739432,-0.0963586,-0.383007,0.0784383,-0.0142713,0.0891904,0.00114751,0.420989,-0.63319,0.0120748,0,0,0,0,0,0,0,0.0125612,-0.204262,-0.330932,-1.66016,0.00883893,1.45412,0.40225,0.000400616,-0.00278953,1.96855e-05,-0.00177912,0.783456,-0.323482,0.00147281,1.01917,-24.6874,2.93672,25.4831,1.52221,2.27044,-0.0630644,0.534439,-0.332186,2.03429,1.0467,0.432158,0.0910833,0.279541,0.229181,-0.259306,-0.376445,0.772621,-1.06284,-0.0344656,
0.0134494,-0.204489,-0.330016,-1.66027,0.0176422,-0.124524,-0.382991,0.099855,-0.0239704,0.108219,-0.0149636,0.732011,-0.785631,0.0125117,0,0,0,0,0,0,0,0.0125612,-0.204262,-0.330932,-1.66016,0.00883893,1.45412,0.40225,0.000400616,-0.00278953,1.96855e-05,-0.00177912,0.783456,-0.323482,0.00147281,1.01917,-24.6874,2.93672,25.4831,1.52221,2.27044,-0.0630644,0.231641,-0.260324,2.07746,0.860448,0.154338,0.0717664,0.238689,0.0556572,-0.226795,-0.259458,0.667765,-1.00008,-0.0347585,
0.0139255,-0.204592,-0.329491,-1.66035,0.0206298,-0.128065,-0.382944,0.119033,-0.0256696,0.131425,-0.0220453,0.746914,-0.885332,0.0118742,0,0,0,0,0,0,0,0.0125612,-0.204262,-0.330932,-1.66016,0.00883893,1.45412,0.40225,0.000400616,-0.00278953,1.96855e-05,-0.00177912,0.783456,-0.323482,0.00147281,1.01917,-24.6874,2.93672,25.4831,1.52221,2.27044,-0.0630644,0.21519,-0.330177,1.65059,0.886274,0.27731,0.0356506,0.187827,0.185099,-0.250525,-0.369389,0.58896,-0.951742,-0.0346513,
0.0144644,-0.204694,-0.32889,-1.66047,0.023701,-0.131934,-0.382898,0.134724,-0.0256035,0.150072,-0.0288321,0.767803,-0.967087,0.0113479,0,0,0,0,0,0,0,0.0125612,-0.204262,-0.330932,-1.66016,0.00883893,1.45412,0.40225,0.000400616,-0.00278953,1.96855e-05,-0.00177912,0.783456,-0.323482,0.00147281,1.01917,-24.6874,2.93672,25.4831,1.52221,2.27044,-0.0630644,0.21519,-0.330177,1.65059,0.886274,0.27731,0.0356506,0.187827,0.185099,-0.250525,-0.369389,0.58896,-0.951742,-0.0346513,
0.0150552,-0.204791,-0.328229,-1.66061,0.0268674,-0.136071,-0.382855,0.147706,-0.0242823,0.165249,-0.0351286,0.79159,-1.03431,0.0109092,0,0,0,0,0,0,0,0.0125612,-0.204262,-0.330932,-1.66016,0.00883893,1.45412,0.40225,0.000400616,-0.00278953,1.96855e-05,-0.00177912,0.783456,-0.323482,0.00147281,1.01917,-24.6874,2.93672,25.4831,1.52221,2.27044,-0.0630644,-0.506591,-0.604637,1.69408,0.98347,-0.29467,-0.220345,-0.0702484,-0.146568,-0.499871,-0.237108,0.478112,-0.919514,-0.0239473,
0.0156894,-0.20488,-0.327518,-1.66077,0.0301324,-0.14043,-0.382813,0.158551,-0.0221061,0.177747,-0.0408585,0.816264,-1.08969,0.010532,0,0,0,0,0,0,0,0.0128893,-0.204226,-0.330493,-1.66024,0.0319927,1.4434,0.402253,0.0297317,0.00144856,0.037539,0.00207258,0.604173,-0.340803,-0.000102411,1.09455,-25.2864,3.31361,25.9076,0.550839,2.53594,-0.050247,-0.506591,-0.604637,1.69408,0.98347,-0.29467,-0.220345,-0.0702484,-0.146568,-0.499871,-0.237108,0.478112,-0.919514,-0.0239473,
0.0163602,-0.204957,-0.326766,-1.66096,0.0334947,-0.144971,-0.382772,0.167683,-0.0193787,0.188142,-0.0460032,0.840553,-1.13536,0.0102017,0,0,0,0,0,0,0,0.0128893,-0.204226,-0.330493,-1.66024,0.0319927,1.4434,0.402253,0.0297317,0.00144856,0.037539,0.00207258,0.604173,-0.340803,-0.000102411,1.09455,-25.2864,3.31361,25.9076,0.550839,2.53594,-0.050247,-0.510612,-1.86876,1.56748,1.66613,-0.236713,-0.791768,-0.657178,-0.0896302,-1.09964,-0.20989,0.160979,-0.824769,-0.0208493,
0.0170618,-0.205023,-0.325978,-1.66116,0.0369494,-0.149663,-0.382732,0.175421,-0.0163263,0.196862,-0.0505736,0.863691,-1.17304,0.00990443,0,0,0,0,0,0,0,0.0128893,-0.204226,-0.330493,-1.66024,0.0319927,1.4434,0.402253,0.0297317,0.00144856,0.037539,0.00207258,0.604173,-0.340803,-0.000102411,1.09455,-25.2864,3.31361,25.9076,0.550839,2.53594,-0.050247,-0.510612,-1.86876,1.56748,1.66613,-0.236713,-0.791768,-0.657178,-0.0896302,-1.09964,-0.20989,0.160979,-0.824769,-0.0208493,
0.0177899,-0.205075,-0.325161,-1.66138,0.0404904,-0.15448,-0.382694,0.182006,-0.0131154,0.204227,-0.0545969,0.885246,-1.20414,0.00963268,0,0,0,0,0,0,0,0.0128893,-0.204226,-0.330493,-1.66024,0.0319927,1.4434,0.402253,0.0297317,0.00144856,0.037539,0.00207258,0.604173,-0.340803,-0.000102411,1.09455,-25.2864,3.31361,25.9076,0.550839,2.53594,-0.050247,-0.149471,-1.92631,1.52825,1.48391,0.0725912,-0.756006,-0.658242,0.104343,-0.99347,-0.211671,-0.0561571,-0.767209,-0.0191905,
0.0185404,-0.205115,-0.32432,-1.66161,0.0441104,-0.159399,-0.382656,0.187627,-0.00986662,0.210477,-0.0581094,0.905009,-1.22979,0.00938068,0,0,0,0,0,0,0,0.0128893,-0.204226,-0.330493,-1.66024,0.0319927,1.4434,0.402253,0.0297317,0.00144856,0.037539,0.00207258,0.604173,-0.340803,-0.000102411,1.09455,-25.2864,3.31361,25.9076,0.550839,2.53594,-0.050247,-0.335627,-0.962972,1.80334,0.727536,-0.156711,-0.350509,-0.282397,-0.0553478,-0.48285,-0.104409,-0.0137878,-0.802345,-0.0177782,
0.0193102,-0.205144,-0.323456,-1.66186,0.0478023,-0.164365,-0.382619,0.192464,-0.00726213,0.215914,-0.063002,0.922952,-1.24157,0.00918946,0,0,0,0,0,0,0,0.0142321,-0.204384,-0.328958,-1.6602,0.0513075,1.42999,0.402251,0.0443763,-0.00954513,0.0531946,0.000929856,0.608998,-0.493743,-0.000966715,2.21332,-24.9889,4.48793,24.9356,1.8399,1.68084,-0.0301054,-0.335627,-0.962972,1.80334,0.727536,-0.156711,-0.350509,-0.282397,-0.0553478,-0.48285,-0.104409,-0.0137878,-0.802345,-0.0177782,
0.0200968,-0.205163,-0.322574,-1.66213,0.0515586,-0.169334,-0.382583,0.196647,-0.00477189,0.220562,-0.0679974,0.939087,-1.24206,0.00901481,0,0,0,0,0,0,0,0.0142321,-0.204384,-0.328958,-1.6602,0.0513075,1.42999,0.402251,0.0443763,-0.00954513,0.0531946,0.000929856,0.608998,-0.493743,-0.000966715,2.21332,-24.9889,4.48793,24.9356,1.8399,1.68084,-0.0301054,-0.138775,-0.449198,1.377,0.472766,0.195969,-0.0826268,-0.0261005,0.233513,-0.194538,-0.349776,0.0593226,-0.87364,-0.0149581,
0.0208978,-0.205171,-0.321676,-1.66242,0.0553724,-0.174276,-0.382548,0.200235,-0.00209849,0.224499,-0.0721313,0.953445,-1.23563,0.00883834,0,0,0,0,0,0,0,0.0142321,-0.204384,-0.328958,-1.6602,0.0513075,1.42999,0.402251,0.0443763,-0.00954513,0.0531946,0.000929856,0.608998,-0.493743,-0.000966715,2.21332,-24.9889,4.48793,24.9356,1.8399,1.68084,-0.0301054,-0.138775,-0.449198,1.377,0.472766,0.195969,-0.0826268,-0.0261005,0.233513,-0.194538,-0.349776,0.0593226,-0.87364,-0.0149581,
0.0217109,-0.205168,-0.320764,-1.66272,0.0592368,-0.179175,-0.382513,0.203289,0.000690603,0.227838,-0.0753232,0.966096,-1.22463,0.00866322,0,0,0,0,0,0,0,0.0142321,-0.204384,-0.328958,-1.6602,0.0513075,1.42999,0.402251,0.0443763,-0.00954513,0.0531946,0.000929856,0.608998,-0.493743,-0.000966715,2.21332,-24.9889,4.48793,24.9356,1.8399,1.68084,-0.0301054,-0.995573,-0.665254,1.42533,0.598827,-0.435317,-0.31276,-0.250169,-0.113909,-0.434932,-0.268364,0.0057412,-0.91156,-0.0137506,
0.0225344,-0.205154,-0.319842,-1.66304,0.0631454,-0.184017,-0.382479,0.205872,0.00347463,0.230669,-0.0777061,0.977148,-1.21052,0.00848995,0,0,0,0,0,0,0,0.0142321,-0.204384,-0.328958,-1.6602,0.0513075,1.42999,0.402251,0.0443763,-0.00954513,0.0531946,0.000929856,0.608998,-0.493743,-0.000966715,2.21332,-24.9889,4.48793,24.9356,1.8399,1.68084,-0.0301054,-0.995573,-0.665254,1.42533,0.598827,-0.435317,-0.31276,-0.250169,-0.113909,-0.434932,-0.268364,0.0057412,-0.91156,-0.0137506,
0.0233666,-0.20513,-0.318909,-1.66335,0.0670923,-0.188794,-0.382446,0.208041,0.00615661,0.233062,-0.0794373,0.986734,-1.19427,0.00832023,0,0,0,0,0,0,0,0.0142321,-0.204384,-0.328958,-1.6602,0.0513075,1.42999,0.402251,0.0443763,-0.00954513,0.0531946,0.000929856,0.608998,-0.493743,-0.000966715,2.21332,-24.9889,4.48793,24.9356,1.8399,1.68084,-0.0301054,-1.30007,-1.50034,1.34793,1.19018,-0.537446,-0.717111,-0.64656,-0.12033,-0.900912,-0.347835,-0.100938,-0.984319,-0.0128346,
0.0242059,-0.205095,-0.317969,-1.66368,0.0710723,-0.1935,-0.382413,0.209843,0.0086735,0.235073,-0.0806514,0.994993,-1.17655,0.00815393,0,0,0,0,0,0,0,0.0162897,-0.20454,-0.32644,-1.66025,0.072759,1.41145,0.402257,0.0687335,-0.00131468,0.0993312,-0.00449466,0.669331,-0.599744,0.000297256,2.01099,-24.612,3.96425,24.6857,2.16308,1.58105,-0.0365141,-1.5882,-1.39008,1.20996,1.21889,-0.654437,-0.702786,-0.629883,-0.143132,-0.901998,-0.4456,-0.0265518,-1.06713,-0.0119517,
0.0250512,-0.205051,-0.317022,-1.664,0.0750805,-0.198131,-0.382381,0.211321,0.0109899,0.236744,-0.0814555,1.00206,-1.15783,0.00799221,0,0,0,0,0,0,0,0.0162897,-0.20454,-0.32644,-1.66025,0.072759,1.41145,0.402257,0.0687335,-0.00131468,0.0993312,-0.00449466,0.669331,-0.599744,0.000297256,2.01099,-24.612,3.96425,24.6857,2.16308,1.58105,-0.0365141,-1.5882,-1.39008,1.20996,1.21889,-0.654437,-0.702786,-0.629883,-0.143132,-0.901998,-0.4456,-0.0265518,-1.06713,-0.0119517,
0.0259013,-0.204999,-0.31607,-1.66433,0.0791128,-0.202685,-0.38235,0.212509,0.0130905,0.238115,-0.0819319,1.00807,-1.13845,0.00783382,0,0,0,0,0,0,0,0.0162897,-0.20454,-0.32644,-1.66025,0.072759,1.41145,0.402257,0.0687335,-0.00131468,0.0993312,-0.00449466,0.669331,-0.599744,0.000297256,2.01099,-24.612,3.96425,24.6857,2.16308,1.58105,-0.0365141,-1.5441,-0.833817,1.02996,0.986208,-0.544198,-0.440249,-0.369926,-0.0472626,-0.633446,-0.574875,0.143799,-1.13293,-0.0113281,
0.026755,-0.204939,-0.315113,-1.66466,0.0831654,-0.20716,-0.382319,0.213437,0.0149733,0.239216,-0.082144,1.01314,-1.11866,0.00767936,0,0,0,0,0,0,0,0.0162897,-0.20454,-0.32644,-1.66025,0.072759,1.41145,0.402257,0.0687335,-0.00131468,0.0993312,-0.00449466,0.669331,-0.599744,0.000297256,2.01099,-24.612,3.96425,24.6857,2.16308,1.58105,-0.0365141,-1.5441,-0.833817,1.02996,0.986208,-0.544198,-0.440249,-0.369926,-0.0472626,-0.633446,-0.574875,0.143799,-1.13293,-0.0113281,
0.0276115,-0.204872,-0.314152,-1.66499,0.0872349,-0.211554,-0.382289,0.214132,0.0166444,0.240077,-0.0821416,1.01738,-1.09864,0.0075291,0,0,0,0,0,0,0,0.0162897,-0.20454,-0.32644,-1.66025,0.072759,1.41145,0.402257,0.0687335,-0.00131468,0.0993312,-0.00449466,0.669331,-0.599744,0.000297256,2.01099,-24.612,3.96425,24.6857,2.16308,1.58105,-0.0365141,-1.55286,-0.171436,0.977709,0.643894,-0.526767,-0.136493,-0.0722984,-0.0250178,-0.306131,-0.641739,0.30976,-1.19301,-0.0137697,
0.02847,-0.2048,-0.31319,-1.66531,0.0913184,-0.215868,-0.38226,0.21462,0.0181149,0.24072,-0.0819642,1.02088,-1.07851,0.00738268,0,0,0,0,0,0,0,0.0187022,-0.204657,-0.322643,-1.66051,0.0935915,1.39166,0.402256,0.0887123,0.00268991,0.125852,-0.0112822,0.619191,-0.630021,0.000336541,1.80469,-24.4612,3.68654,24.5865,2.82318,1.52794,-0.0301054,-1.55286,-0.171436,0.977709,0.643894,-0.526767,-0.136493,-0.0722984,-0.0250178,-0.306131,-0.641739,0.30976,-1.19301,-0.0137697,
0.0293297,-0.204722,-0.312225,-1.66564,0.0954133,-0.220102,-0.382231,0.21492,0.0193983,0.241169,-0.0816439,1.02372,-1.05836,0.00723995,0,0,0,0,0,0,0,0.0187022,-0.204657,-0.322643,-1.66051,0.0935915,1.39166,0.402256,0.0887123,0.00268991,0.125852,-0.0112822,0.619191,-0.630021,0.000336541,1.80469,-24.4612,3.68654,24.5865,2.82318,1.52794,-0.0301054,-1.32968,0.0220699,0.714317,0.670737,-0.296085,-0.021358,0.0336682,0.12969,-0.204744,-0.767356,0.459427,-1.19457,-0.0140356,
0.0301899,-0.20464,-0.311259,-1.66597,0.0995172,-0.224255,-0.382202,0.215055,0.02051,0.241444,-0.0812056,1.02598,-1.03826,0.00709959,0,0,0,0,0,0,0,0.0187022,-0.204657,-0.322643,-1.66051,0.0935915,1.39166,0.402256,0.0887123,0.00268991,0.125852,-0.0112822,0.619191,-0.630021,0.000336541,1.80469,-24.4612,3.68654,24.5865,2.82318,1.52794,-0.0301054,-1.27998,0.375591,0.652716,0.535152,-0.332104,0.127259,0.179191,0.0769474,-0.052929,-0.736315,0.616842,-1.13834,-0.013057,
0.0310501,-0.204554,-0.310293,-1.66629,0.103628,-0.228328,-0.382175,0.21504,0.0214653,0.241562,-0.0806696,1.02773,-1.01826,0.0069632,0,0,0,0,0,0,0,0.0187022,-0.204657,-0.322643,-1.66051,0.0935915,1.39166,0.402256,0.0887123,0.00268991,0.125852,-0.0112822,0.619191,-0.630021,0.000336541,1.80469,-24.4612,3.68654,24.5865,2.82318,1.52794,-0.0301054,-1.27998,0.375591,0.652716,0.535152,-0.332104,0.127259,0.179191,0.0769474,-0.052929,-0.736315,0.616842,-1.13834,-0.013057,
0.0319096,-0.204465,-0.309327,-1.66661,0.107744,-0.232321,-0.382147,0.214893,0.0222795,0.24154,-0.0800523,1.02903,-0.998392,0.0068296,0,0,0,0,0,0,0,0.0187022,-0.204657,-0.322643,-1.66051,0.0935915,1.39166,0.402256,0.0887123,0.00268991,0.125852,-0.0112822,0.619191,-0.630021,0.000336541,1.80469,-24.4612,3.68654,24.5865,2.82318,1.52794,-0.0301054,-0.864361,0.797643,0.138252,0.395122,0.111331,0.367159,0.424607,0.380856,0.176111,-0.940696,0.752556,-1.10566,-0.0152617,
0.014195,-0.204844,-0.329259,-1.6608,0.0163202,-0.124148,-0.38298,0.182004,-0.0569948,0.196141,-0.0653554,0.594936,-0.754122,0.0135107,0,0,0,0,0,0,0,0.0215783,-0.204698,-0.318562,-1.66089,0.112793,1.37143,0.402258,0.0983668,0.000670362,0.142874,-0.0167708,0.610791,-0.648115,-0.000800232,1.60236,-24.362,3.36122,24.7849,2.79846,1.9262,-0.0026396,-0.864361,0.797643,0.138252,0.395122,0.111331,0.367159,0.424607,0.380856,0.176111,-0.940696,0.752556,-1.10566,-0.0152617,
0.021045,-0.205073,-0.320083,-1.66137,0.100599,-0.188758,-0.382982,0.228603,-0.0399184,0.252925,-0.0846013,0.593054,-0.886619,0.0128613,0,0,0,0,0,0,0,0.0215783,-0.204698,-0.318562,-1.66089,0.112793,1.37143,0.402258,0.0983668,0.000670362,0.142874,-0.0167708,0.610791,-0.648115,-0.000800232,1.60236,-24.362,3.36122,24.7849,2.79846,1.9262,-0.0026396,-1.35894,1.28383,0.286689,0.0926143,-0.419864,0.487894,0.552264,0.0163066,0.318448,-0.75792,0.87403,-1.04473,-0.013455,
0.0220574,-0.205229,-0.318954,-1.66174,0.103075,-0.192587,-0.382933,0.25309,-0.039091,0.2821,-0.0911727,0.619174,-0.957129,0.0123025,0,0,0,0,0,0,0,0.0215783,-0.204698,-0.318562,-1.66089,0.112793,1.37143,0.402258,0.0983668,0.000670362,0.142874,-0.0167708,0.610791,-0.648115,-0.000800232,1.60236,-24.362,3.36122,24.7849,2.79846,1.9262,-0.0026396,-0.81192,1.20681,-0.225634,0.20945,0.101284,0.514316,0.577906,0.352668,0.324963,-0.919526,0.88816,-0.944444,-0.0131879,
0.02315,-0.205375,-0.317731,-1.66213,0.105679,-0.196652,-0.382886,0.273157,-0.0365193,0.305733,-0.0965001,0.650974,-1.01636,0.0118154,0,0,0,0,0,0,0,0.0215783,-0.204698,-0.318562,-1.66089,0.112793,1.37143,0.402258,0.0983668,0.000670362,0.142874,-0.0167708,0.610791,-0.648115,-0.000800232,1.60236,-24.362,3.36122,24.7849,2.79846,1.9262,-0.0026396,-0.81192,1.20681,-0.225634,0.20945,0.101284,0.514316,0.577906,0.352668,0.324963,-0.919526,0.88816,-0.944444,-0.0131879,
0.0243091,-0.205508,-0.316431,-1.66253,0.10842,-0.200915,-0.38284,0.289774,-0.0330339,0.325087,-0.10115,0.685153,-1.06573,0.0113832,0,0,0,0,0,0,0,0.0215783,-0.204698,-0.318562,-1.66089,0.112793,1.37143,0.402258,0.0983668,0.000670362,0.142874,-0.0167708,0.610791,-0.648115,-0.000800232,1.60236,-24.362,3.36122,24.7849,2.79846,1.9262,-0.0026396,-1.09794,2.37673,-0.171704,-0.653379,-0.203958,0.976239,1.0176,0.155166,0.89265,-0.808546,0.974041,-0.910696,-0.00938583,
0.0255241,-0.205627,-0.315066,-1.66296,0.111298,-0.205302,-0.382796,0.303754,-0.0297652,0.341247,-0.107242,0.719575,-1.09669,0.0110449,0,0,0,0,0,0,0,0.0215783,-0.204698,-0.318562,-1.66089,0.112793,1.37143,0.402258,0.0983668,0.000670362,0.142874,-0.0167708,0.610791,-0.648115,-0.000800232,1.60236,-24.362,3.36122,24.7849,2.79846,1.9262,-0.0026396,-1.09794,2.37673,-0.171704,-0.653379,-0.203958,0.976239,1.0176,0.155166,0.89265,-0.808546,0.974041,-0.910696,-0.00938583,
0.0267864,-0.205732,-0.313647,-1.66341,0.11431,-0.209751,-0.382753,0.315575,-0.026344,0.354765,-0.113425,0.752904,-1.1124,0.0107497,0,0,0,0,0,0,0,0.0266415,-0.204874,-0.312247,-1.6621,0.13346,1.34588,0.402264,0.142262,-0.0135711,0.176497,-0.0400855,0.386869,-0.560607,0.00131901,2.76874,-24.8103,4.68629,24.9594,1.97357,2.24389,-0.0566557,-1.59157,1.3132,0.0816254,-0.106863,-0.759575,0.415948,0.459459,-0.241303,0.3051,-0.514164,0.750158,-0.750786,-0.00853261,
0.0280885,-0.205821,-0.312183,-1.66389,0.117447,-0.214233,-0.382711,0.325524,-0.0223473,0.366023,-0.118077,0.784331,-1.12045,0.010422,0,0,0,0,0,0,0,0.0266415,-0.204874,-0.312247,-1.6621,0.13346,1.34588,0.402264,0.142262,-0.0135711,0.176497,-0.0400855,0.386869,-0.560607,0.00131901,2.76874,-24.8103,4.68629,24.9594,1.97357,2.24389,-0.0566557,-1.59157,1.3132,0.0816254,-0.106863,-0.759575,0.415948,0.459459,-0.241303,0.3051,-0.514164,0.750158,-0.750786,-0.00853261,
0.0294244,-0.205896,-0.31068,-1.66438,0.120701,-0.218694,-0.382671,0.333984,-0.0186358,0.375582,-0.123006,0.813386,-1.11519,0.0101468,0,0,0,0,0,0,0,0.0266415,-0.204874,-0.312247,-1.6621,0.13346,1.34588,0.402264,0.142262,-0.0135711,0.176497,-0.0400855,0.386869,-0.560607,0.00131901,2.76874,-24.8103,4.68629,24.9594,1.97357,2.24389,-0.0566557,-1.32189,0.113008,-0.295932,0.592889,-0.455489,-0.0828874,-0.0169725,-0.0374454,-0.264296,-0.571114,0.478167,-0.612205,-0.00727371,
0.0307891,-0.205956,-0.309146,-1.66489,0.12406,-0.223094,-0.382631,0.341163,-0.0149239,0.38365,-0.127327,0.839861,-1.09998,0.0098977,0,0,0,0,0,0,0,0.0266415,-0.204874,-0.312247,-1.6621,0.13346,1.34588,0.402264,0.142262,-0.0135711,0.176497,-0.0400855,0.386869,-0.560607,0.00131901,2.76874,-24.8103,4.68629,24.9594,1.97357,2.24389,-0.0566557,-1.37348,-0.196304,-0.422771,0.792239,-0.430694,-0.225688,-0.181061,0.0021021,-0.406076,-0.613486,0.421224,-0.607949,-0.00976034,
0.0321779,-0.206,-0.307584,-1.66541,0.127515,-0.227411,-0.382592,0.347192,-0.0110623,0.390408,-0.130402,0.863713,-1.07934,0.00965413,0,0,0,0,0,0,0,0.0266415,-0.204874,-0.312247,-1.6621,0.13346,1.34588,0.402264,0.142262,-0.0135711,0.176497,-0.0400855,0.386869,-0.560607,0.00131901,2.76874,-24.8103,4.68629,24.9594,1.97357,2.24389,-0.0566557,-1.37348,-0.196304,-0.422771,0.792239,-0.430694,-0.225688,-0.181061,0.0021021,-0.406076,-0.613486,0.421224,-0.607949,-0.00976034,
0.0335867,-0.206029,-0.306,-1.66594,0.131055,-0.231634,-0.382555,0.352209,-0.00719366,0.396048,-0.132354,0.885006,-1.0556,0.00942002,0,0,0,0,0,0,0,0.031535,-0.205285,-0.306077,-1.66361,0.146744,1.32743,0.402264,0.149305,-0.00758761,0.209083,-0.0515208,0.450581,-0.564725,-0.000310665,2.38788,-25.0365,4.2856,25.0348,2.41394,1.95916,-0.0301054,-1.61857,-0.120318,-0.218367,0.673266,-0.707814,-0.222847,-0.180377,-0.191355,-0.381237,-0.486534,0.396209,-0.589005,-0.0102377,
0.0350121,-0.206043,-0.304397,-1.66647,0.134671,-0.235754,-0.382518,0.356344,-0.00346765,0.400727,-0.133431,0.903873,-1.0301,0.00919457,0,0,0,0,0,0,0,0.031535,-0.205285,-0.306077,-1.66361,0.146744,1.32743,0.402264,0.149305,-0.00758761,0.209083,-0.0515208,0.450581,-0.564725,-0.000310665,2.38788,-25.0365,4.2856,25.0348,2.41394,1.95916,-0.0301054,-1.61857,-0.120318,-0.218367,0.673266,-0.707814,-0.222847,-0.180377,-0.191355,-0.381237,-0.486534,0.396209,-0.589005,-0.0102377,
0.0364509,-0.206042,-0.302779,-1.66701,0.138352,-0.239769,-0.382482,0.359709,1.4858e-05,0.404574,-0.133856,0.920486,-1.00365,0.00897958,0,0,0,0,0,0,0,0.031535,-0.205285,-0.306077,-1.66361,0.146744,1.32743,0.402264,0.149305,-0.00758761,0.209083,-0.0515208,0.450581,-0.564725,-0.000310665,2.38788,-25.0365,4.2856,25.0348,2.41394,1.95916,-0.0301054,-1.51785,-0.37528,-0.579849,0.794117,-0.464668,-0.306849,-0.25883,0.0156473,-0.476886,-0.630949,0.27009,-0.58407,-0.0126133,
0.0379005,-0.20603,-0.301148,-1.66754,0.142093,-0.243676,-0.382447,0.3624,0.00319991,0.407698,-0.133797,0.935032,-0.976759,0.00877435,0,0,0,0,0,0,0,0.031535,-0.205285,-0.306077,-1.66361,0.146744,1.32743,0.402264,0.149305,-0.00758761,0.209083,-0.0515208,0.450581,-0.564725,-0.000310665,2.38788,-25.0365,4.2856,25.0348,2.41394,1.95916,-0.0301054,-1.51785,-0.37528,-0.579849,0.794117,-0.464668,-0.306849,-0.25883,0.0156473,-0.476886,-0.630949,0.27009,-0.58407,-0.0126133,
0.0393585,-0.206005,-0.299507,-1.66808,0.145883,-0.247475,-0.382413,0.364502,0.0060664,0.410187,-0.133378,0.947698,-0.949751,0.0085801,0,0,0,0,0,0,0,0.031535,-0.205285,-0.306077,-1.66361,0.146744,1.32743,0.402264,0.149305,-0.00758761,0.209083,-0.0515208,0.450581,-0.564725,-0.000310665,2.38788,-25.0365,4.2856,25.0348,2.41394,1.95916,-0.0301054,-1.67742,-0.367769,-0.778983,0.703247,-0.431738,-0.297563,-0.252824,0.10371,-0.447585,-0.737414,0.149213,-0.639965,-0.0117167,
0.0408228,-0.205971,-0.297859,-1.66861,0.149718,-0.251166,-0.382379,0.366085,0.00861531,0.41212,-0.132684,0.958668,-0.922835,0.00839485,0,0,0,0,0,0,0,0.031535,-0.205285,-0.306077,-1.66361,0.146744,1.32743,0.402264,0.149305,-0.00758761,0.209083,-0.0515208,0.450581,-0.564725,-0.000310665,2.38788,-25.0365,4.2856,25.0348,2.41394,1.95916,-0.0301054,-1.86211,-0.0839328,-0.820945,0.500195,-0.483897,-0.170154,-0.127876,0.116101,-0.298572,-0.806293,0.150851,-0.722927,-0.0141426,
0.0422917,-0.205928,-0.296205,-1.66913,0.153591,-0.254751,-0.382346,0.36721,0.0108603,0.413562,-0.131781,0.968114,-0.896145,0.00821806,0,0,0,0,0,0,0,0.0368309,-0.205621,-0.299165,-1.66534,0.163627,1.31002,0.402264,0.185088,-0.0071046,0.228266,-0.0606729,0.561273,-0.540555,-6.2558e-05,2.3125,-24.5644,4.16261,25.2332,2.97516,1.7669,-0.0163725,-1.86211,-0.0839328,-0.820945,0.500195,-0.483897,-0.170154,-0.127876,0.116101,-0.298572,-0.806293,0.150851,-0.722927,-0.0141426,
0.0437634,-0.205876,-0.294546,-1.66966,0.157495,-0.25823,-0.382314,0.367932,0.0128218,0.414572,-0.130715,0.976195,-0.869766,0.00804928,0,0,0,0,0,0,0,0.0368309,-0.205621,-0.299165,-1.66534,0.163627,1.31002,0.402264,0.185088,-0.0071046,0.228266,-0.0606729,0.561273,-0.540555,-6.2558e-05,2.3125,-24.5644,4.16261,25.2332,2.97516,1.7669,-0.0163725,-1.93396,-0.0438354,-0.501237,0.527784,-0.638896,-0.156869,-0.120012,-0.017181,-0.28858,-0.721521,0.246737,-0.763822,-0.0128327,
0.0452366,-0.205818,-0.292885,-1.67017,0.161428,-0.261605,-0.382282,0.368298,0.0145235,0.4152,-0.129521,0.983057,-0.843748,0.00788894,0,0,0,0,0,0,0,0.0368309,-0.205621,-0.299165,-1.66534,0.163627,1.31002,0.402264,0.185088,-0.0071046,0.228266,-0.0606729,0.561273,-0.540555,-6.2558e-05,2.3125,-24.5644,4.16261,25.2332,2.97516,1.7669,-0.0163725,-1.93396,-0.0438354,-0.501237,0.527784,-0.638896,-0.156869,-0.120012,-0.017181,-0.28858,-0.721521,0.246737,-0.763822,-0.0128327,
0.04671,-0.205754,-0.291223,-1.67069,0.165383,-0.264877,-0.382251,0.368351,0.0159898,0.415491,-0.128227,0.988832,-0.818117,0.00773591,0,0,0,0,0,0,0,0.0368309,-0.205621,-0.299165,-1.66534,0.163627,1.31002,0.402264,0.185088,-0.0071046,0.228266,-0.0606729,0.561273,-0.540555,-6.2558e-05,2.3125,-24.5644,4.16261,25.2332,2.97516,1.7669,-0.0163725,-2.38008,-0.694209,-0.48049,1.06736,-0.96495,-0.506764,-0.44628,-0.210445,-0.715255,-0.696996,0.26924,-0.783188,-0.0117385,
0.0481825,-0.205685,-0.289562,-1.67119,0.169357,-0.268049,-0.382221,0.368128,0.0172452,0.415484,-0.126852,0.993641,-0.792891,0.00758828,0,0,0,0,0,0,0,0.0368309,-0.205621,-0.299165,-1.66534,0.163627,1.31002,0.402264,0.185088,-0.0071046,0.228266,-0.0606729,0.561273,-0.540555,-6.2558e-05,2.3125,-24.5644,4.16261,25.2332,2.97516,1.7669,-0.0163725,-2.38008,-0.694209,-0.48049,1.06736,-0.96495,-0.506764,-0.44628,-0.210445,-0.715255,-0.696996,0.26924,-0.783188,-0.0117385,
0.0496532,-0.205612,-0.287901,-1.6717,0.173348,-0.271121,-0.382191,0.36766,0.0183124,0.415214,-0.125415,0.997591,-0.768077,0.0074478,0,0,0,0,0,0,0,0.0438995,-0.205765,-0.290956,-1.66725,0.182409,1.29411,0.402267,0.218208,-0.000381212,0.278221,-0.0590451,0.558184,-0.436514,0.000686151,1.78089,-24.5128,3.53578,24.9356,3.17657,1.85296,-0.0429228,-2.07556,-0.899186,-0.969569,1.39085,-0.483225,-0.556,-0.480503,0.155652,-0.831088,-1.00036,0.358113,-0.85694,-0.0118022,
0.0511211,-0.205535,-0.286242,-1.67219,0.177351,-0.274096,-0.382162,0.366979,0.0192129,0.414713,-0.123927,1.00078,-0.743675,0.00731314,0,0,0,0,0,0,0,0.0438995,-0.205765,-0.290956,-1.66725,0.182409,1.29411,0.402267,0.218208,-0.000381212,0.278221,-0.0590451,0.558184,-0.436514,0.000686151,1.78089,-24.5128,3.53578,24.9356,3.17657,1.85296,-0.0429228,-1.82081,0.201644,-0.719796,0.713417,-0.447924,-0.0497076,0.014903,0.118608,-0.262682,-0.913139,0.590998,-0.84636,-0.0111635,
0.0525855,-0.205455,-0.284586,-1.67268,0.181364,-0.276974,-0.382133,0.366109,0.0199663,0.414007,-0.122399,1.00329,-0.719687,0.00718211,0,0,0,0,0,0,0,0.0438995,-0.205765,-0.290956,-1.66725,0.182409,1.29411,0.402267,0.218208,-0.000381212,0.278221,-0.0590451,0.558184,-0.436514,0.000686151,1.78089,-24.5128,3.53578,24.9356,3.17657,1.85296,-0.0429228,-1.82081,0.201644,-0.719796,0.713417,-0.447924,-0.0497076,0.014903,0.118608,-0.262682,-0.913139,0.590998,-0.84636,-0.0111635,
0.0540458,-0.205373,-0.282933,-1.67316,0.185385,-0.279759,-0.382105,0.365073,0.02059,0.413121,-0.120841,1.00521,-0.69611,0.00705705,0,0,0,0,0,0,0,0.0438995,-0.205765,-0.290956,-1.66725,0.182409,1.29411,0.402267,0.218208,-0.000381212,0.278221,-0.0590451,0.558184,-0.436514,0.000686151,1.78089,-24.5128,3.53578,24.9356,3.17657,1.85296,-0.0429228,-1.36681,1.74168,-0.6262,-0.288373,-0.224021,0.677211,0.736884,0.212928,0.551885,-0.881322,0.830214,-0.817846,-0.012548,
0.0216743,-0.205365,-0.319428,-1.66184,0.0995453,-0.18814,-0.382994,0.298404,-0.0677735,0.328942,-0.131719,0.483526,-0.808845,0.0119887,0,0,0,0,0,0,0,0.0438995,-0.205765,-0.290956,-1.66725,0.182409,1.29411,0.402267,0.218208,-0.000381212,0.278221,-0.0590451,0.558184,-0.436514,0.000686151,1.78089,-24.5128,3.53578,24.9356,3.17657,1.85296,-0.0429228,-1.36681,1.74168,-0.6262,-0.288373,-0.224021,0.677211,0.736884,0.212928,0.551885,-0.881322,0.830214,-0.817846,-0.012548,
0.047856,-0.206171,-0.286551,-1.66871,0.188923,-0.283517,-0.382998,0.364708,-0.038143,0.408379,-0.136765,0.55779,-0.627637,0.0109508,0,0,0,0,0,0,0,0.0438995,-0.205765,-0.290956,-1.66725,0.182409,1.29411,0.402267,0.218208,-0.000381212,0.278221,-0.0590451,0.558184,-0.436514,0.000686151,1.78089,-24.5128,3.53578,24.9356,3.17657,1.85296,-0.0429228,-1.45199,1.89099,-0.68286,-0.296536,-0.283812,0.718302,0.785285,0.178389,0.577752,-0.895613,0.935319,-0.816299,-0.0113536,
0.0494176,-0.206316,-0.284795,-1.66929,0.191272,-0.286204,-0.382955,0.390397,-0.0363232,0.438899,-0.143998,0.587247,-0.671798,0.0106202,0,0,0,0,0,0,0,0.0504185,-0.205709,-0.282753,-1.6689,0.198985,1.28221,0.402268,0.232216,0.000155849,0.283469,-0.0514646,0.54652,-0.377443,0.000648092,1.60236,-25.1357,3.13905,24.7095,3.0484,1.86577,-0.050247,-1.38163,1.48428,-0.913657,0.067435,-0.167182,0.525844,0.598652,0.258329,0.336705,-0.965699,0.962351,-0.776695,-0.0119744,
0.0510635,-0.20645,-0.28294,-1.66989,0.193757,-0.288996,-0.382914,0.411485,-0.0333688,0.463722,-0.150634,0.621318,-0.698158,0.0103436,0,0,0,0,0,0,0,0.0504185,-0.205709,-0.282753,-1.6689,0.198985,1.28221,0.402268,0.232216,0.000155849,0.283469,-0.0514646,0.54652,-0.377443,0.000648092,1.60236,-25.1357,3.13905,24.7095,3.0484,1.86577,-0.050247,-1.38163,1.48428,-0.913657,0.067435,-0.167182,0.525844,0.598652,0.258329,0.336705,-0.965699,0.962351,-0.776695,-0.0119744,
0.052779,-0.206568,-0.281004,-1.67051,0.196385,-0.291837,-0.382873,0.428885,-0.0296593,0.48403,-0.156385,0.657022,-0.710146,0.0101412,0,0,0,0,0,0,0,0.0504185,-0.205709,-0.282753,-1.6689,0.198985,1.28221,0.402268,0.232216,0.000155849,0.283469,-0.0514646,0.54652,-0.377443,0.000648092,1.60236,-25.1357,3.13905,24.7095,3.0484,1.86577,-0.050247,-0.792867,2.51814,-1.16856,-0.582518,0.338819,1.03972,1.09627,0.584221,0.911857,-1.10511,1.11049,-0.763386,-0.0115026,
0.0545517,-0.206668,-0.279002,-1.67115,0.199155,-0.294703,-0.382834,0.443154,-0.0250093,0.500586,-0.159927,0.692472,-0.716494,0.00986392,0,0,0,0,0,0,0,0.0504185,-0.205709,-0.282753,-1.6689,0.198985,1.28221,0.402268,0.232216,0.000155849,0.283469,-0.0514646,0.54652,-0.377443,0.000648092,1.60236,-25.1357,3.13905,24.7095,3.0484,1.86577,-0.050247,-0.792867,2.51814,-1.16856,-0.582518,0.338819,1.03972,1.09627,0.584221,0.911857,-1.10511,1.11049,-0.763386,-0.0115026,
0.0563717,-0.206751,-0.276945,-1.67181,0.202061,-0.29755,-0.382795,0.455011,-0.0205387,0.514274,-0.163314,0.726424,-0.711828,0.00962276,0,0,0,0,0,0,0,0.0504185,-0.205709,-0.282753,-1.6689,0.198985,1.28221,0.402268,0.232216,0.000155849,0.283469,-0.0514646,0.54652,-0.377443,0.000648092,1.60236,-25.1357,3.13905,24.7095,3.0484,1.86577,-0.050247,-2.37426,0.751822,-0.892702,0.517735,-0.954648,0.0763889,0.147086,-0.212396,-0.138699,-0.795499,0.856116,-0.716131,-0.00928845,
0.058231,-0.206815,-0.274842,-1.67247,0.205093,-0.300346,-0.382758,0.464828,-0.0161327,0.525572,-0.166011,0.758161,-0.698963,0.0094119,0,0,0,0,0,0,0,0.0582412,-0.205754,-0.273284,-1.67069,0.211897,1.27207,0.402266,0.239366,-0.00416454,0.331817,-0.0526331,0.337129,-0.27954,-0.000759734,2.59418,-25.2864,3.96425,24.162,2.34619,1.74035,-0.0301054,-2.83714,-0.254909,-1.03802,1.08469,-1.25206,-0.405258,-0.290588,-0.373855,-0.692509,-0.7512,0.623858,-0.659402,-0.00817286,
0.0601225,-0.206862,-0.272703,-1.67314,0.208243,-0.303074,-0.382721,0.472865,-0.0116994,0.534832,-0.16757,0.787327,-0.681852,0.00920814,0,0,0,0,0,0,0,0.0582412,-0.205754,-0.273284,-1.67069,0.211897,1.27207,0.402266,0.239366,-0.00416454,0.331817,-0.0526331,0.337129,-0.27954,-0.000759734,2.59418,-25.2864,3.96425,24.162,2.34619,1.74035,-0.0301054,-2.83714,-0.254909,-1.03802,1.08469,-1.25206,-0.405258,-0.290588,-0.373855,-0.692509,-0.7512,0.623858,-0.659402,-0.00817286,
0.06204,-0.206891,-0.270534,-1.67381,0.211498,-0.305723,-0.382685,0.479377,-0.00738474,0.542374,-0.168171,0.813793,-0.662404,0.00901612,0,0,0,0,0,0,0,0.0582412,-0.205754,-0.273284,-1.67069,0.211897,1.27207,0.402266,0.239366,-0.00416454,0.331817,-0.0526331,0.337129,-0.27954,-0.000759734,2.59418,-25.2864,3.96425,24.162,2.34619,1.74035,-0.0301054,-2.39479,-0.218949,-1.25953,1.07323,-0.790394,-0.329124,-0.233479,-0.0615387,-0.605963,-0.915313,0.622787,-0.688451,-0.00797064,
0.0639783,-0.206905,-0.26834,-1.67449,0.214848,-0.30829,-0.38265,0.48459,-0.00332213,0.54846,-0.168067,0.837566,-0.641641,0.00883358,0,0,0,0,0,0,0,0.0582412,-0.205754,-0.273284,-1.67069,0.211897,1.27207,0.402266,0.239366,-0.00416454,0.331817,-0.0526331,0.337129,-0.27954,-0.000759734,2.59418,-25.2864,3.96425,24.162,2.34619,1.74035,-0.0301054,-2.39479,-0.218949,-1.25953,1.07323,-0.790394,-0.329124,-0.233479,-0.0615387,-0.605963,-0.915313,0.622787,-0.688451,-0.00797064,
0.0659331,-0.206903,-0.266127,-1.67516,0.218283,-0.31077,-0.382615,0.488689,0.00040855,0.553308,-0.16746,0.858741,-0.62015,0.0086621,0,0,0,0,0,0,0,0.0582412,-0.205754,-0.273284,-1.67069,0.211897,1.27207,0.402266,0.239366,-0.00416454,0.331817,-0.0526331,0.337129,-0.27954,-0.000759734,2.59418,-25.2864,3.96425,24.162,2.34619,1.74035,-0.0301054,-2.54516,0.122325,-0.911962,0.749911,-0.98742,-0.152676,-0.076719,-0.196261,-0.371958,-0.811176,0.606468,-0.743852,-0.0102314,
0.0679004,-0.206888,-0.263898,-1.67582,0.221793,-0.313164,-0.382581,0.491833,0.00377348,0.557098,-0.166493,0.877464,-0.598286,0.00850037,0,0,0,0,0,0,0,0.0582412,-0.205754,-0.273284,-1.67069,0.211897,1.27207,0.402266,0.239366,-0.00416454,0.331817,-0.0526331,0.337129,-0.27954,-0.000759734,2.59418,-25.2864,3.96425,24.162,2.34619,1.74035,-0.0301054,-2.54516,0.122325,-0.911962,0.749911,-0.98742,-0.152676,-0.076719,-0.196261,-0.371958,-0.811176,0.606468,-0.743852,-0.0102314,
0.069877,-0.206861,-0.261658,-1.67648,0.225369,-0.315469,-0.382548,0.494154,0.00676855,0.559979,-0.165262,0.893909,-0.576266,0.00835075,0,0,0,0,0,0,0,0.0698676,-0.205872,-0.259009,-1.67351,0.228468,1.2612,0.402272,0.287996,-0.00364545,0.344802,-0.0751155,0.478587,-0.23581,0.000254291,2.26093,-24.8103,3.8611,24.4357,2.73712,1.20293,-0.050247,-2.08951,0.277764,-1.13192,0.497795,-0.489556,0.0174267,0.0881718,0.160769,-0.164936,-0.977613,0.461505,-0.787747,-0.0117819,
0.0718601,-0.206823,-0.25941,-1.67714,0.229002,-0.317686,-0.382515,0.495764,0.0094083,0.562076,-0.163835,0.908263,-0.554236,0.00820984,0,0,0,0,0,0,0,0.0698676,-0.205872,-0.259009,-1.67351,0.228468,1.2612,0.402272,0.287996,-0.00364545,0.344802,-0.0751155,0.478587,-0.23581,0.000254291,2.26093,-24.8103,3.8611,24.4357,2.73712,1.20293,-0.050247,-2.14156,-0.079159,-1.07698,0.64808,-0.48219,-0.103289,-0.0372691,0.181768,-0.286036,-0.995545,0.34001,-0.834949,-0.014093,
0.0738471,-0.206776,-0.257156,-1.67779,0.232684,-0.319815,-0.382482,0.496756,0.0117169,0.563497,-0.162257,0.920713,-0.532293,0.00807735,0,0,0,0,0,0,0,0.0698676,-0.205872,-0.259009,-1.67351,0.228468,1.2612,0.402272,0.287996,-0.00364545,0.344802,-0.0751155,0.478587,-0.23581,0.000254291,2.26093,-24.8103,3.8611,24.4357,2.73712,1.20293,-0.050247,-2.14156,-0.079159,-1.07698,0.64808,-0.48219,-0.103289,-0.0372691,0.181768,-0.286036,-0.995545,0.34001,-0.834949,-0.014093,
0.075836,-0.206721,-0.254899,-1.67843,0.23641,-0.321857,-0.382451,0.497213,0.0137227,0.56433,-0.160561,0.931444,-0.510505,0.00795167,0,0,0,0,0,0,0,0.0698676,-0.205872,-0.259009,-1.67351,0.228468,1.2612,0.402272,0.287996,-0.00364545,0.344802,-0.0751155,0.478587,-0.23581,0.000254291,2.26093,-24.8103,3.8611,24.4357,2.73712,1.20293,-0.050247,-2.13786,0.291287,-1.26799,0.359143,-0.345261,0.0964529,0.159394,0.327864,-0.0560666,-1.12395,0.325794,-0.901343,-0.0139743,
0.0778248,-0.20666,-0.25264,-1.67907,0.240173,-0.323812,-0.382419,0.497204,0.0154553,0.564652,-0.158772,0.940628,-0.488922,0.00783404,0,0,0,0,0,0,0,0.0698676,-0.205872,-0.259009,-1.67351,0.228468,1.2612,0.402272,0.287996,-0.00364545,0.344802,-0.0751155,0.478587,-0.23581,0.000254291,2.26093,-24.8103,3.8611,24.4357,2.73712,1.20293,-0.050247,-2.13786,0.291287,-1.26799,0.359143,-0.345261,0.0964529,0.159394,0.327864,-0.0560666,-1.12395,0.325794,-0.901343,-0.0139743,
0.0798119,-0.206592,-0.250382,-1.67969,0.243966,-0.325683,-0.382388,0.496788,0.0169434,0.564531,-0.156909,0.94843,-0.467577,0.00772364,0,0,0,0,0,0,0,0.0790148,-0.205954,-0.247755,-1.67581,0.245186,1.2558,0.402268,0.308137,-0.00108162,0.377494,-0.0747664,0.548198,-0.136855,-0.000937521,2.41565,-24.612,3.66273,24.0866,2.95684,1.32287,-0.00996382,-1.84211,0.961986,-1.46836,-0.0573533,0.0114608,0.450812,0.52593,0.59816,0.315439,-1.29834,0.41822,-0.974731,-0.0163108,
0.081796,-0.206519,-0.248126,-1.68031,0.247786,-0.327469,-0.382358,0.49602,0.0182145,0.564022,-0.154987,0.954998,-0.446501,0.0076169,0,0,0,0,0,0,0,0.0790148,-0.205954,-0.247755,-1.67581,0.245186,1.2558,0.402268,0.308137,-0.00108162,0.377494,-0.0747664,0.548198,-0.136855,-0.000937521,2.41565,-24.612,3.66273,24.0866,2.95684,1.32287,-0.00996382,-2.22708,-0.270905,-1.26239,0.846209,-0.358429,-0.149983,-0.0606842,0.315391,-0.381279,-1.17076,0.380093,-0.943239,-0.0114923,
0.0837758,-0.206442,-0.245873,-1.68093,0.251628,-0.329172,-0.382328,0.494943,0.0192934,0.563177,-0.153018,0.960471,-0.425714,0.00751669,0,0,0,0,0,0,0,0.0790148,-0.205954,-0.247755,-1.67581,0.245186,1.2558,0.402268,0.308137,-0.00108162,0.377494,-0.0747664,0.548198,-0.136855,-0.000937521,2.41565,-24.612,3.66273,24.0866,2.95684,1.32287,-0.00996382,-2.22708,-0.270905,-1.26239,0.846209,-0.358429,-0.149983,-0.0606842,0.315391,-0.381279,-1.17076,0.380093,-0.943239,-0.0114923,
0.0857502,-0.206361,-0.243625,-1.68153,0.255488,-0.330793,-0.382298,0.493598,0.020203,0.562038,-0.151014,0.964972,-0.405235,0.00742268,0,0,0,0,0,0,0,0.0790148,-0.205954,-0.247755,-1.67581,0.245186,1.2558,0.402268,0.308137,-0.00108162,0.377494,-0.0747664,0.548198,-0.136855,-0.000937521,2.41565,-24.612,3.66273,24.0866,2.95684,1.32287,-0.00996382,-2.22795,-1.68999,-1.35993,1.94831,-0.305707,-0.814158,-0.723831,0.312364,-1.1613,-1.2123,0.36968,-0.915357,-0.00860662,
0.0877182,-0.206277,-0.241382,-1.68213,0.259363,-0.332333,-0.382269,0.492018,0.020964,0.560644,-0.148982,0.968616,-0.385078,0.00733014,0,0,0,0,0,0,0,0.0790148,-0.205954,-0.247755,-1.67581,0.245186,1.2558,0.402268,0.308137,-0.00108162,0.377494,-0.0747664,0.548198,-0.136855,-0.000937521,2.41565,-24.612,3.66273,24.0866,2.95684,1.32287,-0.00996382,-2.22795,-1.68999,-1.35993,1.94831,-0.305707,-0.814158,-0.723831,0.312364,-1.1613,-1.2123,0.36968,-0.915357,-0.00860662,
0.0896819,-0.206192,-0.239145,-1.68271,0.263225,-0.333794,-0.38224,0.490901,0.0214116,0.559353,-0.146673,0.965504,-0.365191,0.00716624,0,0,0,0,0,0,0,0.0790148,-0.205954,-0.247755,-1.67581,0.245186,1.2558,0.402268,0.308137,-0.00108162,0.377494,-0.0747664,0.548198,-0.136855,-0.000937521,2.41565,-24.612,3.66273,24.0866,2.95684,1.32287,-0.00996382,-2.07996,-0.639634,-1.17138,1.29499,-0.307571,-0.33584,-0.251013,0.283566,-0.626039,-1.14,0.569127,-0.904404,-0.0122162,
0.091642,-0.206105,-0.236912,-1.68329,0.267045,-0.335176,-0.382212,0.490042,0.0215581,0.55832,-0.14414,0.955069,-0.345602,0.00697599,0,0,0,0,0,0,0,0.0891613,-0.20588,-0.23514,-1.67832,0.262742,1.25298,0.402274,0.31794,-0.00120746,0.407779,-0.0854945,0.571858,-0.0618725,0.000481554,2.51484,-25.4094,3.66273,24.2136,3.32397,1.44829,-0.0566557,-1.95316,0.393636,-1.20031,0.65386,-0.250412,0.127397,0.217889,0.321217,-0.117434,-1.13375,0.748599,-0.878393,-0.0154484,
0.0935982,-0.206019,-0.234682,-1.68385,0.270806,-0.336482,-0.382185,0.489035,0.0215243,0.557354,-0.141563,0.94026,-0.326388,0.00681271,0,0,0,0,0,0,0,0.0891613,-0.20588,-0.23514,-1.67832,0.262742,1.25298,0.402274,0.31794,-0.00120746,0.407779,-0.0854945,0.571858,-0.0618725,0.000481554,2.51484,-25.4094,3.66273,24.2136,3.32397,1.44829,-0.0566557,-1.95316,0.393636,-1.20031,0.65386,-0.250412,0.127397,0.217889,0.321217,-0.117434,-1.13375,0.748599,-0.878393,-0.0154484,
0.0955493,-0.205934,-0.232457,-1.68441,0.274497,-0.337712,-0.382158,0.487788,0.0213888,0.55627,-0.139017,0.92282,-0.307596,0.00666536,0,0,0,0,0,0,0,0.0891613,-0.20588,-0.23514,-1.67832,0.262742,1.25298,0.402274,0.31794,-0.00120746,0.407779,-0.0854945,0.571858,-0.0618725,0.000481554,2.51484,-25.4094,3.66273,24.2136,3.32397,1.44829,-0.0566557,-2.32703,0.76981,-1.0518,0.475744,-0.598458,0.262786,0.338579,0.101379,0.0424207,-1.04371,0.886039,-0.884481,-0.0170707,
0.0483504,-0.206485,-0.28603,-1.66929,0.188187,-0.280682,-0.383001,0.418959,-0.064886,0.467856,-0.186842,0.4805,-0.316368,0.0106413,0,0,0,0,0,0,0,0.0891613,-0.20588,-0.23514,-1.67832,0.262742,1.25298,0.402274,0.31794,-0.00120746,0.407779,-0.0854945,0.571858,-0.0618725,0.000481554,2.51484,-25.4094,3.66273,24.2136,3.32397,1.44829,-0.0566557,-2.32703,0.76981,-1.0518,0.475744,-0.598458,0.262786,0.338579,0.101379,0.0424207,-1.04371,0.886039,-0.884481,-0.0170707,
0.0943776,-0.206305,-0.229255,-1.68023,0.269411,-0.318612,-0.383004,0.46919,-0.0379243,0.53091,-0.172671,0.567748,-0.0833245,0.00994755,0,0,0,0,0,0,0,0.0891613,-0.20588,-0.23514,-1.67832,0.262742,1.25298,0.402274,0.31794,-0.00120746,0.407779,-0.0854945,0.571858,-0.0618725,0.000481554,2.51484,-25.4094,3.66273,24.2136,3.32397,1.44829,-0.0566557,-2.07223,1.0561,-1.00232,0.3173,-0.428631,0.409254,0.486998,0.189665,0.195159,-1.04961,0.964136,-0.876857,-0.0156171,
0.0963546,-0.206445,-0.227011,-1.68094,0.271783,-0.318989,-0.382964,0.494247,-0.0350049,0.560846,-0.178036,0.592803,-0.0941593,0.00985166,0,0,0,0,0,0,0,0.10016,-0.205762,-0.22186,-1.68113,0.28043,1.25219,0.402274,0.330578,0.00456759,0.42332,-0.0857689,0.539174,-0.00514747,0.000768246,1.88404,-25.7109,2.73836,24.4119,3.49426,1.31554,-0.0630644,-2.07223,1.0561,-1.00232,0.3173,-0.428631,0.409254,0.486998,0.189665,0.195159,-1.04961,0.964136,-0.876857,-0.0156171,
0.0984117,-0.206567,-0.224673,-1.68166,0.274272,-0.319407,-0.382926,0.514274,-0.0303265,0.584719,-0.180202,0.622381,-0.104553,0.00966211,0,0,0,0,0,0,0,0.10016,-0.205762,-0.22186,-1.68113,0.28043,1.25219,0.402274,0.330578,0.00456759,0.42332,-0.0857689,0.539174,-0.00514747,0.000768246,1.88404,-25.7109,2.73836,24.4119,3.49426,1.31554,-0.0630644,-1.3269,2.22616,-1.01709,-0.465721,0.110544,0.988123,1.0674,0.517026,0.833481,-1.11302,1.107,-0.858574,-0.0184772,
0.100534,-0.206669,-0.222257,-1.68239,0.276887,-0.319837,-0.382888,0.530529,-0.0255579,0.603958,-0.182011,0.653745,-0.107486,0.00949072,0,0,0,0,0,0,0,0.10016,-0.205762,-0.22186,-1.68113,0.28043,1.25219,0.402274,0.330578,0.00456759,0.42332,-0.0857689,0.539174,-0.00514747,0.000768246,1.88404,-25.7109,2.73836,24.4119,3.49426,1.31554,-0.0630644,-1.10465,2.04197,-0.970222,-0.340292,0.254653,0.906905,0.945755,0.580629,0.773136,-1.0996,1.10769,-0.83074,-0.0142066,
0.102709,-0.206752,-0.219779,-1.68312,0.279627,-0.320255,-0.38285,0.543697,-0.0208345,0.619489,-0.183296,0.685073,-0.104394,0.00935414,0,0,0,0,0,0,0,0.10016,-0.205762,-0.22186,-1.68113,0.28043,1.25219,0.402274,0.330578,0.00456759,0.42332,-0.0857689,0.539174,-0.00514747,0.000768246,1.88404,-25.7109,2.73836,24.4119,3.49426,1.31554,-0.0630644,-1.10465,2.04197,-0.970222,-0.340292,0.254653,0.906905,0.945755,0.580629,0.773136,-1.0996,1.10769,-0.83074,-0.0142066,
0.104926,-0.206817,-0.217251,-1.68386,0.282488,-0.320648,-0.382813,0.554267,-0.0161475,0.631973,-0.183719,0.71524,-0.0982748,0.00922475,0,0,0,0,0,0,0,0.10016,-0.205762,-0.22186,-1.68113,0.28043,1.25219,0.402274,0.330578,0.00456759,0.42332,-0.0857689,0.539174,-0.00514747,0.000768246,1.88404,-25.7109,2.73836,24.4119,3.49426,1.31554,-0.0630644,-2.35913,-1.88755,-1.41069,2.25909,-0.497479,-0.944765,-0.848208,0.101396,-1.34252,-1.08444,0.618012,-0.748751,-0.00612322,
0.107176,-0.206863,-0.214683,-1.68459,0.285463,-0.321009,-0.382777,0.562676,-0.0116565,0.641947,-0.183445,0.743583,-0.0904053,0.00910679,0,0,0,0,0,0,0,0.111638,-0.205793,-0.207968,-1.684,0.293126,1.25252,0.402274,0.354851,0.000589565,0.478495,-0.0898499,0.347476,0.0129265,0.00107824,2.66956,-25.8617,3.28584,24.1898,3.35418,1.36223,-0.0630644,-2.35913,-1.88755,-1.41069,2.25909,-0.497479,-0.944765,-0.848208,0.101396,-1.34252,-1.08444,0.618012,-0.748751,-0.00612322,
0.109458,-0.206895,-0.212081,-1.68532,0.288499,-0.321335,-0.382742,0.570478,-0.00779465,0.650412,-0.182167,0.758964,-0.0812736,0.00886517,0,0,0,0,0,0,0,0.111638,-0.205793,-0.207968,-1.684,0.293126,1.25252,0.402274,0.354851,0.000589565,0.478495,-0.0898499,0.347476,0.0129265,0.00107824,2.66956,-25.8617,3.28584,24.1898,3.35418,1.36223,-0.0630644,-2.41243,-1.11779,-1.67491,1.62391,-0.467701,-0.57162,-0.437738,0.184151,-0.933537,-1.14234,0.581896,-0.729094,-0.00886507,
0.111767,-0.206913,-0.20945,-1.68604,0.291551,-0.32162,-0.382707,0.577202,-0.00456081,0.657792,-0.180291,0.76318,-0.0712734,0.0086199,0,0,0,0,0,0,0,0.111638,-0.205793,-0.207968,-1.684,0.293126,1.25252,0.402274,0.354851,0.000589565,0.478495,-0.0898499,0.347476,0.0129265,0.00107824,2.66956,-25.8617,3.28584,24.1898,3.35418,1.36223,-0.0630644,-2.50124,0.0686972,-1.76968,0.744018,-0.444797,-0.00114671,0.0647751,0.291667,-0.220552,-1.22912,0.644927,-0.812357,-0.00859439,
0.114097,-0.20692,-0.206794,-1.68675,0.294593,-0.321862,-0.382674,0.582589,-0.00183028,0.663995,-0.178173,0.76036,-0.060705,0.00840587,0,0,0,0,0,0,0,0.111638,-0.205793,-0.207968,-1.684,0.293126,1.25252,0.402274,0.354851,0.000589565,0.478495,-0.0898499,0.347476,0.0129265,0.00107824,2.66956,-25.8617,3.28584,24.1898,3.35418,1.36223,-0.0630644,-2.50124,0.0686972,-1.76968,0.744018,-0.444797,-0.00114671,0.0647751,0.291667,-0.220552,-1.22912,0.644927,-0.812357,-0.00859439,
0.116444,-0.206918,-0.204118,-1.68746,0.297605,-0.322061,-0.382641,0.586707,0.000496485,0.668961,-0.175967,0.752983,-0.0497578,0.00821934,0,0,0,0,0,0,0,0.111638,-0.205793,-0.207968,-1.684,0.293126,1.25252,0.402274,0.354851,0.000589565,0.478495,-0.0898499,0.347476,0.0129265,0.00107824,2.66956,-25.8617,3.28584,24.1898,3.35418,1.36223,-0.0630644,-2.52233,0.899019,-1.6367,0.0327382,-0.52263,0.42167,0.464534,0.272466,0.302537,-1.16676,0.607692,-0.8254,-0.0134125,
0.118803,-0.206908,-0.201427,-1.68815,0.300575,-0.322216,-0.382608,0.589672,0.00249473,0.672739,-0.17374,0.742586,-0.0385519,0.00805092,0,0,0,0,0,0,0,0.111638,-0.205793,-0.207968,-1.684,0.293126,1.25252,0.402274,0.354851,0.000589565,0.478495,-0.0898499,0.347476,0.0129265,0.00107824,2.66956,-25.8617,3.28584,24.1898,3.35418,1.36223,-0.0630644,-2.52233,0.899019,-1.6367,0.0327382,-0.52263,0.42167,0.464534,0.272466,0.302537,-1.16676,0.607692,-0.8254,-0.0134125,
0.121169,-0.206891,-0.198726,-1.68884,0.303496,-0.322324,-0.382577,0.591617,0.00422022,0.675426,-0.171519,0.730143,-0.0271658,0.00789651,0,0,0,0,0,0,0,0.123331,-0.205812,-0.193842,-1.68698,0.305338,1.25425,0.402268,0.394427,-0.000164583,0.449065,-0.10222,0.435846,0.0629395,-0.000299779,1.63013,-25.8339,2.81373,24.5865,2.89001,1.4016,-0.0365141,-1.79129,0.462929,-2.0339,0.193234,0.14264,0.263929,0.300038,0.687751,0.13946,-1.32416,0.432484,-0.751658,-0.0148794,
0.12354,-0.206868,-0.196017,-1.68952,0.306361,-0.322387,-0.382546,0.592673,0.00571511,0.677141,-0.169314,0.716294,-0.0156568,0.00775086,0,0,0,0,0,0,0,0.123331,-0.205812,-0.193842,-1.68698,0.305338,1.25425,0.402268,0.394427,-0.000164583,0.449065,-0.10222,0.435846,0.0629395,-0.000299779,1.63013,-25.8339,2.81373,24.5865,2.89001,1.4016,-0.0365141,-1.79129,0.462929,-2.0339,0.193234,0.14264,0.263929,0.300038,0.687751,0.13946,-1.32416,0.432484,-0.751658,-0.0148794,
0.125912,-0.20684,-0.193305,-1.69018,0.309167,-0.322403,-0.382515,0.592959,0.00701259,0.678004,-0.167126,0.701489,-0.00406796,0.00761325,0,0,0,0,0,0,0,0.123331,-0.205812,-0.193842,-1.68698,0.305338,1.25425,0.402268,0.394427,-0.000164583,0.449065,-0.10222,0.435846,0.0629395,-0.000299779,1.63013,-25.8339,2.81373,24.5865,2.89001,1.4016,-0.0365141,-2.26929,-0.563642,-2.22581,0.820276,-0.160998,-0.214355,-0.174317,0.505569,-0.386192,-1.30912,0.268218,-0.7114,-0.0122593,
0.128282,-0.206808,-0.190593,-1.69084,0.311911,-0.322373,-0.382485,0.592581,0.00813962,0.678127,-0.164956,0.686072,0.00756506,0.00748404,0,0,0,0,0,0,0,0.123331,-0.205812,-0.193842,-1.68698,0.305338,1.25425,0.402268,0.394427,-0.000164583,0.449065,-0.10222,0.435846,0.0629395,-0.000299779,1.63013,-25.8339,2.81373,24.5865,2.89001,1.4016,-0.0365141,-2.04809,-0.332391,-1.92032,0.636659,-0.168412,-0.0982744,-0.0513695,0.436114,-0.255285,-1.16084,0.291969,-0.65447,-0.0131589,
0.130649,-0.206771,-0.187882,-1.69149,0.314593,-0.322296,-0.382456,0.591629,0.009121,0.677607,-0.162805,0.670364,0.0192061,0.00735632,0,0,0,0,0,0,0,0.123331,-0.205812,-0.193842,-1.68698,0.305338,1.25425,0.402268,0.394427,-0.000164583,0.449065,-0.10222,0.435846,0.0629395,-0.000299779,1.63013,-25.8339,2.81373,24.5865,2.89001,1.4016,-0.0365141,-2.04809,-0.332391,-1.92032,0.636659,-0.168412,-0.0982744,-0.0513695,0.436114,-0.255285,-1.16084,0.291969,-0.65447,-0.0131589,
0.133009,-0.206731,-0.185176,-1.69214,0.317212,-0.322173,-0.382427,0.59017,0.00998118,0.676522,-0.160678,0.654747,0.0308205,0.0072319,0,0,0,0,0,0,0,0.140174,-0.205674,-0.173558,-1.69071,0.324973,1.25653,0.402274,0.40622,0.00703529,0.500261,-0.0744402,0.447787,0.0368105,0.000418862,1.78089,-26.6591,2.5876,24.162,2.84698,1.54809,-0.0630644,-1.6604,-1.29854,-2.01844,1.32858,0.0955696,-0.569515,-0.529229,0.516174,-0.789978,-1.14995,0.242957,-0.542149,-0.00958431,
0.135362,-0.206688,-0.182476,-1.69277,0.319771,-0.322003,-0.382399,0.588239,0.0107495,0.674921,-0.158595,0.639816,0.0423681,0.00711391,0,0,0,0,0,0,0,0.140174,-0.205674,-0.173558,-1.69071,0.324973,1.25653,0.402274,0.40622,0.00703529,0.500261,-0.0744402,0.447787,0.0368105,0.000418862,1.78089,-26.6591,2.5876,24.162,2.84698,1.54809,-0.0630644,-1.6604,-1.29854,-2.01844,1.32858,0.0955696,-0.569515,-0.529229,0.516174,-0.789978,-1.14995,0.242957,-0.542149,-0.00958431,
0.137706,-0.206643,-0.179785,-1.6934,0.322278,-0.321788,-0.38237,0.585784,0.0114681,0.672829,-0.156603,0.626696,0.0537995,0.00706487,0,0,0,0,0,0,0,0.140174,-0.205674,-0.173558,-1.69071,0.324973,1.25653,0.402274,0.40622,0.00703529,0.500261,-0.0744402,0.447787,0.0368105,0.000418862,1.78089,-26.6591,2.5876,24.162,2.84698,1.54809,-0.0630644,-2.50136,-0.0205576,-2.04923,0.474625,-0.584373,-0.00939066,0.0447799,0.176979,-0.155549,-1.03843,0.395154,-0.521067,-0.0137178,
0.14004,-0.206594,-0.177103,-1.69402,0.324717,-0.321528,-0.382342,0.583514,0.0120035,0.670567,-0.154386,0.609949,0.0651613,0.00698034,0,0,0,0,0,0,0,0.140174,-0.205674,-0.173558,-1.69071,0.324973,1.25653,0.402274,0.40622,0.00703529,0.500261,-0.0744402,0.447787,0.0368105,0.000418862,1.78089,-26.6591,2.5876,24.162,2.84698,1.54809,-0.0630644,-2.6592,-0.502622,-1.84157,0.900247,-0.832345,-0.265167,-0.207058,-0.0578602,-0.457076,-0.887085,0.460049,-0.446556,-0.00944065,
0.142365,-0.206545,-0.17443,-1.69462,0.327072,-0.321222,-0.382315,0.58133,0.0123293,0.668333,-0.15199,0.588721,0.0764528,0.00684345,0,0,0,0,0,0,0,0.140174,-0.205674,-0.173558,-1.69071,0.324973,1.25653,0.402274,0.40622,0.00703529,0.500261,-0.0744402,0.447787,0.0368105,0.000418862,1.78089,-26.6591,2.5876,24.162,2.84698,1.54809,-0.0630644,-2.6592,-0.502622,-1.84157,0.900247,-0.832345,-0.265167,-0.207058,-0.0578602,-0.457076,-0.887085,0.460049,-0.446556,-0.00944065,
0.144681,-0.206495,-0.171765,-1.69522,0.329334,-0.320871,-0.382288,0.578917,0.01252,0.666023,-0.149612,0.565449,0.0876139,0.00671958,0,0,0,0,0,0,0,0.140174,-0.205674,-0.173558,-1.69071,0.324973,1.25653,0.402274,0.40622,0.00703529,0.500261,-0.0744402,0.447787,0.0368105,0.000418862,1.78089,-26.6591,2.5876,24.162,2.84698,1.54809,-0.0630644,-2.78668,0.00428125,-2.08623,0.586927,-0.884233,-0.0600906,-0.0285376,-0.0474833,-0.204079,-0.915296,0.551892,-0.391563,-0.0120036,
0.146986,-0.206445,-0.169111,-1.69581,0.3315,-0.320477,-0.382262,0.576245,0.0126334,0.663529,-0.147302,0.541381,0.0985907,0.00661172,0,0,0,0,0,0,0,0.153846,-0.205236,-0.157012,-1.69308,0.337068,1.2578,0.40227,0.419494,0.0175539,0.512623,-0.0668341,0.343789,0.0370008,-0.000466113,2.11017,-26.7583,2.76216,24.4635,3.36059,1.63415,-0.0227812,-2.78668,0.00428125,-2.08623,0.586927,-0.884233,-0.0600906,-0.0285376,-0.0474833,-0.204079,-0.915296,0.551892,-0.391563,-0.0120036,
0.149279,-0.206394,-0.166468,-1.69639,0.333568,-0.320039,-0.382236,0.573333,0.0127041,0.660812,-0.145069,0.517156,0.109358,0.00650072,0,0,0,0,0,0,0,0.153846,-0.205236,-0.157012,-1.69308,0.337068,1.2578,0.40227,0.419494,0.0175539,0.512623,-0.0668341,0.343789,0.0370008,-0.000466113,2.11017,-26.7583,2.76216,24.4635,3.36059,1.63415,-0.0227812,-2.47671,2.27008,-2.55347,-0.977946,-0.501313,0.971066,0.999208,0.353467,0.962297,-1.1105,0.754894,-0.3854,-0.0148489,
0.15156,-0.206343,-0.163837,-1.69696,0.335541,-0.31956,-0.38221,0.570217,0.0127517,0.657878,-0.142906,0.49309,0.119902,0.00639909,0,0,0,0,0,0,0,0.153846,-0.205236,-0.157012,-1.69308,0.337068,1.2578,0.40227,0.419494,0.0175539,0.512623,-0.0668341,0.343789,0.0370008,-0.000466113,2.11017,-26.7583,2.76216,24.4635,3.36059,1.63415,-0.0227812,-2.47671,2.27008,-2.55347,-0.977946,-0.501313,0.971066,0.999208,0.353467,0.962297,-1.1105,0.754894,-0.3854,-0.0148489,
0.0948036,-0.206508,-0.228823,-1.68052,0.267737,-0.316493,-0.383006,0.514691,-0.0546828,0.5803,-0.195604,0.377934,0.14444,0.00963503,0,0,0,0,0,0,0,0.153846,-0.205236,-0.157012,-1.69308,0.337068,1.2578,0.40227,0.419494,0.0175539,0.512623,-0.0668341,0.343789,0.0370008,-0.000466113,2.11017,-26.7583,2.76216,24.4635,3.36059,1.63415,-0.0227812,-2.63981,1.44603,-2.34183,-0.345732,-0.727319,0.57488,0.597,0.127331,0.513025,-0.977295,0.75944,-0.333447,-0.01166,
0.160088,-0.205559,-0.149886,-1.69517,0.340852,-0.310826,-0.383011,0.551867,-0.0290748,0.631244,-0.189243,0.309004,0.208921,0.00978065,0,0,0,0,0,0,0,0.153846,-0.205236,-0.157012,-1.69308,0.337068,1.2578,0.40227,0.419494,0.0175539,0.512623,-0.0668341,0.343789,0.0370008,-0.000466113,2.11017,-26.7583,2.76216,24.4635,3.36059,1.63415,-0.0227812,-2.37082,0.671707,-2.31599,0.240285,-0.552872,0.204997,0.228025,0.155782,0.0815098,-0.955183,0.756044,-0.275106,-0.0142082,
0.162387,-0.205658,-0.147251,-1.69594,0.342084,-0.309942,-0.382974,0.574824,-0.0248583,0.658726,-0.1916,0.308178,0.221094,0.00948443,0,0,0,0,0,0,0,0.1673,-0.204808,-0.140613,-1.69508,0.346107,1.25911,0.402271,0.425203,0.01129,0.539288,-0.0650483,0.236964,0.0457259,-9.36518e-06,0.840641,-26.8575,0.988783,24.6619,3.44574,1.70006,-0.0301054,-2.37082,0.671707,-2.31599,0.240285,-0.552872,0.204997,0.228025,0.155782,0.0815098,-0.955183,0.756044,-0.275106,-0.0142082,
0.164759,-0.205738,-0.144529,-1.69671,0.343322,-0.309016,-0.382937,0.593137,-0.0199528,0.680645,-0.191919,0.309329,0.231568,0.00921686,0,0,0,0,0,0,0,0.1673,-0.204808,-0.140613,-1.69508,0.346107,1.25911,0.402271,0.425203,0.01129,0.539288,-0.0650483,0.236964,0.0457259,-9.36518e-06,0.840641,-26.8575,0.988783,24.6619,3.44574,1.70006,-0.0301054,-1.84955,1.5175,-2.5444,-0.336246,-0.0755346,0.582122,0.608611,0.502887,0.495638,-1.08783,0.848251,-0.260398,-0.0150541,
0.16719,-0.205798,-0.141737,-1.69747,0.34457,-0.308054,-0.382901,0.607553,-0.0149731,0.698001,-0.191224,0.311984,0.240306,0.00896472,0,0,0,0,0,0,0,0.1673,-0.204808,-0.140613,-1.69508,0.346107,1.25911,0.402271,0.425203,0.01129,0.539288,-0.0650483,0.236964,0.0457259,-9.36518e-06,0.840641,-26.8575,0.988783,24.6619,3.44574,1.70006,-0.0301054,-1.54605,0.333595,-2.8194,0.406441,0.237134,0.0252484,0.0137797,0.650216,-0.0947681,-1.17537,0.69166,-0.203428,-0.0131638,
0.169664,-0.205839,-0.13889,-1.69823,0.345838,-0.307064,-0.382865,0.618558,-0.0102056,0.711547,-0.19015,0.317085,0.247622,0.00885606,0,0,0,0,0,0,0,0.1673,-0.204808,-0.140613,-1.69508,0.346107,1.25911,0.402271,0.425203,0.01129,0.539288,-0.0650483,0.236964,0.0457259,-9.36518e-06,0.840641,-26.8575,0.988783,24.6619,3.44574,1.70006,-0.0301054,-1.54605,0.333595,-2.8194,0.406441,0.237134,0.0252484,0.0137797,0.650216,-0.0947681,-1.17537,0.69166,-0.203428,-0.0131638,
0.172176,-0.205863,-0.136001,-1.69898,0.347094,-0.306048,-0.382831,0.627914,-0.00602409,0.722394,-0.188313,0.31392,0.254009,0.008666,0,0,0,0,0,0,0,0.1673,-0.204808,-0.140613,-1.69508,0.346107,1.25911,0.402271,0.425203,0.01129,0.539288,-0.0650483,0.236964,0.0457259,-9.36518e-06,0.840641,-26.8575,0.988783,24.6619,3.44574,1.70006,-0.0301054,-2.3446,-1.08962,-3.18156,1.30302,-0.236035,-0.590177,-0.518156,0.364874,-0.845739,-1.20403,0.496329,-0.178913,-0.0117723,
0.174717,-0.205873,-0.133076,-1.69973,0.348308,-0.305009,-0.382797,0.635438,-0.0024825,0.731204,-0.186147,0.30373,0.259801,0.0084638,0,0,0,0,0,0,0,0.181635,-0.204785,-0.123206,-1.69739,0.351146,1.26204,0.402269,0.450204,-0.00194256,0.561228,-0.0859058,0.114177,0.141604,-0.000685261,1.4278,-26.6075,1.7624,24.4357,3.26263,1.72021,-0.0163725,-2.3446,-1.08962,-3.18156,1.30302,-0.236035,-0.590177,-0.518156,0.364874,-0.845739,-1.20403,0.496329,-0.178913,-0.0117723,
0.177282,-0.205871,-0.130123,-1.70046,0.349468,-0.303948,-0.382764,0.641098,0.000514828,0.738134,-0.183975,0.289854,0.265184,0.00828214,0,0,0,0,0,0,0,0.181635,-0.204785,-0.123206,-1.69739,0.351146,1.26204,0.402269,0.450204,-0.00194256,0.561228,-0.0859058,0.114177,0.141604,-0.000685261,1.4278,-26.6075,1.7624,24.4357,3.26263,1.72021,-0.0163725,-2.56647,-0.238988,-3.13318,0.683195,-0.426699,-0.173477,-0.0881854,0.307193,-0.378213,-1.16859,0.551338,-0.192843,-0.0113516,
0.179862,-0.205859,-0.12715,-1.70119,0.350564,-0.302867,-0.382731,0.645125,0.00306997,0.743325,-0.181873,0.274035,0.270284,0.00812318,0,0,0,0,0,0,0,0.181635,-0.204785,-0.123206,-1.69739,0.351146,1.26204,0.402269,0.450204,-0.00194256,0.561228,-0.0859058,0.114177,0.141604,-0.000685261,1.4278,-26.6075,1.7624,24.4357,3.26263,1.72021,-0.0163725,-2.56647,-0.238988,-3.13318,0.683195,-0.426699,-0.173477,-0.0881854,0.307193,-0.378213,-1.16859,0.551338,-0.192843,-0.0113516,
0.182453,-0.205838,-0.124162,-1.70191,0.351593,-0.301766,-0.382699,0.647755,0.00526547,0.746978,-0.179845,0.257203,0.275205,0.00797801,0,0,0,0,0,0,0,0.181635,-0.204785,-0.123206,-1.69739,0.351146,1.26204,0.402269,0.450204,-0.00194256,0.561228,-0.0859058,0.114177,0.141604,-0.000685261,1.4278,-26.6075,1.7624,24.4357,3.26263,1.72021,-0.0163725,-2.78794,-0.417919,-3.25102,0.712448,-0.559034,-0.232892,-0.223673,0.254106,-0.363342,-1.17843,0.474821,-0.190832,-0.0115682,
0.18505,-0.205809,-0.121165,-1.70262,0.352552,-0.300646,-0.382668,0.649204,0.00716339,0.749305,-0.177869,0.239853,0.280022,0.00784485,0,0,0,0,0,0,0,0.181635,-0.204785,-0.123206,-1.69739,0.351146,1.26204,0.402269,0.450204,-0.00194256,0.561228,-0.0859058,0.114177,0.141604,-0.000685261,1.4278,-26.6075,1.7624,24.4357,3.26263,1.72021,-0.0163725,-2.78794,-0.417919,-3.25102,0.712448,-0.559034,-0.232892,-0.223673,0.254106,-0.363342,-1.17843,0.474821,-0.190832,-0.0115682,
0.187649,-0.205774,-0.118163,-1.70333,0.353441,-0.299507,-0.382637,0.649662,0.00881033,0.750504,-0.175924,0.222261,0.284788,0.0077178,0,0,0,0,0,0,0,0.181635,-0.204785,-0.123206,-1.69739,0.351146,1.26204,0.402269,0.450204,-0.00194256,0.561228,-0.0859058,0.114177,0.141604,-0.000685261,1.4278,-26.6075,1.7624,24.4357,3.26263,1.72021,-0.0163725,-2.23393,0.213407,-3.21523,0.1424,-0.230784,0.0584013,0.0511707,0.462406,0.00139509,-1.15664,0.407738,-0.133181,-0.0161979,
0.190246,-0.205733,-0.11516,-1.70402,0.35426,-0.298349,-0.382607,0.649294,0.0102424,0.750754,-0.173993,0.204586,0.289537,0.00759471,0,0,0,0,0,0,0,0.196642,-0.204832,-0.10524,-1.70001,0.354255,1.26746,0.402269,0.465179,-0.00251396,0.556144,-0.0838826,0.112419,0.18681,-0.000426261,1.83246,-26.0838,2.1869,24.3127,2.63916,2.02508,-0.0163725,-1.89211,0.274803,-3.55147,-0.0195796,0.106401,0.0759705,0.0802819,0.70777,0.0272972,-1.2712,0.313329,-0.0843083,-0.0133174,
0.192839,-0.205687,-0.112159,-1.70471,0.355007,-0.297172,-0.382577,0.648235,0.0114883,0.75021,-0.172065,0.186941,0.294287,0.00748041,0,0,0,0,0,0,0,0.196642,-0.204832,-0.10524,-1.70001,0.354255,1.26746,0.402269,0.465179,-0.00251396,0.556144,-0.0838826,0.112419,0.18681,-0.000426261,1.83246,-26.0838,2.1869,24.3127,2.63916,2.02508,-0.0163725,-1.89211,0.274803,-3.55147,-0.0195796,0.106401,0.0759705,0.0802819,0.70777,0.0272972,-1.2712,0.313329,-0.0843083,-0.0133174,
0.195425,-0.205636,-0.109163,-1.70539,0.355685,-0.295975,-0.382547,0.646598,0.0125737,0.748998,-0.170135,0.169459,0.299042,0.00736596,0,0,0,0,0,0,0,0.196642,-0.204832,-0.10524,-1.70001,0.354255,1.26746,0.402269,0.465179,-0.00251396,0.556144,-0.0838826,0.112419,0.18681,-0.000426261,1.83246,-26.0838,2.1869,24.3127,2.63916,2.02508,-0.0163725,-2.13201,0.976424,-3.62546,-0.511317,-0.0553696,0.415378,0.42394,0.679284,0.410083,-1.27244,0.385073,-0.0835769,-0.016476,
0.198003,-0.205582,-0.106174,-1.70606,0.356295,-0.29476,-0.382518,0.644465,0.0135248,0.747215,-0.168211,0.152413,0.303793,0.00724814,0,0,0,0,0,0,0,0.196642,-0.204832,-0.10524,-1.70001,0.354255,1.26746,0.402269,0.465179,-0.00251396,0.556144,-0.0838826,0.112419,0.18681,-0.000426261,1.83246,-26.0838,2.1869,24.3127,2.63916,2.02508,-0.0163725,-2.13201,0.976424,-3.62546,-0.511317,-0.0553696,0.415378,0.42394,0.679284,0.410083,-1.27244,0.385073,-0.0835769,-0.016476,
