PerkyPenguin/Analysis-on-Approximated-Derivatives/Code_and_Data/PaperData/Real_Robot/Scene_1/contact_change/0/trajectory.csv
Commanded Joint 0 Position,Commanded Joint 1 Position,Commanded Joint 2 Position,Commanded Joint 3 Position,Commanded Joint 4 Position,Commanded Joint 5 Position,Commanded Joint 6 Position,Commanded Joint 0 Velocity,Commanded Joint 1 Velocity,Commanded Joint 2 Velocity,Commanded Joint 3 Velocity,Commanded Joint 4 Velocity,Commanded Joint 5 Velocity,Commanded Joint 6 Velocity,Commanded Joint 0 Torque,Commanded Joint 1 Torque,Commanded Joint 2 Torque,Commanded Joint 3 Torque,Commanded Joint 4 Torque,Commanded Joint 5 Torque,Commanded Joint 6 Torque,Actual Joint 0 Position,Actual Joint 1 Position,Actual Joint 2 Position,Actual Joint 3 Position,Actual Joint 4 Position,Actual Joint 5 Position,Actual Joint 6 Position,Actual Joint 0 Velocity,Actual Joint 1 Velocity,Actual Joint 2 Velocity,Actual Joint 3 Velocity,Actual Joint 4 Velocity,Actual Joint 5 Velocity,Actual Joint 6 Velocity,Actual Joint 0 Torque,Actual Joint 1 Torque,Actual Joint 2 Torque,Actual Joint 3 Torque,Actual Joint 4 Torque,Actual Joint 5 Torque,Actual Joint 6 Torque,EE ext force 0,EE ext force 1,EE ext force 2,EE ext force 3,EE ext force 4,EE ext force 5,joint ext torque 0,joint ext torque 1,joint ext torque 2,joint ext torque 3,joint ext torque 4,joint ext torque 5,joint ext torque 6,
0.00910219,-0.197963,-0.336244,-1.66213,-0.0946889,-0.0916603,-0.384281,-0.00193102,0.0163035,-0.0119707,-0.150845,0.00440224,0.199218,-0.00217649,0,0,0,0,0,0,0,0.00909536,-0.197976,-0.336158,-1.6606,-0.0946878,1.47714,0.401142,-0.00142277,-0.000348215,-0.000695974,0.0011967,0.00118794,0.000276951,-0.00112851,-0.0440639,-25.3618,1.93696,25.7806,0.336605,2.96715,-0.0163725,-1.05114,-0.0663259,-0.504422,0.113229,-0.278237,-0.172038,-0.069381,0.0640805,-0.273848,-0.392663,-0.144982,-0.330943,-0.0414475,
0.00908898,-0.197823,-0.336304,-1.66277,-0.0946727,-0.0908349,-0.38429,-0.00330372,0.0348376,-0.0150491,-0.15997,0.00404722,0.206354,-0.00206415,0,0,0,0,0,0,0,0.00909151,-0.197972,-0.336158,-1.6606,-0.0946936,1.47714,0.401147,-0.0012206,-0.000410619,-0.000532938,0.00210144,0.0050953,-0.000898874,0.000875119,0.00751081,-25.3856,1.91316,25.8084,0.379635,2.98638,-0.0703886,-1.05114,-0.0663259,-0.504422,0.113229,-0.278237,-0.172038,-0.069381,0.0640805,-0.273848,-0.392663,-0.144982,-0.330943,-0.0414475,
0.00908647,-0.197986,-0.336164,-1.66059,-0.0946559,-0.0936552,-0.38425,-0.00016522,-0.000849834,-0.000216233,0.000454225,0.00140014,0.000405442,1.27774e-05,0,0,0,0,0,0,0,0.00909151,-0.197972,-0.336158,-1.6606,-0.0946936,1.47714,0.401147,-0.0012206,-0.000410619,-0.000532938,0.00210144,0.0050953,-0.000898874,0.000875119,0.00751081,-25.3856,1.91316,25.8084,0.379635,2.98638,-0.0703886,-1.0755,-0.102268,-0.518211,0.136666,-0.29106,-0.190337,-0.0844599,0.0590529,-0.296741,-0.394213,-0.152248,-0.329889,-0.0432127,
0.009086,-0.197989,-0.336165,-1.66058,-0.0946518,-0.0936537,-0.38425,-0.000117456,-0.000783,-0.000159479,0.000407767,0.00103886,0.00037313,9.31517e-06,0,0,0,0,0,0,0,0.00909151,-0.197972,-0.336158,-1.6606,-0.0946936,1.47714,0.401147,-0.0012206,-0.000410619,-0.000532938,0.00210144,0.0050953,-0.000898874,0.000875119,0.00751081,-25.3856,1.91316,25.8084,0.379635,2.98638,-0.0703886,-1.0755,-0.102268,-0.518211,0.136666,-0.29106,-0.190337,-0.0844599,0.0590529,-0.296741,-0.394213,-0.152248,-0.329889,-0.0432127,
0.00908567,-0.197992,-0.336165,-1.66058,-0.0946487,-0.0936524,-0.38425,-8.37012e-05,-0.000720403,-0.00012039,0.000371869,0.000770158,0.000334087,7.05028e-06,0,0,0,0,0,0,0,0.00909151,-0.197972,-0.336158,-1.6606,-0.0946936,1.47714,0.401147,-0.0012206,-0.000410619,-0.000532938,0.00210144,0.0050953,-0.000898874,0.000875119,0.00751081,-25.3856,1.91316,25.8084,0.379635,2.98638,-0.0703886,-1.35536,0.116609,-0.654208,-0.00675508,-0.48037,-0.141158,-0.0350762,-0.0363967,-0.234693,-0.390056,-0.138599,-0.31092,-0.0435242,
0.00908543,-0.197995,-0.336166,-1.66058,-0.0946464,-0.0936512,-0.38425,-5.95792e-05,-0.000664437,-9.35242e-05,0.000341076,0.000568057,0.000293212,5.50421e-06,0,0,0,0,0,0,0,0.00909151,-0.197972,-0.336158,-1.6606,-0.0946936,1.47714,0.401147,-0.0012206,-0.000410619,-0.000532938,0.00210144,0.0050953,-0.000898874,0.000875119,0.00751081,-25.3856,1.91316,25.8084,0.379635,2.98638,-0.0703886,-2.7432,0.414685,-1.12173,-0.186063,-1.40768,-0.255998,-0.139102,-0.501339,-0.339916,-0.366545,-0.153109,-0.286005,-0.0421416,
0.00908526,-0.197997,-0.336166,-1.66058,-0.0946448,-0.0936502,-0.38425,-4.22229e-05,-0.000615345,-7.51704e-05,0.000313617,0.000414446,0.000252033,4.42875e-06,0,0,0,0,0,0,0,0.00909151,-0.197972,-0.336158,-1.6606,-0.0946936,1.47714,0.401147,-0.0012206,-0.000410619,-0.000532938,0.00210144,0.0050953,-0.000898874,0.000875119,0.00751081,-25.3856,1.91316,25.8084,0.379635,2.98638,-0.0703886,-2.7432,0.414685,-1.12173,-0.186063,-1.40768,-0.255998,-0.139102,-0.501339,-0.339916,-0.366545,-0.153109,-0.286005,-0.0421416,
0.00908514,-0.198,-0.336166,-1.66058,-0.0946436,-0.0936493,-0.38425,-2.9677e-05,-0.000572664,-6.27599e-05,0.000288878,0.000296483,0.000211131,3.67501e-06,0,0,0,0,0,0,0,0.00909345,-0.197973,-0.336159,-1.66096,-0.0947204,1.47779,0.401142,-0.000940726,0.00980228,-0.00155651,-0.006266,0.000283825,0.0160293,-0.000721231,-0.0202602,-25.461,1.91316,26.6296,0.617672,3.25829,-0.0163725,-1.71227,0.0871509,-1.83016,0.178937,-0.361624,-0.215403,-0.0948118,0.198839,-0.354756,-0.746942,-0.146233,-0.272324,-0.0408214,
0.00896267,-0.197926,-0.336259,-1.66046,-0.093096,-0.0946429,-0.384249,-0.0120022,0.00306085,-0.0108069,0.0107712,0.179962,-0.111244,0.000400033,0,0,0,0,0,0,0,0.00909345,-0.197973,-0.336159,-1.66096,-0.0947204,1.47779,0.401142,-0.000940726,0.00980228,-0.00155651,-0.006266,0.000283825,0.0160293,-0.000721231,-0.0202602,-25.461,1.91316,26.6296,0.617672,3.25829,-0.0163725,-1.71227,0.0871509,-1.83016,0.178937,-0.361624,-0.215403,-0.0948118,0.198839,-0.354756,-0.746942,-0.146233,-0.272324,-0.0408214,
0.00896843,-0.197825,-0.336262,-1.66088,-0.0931942,-0.093881,-0.384256,-0.0116152,0.0105381,-0.0108155,0.00712195,0.17377,-0.104457,0.000360434,0,0,0,0,0,0,0,0.00909345,-0.197973,-0.336159,-1.66096,-0.0947204,1.47779,0.401142,-0.000940726,0.00980228,-0.00155651,-0.006266,0.000283825,0.0160293,-0.000721231,-0.0202602,-25.461,1.91316,26.6296,0.617672,3.25829,-0.0163725,-0.978803,-0.0876424,-1.69382,0.292661,0.123839,-0.162601,-0.0504635,0.440046,-0.307147,-0.754448,-0.134421,-0.238955,-0.0402094,
0.00892273,-0.197792,-0.336308,-1.66086,-0.0923702,-0.0943911,-0.384254,-0.0114262,0.00822526,-0.0112826,0.00587996,0.205986,-0.127512,0.000490636,0,0,0,0,0,0,0,0.00909345,-0.197973,-0.336159,-1.66096,-0.0947204,1.47779,0.401142,-0.000940726,0.00980228,-0.00155651,-0.006266,0.000283825,0.0160293,-0.000721231,-0.0202602,-25.461,1.91316,26.6296,0.617672,3.25829,-0.0163725,-0.978803,-0.0876424,-1.69382,0.292661,0.123839,-0.162601,-0.0504635,0.440046,-0.307147,-0.754448,-0.134421,-0.238955,-0.0402094,
0.00887971,-0.197767,-0.336352,-1.66084,-0.0914465,-0.0949763,-0.384252,-0.0107534,0.00618637,-0.0110258,0.00461646,0.230921,-0.146304,0.000562175,0,0,0,0,0,0,0,0.00909345,-0.197973,-0.336159,-1.66096,-0.0947204,1.47779,0.401142,-0.000940726,0.00980228,-0.00155651,-0.006266,0.000283825,0.0160293,-0.000721231,-0.0202602,-25.461,1.91316,26.6296,0.617672,3.25829,-0.0163725,-1.18209,0.0600441,-1.31931,0.11319,-0.207462,-0.130978,-0.016575,0.177439,-0.251898,-0.552096,-0.129709,-0.202399,-0.0416622,
0.00884047,-0.197749,-0.336393,-1.66082,-0.090445,-0.0956229,-0.384249,-0.00981218,0.00449538,-0.0103308,0.00350744,0.250371,-0.16167,0.000598468,0,0,0,0,0,0,0,0.00908509,-0.197943,-0.336154,-1.66091,-0.0946582,1.47784,0.401146,-0.00184879,0.00340647,9.94051e-05,0.00074495,0.00571513,0.000665162,0.00127575,0.0551182,-25.7625,1.83778,25.983,0.953671,2.90032,-0.050247,-1.24741,-0.0473352,-1.56063,0.258668,-0.135112,-0.190115,-0.0669938,0.270009,-0.338928,-0.675856,-0.119543,-0.243688,-0.0419086,
0.00880552,-0.197737,-0.33643,-1.66081,-0.0893825,-0.0963198,-0.384247,-0.00873746,0.00313603,-0.00938632,0.00257627,0.265633,-0.174202,0.000612511,0,0,0,0,0,0,0,0.00908509,-0.197943,-0.336154,-1.66091,-0.0946582,1.47784,0.401146,-0.00184879,0.00340647,9.94051e-05,0.00074495,0.00571513,0.000665162,0.00127575,0.0551182,-25.7625,1.83778,25.983,0.953671,2.90032,-0.050247,-1.24741,-0.0473352,-1.56063,0.258668,-0.135112,-0.190115,-0.0669938,0.270009,-0.338928,-0.675856,-0.119543,-0.243688,-0.0419086,
0.00877506,-0.197728,-0.336464,-1.66081,-0.0882719,-0.0970572,-0.384244,-0.00761516,0.00206603,-0.00831702,0.001804,0.27766,-0.184365,0.000612261,0,0,0,0,0,0,0,0.00908509,-0.197943,-0.336154,-1.66091,-0.0946582,1.47784,0.401146,-0.00184879,0.00340647,9.94051e-05,0.00074495,0.00571513,0.000665162,0.00127575,0.0551182,-25.7625,1.83778,25.983,0.953671,2.90032,-0.050247,-2.08369,-0.0949212,-1.05978,0.251363,-0.982427,-0.36092,-0.21988,-0.299862,-0.515981,-0.384053,-0.09073,-0.242333,-0.0422351,
0.00879924,-0.197727,-0.336373,-1.66056,-0.090179,-0.0967384,-0.384226,-0.0266627,0.015515,-0.0224331,0.0324328,0.519882,-0.423286,0.00330645,0,0,0,0,0,0,0,0.00908509,-0.197943,-0.336154,-1.66091,-0.0946582,1.47784,0.401146,-0.00184879,0.00340647,9.94051e-05,0.00074495,0.00571513,0.000665162,0.00127575,0.0551182,-25.7625,1.83778,25.983,0.953671,2.90032,-0.050247,-2.08369,-0.0949212,-1.05978,0.251363,-0.982427,-0.36092,-0.21988,-0.299862,-0.515981,-0.384053,-0.09073,-0.242333,-0.0422351,
0.00878971,-0.197774,-0.336364,-1.6605,-0.0900625,-0.0965431,-0.384223,-0.0268292,0.0101467,-0.0224073,0.0324324,0.52409,-0.404129,0.00315756,0,0,0,0,0,0,0,0.00908509,-0.197943,-0.336154,-1.66091,-0.0946582,1.47784,0.401146,-0.00184879,0.00340647,9.94051e-05,0.00074495,0.00571513,0.000665162,0.00127575,0.0551182,-25.7625,1.83778,25.983,0.953671,2.90032,-0.050247,-1.38912,-0.161917,-0.990186,0.395901,-0.480235,-0.265202,-0.115725,-0.0306673,-0.453656,-0.464904,0.0101485,-0.264042,-0.041397,
0.00868811,-0.197755,-0.336455,-1.66039,-0.0875651,-0.0984546,-0.384209,-0.0253988,0.00488257,-0.022786,0.0259084,0.624371,-0.477878,0.00348906,0,0,0,0,0,0,0,0.00908509,-0.197943,-0.336154,-1.66091,-0.0946582,1.47784,0.401146,-0.00184879,0.00340647,9.94051e-05,0.00074495,0.00571513,0.000665162,0.00127575,0.0551182,-25.7625,1.83778,25.983,0.953671,2.90032,-0.050247,-1.10763,-0.114741,-0.857836,0.424193,-0.315285,-0.194359,-0.0399516,0.0397869,-0.397051,-0.471337,0.0921694,-0.286484,-0.0397019,
0.00859713,-0.197753,-0.33654,-1.66032,-0.0847501,-0.100599,-0.384195,-0.0227442,0.000505834,-0.0213137,0.0196649,0.703737,-0.536187,0.0036659,0,0,0,0,0,0,0,0.00900767,-0.197896,-0.336221,-1.66077,-0.0916881,1.47773,0.401145,-0.00648765,3.94918e-05,-0.00363635,0.00746592,0.130648,-0.0135889,0.000185471,0.435978,-25.4094,2.21467,25.733,1.09466,2.90032,-0.0365141,-1.10763,-0.114741,-0.857836,0.424193,-0.315285,-0.194359,-0.0399516,0.0397869,-0.397051,-0.471337,0.0921694,-0.286484,-0.0397019,
0.00851938,-0.197764,-0.336615,-1.66026,-0.0816813,-0.102929,-0.38418,-0.0194386,-0.00282193,-0.0187391,0.0142183,0.767203,-0.582298,0.00374999,0,0,0,0,0,0,0,0.00900767,-0.197896,-0.336221,-1.66077,-0.0916881,1.47773,0.401145,-0.00648765,3.94918e-05,-0.00363635,0.00746592,0.130648,-0.0135889,0.000185471,0.435978,-25.4094,2.21467,25.733,1.09466,2.90032,-0.0365141,-1.2074,-0.116952,-0.561064,0.412937,-0.514357,-0.209711,-0.0521091,-0.126176,-0.412017,-0.346814,0.126095,-0.285058,-0.0431101,
0.00845603,-0.197785,-0.336677,-1.66022,-0.0784076,-0.105403,-0.384165,-0.0158363,-0.00519783,-0.0155537,0.00960737,0.818421,-0.618516,0.00377508,0,0,0,0,0,0,0,0.00900767,-0.197896,-0.336221,-1.66077,-0.0916881,1.47773,0.401145,-0.00648765,3.94918e-05,-0.00363635,0.00746592,0.130648,-0.0135889,0.000185471,0.435978,-25.4094,2.21467,25.733,1.09466,2.90032,-0.0365141,-1.2074,-0.116952,-0.561064,0.412937,-0.514357,-0.209711,-0.0521091,-0.126176,-0.412017,-0.346814,0.126095,-0.285058,-0.0431101,
0.00840739,-0.197812,-0.336725,-1.6602,-0.0749672,-0.107989,-0.38415,-0.012161,-0.00678287,-0.0120817,0.00573973,0.860093,-0.646636,0.00376157,0,0,0,0,0,0,0,0.00900767,-0.197896,-0.336221,-1.66077,-0.0916881,1.47773,0.401145,-0.00648765,3.94918e-05,-0.00363635,0.00746592,0.130648,-0.0135889,0.000185471,0.435978,-25.4094,2.21467,25.733,1.09466,2.90032,-0.0365141,-0.842422,-0.477284,0.134258,0.727157,-0.473161,-0.305486,-0.144227,-0.208477,-0.546986,-0.191761,0.251599,-0.343028,-0.0446468,
0.00968195,-0.198031,-0.335441,-1.6608,-0.0917277,-0.0984314,-0.384105,0.0722998,-0.0146326,0.0852346,0.00217173,0.350222,-0.632851,0.0121561,0,0,0,0,0,0,0,0.00900767,-0.197896,-0.336221,-1.66077,-0.0916881,1.47773,0.401145,-0.00648765,3.94918e-05,-0.00363635,0.00746592,0.130648,-0.0135889,0.000185471,0.435978,-25.4094,2.21467,25.733,1.09466,2.90032,-0.0365141,-0.058711,-0.603954,0.342009,1.01366,0.102736,-0.219886,-0.0488913,0.103822,-0.519659,-0.321796,0.444253,-0.454698,-0.0446659,
0.00961573,-0.198051,-0.335515,-1.66065,-0.0878213,-0.0986163,-0.384102,0.0741247,-0.0198891,0.0860171,0.0026038,0.411217,-0.637157,0.0125496,0,0,0,0,0,0,0,0.00849852,-0.19778,-0.336387,-1.66043,-0.083223,1.47581,0.401142,-0.023043,-0.00110729,-0.0114963,0.0142251,0.35389,-0.0783962,-0.000961958,0.919986,-25.6593,2.38923,25.4593,1.98639,2.02508,-0.00996382,-0.058711,-0.603954,0.342009,1.01366,0.102736,-0.219886,-0.0488913,0.103822,-0.519659,-0.321796,0.444253,-0.454698,-0.0446659,
0.00998866,-0.198148,-0.335084,-1.66068,-0.0858595,-0.101689,-0.384053,0.0932343,-0.0241418,0.10762,-0.00688267,0.490463,-0.768125,0.0121336,0,0,0,0,0,0,0,0.00849852,-0.19778,-0.336387,-1.66043,-0.083223,1.47581,0.401142,-0.023043,-0.00110729,-0.0114963,0.0142251,0.35389,-0.0783962,-0.000961958,0.919986,-25.6593,2.38923,25.4593,1.98639,2.02508,-0.00996382,0.344813,-0.116556,0.44262,0.828009,0.44574,0.0745856,0.256265,0.312069,-0.235659,-0.458024,0.622715,-0.584221,-0.0451621,
0.0104275,-0.198253,-0.33458,-1.66074,-0.0836104,-0.105189,-0.384006,0.109716,-0.0263208,0.126007,-0.0158652,0.562267,-0.875148,0.011748,0,0,0,0,0,0,0,0.00849852,-0.19778,-0.336387,-1.66043,-0.083223,1.47581,0.401142,-0.023043,-0.00110729,-0.0114963,0.0142251,0.35389,-0.0783962,-0.000961958,0.919986,-25.6593,2.38923,25.4593,1.98639,2.02508,-0.00996382,0.344813,-0.116556,0.44262,0.828009,0.44574,0.0745856,0.256265,0.312069,-0.235659,-0.458024,0.622715,-0.584221,-0.0451621,
0.0109235,-0.198361,-0.334013,-1.66084,-0.0811031,-0.109041,-0.383961,0.123989,-0.0268291,0.141763,-0.0240254,0.62681,-0.962863,0.0113957,0,0,0,0,0,0,0,0.00849852,-0.19778,-0.336387,-1.66043,-0.083223,1.47581,0.401142,-0.023043,-0.00110729,-0.0114963,0.0142251,0.35389,-0.0783962,-0.000961958,0.919986,-25.6593,2.38923,25.4593,1.98639,2.02508,-0.00996382,-0.562012,-0.285099,0.721029,1.02061,-0.248846,-0.174074,0.0277199,-0.0830046,-0.522693,-0.383036,0.676399,-0.725115,-0.0345756,
0.0114691,-0.198465,-0.333392,-1.66096,-0.0783653,-0.11318,-0.383916,0.136395,-0.0260738,0.155345,-0.0313075,0.684465,-1.03485,0.0110715,0,0,0,0,0,0,0,0.00849852,-0.19778,-0.336387,-1.66043,-0.083223,1.47581,0.401142,-0.023043,-0.00110729,-0.0114963,0.0142251,0.35389,-0.0783962,-0.000961958,0.919986,-25.6593,2.38923,25.4593,1.98639,2.02508,-0.00996382,-0.562012,-0.285099,0.721029,1.02061,-0.248846,-0.174074,0.0277199,-0.0830046,-0.522693,-0.383036,0.676399,-0.725115,-0.0345756,
0.0120579,-0.198562,-0.332723,-1.66111,-0.0754224,-0.117556,-0.383873,0.147212,-0.0244035,0.167107,-0.0377448,0.735719,-1.09395,0.01077,0,0,0,0,0,0,0,0.00836542,-0.197847,-0.336267,-1.66006,-0.073955,1.4719,0.401143,0.0084509,-0.0016443,0.0134114,0.00635716,0.236317,-0.167409,-0.00115953,1.40003,-25.1119,3.88887,25.2094,1.72912,1.70006,0.0239107,-0.65248,-0.188521,1.17699,0.836004,-0.418739,-0.158744,0.0183617,-0.219938,-0.456807,-0.25149,0.621059,-0.775689,-0.0262562,
0.0103468,-0.198424,-0.334772,-1.66122,-0.089169,-0.0983672,-0.384073,0.154896,-0.0549209,0.17209,-0.0514192,0.271549,-0.619482,0.0146589,0,0,0,0,0,0,0,0.00836542,-0.197847,-0.336267,-1.66006,-0.073955,1.4719,0.401143,0.0084509,-0.0016443,0.0134114,0.00635716,0.236317,-0.167409,-0.00115953,1.40003,-25.1119,3.88887,25.2094,1.72912,1.70006,0.0239107,-0.499414,0.129793,1.09376,0.584411,-0.184926,0.000685685,0.121808,-0.032063,-0.224826,-0.37213,0.590249,-0.848822,-0.0221067,
0.00983956,-0.198397,-0.334674,-1.66061,-0.0704798,-0.105331,-0.38406,0.164446,-0.0556124,0.181963,-0.0601999,0.339865,-0.692956,0.0154858,0,0,0,0,0,0,0,0.00836542,-0.197847,-0.336267,-1.66006,-0.073955,1.4719,0.401143,0.0084509,-0.0016443,0.0134114,0.00635716,0.236317,-0.167409,-0.00115953,1.40003,-25.1119,3.88887,25.2094,1.72912,1.70006,0.0239107,-0.499414,0.129793,1.09376,0.584411,-0.184926,0.000685685,0.121808,-0.032063,-0.224826,-0.37213,0.590249,-0.848822,-0.0221067,
0.0106231,-0.19863,-0.333799,-1.66089,-0.0688687,-0.108586,-0.384002,0.195894,-0.0581966,0.218705,-0.0696468,0.402768,-0.813809,0.0146192,0,0,0,0,0,0,0,0.00836542,-0.197847,-0.336267,-1.66006,-0.073955,1.4719,0.401143,0.0084509,-0.0016443,0.0134114,0.00635716,0.236317,-0.167409,-0.00115953,1.40003,-25.1119,3.88887,25.2094,1.72912,1.70006,0.0239107,-0.711554,0.934334,1.26413,0.0414952,-0.317553,0.31461,0.398112,-0.0892965,0.168898,-0.398168,0.674166,-0.972728,-0.0171942,
0.0115113,-0.198862,-0.332804,-1.6612,-0.0669975,-0.112235,-0.383946,0.222042,-0.0579803,0.248827,-0.0778428,0.467809,-0.912362,0.0139119,0,0,0,0,0,0,0,0.00836542,-0.197847,-0.336267,-1.66006,-0.073955,1.4719,0.401143,0.0084509,-0.0016443,0.0134114,0.00635716,0.236317,-0.167409,-0.00115953,1.40003,-25.1119,3.88887,25.2094,1.72912,1.70006,0.0239107,-0.711554,0.934334,1.26413,0.0414952,-0.317553,0.31461,0.398112,-0.0892965,0.168898,-0.398168,0.674166,-0.972728,-0.0171942,
0.0124874,-0.199085,-0.331708,-1.66154,-0.0648704,-0.116206,-0.383893,0.244012,-0.0559453,0.273807,-0.085162,0.53178,-0.992571,0.0133181,0,0,0,0,0,0,0,0.00836542,-0.197847,-0.336267,-1.66006,-0.073955,1.4719,0.401143,0.0084509,-0.0016443,0.0134114,0.00635716,0.236317,-0.167409,-0.00115953,1.40003,-25.1119,3.88887,25.2094,1.72912,1.70006,0.0239107,-0.844884,1.89808,0.62008,-0.478183,-0.0813472,0.720059,0.799397,0.193225,0.608667,-0.751923,0.773246,-1.11259,-0.0134008,
0.0135378,-0.199296,-0.33053,-1.66191,-0.0624993,-0.120437,-0.383842,0.262619,-0.0527247,0.294724,-0.09172,0.592774,-1.05782,0.0128073,0,0,0,0,0,0,0,0.008675,-0.198111,-0.335568,-1.65986,-0.0660664,1.46466,0.401151,0.0252318,-0.0101603,0.0439371,-0.0111369,0.15723,-0.202469,-0.000280945,1.90784,-25.5602,4.21419,25.6577,1.19171,2.16424,-0.00996382,-0.844884,1.89808,0.62008,-0.478183,-0.0813472,0.720059,0.799397,0.193225,0.608667,-0.751923,0.773246,-1.11259,-0.0134008,
0.0105281,-0.198677,-0.333976,-1.66111,-0.0717348,-0.105086,-0.384065,0.24051,-0.0807832,0.262905,-0.107553,0.20984,-0.674422,0.0152613,0,0,0,0,0,0,0,0.008675,-0.198111,-0.335568,-1.65986,-0.0660664,1.46466,0.401151,0.0252318,-0.0101603,0.0439371,-0.0111369,0.15723,-0.202469,-0.000280945,1.90784,-25.5602,4.21419,25.6577,1.19171,2.16424,-0.00996382,-2.05462,1.0334,0.858602,-0.0141171,-1.06558,0.11212,0.203158,-0.39056,-0.0310556,-0.509098,0.585059,-1.09875,-0.00843604,
0.0109514,-0.198932,-0.333132,-1.66098,-0.0642162,-0.112634,-0.384032,0.246331,-0.078214,0.269945,-0.111693,0.194186,-0.69447,0.0166879,0,0,0,0,0,0,0,0.008675,-0.198111,-0.335568,-1.65986,-0.0660664,1.46466,0.401151,0.0252318,-0.0101603,0.0439371,-0.0111369,0.15723,-0.202469,-0.000280945,1.90784,-25.5602,4.21419,25.6577,1.19171,2.16424,-0.00996382,-2.29716,-0.743172,0.878483,0.97254,-1.1897,-0.724789,-0.617653,-0.438702,-0.942912,-0.433299,0.1761,-1.04049,-0.00470505,
0.0121053,-0.199246,-0.331854,-1.66147,-0.06318,-0.11589,-0.38397,0.288473,-0.0783761,0.319431,-0.121553,0.259044,-0.814068,0.0155765,0,0,0,0,0,0,0,0.008675,-0.198111,-0.335568,-1.65986,-0.0660664,1.46466,0.401151,0.0252318,-0.0101603,0.0439371,-0.0111369,0.15723,-0.202469,-0.000280945,1.90784,-25.5602,4.21419,25.6577,1.19171,2.16424,-0.00996382,-2.29716,-0.743172,0.878483,0.97254,-1.1897,-0.724789,-0.617653,-0.438702,-0.942912,-0.433299,0.1761,-1.04049,-0.00470505,
0.0133983,-0.199548,-0.330415,-1.66199,-0.0618566,-0.119536,-0.383911,0.323243,-0.0754143,0.359709,-0.129777,0.330854,-0.911403,0.0146935,0,0,0,0,0,0,0,0.008675,-0.198111,-0.335568,-1.65986,-0.0660664,1.46466,0.401151,0.0252318,-0.0101603,0.0439371,-0.0111369,0.15723,-0.202469,-0.000280945,1.90784,-25.5602,4.21419,25.6577,1.19171,2.16424,-0.00996382,-1.47418,-0.0478211,0.648702,0.488892,-0.46057,-0.26449,-0.172627,0.019318,-0.430171,-0.624934,0.207507,-1.05169,-0.0036372,
0.0148073,-0.19983,-0.328844,-1.66254,-0.0602391,-0.123497,-0.383855,0.352249,-0.0706349,0.392886,-0.137075,0.404375,-0.990211,0.0139946,0,0,0,0,0,0,0,0.0101433,-0.198974,-0.333043,-1.66045,-0.0590088,1.45587,0.40116,0.0642677,-0.0348738,0.0864681,-0.0387838,0.159344,-0.285521,-0.000317502,2.11017,-25.5879,4.68629,25.4077,1.29608,2.17156,0.00376909,-1.47418,-0.0478211,0.648702,0.488892,-0.46057,-0.26449,-0.172627,0.019318,-0.430171,-0.624934,0.207507,-1.05169,-0.0036372,
0.0163139,-0.200089,-0.327162,-1.66311,-0.0583336,-0.127713,-0.383802,0.37666,-0.0647232,0.420467,-0.143473,0.476363,-1.05402,0.013374,0,0,0,0,0,0,0,0.0101433,-0.198974,-0.333043,-1.66045,-0.0590088,1.45587,0.40116,0.0642677,-0.0348738,0.0864681,-0.0387838,0.159344,-0.285521,-0.000317502,2.11017,-25.5879,4.68629,25.4077,1.29608,2.17156,0.00376909,-1.54998,1.25235,0.369359,-0.356982,-0.442921,0.298018,0.357904,0.0684696,0.22951,-0.720734,0.348819,-1.06585,0.00104066,
0.0179031,-0.200323,-0.325388,-1.66371,-0.0561539,-0.132115,-0.38375,0.397288,-0.0584199,0.443587,-0.149923,0.544949,-1.10052,0.0128011,0,0,0,0,0,0,0,0.0101433,-0.198974,-0.333043,-1.66045,-0.0590088,1.45587,0.40116,0.0642677,-0.0348738,0.0864681,-0.0387838,0.159344,-0.285521,-0.000317502,2.11017,-25.5879,4.68629,25.4077,1.29608,2.17156,0.00376909,-1.54998,1.25235,0.369359,-0.356982,-0.442921,0.298018,0.357904,0.0684696,0.22951,-0.720734,0.348819,-1.06585,0.00104066,
0.011557,-0.199202,-0.332526,-1.66145,-0.065306,-0.112394,-0.384052,0.313002,-0.102691,0.340178,-0.155837,0.0815614,-0.67609,0.0154028,0,0,0,0,0,0,0,0.0101433,-0.198974,-0.333043,-1.66045,-0.0590088,1.45587,0.40116,0.0642677,-0.0348738,0.0864681,-0.0387838,0.159344,-0.285521,-0.000317502,2.11017,-25.5879,4.68629,25.4077,1.29608,2.17156,0.00376909,-2.6867,0.521428,-0.413515,0.0924385,-1.01524,-0.2277,-0.15691,-0.128553,-0.335175,-0.829091,0.109961,-1.01366,0.00477155,
0.013281,-0.200143,-0.329706,-1.66213,-0.0578221,-0.121948,-0.384015,0.328956,-0.105155,0.358077,-0.159821,0.124455,-0.726468,0.0171073,0,0,0,0,0,0,0,0.0101433,-0.198974,-0.333043,-1.66045,-0.0590088,1.45587,0.40116,0.0642677,-0.0348738,0.0864681,-0.0387838,0.159344,-0.285521,-0.000317502,2.11017,-25.5879,4.68629,25.4077,1.29608,2.17156,0.00376909,-3.37073,-0.254305,-0.279171,0.444645,-1.6337,-0.689318,-0.606483,-0.521578,-0.815335,-0.595652,-0.104221,-0.905859,0.00759491,
0.0147959,-0.200552,-0.328039,-1.66281,-0.05708,-0.125302,-0.383952,0.37873,-0.102139,0.416747,-0.169744,0.185522,-0.838564,0.0158667,0,0,0,0,0,0,0,0.0101433,-0.198974,-0.333043,-1.66045,-0.0590088,1.45587,0.40116,0.0642677,-0.0348738,0.0864681,-0.0387838,0.159344,-0.285521,-0.000317502,2.11017,-25.5879,4.68629,25.4077,1.29608,2.17156,0.00376909,-3.37073,-0.254305,-0.279171,0.444645,-1.6337,-0.689318,-0.606483,-0.521578,-0.815335,-0.595652,-0.104221,-0.905859,0.00759491,
0.0164741,-0.200936,-0.326183,-1.66352,-0.0560477,-0.129015,-0.383892,0.419544,-0.0960131,0.464222,-0.177897,0.258066,-0.928172,0.0149162,0,0,0,0,0,0,0,0.0132087,-0.200434,-0.329274,-1.66182,-0.0544813,1.44607,0.401173,0.125612,-0.0536473,0.143105,-0.0560626,0.203743,-0.388608,0.00367545,4.62146,-24.489,7.38801,24.7372,1.94976,1.85937,0.00376909,-2.31235,1.07176,-0.0260872,-0.492735,-1.02883,0.0925041,0.152753,-0.261014,0.0676426,-0.541422,0.0789831,-0.82846,0.00608326,
0.0182873,-0.201291,-0.32417,-1.66427,-0.0547064,-0.132959,-0.383836,0.453302,-0.0888083,0.503094,-0.187272,0.335327,-0.986114,0.0140721,0,0,0,0,0,0,0,0.0132087,-0.200434,-0.329274,-1.66182,-0.0544813,1.44607,0.401173,0.125612,-0.0536473,0.143105,-0.0560626,0.203743,-0.388608,0.00367545,4.62146,-24.489,7.38801,24.7372,1.94976,1.85937,0.00376909,-2.31235,1.07176,-0.0260872,-0.492735,-1.02883,0.0925041,0.152753,-0.261014,0.0676426,-0.541422,0.0789831,-0.82846,0.00608326,
0.0202129,-0.201617,-0.322029,-1.66506,-0.0530545,-0.136982,-0.383782,0.481383,-0.081386,0.535166,-0.198908,0.412971,-1.00557,0.0134616,0,0,0,0,0,0,0,0.0132087,-0.200434,-0.329274,-1.66182,-0.0544813,1.44607,0.401173,0.125612,-0.0536473,0.143105,-0.0560626,0.203743,-0.388608,0.00367545,4.62146,-24.489,7.38801,24.7372,1.94976,1.85937,0.00376909,-1.44196,1.92177,-0.430577,-0.916086,-0.227893,0.617604,0.648821,0.254486,0.633168,-0.822197,0.272405,-0.85943,0.00815975,
0.022233,-0.201907,-0.319783,-1.6659,-0.0511029,-0.141002,-0.383731,0.505028,-0.0726234,0.561623,-0.208207,0.487909,-1.00511,0.0129213,0,0,0,0,0,0,0,0.0132087,-0.200434,-0.329274,-1.66182,-0.0544813,1.44607,0.401173,0.125612,-0.0536473,0.143105,-0.0560626,0.203743,-0.388608,0.00367545,4.62146,-24.489,7.38801,24.7372,1.94976,1.85937,0.00376909,-2.71075,-0.402241,-0.653464,0.680544,-1.10305,-0.639189,-0.57445,-0.214369,-0.789662,-0.722391,0.00845605,-0.811618,0.0132515,
0.0140965,-0.200352,-0.329679,-1.66253,-0.0585621,-0.121709,-0.384053,0.404908,-0.123568,0.375746,-0.199259,0.0494287,-0.706434,0.0146115,0,0,0,0,0,0,0,0.0132087,-0.200434,-0.329274,-1.66182,-0.0544813,1.44607,0.401173,0.125612,-0.0536473,0.143105,-0.0560626,0.203743,-0.388608,0.00367545,4.62146,-24.489,7.38801,24.7372,1.94976,1.85937,0.00376909,-2.71075,-0.402241,-0.653464,0.680544,-1.10305,-0.639189,-0.57445,-0.214369,-0.789662,-0.722391,0.00845605,-0.811618,0.0132515,
0.0175162,-0.201863,-0.325353,-1.66396,-0.0531752,-0.132364,-0.384007,0.428359,-0.124344,0.413842,-0.20225,0.124989,-0.7629,0.0164646,0,0,0,0,0,0,0,0.0197144,-0.203289,-0.321514,-1.66485,-0.0516643,1.42999,0.401186,0.19036,-0.0664789,0.243595,-0.0901861,0.0835328,-0.424777,0.000365754,4.69684,-24.6874,7.53877,25.0864,2.62725,1.89232,-0.0163725,-4.12842,-1.7292,-0.408657,1.45815,-2.28257,-1.45625,-1.34119,-0.932398,-1.69711,-0.415262,-0.222006,-0.758509,0.0128572,
0.0194312,-0.202338,-0.323437,-1.66482,-0.0524525,-0.135749,-0.383946,0.478746,-0.118922,0.47901,-0.215863,0.180668,-0.846203,0.0151796,0,0,0,0,0,0,0,0.0197144,-0.203289,-0.321514,-1.66485,-0.0516643,1.42999,0.401186,0.19036,-0.0664789,0.243595,-0.0901861,0.0835328,-0.424777,0.000365754,4.69684,-24.6874,7.53877,25.0864,2.62725,1.89232,-0.0163725,-4.12842,-1.7292,-0.408657,1.45815,-2.28257,-1.45625,-1.34119,-0.932398,-1.69711,-0.415262,-0.222006,-0.758509,0.0128572,
0.0215102,-0.202783,-0.321308,-1.66574,-0.051453,-0.139275,-0.383889,0.519741,-0.111227,0.532392,-0.230456,0.249866,-0.881425,0.0143139,0,0,0,0,0,0,0,0.0197144,-0.203289,-0.321514,-1.66485,-0.0516643,1.42999,0.401186,0.19036,-0.0664789,0.243595,-0.0901861,0.0835328,-0.424777,0.000365754,4.69684,-24.6874,7.53877,25.0864,2.62725,1.89232,-0.0163725,-2.73569,0.254085,-0.462579,0.216847,-1.23495,-0.332218,-0.252386,-0.335839,-0.452082,-0.624651,0.103717,-0.793776,0.0100265,
0.0237246,-0.203187,-0.319002,-1.66671,-0.0501543,-0.142841,-0.383834,0.553611,-0.100892,0.576486,-0.241589,0.324688,-0.891484,0.0136075,0,0,0,0,0,0,0,0.0197144,-0.203289,-0.321514,-1.66485,-0.0516643,1.42999,0.401186,0.19036,-0.0664789,0.243595,-0.0901861,0.0835328,-0.424777,0.000365754,4.69684,-24.6874,7.53877,25.0864,2.62725,1.89232,-0.0163725,-2.73569,0.254085,-0.462579,0.216847,-1.23495,-0.332218,-0.252386,-0.335839,-0.452082,-0.624651,0.103717,-0.793776,0.0100265,
0.0260517,-0.203543,-0.316548,-1.66771,-0.048554,-0.146389,-0.383782,0.581768,-0.0890139,0.613495,-0.249288,0.400063,-0.887112,0.0130174,0,0,0,0,0,0,0,0.0197144,-0.203289,-0.321514,-1.66485,-0.0516643,1.42999,0.401186,0.19036,-0.0664789,0.243595,-0.0901861,0.0835328,-0.424777,0.000365754,4.69684,-24.6874,7.53877,25.0864,2.62725,1.89232,-0.0163725,-1.3943,3.24001,0.21444,-1.82247,-0.539211,1.22422,1.23394,-0.0576664,1.34201,-0.531365,0.534567,-0.810591,0.00439941,
0.0284729,-0.203849,-0.313968,-1.66873,-0.0466623,-0.149885,-0.383732,0.6053,-0.0766079,0.644989,-0.254366,0.472921,-0.874017,0.0125145,0,0,0,0,0,0,0,0.0197144,-0.203289,-0.321514,-1.66485,-0.0516643,1.42999,0.401186,0.19036,-0.0664789,0.243595,-0.0901861,0.0835328,-0.424777,0.000365754,4.69684,-24.6874,7.53877,25.0864,2.62725,1.89232,-0.0163725,-1.57736,0.499653,-0.605988,0.174435,-0.306607,-0.0332026,0.0136477,0.206336,-0.14264,-0.829117,0.254242,-0.804166,0.00892697,
0.0179348,-0.201993,-0.325535,-1.66431,-0.0533663,-0.132119,-0.384064,0.469329,-0.135554,0.398944,-0.237284,0.105775,-0.74132,0.0125797,0,0,0,0,0,0,0,0.0271673,-0.206398,-0.313927,-1.66849,-0.0509164,1.41718,0.401198,0.250321,-0.105275,0.274674,-0.115439,0.0208374,-0.372968,0.000237236,5.9148,-24.2391,8.13783,24.4873,2.02301,2.04522,-0.0026396,-1.57736,0.499653,-0.605988,0.174435,-0.306607,-0.0332026,0.0136477,0.206336,-0.14264,-0.829117,0.254242,-0.804166,0.00892697,
0.0327659,-0.20804,-0.309151,-1.67107,-0.0501952,-0.16086,-0.384029,0.526931,-0.135264,0.467161,-0.242842,0.118202,-0.685065,0.0132037,0,0,0,0,0,0,0,0.0271673,-0.206398,-0.313927,-1.66849,-0.0509164,1.41718,0.401198,0.250321,-0.105275,0.274674,-0.115439,0.0208374,-0.372968,0.000237236,5.9148,-24.2391,8.13783,24.4873,2.02301,2.04522,-0.0026396,-2.43881,-0.775411,-1.29299,1.1322,-0.668258,-0.73304,-0.61826,0.110561,-0.994082,-1.00253,0.101025,-0.819225,0.0137264,
0.0350561,-0.208542,-0.307071,-1.67211,-0.049415,-0.163728,-0.383979,0.572566,-0.125464,0.520181,-0.259996,0.195032,-0.717037,0.0125331,0,0,0,0,0,0,0,0.0271673,-0.206398,-0.313927,-1.66849,-0.0509164,1.41718,0.401198,0.250321,-0.105275,0.274674,-0.115439,0.0208374,-0.372968,0.000237236,5.9148,-24.2391,8.13783,24.4873,2.02301,2.04522,-0.0026396,-2.43881,-0.775411,-1.29299,1.1322,-0.668258,-0.73304,-0.61826,0.110561,-0.994082,-1.00253,0.101025,-0.819225,0.0137264,
0.0375001,-0.208993,-0.304814,-1.6732,-0.0483131,-0.166648,-0.383931,0.610997,-0.112759,0.564199,-0.271407,0.275491,-0.729861,0.0119989,0,0,0,0,0,0,0,0.0271673,-0.206398,-0.313927,-1.66849,-0.0509164,1.41718,0.401198,0.250321,-0.105275,0.274674,-0.115439,0.0208374,-0.372968,0.000237236,5.9148,-24.2391,8.13783,24.4873,2.02301,2.04522,-0.0026396,-2.89804,0.990412,-0.822924,-0.0769997,-1.2551,-0.0102118,0.0768919,-0.303878,-0.133178,-0.768327,0.35829,-0.827807,0.0121065,
0.0400751,-0.209389,-0.302409,-1.67431,-0.0468927,-0.169569,-0.383885,0.643737,-0.0988957,0.601288,-0.278931,0.355087,-0.730393,0.0115561,0,0,0,0,0,0,0,0.0271673,-0.206398,-0.313927,-1.66849,-0.0509164,1.41718,0.401198,0.250321,-0.105275,0.274674,-0.115439,0.0208374,-0.372968,0.000237236,5.9148,-24.2391,8.13783,24.4873,2.02301,2.04522,-0.0026396,-2.89804,0.990412,-0.822924,-0.0769997,-1.2551,-0.0102118,0.0768919,-0.303878,-0.133178,-0.768327,0.35829,-0.827807,0.0121065,
0.0427626,-0.209728,-0.299877,-1.67545,-0.045168,-0.172461,-0.38384,0.671889,-0.0849346,0.632916,-0.28382,0.431186,-0.722812,0.0111802,0,0,0,0,0,0,0,0.0362339,-0.209593,-0.304902,-1.67277,-0.0504806,1.40602,0.401206,0.304837,-0.10007,0.274644,-0.149249,0.00642832,-0.307343,-0.000579831,3.70899,-24.5644,5.61067,24.7849,1.35742,2.3565,0.0101778,-2.35067,2.85848,-0.30117,-1.35773,-1.06929,0.909903,0.922176,-0.27265,0.966281,-0.649601,0.635439,-0.845074,0.00798787,
0.0306581,-0.207499,-0.31102,-1.6701,-0.050668,-0.15812,-0.384082,0.471867,-0.13958,0.402287,-0.217714,0.0523605,-0.621826,0.0141081,0,0,0,0,0,0,0,0.0362339,-0.209593,-0.304902,-1.67277,-0.0504806,1.40602,0.401206,0.304837,-0.10007,0.274644,-0.149249,0.00642832,-0.307343,-0.000579831,3.70899,-24.5644,5.61067,24.7849,1.35742,2.3565,0.0101778,-2.88548,1.52721,-0.110344,-0.51086,-1.59746,0.242331,0.292412,-0.639387,0.200821,-0.433216,0.476052,-0.757595,0.00941623,
0.0420292,-0.211072,-0.29993,-1.67556,-0.0496426,-0.170473,-0.384003,0.540268,-0.119694,0.480862,-0.252744,0.132189,-0.536918,0.0146789,0,0,0,0,0,0,0,0.0362339,-0.209593,-0.304902,-1.67277,-0.0504806,1.40602,0.401206,0.304837,-0.10007,0.274644,-0.149249,0.00642832,-0.307343,-0.000579831,3.70899,-24.5644,5.61067,24.7849,1.35742,2.3565,0.0101778,-2.88548,1.52721,-0.110344,-0.51086,-1.59746,0.242331,0.292412,-0.639387,0.200821,-0.433216,0.476052,-0.757595,0.00941623,
0.0443659,-0.211509,-0.297802,-1.67661,-0.0488041,-0.172766,-0.383948,0.584168,-0.109185,0.531925,-0.262569,0.209628,-0.573276,0.0137578,0,0,0,0,0,0,0,0.0362339,-0.209593,-0.304902,-1.67277,-0.0504806,1.40602,0.401206,0.304837,-0.10007,0.274644,-0.149249,0.00642832,-0.307343,-0.000579831,3.70899,-24.5644,5.61067,24.7849,1.35742,2.3565,0.0101778,-2.6492,-0.572293,-1.30325,1.05463,-0.954509,-0.648613,-0.520719,-0.117902,-0.921722,-0.872124,0.244058,-0.713269,0.00913947,
0.0468507,-0.211897,-0.295504,-1.67769,-0.047646,-0.175148,-0.383896,0.621206,-0.0970726,0.574551,-0.269017,0.289526,-0.595435,0.0130262,0,0,0,0,0,0,0,0.0362339,-0.209593,-0.304902,-1.67277,-0.0504806,1.40602,0.401206,0.304837,-0.10007,0.274644,-0.149249,0.00642832,-0.307343,-0.000579831,3.70899,-24.5644,5.61067,24.7849,1.35742,2.3565,0.0101778,-2.6492,-0.572293,-1.30325,1.05463,-0.954509,-0.648613,-0.520719,-0.117902,-0.921722,-0.872124,0.244058,-0.713269,0.00913947,
0.0494619,-0.212235,-0.293062,-1.67878,-0.0461738,-0.177575,-0.383846,0.652789,-0.0845601,0.610565,-0.273407,0.36805,-0.606765,0.0124275,0,0,0,0,0,0,0,0.0362339,-0.209593,-0.304902,-1.67277,-0.0504806,1.40602,0.401206,0.304837,-0.10007,0.274644,-0.149249,0.00642832,-0.307343,-0.000579831,3.70899,-24.5644,5.61067,24.7849,1.35742,2.3565,0.0101778,-0.852983,2.14769,-1.17103,-0.781501,0.316791,0.832524,0.896649,0.599287,0.768073,-1.03374,0.590599,-0.711854,0.00270559,
0.0521816,-0.212524,-0.290497,-1.67989,-0.0444021,-0.180014,-0.383799,0.679948,-0.0722798,0.641298,-0.276392,0.442921,-0.609873,0.0119267,0,0,0,0,0,0,0,0.0472601,-0.212926,-0.295527,-1.6774,-0.0502075,1.39602,0.40122,0.360627,-0.113451,0.28786,-0.159467,0.00682513,-0.290392,0.00102985,-0.0440639,-24.8619,2.41304,25.5585,1.17981,2.48284,-0.0227812,-1.76071,1.94513,-0.276523,-0.751397,-0.720086,0.610601,0.631393,-0.129701,0.602823,-0.583165,0.580176,-0.7039,0.00375555,
0.0398681,-0.210593,-0.301853,-1.67455,-0.0501714,-0.168325,-0.384062,0.48743,-0.126216,0.418854,-0.236623,0.0634638,-0.482362,0.0158531,0,0,0,0,0,0,0,0.0472601,-0.212926,-0.295527,-1.6774,-0.0502075,1.39602,0.40122,0.360627,-0.113451,0.28786,-0.159467,0.00682513,-0.290392,0.00102985,-0.0440639,-24.8619,2.41304,25.5585,1.17981,2.48284,-0.0227812,-1.76071,1.94513,-0.276523,-0.751397,-0.720086,0.610601,0.631393,-0.129701,0.602823,-0.583165,0.580176,-0.7039,0.00375555,
0.0533031,-0.214431,-0.290283,-1.68019,-0.0490763,-0.179717,-0.38398,0.557131,-0.118598,0.499707,-0.24816,0.160763,-0.464589,0.0155219,0,0,0,0,0,0,0,0.0472601,-0.212926,-0.295527,-1.6774,-0.0502075,1.39602,0.40122,0.360627,-0.113451,0.28786,-0.159467,0.00682513,-0.290392,0.00102985,-0.0440639,-24.8619,2.41304,25.5585,1.17981,2.48284,-0.0227812,-3.73761,-0.645344,-1.19175,1.06502,-1.83357,-0.798428,-0.663238,-0.643338,-1.06698,-0.692018,0.234874,-0.706863,0.00645683,
0.0556978,-0.214858,-0.288091,-1.68121,-0.048122,-0.181715,-0.383922,0.598671,-0.10676,0.548011,-0.255373,0.238594,-0.499654,0.0144976,0,0,0,0,0,0,0,0.0472601,-0.212926,-0.295527,-1.6774,-0.0502075,1.39602,0.40122,0.360627,-0.113451,0.28786,-0.159467,0.00682513,-0.290392,0.00102985,-0.0440639,-24.8619,2.41304,25.5585,1.17981,2.48284,-0.0227812,-3.73761,-0.645344,-1.19175,1.06502,-1.83357,-0.798428,-0.663238,-0.643338,-1.06698,-0.692018,0.234874,-0.706863,0.00645683,
0.058233,-0.215235,-0.285737,-1.68225,-0.0468518,-0.183807,-0.383867,0.633812,-0.0941474,0.588492,-0.260272,0.317551,-0.522769,0.0136742,0,0,0,0,0,0,0,0.0472601,-0.212926,-0.295527,-1.6774,-0.0502075,1.39602,0.40122,0.360627,-0.113451,0.28786,-0.159467,0.00682513,-0.290392,0.00102985,-0.0440639,-24.8619,2.41304,25.5585,1.17981,2.48284,-0.0227812,-2.93736,-0.0719133,-1.7543,0.719104,-1.02492,-0.41491,-0.274318,-0.0968822,-0.671104,-0.982983,0.292592,-0.689713,0.000997699,
0.0608883,-0.215561,-0.283246,-1.68331,-0.0452741,-0.185951,-0.383815,0.663829,-0.0816103,0.622781,-0.263797,0.394418,-0.536123,0.0130086,0,0,0,0,0,0,0,0.0598619,-0.216295,-0.283813,-1.6831,-0.0491445,1.38786,0.401226,0.389457,-0.114587,0.353845,-0.176788,0.0238899,-0.21128,-0.000479296,-1.08349,-24.2391,1.61165,25.4315,0.825497,2.3034,0.00376909,-2.93736,-0.0719133,-1.7543,0.719104,-1.02492,-0.41491,-0.274318,-0.0968822,-0.671104,-0.982983,0.292592,-0.689713,0.000997699,
0.063647,-0.215839,-0.280637,-1.68437,-0.0434049,-0.188118,-0.383765,0.689664,-0.0695598,0.652084,-0.26634,0.467288,-0.541683,0.0124736,0,0,0,0,0,0,0,0.0598619,-0.216295,-0.283813,-1.6831,-0.0491445,1.38786,0.401226,0.389457,-0.114587,0.353845,-0.176788,0.0238899,-0.21128,-0.000479296,-1.08349,-24.2391,1.61165,25.4315,0.825497,2.3034,0.00376909,-0.714507,1.53002,-1.30652,-0.428222,0.531055,0.584719,0.593772,0.761815,0.535568,-1.11345,0.483882,-0.714964,-0.00329537,
0.06649,-0.216072,-0.277925,-1.68545,-0.0412624,-0.190282,-0.383717,0.710746,-0.0581261,0.678053,-0.2681,0.53564,-0.541056,0.0119834,0,0,0,0,0,0,0,0.0598619,-0.216295,-0.283813,-1.6831,-0.0491445,1.38786,0.401226,0.389457,-0.114587,0.353845,-0.176788,0.0238899,-0.21128,-0.000479296,-1.08349,-24.2391,1.61165,25.4315,0.825497,2.3034,0.00376909,-0.714507,1.53002,-1.30652,-0.428222,0.531055,0.584719,0.593772,0.761815,0.535568,-1.11345,0.483882,-0.714964,-0.00329537,
0.0510745,-0.213957,-0.292282,-1.6792,-0.0497194,-0.177858,-0.384042,0.507369,-0.127795,0.441349,-0.236185,0.0892952,-0.415807,0.0167844,0,0,0,0,0,0,0,0.0598619,-0.216295,-0.283813,-1.6831,-0.0491445,1.38786,0.401226,0.389457,-0.114587,0.353845,-0.176788,0.0238899,-0.21128,-0.000479296,-1.08349,-24.2391,1.61165,25.4315,0.825497,2.3034,0.00376909,-1.85419,0.667567,-0.828623,0.0130777,-0.524816,0.0705467,0.117279,0.073557,-0.0221704,-0.765363,0.304234,-0.682496,-0.00131821,
0.0662746,-0.217693,-0.278137,-1.68586,-0.0475649,-0.186989,-0.383972,0.583044,-0.108231,0.529304,-0.241997,0.203461,-0.391757,0.0156229,0,0,0,0,0,0,0,0.0598619,-0.216295,-0.283813,-1.6831,-0.0491445,1.38786,0.401226,0.389457,-0.114587,0.353845,-0.176788,0.0238899,-0.21128,-0.000479296,-1.08349,-24.2391,1.61165,25.4315,0.825497,2.3034,0.00376909,-2.71,-1.06457,-1.23595,1.19693,-1.04503,-0.794244,-0.661589,-0.211205,-1.06624,-0.759631,0.0897931,-0.630321,-0.000488006,
0.0687581,-0.218079,-0.275844,-1.68685,-0.0464368,-0.188703,-0.383914,0.620864,-0.0966396,0.573235,-0.248014,0.282037,-0.428581,0.0146336,0,0,0,0,0,0,0,0.0598619,-0.216295,-0.283813,-1.6831,-0.0491445,1.38786,0.401226,0.389457,-0.114587,0.353845,-0.176788,0.0238899,-0.21128,-0.000479296,-1.08349,-24.2391,1.61165,25.4315,0.825497,2.3034,0.00376909,-2.71,-1.06457,-1.23595,1.19693,-1.04503,-0.794244,-0.661589,-0.211205,-1.06624,-0.759631,0.0897931,-0.630321,-0.000488006,
0.07137,-0.218418,-0.273403,-1.68786,-0.0449971,-0.190518,-0.383858,0.652979,-0.0846991,0.610218,-0.252329,0.359917,-0.453835,0.013851,0,0,0,0,0,0,0,0.0730181,-0.21939,-0.271719,-1.68878,-0.0468399,1.3822,0.401239,0.431218,-0.0823332,0.401506,-0.161253,0.138453,-0.185759,0.000915293,3.17737,-23.4139,5.31312,24.7372,2.10174,1.95916,-0.0365141,-1.9657,0.343028,-1.36094,0.313981,-0.409171,-0.0626116,0.0617042,0.204468,-0.262111,-0.947369,0.303539,-0.67793,-0.00489838,
0.0740868,-0.21871,-0.270833,-1.68889,-0.0432564,-0.192396,-0.383806,0.679196,-0.0729341,0.642385,-0.25557,0.435163,-0.469475,0.0131653,0,0,0,0,0,0,0,0.0730181,-0.21939,-0.271719,-1.68878,-0.0468399,1.3822,0.401239,0.431218,-0.0823332,0.401506,-0.161253,0.138453,-0.185759,0.000915293,3.17737,-23.4139,5.31312,24.7372,2.10174,1.95916,-0.0365141,-1.9657,0.343028,-1.36094,0.313981,-0.409171,-0.0626116,0.0617042,0.204468,-0.262111,-0.947369,0.303539,-0.67793,-0.00489838,
0.0768833,-0.218956,-0.268148,-1.68992,-0.0412287,-0.194305,-0.383756,0.699147,-0.0615624,0.671273,-0.257985,0.506932,-0.477295,0.0125124,0,0,0,0,0,0,0,0.0730181,-0.21939,-0.271719,-1.68878,-0.0468399,1.3822,0.401239,0.431218,-0.0823332,0.401506,-0.161253,0.138453,-0.185759,0.000915293,3.17737,-23.4139,5.31312,24.7372,2.10174,1.95916,-0.0365141,-0.586072,1.5484,-0.0202169,-0.566587,0.13702,0.626259,0.670046,0.332736,0.579715,-0.628741,0.516319,-0.689838,-0.00630493,
0.0797455,-0.21916,-0.265364,-1.69096,-0.0389337,-0.196221,-0.383708,0.715537,-0.0508356,0.69619,-0.259672,0.573749,-0.478893,0.0119471,0,0,0,0,0,0,0,0.0730181,-0.21939,-0.271719,-1.68878,-0.0468399,1.3822,0.401239,0.431218,-0.0823332,0.401506,-0.161253,0.138453,-0.185759,0.000915293,3.17737,-23.4139,5.31312,24.7372,2.10174,1.95916,-0.0365141,-1.5092,-1.06249,0.341799,1.08632,-0.717562,-0.652122,-0.599379,-0.280173,-0.836343,-0.306484,0.167974,-0.62292,-0.0022616,
0.0639424,-0.21726,-0.280254,-1.68489,-0.0483787,-0.185422,-0.384035,0.537942,-0.118146,0.476568,-0.232583,0.128252,-0.341776,0.0168407,0,0,0,0,0,0,0,0.0730181,-0.21939,-0.271719,-1.68878,-0.0468399,1.3822,0.401239,0.431218,-0.0823332,0.401506,-0.161253,0.138453,-0.185759,0.000915293,3.17737,-23.4139,5.31312,24.7372,2.10174,1.95916,-0.0365141,-1.5092,-1.06249,0.341799,1.08632,-0.717562,-0.652122,-0.599379,-0.280173,-0.836343,-0.306484,0.167974,-0.62292,-0.0022616,
0.0798236,-0.220526,-0.265604,-1.69149,-0.0440834,-0.192074,-0.383961,0.61169,-0.0892468,0.5611,-0.238794,0.293001,-0.339876,0.0154673,0,0,0,0,0,0,0,0.0864785,-0.221876,-0.259161,-1.6941,-0.0442814,1.37783,0.401245,0.430974,-0.058472,0.447586,-0.162857,0.128248,-0.130272,0.000485948,4.08985,-24.3144,5.53926,24.5865,1.71081,2.23107,-0.0301054,-1.5092,-1.06249,0.341799,1.08632,-0.717562,-0.652122,-0.599379,-0.280173,-0.836343,-0.306484,0.167974,-0.62292,-0.0022616,
0.0824029,-0.220844,-0.263196,-1.69246,-0.0426287,-0.193576,-0.383903,0.644808,-0.0795458,0.601987,-0.244438,0.363678,-0.375622,0.0144784,0,0,0,0,0,0,0,0.0864785,-0.221876,-0.259161,-1.6941,-0.0442814,1.37783,0.401245,0.430974,-0.058472,0.447586,-0.162857,0.128248,-0.130272,0.000485948,4.08985,-24.3144,5.53926,24.5865,1.71081,2.23107,-0.0301054,-3.25434,-1.14607,-0.640849,1.15681,-1.63957,-0.833821,-0.697728,-0.631579,-1.0856,-0.509703,0.0718743,-0.666574,-0.00391437,
0.0850836,-0.221121,-0.260645,-1.69346,-0.0408882,-0.195179,-0.383849,0.670178,-0.0691416,0.637676,-0.248257,0.435127,-0.400578,0.013604,0,0,0,0,0,0,0,0.0864785,-0.221876,-0.259161,-1.6941,-0.0442814,1.37783,0.401245,0.430974,-0.058472,0.447586,-0.162857,0.128248,-0.130272,0.000485948,4.08985,-24.3144,5.53926,24.5865,1.71081,2.23107,-0.0301054,-2.0381,1.57249,-0.453847,-0.560325,-0.772932,0.520746,0.616863,-0.0955026,0.437735,-0.655683,0.508705,-0.721871,-0.0054384,
0.0878472,-0.221356,-0.257974,-1.69446,-0.0388711,-0.196844,-0.383797,0.690908,-0.0588055,0.667974,-0.250996,0.50427,-0.416391,0.01287,0,0,0,0,0,0,0,0.0864785,-0.221876,-0.259161,-1.6941,-0.0442814,1.37783,0.401245,0.430974,-0.058472,0.447586,-0.162857,0.128248,-0.130272,0.000485948,4.08985,-24.3144,5.53926,24.5865,1.71081,2.23107,-0.0301054,-2.0381,1.57249,-0.453847,-0.560325,-0.772932,0.520746,0.616863,-0.0955026,0.437735,-0.655683,0.508705,-0.721871,-0.0054384,
0.0906789,-0.221552,-0.255198,-1.69547,-0.036593,-0.198543,-0.383748,0.707924,-0.0488748,0.693859,-0.252965,0.569524,-0.424695,0.0122367,0,0,0,0,0,0,0,0.0864785,-0.221876,-0.259161,-1.6941,-0.0442814,1.37783,0.401245,0.430974,-0.058472,0.447586,-0.162857,0.128248,-0.130272,0.000485948,4.08985,-24.3144,5.53926,24.5865,1.71081,2.23107,-0.0301054,-0.546118,2.38671,-0.3145,-1.0916,0.333903,1.02122,1.04837,0.541716,1.02725,-0.801874,0.642799,-0.736157,-0.00616758,
0.0935664,-0.22171,-0.252334,-1.69649,-0.0340729,-0.200251,-0.383702,0.721864,-0.0395103,0.716131,-0.254292,0.630045,-0.426938,0.0116819,0,0,0,0,0,0,0,0.101759,-0.223618,-0.244636,-1.6992,-0.0402594,1.37496,0.401248,0.458273,-0.0510044,0.439016,-0.144364,0.0932142,-0.0483841,0.000646224,2.41565,-24.6636,3.83729,24.9118,1.41235,2.19811,-0.0163725,-0.546118,2.38671,-0.3145,-1.0916,0.333903,1.02122,1.04837,0.541716,1.02725,-0.801874,0.642799,-0.736157,-0.00616758,
0.0773769,-0.220169,-0.267848,-1.69053,-0.0452554,-0.190714,-0.384023,0.570507,-0.0967459,0.512797,-0.229112,0.226369,-0.292679,0.0166511,0,0,0,0,0,0,0,0.101759,-0.223618,-0.244636,-1.6992,-0.0402594,1.37496,0.401248,0.458273,-0.0510044,0.439016,-0.144364,0.0932142,-0.0483841,0.000646224,2.41565,-24.6636,3.83729,24.9118,1.41235,2.19811,-0.0163725,-1.57111,0.22194,-1.15942,0.356342,-0.0987334,-0.0398491,0.0359095,0.372587,-0.206665,-0.976529,0.335261,-0.728919,-0.00478226,
0.108777,-0.224468,-0.238218,-1.70179,-0.0376517,-0.197899,-0.383953,0.622922,-0.0681259,0.583565,-0.230037,0.292123,-0.232023,0.0153763,0,0,0,0,0,0,0,0.101759,-0.223618,-0.244636,-1.6992,-0.0402594,1.37496,0.401248,0.458273,-0.0510044,0.439016,-0.144364,0.0932142,-0.0483841,0.000646224,2.41565,-24.6636,3.83729,24.9118,1.41235,2.19811,-0.0163725,-3.63482,-1.8061,-1.39459,1.74607,-1.57919,-1.11521,-0.958488,-0.501534,-1.46134,-0.804045,0.121517,-0.726225,-0.00249968,
0.111379,-0.224711,-0.235729,-1.70273,-0.0361725,-0.199007,-0.383896,0.650626,-0.0606887,0.622401,-0.236261,0.369796,-0.27694,0.0143574,0,0,0,0,0,0,0,0.101759,-0.223618,-0.244636,-1.6992,-0.0402594,1.37496,0.401248,0.458273,-0.0510044,0.439016,-0.144364,0.0932142,-0.0483841,0.000646224,2.41565,-24.6636,3.83729,24.9118,1.41235,2.19811,-0.0163725,-3.63482,-1.8061,-1.39459,1.74607,-1.57919,-1.11521,-0.958488,-0.501534,-1.46134,-0.804045,0.121517,-0.726225,-0.00249968,
0.114072,-0.22492,-0.233108,-1.70369,-0.034392,-0.200247,-0.383842,0.673315,-0.05243,0.655194,-0.240417,0.44513,-0.310039,0.0135075,0,0,0,0,0,0,0,0.101759,-0.223618,-0.244636,-1.6992,-0.0402594,1.37496,0.401248,0.458273,-0.0510044,0.439016,-0.144364,0.0932142,-0.0483841,0.000646224,2.41565,-24.6636,3.83729,24.9118,1.41235,2.19811,-0.0163725,-2.84539,1.05407,-1.02708,-0.128404,-1.11502,0.265213,0.38957,-0.198473,0.109974,-0.818708,0.519397,-0.760782,-0.00799322,
0.11684,-0.225097,-0.230375,-1.70467,-0.0323266,-0.201579,-0.38379,0.691948,-0.0440566,0.683125,-0.243391,0.516348,-0.332948,0.0127804,0,0,0,0,0,0,0,0.101759,-0.223618,-0.244636,-1.6992,-0.0402594,1.37496,0.401248,0.458273,-0.0510044,0.439016,-0.144364,0.0932142,-0.0483841,0.000646224,2.41565,-24.6636,3.83729,24.9118,1.41235,2.19811,-0.0163725,-2.84539,1.05407,-1.02708,-0.128404,-1.11502,0.265213,0.38957,-0.198473,0.109974,-0.818708,0.519397,-0.760782,-0.00799322,
0.119669,-0.22524,-0.227547,-1.70565,-0.0299967,-0.202968,-0.383742,0.707239,-0.0358986,0.707096,-0.245519,0.582484,-0.347411,0.012147,0,0,0,0,0,0,0,0.121415,-0.224929,-0.225242,-1.70484,-0.0334382,1.37396,0.401257,0.473312,-0.0378346,0.457885,-0.138626,0.137653,-0.00316588,-0.000347063,2.92347,-24.9373,4.18641,23.8129,0.788876,2.08459,-0.00996382,-1.01744,2.38651,-0.887994,-1.0057,0.229584,0.998645,1.02663,0.588421,0.981664,-0.989094,0.719148,-0.755114,-0.00798259,
0.106285,-0.224195,-0.240553,-1.70087,-0.0388202,-0.196971,-0.384015,0.588702,-0.0730731,0.537212,-0.219268,0.215166,-0.174748,0.0166129,0,0,0,0,0,0,0,0.121415,-0.224929,-0.225242,-1.70484,-0.0334382,1.37396,0.401257,0.473312,-0.0378346,0.457885,-0.138626,0.137653,-0.00316588,-0.000347063,2.92347,-24.9373,4.18641,23.8129,0.788876,2.08459,-0.00996382,-2.03989,0.0847241,-1.21919,0.432013,-0.440332,-0.101658,-0.0158351,0.175242,-0.278929,-0.925037,0.347497,-0.706014,-0.00518619,
0.128489,-0.225638,-0.218616,-1.70735,-0.0303403,-0.19833,-0.383945,0.624733,-0.0572343,0.599156,-0.223965,0.330092,-0.183794,0.0153347,0,0,0,0,0,0,0,0.121415,-0.224929,-0.225242,-1.70484,-0.0334382,1.37396,0.401257,0.473312,-0.0378346,0.457885,-0.138626,0.137653,-0.00316588,-0.000347063,2.92347,-24.9373,4.18641,23.8129,0.788876,2.08459,-0.00996382,-2.03989,0.0847241,-1.21919,0.432013,-0.440332,-0.101658,-0.0158351,0.175242,-0.278929,-0.925037,0.347497,-0.706014,-0.00518619,
0.131092,-0.225841,-0.216071,-1.70827,-0.0287233,-0.199245,-0.383888,0.650771,-0.0507512,0.636175,-0.23008,0.404243,-0.22876,0.0143076,0,0,0,0,0,0,0,0.121415,-0.224929,-0.225242,-1.70484,-0.0334382,1.37396,0.401257,0.473312,-0.0378346,0.457885,-0.138626,0.137653,-0.00316588,-0.000347063,2.92347,-24.9373,4.18641,23.8129,0.788876,2.08459,-0.00996382,-3.0826,-0.100631,-1.33385,0.501095,-1.22907,-0.220823,-0.0684742,-0.269074,-0.440058,-0.809861,0.270238,-0.66856,-0.00644544,
0.13378,-0.226014,-0.213401,-1.70921,-0.0268191,-0.200294,-0.383834,0.672043,-0.0434137,0.667436,-0.234134,0.476057,-0.262174,0.0134453,0,0,0,0,0,0,0,0.121415,-0.224929,-0.225242,-1.70484,-0.0334382,1.37396,0.401257,0.473312,-0.0378346,0.457885,-0.138626,0.137653,-0.00316588,-0.000347063,2.92347,-24.9373,4.18641,23.8129,0.788876,2.08459,-0.00996382,-3.0826,-0.100631,-1.33385,0.501095,-1.22907,-0.220823,-0.0684742,-0.269074,-0.440058,-0.809861,0.270238,-0.66856,-0.00644544,
0.136538,-0.226158,-0.210625,-1.71016,-0.0246435,-0.201436,-0.383783,0.689455,-0.0359101,0.694062,-0.237009,0.543889,-0.285591,0.0127051,0,0,0,0,0,0,0,0.136046,-0.225658,-0.210936,-1.70921,-0.0279405,1.37415,0.401268,0.495561,-0.0212159,0.473958,-0.137028,0.134819,0.0192289,0.00119524,-0.829586,-25.461,0.814222,24.6381,1.1734,1.4016,-0.0365141,-2.65296,1.13914,-1.45144,-0.24629,-0.795375,0.372882,0.468521,0.0647238,0.251442,-0.987088,0.498801,-0.73654,-0.0080657,
0.139353,-0.226272,-0.207757,-1.71111,-0.0222162,-0.202639,-0.383735,0.703684,-0.0285624,0.716906,-0.239048,0.606839,-0.3007,0.0120595,0,0,0,0,0,0,0,0.136046,-0.225658,-0.210936,-1.70921,-0.0279405,1.37415,0.401268,0.495561,-0.0212159,0.473958,-0.137028,0.134819,0.0192289,0.00119524,-0.829586,-25.461,0.814222,24.6381,1.1734,1.4016,-0.0365141,-2.65296,1.13914,-1.45144,-0.24629,-0.795375,0.372882,0.468521,0.0647238,0.251442,-0.987088,0.498801,-0.73654,-0.0080657,
0.142214,-0.226358,-0.204811,-1.71208,-0.0195581,-0.203875,-0.383689,0.715255,-0.0215355,0.73663,-0.240405,0.664505,-0.309028,0.0114894,0,0,0,0,0,0,0,0.136046,-0.225658,-0.210936,-1.70921,-0.0279405,1.37415,0.401268,0.495561,-0.0212159,0.473958,-0.137028,0.134819,0.0192289,0.00119524,-0.829586,-25.461,0.814222,24.6381,1.1734,1.4016,-0.0365141,-2.54579,0.53292,-1.55426,0.182401,-0.572602,0.105474,0.164253,0.219353,-0.0342264,-1.12256,0.465477,-0.825815,-0.00788516,
0.12599,-0.225409,-0.221012,-1.70646,-0.0316606,-0.197595,-0.384006,0.592607,-0.0612398,0.554924,-0.213327,0.256402,-0.126839,0.0165563,0,0,0,0,0,0,0,0.136046,-0.225658,-0.210936,-1.70921,-0.0279405,1.37415,0.401268,0.495561,-0.0212159,0.473958,-0.137028,0.134819,0.0192289,0.00119524,-0.829586,-25.461,0.814222,24.6381,1.1734,1.4016,-0.0365141,-3.1725,-0.966662,-1.71316,1.09092,-1.00506,-0.578325,-0.441911,-0.0671782,-0.849368,-1.06328,0.207483,-0.794653,-0.00652576,
0.14316,-0.226191,-0.2041,-1.7117,-0.0246964,-0.197772,-0.383937,0.625346,-0.0439051,0.613781,-0.221271,0.345433,-0.151332,0.015175,0,0,0,0,0,0,0,0.136046,-0.225658,-0.210936,-1.70921,-0.0279405,1.37415,0.401268,0.495561,-0.0212159,0.473958,-0.137028,0.134819,0.0192289,0.00119524,-0.829586,-25.461,0.814222,24.6381,1.1734,1.4016,-0.0365141,-3.1725,-0.966662,-1.71316,1.09092,-1.00506,-0.578325,-0.441911,-0.0671782,-0.849368,-1.06328,0.207483,-0.794653,-0.00652576,
0.145759,-0.226346,-0.201505,-1.71261,-0.0230148,-0.198551,-0.38388,0.649537,-0.0386771,0.648602,-0.226954,0.420397,-0.194604,0.0141679,0,0,0,0,0,0,0,0.136046,-0.225658,-0.210936,-1.70921,-0.0279405,1.37415,0.401268,0.495561,-0.0212159,0.473958,-0.137028,0.134819,0.0192289,0.00119524,-0.829586,-25.461,0.814222,24.6381,1.1734,1.4016,-0.0365141,-3.15955,-0.60915,-1.68705,0.783002,-0.998884,-0.386636,-0.258679,-0.0405421,-0.61364,-1.06295,0.198322,-0.795673,-0.00887395,
0.148436,-0.226476,-0.198793,-1.71353,-0.0210466,-0.199458,-0.383827,0.669315,-0.0325316,0.678116,-0.2306,0.492061,-0.226816,0.0133144,0,0,0,0,0,0,0,0.152175,-0.225996,-0.194013,-1.7138,-0.020428,1.37428,0.401264,0.482512,-0.00173851,0.512499,-0.139241,0.288199,0.0054322,0.000700462,3.02265,-25.1872,4.43635,24.3127,2.10815,1.21667,-0.0163725,-3.15955,-0.60915,-1.68705,0.783002,-0.998884,-0.386636,-0.258679,-0.0405421,-0.61364,-1.06295,0.198322,-0.795673,-0.00887395,
0.151178,-0.22658,-0.19598,-1.71446,-0.01881,-0.200456,-0.383776,0.6855,-0.0261406,0.703331,-0.233096,0.559145,-0.249418,0.0125773,0,0,0,0,0,0,0,0.152175,-0.225996,-0.194013,-1.7138,-0.020428,1.37428,0.401264,0.482512,-0.00173851,0.512499,-0.139241,0.288199,0.0054322,0.000700462,3.02265,-25.1872,4.43635,24.3127,2.10815,1.21667,-0.0163725,-2.71246,2.72438,-1.32332,-1.44242,-0.729447,1.18376,1.26511,0.251997,1.19803,-1.10248,0.593799,-0.873108,-0.0139364,
0.153973,-0.22666,-0.19308,-1.7154,-0.016326,-0.201512,-0.383729,0.69871,-0.0198202,0.72502,-0.234789,0.620997,-0.26402,0.0119314,0,0,0,0,0,0,0,0.152175,-0.225996,-0.194013,-1.7138,-0.020428,1.37428,0.401264,0.482512,-0.00173851,0.512499,-0.139241,0.288199,0.0054322,0.000700462,3.02265,-25.1872,4.43635,24.3127,2.10815,1.21667,-0.0163725,-2.71246,2.72438,-1.32332,-1.44242,-0.729447,1.18376,1.26511,0.251997,1.19803,-1.10248,0.593799,-0.873108,-0.0139364,
0.15681,-0.226715,-0.190104,-1.71635,-0.0136165,-0.2026,-0.383683,0.709426,-0.0137348,0.743783,-0.235835,0.677382,-0.272089,0.0113591,0,0,0,0,0,0,0,0.152175,-0.225996,-0.194013,-1.7138,-0.020428,1.37428,0.401264,0.482512,-0.00173851,0.512499,-0.139241,0.288199,0.0054322,0.000700462,3.02265,-25.1872,4.43635,24.3127,2.10815,1.21667,-0.0163725,-2.42428,1.11798,-0.363906,-0.35282,-0.90513,0.445155,0.475442,-0.100905,0.408054,-0.713876,0.481839,-0.833159,-0.0102265,
0.140659,-0.226015,-0.206555,-1.71082,-0.0260782,-0.197167,-0.383997,0.595572,-0.0466289,0.572336,-0.211091,0.269407,-0.096696,0.0163495,0,0,0,0,0,0,0,0.152175,-0.225996,-0.194013,-1.7138,-0.020428,1.37428,0.401264,0.482512,-0.00173851,0.512499,-0.139241,0.288199,0.0054322,0.000700462,3.02265,-25.1872,4.43635,24.3127,2.10815,1.21667,-0.0163725,-1.74306,-1.39621,-0.711912,1.26974,-0.355346,-0.680214,-0.59107,0.0846182,-0.923204,-0.762071,0.150241,-0.709848,-0.00846269,
0.159356,-0.226344,-0.186945,-1.71629,-0.0158947,-0.197581,-0.383944,0.629817,-0.0299532,0.631557,-0.220999,0.435724,-0.138665,0.0148075,0,0,0,0,0,0,0,0.167673,-0.226019,-0.178055,-1.71805,-0.0128286,1.37463,0.401271,0.492922,0.00765983,0.552495,-0.143336,0.294773,0.00598286,0.00141753,2.51484,-26.06,3.36122,25.1855,2.12005,1.83922,-0.0365141,-1.74306,-1.39621,-0.711912,1.26974,-0.355346,-0.680214,-0.59107,0.0846182,-0.923204,-0.762071,0.150241,-0.709848,-0.00846269,
0.161967,-0.226448,-0.184285,-1.71719,-0.0139052,-0.198287,-0.383889,0.652614,-0.0259895,0.665089,-0.225863,0.497367,-0.176474,0.0138004,0,0,0,0,0,0,0,0.167673,-0.226019,-0.178055,-1.71805,-0.0128286,1.37463,0.401271,0.492922,0.00765983,0.552495,-0.143336,0.294773,0.00598286,0.00141753,2.51484,-26.06,3.36122,25.1855,2.12005,1.83922,-0.0365141,-2.08798,-1.01622,-0.818697,1.0323,-0.609336,-0.494495,-0.366999,-0.0394795,-0.744862,-0.738257,0.212027,-0.677356,-0.00965234,
0.164651,-0.226532,-0.181512,-1.71811,-0.0116738,-0.199104,-0.383837,0.671048,-0.0209959,0.693311,-0.228767,0.55785,-0.204377,0.0129522,0,0,0,0,0,0,0,0.167673,-0.226019,-0.178055,-1.71805,-0.0128286,1.37463,0.401271,0.492922,0.00765983,0.552495,-0.143336,0.294773,0.00598286,0.00141753,2.51484,-26.06,3.36122,25.1855,2.12005,1.83922,-0.0365141,-2.08798,-1.01622,-0.818697,1.0323,-0.609336,-0.494495,-0.366999,-0.0394795,-0.744862,-0.738257,0.212027,-0.677356,-0.00965234,
0.167395,-0.226594,-0.178643,-1.71903,-0.0092119,-0.199998,-0.383788,0.685962,-0.0156649,0.717267,-0.230613,0.615485,-0.223611,0.012223,0,0,0,0,0,0,0,0.167673,-0.226019,-0.178055,-1.71805,-0.0128286,1.37463,0.401271,0.492922,0.00765983,0.552495,-0.143336,0.294773,0.00598286,0.00141753,2.51484,-26.06,3.36122,25.1855,2.12005,1.83922,-0.0365141,-1.95831,1.87682,-0.635257,-0.828656,-0.549898,0.845735,0.911813,0.134339,0.809789,-0.758339,0.615538,-0.704367,-0.0140494,
0.170187,-0.226636,-0.175692,-1.71996,-0.00653469,-0.200941,-0.383742,0.697987,-0.0103236,0.737756,-0.231742,0.669301,-0.23562,0.0115871,0,0,0,0,0,0,0,0.167673,-0.226019,-0.178055,-1.71805,-0.0128286,1.37463,0.401271,0.492922,0.00765983,0.552495,-0.143336,0.294773,0.00598286,0.00141753,2.51484,-26.06,3.36122,25.1855,2.12005,1.83922,-0.0365141,-1.90235,1.45312,-1.03273,-0.566649,-0.350624,0.654995,0.683435,0.292267,0.621666,-0.904771,0.563118,-0.699582,-0.0145217,
0.173017,-0.226656,-0.17267,-1.72089,-0.00365945,-0.201908,-0.383698,0.707609,-0.00514289,0.755393,-0.232305,0.71881,-0.241736,0.0110246,0,0,0,0,0,0,0,0.167673,-0.226019,-0.178055,-1.71805,-0.0128286,1.37463,0.401271,0.492922,0.00765983,0.552495,-0.143336,0.294773,0.00598286,0.00141753,2.51484,-26.06,3.36122,25.1855,2.12005,1.83922,-0.0365141,-1.90235,1.45312,-1.03273,-0.566649,-0.350624,0.654995,0.683435,0.292267,0.621666,-0.904771,0.563118,-0.699582,-0.0145217,
0.156837,-0.226224,-0.189472,-1.71541,-0.0176376,-0.197026,-0.384003,0.601404,-0.0312546,0.591386,-0.211663,0.375679,-0.0909403,0.0160134,0,0,0,0,0,0,0,0.183895,-0.22579,-0.161181,-1.72223,-0.00427731,1.37481,0.401271,0.512695,0.0119149,0.542197,-0.130232,0.266466,0.00182965,-0.000379927,2.41565,-26.8575,3.21443,24.9594,1.28967,2.03881,-0.00996382,-2.77149,-0.984119,-1.10508,0.969773,-1.08967,-0.445506,-0.352503,-0.287501,-0.645819,-0.6986,0.214319,-0.599882,-0.0120097,
0.191174,-0.225987,-0.153804,-1.72467,0.000337044,-0.196849,-0.383945,0.634114,-0.0178685,0.652725,-0.217369,0.449653,-0.114678,0.0142912,0,0,0,0,0,0,0,0.183895,-0.22579,-0.161181,-1.72223,-0.00427731,1.37481,0.401271,0.512695,0.0119149,0.542197,-0.130232,0.266466,0.00182965,-0.000379927,2.41565,-26.8575,3.21443,24.9594,1.28967,2.03881,-0.00996382,-2.77149,-0.984119,-1.10508,0.969773,-1.08967,-0.445506,-0.352503,-0.287501,-0.645819,-0.6986,0.214319,-0.599882,-0.0120097,
0.193792,-0.226045,-0.151072,-1.72556,0.00239327,-0.197442,-0.383892,0.654317,-0.0144858,0.682956,-0.222285,0.514056,-0.148318,0.0133637,0,0,0,0,0,0,0,0.183895,-0.22579,-0.161181,-1.72223,-0.00427731,1.37481,0.401271,0.512695,0.0119149,0.542197,-0.130232,0.266466,0.00182965,-0.000379927,2.41565,-26.8575,3.21443,24.9594,1.28967,2.03881,-0.00996382,-2.59723,-0.776348,-1.15961,0.821626,-0.983635,-0.331046,-0.219273,-0.228755,-0.534474,-0.690192,0.233997,-0.546773,-0.0142299,
0.196475,-0.226085,-0.148237,-1.72646,0.00469508,-0.198135,-0.383841,0.670708,-0.0101481,0.708621,-0.225092,0.575452,-0.173235,0.0125693,0,0,0,0,0,0,0,0.183895,-0.22579,-0.161181,-1.72223,-0.00427731,1.37481,0.401271,0.512695,0.0119149,0.542197,-0.130232,0.266466,0.00182965,-0.000379927,2.41565,-26.8575,3.21443,24.9594,1.28967,2.03881,-0.00996382,-2.02845,1.66805,-1.38351,-0.768873,-0.380066,0.796956,0.847661,0.33032,0.768139,-0.946581,0.558205,-0.611996,-0.018197,
0.19921,-0.226107,-0.145315,-1.72736,0.00722639,-0.198897,-0.383794,0.683987,-0.00552013,0.730564,-0.226772,0.632829,-0.190361,0.0118771,0,0,0,0,0,0,0,0.183895,-0.22579,-0.161181,-1.72223,-0.00427731,1.37481,0.401271,0.512695,0.0119149,0.542197,-0.130232,0.266466,0.00182965,-0.000379927,2.41565,-26.8575,3.21443,24.9594,1.28967,2.03881,-0.00996382,-2.02845,1.66805,-1.38351,-0.768873,-0.380066,0.796956,0.847661,0.33032,0.768139,-0.946581,0.558205,-0.611996,-0.018197,
0.201989,-0.226111,-0.142317,-1.72828,0.00996907,-0.1997,-0.383749,0.694683,-0.000901601,0.749444,-0.227709,0.68567,-0.200932,0.0112711,0,0,0,0,0,0,0,0.19958,-0.225448,-0.144182,-1.7262,0.00558374,1.37492,0.401278,0.517543,0.0118174,0.515935,-0.115679,0.272405,0.00815881,0.000149666,-0.702633,-26.8337,0.413527,25.6339,0.800778,1.98571,-0.0227812,-2.05323,1.59836,-1.36411,-0.769724,-0.399949,0.774297,0.786261,0.325825,0.784147,-0.940324,0.52354,-0.614624,-0.0169634,
0.204802,-0.226097,-0.139254,-1.72919,0.0129042,-0.200525,-0.383706,0.703212,0.00355766,0.765774,-0.228074,0.733791,-0.206126,0.0107228,0,0,0,0,0,0,0,0.19958,-0.225448,-0.144182,-1.7262,0.00558374,1.37492,0.401278,0.517543,0.0118174,0.515935,-0.115679,0.272405,0.00815881,0.000149666,-0.702633,-26.8337,0.413527,25.6339,0.800778,1.98571,-0.0227812,-2.05323,1.59836,-1.36411,-0.769724,-0.399949,0.774297,0.786261,0.325825,0.784147,-0.940324,0.52354,-0.614624,-0.0169634,
0.188638,-0.225915,-0.156415,-1.7238,-0.00146157,-0.19639,-0.384002,0.609086,-0.018674,0.616867,-0.207642,0.383972,-0.0727854,0.0153574,0,0,0,0,0,0,0,0.19958,-0.225448,-0.144182,-1.7262,0.00558374,1.37492,0.401278,0.517543,0.0118174,0.515935,-0.115679,0.272405,0.00815881,0.000149666,-0.702633,-26.8337,0.413527,25.6339,0.800778,1.98571,-0.0227812,-1.71783,-0.139004,-1.53708,0.285311,-0.170082,-0.0104275,0.0659621,0.341207,-0.144827,-0.927386,0.237646,-0.531448,-0.0148284,
0.206673,-0.225656,-0.136862,-1.72854,0.0102389,-0.19648,-0.383937,0.619071,-0.0186298,0.649475,-0.209503,0.450179,-0.088665,0.0145148,0,0,0,0,0,0,0,0.19958,-0.225448,-0.144182,-1.7262,0.00558374,1.37492,0.401278,0.517543,0.0118174,0.515935,-0.115679,0.272405,0.00815881,0.000149666,-0.702633,-26.8337,0.413527,25.6339,0.800778,1.98571,-0.0227812,-1.71783,-0.139004,-1.53708,0.285311,-0.170082,-0.0104275,0.0659621,0.341207,-0.144827,-0.927386,0.237646,-0.531448,-0.0148284,
0.209233,-0.225716,-0.13414,-1.72939,0.0122894,-0.196959,-0.383883,0.639992,-0.0149779,0.680607,-0.214684,0.512615,-0.11975,0.013534,0,0,0,0,0,0,0,0.19958,-0.225448,-0.144182,-1.7262,0.00558374,1.37492,0.401278,0.517543,0.0118174,0.515935,-0.115679,0.272405,0.00815881,0.000149666,-0.702633,-26.8337,0.413527,25.6339,0.800778,1.98571,-0.0227812,-1.39594,-1.00572,-1.62435,0.872172,0.105307,-0.408502,-0.29544,0.438977,-0.637423,-0.97387,0.166819,-0.526013,-0.0143972,
0.211861,-0.225757,-0.131312,-1.73027,0.0145798,-0.197531,-0.383832,0.656957,-0.0104071,0.70698,-0.217645,0.572603,-0.142882,0.0126927,0,0,0,0,0,0,0,0.19958,-0.225448,-0.144182,-1.7262,0.00558374,1.37492,0.401278,0.517543,0.0118174,0.515935,-0.115679,0.272405,0.00815881,0.000149666,-0.702633,-26.8337,0.413527,25.6339,0.800778,1.98571,-0.0227812,-1.43634,0.88653,-1.6705,-0.353627,0.192855,0.465541,0.527147,0.666111,0.382154,-1.10473,0.430363,-0.605544,-0.0162617,
0.214543,-0.22578,-0.128394,-1.73114,0.0170957,-0.198166,-0.383784,0.670692,-0.00559834,0.729481,-0.21944,0.628993,-0.158788,0.0119514,0,0,0,0,0,0,0,0.221095,-0.225266,-0.120587,-1.7318,0.0197863,1.37531,0.401281,0.4967,0.00511606,0.552403,-0.137668,0.290428,0.0300921,9.77317e-05,-1.64288,-26.6353,-0.610033,25.4831,1.06994,1.7669,-0.0163725,-1.43634,0.88653,-1.6705,-0.353627,0.192855,0.465541,0.527147,0.666111,0.382154,-1.10473,0.430363,-0.605544,-0.0162617,
0.21727,-0.225783,-0.125399,-1.73202,0.0198204,-0.19884,-0.383739,0.681752,-0.000849148,0.748801,-0.220477,0.68116,-0.168567,0.0113177,0,0,0,0,0,0,0,0.221095,-0.225266,-0.120587,-1.7318,0.0197863,1.37531,0.401281,0.4967,0.00511606,0.552403,-0.137668,0.290428,0.0300921,9.77317e-05,-1.64288,-26.6353,-0.610033,25.4831,1.06994,1.7669,-0.0163725,-1.83097,1.64687,-1.59806,-0.915567,-0.0853576,0.84003,0.831854,0.593719,0.879816,-1.09919,0.483938,-0.651929,-0.0173551,
0.204196,-0.225581,-0.13946,-1.7277,0.00843818,-0.196126,-0.383995,0.593196,-0.0196687,0.612434,-0.199206,0.38717,-0.0504742,0.0156036,0,0,0,0,0,0,0,0.221095,-0.225266,-0.120587,-1.7318,0.0197863,1.37531,0.401281,0.4967,0.00511606,0.552403,-0.137668,0.290428,0.0300921,9.77317e-05,-1.64288,-26.6353,-0.610033,25.4831,1.06994,1.7669,-0.0163725,-1.83097,1.64687,-1.59806,-0.915567,-0.0853576,0.84003,0.831854,0.593719,0.879816,-1.09919,0.483938,-0.651929,-0.0173551,
0.228157,-0.225425,-0.113114,-1.73414,0.0246349,-0.195903,-0.383936,0.615346,-0.0129692,0.660034,-0.206838,0.466223,-0.0705292,0.0142323,0,0,0,0,0,0,0,0.221095,-0.225266,-0.120587,-1.7318,0.0197863,1.37531,0.401281,0.4967,0.00511606,0.552403,-0.137668,0.290428,0.0300921,9.77317e-05,-1.64288,-26.6353,-0.610033,25.4831,1.06994,1.7669,-0.0163725,-1.2234,-0.836966,-1.83673,0.636327,0.343474,-0.309729,-0.249253,0.647225,-0.468507,-1.1041,0.126093,-0.552322,-0.0147717,
0.230697,-0.225461,-0.110355,-1.73499,0.0267455,-0.196296,-0.383883,0.635172,-0.00916803,0.689839,-0.211131,0.527627,-0.0981969,0.0132681,0,0,0,0,0,0,0,0.221095,-0.225266,-0.120587,-1.7318,0.0197863,1.37531,0.401281,0.4967,0.00511606,0.552403,-0.137668,0.290428,0.0300921,9.77317e-05,-1.64288,-26.6353,-0.610033,25.4831,1.06994,1.7669,-0.0163725,-1.2234,-0.836966,-1.83673,0.636327,0.343474,-0.309729,-0.249253,0.647225,-0.468507,-1.1041,0.126093,-0.552322,-0.0147717,
0.233302,-0.22548,-0.107494,-1.73584,0.0290903,-0.196769,-0.383833,0.651254,-0.00475878,0.715151,-0.213646,0.58622,-0.118454,0.0124504,0,0,0,0,0,0,0,0.237506,-0.225217,-0.102346,-1.73612,0.0313861,1.376,0.40128,0.504563,0.00222271,0.564177,-0.134201,0.34066,0.0305499,-0.000743084,-0.702633,-26.6591,0.0128308,25.3839,1.59546,1.70006,0.00376909,-1.75891,0.0655449,-2.12036,0.0242548,0.0786897,0.152706,0.248763,0.632935,0.0234087,-1.19927,0.233762,-0.575834,-0.0201195,
0.235959,-0.225481,-0.104547,-1.7367,0.0316545,-0.197298,-0.383786,0.66425,-0.000243302,0.736794,-0.215159,0.641048,-0.132123,0.0117213,0,0,0,0,0,0,0,0.237506,-0.225217,-0.102346,-1.73612,0.0313861,1.376,0.40128,0.504563,0.00222271,0.564177,-0.134201,0.34066,0.0305499,-0.000743084,-0.702633,-26.6591,0.0128308,25.3839,1.59546,1.70006,0.00376909,-1.96006,0.361724,-1.89628,-0.0294623,-0.0674331,0.286213,0.33824,0.545286,0.184341,-1.16688,0.4323,-0.640085,-0.0185092,
0.238658,-0.225465,-0.101525,-1.73757,0.0344209,-0.197859,-0.383742,0.674682,0.00415445,0.755404,-0.215984,0.691605,-0.140246,0.0110843,0,0,0,0,0,0,0,0.237506,-0.225217,-0.102346,-1.73612,0.0313861,1.376,0.40128,0.504563,0.00222271,0.564177,-0.134201,0.34066,0.0305499,-0.000743084,-0.702633,-26.6591,0.0128308,25.3839,1.59546,1.70006,0.00376909,-1.96006,0.361724,-1.89628,-0.0294623,-0.0674331,0.286213,0.33824,0.545286,0.184341,-1.16688,0.4323,-0.640085,-0.0185092,
0.225695,-0.225373,-0.115754,-1.73332,0.02277,-0.195621,-0.383993,0.590837,-0.0149308,0.624728,-0.198682,0.403595,-0.0356949,0.0153056,0,0,0,0,0,0,0,0.237506,-0.225217,-0.102346,-1.73612,0.0313861,1.376,0.40128,0.504563,0.00222271,0.564177,-0.134201,0.34066,0.0305499,-0.000743084,-0.702633,-26.6591,0.0128308,25.3839,1.59546,1.70006,0.00376909,-1.87686,0.0354034,-1.83659,0.118108,-0.0857057,0.147871,0.191197,0.490157,0.0505296,-1.09842,0.337416,-0.591427,-0.0182428,
0.244556,-0.225376,-0.0947211,-1.7384,0.0367314,-0.19506,-0.383942,0.612916,-0.0122438,0.671346,-0.200869,0.502622,-0.0526021,0.0138798,0,0,0,0,0,0,0,0.237506,-0.225217,-0.102346,-1.73612,0.0313861,1.376,0.40128,0.504563,0.00222271,0.564177,-0.134201,0.34066,0.0305499,-0.000743084,-0.702633,-26.6591,0.0128308,25.3839,1.59546,1.70006,0.00376909,-1.87686,0.0354034,-1.83659,0.118108,-0.0857057,0.147871,0.191197,0.490157,0.0505296,-1.09842,0.337416,-0.591427,-0.0182428,
0.247082,-0.225408,-0.0919211,-1.73922,0.0389692,-0.195366,-0.38389,0.6317,-0.0080969,0.699983,-0.205085,0.559445,-0.0764513,0.01294,0,0,0,0,0,0,0,0.254613,-0.225043,-0.0830144,-1.74041,0.0425951,1.37689,0.401288,0.529915,0.00721202,0.590304,-0.125877,0.390639,0.0180286,0.00048168,-0.424923,-26.7583,0.0644055,25.3601,1.62567,1.82,-0.0301054,-1.45989,-1.72558,-1.87931,1.18268,0.10261,-0.663705,-0.577355,0.415526,-0.883613,-1.01075,0.0440378,-0.482604,-0.0163291,
0.24967,-0.225422,-0.089024,-1.74005,0.0414246,-0.195741,-0.383842,0.646872,-0.00348936,0.724287,-0.207572,0.613857,-0.0938044,0.0121282,0,0,0,0,0,0,0,0.254613,-0.225043,-0.0830144,-1.74041,0.0425951,1.37689,0.401288,0.529915,0.00721202,0.590304,-0.125877,0.390639,0.0180286,0.00048168,-0.424923,-26.7583,0.0644055,25.3601,1.62567,1.82,-0.0301054,-1.45989,-1.72558,-1.87931,1.18268,0.10261,-0.663705,-0.577355,0.415526,-0.883613,-1.01075,0.0440378,-0.482604,-0.0163291,
0.252315,-0.225418,-0.0860552,-1.74088,0.0440868,-0.196162,-0.383796,0.661212,0.00114262,0.7422,-0.209057,0.665551,-0.105371,0.0113753,0,0,0,0,0,0,0,0.254613,-0.225043,-0.0830144,-1.74041,0.0425951,1.37689,0.401288,0.529915,0.00721202,0.590304,-0.125877,0.390639,0.0180286,0.00048168,-0.424923,-26.7583,0.0644055,25.3601,1.62567,1.82,-0.0301054,-1.29315,0.677573,-1.70507,-0.391457,0.185715,0.425974,0.470552,0.637643,0.378445,-1.00062,0.321011,-0.46827,-0.0211892,
0.255006,-0.225395,-0.0830295,-1.74172,0.0469432,-0.196611,-0.383753,0.672922,0.00559194,0.756414,-0.20989,0.714104,-0.112035,0.0106951,0,0,0,0,0,0,0,0.254613,-0.225043,-0.0830144,-1.74041,0.0425951,1.37689,0.401288,0.529915,0.00721202,0.590304,-0.125877,0.390639,0.0180286,0.00048168,-0.424923,-26.7583,0.0644055,25.3601,1.62567,1.82,-0.0301054,-1.30551,0.931646,-0.90629,-0.450356,-0.149772,0.538658,0.555269,0.311474,0.525037,-0.664593,0.413907,-0.429016,-0.0208123,
0.242104,-0.225327,-0.0974064,-1.73759,0.0347209,-0.19485,-0.383997,0.589627,-0.0147878,0.637408,-0.192932,0.444928,-0.0226359,0.0149016,0,0,0,0,0,0,0,0.254613,-0.225043,-0.0830144,-1.74041,0.0425951,1.37689,0.401288,0.529915,0.00721202,0.590304,-0.125877,0.390639,0.0180286,0.00048168,-0.424923,-26.7583,0.0644055,25.3601,1.62567,1.82,-0.0301054,-1.30551,0.931646,-0.90629,-0.450356,-0.149772,0.538658,0.555269,0.311474,0.525037,-0.664593,0.413907,-0.429016,-0.0208123,
0.261766,-0.225153,-0.075098,-1.74263,0.0485421,-0.19408,-0.383944,0.618329,-0.00819679,0.69209,-0.196536,0.550021,-0.0390191,0.0131675,0,0,0,0,0,0,0,0.254613,-0.225043,-0.0830144,-1.74041,0.0425951,1.37689,0.401288,0.529915,0.00721202,0.590304,-0.125877,0.390639,0.0180286,0.00048168,-0.424923,-26.7583,0.0644055,25.3601,1.62567,1.82,-0.0301054,-0.904868,-0.410896,-1.12038,0.406519,0.152428,-0.10189,-0.0531742,0.364654,-0.224996,-0.692338,0.249298,-0.364529,-0.017596,
0.264313,-0.225169,-0.0722375,-1.74343,0.0509566,-0.194314,-0.383895,0.636943,-0.00410884,0.715131,-0.200685,0.603641,-0.0585041,0.0122675,0,0,0,0,0,0,0,0.270773,-0.224824,-0.0643449,-1.74444,0.0538347,1.37735,0.401286,0.496128,0.012791,0.612809,-0.123999,0.40168,0.00456897,-0.000145748,0.995365,-26.8852,1.03639,25.1855,1.38122,2.14501,-0.0163725,-0.904868,-0.410896,-1.12038,0.406519,0.152428,-0.10189,-0.0531742,0.364654,-0.224996,-0.692338,0.249298,-0.364529,-0.017596,
0.266922,-0.225168,-0.0693033,-1.74424,0.053578,-0.194605,-0.383849,0.652162,0.000380394,0.733541,-0.203059,0.65534,-0.0726156,0.0114614,0,0,0,0,0,0,0,0.270773,-0.224824,-0.0643449,-1.74444,0.0538347,1.37735,0.401286,0.496128,0.012791,0.612809,-0.123999,0.40168,0.00456897,-0.000145748,0.995365,-26.8852,1.03639,25.1855,1.38122,2.14501,-0.0163725,-1.61777,-0.342555,-1.35502,0.341838,-0.30945,0.00573247,0.069481,0.157779,-0.110665,-0.700289,0.262115,-0.351478,-0.0179472,
0.26958,-0.225148,-0.06631,-1.74506,0.0563944,-0.194932,-0.383806,0.664389,0.00481188,0.748344,-0.204452,0.704103,-0.0817806,0.0107478,0,0,0,0,0,0,0,0.270773,-0.224824,-0.0643449,-1.74444,0.0538347,1.37735,0.401286,0.496128,0.012791,0.612809,-0.123999,0.40168,0.00456897,-0.000145748,0.995365,-26.8852,1.03639,25.1855,1.38122,2.14501,-0.0163725,-1.61777,-0.342555,-1.35502,0.341838,-0.30945,0.00573247,0.069481,0.157779,-0.110665,-0.700289,0.262115,-0.351478,-0.0179472,
0.272276,-0.225112,-0.0632692,-1.74588,0.0593917,-0.195279,-0.383766,0.674127,0.00899867,0.760193,-0.205183,0.749318,-0.0867232,0.0101132,0,0,0,0,0,0,0,0.270773,-0.224824,-0.0643449,-1.74444,0.0538347,1.37735,0.401286,0.496128,0.012791,0.612809,-0.123999,0.40168,0.00456897,-0.000145748,0.995365,-26.8852,1.03639,25.1855,1.38122,2.14501,-0.0163725,-1.77158,-0.3499,-1.46917,0.397891,-0.343398,0.0121685,0.0395891,0.158453,-0.0860073,-0.749522,0.346594,-0.370727,-0.0177231,
0.275003,-0.225061,-0.0601908,-1.7467,0.0625544,-0.195632,-0.383728,0.681784,0.0128628,0.769597,-0.205403,0.790695,-0.088175,0.00954546,0,0,0,0,0,0,0,0.270773,-0.224824,-0.0643449,-1.74444,0.0538347,1.37735,0.401286,0.496128,0.012791,0.612809,-0.123999,0.40168,0.00456897,-0.000145748,0.995365,-26.8852,1.03639,25.1855,1.38122,2.14501,-0.0163725,-1.77158,-0.3499,-1.46917,0.397891,-0.343398,0.0121685,0.0395891,0.158453,-0.0860073,-0.749522,0.346594,-0.370727,-0.0177231,
0.259292,-0.22512,-0.0778664,-1.74184,0.046342,-0.193924,-0.383997,0.597863,-0.0107003,0.661499,-0.188427,0.495532,-0.0149361,0.0140952,0,0,0,0,0,0,0,0.287623,-0.224217,-0.044826,-1.74823,0.0662222,1.37778,0.401286,0.505713,0.0213936,0.602902,-0.110237,0.407553,0.00811146,-0.00102885,1.57856,-26.5837,1.61165,25.134,1.58905,2.2503,-0.00996382,-1.76052,0.0414446,-1.40523,0.11987,-0.393321,0.20459,0.25174,0.146818,0.119444,-0.697062,0.362009,-0.331196,-0.01941,
0.294663,-0.224223,-0.0369131,-1.75039,0.0722984,-0.193031,-0.383948,0.611394,-0.000734225,0.688541,-0.1929,0.559134,-0.0187339,0.0129509,0,0,0,0,0,0,0,0.287623,-0.224217,-0.044826,-1.74823,0.0662222,1.37778,0.401286,0.505713,0.0213936,0.602902,-0.110237,0.407553,0.00811146,-0.00102885,1.57856,-26.5837,1.61165,25.134,1.58905,2.2503,-0.00996382,-1.33896,-0.0674219,-1.78626,0.124754,0.0310243,0.1182,0.177875,0.426755,0.0130787,-0.847013,0.319149,-0.296836,-0.0202401,
0.297182,-0.224212,-0.0340707,-1.75118,0.0747444,-0.193171,-0.3839,0.629692,0.00275302,0.710617,-0.197312,0.611496,-0.0348872,0.0120315,0,0,0,0,0,0,0,0.287623,-0.224217,-0.044826,-1.74823,0.0662222,1.37778,0.401286,0.505713,0.0213936,0.602902,-0.110237,0.407553,0.00811146,-0.00102885,1.57856,-26.5837,1.61165,25.134,1.58905,2.2503,-0.00996382,-1.33896,-0.0674219,-1.78626,0.124754,0.0310243,0.1182,0.177875,0.426755,0.0130787,-0.847013,0.319149,-0.296836,-0.0202401,
0.29976,-0.224185,-0.0311569,-1.75198,0.0773914,-0.193358,-0.383855,0.644443,0.00669827,0.728447,-0.199684,0.661764,-0.0467967,0.0112174,0,0,0,0,0,0,0,0.287623,-0.224217,-0.044826,-1.74823,0.0662222,1.37778,0.401286,0.505713,0.0213936,0.602902,-0.110237,0.407553,0.00811146,-0.00102885,1.57856,-26.5837,1.61165,25.134,1.58905,2.2503,-0.00996382,-1.33158,0.495337,-2.41844,-0.273665,0.351159,0.364984,0.402412,0.791488,0.296192,-1.14993,0.443817,-0.343584,-0.0222624,
0.302385,-0.224143,-0.0281857,-1.75278,0.0802276,-0.193576,-0.383813,0.656274,0.01059,0.742797,-0.200978,0.709037,-0.0545171,0.0104975,0,0,0,0,0,0,0,0.287623,-0.224217,-0.044826,-1.74823,0.0662222,1.37778,0.401286,0.505713,0.0213936,0.602902,-0.110237,0.407553,0.00811146,-0.00102885,1.57856,-26.5837,1.61165,25.134,1.58905,2.2503,-0.00996382,-1.33158,0.495337,-2.41844,-0.273665,0.351159,0.364984,0.402412,0.791488,0.296192,-1.14993,0.443817,-0.343584,-0.0222624,
0.305048,-0.224086,-0.0251686,-1.75359,0.0832387,-0.19381,-0.383774,0.665681,0.0142336,0.754278,-0.20158,0.752789,-0.0585568,0.00985815,0,0,0,0,0,0,0,0.287623,-0.224217,-0.044826,-1.74823,0.0662222,1.37778,0.401286,0.505713,0.0213936,0.602902,-0.110237,0.407553,0.00811146,-0.00102885,1.57856,-26.5837,1.61165,25.134,1.58905,2.2503,-0.00996382,-1.40158,0.165226,-2.25548,0.0144711,0.262609,0.220185,0.229689,0.675425,0.144337,-1.08487,0.491988,-0.352782,-0.0219371,
0.30774,-0.224016,-0.0221151,-1.7544,0.0864099,-0.194048,-0.383737,0.673058,0.0175565,0.763376,-0.201666,0.79278,-0.0595072,0.00928726,0,0,0,0,0,0,0,0.303953,-0.223613,-0.025838,-1.75156,0.0791036,1.37823,0.401285,0.506837,0.0181934,0.59631,-0.100263,0.377695,0.0201063,-0.00115401,2.08637,-26.8337,1.91316,24.7849,1.04522,2.26403,-0.0026396,-1.2138,-0.591998,-2.10191,0.467157,0.243141,-0.123548,-0.0772369,0.534736,-0.259457,-0.955823,0.336915,-0.28187,-0.0205335,
0.292218,-0.22422,-0.0396673,-1.74962,0.0700619,-0.192956,-0.384,0.588707,-0.00239228,0.661301,-0.18385,0.506014,0.000176332,0.0139366,0,0,0,0,0,0,0,0.303953,-0.223613,-0.025838,-1.75156,0.0791036,1.37823,0.401285,0.506837,0.0181934,0.59631,-0.100263,0.377695,0.0201063,-0.00115401,2.08637,-26.8337,1.91316,24.7849,1.04522,2.26403,-0.0026396,-1.2138,-0.591998,-2.10191,0.467157,0.243141,-0.123548,-0.0772369,0.534736,-0.259457,-0.955823,0.336915,-0.28187,-0.0205335,
0.310904,-0.223645,-0.0179936,-1.75363,0.0850063,-0.192331,-0.383952,0.602939,-0.00228656,0.6816,-0.186115,0.549159,0.00489341,0.0127493,0,0,0,0,0,0,0,0.303953,-0.223613,-0.025838,-1.75156,0.0791036,1.37823,0.401285,0.506837,0.0181934,0.59631,-0.100263,0.377695,0.0201063,-0.00115401,2.08637,-26.8337,1.91316,24.7849,1.04522,2.26403,-0.0026396,-1.11584,0.733156,-2.54229,-0.497895,0.506639,0.462602,0.523285,0.913516,0.39378,-1.16528,0.445494,-0.281498,-0.0229959,
0.313386,-0.223639,-0.0151821,-1.75439,0.0874223,-0.19237,-0.383905,0.620654,0.00160527,0.702888,-0.190796,0.603992,-0.00964471,0.0118354,0,0,0,0,0,0,0,0.303953,-0.223613,-0.025838,-1.75156,0.0791036,1.37823,0.401285,0.506837,0.0181934,0.59631,-0.100263,0.377695,0.0201063,-0.00115401,2.08637,-26.8337,1.91316,24.7849,1.04522,2.26403,-0.0026396,-1.11584,0.733156,-2.54229,-0.497895,0.506639,0.462602,0.523285,0.913516,0.39378,-1.16528,0.445494,-0.281498,-0.0229959,
0.315926,-0.223615,-0.0123014,-1.75517,0.0900457,-0.192452,-0.383861,0.634987,0.00583517,0.720157,-0.19336,0.655842,-0.0204957,0.0110201,0,0,0,0,0,0,0,0.303953,-0.223613,-0.025838,-1.75156,0.0791036,1.37823,0.401285,0.506837,0.0181934,0.59631,-0.100263,0.377695,0.0201063,-0.00115401,2.08637,-26.8337,1.91316,24.7849,1.04522,2.26403,-0.0026396,-1.72162,0.470414,-2.29781,-0.169231,0.0517621,0.417561,0.458079,0.597374,0.332687,-1.06187,0.588966,-0.331147,-0.0212476,
0.318512,-0.223576,-0.00936502,-1.75595,0.0928621,-0.192562,-0.38382,0.646516,0.00991295,0.734106,-0.194805,0.704094,-0.0275747,0.0102968,0,0,0,0,0,0,0,0.320414,-0.222978,-0.00658643,-1.75484,0.0920753,1.37904,0.401288,0.52221,0.0193682,0.596607,-0.0954045,0.368507,0.0429955,-0.00118678,-2.20227,-27.3811,-2.36357,25.3323,1.21002,2.05804,0.00376909,-1.72162,0.470414,-2.29781,-0.169231,0.0517621,0.417561,0.458079,0.597374,0.332687,-1.06187,0.588966,-0.331147,-0.0212476,
0.321135,-0.223521,-0.00638382,-1.75673,0.0958557,-0.192687,-0.383781,0.655705,0.0136656,0.745299,-0.195532,0.748415,-0.0312922,0.00965374,0,0,0,0,0,0,0,0.320414,-0.222978,-0.00658643,-1.75484,0.0920753,1.37904,0.401288,0.52221,0.0193682,0.596607,-0.0954045,0.368507,0.0429955,-0.00118678,-2.20227,-27.3811,-2.36357,25.3323,1.21002,2.05804,0.00376909,-1.73357,0.0865465,-2.52725,0.068607,0.163423,0.24805,0.249255,0.670861,0.169159,-1.1705,0.598839,-0.361017,-0.0209811,
0.323787,-0.223453,-0.00336706,-1.75751,0.0990105,-0.192816,-0.383745,0.662925,0.0170389,0.754191,-0.195726,0.788698,-0.0321667,0.00907959,0,0,0,0,0,0,0,0.320414,-0.222978,-0.00658643,-1.75484,0.0920753,1.37904,0.401288,0.52221,0.0193682,0.596607,-0.0954045,0.368507,0.0429955,-0.00118678,-2.20227,-27.3811,-2.36357,25.3323,1.21002,2.05804,0.00376909,-1.73357,0.0865465,-2.52725,0.068607,0.163423,0.24805,0.249255,0.670861,0.169159,-1.1705,0.598839,-0.361017,-0.0209811,
0.308492,-0.223636,-0.02072,-1.75289,0.0828097,-0.192351,-0.384003,0.581083,-0.00447789,0.655468,-0.176635,0.492243,0.0214115,0.0137042,0,0,0,0,0,0,0,0.320414,-0.222978,-0.00658643,-1.75484,0.0920753,1.37904,0.401288,0.52221,0.0193682,0.596607,-0.0954045,0.368507,0.0429955,-0.00118678,-2.20227,-27.3811,-2.36357,25.3323,1.21002,2.05804,0.00376909,-1.12666,-0.666535,-2.51837,0.429085,0.490434,-0.145468,-0.111771,0.751533,-0.274929,-1.14042,0.369298,-0.296625,-0.0210718,
0.327359,-0.222988,0.00128373,-1.75685,0.0980288,-0.191205,-0.383956,0.600355,-0.000352358,0.681436,-0.181047,0.55635,0.0317947,0.0122551,0,0,0,0,0,0,0,0.320414,-0.222978,-0.00658643,-1.75484,0.0920753,1.37904,0.401288,0.52221,0.0193682,0.596607,-0.0954045,0.368507,0.0429955,-0.00118678,-2.20227,-27.3811,-2.36357,25.3323,1.21002,2.05804,0.00376909,-1.15473,0.184188,-2.26396,-0.144256,0.338798,0.251039,0.311473,0.71041,0.158961,-1.0168,0.403198,-0.251608,-0.0258474,
0.329826,-0.222974,0.00408772,-1.75759,0.100477,-0.191134,-0.38391,0.616679,0.00346511,0.700996,-0.185726,0.612103,0.0178856,0.011389,0,0,0,0,0,0,0,0.320414,-0.222978,-0.00658643,-1.75484,0.0920753,1.37904,0.401288,0.52221,0.0193682,0.596607,-0.0954045,0.368507,0.0429955,-0.00118678,-2.20227,-27.3811,-2.36357,25.3323,1.21002,2.05804,0.00376909,-1.15473,0.184188,-2.26396,-0.144256,0.338798,0.251039,0.311473,0.71041,0.158961,-1.0168,0.403198,-0.251608,-0.0258474,
0.332345,-0.222944,0.00695536,-1.75835,0.103133,-0.191104,-0.383868,0.629912,0.00754945,0.71691,-0.188288,0.664033,0.00736188,0.0106082,0,0,0,0,0,0,0,0.336661,-0.222493,0.0129336,-1.75841,0.105387,1.38058,0.401294,0.500674,0.0123736,0.601384,-0.116758,0.458682,0.0539314,0.00118966,1.04694,-26.5599,0.687269,25.011,2.66388,1.74035,-0.050247,-1.87201,1.62764,-2.50589,-1.05018,0.0511135,0.99083,1.0338,0.806127,0.986242,-1.16319,0.685785,-0.3333,-0.0289135,
0.334908,-0.222898,0.00987449,-1.75911,0.105981,-0.191103,-0.383828,0.640562,0.0114373,0.729785,-0.189729,0.711833,0.000364472,0.00991231,0,0,0,0,0,0,0,0.336661,-0.222493,0.0129336,-1.75841,0.105387,1.38058,0.401294,0.500674,0.0123736,0.601384,-0.116758,0.458682,0.0539314,0.00118966,1.04694,-26.5599,0.687269,25.011,2.66388,1.74035,-0.050247,-1.87201,1.62764,-2.50589,-1.05018,0.0511135,0.99083,1.0338,0.806127,0.986242,-1.16319,0.685785,-0.3333,-0.0289135,
0.337504,-0.222838,0.012835,-1.75987,0.109002,-0.191117,-0.383791,0.649042,0.0149737,0.740117,-0.190452,0.755387,-0.00346675,0.00929259,0,0,0,0,0,0,0,0.336661,-0.222493,0.0129336,-1.75841,0.105387,1.38058,0.401294,0.500674,0.0123736,0.601384,-0.116758,0.458682,0.0539314,0.00118966,1.04694,-26.5599,0.687269,25.011,2.66388,1.74035,-0.050247,-1.62764,-0.0808697,-2.48775,0.144192,0.247824,0.196364,0.212981,0.703139,0.0947166,-1.16949,0.617015,-0.362936,-0.0234058,
0.340126,-0.222766,0.0158282,-1.76063,0.112181,-0.191135,-0.383756,0.655687,0.0181173,0.748306,-0.190645,0.794735,-0.00460503,0.00874179,0,0,0,0,0,0,0,0.336661,-0.222493,0.0129336,-1.75841,0.105387,1.38058,0.401294,0.500674,0.0123736,0.601384,-0.116758,0.458682,0.0539314,0.00118966,1.04694,-26.5599,0.687269,25.011,2.66388,1.74035,-0.050247,-1.6716,-0.356827,-2.25524,0.232448,-0.0138915,0.116799,0.146194,0.47046,0.025118,-0.984577,0.435489,-0.279438,-0.024679,
0.324958,-0.222987,-0.00144201,-1.75613,0.0958034,-0.191332,-0.384005,0.580308,-0.00258287,0.657518,-0.171583,0.497197,0.0473285,0.0131286,0,0,0,0,0,0,0,0.336661,-0.222493,0.0129336,-1.75841,0.105387,1.38058,0.401294,0.500674,0.0123736,0.601384,-0.116758,0.458682,0.0539314,0.00118966,1.04694,-26.5599,0.687269,25.011,2.66388,1.74035,-0.050247,-1.6716,-0.356827,-2.25524,0.232448,-0.0138915,0.116799,0.146194,0.47046,0.025118,-0.984577,0.435489,-0.279438,-0.024679,
0.343532,-0.222479,0.0207392,-1.76044,0.112017,-0.189593,-0.383952,0.594506,0.00274248,0.676256,-0.179306,0.601259,0.0403344,0.0119223,0,0,0,0,0,0,0,0.353087,-0.222009,0.0323765,-1.76203,0.118314,1.38259,0.40129,0.504349,0.0144288,0.614037,-0.120658,0.439292,0.0565136,-0.000527142,1.24927,-26.5083,0.461134,25.1102,1.96808,1.81267,-0.00996382,-0.612755,-0.677842,-2.49588,0.31913,0.802909,-0.199043,-0.144428,0.910966,-0.33667,-1.13722,0.31091,-0.250775,-0.0228373,
0.345975,-0.222453,0.0235226,-1.76117,0.114612,-0.189474,-0.383908,0.61067,0.00650179,0.695845,-0.183042,0.648679,0.0297298,0.0110386,0,0,0,0,0,0,0,0.353087,-0.222009,0.0323765,-1.76203,0.118314,1.38259,0.40129,0.504349,0.0144288,0.614037,-0.120658,0.439292,0.0565136,-0.000527142,1.24927,-26.5083,0.461134,25.1102,1.96808,1.81267,-0.00996382,-0.612755,-0.677842,-2.49588,0.31913,0.802909,-0.199043,-0.144428,0.910966,-0.33667,-1.13722,0.31091,-0.250775,-0.0228373,
0.348469,-0.222412,0.0263691,-1.76191,0.117387,-0.189386,-0.383867,0.623661,0.0103181,0.711635,-0.185113,0.693863,0.0219962,0.0102543,0,0,0,0,0,0,0,0.353087,-0.222009,0.0323765,-1.76203,0.118314,1.38259,0.40129,0.504349,0.0144288,0.614037,-0.120658,0.439292,0.0565136,-0.000527142,1.24927,-26.5083,0.461134,25.1102,1.96808,1.81267,-0.00996382,-1.23136,1.48487,-2.51221,-1.08139,0.485595,0.833755,0.853668,1.04624,0.847586,-1.19538,0.604323,-0.302934,-0.0250083,
0.351005,-0.222357,0.0292662,-1.76265,0.120332,-0.189317,-0.383828,0.634025,0.0138692,0.724286,-0.186247,0.736146,0.0171867,0.00956472,0,0,0,0,0,0,0,0.353087,-0.222009,0.0323765,-1.76203,0.118314,1.38259,0.40129,0.504349,0.0144288,0.614037,-0.120658,0.439292,0.0565136,-0.000527142,1.24927,-26.5083,0.461134,25.1102,1.96808,1.81267,-0.00996382,-1.23136,1.48487,-2.51221,-1.08139,0.485595,0.833755,0.853668,1.04624,0.847586,-1.19538,0.604323,-0.302934,-0.0250083,
0.353575,-0.222288,0.0322042,-1.7634,0.123422,-0.189257,-0.383792,0.642474,0.0170498,0.734481,-0.186639,0.772604,0.0149727,0.00896504,0,0,0,0,0,0,0,0.353087,-0.222009,0.0323765,-1.76203,0.118314,1.38259,0.40129,0.504349,0.0144288,0.614037,-0.120658,0.439292,0.0565136,-0.000527142,1.24927,-26.5083,0.461134,25.1102,1.96808,1.81267,-0.00996382,-1.82711,1.56499,-2.389,-1.05592,0.0651908,0.976339,0.975591,0.821301,1.01014,-1.13208,0.71122,-0.336132,-0.0246914,
0.356176,-0.222209,0.0351765,-1.76414,0.126604,-0.189198,-0.383759,0.65014,0.0198115,0.743093,-0.186148,0.795348,0.0148857,0.00841693,0,0,0,0,0,0,0,0.374363,-0.221464,0.0576275,-1.76666,0.136044,1.38542,0.401294,0.493944,0.0169523,0.627207,-0.110303,0.441364,0.0639663,-0.000364602,0.66608,-26.6075,-0.562425,25.134,1.53412,2.21093,-0.0429228,-1.01044,-1.11815,-1.99418,0.756278,0.37581,-0.303797,-0.266888,0.523503,-0.462577,-0.920828,0.400116,-0.268905,-0.0221853,
0.343532,-0.222479,0.0207392,-1.76044,0.112016,-0.189593,-0.383952,0.594513,0.00274074,0.676262,-0.179308,0.601161,0.040368,0.0119219,0,0,0,0,0,0,0,0.374363,-0.221464,0.0576275,-1.76666,0.136044,1.38542,0.401294,0.493944,0.0169523,0.627207,-0.110303,0.441364,0.0639663,-0.000364602,0.66608,-26.6075,-0.562425,25.134,1.53412,2.21093,-0.0429228,-1.01044,-1.11815,-1.99418,0.756278,0.37581,-0.303797,-0.266888,0.523503,-0.462577,-0.920828,0.400116,-0.268905,-0.0221853,
0.381242,-0.2214,0.0655101,-1.76865,0.142636,-0.18452,-0.38396,0.593106,0.00670192,0.679554,-0.176085,0.602514,0.0632184,0.0113109,0,0,0,0,0,0,0,0.374363,-0.221464,0.0576275,-1.76666,0.136044,1.38542,0.401294,0.493944,0.0169523,0.627207,-0.110303,0.441364,0.0639663,-0.000364602,0.66608,-26.6075,-0.562425,25.134,1.53412,2.21093,-0.0429228,-0.353456,-1.0132,-2.08592,0.605926,0.796756,-0.376878,-0.305853,0.751213,-0.556341,-0.93948,0.313812,-0.191073,-0.0261074,
0.383673,-0.221359,0.0682986,-1.76937,0.145243,-0.184303,-0.383918,0.607678,0.0102173,0.697128,-0.179861,0.651666,0.0541608,0.010502,0,0,0,0,0,0,0,0.374363,-0.221464,0.0576275,-1.76666,0.136044,1.38542,0.401294,0.493944,0.0169523,0.627207,-0.110303,0.441364,0.0639663,-0.000364602,0.66608,-26.6075,-0.562425,25.134,1.53412,2.21093,-0.0429228,-0.353456,-1.0132,-2.08592,0.605926,0.796756,-0.376878,-0.305853,0.751213,-0.556341,-0.93948,0.313812,-0.191073,-0.0261074,
0.386152,-0.221304,0.0711446,-1.77009,0.148022,-0.184114,-0.383879,0.619693,0.0137196,0.711485,-0.181772,0.694884,0.0473477,0.0097854,0,0,0,0,0,0,0,0.374363,-0.221464,0.0576275,-1.76666,0.136044,1.38542,0.401294,0.493944,0.0169523,0.627207,-0.110303,0.441364,0.0639663,-0.000364602,0.66608,-26.6075,-0.562425,25.134,1.53412,2.21093,-0.0429228,-0.745352,0.599979,-2.09508,-0.417337,0.632224,0.368999,0.405995,0.898406,0.301053,-0.990423,0.559599,-0.231044,-0.0289072,
0.388673,-0.221237,0.074039,-1.77082,0.150919,-0.183942,-0.383843,0.630382,0.0168963,0.723604,-0.182263,0.7242,0.0429087,0.00913525,0,0,0,0,0,0,0,0.374363,-0.221464,0.0576275,-1.76666,0.136044,1.38542,0.401294,0.493944,0.0169523,0.627207,-0.110303,0.441364,0.0639663,-0.000364602,0.66608,-26.6075,-0.562425,25.134,1.53412,2.21093,-0.0429228,-0.745352,0.599979,-2.09508,-0.417337,0.632224,0.368999,0.405995,0.898406,0.301053,-0.990423,0.559599,-0.231044,-0.0289072,
0.391231,-0.221158,0.0769747,-1.77155,0.153887,-0.183779,-0.383808,0.639378,0.0195612,0.733928,-0.182001,0.742085,0.0407681,0.00854943,0,0,0,0,0,0,0,0.390418,-0.220877,0.0767841,-1.76997,0.150061,1.3877,0.401295,0.492527,0.024702,0.592647,-0.0978749,0.415752,0.0778032,0.00114354,1.50318,-27.2066,0.286573,25.4315,1.49749,2.19079,-0.050247,-1.37674,0.269572,-1.62747,-0.0319856,0.0423034,0.358273,0.371039,0.44153,0.286141,-0.759125,0.643952,-0.240545,-0.0265976,
0.393817,-0.221072,0.0799445,-1.77228,0.156899,-0.183616,-0.383776,0.64651,0.0216999,0.742443,-0.181391,0.752861,0.0406334,0.00802073,0,0,0,0,0,0,0,0.390418,-0.220877,0.0767841,-1.76997,0.150061,1.3877,0.401295,0.492527,0.024702,0.592647,-0.0978749,0.415752,0.0778032,0.00114354,1.50318,-27.2066,0.286573,25.4315,1.49749,2.19079,-0.050247,-1.35459,-0.0345135,-1.96305,0.0413667,0.0975709,0.242675,0.291465,0.495899,0.143788,-0.845205,0.530851,-0.203661,-0.0243555,
0.381243,-0.2214,0.0655107,-1.76865,0.142625,-0.184517,-0.38396,0.59319,0.00668324,0.679627,-0.176085,0.601286,0.0635302,0.0113053,0,0,0,0,0,0,0,0.390418,-0.220877,0.0767841,-1.76997,0.150061,1.3877,0.401295,0.492527,0.024702,0.592647,-0.0978749,0.415752,0.0778032,0.00114354,1.50318,-27.2066,0.286573,25.4315,1.49749,2.19079,-0.050247,-1.35459,-0.0345135,-1.96305,0.0413667,0.0975709,0.242675,0.291465,0.495899,0.143788,-0.845205,0.530851,-0.203661,-0.0243555,
0.397096,-0.220771,0.0844548,-1.77189,0.156406,-0.181962,-0.38396,0.577139,0.009437,0.663409,-0.171516,0.580855,0.0883701,0.0113022,0,0,0,0,0,0,0,0.390418,-0.220877,0.0767841,-1.76997,0.150061,1.3877,0.401295,0.492527,0.024702,0.592647,-0.0978749,0.415752,0.0778032,0.00114354,1.50318,-27.2066,0.286573,25.4315,1.49749,2.19079,-0.050247,-0.26006,-0.703699,-2.01064,0.428304,0.83597,-0.273966,-0.202807,0.775454,-0.445038,-0.888667,0.399912,-0.147717,-0.0215973,
0.399471,-0.22072,0.0871854,-1.77259,0.158877,-0.181643,-0.383919,0.593828,0.0125312,0.682629,-0.174926,0.617725,0.0796732,0.0104734,0,0,0,0,0,0,0,0.390418,-0.220877,0.0767841,-1.76997,0.150061,1.3877,0.401295,0.492527,0.024702,0.592647,-0.0978749,0.415752,0.0778032,0.00114354,1.50318,-27.2066,0.286573,25.4315,1.49749,2.19079,-0.050247,-0.26006,-0.703699,-2.01064,0.428304,0.83597,-0.273966,-0.202807,0.775454,-0.445038,-0.888667,0.399912,-0.147717,-0.0215973,
0.401903,-0.220658,0.0899809,-1.7733,0.161451,-0.181352,-0.38388,0.607873,0.0155705,0.698892,-0.176326,0.643584,0.0728269,0.0097151,0,0,0,0,0,0,0,0.406001,-0.220314,0.0955855,-1.77299,0.163586,1.38999,0.401293,0.501738,0.0159987,0.589765,-0.0937293,0.409415,0.0803651,-2.89201e-05,0.233646,-27.0598,-1.0385,25.6577,2.29766,1.98571,-0.0301054,-0.63769,0.596261,-2.28157,-0.493106,0.731911,0.336828,0.361852,0.984498,0.285992,-1.02577,0.553674,-0.181235,-0.0250432,
0.40438,-0.220585,0.0928305,-1.774,0.164101,-0.181079,-0.383844,0.61927,0.0181928,0.71239,-0.176845,0.662454,0.0682321,0.00903328,0,0,0,0,0,0,0,0.406001,-0.220314,0.0955855,-1.77299,0.163586,1.38999,0.401293,0.501738,0.0159987,0.589765,-0.0937293,0.409415,0.0803651,-2.89201e-05,0.233646,-27.0598,-1.0385,25.6577,2.29766,1.98571,-0.0301054,-1.6697,0.909518,-2.22997,-0.625619,0.0318238,0.699144,0.693542,0.667869,0.701233,-0.958598,0.696502,-0.214246,-0.0258472,
0.406892,-0.220504,0.0957236,-1.77471,0.166812,-0.180816,-0.38381,0.628141,0.0203468,0.723283,-0.176941,0.677728,0.0657515,0.00847247,0,0,0,0,0,0,0,0.406001,-0.220314,0.0955855,-1.77299,0.163586,1.38999,0.401293,0.501738,0.0159987,0.589765,-0.0937293,0.409415,0.0803651,-2.89201e-05,0.233646,-27.0598,-1.0385,25.6577,2.29766,1.98571,-0.0301054,-1.6697,0.909518,-2.22997,-0.625619,0.0318238,0.699144,0.693542,0.667869,0.701233,-0.958598,0.696502,-0.214246,-0.0258472,
0.412022,-0.220329,0.10163,-1.77612,0.171781,-0.180169,-0.38375,0.640992,0.0232251,0.739319,-0.175885,0.672707,0.0705626,0.00744625,0,0,0,0,0,0,0,0.406001,-0.220314,0.0955855,-1.77299,0.163586,1.38999,0.401293,0.501738,0.0159987,0.589765,-0.0937293,0.409415,0.0803651,-2.89201e-05,0.233646,-27.0598,-1.0385,25.6577,2.29766,1.98571,-0.0301054,-2.57008,0.10947,-2.05019,-0.0695625,-0.737596,0.617959,0.634258,0.122019,0.586308,-0.788777,0.619871,-0.21251,-0.0261833,
0.397105,-0.220772,0.084461,-1.77189,0.156298,-0.181938,-0.383961,0.577988,0.00925896,0.664133,-0.17147,0.568414,0.0911561,0.0112451,0,0,0,0,0,0,0,0.406001,-0.220314,0.0955855,-1.77299,0.163586,1.38999,0.401293,0.501738,0.0159987,0.589765,-0.0937293,0.409415,0.0803651,-2.89201e-05,0.233646,-27.0598,-1.0385,25.6577,2.29766,1.98571,-0.0301054,-2.57008,0.10947,-2.05019,-0.0695625,-0.737596,0.617959,0.634258,0.122019,0.586308,-0.788777,0.619871,-0.21251,-0.0261833,
0.412676,-0.220276,0.103266,-1.77483,0.169655,-0.179538,-0.38397,0.576871,0.00474077,0.663847,-0.164459,0.540259,0.103182,0.0108137,0,0,0,0,0,0,0,0.406001,-0.220314,0.0955855,-1.77299,0.163586,1.38999,0.401293,0.501738,0.0159987,0.589765,-0.0937293,0.409415,0.0803651,-2.89201e-05,0.233646,-27.0598,-1.0385,25.6577,2.29766,1.98571,-0.0301054,-1.53915,-0.35644,-2.12299,0.170418,-0.00416164,0.19765,0.271654,0.444464,0.0749167,-0.872073,0.511707,-0.18803,-0.0248656,
0.415047,-0.220243,0.105997,-1.77551,0.171912,-0.179148,-0.38393,0.592708,0.0082536,0.682644,-0.16795,0.564235,0.0974071,0.0100082,0,0,0,0,0,0,0,0.422568,-0.21945,0.115384,-1.77586,0.176798,1.393,0.401293,0.512615,0.0150196,0.609264,-0.0922246,0.402095,0.0970263,0.000838446,-0.0202602,-26.1354,-1.13768,25.5347,2.42584,1.91887,-0.0365141,-1.53915,-0.35644,-2.12299,0.170418,-0.00416164,0.19765,0.271654,0.444464,0.0749167,-0.872073,0.511707,-0.18803,-0.0248656,
0.417468,-0.220196,0.108788,-1.77619,0.174252,-0.178777,-0.383892,0.605308,0.0115636,0.697961,-0.169821,0.58491,0.0927782,0.00931968,0,0,0,0,0,0,0,0.422568,-0.21945,0.115384,-1.77586,0.176798,1.393,0.401293,0.512615,0.0150196,0.609264,-0.0922246,0.402095,0.0970263,0.000838446,-0.0202602,-26.1354,-1.13768,25.5347,2.42584,1.91887,-0.0365141,-0.546134,0.149315,-2.41744,-0.244196,0.89841,0.138185,0.190383,1.06512,0.0320848,-1.1173,0.583934,-0.218384,-0.0234148,
0.419931,-0.220139,0.11163,-1.77687,0.176652,-0.178418,-0.383858,0.61558,0.0144556,0.710328,-0.170667,0.59999,0.089681,0.0086389,0,0,0,0,0,0,0,0.422568,-0.21945,0.115384,-1.77586,0.176798,1.393,0.401293,0.512615,0.0150196,0.609264,-0.0922246,0.402095,0.0970263,0.000838446,-0.0202602,-26.1354,-1.13768,25.5347,2.42584,1.91887,-0.0365141,-0.961238,-0.116685,-2.82502,-0.181258,0.760216,0.140778,0.156157,1.07371,0.0703089,-1.27999,0.584403,-0.267532,-0.0239568,
0.422424,-0.220071,0.11451,-1.77755,0.179101,-0.178065,-0.383825,0.623372,0.0168407,0.720175,-0.171034,0.612403,0.0882136,0.00811899,0,0,0,0,0,0,0,0.422568,-0.21945,0.115384,-1.77586,0.176798,1.393,0.401293,0.512615,0.0150196,0.609264,-0.0922246,0.402095,0.0970263,0.000838446,-0.0202602,-26.1354,-1.13768,25.5347,2.42584,1.91887,-0.0365141,-0.961238,-0.116685,-2.82502,-0.181258,0.760216,0.140778,0.156157,1.07371,0.0703089,-1.27999,0.584403,-0.267532,-0.0239568,
0.412744,-0.220285,0.103312,-1.77482,0.168818,-0.179409,-0.383974,0.583306,0.00353298,0.669295,-0.163371,0.443888,0.118092,0.0103723,0,0,0,0,0,0,0,0.422568,-0.21945,0.115384,-1.77586,0.176798,1.393,0.401293,0.512615,0.0150196,0.609264,-0.0922246,0.402095,0.0970263,0.000838446,-0.0202602,-26.1354,-1.13768,25.5347,2.42584,1.91887,-0.0365141,-1.52225,-0.728623,-2.54501,0.245574,0.171388,0.0719939,0.0921253,0.613765,-0.00886357,-1.0818,0.481559,-0.242786,-0.0248605,
0.4294,-0.219422,0.12324,-1.77764,0.181723,-0.176195,-0.383982,0.587831,0.0032949,0.677037,-0.158834,0.414291,0.136017,0.00974268,0,0,0,0,0,0,0,0.438565,-0.218638,0.134701,-1.77821,0.189004,1.39607,0.401292,0.493609,0.0266282,0.613674,-0.0735115,0.397985,0.0992243,-0.000210374,1.12232,-26.5837,-0.788561,25.3085,2.09625,1.85937,-0.0227812,-1.52225,-0.728623,-2.54501,0.245574,0.171388,0.0719939,0.0921253,0.613765,-0.00886357,-1.0818,0.481559,-0.242786,-0.0248605,
0.431806,-0.219397,0.126015,-1.77829,0.183392,-0.17566,-0.383946,0.601378,0.00632865,0.693713,-0.162405,0.41734,0.133654,0.00899615,0,0,0,0,0,0,0,0.438565,-0.218638,0.134701,-1.77821,0.189004,1.39607,0.401292,0.493609,0.0266282,0.613674,-0.0735115,0.397985,0.0992243,-0.000210374,1.12232,-26.5837,-0.788561,25.3085,2.09625,1.85937,-0.0227812,-0.902402,0.0680259,-2.44234,-0.298709,0.600813,0.22859,0.30497,0.934999,0.128606,-1.10084,0.510834,-0.225737,-0.0245263,
0.434253,-0.21936,0.128842,-1.77895,0.185077,-0.175134,-0.383913,0.611698,0.00924826,0.706873,-0.164389,0.421181,0.131515,0.00840706,0,0,0,0,0,0,0,0.438565,-0.218638,0.134701,-1.77821,0.189004,1.39607,0.401292,0.493609,0.0266282,0.613674,-0.0735115,0.397985,0.0992243,-0.000210374,1.12232,-26.5837,-0.788561,25.3085,2.09625,1.85937,-0.0227812,-0.902402,0.0680259,-2.44234,-0.298709,0.600813,0.22859,0.30497,0.934999,0.128606,-1.10084,0.510834,-0.225737,-0.0245263,
0.436733,-0.219313,0.131712,-1.77961,0.186754,-0.174613,-0.383881,0.620149,0.0118573,0.717297,-0.165163,0.419344,0.13016,0.00787726,0,0,0,0,0,0,0,0.438565,-0.218638,0.134701,-1.77821,0.189004,1.39607,0.401292,0.493609,0.0266282,0.613674,-0.0735115,0.397985,0.0992243,-0.000210374,1.12232,-26.5837,-0.788561,25.3085,2.09625,1.85937,-0.0227812,-0.813693,1.41825,-3.1167,-1.40541,0.975432,0.718714,0.775123,1.52975,0.718952,-1.45416,0.625387,-0.27721,-0.0271302,
0.439239,-0.219257,0.134613,-1.78027,0.188413,-0.174094,-0.383851,0.626485,0.013996,0.725454,-0.165397,0.414637,0.129897,0.00740159,0,0,0,0,0,0,0,0.438565,-0.218638,0.134701,-1.77821,0.189004,1.39607,0.401292,0.493609,0.0266282,0.613674,-0.0735115,0.397985,0.0992243,-0.000210374,1.12232,-26.5837,-0.788561,25.3085,2.09625,1.85937,-0.0227812,-0.682439,-0.00959273,-2.89903,-0.396137,0.969494,0.13544,0.162716,1.25202,0.0738603,-1.35581,0.538226,-0.287488,-0.0244575,
0.441763,-0.219194,0.13754,-1.78093,0.190046,-0.173571,-0.383824,0.630997,0.0156942,0.731584,-0.165295,0.408226,0.13069,0.00697782,0,0,0,0,0,0,0,0.438565,-0.218638,0.134701,-1.77821,0.189004,1.39607,0.401292,0.493609,0.0266282,0.613674,-0.0735115,0.397985,0.0992243,-0.000210374,1.12232,-26.5837,-0.788561,25.3085,2.09625,1.85937,-0.0227812,-0.682439,-0.00959273,-2.89903,-0.396137,0.969494,0.13544,0.162716,1.25202,0.0738603,-1.35581,0.538226,-0.287488,-0.0244575,
0.429636,-0.219445,0.123398,-1.77757,0.178646,-0.175944,-0.383998,0.609722,-0.000135258,0.695478,-0.152501,0.0639407,0.165029,0.00846968,0,0,0,0,0,0,0,0.453088,-0.218155,0.152071,-1.78022,0.197927,1.39922,0.401295,0.504983,0.0248777,0.598209,-0.0595291,0.262354,0.113472,0.000455438,-0.476498,-27.1828,-2.11363,24.9118,0.948178,2.03881,-0.050247,-1.79826,-1.75225,-2.15341,0.911648,-0.241062,-0.169532,-0.129005,0.176944,-0.297286,-0.889575,0.337599,-0.25222,-0.0240696,
0.459979,-0.218139,0.159939,-1.78178,0.198592,-0.169337,-0.383993,0.594281,-0.000549229,0.682345,-0.144945,-0.0218172,0.197466,0.00876155,0,0,0,0,0,0,0,0.453088,-0.218155,0.152071,-1.78022,0.197927,1.39922,0.401295,0.504983,0.0248777,0.598209,-0.0595291,0.262354,0.113472,0.000455438,-0.476498,-27.1828,-2.11363,24.9118,0.948178,2.03881,-0.050247,-1.79826,-1.75225,-2.15341,0.911648,-0.241062,-0.169532,-0.129005,0.176944,-0.297286,-0.889575,0.337599,-0.25222,-0.0240696,
0.46241,-0.218134,0.162741,-1.78239,0.198279,-0.168544,-0.38396,0.607711,0.00104027,0.700479,-0.150306,-0.0781434,0.198279,0.00818503,0,0,0,0,0,0,0,0.453088,-0.218155,0.152071,-1.78022,0.197927,1.39922,0.401295,0.504983,0.0248777,0.598209,-0.0595291,0.262354,0.113472,0.000455438,-0.476498,-27.1828,-2.11363,24.9118,0.948178,2.03881,-0.050247,-1.67814,-0.834726,-2.24501,0.21729,-0.122685,0.156311,0.203779,0.418963,0.082071,-0.956761,0.359691,-0.250387,-0.0226211,
0.464879,-0.218122,0.165597,-1.783,0.197787,-0.167756,-0.38393,0.61731,0.00301415,0.713857,-0.153554,-0.123107,0.196962,0.00767087,0,0,0,0,0,0,0,0.453088,-0.218155,0.152071,-1.78022,0.197927,1.39922,0.401295,0.504983,0.0248777,0.598209,-0.0595291,0.262354,0.113472,0.000455438,-0.476498,-27.1828,-2.11363,24.9118,0.948178,2.03881,-0.050247,-1.67814,-0.834726,-2.24501,0.21729,-0.122685,0.156311,0.203779,0.418963,0.082071,-0.956761,0.359691,-0.250387,-0.0226211,
0.467375,-0.218103,0.16849,-1.78362,0.197151,-0.166976,-0.383901,0.623863,0.00493425,0.723422,-0.155717,-0.158999,0.195015,0.00722701,0,0,0,0,0,0,0,0.453088,-0.218155,0.152071,-1.78022,0.197927,1.39922,0.401295,0.504983,0.0248777,0.598209,-0.0595291,0.262354,0.113472,0.000455438,-0.476498,-27.1828,-2.11363,24.9118,0.948178,2.03881,-0.050247,-2.85693,1.87127,-2.82043,-1.74983,-0.635421,1.50406,1.51861,0.793078,1.64202,-1.21707,0.638756,-0.317771,-0.0252786,
