PerkyPenguin/Analysis-on-Approximated-Derivatives/Code_and_Data/PaperData/Real_Robot/Scene_1/contact_change/1/trajectory.csv
Commanded Joint 0 Position,Commanded Joint 1 Position,Commanded Joint 2 Position,Commanded Joint 3 Position,Commanded Joint 4 Position,Commanded Joint 5 Position,Commanded Joint 6 Position,Commanded Joint 0 Velocity,Commanded Joint 1 Velocity,Commanded Joint 2 Velocity,Commanded Joint 3 Velocity,Commanded Joint 4 Velocity,Commanded Joint 5 Velocity,Commanded Joint 6 Velocity,Commanded Joint 0 Torque,Commanded Joint 1 Torque,Commanded Joint 2 Torque,Commanded Joint 3 Torque,Commanded Joint 4 Torque,Commanded Joint 5 Torque,Commanded Joint 6 Torque,Actual Joint 0 Position,Actual Joint 1 Position,Actual Joint 2 Position,Actual Joint 3 Position,Actual Joint 4 Position,Actual Joint 5 Position,Actual Joint 6 Position,Actual Joint 0 Velocity,Actual Joint 1 Velocity,Actual Joint 2 Velocity,Actual Joint 3 Velocity,Actual Joint 4 Velocity,Actual Joint 5 Velocity,Actual Joint 6 Velocity,Actual Joint 0 Torque,Actual Joint 1 Torque,Actual Joint 2 Torque,Actual Joint 3 Torque,Actual Joint 4 Torque,Actual Joint 5 Torque,Actual Joint 6 Torque,EE ext force 0,EE ext force 1,EE ext force 2,EE ext force 3,EE ext force 4,EE ext force 5,joint ext torque 0,joint ext torque 1,joint ext torque 2,joint ext torque 3,joint ext torque 4,joint ext torque 5,joint ext torque 6,
0.012201,-0.194598,-0.332961,-1.6609,-0.0934524,-0.0908984,-0.384061,-0.00274064,0.016054,-0.012704,-0.150143,0.00779717,0.200323,-0.00212191,0,0,0,0,0,0,0,0.0122274,-0.194603,-0.332849,-1.6594,-0.0935932,1.4779,0.401358,-0.00140544,0.000951936,0.00141487,-0.00019802,-0.00344072,-0.000309713,-0.00113781,-0.0956386,-25.7863,1.7386,26.0306,0.745846,2.94701,-0.0163725,-1.35893,0.0397366,-0.436282,0.073073,-0.562901,-0.172005,-0.0739237,-0.117803,-0.268621,-0.32609,-0.0835076,-0.327435,-0.0459019,
0.0121854,-0.194459,-0.333023,-1.66153,-0.0934271,-0.0900686,-0.384069,-0.00390132,0.0347147,-0.0154616,-0.159352,0.00633393,0.207466,-0.00202502,0,0,0,0,0,0,0,0.0122274,-0.194603,-0.332849,-1.6594,-0.0935932,1.4779,0.401358,-0.00140544,0.000951936,0.00141487,-0.00019802,-0.00344072,-0.000309713,-0.00113781,-0.0956386,-25.7863,1.7386,26.0306,0.745846,2.94701,-0.0163725,-1.31926,0.00311778,-0.487712,0.105727,-0.513302,-0.180818,-0.0829085,-0.0816502,-0.281162,-0.349247,-0.0868253,-0.326165,-0.0464743,
0.0122271,-0.194594,-0.332849,-1.65941,-0.0936275,-0.092897,-0.38404,-3.8011e-05,0.000426012,-6.12249e-05,-0.000224358,-0.00148533,-0.000205515,-2.98666e-06,0,0,0,0,0,0,0,0.012231,-0.194605,-0.332852,-1.6594,-0.0935759,1.4779,0.401366,0.000914649,0.00103335,0.00144441,-0.000355079,-0.00840352,-0.000108962,0.0016332,-0.147213,-25.7625,1.78621,25.9552,0.642391,2.94701,-0.083206,-1.32238,0.0468629,-0.360835,0.0569146,-0.571095,-0.161538,-0.0686826,-0.137663,-0.251226,-0.294318,-0.078982,-0.319244,-0.0473565,
0.0122269,-0.194592,-0.332849,-1.65941,-0.0936324,-0.0928978,-0.38404,-4.48004e-05,0.000349334,-7.66422e-05,-0.000198449,-0.00120708,-0.000217902,-1.66855e-06,0,0,0,0,0,0,0,0.012231,-0.194605,-0.332852,-1.6594,-0.0935759,1.4779,0.401366,0.000914649,0.00103335,0.00144441,-0.000355079,-0.00840352,-0.000108962,0.0016332,-0.147213,-25.7625,1.78621,25.9552,0.642391,2.94701,-0.083206,-1.32238,0.0468629,-0.360835,0.0569146,-0.571095,-0.161538,-0.0686826,-0.137663,-0.251226,-0.294318,-0.078982,-0.319244,-0.0473565,
0.0122267,-0.194591,-0.332849,-1.65941,-0.0936363,-0.0928987,-0.38404,-4.68215e-05,0.000280768,-8.44223e-05,-0.000172426,-0.000990939,-0.000230542,-7.50733e-07,0,0,0,0,0,0,0,0.012231,-0.194605,-0.332852,-1.6594,-0.0935759,1.4779,0.401366,0.000914649,0.00103335,0.00144441,-0.000355079,-0.00840352,-0.000108962,0.0016332,-0.147213,-25.7625,1.78621,25.9552,0.642391,2.94701,-0.083206,-1.79295,0.263928,-0.686105,-0.0754126,-0.833543,-0.144463,-0.0474839,-0.242871,-0.226109,-0.336532,-0.085397,-0.298733,-0.0477704,
0.0122265,-0.19459,-0.33285,-1.65941,-0.0936396,-0.0928997,-0.38404,-4.58418e-05,0.000219419,-8.72483e-05,-0.00014755,-0.00082138,-0.000241892,-1.17121e-07,0,0,0,0,0,0,0,0.012231,-0.194605,-0.332852,-1.6594,-0.0935759,1.4779,0.401366,0.000914649,0.00103335,0.00144441,-0.000355079,-0.00840352,-0.000108962,0.0016332,-0.147213,-25.7625,1.78621,25.9552,0.642391,2.94701,-0.083206,-1.79295,0.263928,-0.686105,-0.0754126,-0.833543,-0.144463,-0.0474839,-0.242871,-0.226109,-0.336532,-0.085397,-0.298733,-0.0477704,
0.0122263,-0.19459,-0.33285,-1.65941,-0.0936423,-0.0929007,-0.38404,-4.30852e-05,0.000164609,-8.69635e-05,-0.000124323,-0.000687023,-0.000251432,3.15633e-07,0,0,0,0,0,0,0,0.012231,-0.194605,-0.332852,-1.6594,-0.0935759,1.4779,0.401366,0.000914649,0.00103335,0.00144441,-0.000355079,-0.00840352,-0.000108962,0.0016332,-0.147213,-25.7625,1.78621,25.9552,0.642391,2.94701,-0.083206,-3.00736,0.485198,-1.2952,-0.155777,-1.55001,-0.258476,-0.157254,-0.55492,-0.339626,-0.415766,-0.0877532,-0.300626,-0.0473033,
0.0122262,-0.194589,-0.33285,-1.65941,-0.0936447,-0.0929018,-0.38404,-3.93758e-05,0.000115731,-8.48194e-05,-0.00010292,-0.000579499,-0.000259092,6.08725e-07,0,0,0,0,0,0,0,0.0122274,-0.194603,-0.332849,-1.65972,-0.0935647,1.4785,0.401365,-0.00111005,-0.000981088,-0.00101925,0.00728753,0.00731402,-0.00369116,0.00158578,-0.0956386,-25.8339,1.78621,26.1298,0.526119,3.19237,-0.0767973,-1.84422,0.0758071,-1.62628,0.202382,-0.554722,-0.233935,-0.133895,0.0503487,-0.358748,-0.653535,-0.0867081,-0.268978,-0.0487784,
0.0121032,-0.194539,-0.332943,-1.65928,-0.0920593,-0.0938805,-0.384039,-0.011764,0.00445644,-0.0105318,0.0099688,0.175865,-0.111657,0.000375639,0,0,0,0,0,0,0,0.0122274,-0.194603,-0.332849,-1.65972,-0.0935647,1.4785,0.401365,-0.00111005,-0.000981088,-0.00101925,0.00728753,0.00731402,-0.00369116,0.00158578,-0.0956386,-25.8339,1.78621,26.1298,0.526119,3.19237,-0.0767973,-1.84422,0.0758071,-1.62628,0.202382,-0.554722,-0.233935,-0.133895,0.0503487,-0.358748,-0.653535,-0.0867081,-0.268978,-0.0487784,
0.0120999,-0.194578,-0.332948,-1.65956,-0.091976,-0.0932616,-0.384031,-0.0118621,0.00136501,-0.0106268,0.0117158,0.178298,-0.108539,0.000391955,0,0,0,0,0,0,0,0.0122274,-0.194603,-0.332849,-1.65972,-0.0935647,1.4785,0.401365,-0.00111005,-0.000981088,-0.00101925,0.00728753,0.00731402,-0.00369116,0.00158578,-0.0956386,-25.8339,1.78621,26.1298,0.526119,3.19237,-0.0767973,-1.33306,-0.0179663,-1.43097,0.244939,-0.261267,-0.184339,-0.0846274,0.173388,-0.312234,-0.61371,-0.077022,-0.238733,-0.0495984,
0.012053,-0.194578,-0.332993,-1.65952,-0.0911364,-0.0937809,-0.384029,-0.0117186,0.000217841,-0.0112256,0.00979294,0.209897,-0.12984,0.000516558,0,0,0,0,0,0,0,0.0122274,-0.194603,-0.332849,-1.65972,-0.0935647,1.4785,0.401365,-0.00111005,-0.000981088,-0.00101925,0.00728753,0.00731402,-0.00369116,0.00158578,-0.0956386,-25.8339,1.78621,26.1298,0.526119,3.19237,-0.0767973,-1.33306,-0.0179663,-1.43097,0.244939,-0.261267,-0.184339,-0.0846274,0.173388,-0.312234,-0.61371,-0.077022,-0.238733,-0.0495984,
0.0120087,-0.194581,-0.333037,-1.65949,-0.0901995,-0.0943705,-0.384027,-0.0110735,-0.000775979,-0.0110609,0.00803184,0.234241,-0.147398,0.00058611,0,0,0,0,0,0,0,0.0122274,-0.194603,-0.332849,-1.65972,-0.0935647,1.4785,0.401365,-0.00111005,-0.000981088,-0.00101925,0.00728753,0.00731402,-0.00369116,0.00158578,-0.0956386,-25.8339,1.78621,26.1298,0.526119,3.19237,-0.0767973,-1.44849,0.101818,-1.14154,0.108869,-0.472569,-0.15131,-0.0520332,0.00171371,-0.260494,-0.47648,-0.0714929,-0.22468,-0.0493068,
0.0119682,-0.194587,-0.333079,-1.65947,-0.0891869,-0.095018,-0.384024,-0.0101437,-0.00155626,-0.010428,0.00651858,0.253136,-0.161877,0.00062106,0,0,0,0,0,0,0,0.0122274,-0.194603,-0.332849,-1.65972,-0.0935647,1.4785,0.401365,-0.00111005,-0.000981088,-0.00101925,0.00728753,0.00731402,-0.00369116,0.00158578,-0.0956386,-25.8339,1.78621,26.1298,0.526119,3.19237,-0.0767973,-1.65544,0.0331074,-1.11568,0.152909,-0.623671,-0.22066,-0.117156,-0.0810051,-0.335919,-0.458588,-0.0846246,-0.241545,-0.0477967,
0.0119319,-0.194595,-0.333117,-1.65944,-0.0881154,-0.0957131,-0.384022,-0.00906822,-0.00212948,-0.00952382,0.00524216,0.26789,-0.173772,0.000633751,0,0,0,0,0,0,0,0.012194,-0.194552,-0.332874,-1.65965,-0.0930006,1.47853,0.401364,-0.0035855,0.00296825,-0.000377586,0.00120027,0.0416592,0.0029206,0.00114689,0.233646,-26.31,2.01234,25.9076,1.22833,2.82067,-0.0703886,-1.65544,0.0331074,-1.11568,0.152909,-0.623671,-0.22066,-0.117156,-0.0810051,-0.335919,-0.458588,-0.0846246,-0.241545,-0.0477967,
0.0119001,-0.194605,-0.333151,-1.65943,-0.0869975,-0.0964471,-0.384019,-0.007937,-0.00252256,-0.00847922,0.00416858,0.27946,-0.183486,0.000632053,0,0,0,0,0,0,0,0.012194,-0.194552,-0.332874,-1.65965,-0.0930006,1.47853,0.401364,-0.0035855,0.00296825,-0.000377586,0.00120027,0.0416592,0.0029206,0.00114689,0.233646,-26.31,2.01234,25.9076,1.22833,2.82067,-0.0703886,-1.68688,-0.0186095,-1.00067,0.2575,-0.697996,-0.249762,-0.141666,-0.146212,-0.385014,-0.430431,-0.00647538,-0.260691,-0.0475702,
0.0119294,-0.194482,-0.33306,-1.65924,-0.0889535,-0.0960931,-0.384001,-0.0270714,0.00630353,-0.0224633,0.036775,0.525262,-0.424528,0.00331331,0,0,0,0,0,0,0,0.012194,-0.194552,-0.332874,-1.65965,-0.0930006,1.47853,0.401364,-0.0035855,0.00296825,-0.000377586,0.00120027,0.0416592,0.0029206,0.00114689,0.233646,-26.31,2.01234,25.9076,1.22833,2.82067,-0.0703886,-1.68688,-0.0186095,-1.00067,0.2575,-0.697996,-0.249762,-0.141666,-0.146212,-0.385014,-0.430431,-0.00647538,-0.260691,-0.0475702,
0.0119046,-0.194393,-0.333083,-1.65924,-0.0881362,-0.0958183,-0.384005,-0.0260788,0.00934107,-0.0219287,0.0324838,0.541641,-0.400393,0.00314817,0,0,0,0,0,0,0,0.012194,-0.194552,-0.332874,-1.65965,-0.0930006,1.47853,0.401364,-0.0035855,0.00296825,-0.000377586,0.00120027,0.0416592,0.0029206,0.00114689,0.233646,-26.31,2.01234,25.9076,1.22833,2.82067,-0.0703886,-1.6652,-0.0151108,-0.494735,0.272711,-0.874714,-0.245567,-0.135048,-0.330577,-0.385661,-0.266579,0.083685,-0.284254,-0.0474726,
0.0118063,-0.194377,-0.333172,-1.65913,-0.0855818,-0.0977138,-0.383991,-0.0245764,0.00418086,-0.0221117,0.026012,0.638597,-0.473882,0.0034647,0,0,0,0,0,0,0,0.012194,-0.194552,-0.332874,-1.65965,-0.0930006,1.47853,0.401364,-0.0035855,0.00296825,-0.000377586,0.00120027,0.0416592,0.0029206,0.00114689,0.233646,-26.31,2.01234,25.9076,1.22833,2.82067,-0.0703886,-1.6652,-0.0151108,-0.494735,0.272711,-0.874714,-0.245567,-0.135048,-0.330577,-0.385661,-0.266579,0.083685,-0.284254,-0.0474726,
0.0117186,-0.194377,-0.333254,-1.65905,-0.0827203,-0.0998417,-0.383977,-0.0219129,-8.86899e-05,-0.0205499,0.019811,0.715386,-0.531961,0.00363349,0,0,0,0,0,0,0,0.0121423,-0.194542,-0.332941,-1.65957,-0.0900307,1.47837,0.401357,-0.000967041,0.00239528,-0.00119304,0.00866071,0.144654,-0.0151676,-0.000841973,0.412174,-26.0085,2.1631,26.1298,1.76025,2.45629,-0.0026396,-1.42995,-0.174484,-0.73555,0.478022,-0.589873,-0.276772,-0.164572,-0.126016,-0.447357,-0.413201,0.121458,-0.311458,-0.0461117,
0.0116441,-0.19439,-0.333326,-1.659,-0.079613,-0.102153,-0.383962,-0.0186363,-0.00331757,-0.0179533,0.0143926,0.776827,-0.577871,0.00371365,0,0,0,0,0,0,0,0.0121423,-0.194542,-0.332941,-1.65957,-0.0900307,1.47837,0.401357,-0.000967041,0.00239528,-0.00119304,0.00866071,0.144654,-0.0151676,-0.000841973,0.412174,-26.0085,2.1631,26.1298,1.76025,2.45629,-0.0026396,-1.55638,-0.399731,-0.459209,0.669169,-0.761347,-0.402659,-0.287829,-0.256954,-0.595143,-0.341675,0.164082,-0.357659,-0.0454839,
0.0115837,-0.194413,-0.333385,-1.65896,-0.0763073,-0.104609,-0.383947,-0.0150847,-0.00560665,-0.0147883,0.0097978,0.826433,-0.613916,0.00373734,0,0,0,0,0,0,0,0.0121423,-0.194542,-0.332941,-1.65957,-0.0900307,1.47837,0.401357,-0.000967041,0.00239528,-0.00119304,0.00866071,0.144654,-0.0151676,-0.000841973,0.412174,-26.0085,2.1631,26.1298,1.76025,2.45629,-0.0026396,-1.55638,-0.399731,-0.459209,0.669169,-0.761347,-0.402659,-0.287829,-0.256954,-0.595143,-0.341675,0.164082,-0.357659,-0.0454839,
0.0115378,-0.194441,-0.33343,-1.65893,-0.07284,-0.107176,-0.383932,-0.0114717,-0.00711756,-0.0113618,0.00593728,0.866808,-0.64189,0.00372402,0,0,0,0,0,0,0,0.0121423,-0.194542,-0.332941,-1.65957,-0.0900307,1.47837,0.401357,-0.000967041,0.00239528,-0.00119304,0.00866071,0.144654,-0.0151676,-0.000841973,0.412174,-26.0085,2.1631,26.1298,1.76025,2.45629,-0.0026396,-0.751413,-0.38129,0.382396,0.671354,-0.435949,-0.250167,-0.139023,-0.199557,-0.444202,-0.180096,0.298336,-0.412879,-0.0485133,
0.0127926,-0.194647,-0.332166,-1.65953,-0.0897947,-0.0977296,-0.383888,0.0726468,-0.0151723,0.0850688,0.00298979,0.368396,-0.631578,0.0120994,0,0,0,0,0,0,0,0.0121423,-0.194542,-0.332941,-1.65957,-0.0900307,1.47837,0.401357,-0.000967041,0.00239528,-0.00119304,0.00866071,0.144654,-0.0151676,-0.000841973,0.412174,-26.0085,2.1631,26.1298,1.76025,2.45629,-0.0026396,-0.751413,-0.38129,0.382396,0.671354,-0.435949,-0.250167,-0.139023,-0.199557,-0.444202,-0.180096,0.298336,-0.412879,-0.0485133,
0.0127809,-0.194677,-0.332204,-1.65944,-0.0860182,-0.0979761,-0.383892,0.0761961,-0.0184332,0.0880475,0.00277037,0.422221,-0.636795,0.0124027,0,0,0,0,0,0,0,0.0121423,-0.194542,-0.332941,-1.65957,-0.0900307,1.47837,0.401357,-0.000967041,0.00239528,-0.00119304,0.00866071,0.144654,-0.0151676,-0.000841973,0.412174,-26.0085,2.1631,26.1298,1.76025,2.45629,-0.0026396,-0.354634,-0.057721,0.636926,0.588162,-0.183842,-0.0314792,0.0858249,-0.080268,-0.239816,-0.230529,0.483839,-0.513779,-0.0496745,
0.0131606,-0.194768,-0.331767,-1.65947,-0.0840168,-0.101047,-0.383844,0.0949491,-0.0228522,0.109193,-0.00670822,0.500367,-0.767616,0.0120051,0,0,0,0,0,0,0,0.0118409,-0.194502,-0.333325,-1.65931,-0.0806236,1.47647,0.401363,-0.0183908,-0.00068834,-0.0174959,0.00646586,0.384635,-0.0905708,0.000328229,1.07074,-25.8339,2.68678,25.6815,2.02301,1.94543,-0.050247,-0.354634,-0.057721,0.636926,0.588162,-0.183842,-0.0314792,0.0858249,-0.080268,-0.239816,-0.230529,0.483839,-0.513779,-0.0496745,
0.0136052,-0.194869,-0.331258,-1.65953,-0.0817322,-0.104545,-0.383798,0.111127,-0.025182,0.127201,-0.0156586,0.571128,-0.874553,0.0116343,0,0,0,0,0,0,0,0.0118409,-0.194502,-0.333325,-1.65931,-0.0806236,1.47647,0.401363,-0.0183908,-0.00068834,-0.0174959,0.00646586,0.384635,-0.0905708,0.000328229,1.07074,-25.8339,2.68678,25.6815,2.02301,1.94543,-0.050247,-0.472683,-0.139382,0.713042,0.825962,-0.202506,-0.0895321,0.0481549,-0.0633112,-0.354749,-0.341998,0.622829,-0.669109,-0.0468706,
0.0141057,-0.194972,-0.330687,-1.65963,-0.0791934,-0.108394,-0.383752,0.12514,-0.02583,0.14264,-0.0237774,0.634699,-0.96222,0.0112943,0,0,0,0,0,0,0,0.0118409,-0.194502,-0.333325,-1.65931,-0.0806236,1.47647,0.401363,-0.0183908,-0.00068834,-0.0174959,0.00646586,0.384635,-0.0905708,0.000328229,1.07074,-25.8339,2.68678,25.6815,2.02301,1.94543,-0.050247,-0.472683,-0.139382,0.713042,0.825962,-0.202506,-0.0895321,0.0481549,-0.0633112,-0.354749,-0.341998,0.622829,-0.669109,-0.0468706,
0.014655,-0.195073,-0.330064,-1.65975,-0.0764276,-0.11253,-0.383708,0.137322,-0.0252042,0.155954,-0.0310152,0.691461,-1.03418,0.0109804,0,0,0,0,0,0,0,0.0118409,-0.194502,-0.333325,-1.65931,-0.0806236,1.47647,0.401363,-0.0183908,-0.00068834,-0.0174959,0.00646586,0.384635,-0.0905708,0.000328229,1.07074,-25.8339,2.68678,25.6815,2.02301,1.94543,-0.050247,-0.92755,0.0211644,0.979513,0.742922,-0.566981,-0.10585,0.0512255,-0.277357,-0.3811,-0.292803,0.668422,-0.777829,-0.0362068,
0.0135074,-0.195045,-0.331467,-1.66001,-0.0873574,-0.0977264,-0.383863,0.156513,-0.0530946,0.173431,-0.0508811,0.28335,-0.618988,0.0145456,0,0,0,0,0,0,0,0.0118409,-0.194502,-0.333325,-1.65931,-0.0806236,1.47647,0.401363,-0.0183908,-0.00068834,-0.0174959,0.00646586,0.384635,-0.0905708,0.000328229,1.07074,-25.8339,2.68678,25.6815,2.02301,1.94543,-0.050247,-0.806544,0.201476,1.31568,0.501729,-0.523208,-0.0104978,0.119925,-0.270035,-0.230124,-0.234185,0.603121,-0.831148,-0.0313867,
0.0131572,-0.195074,-0.331948,-1.65982,-0.0762098,-0.100207,-0.383831,0.155107,-0.058372,0.169056,-0.0559435,0.393952,-0.658368,0.0159434,0,0,0,0,0,0,0,0.0118861,-0.19463,-0.333174,-1.65907,-0.0713183,1.47259,0.401363,0.00450825,-0.00722899,0.0152867,4.92612e-05,0.270872,-0.168969,6.08352e-05,1.88404,-25.211,4.16261,25.134,1.46728,1.6607,-0.0163725,-0.806544,0.201476,1.31568,0.501729,-0.523208,-0.0104978,0.119925,-0.270035,-0.230124,-0.234185,0.603121,-0.831148,-0.0313867,
0.0139126,-0.195319,-0.331112,-1.66009,-0.0744421,-0.103353,-0.383772,0.188865,-0.0614698,0.208945,-0.0652466,0.441932,-0.78663,0.0149226,0,0,0,0,0,0,0,0.0118861,-0.19463,-0.333174,-1.65907,-0.0713183,1.47259,0.401363,0.00450825,-0.00722899,0.0152867,4.92612e-05,0.270872,-0.168969,6.08352e-05,1.88404,-25.211,4.16261,25.134,1.46728,1.6607,-0.0163725,-0.551663,0.764154,1.59658,0.0192021,-0.364217,0.283367,0.373512,-0.189822,0.149136,-0.215164,0.59146,-0.890489,-0.0296548,
0.0147791,-0.195565,-0.330147,-1.66038,-0.0724563,-0.106916,-0.383715,0.216624,-0.0615193,0.241251,-0.0734793,0.496447,-0.890837,0.0141085,0,0,0,0,0,0,0,0.0118861,-0.19463,-0.333174,-1.65907,-0.0713183,1.47259,0.401363,0.00450825,-0.00722899,0.0152867,4.92612e-05,0.270872,-0.168969,6.08352e-05,1.88404,-25.211,4.16261,25.134,1.46728,1.6607,-0.0163725,-0.551663,0.764154,1.59658,0.0192021,-0.364217,0.283367,0.373512,-0.189822,0.149136,-0.215164,0.59146,-0.890489,-0.0296548,
0.015738,-0.195804,-0.329076,-1.6607,-0.0702444,-0.110818,-0.383662,0.239719,-0.0595769,0.267744,-0.0809391,0.552983,-0.975418,0.0134416,0,0,0,0,0,0,0,0.0118861,-0.19463,-0.333174,-1.65907,-0.0713183,1.47259,0.401363,0.00450825,-0.00722899,0.0152867,4.92612e-05,0.270872,-0.168969,6.08352e-05,1.88404,-25.211,4.16261,25.134,1.46728,1.6607,-0.0163725,-0.943988,1.63859,0.966657,-0.429956,-0.315423,0.60643,0.691272,-0.00819836,0.500916,-0.550879,0.688429,-1.04765,-0.0271775,
0.0167744,-0.196029,-0.327918,-1.66105,-0.0678095,-0.114994,-0.38361,0.259111,-0.0563324,0.289708,-0.0876958,0.608714,-1.04409,0.0128815,0,0,0,0,0,0,0,0.0118861,-0.19463,-0.333174,-1.65907,-0.0713183,1.47259,0.401363,0.00450825,-0.00722899,0.0152867,4.92612e-05,0.270872,-0.168969,6.08352e-05,1.88404,-25.211,4.16261,25.134,1.46728,1.6607,-0.0163725,-0.943988,1.63859,0.966657,-0.429956,-0.315423,0.60643,0.691272,-0.00819836,0.500916,-0.550879,0.688429,-1.04765,-0.0271775,
0.0178765,-0.196238,-0.326685,-1.66143,-0.0651618,-0.119394,-0.38356,0.275513,-0.0522573,0.308086,-0.0937495,0.661936,-1.09987,0.0124035,0,0,0,0,0,0,0,0.0118861,-0.19463,-0.333174,-1.65907,-0.0713183,1.47259,0.401363,0.00450825,-0.00722899,0.0152867,4.92612e-05,0.270872,-0.168969,6.08352e-05,1.88404,-25.211,4.16261,25.134,1.46728,1.6607,-0.0163725,-2.53266,1.6205,0.948151,-0.47608,-1.46045,0.312952,0.408303,-0.624299,0.215568,-0.421581,0.59728,-1.10555,-0.0192246,
0.0138497,-0.195355,-0.331252,-1.66032,-0.0774741,-0.0999734,-0.383839,0.231531,-0.0837547,0.249909,-0.103063,0.263009,-0.640902,0.0156093,0,0,0,0,0,0,0,0.012515,-0.194922,-0.332077,-1.65918,-0.0640212,1.46607,0.401364,0.0379246,-0.00944188,0.0562714,-0.0157062,0.185674,-0.197971,-0.00131231,3.1258,-25.7625,5.46388,25.4831,1.04522,1.87951,0.0101778,-2.53266,1.6205,0.948151,-0.47608,-1.46045,0.312952,0.408303,-0.624299,0.215568,-0.421581,0.59728,-1.10555,-0.0192246,
0.0148889,-0.19571,-0.32954,-1.66031,-0.0618459,-0.111212,-0.383825,0.253062,-0.0753511,0.276556,-0.111298,0.219584,-0.693154,0.0163946,0,0,0,0,0,0,0,0.012515,-0.194922,-0.332077,-1.65918,-0.0640212,1.46607,0.401364,0.0379246,-0.00944188,0.0562714,-0.0157062,0.185674,-0.197971,-0.00131231,3.1258,-25.7625,5.46388,25.4831,1.04522,1.87951,0.0101778,-3.24826,-0.218445,0.835122,0.628711,-1.89184,-0.64144,-0.525701,-0.824988,-0.832807,-0.366361,0.230496,-1.07675,-0.0137253,
0.0160656,-0.196013,-0.328241,-1.66079,-0.0607165,-0.114462,-0.383764,0.294178,-0.0757596,0.324743,-0.12106,0.282351,-0.812535,0.0153668,0,0,0,0,0,0,0,0.012515,-0.194922,-0.332077,-1.65918,-0.0640212,1.46607,0.401364,0.0379246,-0.00944188,0.0562714,-0.0157062,0.185674,-0.197971,-0.00131231,3.1258,-25.7625,5.46388,25.4831,1.04522,1.87951,0.0101778,-2.93163,0.0104495,0.742781,0.389772,-1.60327,-0.475548,-0.363026,-0.639839,-0.636289,-0.422606,0.161944,-1.06091,-0.0145037,
0.0173779,-0.196305,-0.326786,-1.66131,-0.0593084,-0.118101,-0.383706,0.328088,-0.0730911,0.363955,-0.129254,0.352026,-0.909687,0.0145425,0,0,0,0,0,0,0,0.012515,-0.194922,-0.332077,-1.65918,-0.0640212,1.46607,0.401364,0.0379246,-0.00944188,0.0562714,-0.0157062,0.185674,-0.197971,-0.00131231,3.1258,-25.7625,5.46388,25.4831,1.04522,1.87951,0.0101778,-2.93163,0.0104495,0.742781,0.389772,-1.60327,-0.475548,-0.363026,-0.639839,-0.636289,-0.422606,0.161944,-1.06091,-0.0145037,
0.0188034,-0.19658,-0.325201,-1.66185,-0.0576145,-0.122054,-0.38365,0.356364,-0.0686039,0.396244,-0.136523,0.423466,-0.98839,0.013899,0,0,0,0,0,0,0,0.012515,-0.194922,-0.332077,-1.65918,-0.0640212,1.46607,0.401364,0.0379246,-0.00944188,0.0562714,-0.0157062,0.185674,-0.197971,-0.00131231,3.1258,-25.7625,5.46388,25.4831,1.04522,1.87951,0.0101778,-2.18522,1.67596,0.259877,-0.657306,-0.866216,0.405995,0.490258,-0.142745,0.34645,-0.712267,0.355782,-1.09529,-0.0138813,
0.020324,-0.196831,-0.323508,-1.66243,-0.0556406,-0.126263,-0.383597,0.380152,-0.0629351,0.423067,-0.142812,0.493481,-1.05221,0.0132816,0,0,0,0,0,0,0,0.0144733,-0.195639,-0.329527,-1.65971,-0.0563563,1.4573,0.401375,0.0764827,-0.0312633,0.0881573,-0.022995,0.150997,-0.273102,0.000467426,2.41565,-25.5602,4.91243,24.7849,0.63049,2.31713,-0.0365141,-2.18522,1.67596,0.259877,-0.657306,-0.866216,0.405995,0.490258,-0.142745,0.34645,-0.712267,0.355782,-1.09529,-0.0138813,
0.0154873,-0.195978,-0.328941,-1.66077,-0.0629243,-0.110972,-0.383844,0.319005,-0.099681,0.346003,-0.155075,0.10807,-0.674648,0.0151846,0,0,0,0,0,0,0,0.0144733,-0.195639,-0.329527,-1.65971,-0.0563563,1.4573,0.401375,0.0764827,-0.0312633,0.0881573,-0.022995,0.150997,-0.273102,0.000467426,2.41565,-25.5602,4.91243,24.7849,0.63049,2.31713,-0.0365141,-2.96638,1.44365,-0.370154,-0.490521,-1.21442,0.16374,0.240058,-0.231635,0.0986777,-0.845663,0.246705,-1.08606,-0.00912058,
0.0176442,-0.196807,-0.326153,-1.66131,-0.0551534,-0.12031,-0.383802,0.330593,-0.105622,0.359541,-0.155228,0.128295,-0.710692,0.0169709,0,0,0,0,0,0,0,0.0144733,-0.195639,-0.329527,-1.65971,-0.0563563,1.4573,0.401375,0.0764827,-0.0312633,0.0881573,-0.022995,0.150997,-0.273102,0.000467426,2.41565,-25.5602,4.91243,24.7849,0.63049,2.31713,-0.0365141,-3.61337,0.0389309,-0.769668,0.362522,-1.5624,-0.572737,-0.470536,-0.372093,-0.720022,-0.845169,-0.0497548,-1.00076,-0.00693139,
0.0191627,-0.197218,-0.324485,-1.66198,-0.0543917,-0.123608,-0.383739,0.379635,-0.102808,0.417091,-0.165801,0.190422,-0.824482,0.0157905,0,0,0,0,0,0,0,0.0144733,-0.195639,-0.329527,-1.65971,-0.0563563,1.4573,0.401375,0.0764827,-0.0312633,0.0881573,-0.022995,0.150997,-0.273102,0.000467426,2.41565,-25.5602,4.91243,24.7849,0.63049,2.31713,-0.0365141,-3.61337,0.0389309,-0.769668,0.362522,-1.5624,-0.572737,-0.470536,-0.372093,-0.720022,-0.845169,-0.0497548,-1.00076,-0.00693139,
0.020842,-0.197607,-0.32263,-1.66268,-0.0533378,-0.127247,-0.38368,0.419828,-0.0971778,0.463742,-0.175565,0.263478,-0.909646,0.0148714,0,0,0,0,0,0,0,0.0144733,-0.195639,-0.329527,-1.65971,-0.0563563,1.4573,0.401375,0.0764827,-0.0312633,0.0881573,-0.022995,0.150997,-0.273102,0.000467426,2.41565,-25.5602,4.91243,24.7849,0.63049,2.31713,-0.0365141,-3.41763,0.508546,-0.647659,-0.0375086,-1.52619,-0.319496,-0.223807,-0.396771,-0.418778,-0.747655,-0.0358362,-0.92865,-0.0089909,
0.0226547,-0.197965,-0.320622,-1.66342,-0.0519748,-0.131128,-0.383624,0.453179,-0.0897157,0.501883,-0.184393,0.340738,-0.970281,0.0140191,0,0,0,0,0,0,0,0.0144733,-0.195639,-0.329527,-1.65971,-0.0563563,1.4573,0.401375,0.0764827,-0.0312633,0.0881573,-0.022995,0.150997,-0.273102,0.000467426,2.41565,-25.5602,4.91243,24.7849,0.63049,2.31713,-0.0365141,-3.41763,0.508546,-0.647659,-0.0375086,-1.52619,-0.319496,-0.223807,-0.396771,-0.418778,-0.747655,-0.0358362,-0.92865,-0.0089909,
0.0245784,-0.198294,-0.318489,-1.6642,-0.0503024,-0.135097,-0.38357,0.480912,-0.0822626,0.53346,-0.195853,0.418099,-0.992305,0.013415,0,0,0,0,0,0,0,0.0178527,-0.196914,-0.325389,-1.66103,-0.0513186,1.44751,0.401376,0.120604,-0.0572528,0.148763,-0.0666111,0.109929,-0.315088,0.000704864,2.34027,-25.3618,4.76167,25.0586,1.19812,2.3034,-0.0429228,-2.69385,1.37112,-0.717492,-0.54926,-1.0027,0.190204,0.258341,-0.108444,0.147413,-0.837289,0.141254,-0.911939,-0.00714327,
0.0184343,-0.19701,-0.326094,-1.66171,-0.0559013,-0.120072,-0.383839,0.404607,-0.123586,0.380258,-0.194326,0.052154,-0.690706,0.0145417,0,0,0,0,0,0,0,0.0178527,-0.196914,-0.325389,-1.66103,-0.0513186,1.44751,0.401376,0.120604,-0.0572528,0.148763,-0.0666111,0.109929,-0.315088,0.000704864,2.34027,-25.3618,4.76167,25.0586,1.19812,2.3034,-0.0429228,-2.69385,1.37112,-0.717492,-0.54926,-1.0027,0.190204,0.258341,-0.108444,0.147413,-0.837289,0.141254,-0.911939,-0.00714327,
0.0220852,-0.198313,-0.321483,-1.66315,-0.0507183,-0.130409,-0.383806,0.421414,-0.121401,0.411356,-0.198382,0.0784822,-0.728583,0.0164988,0,0,0,0,0,0,0,0.0178527,-0.196914,-0.325389,-1.66103,-0.0513186,1.44751,0.401376,0.120604,-0.0572528,0.148763,-0.0666111,0.109929,-0.315088,0.000704864,2.34027,-25.3618,4.76167,25.0586,1.19812,2.3034,-0.0429228,-3.70969,-0.339309,-0.985115,0.649217,-1.67735,-0.746522,-0.636853,-0.460326,-0.928205,-0.791362,-0.0414619,-0.87495,-0.00208586,
0.0239719,-0.198778,-0.319579,-1.664,-0.0501487,-0.133682,-0.383745,0.471673,-0.11646,0.476034,-0.211989,0.1424,-0.818204,0.0152592,0,0,0,0,0,0,0,0.0178527,-0.196914,-0.325389,-1.66103,-0.0513186,1.44751,0.401376,0.120604,-0.0572528,0.148763,-0.0666111,0.109929,-0.315088,0.000704864,2.34027,-25.3618,4.76167,25.0586,1.19812,2.3034,-0.0429228,-4.06306,-1.09261,-0.920169,1.0924,-2.02416,-1.13201,-0.985112,-0.697116,-1.37459,-0.645537,-0.161395,-0.789986,-0.0015147,
0.0260229,-0.199216,-0.317462,-1.6649,-0.0492769,-0.137118,-0.383688,0.512739,-0.109309,0.529237,-0.226723,0.217941,-0.859029,0.0144071,0,0,0,0,0,0,0,0.0178527,-0.196914,-0.325389,-1.66103,-0.0513186,1.44751,0.401376,0.120604,-0.0572528,0.148763,-0.0666111,0.109929,-0.315088,0.000704864,2.34027,-25.3618,4.76167,25.0586,1.19812,2.3034,-0.0429228,-4.06306,-1.09261,-0.920169,1.0924,-2.02416,-1.13201,-0.985112,-0.697116,-1.37459,-0.645537,-0.161395,-0.789986,-0.0015147,
0.02821,-0.199614,-0.315168,-1.66586,-0.0480859,-0.140611,-0.383633,0.546772,-0.0995419,0.573357,-0.238191,0.297758,-0.873216,0.0137093,0,0,0,0,0,0,0,0.025104,-0.19975,-0.316995,-1.66448,-0.0496431,1.43269,0.401383,0.226604,-0.0756754,0.185124,-0.10783,-0.00435469,-0.349691,0.000247414,1.95942,-25.8339,4.53554,25.7092,1.55243,2.24389,-0.0301054,-2.40773,1.60658,-1.01809,-0.693343,-0.754552,0.362461,0.4548,0.0450957,0.308287,-0.900335,0.177024,-0.827915,-0.00722839,
0.0305105,-0.199966,-0.312726,-1.66684,-0.0465773,-0.144099,-0.38358,0.575146,-0.0881496,0.610501,-0.2462,0.377141,-0.872057,0.0131211,0,0,0,0,0,0,0,0.025104,-0.19975,-0.316995,-1.66448,-0.0496431,1.43269,0.401383,0.226604,-0.0756754,0.185124,-0.10783,-0.00435469,-0.349691,0.000247414,1.95942,-25.8339,4.53554,25.7092,1.55243,2.24389,-0.0301054,-2.40773,1.60658,-1.01809,-0.693343,-0.754552,0.362461,0.4548,0.0450957,0.308287,-0.900335,0.177024,-0.827915,-0.00722839,
0.0329062,-0.200271,-0.310157,-1.66785,-0.0447643,-0.147545,-0.38353,0.59892,-0.0761371,0.642191,-0.251522,0.453262,-0.861528,0.0126164,0,0,0,0,0,0,0,0.025104,-0.19975,-0.316995,-1.66448,-0.0496431,1.43269,0.401383,0.226604,-0.0756754,0.185124,-0.10783,-0.00435469,-0.349691,0.000247414,1.95942,-25.8339,4.53554,25.7092,1.55243,2.24389,-0.0301054,-3.2176,1.56006,0.0805952,-0.771876,-1.80288,0.208274,0.260686,-0.727862,0.214061,-0.390688,0.223064,-0.826186,-0.00535393,
0.0225262,-0.198445,-0.321676,-1.6635,-0.0509197,-0.130165,-0.383863,0.464433,-0.132904,0.395676,-0.233287,0.0582178,-0.707115,0.0126085,0,0,0,0,0,0,0,0.025104,-0.19975,-0.316995,-1.66448,-0.0496431,1.43269,0.401383,0.226604,-0.0756754,0.185124,-0.10783,-0.00435469,-0.349691,0.000247414,1.95942,-25.8339,4.53554,25.7092,1.55243,2.24389,-0.0301054,-3.99162,-0.0707119,-0.13977,0.334556,-2.31601,-0.635873,-0.515737,-1.00357,-0.780556,-0.3414,0.0189078,-0.776774,-0.00172463,
0.0302486,-0.201227,-0.312744,-1.6671,-0.0495302,-0.145172,-0.38383,0.494919,-0.126108,0.431487,-0.246284,0.0598001,-0.679538,0.0142267,0,0,0,0,0,0,0,0.025104,-0.19975,-0.316995,-1.66448,-0.0496431,1.43269,0.401383,0.226604,-0.0756754,0.185124,-0.10783,-0.00435469,-0.349691,0.000247414,1.95942,-25.8339,4.53554,25.7092,1.55243,2.24389,-0.0301054,-3.99162,-0.0707119,-0.13977,0.334556,-2.31601,-0.635873,-0.515737,-1.00357,-0.780556,-0.3414,0.0189078,-0.776774,-0.00172463,
0.032429,-0.201704,-0.310784,-1.66815,-0.0489898,-0.148041,-0.383777,0.545113,-0.1191,0.489938,-0.262936,0.135104,-0.717152,0.0133586,0,0,0,0,0,0,0,0.0331616,-0.202516,-0.308254,-1.66856,-0.0490673,1.42085,0.401388,0.252896,-0.081302,0.288714,-0.128027,0.0166549,-0.36205,0.000367215,3.80817,-25.0365,6.28908,24.9118,1.6687,2.2503,-0.050247,-3.67601,-0.070424,-0.723524,0.464024,-1.84145,-0.577085,-0.456136,-0.63929,-0.751728,-0.622928,0.0724838,-0.801736,-0.00271344,
0.034778,-0.202137,-0.308631,-1.66924,-0.0481233,-0.150976,-0.383726,0.587231,-0.108416,0.538282,-0.273809,0.216629,-0.733775,0.0126807,0,0,0,0,0,0,0,0.0331616,-0.202516,-0.308254,-1.66856,-0.0490673,1.42085,0.401388,0.252896,-0.081302,0.288714,-0.128027,0.0166549,-0.36205,0.000367215,3.80817,-25.0365,6.28908,24.9118,1.6687,2.2503,-0.050247,-3.67601,-0.070424,-0.723524,0.464024,-1.84145,-0.577085,-0.456136,-0.63929,-0.751728,-0.622928,0.0724838,-0.801736,-0.00271344,
0.03727,-0.202521,-0.306316,-1.67037,-0.0469279,-0.153923,-0.383678,0.623007,-0.0960302,0.57888,-0.280818,0.298848,-0.736822,0.012132,0,0,0,0,0,0,0,0.0331616,-0.202516,-0.308254,-1.66856,-0.0490673,1.42085,0.401388,0.252896,-0.081302,0.288714,-0.128027,0.0166549,-0.36205,0.000367215,3.80817,-25.0365,6.28908,24.9118,1.6687,2.2503,-0.050247,-2.89828,3.35535,-0.323725,-1.8847,-1.43028,1.0996,1.15601,-0.440912,1.18739,-0.606323,0.477908,-0.857998,-0.0102905,
0.0398848,-0.202854,-0.303862,-1.67151,-0.0454141,-0.156846,-0.383631,0.653697,-0.0831565,0.613402,-0.285241,0.378441,-0.730857,0.011676,0,0,0,0,0,0,0,0.0331616,-0.202516,-0.308254,-1.66856,-0.0490673,1.42085,0.401388,0.252896,-0.081302,0.288714,-0.128027,0.0166549,-0.36205,0.000367215,3.80817,-25.0365,6.28908,24.9118,1.6687,2.2503,-0.050247,-2.89828,3.35535,-0.323725,-1.8847,-1.43028,1.0996,1.15601,-0.440912,1.18739,-0.606323,0.477908,-0.857998,-0.0102905,
0.0426057,-0.203136,-0.30129,-1.67266,-0.0436,-0.159722,-0.383586,0.680233,-0.0705006,0.643054,-0.287889,0.453522,-0.718812,0.01129,0,0,0,0,0,0,0,0.0331616,-0.202516,-0.308254,-1.66856,-0.0490673,1.42085,0.401388,0.252896,-0.081302,0.288714,-0.128027,0.0166549,-0.36205,0.000367215,3.80817,-25.0365,6.28908,24.9118,1.6687,2.2503,-0.050247,-2.95691,2.31957,-0.394857,-1.13879,-1.42761,0.629888,0.675063,-0.43126,0.656635,-0.632199,0.407552,-0.85661,-0.0133382,
0.0302445,-0.201308,-0.312734,-1.6674,-0.0495188,-0.145044,-0.383879,0.494621,-0.132403,0.431991,-0.275114,0.0614006,-0.674521,0.0106643,0,0,0,0,0,0,0,0.0331616,-0.202516,-0.308254,-1.66856,-0.0490673,1.42085,0.401388,0.252896,-0.081302,0.288714,-0.128027,0.0166549,-0.36205,0.000367215,3.80817,-25.0365,6.28908,24.9118,1.6687,2.2503,-0.050247,-2.95691,2.31957,-0.394857,-1.13879,-1.42761,0.629888,0.675063,-0.43126,0.656635,-0.632199,0.407552,-0.85661,-0.0133382,
0.0388081,-0.204029,-0.303394,-1.67163,-0.0483192,-0.155808,-0.383852,0.530072,-0.125463,0.472223,-0.285258,0.122558,-0.535771,0.0120059,0,0,0,0,0,0,0,0.03971,-0.204552,-0.302544,-1.67182,-0.04921,1.414,0.401389,0.325446,-0.092773,0.281303,-0.154294,-0.00461383,-0.305606,0.000316425,5.89099,-24.5366,7.4872,24.3365,1.99188,2.21093,-0.050247,-4.38683,-0.288336,-1.13818,0.765388,-2.22268,-0.744927,-0.598856,-0.798944,-0.981835,-0.725622,0.161195,-0.833672,-0.00874104,
0.0411081,-0.204488,-0.301298,-1.67282,-0.0475211,-0.158048,-0.383807,0.575007,-0.11467,0.523976,-0.297898,0.19954,-0.55995,0.0112135,0,0,0,0,0,0,0,0.03971,-0.204552,-0.302544,-1.67182,-0.04921,1.414,0.401389,0.325446,-0.092773,0.281303,-0.154294,-0.00461383,-0.305606,0.000316425,5.89099,-24.5366,7.4872,24.3365,1.99188,2.21093,-0.050247,-4.38683,-0.288336,-1.13818,0.765388,-2.22268,-0.744927,-0.598856,-0.798944,-0.981835,-0.725622,0.161195,-0.833672,-0.00874104,
0.0435597,-0.204894,-0.299029,-1.67404,-0.0464037,-0.160333,-0.383765,0.612895,-0.10164,0.567193,-0.305454,0.279359,-0.571282,0.0105968,0,0,0,0,0,0,0,0.03971,-0.204552,-0.302544,-1.67182,-0.04921,1.414,0.401389,0.325446,-0.092773,0.281303,-0.154294,-0.00461383,-0.305606,0.000316425,5.89099,-24.5366,7.4872,24.3365,1.99188,2.21093,-0.050247,-3.27701,0.187998,-1.49272,0.563615,-1.2918,-0.356211,-0.205611,-0.239655,-0.601805,-0.958061,0.315559,-0.800557,-0.0124633,
0.0461406,-0.205247,-0.296614,-1.67528,-0.0449718,-0.162626,-0.383725,0.645226,-0.0880349,0.603752,-0.310078,0.357958,-0.57317,0.0100787,0,0,0,0,0,0,0,0.03971,-0.204552,-0.302544,-1.67182,-0.04921,1.414,0.401389,0.325446,-0.092773,0.281303,-0.154294,-0.00461383,-0.305606,0.000316425,5.89099,-24.5366,7.4872,24.3365,1.99188,2.21093,-0.050247,-3.27701,0.187998,-1.49272,0.563615,-1.2918,-0.356211,-0.205611,-0.239655,-0.601805,-0.958061,0.315559,-0.800557,-0.0124633,
0.0488329,-0.205545,-0.294074,-1.67654,-0.04324,-0.164899,-0.383686,0.67306,-0.0746856,0.635005,-0.312829,0.432961,-0.568231,0.00963498,0,0,0,0,0,0,0,0.03971,-0.204552,-0.302544,-1.67182,-0.04921,1.414,0.401389,0.325446,-0.092773,0.281303,-0.154294,-0.00461383,-0.305606,0.000316425,5.89099,-24.5366,7.4872,24.3365,1.99188,2.21093,-0.050247,-0.431843,2.83927,-1.21544,-1.25507,0.709043,1.23897,1.29279,0.864513,1.22157,-1.15644,0.65304,-0.763626,-0.0189361,
0.0366878,-0.203527,-0.305283,-1.67049,-0.0488095,-0.153665,-0.3839,0.475771,-0.130557,0.409335,-0.262722,0.0551945,-0.494996,0.0131162,0,0,0,0,0,0,0,0.0558683,-0.209303,-0.288245,-1.67949,-0.0485752,1.40222,0.401397,0.364371,-0.0992381,0.35127,-0.185846,0.0314428,-0.216376,0.000410046,5.0539,-23.7392,6.662,23.2654,1.55243,2.36382,-0.0630644,-1.68324,1.12588,-1.16927,-0.125893,-0.264857,0.291134,0.343574,0.278231,0.185742,-0.956229,0.454526,-0.726476,-0.0159555,
0.0621634,-0.210675,-0.282666,-1.68267,-0.0470442,-0.172619,-0.383844,0.574743,-0.108255,0.522065,-0.283295,0.19719,-0.387556,0.0121285,0,0,0,0,0,0,0,0.0558683,-0.209303,-0.288245,-1.67949,-0.0485752,1.40222,0.401397,0.364371,-0.0992381,0.35127,-0.185846,0.0314428,-0.216376,0.000410046,5.0539,-23.7392,6.662,23.2654,1.55243,2.36382,-0.0630644,-1.68324,1.12588,-1.16927,-0.125893,-0.264857,0.291134,0.343574,0.278231,0.185742,-0.956229,0.454526,-0.726476,-0.0159555,
0.0646172,-0.211062,-0.280399,-1.68384,-0.0459442,-0.1743,-0.383799,0.613446,-0.0968156,0.56667,-0.291255,0.275009,-0.420212,0.011324,0,0,0,0,0,0,0,0.0558683,-0.209303,-0.288245,-1.67949,-0.0485752,1.40222,0.401397,0.364371,-0.0992381,0.35127,-0.185846,0.0314428,-0.216376,0.000410046,5.0539,-23.7392,6.662,23.2654,1.55243,2.36382,-0.0630644,-4.97902,-0.310176,-1.39485,0.80354,-2.70935,-0.765102,-0.610902,-1.10053,-1.01043,-0.622068,0.223527,-0.700809,-0.0144166,
0.0672024,-0.211401,-0.277982,-1.68502,-0.0445338,-0.176065,-0.383756,0.646292,-0.0845356,0.604209,-0.296317,0.352589,-0.441236,0.0106708,0,0,0,0,0,0,0,0.0558683,-0.209303,-0.288245,-1.67949,-0.0485752,1.40222,0.401397,0.364371,-0.0992381,0.35127,-0.185846,0.0314428,-0.216376,0.000410046,5.0539,-23.7392,6.662,23.2654,1.55243,2.36382,-0.0630644,-4.97902,-0.310176,-1.39485,0.80354,-2.70935,-0.765102,-0.610902,-1.10053,-1.01043,-0.622068,0.223527,-0.700809,-0.0144166,
0.0699001,-0.21169,-0.275438,-1.68622,-0.0428248,-0.177877,-0.383716,0.674436,-0.0723211,0.636132,-0.299634,0.427252,-0.452949,0.0101487,0,0,0,0,0,0,0,0.0558683,-0.209303,-0.288245,-1.67949,-0.0485752,1.40222,0.401397,0.364371,-0.0992381,0.35127,-0.185846,0.0314428,-0.216376,0.000410046,5.0539,-23.7392,6.662,23.2654,1.55243,2.36382,-0.0630644,-3.88833,1.81405,-1.27616,-0.618916,-1.95243,0.356599,0.478525,-0.662613,0.258022,-0.716499,0.495737,-0.707205,-0.0211012,
0.072695,-0.211932,-0.272784,-1.68743,-0.040835,-0.179706,-0.383676,0.698727,-0.0606063,0.663515,-0.301731,0.497463,-0.457378,0.00978505,0,0,0,0,0,0,0,0.0558683,-0.209303,-0.288245,-1.67949,-0.0485752,1.40222,0.401397,0.364371,-0.0992381,0.35127,-0.185846,0.0314428,-0.216376,0.000410046,5.0539,-23.7392,6.662,23.2654,1.55243,2.36382,-0.0630644,-1.40461,1.55594,-1.16125,-0.417163,-0.0752325,0.5427,0.593673,0.381919,0.461091,-0.965837,0.532637,-0.700402,-0.0219722,
0.0598644,-0.210242,-0.284754,-1.68154,-0.047833,-0.171069,-0.383893,0.528472,-0.116867,0.468441,-0.269646,0.123611,-0.34121,0.0131443,0,0,0,0,0,0,0,0.0677711,-0.21227,-0.276846,-1.68565,-0.0475839,1.39675,0.401399,0.395416,-0.111729,0.369091,-0.211337,0.033818,-0.142237,-0.000333035,5.78785,-24.0367,7.26106,24.1898,1.64398,2.40319,-0.0365141,-1.40461,1.55594,-1.16125,-0.417163,-0.0752325,0.5427,0.593673,0.381919,0.461091,-0.965837,0.532637,-0.700402,-0.0219722,
0.0742459,-0.213617,-0.271069,-1.68883,-0.045848,-0.177216,-0.383833,0.587056,-0.103562,0.535814,-0.276806,0.216828,-0.316024,0.0129185,0,0,0,0,0,0,0,0.0677711,-0.21227,-0.276846,-1.68565,-0.0475839,1.39675,0.401399,0.395416,-0.111729,0.369091,-0.211337,0.033818,-0.142237,-0.000333035,5.78785,-24.0367,7.26106,24.1898,1.64398,2.40319,-0.0365141,-1.86399,-0.410021,-1.61076,0.8971,-0.234262,-0.388633,-0.25687,0.323532,-0.656548,-1.04839,0.2619,-0.670452,-0.0209633,
0.0767421,-0.213984,-0.268755,-1.68996,-0.044669,-0.178619,-0.383785,0.624061,-0.0917632,0.578539,-0.282662,0.294743,-0.350682,0.0120335,0,0,0,0,0,0,0,0.0677711,-0.21227,-0.276846,-1.68565,-0.0475839,1.39675,0.401399,0.395416,-0.111729,0.369091,-0.211337,0.033818,-0.142237,-0.000333035,5.78785,-24.0367,7.26106,24.1898,1.64398,2.40319,-0.0365141,-1.86399,-0.410021,-1.61076,0.8971,-0.234262,-0.388633,-0.25687,0.323532,-0.656548,-1.04839,0.2619,-0.670452,-0.0209633,
0.0793643,-0.214303,-0.266297,-1.6911,-0.0431827,-0.180116,-0.383739,0.655542,-0.0796971,0.614592,-0.286622,0.371583,-0.374308,0.0113892,0,0,0,0,0,0,0,0.0677711,-0.21227,-0.276846,-1.68565,-0.0475839,1.39675,0.401399,0.395416,-0.111729,0.369091,-0.211337,0.033818,-0.142237,-0.000333035,5.78785,-24.0367,7.26106,24.1898,1.64398,2.40319,-0.0365141,-3.39848,0.212099,-1.26588,0.393236,-1.55536,-0.258678,-0.0934998,-0.467295,-0.482882,-0.737596,0.28303,-0.667983,-0.0236063,
0.0820945,-0.214575,-0.263716,-1.69226,-0.0414024,-0.181672,-0.383696,0.682548,-0.0679488,0.645301,-0.289364,0.445066,-0.388871,0.0108542,0,0,0,0,0,0,0,0.0677711,-0.21227,-0.276846,-1.68565,-0.0475839,1.39675,0.401399,0.395416,-0.111729,0.369091,-0.211337,0.033818,-0.142237,-0.000333035,5.78785,-24.0367,7.26106,24.1898,1.64398,2.40319,-0.0365141,-3.39848,0.212099,-1.26588,0.393236,-1.55536,-0.258678,-0.0934998,-0.467295,-0.482882,-0.737596,0.28303,-0.667983,-0.0236063,
0.0849179,-0.214802,-0.261029,-1.69343,-0.0393469,-0.183256,-0.383654,0.70587,-0.0567943,0.671663,-0.291184,0.51389,-0.396139,0.0104043,0,0,0,0,0,0,0,0.0811008,-0.21486,-0.264826,-1.69194,-0.0454072,1.39333,0.401404,0.43696,-0.0705664,0.379862,-0.214036,0.0484667,-0.0683394,0.000663834,2.01099,-25.2348,4.08723,26.0306,1.31439,2.32995,-0.0429228,-2.99476,1.88621,-0.0212045,-0.856539,-1.72191,0.556577,0.633825,-0.708245,0.539985,-0.347321,0.479322,-0.688524,-0.0270557,
0.0878224,-0.214987,-0.258251,-1.69459,-0.0370373,-0.184846,-0.383614,0.726114,-0.0463638,0.694447,-0.29224,0.577398,-0.397583,0.0100208,0,0,0,0,0,0,0,0.0811008,-0.21486,-0.264826,-1.69194,-0.0454072,1.39333,0.401404,0.43696,-0.0705664,0.379862,-0.214036,0.0484667,-0.0683394,0.000663834,2.01099,-25.2348,4.08723,26.0306,1.31439,2.32995,-0.0429228,-2.26067,0.347805,0.780283,0.0805494,-1.45129,-0.0605694,-0.00644064,-0.715796,-0.133519,-0.0999354,0.300859,-0.658184,-0.0254499,
0.0718976,-0.213203,-0.273213,-1.68772,-0.0467153,-0.175952,-0.383885,0.543018,-0.113794,0.484663,-0.26732,0.141626,-0.26861,0.0140269,0,0,0,0,0,0,0,0.0811008,-0.21486,-0.264826,-1.69194,-0.0454072,1.39333,0.401404,0.43696,-0.0705664,0.379862,-0.214036,0.0484667,-0.0683394,0.000663834,2.01099,-25.2348,4.08723,26.0306,1.31439,2.32995,-0.0429228,-2.26067,0.347805,0.780283,0.0805494,-1.45129,-0.0605694,-0.00644064,-0.715796,-0.133519,-0.0999354,0.300859,-0.658184,-0.0254499,
0.0877901,-0.215824,-0.258824,-1.69514,-0.043397,-0.179768,-0.383823,0.602243,-0.075552,0.552284,-0.277334,0.240242,-0.246725,0.0133708,0,0,0,0,0,0,0,0.0811008,-0.21486,-0.264826,-1.69194,-0.0454072,1.39333,0.401404,0.43696,-0.0705664,0.379862,-0.214036,0.0484667,-0.0683394,0.000663834,2.01099,-25.2348,4.08723,26.0306,1.31439,2.32995,-0.0429228,-2.00371,-1.30894,0.127745,1.20904,-1.009,-0.775706,-0.655522,-0.4164,-1.01702,-0.324369,0.0791032,-0.614429,-0.0226204,
0.0903395,-0.216092,-0.256451,-1.69627,-0.0421274,-0.180911,-0.383773,0.637344,-0.0671167,0.59301,-0.281731,0.317396,-0.285602,0.0125067,0,0,0,0,0,0,0,0.0811008,-0.21486,-0.264826,-1.69194,-0.0454072,1.39333,0.401404,0.43696,-0.0705664,0.379862,-0.214036,0.0484667,-0.0683394,0.000663834,2.01099,-25.2348,4.08723,26.0306,1.31439,2.32995,-0.0429228,-2.00371,-1.30894,0.127745,1.20904,-1.009,-0.775706,-0.655522,-0.4164,-1.01702,-0.324369,0.0791032,-0.614429,-0.0226204,
0.0930083,-0.216325,-0.253942,-1.69741,-0.0405554,-0.182163,-0.383726,0.667197,-0.0580759,0.627378,-0.284484,0.393004,-0.31317,0.0118049,0,0,0,0,0,0,0,0.0811008,-0.21486,-0.264826,-1.69194,-0.0454072,1.39333,0.401404,0.43696,-0.0705664,0.379862,-0.214036,0.0484667,-0.0683394,0.000663834,2.01099,-25.2348,4.08723,26.0306,1.31439,2.32995,-0.0429228,-1.72043,-0.618493,-1.2278,0.898786,-0.196014,-0.42178,-0.293401,0.302494,-0.675524,-0.960286,0.188093,-0.704968,-0.0250184,
0.0957795,-0.216521,-0.251315,-1.69855,-0.0386954,-0.183488,-0.383681,0.692799,-0.0490305,0.656646,-0.286236,0.465,-0.331254,0.0112228,0,0,0,0,0,0,0,0.0954482,-0.216947,-0.251115,-1.6984,-0.0411203,1.39148,0.401405,0.459787,-0.0519566,0.412335,-0.179302,0.12115,-0.0274986,0.00105274,0.816837,-25.6117,2.83754,25.983,1.73553,2.08459,-0.050247,-2.30832,3.14166,-0.662801,-1.62195,-0.833838,1.25905,1.32388,-0.0105661,1.29981,-0.798799,0.649715,-0.798453,-0.0315637,
0.0986391,-0.216682,-0.248588,-1.6997,-0.0365665,-0.184855,-0.383638,0.714898,-0.0402746,0.681765,-0.287244,0.532221,-0.341598,0.0107314,0,0,0,0,0,0,0,0.0954482,-0.216947,-0.251115,-1.6984,-0.0411203,1.39148,0.401405,0.459787,-0.0519566,0.412335,-0.179302,0.12115,-0.0274986,0.00105274,0.816837,-25.6117,2.83754,25.983,1.73553,2.08459,-0.050247,-2.30832,3.14166,-0.662801,-1.62195,-0.833838,1.25905,1.32388,-0.0105661,1.29981,-0.798799,0.649715,-0.798453,-0.0315637,
0.0853812,-0.215522,-0.261033,-1.69403,-0.0443579,-0.178781,-0.383876,0.560494,-0.0820394,0.503517,-0.269504,0.164987,-0.195266,0.0144149,0,0,0,0,0,0,0,0.0954482,-0.216947,-0.251115,-1.6984,-0.0411203,1.39148,0.401405,0.459787,-0.0519566,0.412335,-0.179302,0.12115,-0.0274986,0.00105274,0.816837,-25.6117,2.83754,25.983,1.73553,2.08459,-0.050247,-2.95501,1.01066,-0.430872,-0.245544,-1.42739,0.229741,0.289469,-0.453542,0.164882,-0.577206,0.398114,-0.749934,-0.0274352,
0.102378,-0.217811,-0.244833,-1.70142,-0.0383692,-0.180894,-0.383818,0.619827,-0.0691444,0.572557,-0.265118,0.296519,-0.184876,0.0136042,0,0,0,0,0,0,0,0.0954482,-0.216947,-0.251115,-1.6984,-0.0411203,1.39148,0.401405,0.459787,-0.0519566,0.412335,-0.179302,0.12115,-0.0274986,0.00105274,0.816837,-25.6117,2.83754,25.983,1.73553,2.08459,-0.050247,-2.95501,1.01066,-0.430872,-0.245544,-1.42739,0.229741,0.289469,-0.453542,0.164882,-0.577206,0.398114,-0.749934,-0.0274352,
0.104989,-0.218057,-0.242389,-1.7025,-0.0368963,-0.181794,-0.383768,0.652811,-0.0614924,0.610875,-0.270311,0.368227,-0.224972,0.012708,0,0,0,0,0,0,0,0.0954482,-0.216947,-0.251115,-1.6984,-0.0411203,1.39148,0.401405,0.459787,-0.0519566,0.412335,-0.179302,0.12115,-0.0274986,0.00105274,0.816837,-25.6117,2.83754,25.983,1.73553,2.08459,-0.050247,-3.31746,-2.00673,-1.47675,1.82529,-1.29834,-1.17211,-1.03748,-0.325785,-1.50114,-0.864678,0.0493773,-0.707269,-0.0224726,
0.107713,-0.21827,-0.239816,-1.70359,-0.0351419,-0.182811,-0.38372,0.68082,-0.053048,0.643185,-0.273464,0.4386,-0.254291,0.0119823,0,0,0,0,0,0,0,0.110046,-0.218105,-0.237369,-1.70383,-0.0374484,1.39144,0.401406,0.485368,-0.0298094,0.483494,-0.171464,0.181736,0.00204819,-0.000982513,2.01099,-25.0365,3.61116,24.7849,1.92505,2.06536,-0.0163725,-2.7206,0.024899,-1.49321,0.502337,-0.885624,-0.174594,-0.040239,-0.0449186,-0.393714,-0.930976,0.321756,-0.681584,-0.0256666,
0.110532,-0.218448,-0.237134,-1.7047,-0.0331192,-0.183908,-0.383674,0.704813,-0.0445236,0.67068,-0.275483,0.505669,-0.274276,0.0113796,0,0,0,0,0,0,0,0.110046,-0.218105,-0.237369,-1.70383,-0.0374484,1.39144,0.401406,0.485368,-0.0298094,0.483494,-0.171464,0.181736,0.00204819,-0.000982513,2.01099,-25.0365,3.61116,24.7849,1.92505,2.06536,-0.0163725,-2.7206,0.024899,-1.49321,0.502337,-0.885624,-0.174594,-0.040239,-0.0449186,-0.393714,-0.930976,0.321756,-0.681584,-0.0256666,
0.113434,-0.218593,-0.234357,-1.7058,-0.0308459,-0.185055,-0.383631,0.725504,-0.0362449,0.694259,-0.276708,0.568321,-0.286523,0.0108694,0,0,0,0,0,0,0,0.110046,-0.218105,-0.237369,-1.70383,-0.0374484,1.39144,0.401406,0.485368,-0.0298094,0.483494,-0.171464,0.181736,0.00204819,-0.000982513,2.01099,-25.0365,3.61116,24.7849,1.92505,2.06536,-0.0163725,-1.95933,0.985214,-1.17555,-0.0875087,-0.386824,0.320183,0.386627,0.231805,0.198301,-0.956176,0.516851,-0.729229,-0.025951,
0.0998987,-0.217535,-0.247123,-1.70036,-0.0395553,-0.180155,-0.383873,0.580484,-0.0743031,0.526638,-0.255328,0.226768,-0.133736,0.014708,0,0,0,0,0,0,0,0.110046,-0.218105,-0.237369,-1.70383,-0.0374484,1.39144,0.401406,0.485368,-0.0298094,0.483494,-0.171464,0.181736,0.00204819,-0.000982513,2.01099,-25.0365,3.61116,24.7849,1.92505,2.06536,-0.0163725,-1.95933,0.985214,-1.17555,-0.0875087,-0.386824,0.320183,0.386627,0.231805,0.198301,-0.956176,0.516851,-0.729229,-0.025951,
0.117366,-0.218756,-0.230618,-1.70677,-0.0339301,-0.180462,-0.383823,0.6476,-0.0529916,0.605055,-0.259733,0.360264,-0.143338,0.0132039,0,0,0,0,0,0,0,0.110046,-0.218105,-0.237369,-1.70383,-0.0374484,1.39144,0.401406,0.485368,-0.0298094,0.483494,-0.171464,0.181736,0.00204819,-0.000982513,2.01099,-25.0365,3.61116,24.7849,1.92505,2.06536,-0.0163725,-2.31694,-0.172409,-1.58665,0.662146,-0.468806,-0.224814,-0.133718,0.221085,-0.434113,-1.07251,0.350482,-0.740461,-0.0238244,
0.120073,-0.218943,-0.228063,-1.70783,-0.032214,-0.181191,-0.383773,0.676675,-0.0467773,0.638732,-0.264794,0.429033,-0.182233,0.0123835,0,0,0,0,0,0,0,0.110046,-0.218105,-0.237369,-1.70383,-0.0374484,1.39144,0.401406,0.485368,-0.0298094,0.483494,-0.171464,0.181736,0.00204819,-0.000982513,2.01099,-25.0365,3.61116,24.7849,1.92505,2.06536,-0.0163725,-2.31694,-0.172409,-1.58665,0.662146,-0.468806,-0.224814,-0.133718,0.221085,-0.434113,-1.07251,0.350482,-0.740461,-0.0238244,
0.122879,-0.219102,-0.225394,-1.7089,-0.0302323,-0.182035,-0.383726,0.701435,-0.0396897,0.667247,-0.267729,0.495426,-0.210948,0.0117157,0,0,0,0,0,0,0,0.130267,-0.219199,-0.217756,-1.71107,-0.0316685,1.39164,0.401414,0.491376,-0.0138822,0.454728,-0.169091,0.168525,0.0179462,0.000176836,-0.551876,-25.8855,0.86183,25.257,1.39953,1.5545,-0.0429228,-3.28604,0.671034,-1.72742,0.0204279,-1.18526,0.139778,0.278119,-0.128383,-0.0298108,-0.998957,0.365329,-0.711131,-0.0276463,
0.12577,-0.219232,-0.222628,-1.70998,-0.0280003,-0.182958,-0.383682,0.722701,-0.032439,0.691598,-0.269508,0.557994,-0.230738,0.0111568,0,0,0,0,0,0,0,0.130267,-0.219199,-0.217756,-1.71107,-0.0316685,1.39164,0.401414,0.491376,-0.0138822,0.454728,-0.169091,0.168525,0.0179462,0.000176836,-0.551876,-25.8855,0.86183,25.257,1.39953,1.5545,-0.0429228,-3.10584,0.959751,-1.77194,-0.103413,-0.936745,0.288646,0.385566,0.0631381,0.151051,-1.13547,0.475898,-0.804924,-0.0286742,
0.128734,-0.219333,-0.219778,-1.71106,-0.0255364,-0.18393,-0.383639,0.74108,-0.0253454,0.712545,-0.2705,0.615963,-0.243083,0.0106801,0,0,0,0,0,0,0,0.130267,-0.219199,-0.217756,-1.71107,-0.0316685,1.39164,0.401414,0.491376,-0.0138822,0.454728,-0.169091,0.168525,0.0179462,0.000176836,-0.551876,-25.8855,0.86183,25.257,1.39953,1.5545,-0.0429228,-3.10584,0.959751,-1.77194,-0.103413,-0.936745,0.288646,0.385566,0.0631381,0.151051,-1.13547,0.475898,-0.804924,-0.0286742,
0.114776,-0.218544,-0.233039,-1.70574,-0.0353711,-0.179889,-0.383876,0.612975,-0.0566066,0.564921,-0.249828,0.291638,-0.0943465,0.0142257,0,0,0,0,0,0,0,0.130267,-0.219199,-0.217756,-1.71107,-0.0316685,1.39164,0.401414,0.491376,-0.0138822,0.454728,-0.169091,0.168525,0.0179462,0.000176836,-0.551876,-25.8855,0.86183,25.257,1.39953,1.5545,-0.0429228,-3.01809,-1.05294,-1.21591,1.25493,-1.06222,-0.63836,-0.548634,-0.186905,-0.891126,-0.91672,0.317514,-0.807034,-0.0229976,
0.137493,-0.219696,-0.211119,-1.71398,-0.0283165,-0.179985,-0.383805,0.640987,-0.041737,0.597887,-0.256336,0.345245,-0.11776,0.0139994,0,0,0,0,0,0,0,0.130267,-0.219199,-0.217756,-1.71107,-0.0316685,1.39164,0.401414,0.491376,-0.0138822,0.454728,-0.169091,0.168525,0.0179462,0.000176836,-0.551876,-25.8855,0.86183,25.257,1.39953,1.5545,-0.0429228,-3.01809,-1.05294,-1.21591,1.25493,-1.06222,-0.63836,-0.548634,-0.186905,-0.891126,-0.91672,0.317514,-0.807034,-0.0229976,
0.140178,-0.219844,-0.208587,-1.71503,-0.0266612,-0.180605,-0.383753,0.671219,-0.0367847,0.633093,-0.26079,0.413814,-0.155045,0.0130763,0,0,0,0,0,0,0,0.145847,-0.219419,-0.20261,-1.71612,-0.025655,1.39219,0.401414,0.510459,0.00168594,0.494199,-0.168995,0.251711,0.0154325,0.000449554,1.70551,-25.7625,3.23823,25.3601,2.02301,1.80627,-0.0429228,-2.70365,-0.887204,-1.40538,1.05383,-0.849947,-0.515027,-0.379441,-0.0658813,-0.78123,-0.915198,0.250916,-0.695228,-0.0256393,
0.142966,-0.219967,-0.205936,-1.71608,-0.0247392,-0.181336,-0.383704,0.696911,-0.030809,0.662832,-0.263193,0.480504,-0.182505,0.0123162,0,0,0,0,0,0,0,0.145847,-0.219419,-0.20261,-1.71612,-0.025655,1.39219,0.401414,0.510459,0.00168594,0.494199,-0.168995,0.251711,0.0154325,0.000449554,1.70551,-25.7625,3.23823,25.3601,2.02301,1.80627,-0.0429228,-2.66175,1.2105,-1.24297,-0.365675,-0.880339,0.47856,0.570114,-0.00350495,0.381858,-0.895177,0.479472,-0.702195,-0.0302842,
0.145841,-0.220065,-0.203183,-1.71714,-0.0225644,-0.182141,-0.383657,0.718927,-0.0245409,0.688167,-0.264513,0.543686,-0.201316,0.011677,0,0,0,0,0,0,0,0.145847,-0.219419,-0.20261,-1.71612,-0.025655,1.39219,0.401414,0.510459,0.00168594,0.494199,-0.168995,0.251711,0.0154325,0.000449554,1.70551,-25.7625,3.23823,25.3601,2.02301,1.80627,-0.0429228,-2.66175,1.2105,-1.24297,-0.365675,-0.880339,0.47856,0.570114,-0.00350495,0.381858,-0.895177,0.479472,-0.702195,-0.0302842,
0.148793,-0.220138,-0.200343,-1.7182,-0.0201546,-0.182992,-0.383612,0.737913,-0.0183174,0.70991,-0.265115,0.602457,-0.212908,0.0111304,0,0,0,0,0,0,0,0.145847,-0.219419,-0.20261,-1.71612,-0.025655,1.39219,0.401414,0.510459,0.00168594,0.494199,-0.168995,0.251711,0.0154325,0.000449554,1.70551,-25.7625,3.23823,25.3601,2.02301,1.80627,-0.0429228,-2.44422,3.02214,-0.289343,-1.60715,-1.09159,1.34117,1.39022,-0.182679,1.40631,-0.581962,0.684492,-0.696911,-0.0302139,
0.15181,-0.220187,-0.197429,-1.71926,-0.017529,-0.183867,-0.38357,0.754368,-0.0123103,0.728685,-0.265152,0.656396,-0.218612,0.0106592,0,0,0,0,0,0,0,0.145847,-0.219419,-0.20261,-1.71612,-0.025655,1.39219,0.401414,0.510459,0.00168594,0.494199,-0.168995,0.251711,0.0154325,0.000449554,1.70551,-25.7625,3.23823,25.3601,2.02301,1.80627,-0.0429228,-2.44422,3.02214,-0.289343,-1.60715,-1.09159,1.34117,1.39022,-0.182679,1.40631,-0.581962,0.684492,-0.696911,-0.0302139,
0.134929,-0.219529,-0.213511,-1.71296,-0.0296974,-0.179514,-0.383861,0.604968,-0.043915,0.555813,-0.2471,0.277525,-0.0708546,0.0151093,0,0,0,0,0,0,0,0.162257,-0.219318,-0.187035,-1.72131,-0.0192506,1.39257,0.401416,0.531159,0.00249891,0.522167,-0.16731,0.245524,0.00495731,-0.000680785,1.32465,-26.6075,2.63917,25.4593,1.76574,2.20452,-0.0163725,-1.96889,-0.877223,-0.72506,1.00765,-0.625156,-0.45789,-0.354029,-0.0893123,-0.688735,-0.654175,0.280491,-0.606122,-0.0221346,
0.169901,-0.219617,-0.179885,-1.72419,-0.0149443,-0.178956,-0.383814,0.670503,-0.0255439,0.633891,-0.253169,0.422683,-0.100908,0.0132656,0,0,0,0,0,0,0,0.162257,-0.219318,-0.187035,-1.72131,-0.0192506,1.39257,0.401416,0.531159,0.00249891,0.522167,-0.16731,0.245524,0.00495731,-0.000680785,1.32465,-26.6075,2.63917,25.4593,1.76574,2.20452,-0.0163725,-1.96889,-0.877223,-0.72506,1.00765,-0.625156,-0.45789,-0.354029,-0.0893123,-0.688735,-0.654175,0.280491,-0.606122,-0.0221346,
0.172688,-0.219702,-0.177228,-1.72522,-0.0129985,-0.179485,-0.383764,0.696647,-0.0213627,0.664209,-0.257341,0.486446,-0.132251,0.0124596,0,0,0,0,0,0,0,0.162257,-0.219318,-0.187035,-1.72131,-0.0192506,1.39257,0.401416,0.531159,0.00249891,0.522167,-0.16731,0.245524,0.00495731,-0.000680785,1.32465,-26.6075,2.63917,25.4593,1.76574,2.20452,-0.0163725,-2.63616,-1.981,-1.09014,1.75903,-1.02625,-0.979192,-0.86267,-0.333977,-1.28381,-0.664733,0.183532,-0.565157,-0.0214769,
0.175563,-0.219767,-0.174468,-1.72625,-0.0108087,-0.180106,-0.383717,0.718948,-0.0162635,0.689956,-0.259429,0.547456,-0.155202,0.0117876,0,0,0,0,0,0,0,0.162257,-0.219318,-0.187035,-1.72131,-0.0192506,1.39257,0.401416,0.531159,0.00249891,0.522167,-0.16731,0.245524,0.00495731,-0.000680785,1.32465,-26.6075,2.63917,25.4593,1.76574,2.20452,-0.0163725,-2.62855,1.63161,-1.31012,-0.647228,-0.898886,0.727064,0.811549,-0.00839643,0.661699,-0.843184,0.572912,-0.602363,-0.0273898,
0.178516,-0.219811,-0.17162,-1.7273,-0.00839018,-0.180788,-0.383672,0.738115,-0.0109201,0.711984,-0.260424,0.604618,-0.170644,0.0112186,0,0,0,0,0,0,0,0.162257,-0.219318,-0.187035,-1.72131,-0.0192506,1.39257,0.401416,0.531159,0.00249891,0.522167,-0.16731,0.245524,0.00495731,-0.000680785,1.32465,-26.6075,2.63917,25.4593,1.76574,2.20452,-0.0163725,-2.62855,1.63161,-1.31012,-0.647228,-0.898886,0.727064,0.811549,-0.00839643,0.661699,-0.843184,0.572912,-0.602363,-0.0273898,
0.181534,-0.219833,-0.168697,-1.72834,-0.00576073,-0.181507,-0.383629,0.75468,-0.00563303,0.730954,-0.260706,0.657363,-0.179771,0.0107242,0,0,0,0,0,0,0,0.162257,-0.219318,-0.187035,-1.72131,-0.0192506,1.39257,0.401416,0.531159,0.00249891,0.522167,-0.16731,0.245524,0.00495731,-0.000680785,1.32465,-26.6075,2.63917,25.4593,1.76574,2.20452,-0.0163725,-2.35064,1.37123,-1.25969,-0.476543,-0.710681,0.612645,0.646114,0.0733586,0.57174,-0.838994,0.564162,-0.588833,-0.0261641,
0.167219,-0.219514,-0.182421,-1.72317,-0.016635,-0.178552,-0.383867,0.639477,-0.0271512,0.597913,-0.244172,0.358056,-0.0617389,0.0142241,0,0,0,0,0,0,0,0.179478,-0.219012,-0.170282,-1.72651,-0.010989,1.39279,0.40142,0.508579,0.00570339,0.511289,-0.158769,0.253235,0.00291517,0.00074305,4.26441,-26.4607,5.06318,24.7095,1.54602,2.22375,-0.050247,-2.35064,1.37123,-1.25969,-0.476543,-0.710681,0.612645,0.646114,0.0733586,0.57174,-0.838994,0.564162,-0.588833,-0.0261641,
0.186999,-0.219284,-0.163263,-1.7293,-0.00673725,-0.178592,-0.3838,0.662317,-0.0236164,0.625275,-0.246432,0.414524,-0.0838086,0.0139362,0,0,0,0,0,0,0,0.179478,-0.219012,-0.170282,-1.72651,-0.010989,1.39279,0.40142,0.508579,0.00570339,0.511289,-0.158769,0.253235,0.00291517,0.00074305,4.26441,-26.4607,5.06318,24.7095,1.54602,2.22375,-0.050247,-1.80228,0.474018,-1.87744,0.0232401,-0.132137,0.2226,0.305391,0.424061,0.0904429,-1.03121,0.372987,-0.502084,-0.0256139,
0.189758,-0.219362,-0.160634,-1.7303,-0.00483157,-0.179039,-0.383748,0.689886,-0.0194861,0.657369,-0.250494,0.476421,-0.111773,0.0130326,0,0,0,0,0,0,0,0.179478,-0.219012,-0.170282,-1.72651,-0.010989,1.39279,0.40142,0.508579,0.00570339,0.511289,-0.158769,0.253235,0.00291517,0.00074305,4.26441,-26.4607,5.06318,24.7095,1.54602,2.22375,-0.050247,-1.80228,0.474018,-1.87744,0.0232401,-0.132137,0.2226,0.305391,0.424061,0.0904429,-1.03121,0.372987,-0.502084,-0.0256139,
0.192612,-0.21942,-0.157896,-1.73131,-0.0026859,-0.179568,-0.383699,0.713327,-0.0144318,0.68453,-0.252455,0.536419,-0.132126,0.0122735,0,0,0,0,0,0,0,0.179478,-0.219012,-0.170282,-1.72651,-0.010989,1.39279,0.40142,0.508579,0.00570339,0.511289,-0.158769,0.253235,0.00291517,0.00074305,4.26441,-26.4607,5.06318,24.7095,1.54602,2.22375,-0.050247,-2.17358,-1.15977,-1.92166,1.12759,-0.42916,-0.535014,-0.434018,0.14598,-0.777219,-0.948223,0.233181,-0.466576,-0.0239714,
0.195545,-0.219457,-0.155065,-1.73233,-0.000313248,-0.18015,-0.383652,0.73341,-0.0091426,0.70769,-0.253339,0.593162,-0.145574,0.0116377,0,0,0,0,0,0,0,0.179478,-0.219012,-0.170282,-1.72651,-0.010989,1.39279,0.40142,0.508579,0.00570339,0.511289,-0.158769,0.253235,0.00291517,0.00074305,4.26441,-26.4607,5.06318,24.7095,1.54602,2.22375,-0.050247,-2.13505,1.20088,-1.7546,-0.388395,-0.378025,0.573559,0.627543,0.322704,0.498019,-1.006,0.553929,-0.540755,-0.0278176,
0.198548,-0.219472,-0.152155,-1.73334,0.00227031,-0.180763,-0.383608,0.750716,-0.00392182,0.72757,-0.253535,0.645889,-0.153188,0.0110759,0,0,0,0,0,0,0,0.196313,-0.218857,-0.153876,-1.73155,-0.0021908,1.39314,0.401421,0.546007,-0.00199641,0.525307,-0.166702,0.238151,0.027077,-0.000104664,1.2215,-26.6591,2.21467,24.8364,1.08184,2.09832,-0.0301054,-2.13505,1.20088,-1.7546,-0.388395,-0.378025,0.573559,0.627543,0.322704,0.498019,-1.006,0.553929,-0.540755,-0.0278176,
0.201599,-0.219468,-0.149169,-1.73435,0.00505205,-0.181387,-0.383566,0.76269,0.00116003,0.746478,-0.253243,0.695436,-0.155999,0.0105041,0,0,0,0,0,0,0,0.196313,-0.218857,-0.153876,-1.73155,-0.0021908,1.39314,0.401421,0.546007,-0.00199641,0.525307,-0.166702,0.238151,0.027077,-0.000104664,1.2215,-26.6591,2.21467,24.8364,1.08184,2.09832,-0.0301054,-1.82427,0.576886,-1.56678,-0.0135186,-0.257512,0.288527,0.337889,0.305555,0.187098,-0.911361,0.462276,-0.493878,-0.0243409,
0.184349,-0.21919,-0.165764,-1.72832,-0.00839535,-0.178257,-0.383856,0.629493,-0.025119,0.587075,-0.237425,0.352958,-0.0490878,0.0150184,0,0,0,0,0,0,0,0.196313,-0.218857,-0.153876,-1.73155,-0.0021908,1.39314,0.401421,0.546007,-0.00199641,0.525307,-0.166702,0.238151,0.027077,-0.000104664,1.2215,-26.6591,2.21467,24.8364,1.08184,2.09832,-0.0301054,-1.82427,0.576886,-1.56678,-0.0135186,-0.257512,0.288527,0.337889,0.305555,0.187098,-0.911361,0.462276,-0.493878,-0.0243409,
0.204003,-0.219115,-0.146646,-1.73429,0.00212744,-0.177978,-0.383803,0.67343,-0.0208145,0.639774,-0.239651,0.424962,-0.0597018,0.0137387,0,0,0,0,0,0,0,0.196313,-0.218857,-0.153876,-1.73155,-0.0021908,1.39314,0.401421,0.546007,-0.00199641,0.525307,-0.166702,0.238151,0.027077,-0.000104664,1.2215,-26.6591,2.21467,24.8364,1.08184,2.09832,-0.0301054,-1.62462,0.584869,-2.20652,-0.14066,0.0988153,0.311865,0.381292,0.612931,0.206069,-1.13155,0.356987,-0.44933,-0.0247766,
0.206799,-0.21918,-0.143968,-1.73527,0.00408248,-0.178319,-0.383752,0.699135,-0.0162801,0.669541,-0.243358,0.488762,-0.0851511,0.0128922,0,0,0,0,0,0,0,0.196313,-0.218857,-0.153876,-1.73155,-0.0021908,1.39314,0.401421,0.546007,-0.00199641,0.525307,-0.166702,0.238151,0.027077,-0.000104664,1.2215,-26.6591,2.21467,24.8364,1.08184,2.09832,-0.0301054,-1.63933,0.114495,-2.1019,0.190365,0.0687719,0.101186,0.189374,0.549922,-0.0523065,-1.10109,0.340271,-0.466792,-0.0245392,
0.209684,-0.219224,-0.141188,-1.73625,0.00628004,-0.178732,-0.383703,0.721109,-0.0111111,0.694884,-0.245226,0.549389,-0.103475,0.0121582,0,0,0,0,0,0,0,0.196313,-0.218857,-0.153876,-1.73155,-0.0021908,1.39314,0.401421,0.546007,-0.00199641,0.525307,-0.166702,0.238151,0.027077,-0.000104664,1.2215,-26.6591,2.21467,24.8364,1.08184,2.09832,-0.0301054,-1.63933,0.114495,-2.1019,0.190365,0.0687719,0.101186,0.189374,0.549922,-0.0523065,-1.10109,0.340271,-0.466792,-0.0245392,
0.212632,-0.219248,-0.138315,-1.73723,0.00870856,-0.179194,-0.383657,0.737005,-0.00578498,0.718351,-0.246131,0.607131,-0.115398,0.011444,0,0,0,0,0,0,0,0.213613,-0.218862,-0.137074,-1.73684,0.00701423,1.39348,0.401421,0.562928,-0.00303397,0.549277,-0.164976,0.310766,0.00736932,-0.000812505,-0.147213,-26.433,0.786451,24.9356,1.42425,1.96557,-0.0163725,-1.70455,0.699758,-2.07556,-0.11085,0.102202,0.368404,0.407676,0.626262,0.269408,-1.17268,0.517155,-0.541609,-0.0251835,
0.215627,-0.21925,-0.135358,-1.73822,0.0113532,-0.179682,-0.383614,0.748842,-0.00057028,0.739236,-0.246374,0.661162,-0.121965,0.0107924,0,0,0,0,0,0,0,0.213613,-0.218862,-0.137074,-1.73684,0.00701423,1.39348,0.401421,0.562928,-0.00303397,0.549277,-0.164976,0.310766,0.00736932,-0.000812505,-0.147213,-26.433,0.786451,24.9356,1.42425,1.96557,-0.0163725,-1.70455,0.699758,-2.07556,-0.11085,0.102202,0.368404,0.407676,0.626262,0.269408,-1.17268,0.517155,-0.541609,-0.0251835,
0.201309,-0.219032,-0.149205,-1.73333,0.000427586,-0.177739,-0.383858,0.643064,-0.0233613,0.604573,-0.23181,0.359537,-0.0275983,0.0147139,0,0,0,0,0,0,0,0.213613,-0.218862,-0.137074,-1.73684,0.00701423,1.39348,0.401421,0.562928,-0.00303397,0.549277,-0.164976,0.310766,0.00736932,-0.000812505,-0.147213,-26.433,0.786451,24.9356,1.42425,1.96557,-0.0163725,-1.52658,0.461692,-2.17611,0.00909503,0.288785,0.261658,0.29561,0.740091,0.154284,-1.23571,0.476494,-0.551568,-0.0250992,
0.221476,-0.219098,-0.129635,-1.73952,0.0120339,-0.177659,-0.383807,0.686073,-0.0182429,0.655088,-0.23417,0.476683,-0.0536239,0.0134839,0,0,0,0,0,0,0,0.213613,-0.218862,-0.137074,-1.73684,0.00701423,1.39348,0.401421,0.562928,-0.00303397,0.549277,-0.164976,0.310766,0.00736932,-0.000812505,-0.147213,-26.433,0.786451,24.9356,1.42425,1.96557,-0.0163725,-1.52658,0.461692,-2.17611,0.00909503,0.288785,0.261658,0.29561,0.740091,0.154284,-1.23571,0.476494,-0.551568,-0.0250992,
0.224305,-0.219151,-0.126895,-1.74047,0.0141761,-0.177952,-0.383757,0.707306,-0.0133571,0.684958,-0.237626,0.535558,-0.0731875,0.0125642,0,0,0,0,0,0,0,0.213613,-0.218862,-0.137074,-1.73684,0.00701423,1.39348,0.401421,0.562928,-0.00303397,0.549277,-0.164976,0.310766,0.00736932,-0.000812505,-0.147213,-26.433,0.786451,24.9356,1.42425,1.96557,-0.0163725,-1.54364,-1.28609,-1.81414,1.09689,0.0119027,-0.524763,-0.424566,0.35648,-0.76394,-0.958523,0.215008,-0.446543,-0.0252593,
0.227199,-0.219183,-0.124051,-1.74143,0.0165465,-0.178299,-0.38371,0.723492,-0.00796103,0.711038,-0.239324,0.592609,-0.0868775,0.011746,0,0,0,0,0,0,0,0.231539,-0.21861,-0.119119,-1.74191,0.0162939,1.39416,0.401424,0.550053,0.014883,0.558596,-0.156426,0.336867,0.00987419,0.00396565,1.47541,-27.159,2.21467,25.6339,1.93695,1.89965,-0.050247,-1.54663,1.36761,-1.45204,-0.661402,-0.12792,0.724541,0.792847,0.423123,0.673229,-0.853102,0.484033,-0.423966,-0.0325286,
0.230144,-0.219193,-0.121118,-1.74239,0.0191323,-0.17868,-0.383666,0.736355,-0.00258542,0.733359,-0.240073,0.646446,-0.0952231,0.0110609,0,0,0,0,0,0,0,0.231539,-0.21861,-0.119119,-1.74191,0.0162939,1.39416,0.401424,0.550053,0.014883,0.558596,-0.156426,0.336867,0.00987419,0.00396565,1.47541,-27.159,2.21467,25.6339,1.93695,1.89965,-0.050247,-1.54663,1.36761,-1.45204,-0.661402,-0.12792,0.724541,0.792847,0.423123,0.673229,-0.853102,0.484033,-0.423966,-0.0325286,
0.233131,-0.219183,-0.118108,-1.74335,0.0219178,-0.179076,-0.383624,0.746554,0.00254997,0.752517,-0.240191,0.696376,-0.0990627,0.0104677,0,0,0,0,0,0,0,0.231539,-0.21861,-0.119119,-1.74191,0.0162939,1.39416,0.401424,0.550053,0.014883,0.558596,-0.156426,0.336867,0.00987419,0.00396565,1.47541,-27.159,2.21467,25.6339,1.93695,1.89965,-0.050247,-1.38632,0.000705137,-0.888592,0.352971,-0.202766,0.063368,0.0726729,0.166152,-0.0331767,-0.645991,0.456133,-0.441446,-0.0277721,
0.218731,-0.219025,-0.132256,-1.73858,0.0101271,-0.177444,-0.383861,0.657406,-0.021335,0.621809,-0.226793,0.417864,-0.0288165,0.0144284,0,0,0,0,0,0,0,0.231539,-0.21861,-0.119119,-1.74191,0.0162939,1.39416,0.401424,0.550053,0.014883,0.558596,-0.156426,0.336867,0.00987419,0.00396565,1.47541,-27.159,2.21467,25.6339,1.93695,1.89965,-0.050247,-1.38632,0.000705137,-0.888592,0.352971,-0.202766,0.063368,0.0726729,0.166152,-0.0331767,-0.645991,0.456133,-0.441446,-0.0277721,
0.239358,-0.2187,-0.111646,-1.74455,0.0215044,-0.176775,-0.383801,0.6789,-0.00772582,0.660286,-0.231184,0.490458,-0.0330018,0.0134037,0,0,0,0,0,0,0,0.231539,-0.21861,-0.119119,-1.74191,0.0162939,1.39416,0.401424,0.550053,0.014883,0.558596,-0.156426,0.336867,0.00987419,0.00396565,1.47541,-27.159,2.21467,25.6339,1.93695,1.89965,-0.050247,-1.92959,-0.749158,-1.0685,0.790954,-0.60179,-0.235563,-0.194754,-0.0943679,-0.379606,-0.6004,0.330403,-0.394151,-0.0263189,
0.242152,-0.218716,-0.108884,-1.74549,0.0236951,-0.176976,-0.383751,0.698409,-0.00395253,0.690563,-0.234386,0.547664,-0.0503951,0.0124673,0,0,0,0,0,0,0,0.231539,-0.21861,-0.119119,-1.74191,0.0162939,1.39416,0.401424,0.550053,0.014883,0.558596,-0.156426,0.336867,0.00987419,0.00396565,1.47541,-27.159,2.21467,25.6339,1.93695,1.89965,-0.050247,-1.20038,-0.81535,-1.52306,0.783267,0.0587014,-0.298415,-0.208974,0.312884,-0.499011,-0.774347,0.289902,-0.325312,-0.0252441,
0.245008,-0.218714,-0.106019,-1.74643,0.0261068,-0.177227,-0.383704,0.714058,0.000449988,0.716212,-0.235739,0.602935,-0.0625579,0.0116704,0,0,0,0,0,0,0,0.25522,-0.217764,-0.0953345,-1.7483,0.0298939,1.39468,0.401428,0.557668,0.0169322,0.55915,-0.138027,0.360642,0.00280925,-7.82811e-05,-1.13507,-27.1828,-0.312487,25.5069,1.25305,2.11114,-0.0365141,-1.20038,-0.81535,-1.52306,0.783267,0.0587014,-0.298415,-0.208974,0.312884,-0.499011,-0.774347,0.289902,-0.325312,-0.0252441,
0.247914,-0.218695,-0.103067,-1.74738,0.0287272,-0.177506,-0.38366,0.726558,0.00492342,0.738079,-0.236144,0.655111,-0.0698369,0.0109774,0,0,0,0,0,0,0,0.25522,-0.217764,-0.0953345,-1.7483,0.0298939,1.39468,0.401428,0.557668,0.0169322,0.55915,-0.138027,0.360642,0.00280925,-7.82811e-05,-1.13507,-27.1828,-0.312487,25.5069,1.25305,2.11114,-0.0365141,-1.33184,2.5026,-1.8354,-1.43203,0.154027,1.24813,1.27547,0.731043,1.28744,-0.979341,0.640564,-0.351762,-0.0311607,
0.25086,-0.218658,-0.100039,-1.74832,0.0315414,-0.177798,-0.383619,0.73645,0.00923332,0.756834,-0.235949,0.703532,-0.0729482,0.0103692,0,0,0,0,0,0,0,0.25522,-0.217764,-0.0953345,-1.7483,0.0298939,1.39468,0.401428,0.557668,0.0169322,0.55915,-0.138027,0.360642,0.00280925,-7.82811e-05,-1.13507,-27.1828,-0.312487,25.5069,1.25305,2.11114,-0.0365141,-1.33184,2.5026,-1.8354,-1.43203,0.154027,1.24813,1.27547,0.731043,1.28744,-0.979341,0.640564,-0.351762,-0.0311607,
0.236642,-0.218669,-0.114287,-1.74363,0.0195426,-0.176643,-0.383854,0.654426,-0.00945501,0.624426,-0.223671,0.433188,-0.0114365,0.0145194,0,0,0,0,0,0,0,0.25522,-0.217764,-0.0953345,-1.7483,0.0298939,1.39468,0.401428,0.557668,0.0169322,0.55915,-0.138027,0.360642,0.00280925,-7.82811e-05,-1.13507,-27.1828,-0.312487,25.5069,1.25305,2.11114,-0.0365141,-1.80136,0.765177,-1.79285,-0.249973,-0.202405,0.480078,0.495678,0.382019,0.432622,-0.907098,0.521793,-0.375261,-0.0286931,
0.262961,-0.217851,-0.0877641,-1.75082,0.0353772,-0.176093,-0.383801,0.671133,-0.00733349,0.667966,-0.222938,0.510834,-0.0131787,0.0132832,0,0,0,0,0,0,0,0.25522,-0.217764,-0.0953345,-1.7483,0.0298939,1.39468,0.401428,0.557668,0.0169322,0.55915,-0.138027,0.360642,0.00280925,-7.82811e-05,-1.13507,-27.1828,-0.312487,25.5069,1.25305,2.11114,-0.0365141,-1.80136,0.765177,-1.79285,-0.249973,-0.202405,0.480078,0.495678,0.382019,0.432622,-0.907098,0.521793,-0.375261,-0.0286931,
0.265722,-0.217864,-0.084974,-1.75173,0.0376388,-0.176202,-0.383752,0.6901,-0.00328253,0.697531,-0.226607,0.565406,-0.027187,0.0123504,0,0,0,0,0,0,0,0.273187,-0.216981,-0.077012,-1.75261,0.0404286,1.39497,0.401427,0.544614,0.026871,0.599031,-0.131642,0.390552,0.00132408,0.00315222,1.70551,-27.1352,2.01234,25.0586,1.46087,2.23107,-0.0301054,-1.23459,-2.13185,-2.07548,1.60906,0.219916,-0.892172,-0.832496,0.364866,-1.14431,-0.93322,0.196388,-0.302579,-0.0236214,
0.268543,-0.217859,-0.0820837,-1.75264,0.0401114,-0.17635,-0.383706,0.705296,0.0013392,0.722575,-0.22822,0.618166,-0.0370033,0.0115422,0,0,0,0,0,0,0,0.273187,-0.216981,-0.077012,-1.75261,0.0404286,1.39497,0.401427,0.544614,0.026871,0.599031,-0.131642,0.390552,0.00132408,0.00315222,1.70551,-27.1352,2.01234,25.0586,1.46087,2.23107,-0.0301054,-1.40407,-0.436943,-2.30411,0.440288,0.183328,-0.0825388,-0.0226519,0.544032,-0.230471,-1.02268,0.340756,-0.282418,-0.0282826,
0.271413,-0.217835,-0.079108,-1.75356,0.0427835,-0.176521,-0.383662,0.717404,0.00595235,0.743921,-0.228799,0.668016,-0.0426679,0.0108383,0,0,0,0,0,0,0,0.273187,-0.216981,-0.077012,-1.75261,0.0404286,1.39497,0.401427,0.544614,0.026871,0.599031,-0.131642,0.390552,0.00132408,0.00315222,1.70551,-27.1352,2.01234,25.0586,1.46087,2.23107,-0.0301054,-1.40407,-0.436943,-2.30411,0.440288,0.183328,-0.0825388,-0.0226519,0.544032,-0.230471,-1.02268,0.340756,-0.282418,-0.0282826,
0.27432,-0.217794,-0.0760592,-1.75447,0.0456408,-0.176699,-0.383621,0.726955,0.0103293,0.762219,-0.228738,0.714317,-0.0447105,0.0102206,0,0,0,0,0,0,0,0.273187,-0.216981,-0.077012,-1.75261,0.0404286,1.39497,0.401427,0.544614,0.026871,0.599031,-0.131642,0.390552,0.00132408,0.00315222,1.70551,-27.1352,2.01234,25.0586,1.46087,2.23107,-0.0301054,-1.5064,1.5801,-2.26866,-0.876429,0.182462,0.854678,0.862493,0.75489,0.859675,-1.09295,0.585293,-0.328873,-0.0326156,
0.260277,-0.217822,-0.090436,-1.74993,0.0333338,-0.17604,-0.383854,0.64745,-0.00928842,0.632873,-0.214423,0.456141,0.00338615,0.0143233,0,0,0,0,0,0,0,0.273187,-0.216981,-0.077012,-1.75261,0.0404286,1.39497,0.401427,0.544614,0.026871,0.599031,-0.131642,0.390552,0.00132408,0.00315222,1.70551,-27.1352,2.01234,25.0586,1.46087,2.23107,-0.0301054,-1.5064,1.5801,-2.26866,-0.876429,0.182462,0.854678,0.862493,0.75489,0.859675,-1.09295,0.585293,-0.328873,-0.0326156,
0.280933,-0.216974,-0.0692321,-1.75508,0.0462498,-0.175658,-0.383806,0.669733,-0.000310452,0.682519,-0.219044,0.538143,0.00345067,0.0128519,0,0,0,0,0,0,0,0.273187,-0.216981,-0.077012,-1.75261,0.0404286,1.39497,0.401427,0.544614,0.026871,0.599031,-0.131642,0.390552,0.00132408,0.00315222,1.70551,-27.1352,2.01234,25.0586,1.46087,2.23107,-0.0301054,-1.39427,0.0483782,-2.02614,0.145291,0.105705,0.152856,0.20896,0.499322,0.0337569,-0.931903,0.425078,-0.282645,-0.0287545,
0.283682,-0.216962,-0.0663916,-1.75597,0.048613,-0.175689,-0.383758,0.68713,0.00316334,0.710127,-0.222546,0.590787,-0.00768065,0.0119581,0,0,0,0,0,0,0,0.290962,-0.216322,-0.0584511,-1.75693,0.051139,1.39564,0.40143,0.573929,0.0201054,0.592197,-0.135895,0.370286,0.0179077,0.000720421,0.741459,-27.2344,0.937208,24.9118,1.60736,2.09832,-0.0566557,-1.39427,0.0483782,-2.02614,0.145291,0.105705,0.152856,0.20896,0.499322,0.0337569,-0.931903,0.425078,-0.282645,-0.0287545,
0.286486,-0.216933,-0.0634573,-1.75687,0.0511781,-0.175751,-0.383713,0.701031,0.00722474,0.733566,-0.223939,0.641275,-0.0153803,0.0111813,0,0,0,0,0,0,0,0.290962,-0.216322,-0.0584511,-1.75693,0.051139,1.39564,0.40143,0.573929,0.0201054,0.592197,-0.135895,0.370286,0.0179077,0.000720421,0.741459,-27.2344,0.937208,24.9118,1.60736,2.09832,-0.0566557,-0.79293,-0.938368,-2.46374,0.744291,0.686996,-0.359254,-0.293453,0.782651,-0.554636,-1.10714,0.325852,-0.257345,-0.0280675,
0.289334,-0.216888,-0.060443,-1.75777,0.053933,-0.175829,-0.383671,0.712061,0.0112886,0.753577,-0.224295,0.688723,-0.0195051,0.0105021,0,0,0,0,0,0,0,0.290962,-0.216322,-0.0584511,-1.75693,0.051139,1.39564,0.40143,0.573929,0.0201054,0.592197,-0.135895,0.370286,0.0179077,0.000720421,0.741459,-27.2344,0.937208,24.9118,1.60736,2.09832,-0.0566557,-1.64848,1.10565,-2.20759,-0.574706,0.0593107,0.673336,0.691734,0.642162,0.646023,-1.04693,0.569297,-0.324021,-0.0318947,
0.292217,-0.216827,-0.05736,-1.75866,0.0568635,-0.175911,-0.383632,0.720708,0.015131,0.770751,-0.224029,0.732626,-0.0204614,0.00990443,0,0,0,0,0,0,0,0.290962,-0.216322,-0.0584511,-1.75693,0.051139,1.39564,0.40143,0.573929,0.0201054,0.592197,-0.135895,0.370286,0.0179077,0.000720421,0.741459,-27.2344,0.937208,24.9118,1.60736,2.09832,-0.0566557,-1.64848,1.10565,-2.20759,-0.574706,0.0593107,0.673336,0.691734,0.642162,0.646023,-1.04693,0.569297,-0.324021,-0.0318947,
0.295126,-0.216753,-0.0542178,-1.75955,0.0599545,-0.175986,-0.383594,0.72736,0.0186665,0.785561,-0.223317,0.772758,-0.0187746,0.0093752,0,0,0,0,0,0,0,0.290962,-0.216322,-0.0584511,-1.75693,0.051139,1.39564,0.40143,0.573929,0.0201054,0.592197,-0.135895,0.370286,0.0179077,0.000720421,0.741459,-27.2344,0.937208,24.9118,1.60736,2.09832,-0.0566557,-1.53152,0.191185,-2.18894,-0.0155862,0.120044,0.257594,0.284588,0.585827,0.178679,-1.03365,0.449471,-0.327249,-0.0307657,
0.278254,-0.216973,-0.0719622,-1.75421,0.0440973,-0.175672,-0.383857,0.64794,-0.00163023,0.649885,-0.210502,0.48469,0.0160663,0.0138766,0,0,0,0,0,0,0,0.308136,-0.215825,-0.0401706,-1.76138,0.0620337,1.39685,0.401429,0.552596,0.0100796,0.588205,-0.146535,0.365071,0.0441235,0.00124068,1.98322,-26.909,1.81398,24.8602,1.93145,2.07177,-0.050247,-1.53152,0.191185,-2.18894,-0.0155862,0.120044,0.257594,0.284588,0.585827,0.178679,-1.03365,0.449471,-0.327249,-0.0307657,
0.315736,-0.21586,-0.0323534,-1.7638,0.0676901,-0.173429,-0.383806,0.657024,-0.00118533,0.685503,-0.211842,0.527109,0.0321242,0.0128058,0,0,0,0,0,0,0,0.308136,-0.215825,-0.0401706,-1.76138,0.0620337,1.39685,0.401429,0.552596,0.0100796,0.588205,-0.146535,0.365071,0.0441235,0.00124068,1.98322,-26.909,1.81398,24.8602,1.93145,2.07177,-0.050247,-1.05031,0.520476,-2.7433,-0.348205,0.643819,0.359305,0.41705,0.998767,0.272382,-1.25213,0.422063,-0.282282,-0.0317166,
0.318434,-0.215847,-0.0295018,-1.76466,0.0700152,-0.173342,-0.383758,0.674367,0.00318357,0.71292,-0.215044,0.581298,0.0219363,0.011904,0,0,0,0,0,0,0,0.308136,-0.215825,-0.0401706,-1.76138,0.0620337,1.39685,0.401429,0.552596,0.0100796,0.588205,-0.146535,0.365071,0.0441235,0.00124068,1.98322,-26.909,1.81398,24.8602,1.93145,2.07177,-0.050247,-1.05031,0.520476,-2.7433,-0.348205,0.643819,0.359305,0.41705,0.998767,0.272382,-1.25213,0.422063,-0.282282,-0.0317166,
0.321187,-0.215816,-0.0265568,-1.76553,0.0725465,-0.173282,-0.383714,0.688283,0.00772062,0.736248,-0.216529,0.632808,0.0150095,0.0111128,0,0,0,0,0,0,0,0.308136,-0.215825,-0.0401706,-1.76138,0.0620337,1.39685,0.401429,0.552596,0.0100796,0.588205,-0.146535,0.365071,0.0441235,0.00124068,1.98322,-26.909,1.81398,24.8602,1.93145,2.07177,-0.050247,-0.911385,-0.710097,-2.84682,0.516858,0.846877,-0.225165,-0.175618,1.00387,-0.395793,-1.33345,0.412158,-0.337793,-0.0277525,
0.323984,-0.215768,-0.023532,-1.76639,0.0752701,-0.173236,-0.383672,0.699363,0.0120384,0.756199,-0.217081,0.680917,0.0113243,0.0104189,0,0,0,0,0,0,0,0.308136,-0.215825,-0.0401706,-1.76138,0.0620337,1.39685,0.401429,0.552596,0.0100796,0.588205,-0.146535,0.365071,0.0441235,0.00124068,1.98322,-26.909,1.81398,24.8602,1.93145,2.07177,-0.050247,-1.76566,1.11506,-2.44891,-0.606338,0.126733,0.715059,0.727107,0.752439,0.687745,-1.16285,0.651188,-0.349965,-0.0323943,
0.326817,-0.215704,-0.0204386,-1.76726,0.0781711,-0.173194,-0.383633,0.708076,0.0160007,0.773342,-0.217019,0.725235,0.0104845,0.00980802,0,0,0,0,0,0,0,0.326169,-0.215309,-0.0204248,-1.76593,0.0746865,1.39855,0.401429,0.540224,0.0185872,0.604317,-0.136692,0.340882,0.0595214,-0.000254908,0.717655,-27.3573,0.286573,25.3085,1.5039,2.03148,-0.00996382,-1.76566,1.11506,-2.44891,-0.606338,0.126733,0.715059,0.727107,0.752439,0.687745,-1.16285,0.651188,-0.349965,-0.0323943,
0.329676,-0.215626,-0.017286,-1.76813,0.0812336,-0.173146,-0.383596,0.714795,0.0195669,0.788141,-0.216496,0.76562,0.0120205,0.00926763,0,0,0,0,0,0,0,0.326169,-0.215309,-0.0204248,-1.76593,0.0746865,1.39855,0.401429,0.540224,0.0185872,0.604317,-0.136692,0.340882,0.0595214,-0.000254908,0.717655,-27.3573,0.286573,25.3085,1.5039,2.03148,-0.00996382,-0.511057,-0.651923,-2.26302,0.521031,0.858931,-0.247901,-0.222308,0.874521,-0.396099,-1.07724,0.410911,-0.267011,-0.0297614,
0.313108,-0.215855,-0.0350955,-1.76295,0.0655816,-0.173558,-0.383857,0.635459,-0.00431763,0.653157,-0.204837,0.471354,0.0443383,0.0137923,0,0,0,0,0,0,0,0.326169,-0.215309,-0.0204248,-1.76593,0.0746865,1.39855,0.401429,0.540224,0.0185872,0.604317,-0.136692,0.340882,0.0595214,-0.000254908,0.717655,-27.3573,0.286573,25.3085,1.5039,2.03148,-0.00996382,-0.511057,-0.651923,-2.26302,0.521031,0.858931,-0.247901,-0.222308,0.874521,-0.396099,-1.07724,0.410911,-0.267011,-0.0297614,
0.333666,-0.215276,-0.0125259,-1.76829,0.0801922,-0.171446,-0.383809,0.647534,0.00383094,0.69088,-0.207009,0.518532,0.0573022,0.0125826,0,0,0,0,0,0,0,0.326169,-0.215309,-0.0204248,-1.76593,0.0746865,1.39855,0.401429,0.540224,0.0185872,0.604317,-0.136692,0.340882,0.0595214,-0.000254908,0.717655,-27.3573,0.286573,25.3085,1.5039,2.03148,-0.00996382,-0.797639,-0.311459,-1.81502,0.303239,0.397284,-0.0329231,0.0263534,0.559569,-0.169223,-0.817733,0.377937,-0.19563,-0.0324752,
0.336323,-0.215245,-0.00965621,-1.76913,0.0824918,-0.171255,-0.383762,0.664276,0.00769335,0.717415,-0.210268,0.574899,0.0477769,0.0117014,0,0,0,0,0,0,0,0.326169,-0.215309,-0.0204248,-1.76593,0.0746865,1.39855,0.401429,0.540224,0.0185872,0.604317,-0.136692,0.340882,0.0595214,-0.000254908,0.717655,-27.3573,0.286573,25.3085,1.5039,2.03148,-0.00996382,-0.716271,-0.211305,-1.56839,0.330277,0.403107,-0.00900997,0.0364832,0.516997,-0.145203,-0.739986,0.469286,-0.201152,-0.0327611,
0.339034,-0.215198,-0.00669588,-1.76997,0.085003,-0.171091,-0.383718,0.677752,0.0117615,0.740081,-0.211706,0.627792,0.0411224,0.0109223,0,0,0,0,0,0,0,0.326169,-0.215309,-0.0204248,-1.76593,0.0746865,1.39855,0.401429,0.540224,0.0185872,0.604317,-0.136692,0.340882,0.0595214,-0.000254908,0.717655,-27.3573,0.286573,25.3085,1.5039,2.03148,-0.00996382,-0.716271,-0.211305,-1.56839,0.330277,0.403107,-0.00900997,0.0364832,0.516997,-0.145203,-0.739986,0.469286,-0.201152,-0.0327611,
0.341788,-0.215135,-0.00365776,-1.77082,0.08771,-0.170941,-0.383677,0.688504,0.015629,0.75953,-0.21218,0.676752,0.0374519,0.0102363,0,0,0,0,0,0,0,0.343277,-0.214681,-0.00132786,-1.77013,0.0865631,1.39994,0.401431,0.554736,0.0315005,0.609834,-0.134549,0.368645,0.0508704,-0.000218778,-0.0956386,-27.6827,-0.33629,26.0544,1.88842,1.97198,-0.0227812,-1.37377,1.2533,-1.38389,-0.528681,-0.0405428,0.730418,0.740184,0.429996,0.697916,-0.689513,0.723649,-0.240314,-0.0314818,
0.344576,-0.215059,-0.000552571,-1.77167,0.0905963,-0.170795,-0.383639,0.696952,0.0191584,0.776298,-0.212039,0.721569,0.0364507,0.00963017,0,0,0,0,0,0,0,0.343277,-0.214681,-0.00132786,-1.77013,0.0865631,1.39994,0.401431,0.554736,0.0315005,0.609834,-0.134549,0.368645,0.0508704,-0.000218778,-0.0956386,-27.6827,-0.33629,26.0544,1.88842,1.97198,-0.0227812,-1.37377,1.2533,-1.38389,-0.528681,-0.0405428,0.730418,0.740184,0.429996,0.697916,-0.689513,0.723649,-0.240314,-0.0314818,
0.347389,-0.214969,0.00261092,-1.77252,0.0936453,-0.170644,-0.383602,0.70335,0.0223116,0.790872,-0.21146,0.762263,0.0377448,0.00913584,0,0,0,0,0,0,0,0.343277,-0.214681,-0.00132786,-1.77013,0.0865631,1.39994,0.401431,0.554736,0.0315005,0.609834,-0.134549,0.368645,0.0508704,-0.000218778,-0.0956386,-27.6827,-0.33629,26.0544,1.88842,1.97198,-0.0227812,-1.07802,0.644607,-2.0132,-0.290488,0.36851,0.419815,0.424146,0.708887,0.368962,-0.93208,0.598422,-0.230766,-0.0297442,
0.331076,-0.215291,-0.0152894,-1.76746,0.0781181,-0.171675,-0.383859,0.62679,0.00131619,0.659739,-0.199651,0.459406,0.0681864,0.0135331,0,0,0,0,0,0,0,0.343277,-0.214681,-0.00132786,-1.77013,0.0865631,1.39994,0.401431,0.554736,0.0315005,0.609834,-0.134549,0.368645,0.0508704,-0.000218778,-0.0956386,-27.6827,-0.33629,26.0544,1.88842,1.97198,-0.0227812,-1.07802,0.644607,-2.0132,-0.290488,0.36851,0.419815,0.424146,0.708887,0.368962,-0.93208,0.598422,-0.230766,-0.0297442,
0.350744,-0.21453,0.00671956,-1.77248,0.0923919,-0.170006,-0.383814,0.643461,0.0124449,0.701777,-0.205817,0.542948,0.0662374,0.0121529,0,0,0,0,0,0,0,0.343277,-0.214681,-0.00132786,-1.77013,0.0865631,1.39994,0.401431,0.554736,0.0315005,0.609834,-0.134549,0.368645,0.0508704,-0.000218778,-0.0956386,-27.6827,-0.33629,26.0544,1.88842,1.97198,-0.0227812,-0.807797,-0.0905941,-2.24901,0.0643317,0.558255,0.07131,0.120213,0.762641,-0.0400907,-0.981676,0.420598,-0.184514,-0.0282142,
0.353381,-0.214469,0.00962766,-1.77331,0.0947781,-0.169767,-0.383768,0.659147,0.0153808,0.727024,-0.208596,0.596553,0.0597762,0.0113103,0,0,0,0,0,0,0,0.365568,-0.213448,0.02416,-1.77504,0.101774,1.40189,0.401439,0.537616,0.0316897,0.618354,-0.116258,0.407053,0.0621008,0.000918549,0.590702,-27.6073,0.0366345,25.257,2.03491,1.8731,-0.0566557,-0.651133,-0.482873,-1.84278,0.413956,0.521566,-0.127821,-0.0717325,0.599732,-0.278362,-0.819164,0.426674,-0.172417,-0.0274026,
0.356068,-0.214394,0.0126221,-1.77415,0.0973652,-0.169545,-0.383726,0.671712,0.0185957,0.748611,-0.209566,0.646769,0.0554646,0.0105594,0,0,0,0,0,0,0,0.365568,-0.213448,0.02416,-1.77504,0.101774,1.40189,0.401439,0.537616,0.0316897,0.618354,-0.116258,0.407053,0.0621008,0.000918549,0.590702,-27.6073,0.0366345,25.257,2.03491,1.8731,-0.0566557,-0.651133,-0.482873,-1.84278,0.413956,0.521566,-0.127821,-0.0717325,0.599732,-0.278362,-0.819164,0.426674,-0.172417,-0.0274026,
0.358794,-0.214308,0.0156909,-1.77499,0.100138,-0.169331,-0.383686,0.681567,0.0216701,0.767206,-0.20963,0.693251,0.053622,0.00993941,0,0,0,0,0,0,0,0.365568,-0.213448,0.02416,-1.77504,0.101774,1.40189,0.401439,0.537616,0.0316897,0.618354,-0.116258,0.407053,0.0621008,0.000918549,0.590702,-27.6073,0.0366345,25.257,2.03491,1.8731,-0.0566557,-1.82012,1.4617,-2.09914,-0.844211,-0.0994535,0.924444,0.947873,0.601979,0.915745,-0.93207,0.717353,-0.235872,-0.0308457,
0.361557,-0.21421,0.0188219,-1.77582,0.103051,-0.169115,-0.383649,0.690791,0.0244508,0.782731,-0.208841,0.728192,0.0539271,0.0093792,0,0,0,0,0,0,0,0.365568,-0.213448,0.02416,-1.77504,0.101774,1.40189,0.401439,0.537616,0.0316897,0.618354,-0.116258,0.407053,0.0621008,0.000918549,0.590702,-27.6073,0.0366345,25.257,2.03491,1.8731,-0.0566557,-1.82012,1.4617,-2.09914,-0.844211,-0.0994535,0.924444,0.947873,0.601979,0.915745,-0.93207,0.717353,-0.235872,-0.0308457,
0.364361,-0.214102,0.0219991,-1.77665,0.106039,-0.168891,-0.383614,0.700945,0.0268265,0.794318,-0.207329,0.74705,0.0559801,0.00883151,0,0,0,0,0,0,0,0.365568,-0.213448,0.02416,-1.77504,0.101774,1.40189,0.401439,0.537616,0.0316897,0.618354,-0.116258,0.407053,0.0621008,0.000918549,0.590702,-27.6073,0.0366345,25.257,2.03491,1.8731,-0.0566557,-1.65054,-0.143557,-2.33912,0.155624,0.0720806,0.202788,0.213921,0.538889,0.120188,-1.00395,0.572554,-0.238312,-0.0277187,
0.350744,-0.21453,0.00671961,-1.77248,0.0923911,-0.170006,-0.383814,0.643468,0.0124434,0.701782,-0.205818,0.542857,0.0662651,0.0121525,0,0,0,0,0,0,0,0.365568,-0.213448,0.02416,-1.77504,0.101774,1.40189,0.401439,0.537616,0.0316897,0.618354,-0.116258,0.407053,0.0621008,0.000918549,0.590702,-27.6073,0.0366345,25.257,2.03491,1.8731,-0.0566557,-0.937422,-0.93948,-2.64773,0.533697,0.589234,-0.258463,-0.208674,0.75494,-0.408389,-1.10055,0.381786,-0.176532,-0.0267041,
0.372908,-0.213318,0.0322504,-1.77726,0.107915,-0.167769,-0.383808,0.633041,0.010671,0.705442,-0.196983,0.563843,0.0930467,0.0119557,0,0,0,0,0,0,0,0.38228,-0.212325,0.0434842,-1.77832,0.113601,1.40376,0.401434,0.552532,0.0311991,0.637901,-0.110674,0.404759,0.0597133,7.46021e-05,0.765262,-27.0598,-0.0863513,25.856,2.3645,1.97198,-0.0227812,-0.937422,-0.93948,-2.64773,0.533697,0.589234,-0.258463,-0.208674,0.75494,-0.408389,-1.10055,0.381786,-0.176532,-0.0267041,
0.375503,-0.213262,0.0351737,-1.77806,0.110369,-0.167418,-0.383763,0.648628,0.0138305,0.730826,-0.200405,0.613339,0.0877193,0.0111536,0,0,0,0,0,0,0,0.38228,-0.212325,0.0434842,-1.77832,0.113601,1.40376,0.401434,0.552532,0.0311991,0.637901,-0.110674,0.404759,0.0597133,7.46021e-05,0.765262,-27.0598,-0.0863513,25.856,2.3645,1.97198,-0.0227812,0.238424,-0.595193,-2.78681,0.266998,1.50268,-0.353195,-0.295499,1.29271,-0.520729,-1.23667,0.404272,-0.153361,-0.0263841,
0.378153,-0.213193,0.0381815,-1.77887,0.112979,-0.167083,-0.383721,0.662605,0.0172499,0.751954,-0.20151,0.652564,0.0838251,0.0104255,0,0,0,0,0,0,0,0.38228,-0.212325,0.0434842,-1.77832,0.113601,1.40376,0.401434,0.552532,0.0311991,0.637901,-0.110674,0.404759,0.0597133,7.46021e-05,0.765262,-27.0598,-0.0863513,25.856,2.3645,1.97198,-0.0227812,0.238424,-0.595193,-2.78681,0.266998,1.50268,-0.353195,-0.295499,1.29271,-0.520729,-1.23667,0.404272,-0.153361,-0.0263841,
0.38086,-0.213112,0.0412542,-1.77967,0.115685,-0.166756,-0.383682,0.676722,0.0204038,0.768177,-0.201266,0.676483,0.0818013,0.00973295,0,0,0,0,0,0,0,0.38228,-0.212325,0.0434842,-1.77832,0.113601,1.40376,0.401434,0.552532,0.0311991,0.637901,-0.110674,0.404759,0.0597133,7.46021e-05,0.765262,-27.0598,-0.0863513,25.856,2.3645,1.97198,-0.0227812,-1.23492,1.84078,-2.86785,-1.33005,0.604193,0.98547,1.01412,1.21299,0.997111,-1.27654,0.700964,-0.223389,-0.0314449,
0.383613,-0.21302,0.0443806,-1.78048,0.118452,-0.166429,-0.383646,0.688219,0.0230744,0.781606,-0.200501,0.691676,0.0816757,0.00906616,0,0,0,0,0,0,0,0.38228,-0.212325,0.0434842,-1.77832,0.113601,1.40376,0.401434,0.552532,0.0311991,0.637901,-0.110674,0.404759,0.0597133,7.46021e-05,0.765262,-27.0598,-0.0863513,25.856,2.3645,1.97198,-0.0227812,-1.46315,0.260917,-2.65824,-0.249676,0.307841,0.372587,0.39929,0.796489,0.308896,-1.1313,0.578883,-0.213515,-0.0302997,
0.3864,-0.212918,0.04755,-1.78128,0.121266,-0.166096,-0.383612,0.696899,0.0252746,0.792354,-0.199577,0.70356,0.0832371,0.00851531,0,0,0,0,0,0,0,0.398888,-0.211439,0.0628524,-1.78162,0.125441,1.40634,0.401434,0.531911,0.0264974,0.627269,-0.105766,0.388816,0.0932372,-0.00111948,0.0551182,-27.4843,-0.736986,25.0348,1.48559,2.11114,-0.00996382,-1.46315,0.260917,-2.65824,-0.249676,0.307841,0.372587,0.39929,0.796489,0.308896,-1.1313,0.578883,-0.213515,-0.0302997,
0.372909,-0.213318,0.0322509,-1.77726,0.107907,-0.167767,-0.383808,0.633111,0.0106551,0.705502,-0.196989,0.562823,0.0933165,0.0119509,0,0,0,0,0,0,0,0.398888,-0.211439,0.0628524,-1.78162,0.125441,1.40634,0.401434,0.531911,0.0264974,0.627269,-0.105766,0.388816,0.0932372,-0.00111948,0.0551182,-27.4843,-0.736986,25.0348,1.48559,2.11114,-0.00996382,-1.15027,-0.419395,-2.86935,0.0889626,0.532117,0.0350694,0.0770008,0.86241,-0.0664537,-1.1925,0.442277,-0.184427,-0.0306528,
0.406124,-0.211342,0.0710223,-1.78373,0.131448,-0.162914,-0.383817,0.624473,0.00870836,0.71083,-0.188174,0.55005,0.12664,0.0117485,0,0,0,0,0,0,0,0.398888,-0.211439,0.0628524,-1.78162,0.125441,1.40634,0.401434,0.531911,0.0264974,0.627269,-0.105766,0.388816,0.0932372,-0.00111948,0.0551182,-27.4843,-0.736986,25.0348,1.48559,2.11114,-0.00996382,-1.15027,-0.419395,-2.86935,0.0889626,0.532117,0.0350694,0.0770008,0.86241,-0.0664537,-1.1925,0.442277,-0.184427,-0.0306528,
0.408699,-0.211293,0.0739553,-1.78449,0.133772,-0.16243,-0.383773,0.643924,0.0123149,0.73326,-0.191429,0.58085,0.120893,0.0109067,0,0,0,0,0,0,0,0.398888,-0.211439,0.0628524,-1.78162,0.125441,1.40634,0.401434,0.531911,0.0264974,0.627269,-0.105766,0.388816,0.0932372,-0.00111948,0.0551182,-27.4843,-0.736986,25.0348,1.48559,2.11114,-0.00996382,-0.777215,-1.00257,-2.64943,0.529067,0.716082,-0.288468,-0.228823,0.817971,-0.451209,-1.11477,0.419619,-0.173171,-0.0291062,
0.411339,-0.21123,0.0769629,-1.78526,0.136184,-0.161965,-0.383733,0.659921,0.0158466,0.751902,-0.19271,0.603142,0.1163,0.0100898,0,0,0,0,0,0,0,0.398888,-0.211439,0.0628524,-1.78162,0.125441,1.40634,0.401434,0.531911,0.0264974,0.627269,-0.105766,0.388816,0.0932372,-0.00111948,0.0551182,-27.4843,-0.736986,25.0348,1.48559,2.11114,-0.00996382,-1.59223,1.44327,-2.71284,-1.0672,0.313348,0.909886,0.945609,1.00926,0.900797,-1.1984,0.723482,-0.237885,-0.0328796,
0.414029,-0.211154,0.0800311,-1.78604,0.138673,-0.161511,-0.383695,0.672413,0.0189341,0.767038,-0.193218,0.622148,0.113484,0.00940364,0,0,0,0,0,0,0,0.398888,-0.211439,0.0628524,-1.78162,0.125441,1.40634,0.401434,0.531911,0.0264974,0.627269,-0.105766,0.388816,0.0932372,-0.00111948,0.0551182,-27.4843,-0.736986,25.0348,1.48559,2.11114,-0.00996382,-1.59223,1.44327,-2.71284,-1.0672,0.313348,0.909886,0.945609,1.00926,0.900797,-1.1984,0.723482,-0.237885,-0.0328796,
0.41676,-0.211068,0.0831482,-1.78681,0.141206,-0.161062,-0.38366,0.682681,0.0215741,0.779273,-0.192975,0.633323,0.112281,0.00883936,0,0,0,0,0,0,0,0.415286,-0.210602,0.0824505,-1.78513,0.137476,1.40981,0.401439,0.516029,0.0273649,0.605206,-0.113547,0.340333,0.128448,0.000754379,-0.781979,-27.5081,-1.8637,25.4831,1.28326,2.19811,-0.0566557,-1.84142,0.79381,-2.61746,-0.655507,0.0632327,0.713566,0.74353,0.77791,0.689686,-1.12775,0.648406,-0.238604,-0.0322389,
0.419522,-0.210973,0.0863044,-1.78758,0.143761,-0.160612,-0.383627,0.690745,0.0237345,0.789046,-0.192309,0.638673,0.112563,0.0082839,0,0,0,0,0,0,0,0.415286,-0.210602,0.0824505,-1.78513,0.137476,1.40981,0.401439,0.516029,0.0273649,0.605206,-0.113547,0.340333,0.128448,0.000754379,-0.781979,-27.5081,-1.8637,25.4831,1.28326,2.19811,-0.0566557,-1.84142,0.79381,-2.61746,-0.655507,0.0632327,0.713566,0.74353,0.77791,0.689686,-1.12775,0.648406,-0.238604,-0.0322389,
0.406132,-0.211344,0.071028,-1.78373,0.131348,-0.162894,-0.383817,0.625255,0.00855158,0.711499,-0.188126,0.538412,0.128884,0.0116941,0,0,0,0,0,0,0,0.415286,-0.210602,0.0824505,-1.78513,0.137476,1.40981,0.401439,0.516029,0.0273649,0.605206,-0.113547,0.340333,0.128448,0.000754379,-0.781979,-27.5081,-1.8637,25.4831,1.28326,2.19811,-0.0566557,-0.574053,-1.03746,-2.68191,0.45273,0.853819,-0.32492,-0.262112,0.90844,-0.481582,-1.1498,0.377312,-0.178301,-0.027784,
0.422319,-0.210455,0.0904712,-1.78721,0.142593,-0.159122,-0.383809,0.611926,0.0128909,0.698124,-0.183781,0.458187,0.152877,0.0117685,0,0,0,0,0,0,0,0.415286,-0.210602,0.0824505,-1.78513,0.137476,1.40981,0.401439,0.516029,0.0273649,0.605206,-0.113547,0.340333,0.128448,0.000754379,-0.781979,-27.5081,-1.8637,25.4831,1.28326,2.19811,-0.0566557,-0.574053,-1.03746,-2.68191,0.45273,0.853819,-0.32492,-0.262112,0.90844,-0.481582,-1.1498,0.377312,-0.178301,-0.027784,
0.424844,-0.210392,0.0933558,-1.78796,0.144533,-0.158534,-0.383766,0.631155,0.0157934,0.721142,-0.18707,0.484981,0.146889,0.0108749,0,0,0,0,0,0,0,0.415286,-0.210602,0.0824505,-1.78513,0.137476,1.40981,0.401439,0.516029,0.0273649,0.605206,-0.113547,0.340333,0.128448,0.000754379,-0.781979,-27.5081,-1.8637,25.4831,1.28326,2.19811,-0.0566557,-0.0948381,-0.637489,-2.90001,0.117809,1.32202,-0.28286,-0.230734,1.27025,-0.420949,-1.308,0.421454,-0.20447,-0.0275851,
0.427432,-0.210317,0.0963157,-1.78871,0.146551,-0.157966,-0.383725,0.64709,0.0186962,0.739968,-0.188393,0.504567,0.141889,0.0101159,0,0,0,0,0,0,0,0.43236,-0.209775,0.102955,-1.78883,0.149758,1.41425,0.401439,0.531455,0.0204151,0.647598,-0.116913,0.38641,0.140999,0.00304623,1.37622,-27.0836,0.238966,25.1578,1.89483,1.9262,-0.0566557,-1.394,0.82593,-2.67083,-0.756707,0.416074,0.631515,0.659288,1.00233,0.607602,-1.19618,0.642938,-0.246975,-0.0287542,
0.430072,-0.210232,0.0993367,-1.78946,0.148625,-0.157413,-0.383688,0.65994,0.0212351,0.75527,-0.18877,0.518571,0.13847,0.0093897,0,0,0,0,0,0,0,0.43236,-0.209775,0.102955,-1.78883,0.149758,1.41425,0.401439,0.531455,0.0204151,0.647598,-0.116913,0.38641,0.140999,0.00304623,1.37622,-27.0836,0.238966,25.1578,1.89483,1.9262,-0.0566557,-1.394,0.82593,-2.67083,-0.756707,0.416074,0.631515,0.659288,1.00233,0.607602,-1.19618,0.642938,-0.246975,-0.0287542,
0.432751,-0.210139,0.102406,-1.79022,0.150749,-0.156866,-0.383653,0.669719,0.0233203,0.767396,-0.18876,0.530959,0.136711,0.00873108,0,0,0,0,0,0,0,0.43236,-0.209775,0.102955,-1.78883,0.149758,1.41425,0.401439,0.531455,0.0204151,0.647598,-0.116913,0.38641,0.140999,0.00304623,1.37622,-27.0836,0.238966,25.1578,1.89483,1.9262,-0.0566557,-2.159,1.48875,-2.66891,-1.21107,-0.113033,1.10228,1.11464,0.854579,1.14844,-1.16623,0.706696,-0.261661,-0.0305803,
0.43546,-0.210039,0.105514,-1.79097,0.152909,-0.15632,-0.38362,0.677213,0.0250243,0.776837,-0.188331,0.539976,0.13639,0.00819625,0,0,0,0,0,0,0,0.43236,-0.209775,0.102955,-1.78883,0.149758,1.41425,0.401439,0.531455,0.0204151,0.647598,-0.116913,0.38641,0.140999,0.00304623,1.37622,-27.0836,0.238966,25.1578,1.89483,1.9262,-0.0566557,-2.159,1.48875,-2.66891,-1.21107,-0.113033,1.10228,1.11464,0.854579,1.14844,-1.16623,0.706696,-0.261661,-0.0305803,
0.42238,-0.210463,0.0905134,-1.7872,0.14182,-0.159027,-0.383814,0.617774,0.0118526,0.703094,-0.182747,0.36919,0.163892,0.0113353,0,0,0,0,0,0,0,0.43236,-0.209775,0.102955,-1.78883,0.149758,1.41425,0.401439,0.531455,0.0204151,0.647598,-0.116913,0.38641,0.140999,0.00304623,1.37622,-27.0836,0.238966,25.1578,1.89483,1.9262,-0.0566557,-1.51776,-0.0382973,-2.38417,-0.23472,0.113281,0.356392,0.395822,0.665997,0.305781,-1.03193,0.460478,-0.223973,-0.0284839,
0.439666,-0.209668,0.111287,-1.79084,0.154258,-0.154446,-0.383824,0.631057,0.00981751,0.720574,-0.177114,0.372896,0.176455,0.0105016,0,0,0,0,0,0,0,0.43236,-0.209775,0.102955,-1.78883,0.149758,1.41425,0.401439,0.531455,0.0204151,0.647598,-0.116913,0.38641,0.140999,0.00304623,1.37622,-27.0836,0.238966,25.1578,1.89483,1.9262,-0.0566557,0.535761,-2.01108,-2.17723,1.0738,1.42054,-0.968126,-0.906319,0.940689,-1.18788,-1.02129,0.242,-0.1792,-0.0231147,
0.442255,-0.209618,0.114248,-1.79156,0.15574,-0.15375,-0.383786,0.647264,0.0125762,0.740296,-0.180117,0.37049,0.173975,0.00969268,0,0,0,0,0,0,0,0.454841,-0.208615,0.129776,-1.7933,0.162801,1.42073,0.401438,0.536635,0.0244507,0.64938,-0.104904,0.291066,0.157736,0.000233122,0.134464,-27.1074,-1.28844,25.7568,2.1997,1.79986,-0.0429228,0.535761,-2.01108,-2.17723,1.0738,1.42054,-0.968126,-0.906319,0.940689,-1.18788,-1.02129,0.242,-0.1792,-0.0231147,
0.444893,-0.209557,0.117271,-1.79228,0.157224,-0.153064,-0.38375,0.659578,0.015232,0.75576,-0.18172,0.370816,0.171747,0.00895689,0,0,0,0,0,0,0,0.454841,-0.208615,0.129776,-1.7933,0.162801,1.42073,0.401438,0.536635,0.0244507,0.64938,-0.104904,0.291066,0.157736,0.000233122,0.134464,-27.1074,-1.28844,25.7568,2.1997,1.79986,-0.0429228,-0.806382,0.0675043,-2.26415,-0.281087,0.646073,0.208383,0.24506,0.935647,0.136717,-1.06678,0.520427,-0.245536,-0.0286423,
0.447569,-0.209486,0.120342,-1.79301,0.158708,-0.152382,-0.383716,0.668985,0.0175878,0.767714,-0.182449,0.371081,0.170335,0.00836192,0,0,0,0,0,0,0,0.454841,-0.208615,0.129776,-1.7933,0.162801,1.42073,0.401438,0.536635,0.0244507,0.64938,-0.104904,0.291066,0.157736,0.000233122,0.134464,-27.1074,-1.28844,25.7568,2.1997,1.79986,-0.0429228,-0.806382,0.0675043,-2.26415,-0.281087,0.646073,0.208383,0.24506,0.935647,0.136717,-1.06678,0.520427,-0.245536,-0.0286423,
0.450274,-0.209408,0.12345,-1.79374,0.160182,-0.151703,-0.383685,0.676202,0.0195933,0.7769,-0.182501,0.368562,0.169884,0.00783162,0,0,0,0,0,0,0,0.454841,-0.208615,0.129776,-1.7933,0.162801,1.42073,0.401438,0.536635,0.0244507,0.64938,-0.104904,0.291066,0.157736,0.000233122,0.134464,-27.1074,-1.28844,25.7568,2.1997,1.79986,-0.0429228,-1.53878,0.593498,-2.17743,-0.620453,0.129936,0.626924,0.650244,0.764694,0.612269,-1.01792,0.58654,-0.274229,-0.031527,
0.452999,-0.209323,0.126585,-1.79447,0.16164,-0.151021,-0.383656,0.681348,0.0212134,0.783775,-0.182178,0.364513,0.170446,0.00738749,0,0,0,0,0,0,0,0.454841,-0.208615,0.129776,-1.7933,0.162801,1.42073,0.401438,0.536635,0.0244507,0.64938,-0.104904,0.291066,0.157736,0.000233122,0.134464,-27.1074,-1.28844,25.7568,2.1997,1.79986,-0.0429228,-1.53878,0.593498,-2.17743,-0.620453,0.129936,0.626924,0.650244,0.764694,0.612269,-1.01792,0.58654,-0.274229,-0.031527,
0.439882,-0.209687,0.111434,-1.79076,0.151376,-0.154312,-0.38384,0.651176,0.00675204,0.73761,-0.170865,0.0447424,0.192331,0.00921833,0,0,0,0,0,0,0,0.471806,-0.207654,0.150134,-1.7964,0.170232,1.42613,0.401441,0.549743,0.0248846,0.647558,-0.100454,0.221694,0.162804,-0.000206632,0.309024,-27.4843,-1.31224,25.7806,1.45446,2.05163,-0.0429228,-1.70686,0.409893,-2.06856,-0.541381,-0.118038,0.630621,0.68113,0.586849,0.605932,-0.925186,0.477614,-0.241734,-0.032909,
0.479274,-0.207549,0.158623,-1.79825,0.170485,-0.142127,-0.383839,0.643627,0.00761393,0.734963,-0.165275,-0.052859,0.217784,0.00926658,0,0,0,0,0,0,0,0.471806,-0.207654,0.150134,-1.7964,0.170232,1.42613,0.401441,0.549743,0.0248846,0.647558,-0.100454,0.221694,0.162804,-0.000206632,0.309024,-27.4843,-1.31224,25.7806,1.45446,2.05163,-0.0429228,-1.70686,0.409893,-2.06856,-0.541381,-0.118038,0.630621,0.68113,0.586849,0.605932,-0.925186,0.477614,-0.241734,-0.032909,
0.481904,-0.207513,0.161638,-1.79893,0.170077,-0.141261,-0.383805,0.657436,0.00898956,0.753542,-0.169885,-0.101962,0.216384,0.0086166,0,0,0,0,0,0,0,0.471806,-0.207654,0.150134,-1.7964,0.170232,1.42613,0.401441,0.549743,0.0248846,0.647558,-0.100454,0.221694,0.162804,-0.000206632,0.309024,-27.4843,-1.31224,25.7806,1.45446,2.05163,-0.0429228,0.68334,-1.01907,-1.97856,0.343853,1.42972,-0.602756,-0.535635,1.06802,-0.762248,-0.970188,0.240562,-0.173371,-0.0273778,
0.484574,-0.207471,0.164706,-1.79962,0.169513,-0.140407,-0.383773,0.667533,0.0106865,0.767199,-0.172576,-0.141067,0.213596,0.00804573,0,0,0,0,0,0,0,0.471806,-0.207654,0.150134,-1.7964,0.170232,1.42613,0.401441,0.549743,0.0248846,0.647558,-0.100454,0.221694,0.162804,-0.000206632,0.309024,-27.4843,-1.31224,25.7806,1.45446,2.05163,-0.0429228,-0.493101,0.0226191,-2.08729,-0.359703,0.711046,0.135148,0.179603,0.940424,0.0744041,-0.996072,0.390977,-0.221662,-0.0290772,
0.487272,-0.207421,0.167814,-1.80032,0.168825,-0.139565,-0.383742,0.674479,0.0123156,0.777002,-0.17427,-0.172043,0.210644,0.00758962,0,0,0,0,0,0,0,0.471806,-0.207654,0.150134,-1.7964,0.170232,1.42613,0.401441,0.549743,0.0248846,0.647558,-0.100454,0.221694,0.162804,-0.000206632,0.309024,-27.4843,-1.31224,25.7806,1.45446,2.05163,-0.0429228,-0.493101,0.0226191,-2.08729,-0.359703,0.711046,0.135148,0.179603,0.940424,0.0744041,-0.996072,0.390977,-0.221662,-0.0290772,
0.489988,-0.207366,0.170949,-1.80102,0.168037,-0.138732,-0.383713,0.678936,0.0137666,0.783735,-0.17531,-0.196929,0.208048,0.00719957,0,0,0,0,0,0,0,0.471806,-0.207654,0.150134,-1.7964,0.170232,1.42613,0.401441,0.549743,0.0248846,0.647558,-0.100454,0.221694,0.162804,-0.000206632,0.309024,-27.4843,-1.31224,25.7806,1.45446,2.05163,-0.0429228,-1.40135,-0.107535,-1.78939,-0.193973,-0.0465884,0.367372,0.393846,0.480018,0.337846,-0.813983,0.401257,-0.225802,-0.0265379,
0.492714,-0.207306,0.174102,-1.80172,0.167167,-0.137908,-0.383686,0.681435,0.0150145,0.788037,-0.175848,-0.217447,0.206035,0.0067331,0,0,0,0,0,0,0,0.489213,-0.206886,0.171015,-1.79928,0.173568,1.43207,0.401435,0.547251,0.0249649,0.654527,-0.079097,0.00411236,0.191941,-0.00098202,1.65393,-27.7342,-0.0863513,25.3323,0.715634,2.21734,-0.00996382,-1.40135,-0.107535,-1.78939,-0.193973,-0.0465884,0.367372,0.393846,0.480018,0.337846,-0.813983,0.401257,-0.225802,-0.0265379,
0.479362,-0.207692,0.158609,-1.79824,0.165864,-0.141557,-0.383853,0.64623,-0.00891051,0.732328,-0.164243,-0.583561,0.277632,0.00858731,0,0,0,0,0,0,0,0.489213,-0.206886,0.171015,-1.79928,0.173568,1.43207,0.401435,0.547251,0.0249649,0.654527,-0.079097,0.00411236,0.191941,-0.00098202,1.65393,-27.7342,-0.0863513,25.3323,0.715634,2.21734,-0.00996382,-0.765925,-0.580203,-2.42211,-0.197634,0.447147,0.02501,0.0778946,0.805832,-0.0192756,-1.06464,0.162825,-0.197717,-0.0235351,
0.496617,-0.206964,0.179405,-1.80101,0.167709,-0.135382,-0.38385,0.629274,-0.0126146,0.720372,-0.159772,-0.662475,0.294287,0.00913891,0,0,0,0,0,0,0,0.489213,-0.206886,0.171015,-1.79928,0.173568,1.43207,0.401435,0.547251,0.0249649,0.654527,-0.079097,0.00411236,0.191941,-0.00098202,1.65393,-27.7342,-0.0863513,25.3323,0.715634,2.21734,-0.00996382,-0.502392,-0.568873,-2.69261,-0.386586,0.616628,-0.0319412,0.0207511,0.966516,-0.0508654,-1.17066,0.0289943,-0.181621,-0.0236572,
0.499148,-0.207021,0.182325,-1.80168,0.164654,-0.134196,-0.383815,0.632684,-0.0141303,0.729974,-0.167163,-0.76386,0.29659,0.00872774,0,0,0,0,0,0,0,0.489213,-0.206886,0.171015,-1.79928,0.173568,1.43207,0.401435,0.547251,0.0249649,0.654527,-0.079097,0.00411236,0.191941,-0.00098202,1.65393,-27.7342,-0.0863513,25.3323,0.715634,2.21734,-0.00996382,-0.502392,-0.568873,-2.69261,-0.386586,0.616628,-0.0319412,0.0207511,0.966516,-0.0508654,-1.17066,0.0289943,-0.181621,-0.0236572,
0.501679,-0.207078,0.185261,-1.80237,0.161323,-0.133015,-0.383781,0.632707,-0.014185,0.734101,-0.172036,-0.83274,0.295138,0.00848692,0,0,0,0,0,0,0,0.489213,-0.206886,0.171015,-1.79928,0.173568,1.43207,0.401435,0.547251,0.0249649,0.654527,-0.079097,0.00411236,0.191941,-0.00098202,1.65393,-27.7342,-0.0863513,25.3323,0.715634,2.21734,-0.00996382,-0.903782,-0.0881998,-2.63693,-0.731262,0.348146,0.278929,0.315851,0.938771,0.31172,-1.17408,0.068093,-0.225315,-0.0236498,
