PerkyPenguin/Analysis-on-Approximated-Derivatives/Code_and_Data/PaperData/Real_Robot/Scene_1/contact_change/6/trajectory.csv
Commanded Joint 0 Position,Commanded Joint 1 Position,Commanded Joint 2 Position,Commanded Joint 3 Position,Commanded Joint 4 Position,Commanded Joint 5 Position,Commanded Joint 6 Position,Commanded Joint 0 Velocity,Commanded Joint 1 Velocity,Commanded Joint 2 Velocity,Commanded Joint 3 Velocity,Commanded Joint 4 Velocity,Commanded Joint 5 Velocity,Commanded Joint 6 Velocity,Commanded Joint 0 Torque,Commanded Joint 1 Torque,Commanded Joint 2 Torque,Commanded Joint 3 Torque,Commanded Joint 4 Torque,Commanded Joint 5 Torque,Commanded Joint 6 Torque,Actual Joint 0 Position,Actual Joint 1 Position,Actual Joint 2 Position,Actual Joint 3 Position,Actual Joint 4 Position,Actual Joint 5 Position,Actual Joint 6 Position,Actual Joint 0 Velocity,Actual Joint 1 Velocity,Actual Joint 2 Velocity,Actual Joint 3 Velocity,Actual Joint 4 Velocity,Actual Joint 5 Velocity,Actual Joint 6 Velocity,Actual Joint 0 Torque,Actual Joint 1 Torque,Actual Joint 2 Torque,Actual Joint 3 Torque,Actual Joint 4 Torque,Actual Joint 5 Torque,Actual Joint 6 Torque,EE ext force 0,EE ext force 1,EE ext force 2,EE ext force 3,EE ext force 4,EE ext force 5,joint ext torque 0,joint ext torque 1,joint ext torque 2,joint ext torque 3,joint ext torque 4,joint ext torque 5,joint ext torque 6,
0.0125492,-0.195839,-0.333882,-1.6603,-0.0930591,-0.0904217,-0.383245,-0.00191141,0.0182989,-0.0118777,-0.151523,0.00447735,0.198847,-0.00216691,0,0,0,0,0,0,0,0.0125481,-0.195897,-0.333796,-1.65877,-0.0930746,1.47838,0.402176,1.87829e-05,-0.000897637,-0.000499138,-0.000670094,0.000702129,0.000200692,0.000716253,-0.0202602,-25.4848,1.88936,25.9076,0.386044,2.96715,-0.0703886,-1.60189,0.0999027,-0.526044,-0.0304583,-0.691202,-0.191999,-0.0759652,-0.165421,-0.287161,-0.33334,-0.163034,-0.332665,-0.0398415,
0.0125362,-0.195692,-0.333941,-1.66094,-0.0930436,-0.0895983,-0.383254,-0.00323738,0.0366539,-0.0148494,-0.160551,0.00387626,0.205865,-0.00205778,0,0,0,0,0,0,0,0.0125481,-0.195897,-0.333796,-1.65877,-0.0930746,1.47838,0.402176,1.87829e-05,-0.000897637,-0.000499138,-0.000670094,0.000702129,0.000200692,0.000716253,-0.0202602,-25.4848,1.88936,25.9076,0.386044,2.96715,-0.0703886,-1.29665,0.0728546,-0.694895,0.021213,-0.388642,-0.148831,-0.0349324,0.0351033,-0.25179,-0.43869,-0.15789,-0.336994,-0.0408578,
0.0125457,-0.195904,-0.333799,-1.65877,-0.0930695,-0.0924167,-0.383222,-0.000107725,-0.00036016,-0.000153623,0.000106231,0.000114931,-0.000312777,5.71474e-06,0,0,0,0,0,0,0,0.0125481,-0.195897,-0.333796,-1.65877,-0.0930746,1.47838,0.402176,1.87829e-05,-0.000897637,-0.000499138,-0.000670094,0.000702129,0.000200692,0.000716253,-0.0202602,-25.4848,1.88936,25.9076,0.386044,2.96715,-0.0703886,-1.44028,0.10234,-0.563387,-0.0239772,-0.557894,-0.16046,-0.0482383,-0.0857652,-0.254605,-0.362319,-0.157207,-0.327548,-0.041798,
0.0125454,-0.195905,-0.3338,-1.65877,-0.0930694,-0.0924178,-0.383222,-8.59993e-05,-0.000340905,-0.000131059,0.000110204,3.51168e-05,-0.000280826,4.88627e-06,0,0,0,0,0,0,0,0.0125444,-0.195904,-0.333792,-1.65878,-0.093074,1.47839,0.402172,-0.00247394,-0.00636486,-0.000939535,-0.00499399,0.00467812,-0.00119746,0.000128658,0.0313145,-25.338,1.78621,24.7372,0.343014,3.19237,-0.0429228,-1.44028,0.10234,-0.563387,-0.0239772,-0.557894,-0.16046,-0.0482383,-0.0857652,-0.254605,-0.362319,-0.157207,-0.327548,-0.041798,
0.0125451,-0.195907,-0.3338,-1.65877,-0.0930695,-0.0924188,-0.383222,-6.86238e-05,-0.000327715,-0.000113841,0.000109669,-2.30447e-05,-0.00025536,4.19463e-06,0,0,0,0,0,0,0,0.0125444,-0.195904,-0.333792,-1.65878,-0.093074,1.47839,0.402172,-0.00247394,-0.00636486,-0.000939535,-0.00499399,0.00467812,-0.00119746,0.000128658,0.0313145,-25.338,1.78621,24.7372,0.343014,3.19237,-0.0429228,-1.60136,0.236994,-0.988523,-0.0738967,-0.543261,-0.125859,-0.0168974,-0.0171559,-0.217063,-0.481462,-0.158972,-0.30823,-0.0431197,
0.0125449,-0.195908,-0.333801,-1.65876,-0.0930698,-0.0924198,-0.383222,-5.47694e-05,-0.000318349,-0.000100679,0.000107771,-6.53076e-05,-0.000237577,3.65387e-06,0,0,0,0,0,0,0,0.0125444,-0.195904,-0.333792,-1.65878,-0.093074,1.47839,0.402172,-0.00247394,-0.00636486,-0.000939535,-0.00499399,0.00467812,-0.00119746,0.000128658,0.0313145,-25.338,1.78621,24.7372,0.343014,3.19237,-0.0429228,-1.60136,0.236994,-0.988523,-0.0738967,-0.543261,-0.125859,-0.0168974,-0.0171559,-0.217063,-0.481462,-0.158972,-0.30823,-0.0431197,
0.0125447,-0.195909,-0.333801,-1.65876,-0.0930701,-0.0924207,-0.383222,-4.36978e-05,-0.000311714,-9.05827e-05,0.000105588,-9.59963e-05,-0.000226766,3.24442e-06,0,0,0,0,0,0,0,0.0125444,-0.195904,-0.333792,-1.65878,-0.093074,1.47839,0.402172,-0.00247394,-0.00636486,-0.000939535,-0.00499399,0.00467812,-0.00119746,0.000128658,0.0313145,-25.338,1.78621,24.7372,0.343014,3.19237,-0.0429228,-2.99831,0.54465,-1.3171,-0.265243,-1.51063,-0.235585,-0.120675,-0.518398,-0.311313,-0.426991,-0.161925,-0.305365,-0.0413861,
0.0125445,-0.195911,-0.333801,-1.65876,-0.0930706,-0.0924215,-0.383222,-3.48153e-05,-0.000307154,-8.28102e-05,0.000103483,-0.000118278,-0.000221736,2.93933e-06,0,0,0,0,0,0,0,0.0125444,-0.195904,-0.333792,-1.65878,-0.093074,1.47839,0.402172,-0.00247394,-0.00636486,-0.000939535,-0.00499399,0.00467812,-0.00119746,0.000128658,0.0313145,-25.338,1.78621,24.7372,0.343014,3.19237,-0.0429228,-1.95448,0.102095,-1.53949,0.0886317,-0.652231,-0.248087,-0.129293,-0.0105283,-0.368192,-0.60172,-0.174361,-0.265148,-0.0407388,
0.0124226,-0.195847,-0.333893,-1.65864,-0.0915154,-0.0933906,-0.383221,-0.0118253,0.00352574,-0.0106297,0.0101983,0.177044,-0.110771,0.000382994,0,0,0,0,0,0,0,0.0125444,-0.195904,-0.333792,-1.65878,-0.093074,1.47839,0.402172,-0.00247394,-0.00636486,-0.000939535,-0.00499399,0.00467812,-0.00119746,0.000128658,0.0313145,-25.338,1.78621,24.7372,0.343014,3.19237,-0.0429228,-1.95448,0.102095,-1.53949,0.0886317,-0.652231,-0.248087,-0.129293,-0.0105283,-0.368192,-0.60172,-0.174361,-0.265148,-0.0407388,
0.0124088,-0.195887,-0.333902,-1.65866,-0.0915125,-0.0934194,-0.383225,-0.0125014,0.00141503,-0.0114429,0.0103477,0.175918,-0.112635,0.000405583,0,0,0,0,0,0,0,0.0125606,-0.195904,-0.333787,-1.65917,-0.0930999,1.47909,0.402176,0.00130831,-0.00743802,-5.26222e-05,0.000823711,-0.000329378,0.00110203,0.000110423,-0.198788,-25.5126,1.7624,26.4313,0.575558,3.11913,-0.050247,-0.993433,-0.163721,-1.58106,0.307288,0.0916369,-0.19691,-0.082872,0.411897,-0.340265,-0.721802,-0.161736,-0.249367,-0.0409883,
0.0123597,-0.195885,-0.33395,-1.65863,-0.090683,-0.0939522,-0.383223,-0.0122736,0.000407032,-0.0119208,0.00882798,0.20737,-0.133187,0.000534193,0,0,0,0,0,0,0,0.0125606,-0.195904,-0.333787,-1.65917,-0.0930999,1.47909,0.402176,0.00130831,-0.00743802,-5.26222e-05,0.000823711,-0.000329378,0.00110203,0.000110423,-0.198788,-25.5126,1.7624,26.4313,0.575558,3.11913,-0.050247,-0.993433,-0.163721,-1.58106,0.307288,0.0916369,-0.19691,-0.082872,0.411897,-0.340265,-0.721802,-0.161736,-0.249367,-0.0409883,
0.0123135,-0.195887,-0.333996,-1.6586,-0.0897565,-0.0945521,-0.38322,-0.0115473,-0.000548465,-0.0116518,0.00727229,0.231618,-0.149965,0.000602456,0,0,0,0,0,0,0,0.0125606,-0.195904,-0.333787,-1.65917,-0.0930999,1.47909,0.402176,0.00130831,-0.00743802,-5.26222e-05,0.000823711,-0.000329378,0.00110203,0.000110423,-0.198788,-25.5126,1.7624,26.4313,0.575558,3.11913,-0.050247,-1.18602,0.11014,-1.09908,0.030708,-0.258985,-0.108356,0.00538315,0.127736,-0.216408,-0.496301,-0.144701,-0.229626,-0.0406694,
0.0122713,-0.195893,-0.33404,-1.65857,-0.0887547,-0.095207,-0.383218,-0.0105468,-0.00132691,-0.0109314,0.00588875,0.250466,-0.163738,0.000634897,0,0,0,0,0,0,0,0.0125606,-0.195904,-0.333787,-1.65917,-0.0930999,1.47909,0.402176,0.00130831,-0.00743802,-5.26222e-05,0.000823711,-0.000329378,0.00110203,0.000110423,-0.198788,-25.5126,1.7624,26.4313,0.575558,3.11913,-0.050247,-1.18602,0.11014,-1.09908,0.030708,-0.258985,-0.108356,0.00538315,0.127736,-0.216408,-0.496301,-0.144701,-0.229626,-0.0406694,
0.0122337,-0.1959,-0.33408,-1.65855,-0.0876938,-0.0959071,-0.383215,-0.00941172,-0.00191228,-0.00995422,0.00470869,0.265212,-0.17502,0.000645067,0,0,0,0,0,0,0,0.0125606,-0.195904,-0.333787,-1.65917,-0.0930999,1.47909,0.402176,0.00130831,-0.00743802,-5.26222e-05,0.000823711,-0.000329378,0.00110203,0.000110423,-0.198788,-25.5126,1.7624,26.4313,0.575558,3.11913,-0.050247,-1.32241,-0.131643,-1.1986,0.22238,-0.307392,-0.241073,-0.122838,0.123081,-0.371839,-0.535325,-0.164851,-0.246568,-0.0411614,
0.0122008,-0.19591,-0.334115,-1.65854,-0.0865866,-0.0966439,-0.383213,-0.00823054,-0.00232324,-0.00884869,0.00371349,0.276801,-0.184212,0.000641156,0,0,0,0,0,0,0,0.012514,-0.195815,-0.333824,-1.65908,-0.0924127,1.4791,0.402172,-0.000941647,0.00875081,-0.00177567,0.00172728,0.0473511,0.00386565,0.000299813,0.285221,-26.2862,2.11152,25.856,1.26495,2.8344,-0.0429228,-1.81754,-0.0241248,-0.822275,0.173906,-0.857087,-0.279402,-0.151529,-0.26222,-0.414199,-0.336727,-0.0722344,-0.251199,-0.0414729,
0.012238,-0.195788,-0.334013,-1.65834,-0.0884854,-0.0962749,-0.383195,-0.0277011,0.00650572,-0.0231693,0.0356236,0.52338,-0.431354,0.00330038,0,0,0,0,0,0,0,0.012514,-0.195815,-0.333824,-1.65908,-0.0924127,1.4791,0.402172,-0.000941647,0.00875081,-0.00177567,0.00172728,0.0473511,0.00386565,0.000299813,0.285221,-26.2862,2.11152,25.856,1.26495,2.8344,-0.0429228,-1.81754,-0.0241248,-0.822275,0.173906,-0.857087,-0.279402,-0.151529,-0.26222,-0.414199,-0.336727,-0.0722344,-0.251199,-0.0414729,
0.0122344,-0.195611,-0.334024,-1.65868,-0.0875073,-0.095239,-0.383199,-0.0252242,0.0124295,-0.0210658,0.0313582,0.544136,-0.401191,0.00309156,0,0,0,0,0,0,0,0.012514,-0.195815,-0.333824,-1.65908,-0.0924127,1.4791,0.402172,-0.000941647,0.00875081,-0.00177567,0.00172728,0.0473511,0.00386565,0.000299813,0.285221,-26.2862,2.11152,25.856,1.26495,2.8344,-0.0429228,-1.47969,-0.0270437,-0.680083,0.255565,-0.640641,-0.221902,-0.0900566,-0.159574,-0.377004,-0.362138,0.0209447,-0.28911,-0.0402427,
0.0121396,-0.195584,-0.334109,-1.65858,-0.0849453,-0.0971408,-0.383185,-0.0237177,0.00685229,-0.0212215,0.024963,0.640505,-0.475458,0.00340838,0,0,0,0,0,0,0,0.012514,-0.195815,-0.333824,-1.65908,-0.0924127,1.4791,0.402172,-0.000941647,0.00875081,-0.00177567,0.00172728,0.0473511,0.00386565,0.000299813,0.285221,-26.2862,2.11152,25.856,1.26495,2.8344,-0.0429228,-1.47969,-0.0270437,-0.680083,0.255565,-0.640641,-0.221902,-0.0900566,-0.159574,-0.377004,-0.362138,0.0209447,-0.28911,-0.0402427,
0.0120553,-0.195575,-0.334188,-1.6585,-0.0820779,-0.0992776,-0.383171,-0.0210715,0.00224567,-0.0196586,0.0188578,0.716859,-0.534183,0.00357869,0,0,0,0,0,0,0,0.012514,-0.195815,-0.333824,-1.65908,-0.0924127,1.4791,0.402172,-0.000941647,0.00875081,-0.00177567,0.00172728,0.0473511,0.00386565,0.000299813,0.285221,-26.2862,2.11152,25.856,1.26495,2.8344,-0.0429228,-1.12289,-0.120043,-0.807647,0.41035,-0.310994,-0.199706,-0.0682548,0.0497173,-0.379283,-0.479047,0.0794331,-0.314258,-0.0407604,
0.011984,-0.19558,-0.334256,-1.65845,-0.078966,-0.1016,-0.383156,-0.0178245,-0.00126344,-0.0170776,0.0135328,0.777972,-0.580618,0.00366103,0,0,0,0,0,0,0,0.012514,-0.195815,-0.333824,-1.65908,-0.0924127,1.4791,0.402172,-0.000941647,0.00875081,-0.00177567,0.00172728,0.0473511,0.00386565,0.000299813,0.285221,-26.2862,2.11152,25.856,1.26495,2.8344,-0.0429228,-1.92633,0.0478987,0.0540055,0.227756,-1.24945,-0.266601,-0.13446,-0.619726,-0.419307,-0.0847642,0.150361,-0.342537,-0.0426452,
0.0119268,-0.195595,-0.334312,-1.65841,-0.0756567,-0.104068,-0.383141,-0.0143092,-0.00378876,-0.0139382,0.00902277,0.827326,-0.617087,0.00368712,0,0,0,0,0,0,0,0.0124088,-0.195654,-0.334019,-1.65885,-0.0870225,1.47857,0.402177,-0.00764515,0.0138122,-0.00500388,0.0106202,0.24609,-0.0431956,-0.000219384,0.638309,-26.187,2.36146,26.1575,1.60736,2.4627,-0.050247,-1.92633,0.0478987,0.0540055,0.227756,-1.24945,-0.266601,-0.13446,-0.619726,-0.419307,-0.0847642,0.150361,-0.342537,-0.0426452,
0.0118838,-0.195617,-0.334354,-1.65839,-0.0721867,-0.10665,-0.383127,-0.0107356,-0.00550029,-0.0105432,0.00523756,0.867503,-0.645403,0.00367621,0,0,0,0,0,0,0,0.0124088,-0.195654,-0.334019,-1.65885,-0.0870225,1.47857,0.402177,-0.00764515,0.0138122,-0.00500388,0.0106202,0.24609,-0.0431956,-0.000219384,0.638309,-26.187,2.36146,26.1575,1.60736,2.4627,-0.050247,-1.27116,-0.447393,0.489582,0.665185,-0.872512,-0.37139,-0.23471,-0.464626,-0.579163,-0.0706394,0.249998,-0.40736,-0.0450093,
0.0131232,-0.195866,-0.333108,-1.65897,-0.0891665,-0.0971366,-0.383081,0.0735149,-0.0121327,0.0858651,0.00165294,0.370879,-0.630806,0.0120635,0,0,0,0,0,0,0,0.0124088,-0.195654,-0.334019,-1.65885,-0.0870225,1.47857,0.402177,-0.00764515,0.0138122,-0.00500388,0.0106202,0.24609,-0.0431956,-0.000219384,0.638309,-26.187,2.36146,26.1575,1.60736,2.4627,-0.050247,-1.27116,-0.447393,0.489582,0.665185,-0.872512,-0.37139,-0.23471,-0.464626,-0.579163,-0.0706394,0.249998,-0.40736,-0.0450093,
0.0130567,-0.195724,-0.33329,-1.65877,-0.0822935,-0.0979794,-0.383069,0.0781533,-0.0142859,0.0890521,-0.00116852,0.467365,-0.650906,0.0124797,0,0,0,0,0,0,0,0.0124088,-0.195654,-0.334019,-1.65885,-0.0870225,1.47857,0.402177,-0.00764515,0.0138122,-0.00500388,0.0106202,0.24609,-0.0431956,-0.000219384,0.638309,-26.187,2.36146,26.1575,1.60736,2.4627,-0.050247,0.195025,-0.129717,0.358654,0.716262,0.362794,0.0372479,0.177085,0.280339,-0.212976,-0.42808,0.503984,-0.539747,-0.0475225,
0.0134463,-0.195801,-0.332845,-1.65881,-0.08015,-0.101099,-0.383021,0.0973772,-0.0192253,0.111058,-0.0102414,0.535877,-0.779811,0.0120179,0,0,0,0,0,0,0,0.0124088,-0.195654,-0.334019,-1.65885,-0.0870225,1.47857,0.402177,-0.00764515,0.0138122,-0.00500388,0.0106202,0.24609,-0.0431956,-0.000219384,0.638309,-26.187,2.36146,26.1575,1.60736,2.4627,-0.050247,0.195025,-0.129717,0.358654,0.716262,0.362794,0.0372479,0.177085,0.280339,-0.212976,-0.42808,0.503984,-0.539747,-0.0475225,
0.0139013,-0.195889,-0.332327,-1.65889,-0.0777525,-0.104639,-0.382975,0.113764,-0.021904,0.129545,-0.0187566,0.599373,-0.885093,0.011608,0,0,0,0,0,0,0,0.0120496,-0.195643,-0.334353,-1.65856,-0.0761284,1.47598,0.402174,-0.00716591,-0.0117683,-0.00423835,0.00579345,0.312775,-0.0970613,-0.000849192,1.88404,-25.338,3.83729,25.5585,1.10656,2.20452,-0.0227812,-0.297591,-0.196544,0.747303,0.872468,-0.0866047,-0.0812841,0.0777481,-0.00780281,-0.370925,-0.346468,0.628007,-0.664808,-0.0442917,
0.0144126,-0.19598,-0.331746,-1.65899,-0.0751229,-0.108524,-0.38293,0.127821,-0.0228155,0.145215,-0.0264869,0.657392,-0.971295,0.011244,0,0,0,0,0,0,0,0.0120496,-0.195643,-0.334353,-1.65856,-0.0761284,1.47598,0.402174,-0.00716591,-0.0117683,-0.00423835,0.00579345,0.312775,-0.0970613,-0.000849192,1.88404,-25.338,3.83729,25.5585,1.10656,2.20452,-0.0227812,-0.372127,-0.345913,0.696288,1.08458,-0.0189033,-0.167945,0.00723987,0.081643,-0.501384,-0.485978,0.67289,-0.794359,-0.0360436,
0.0149724,-0.19607,-0.331112,-1.65913,-0.0722835,-0.112692,-0.382886,0.139947,-0.0224056,0.158597,-0.0333951,0.709851,-1.04196,0.0109158,0,0,0,0,0,0,0,0.0120496,-0.195643,-0.334353,-1.65856,-0.0761284,1.47598,0.402174,-0.00716591,-0.0117683,-0.00423835,0.00579345,0.312775,-0.0970613,-0.000849192,1.88404,-25.338,3.83729,25.5585,1.10656,2.20452,-0.0227812,-0.372127,-0.345913,0.696288,1.08458,-0.0189033,-0.167945,0.00723987,0.081643,-0.501384,-0.485978,0.67289,-0.794359,-0.0360436,
0.0155742,-0.196154,-0.330432,-1.65929,-0.0692559,-0.117092,-0.382844,0.150451,-0.0210415,0.170097,-0.039512,0.756912,-1.09993,0.0106151,0,0,0,0,0,0,0,0.0120496,-0.195643,-0.334353,-1.65856,-0.0761284,1.47598,0.402174,-0.00716591,-0.0117683,-0.00423835,0.00579345,0.312775,-0.0970613,-0.000849192,1.88404,-25.338,3.83729,25.5585,1.10656,2.20452,-0.0227812,-0.416937,-0.240781,1.32403,0.867432,-0.214139,-0.138472,0.00852439,-0.0946701,-0.413008,-0.298993,0.616687,-0.847877,-0.0294027,
0.0137893,-0.196094,-0.332552,-1.65934,-0.0836396,-0.0977268,-0.383042,0.159005,-0.0490393,0.174713,-0.0545807,0.32788,-0.632764,0.0145553,0,0,0,0,0,0,0,0.0120496,-0.195643,-0.334353,-1.65856,-0.0761284,1.47598,0.402174,-0.00716591,-0.0117683,-0.00423835,0.00579345,0.312775,-0.0970613,-0.000849192,1.88404,-25.338,3.83729,25.5585,1.10656,2.20452,-0.0227812,-0.416937,-0.240781,1.32403,0.867432,-0.214139,-0.138472,0.00852439,-0.0946701,-0.413008,-0.298993,0.616687,-0.847877,-0.0294027,
0.013425,-0.196279,-0.332894,-1.65904,-0.0721748,-0.100744,-0.383025,0.158263,-0.062254,0.173533,-0.0534157,0.366985,-0.660272,0.0157111,0,0,0,0,0,0,0,0.0120496,-0.195643,-0.334353,-1.65856,-0.0761284,1.47598,0.402174,-0.00716591,-0.0117683,-0.00423835,0.00579345,0.312775,-0.0970613,-0.000849192,1.88404,-25.338,3.83729,25.5585,1.10656,2.20452,-0.0227812,-0.261673,0.140434,1.89263,0.477174,-0.247442,0.0522201,0.153314,-0.17347,-0.13587,-0.151706,0.602095,-0.896805,-0.025368,
0.014189,-0.196537,-0.332046,-1.6593,-0.0704869,-0.103893,-0.382966,0.191008,-0.0644922,0.212024,-0.0630645,0.421975,-0.787244,0.014776,0,0,0,0,0,0,0,0.0122754,-0.195816,-0.333906,-1.65842,-0.0673991,1.47082,0.402177,0.0100934,-0.00890448,0.0159935,0.00407749,0.306451,-0.229239,-0.000171569,2.82032,-25.3102,4.91243,24.8364,2.29766,1.16997,-0.0026396,0.108264,1.11459,1.51711,-0.0673535,0.271912,0.554952,0.638319,0.226432,0.414284,-0.464983,0.732309,-1.03422,-0.0233079,
0.0150613,-0.196792,-0.331073,-1.65958,-0.0685612,-0.107455,-0.38291,0.218083,-0.0639071,0.243379,-0.0716329,0.481447,-0.890593,0.0140175,0,0,0,0,0,0,0,0.0122754,-0.195816,-0.333906,-1.65842,-0.0673991,1.47082,0.402177,0.0100934,-0.00890448,0.0159935,0.00407749,0.306451,-0.229239,-0.000171569,2.82032,-25.3102,4.91243,24.8364,2.29766,1.16997,-0.0026396,0.108264,1.11459,1.51711,-0.0673535,0.271912,0.554952,0.638319,0.226432,0.414284,-0.464983,0.732309,-1.03422,-0.0233079,
0.0160242,-0.197038,-0.329996,-1.6599,-0.0663952,-0.111354,-0.382856,0.240717,-0.0614747,0.269229,-0.0793786,0.541503,-0.974648,0.0133866,0,0,0,0,0,0,0,0.0122754,-0.195816,-0.333906,-1.65842,-0.0673991,1.47082,0.402177,0.0100934,-0.00890448,0.0159935,0.00407749,0.306451,-0.229239,-0.000171569,2.82032,-25.3102,4.91243,24.8364,2.29766,1.16997,-0.0026396,-0.759605,1.84855,1.26124,-0.50876,-0.218081,0.72706,0.815089,0.0275517,0.617997,-0.560355,0.792281,-1.14841,-0.0164477,
0.0170634,-0.19727,-0.328833,-1.66024,-0.0639962,-0.115526,-0.382805,0.259804,-0.0578409,0.290763,-0.0863699,0.599742,-1.04303,0.0128492,0,0,0,0,0,0,0,0.0122754,-0.195816,-0.333906,-1.65842,-0.0673991,1.47082,0.402177,0.0100934,-0.00890448,0.0159935,0.00407749,0.306451,-0.229239,-0.000171569,2.82032,-25.3102,4.91243,24.8364,2.29766,1.16997,-0.0026396,-0.759605,1.84855,1.26124,-0.50876,-0.218081,0.72706,0.815089,0.0275517,0.617997,-0.560355,0.792281,-1.14841,-0.0164477,
0.0181674,-0.197483,-0.327597,-1.66062,-0.0613771,-0.119921,-0.382756,0.276006,-0.0534515,0.308857,-0.0926183,0.654762,-1.09868,0.0123845,0,0,0,0,0,0,0,0.0122754,-0.195816,-0.333906,-1.65842,-0.0673991,1.47082,0.402177,0.0100934,-0.00890448,0.0159935,0.00407749,0.306451,-0.229239,-0.000171569,2.82032,-25.3102,4.91243,24.8364,2.29766,1.16997,-0.0026396,-1.49302,0.610363,1.30585,0.196926,-0.761591,0.0358445,0.131857,-0.27609,-0.123191,-0.427621,0.529354,-1.10954,-0.0100105,
0.0141146,-0.196558,-0.332196,-1.65954,-0.0734365,-0.100502,-0.383031,0.234442,-0.0872983,0.254531,-0.100782,0.236269,-0.641952,0.0154098,0,0,0,0,0,0,0,0.0131089,-0.19628,-0.332652,-1.65868,-0.060025,1.4638,0.402179,0.0488962,-0.0223736,0.0692758,-0.0235165,0.22582,-0.237025,-0.000663691,3.35193,-25.5879,5.73762,25.6061,1.36291,1.79986,0.017502,-1.49302,0.610363,1.30585,0.196926,-0.761591,0.0358445,0.131857,-0.27609,-0.123191,-0.427621,0.529354,-1.10954,-0.0100105,
0.0155829,-0.197138,-0.330001,-1.65983,-0.0574487,-0.113821,-0.383013,0.260305,-0.0792284,0.284917,-0.111735,0.249429,-0.71582,0.0161625,0,0,0,0,0,0,0,0.0131089,-0.19628,-0.332652,-1.65868,-0.060025,1.4638,0.402179,0.0488962,-0.0223736,0.0692758,-0.0235165,0.22582,-0.237025,-0.000663691,3.35193,-25.5879,5.73762,25.6061,1.36291,1.79986,0.017502,-1.58046,-0.995382,0.973956,1.19723,-0.625253,-0.701587,-0.594969,-0.117653,-0.946682,-0.541083,0.208379,-1.09265,-0.0064513,
0.0167852,-0.197452,-0.328672,-1.66031,-0.0562135,-0.117142,-0.382952,0.300591,-0.0784176,0.332195,-0.12135,0.308815,-0.830289,0.0151506,0,0,0,0,0,0,0,0.0131089,-0.19628,-0.332652,-1.65868,-0.060025,1.4638,0.402179,0.0488962,-0.0223736,0.0692758,-0.0235165,0.22582,-0.237025,-0.000663691,3.35193,-25.5879,5.73762,25.6061,1.36291,1.79986,0.017502,-1.50055,-0.582651,1.00516,0.829833,-0.575593,-0.49786,-0.402043,-0.0913392,-0.69317,-0.521465,0.175899,-1.07813,-0.00636536,
0.0181204,-0.197751,-0.327189,-1.66083,-0.054712,-0.120836,-0.382895,0.3338,-0.07481,0.370635,-0.129523,0.375374,-0.923431,0.014338,0,0,0,0,0,0,0,0.0131089,-0.19628,-0.332652,-1.65868,-0.060025,1.4638,0.402179,0.0488962,-0.0223736,0.0692758,-0.0235165,0.22582,-0.237025,-0.000663691,3.35193,-25.5879,5.73762,25.6061,1.36291,1.79986,0.017502,-1.50055,-0.582651,1.00516,0.829833,-0.575593,-0.49786,-0.402043,-0.0913392,-0.69317,-0.521465,0.175899,-1.07813,-0.00636536,
0.0195663,-0.19803,-0.32558,-1.66138,-0.052936,-0.124832,-0.38284,0.361471,-0.0695825,0.402262,-0.136811,0.443981,-0.998908,0.0136973,0,0,0,0,0,0,0,0.0131089,-0.19628,-0.332652,-1.65868,-0.060025,1.4638,0.402179,0.0488962,-0.0223736,0.0692758,-0.0235165,0.22582,-0.237025,-0.000663691,3.35193,-25.5879,5.73762,25.6061,1.36291,1.79986,0.017502,-1.09041,1.41816,0.125122,-0.382809,0.0573698,0.47398,0.542935,0.414448,0.387792,-0.936939,0.404294,-1.13499,-0.00593637,
0.0211052,-0.198283,-0.323866,-1.66195,-0.0508903,-0.129072,-0.382788,0.38473,-0.0633391,0.428513,-0.143161,0.511442,-1.06013,0.0131006,0,0,0,0,0,0,0,0.0153357,-0.197328,-0.329921,-1.65936,-0.0520388,1.4541,0.402183,0.0930226,-0.0363151,0.0956564,-0.0343294,0.155613,-0.288883,-0.00142505,2.66956,-25.4848,5.18617,25.011,1.03332,2.22375,0.0239107,-1.09041,1.41816,0.125122,-0.382809,0.0573698,0.47398,0.542935,0.414448,0.387792,-0.936939,0.404294,-1.13499,-0.00593637,
0.0227228,-0.198509,-0.322064,-1.66254,-0.048587,-0.133511,-0.382738,0.404399,-0.0565028,0.45047,-0.148538,0.575829,-1.10985,0.0125407,0,0,0,0,0,0,0,0.0153357,-0.197328,-0.329921,-1.65936,-0.0520388,1.4541,0.402183,0.0930226,-0.0363151,0.0956564,-0.0343294,0.155613,-0.288883,-0.00142505,2.66956,-25.4848,5.18617,25.011,1.03332,2.22375,0.0239107,-2.1622,1.00032,0.0967612,-0.192301,-0.803194,0.0968487,0.162026,-0.0898554,0.0125558,-0.740851,0.280986,-1.05524,-0.00107748,
0.0161791,-0.197406,-0.329401,-1.66029,-0.0585231,-0.113575,-0.383031,0.326014,-0.103513,0.354398,-0.155557,0.138363,-0.696723,0.0149596,0,0,0,0,0,0,0,0.0153357,-0.197328,-0.329921,-1.65936,-0.0520388,1.4541,0.402183,0.0930226,-0.0363151,0.0956564,-0.0343294,0.155613,-0.288883,-0.00142505,2.66956,-25.4848,5.18617,25.011,1.03332,2.22375,0.0239107,-2.1622,1.00032,0.0967612,-0.192301,-0.803194,0.0968487,0.162026,-0.0898554,0.0125558,-0.740851,0.280986,-1.05524,-0.00107748,
0.0185943,-0.198488,-0.326446,-1.66101,-0.0507069,-0.123673,-0.382999,0.336567,-0.103844,0.366708,-0.15733,0.139911,-0.721678,0.0167126,0,0,0,0,0,0,0,0.0153357,-0.197328,-0.329921,-1.65936,-0.0520388,1.4541,0.402183,0.0930226,-0.0363151,0.0956564,-0.0343294,0.155613,-0.288883,-0.00142505,2.66956,-25.4848,5.18617,25.011,1.03332,2.22375,0.0239107,-2.83525,0.00993762,0.0514917,0.275989,-1.36561,-0.456041,-0.366788,-0.432295,-0.575811,-0.53764,-0.00499983,-0.906621,-4.50623e-05,
0.0201333,-0.19889,-0.324753,-1.66168,-0.0498995,-0.127005,-0.382936,0.384733,-0.100592,0.423308,-0.167551,0.201849,-0.832914,0.015552,0,0,0,0,0,0,0,0.0153357,-0.197328,-0.329921,-1.65936,-0.0520388,1.4541,0.402183,0.0930226,-0.0363151,0.0956564,-0.0343294,0.155613,-0.288883,-0.00142505,2.66956,-25.4848,5.18617,25.011,1.03332,2.22375,0.0239107,-2.83353,-0.0039433,0.038483,0.266146,-1.39639,-0.458653,-0.36948,-0.463686,-0.575457,-0.500914,-0.012821,-0.864569,0.0020022,
0.0218299,-0.19927,-0.322876,-1.66239,-0.0488018,-0.130644,-0.382878,0.424168,-0.0951036,0.469231,-0.178411,0.274415,-0.909642,0.014698,0,0,0,0,0,0,0,0.0153357,-0.197328,-0.329921,-1.65936,-0.0520388,1.4541,0.402183,0.0930226,-0.0363151,0.0956564,-0.0343294,0.155613,-0.288883,-0.00142505,2.66956,-25.4848,5.18617,25.011,1.03332,2.22375,0.0239107,-2.83353,-0.0039433,0.038483,0.266146,-1.39639,-0.458653,-0.36948,-0.463686,-0.575457,-0.500914,-0.012821,-0.864569,0.0020022,
0.0236577,-0.19962,-0.320849,-1.66314,-0.0473981,-0.134505,-0.382822,0.45694,-0.0873891,0.506684,-0.18715,0.350923,-0.96534,0.0138573,0,0,0,0,0,0,0,0.0202408,-0.199564,-0.32378,-1.66151,-0.0453481,1.43912,0.402198,0.149547,-0.0676041,0.173877,-0.0672087,0.0409499,-0.374063,0.000541291,1.72931,-25.7625,4.06343,25.134,1.07635,2.37023,-0.0227812,-1.68612,1.56561,-0.241536,-0.661543,-0.462794,0.440485,0.512793,0.0966293,0.397918,-0.748999,0.266775,-0.882747,0.00268035,
0.0255945,-0.199938,-0.318698,-1.66393,-0.0456888,-0.138447,-0.382769,0.484196,-0.079615,0.537705,-0.198003,0.427343,-0.985468,0.013254,0,0,0,0,0,0,0,0.0202408,-0.199564,-0.32378,-1.66151,-0.0453481,1.43912,0.402198,0.149547,-0.0676041,0.173877,-0.0672087,0.0409499,-0.374063,0.000541291,1.72931,-25.7625,4.06343,25.134,1.07635,2.37023,-0.0227812,-1.68612,1.56561,-0.241536,-0.661543,-0.462794,0.440485,0.512793,0.0966293,0.397918,-0.748999,0.266775,-0.882747,0.00268035,
0.0276231,-0.200222,-0.316445,-1.66476,-0.0436853,-0.142388,-0.382718,0.507144,-0.070826,0.563361,-0.207072,0.500859,-0.985193,0.0127296,0,0,0,0,0,0,0,0.0202408,-0.199564,-0.32378,-1.66151,-0.0453481,1.43912,0.402198,0.149547,-0.0676041,0.173877,-0.0672087,0.0409499,-0.374063,0.000541291,1.72931,-25.7625,4.06343,25.134,1.07635,2.37023,-0.0227812,-1.95247,0.693916,-0.744855,0.0292956,-0.471714,0.00113686,0.0638655,0.168523,-0.10431,-0.904042,0.205431,-0.874476,0.00422258,
0.0193839,-0.198688,-0.32639,-1.6614,-0.0514483,-0.123432,-0.383035,0.410468,-0.121449,0.387054,-0.196342,0.0644743,-0.70129,0.0143005,0,0,0,0,0,0,0,0.0202408,-0.199564,-0.32378,-1.66151,-0.0453481,1.43912,0.402198,0.149547,-0.0676041,0.173877,-0.0672087,0.0409499,-0.374063,0.000541291,1.72931,-25.7625,4.06343,25.134,1.07635,2.37023,-0.0227812,-3.0666,-0.796643,-0.782187,0.964358,-1.2951,-0.845285,-0.738684,-0.297393,-1.0562,-0.753362,-0.038631,-0.833292,0.00803668,
0.0246433,-0.201003,-0.319662,-1.66363,-0.0450554,-0.139197,-0.382992,0.43216,-0.122924,0.424797,-0.200202,0.0665824,-0.747687,0.0160149,0,0,0,0,0,0,0,0.0202408,-0.199564,-0.32378,-1.66151,-0.0453481,1.43912,0.402198,0.149547,-0.0676041,0.173877,-0.0672087,0.0409499,-0.374063,0.000541291,1.72931,-25.7625,4.06343,25.134,1.07635,2.37023,-0.0227812,-3.0666,-0.796643,-0.782187,0.964358,-1.2951,-0.845285,-0.738684,-0.297393,-1.0562,-0.753362,-0.038631,-0.833292,0.00803668,
0.0265643,-0.20147,-0.317715,-1.66449,-0.044503,-0.142497,-0.382933,0.480249,-0.11665,0.486693,-0.214497,0.138116,-0.824991,0.0148973,0,0,0,0,0,0,0,0.0263539,-0.20201,-0.316518,-1.66425,-0.0433847,1.42629,0.402203,0.21945,-0.0745132,0.233385,-0.0975288,0.0661956,-0.406888,0.000750955,4.06208,-24.8103,6.662,25.1855,2.19329,2.25762,-0.0227812,-3.59657,-1.07881,-0.440628,1.08033,-1.85553,-1.04953,-0.940794,-0.683582,-1.26069,-0.525946,-0.0842739,-0.79614,0.00767417,
0.0286431,-0.201903,-0.315564,-1.6654,-0.0436295,-0.145933,-0.382876,0.519711,-0.108249,0.53784,-0.228801,0.218371,-0.859159,0.0141065,0,0,0,0,0,0,0,0.0263539,-0.20201,-0.316518,-1.66425,-0.0433847,1.42629,0.402203,0.21945,-0.0745132,0.233385,-0.0975288,0.0661956,-0.406888,0.000750955,4.06208,-24.8103,6.662,25.1855,2.19329,2.25762,-0.0227812,-3.59657,-1.07881,-0.440628,1.08033,-1.85553,-1.04953,-0.940794,-0.683582,-1.26069,-0.525946,-0.0842739,-0.79614,0.00767417,
0.0308532,-0.202294,-0.313242,-1.66636,-0.0424256,-0.149408,-0.382822,0.552505,-0.0976499,0.580469,-0.239911,0.30096,-0.868647,0.0134566,0,0,0,0,0,0,0,0.0263539,-0.20201,-0.316518,-1.66425,-0.0433847,1.42629,0.402203,0.21945,-0.0745132,0.233385,-0.0975288,0.0661956,-0.406888,0.000750955,4.06208,-24.8103,6.662,25.1855,2.19329,2.25762,-0.0227812,-1.41899,2.40475,-0.231531,-1.23751,-0.32071,0.87047,0.909587,0.161576,0.906607,-0.733169,0.388849,-0.841507,0.00104245,
0.0331728,-0.202636,-0.310776,-1.66735,-0.0408983,-0.152864,-0.382771,0.579916,-0.0857228,0.616498,-0.24763,0.381837,-0.86416,0.0129012,0,0,0,0,0,0,0,0.0263539,-0.20201,-0.316518,-1.66425,-0.0433847,1.42629,0.402203,0.21945,-0.0745132,0.233385,-0.0975288,0.0661956,-0.406888,0.000750955,4.06208,-24.8103,6.662,25.1855,2.19329,2.25762,-0.0227812,-1.41899,2.40475,-0.231531,-1.23751,-0.32071,0.87047,0.909587,0.161576,0.906607,-0.733169,0.388849,-0.841507,0.00104245,
0.0355845,-0.20293,-0.308187,-1.66836,-0.0390638,-0.156269,-0.382721,0.602923,-0.0733828,0.647331,-0.252718,0.458626,-0.851269,0.0124188,0,0,0,0,0,0,0,0.0263539,-0.20201,-0.316518,-1.66425,-0.0433847,1.42629,0.402203,0.21945,-0.0745132,0.233385,-0.0975288,0.0661956,-0.406888,0.000750955,4.06208,-24.8103,6.662,25.1855,2.19329,2.25762,-0.0227812,-1.6315,1.85814,0.44735,-0.920348,-0.755725,0.585995,0.600418,-0.204083,0.62403,-0.433844,0.380563,-0.816568,0.00311361,
0.0250912,-0.201133,-0.319858,-1.66397,-0.0452583,-0.138983,-0.383047,0.47586,-0.133863,0.408896,-0.233295,0.0461199,-0.733295,0.0121605,0,0,0,0,0,0,0,0.0263539,-0.20201,-0.316518,-1.66425,-0.0433847,1.42629,0.402203,0.21945,-0.0745132,0.233385,-0.0975288,0.0661956,-0.406888,0.000750955,4.06208,-24.8103,6.662,25.1855,2.19329,2.25762,-0.0227812,-3.18306,-0.948425,-0.782527,1.13256,-1.39989,-0.905848,-0.795384,-0.374385,-1.14329,-0.738163,0.0357979,-0.832999,0.00781979,
0.0316973,-0.203506,-0.312038,-1.66688,-0.0425998,-0.151677,-0.383015,0.509817,-0.127177,0.447614,-0.250054,0.111203,-0.664212,0.0137729,0,0,0,0,0,0,0,0.0340667,-0.204985,-0.308299,-1.66807,-0.0432327,1.41439,0.402213,0.271642,-0.0865203,0.317415,-0.126445,0.0104942,-0.372023,0.000411403,4.54608,-24.489,7.01112,24.6857,2.18139,1.99212,-0.0301054,-3.18306,-0.948425,-0.782527,1.13256,-1.39989,-0.905848,-0.795384,-0.374385,-1.14329,-0.738163,0.0357979,-0.832999,0.00781979,
0.0339303,-0.203981,-0.310022,-1.66795,-0.0418735,-0.15444,-0.382963,0.558263,-0.118646,0.503988,-0.26583,0.181576,-0.690683,0.0129218,0,0,0,0,0,0,0,0.0340667,-0.204985,-0.308299,-1.66807,-0.0432327,1.41439,0.402213,0.271642,-0.0865203,0.317415,-0.126445,0.0104942,-0.372023,0.000411403,4.54608,-24.489,7.01112,24.6857,2.18139,1.99212,-0.0301054,-3.92827,-0.843505,-0.944002,1.09728,-1.92139,-0.961609,-0.8297,-0.65107,-1.21417,-0.710402,0.0635349,-0.83753,0.00837187,
0.0363258,-0.204408,-0.307819,-1.66905,-0.0408409,-0.157241,-0.382914,0.598877,-0.106785,0.550636,-0.275701,0.25815,-0.700245,0.0122713,0,0,0,0,0,0,0,0.0340667,-0.204985,-0.308299,-1.66807,-0.0432327,1.41439,0.402213,0.271642,-0.0865203,0.317415,-0.126445,0.0104942,-0.372023,0.000411403,4.54608,-24.489,7.01112,24.6857,2.18139,1.99212,-0.0301054,-3.92827,-0.843505,-0.944002,1.09728,-1.92139,-0.961609,-0.8297,-0.65107,-1.21417,-0.710402,0.0635349,-0.83753,0.00837187,
0.0388593,-0.204782,-0.30546,-1.67018,-0.0394985,-0.160036,-0.382867,0.633357,-0.0935935,0.589815,-0.281887,0.3356,-0.698753,0.0117511,0,0,0,0,0,0,0,0.0340667,-0.204985,-0.308299,-1.66807,-0.0432327,1.41439,0.402213,0.271642,-0.0865203,0.317415,-0.126445,0.0104942,-0.372023,0.000411403,4.54608,-24.489,7.01112,24.6857,2.18139,1.99212,-0.0301054,-1.81445,2.78133,-0.518677,-1.39516,-0.561411,0.995938,1.05634,0.0576116,1.01972,-0.773073,0.514115,-0.818865,-0.000649627,
0.0415109,-0.205103,-0.302968,-1.67132,-0.0378556,-0.162796,-0.382822,0.66292,-0.0802073,0.623127,-0.285695,0.410728,-0.689909,0.0113225,0,0,0,0,0,0,0,0.0340667,-0.204985,-0.308299,-1.66807,-0.0432327,1.41439,0.402213,0.271642,-0.0865203,0.317415,-0.126445,0.0104942,-0.372023,0.000411403,4.54608,-24.489,7.01112,24.6857,2.18139,1.99212,-0.0301054,-1.81445,2.78133,-0.518677,-1.39516,-0.561411,0.995938,1.05634,0.0576116,1.01972,-0.773073,0.514115,-0.818865,-0.000649627,
0.0442648,-0.205372,-0.300361,-1.67247,-0.0359287,-0.1655,-0.382778,0.688466,-0.067252,0.651728,-0.287899,0.481706,-0.676109,0.0109625,0,0,0,0,0,0,0,0.0438618,-0.208302,-0.299181,-1.67264,-0.0430347,1.40379,0.402218,0.33861,-0.116073,0.292032,-0.158867,-0.00166083,-0.308576,-0.000165025,4.41913,-24.2629,6.18593,24.5865,1.56433,2.4096,-0.0301054,-0.960786,1.85572,-0.287669,-0.752073,-0.0191414,0.697901,0.707666,0.305725,0.699707,-0.746208,0.485822,-0.767365,-0.00408519,
0.0316929,-0.20358,-0.312028,-1.66717,-0.042587,-0.151628,-0.383063,0.509454,-0.133147,0.448167,-0.278183,0.112955,-0.666021,0.0103464,0,0,0,0,0,0,0,0.0438618,-0.208302,-0.299181,-1.67264,-0.0430347,1.40379,0.402218,0.33861,-0.116073,0.292032,-0.158867,-0.00166083,-0.308576,-0.000165025,4.41913,-24.2629,6.18593,24.5865,1.56433,2.4096,-0.0301054,-2.10777,-0.0166174,-0.899229,0.586481,-0.677146,-0.300885,-0.208233,-0.00836092,-0.492759,-0.795149,0.275686,-0.720091,-0.00153428,
0.0498165,-0.209919,-0.293995,-1.67573,-0.042033,-0.172296,-0.383035,0.550622,-0.128519,0.494925,-0.281942,0.150985,-0.486632,0.0113655,0,0,0,0,0,0,0,0.0438618,-0.208302,-0.299181,-1.67264,-0.0430347,1.40379,0.402218,0.33861,-0.116073,0.292032,-0.158867,-0.00166083,-0.308576,-0.000165025,4.41913,-24.2629,6.18593,24.5865,1.56433,2.4096,-0.0301054,-2.10777,-0.0166174,-0.899229,0.586481,-0.677146,-0.300885,-0.208233,-0.00836092,-0.492759,-0.795149,0.275686,-0.720091,-0.00153428,
0.052187,-0.21038,-0.291822,-1.6769,-0.0411132,-0.174336,-0.382992,0.592644,-0.115384,0.543316,-0.293503,0.229944,-0.51022,0.0107027,0,0,0,0,0,0,0,0.0438618,-0.208302,-0.299181,-1.67264,-0.0430347,1.40379,0.402218,0.33861,-0.116073,0.292032,-0.158867,-0.00166083,-0.308576,-0.000165025,4.41913,-24.2629,6.18593,24.5865,1.56433,2.4096,-0.0301054,-3.50577,-0.62578,-1.57411,1.0759,-1.49567,-0.756699,-0.614602,-0.380812,-1.03625,-0.875338,0.204133,-0.716769,-0.00103834,
0.0547,-0.210784,-0.289486,-1.6781,-0.0398741,-0.176424,-0.382952,0.628228,-0.100961,0.583905,-0.300811,0.309778,-0.521821,0.0101639,0,0,0,0,0,0,0,0.0438618,-0.208302,-0.299181,-1.67264,-0.0430347,1.40379,0.402218,0.33861,-0.116073,0.292032,-0.158867,-0.00166083,-0.308576,-0.000165025,4.41913,-24.2629,6.18593,24.5865,1.56433,2.4096,-0.0301054,-3.50577,-0.62578,-1.57411,1.0759,-1.49567,-0.756699,-0.614602,-0.380812,-1.03625,-0.875338,0.204133,-0.716769,-0.00103834,
0.0573347,-0.21113,-0.287013,-1.67933,-0.0383252,-0.178522,-0.382913,0.658675,-0.0864928,0.618351,-0.305515,0.387237,-0.524635,0.00969936,0,0,0,0,0,0,0,0.0438618,-0.208302,-0.299181,-1.67264,-0.0430347,1.40379,0.402218,0.33861,-0.116073,0.292032,-0.158867,-0.00166083,-0.308576,-0.000165025,4.41913,-24.2629,6.18593,24.5865,1.56433,2.4096,-0.0301054,-1.8645,2.18845,-1.27725,-0.825033,-0.394371,0.744351,0.828375,0.226273,0.674813,-0.972722,0.572692,-0.731002,-0.00792811,
0.0600744,-0.211421,-0.284421,-1.68056,-0.0364834,-0.180606,-0.382876,0.684932,-0.0726025,0.647864,-0.308475,0.460452,-0.521031,0.00929056,0,0,0,0,0,0,0,0.0551283,-0.211331,-0.289073,-1.67739,-0.0424058,1.39481,0.402222,0.375687,-0.1068,0.299225,-0.173135,0.00649303,-0.236939,-0.000903114,0.158268,-24.4374,2.5876,24.8364,1.30798,2.3565,-0.00996382,-1.8645,2.18845,-1.27725,-0.825033,-0.394371,0.744351,0.828375,0.226273,0.674813,-0.972722,0.572692,-0.731002,-0.00792811,
0.0629052,-0.211659,-0.281728,-1.6818,-0.0343696,-0.182657,-0.38284,0.707713,-0.0595946,0.673346,-0.310173,0.528434,-0.512726,0.00901079,0,0,0,0,0,0,0,0.0551283,-0.211331,-0.289073,-1.67739,-0.0424058,1.39481,0.402222,0.375687,-0.1068,0.299225,-0.173135,0.00649303,-0.236939,-0.000903114,0.158268,-24.4374,2.5876,24.8364,1.30798,2.3565,-0.00996382,-0.787529,1.83138,-0.651188,-0.628058,0.175756,0.718051,0.741095,0.436925,0.681103,-0.834076,0.586856,-0.692537,-0.00901914,
0.047614,-0.209405,-0.295975,-1.6746,-0.0426369,-0.170349,-0.383081,0.500261,-0.13783,0.436419,-0.262639,0.0783292,-0.447099,0.0121973,0,0,0,0,0,0,0,0.0551283,-0.211331,-0.289073,-1.67739,-0.0424058,1.39481,0.402222,0.375687,-0.1068,0.299225,-0.173135,0.00649303,-0.236939,-0.000903114,0.158268,-24.4374,2.5876,24.8364,1.30798,2.3565,-0.00996382,-2.3315,-0.545731,-1.2544,0.990651,-0.76166,-0.539824,-0.429241,-0.0428522,-0.791377,-0.838772,0.268824,-0.655573,-0.00587164,
0.0612575,-0.212799,-0.283709,-1.68053,-0.0411763,-0.17994,-0.383013,0.562897,-0.115301,0.507713,-0.280867,0.170834,-0.373625,0.012674,0,0,0,0,0,0,0,0.0551283,-0.211331,-0.289073,-1.67739,-0.0424058,1.39481,0.402222,0.375687,-0.1068,0.299225,-0.173135,0.00649303,-0.236939,-0.000903114,0.158268,-24.4374,2.5876,24.8364,1.30798,2.3565,-0.00996382,-2.3315,-0.545731,-1.2544,0.990651,-0.76166,-0.539824,-0.429241,-0.0428522,-0.791377,-0.838772,0.268824,-0.655573,-0.00587164,
0.0636712,-0.21321,-0.281491,-1.68169,-0.0401809,-0.181553,-0.382966,0.603436,-0.102692,0.554588,-0.288635,0.248857,-0.403193,0.0117789,0,0,0,0,0,0,0,0.0551283,-0.211331,-0.289073,-1.67739,-0.0424058,1.39481,0.402222,0.375687,-0.1068,0.299225,-0.173135,0.00649303,-0.236939,-0.000903114,0.158268,-24.4374,2.5876,24.8364,1.30798,2.3565,-0.00996382,-3.89871,-0.668411,-1.63889,1.08872,-1.77619,-0.769888,-0.638191,-0.543177,-1.03959,-0.838928,0.225342,-0.700448,-0.00758566,
0.0662223,-0.213567,-0.279115,-1.68286,-0.0388718,-0.183242,-0.382922,0.637782,-0.0893731,0.593969,-0.293519,0.327279,-0.422259,0.0110466,0,0,0,0,0,0,0,0.0680245,-0.214965,-0.276639,-1.6841,-0.0407321,1.38837,0.402226,0.426889,-0.103599,0.376897,-0.195991,0.0849746,-0.153847,-0.000773353,3.73279,-23.2909,6.08674,24.2612,1.8399,2.11114,-0.00996382,-3.89871,-0.668411,-1.63889,1.08872,-1.77619,-0.769888,-0.638191,-0.543177,-1.03959,-0.838928,0.225342,-0.700448,-0.00758566,
0.068891,-0.213873,-0.276605,-1.68405,-0.0372591,-0.184973,-0.38288,0.667163,-0.0762693,0.627402,-0.296737,0.403169,-0.432712,0.0105143,0,0,0,0,0,0,0,0.0680245,-0.214965,-0.276639,-1.6841,-0.0407321,1.38837,0.402226,0.426889,-0.103599,0.376897,-0.195991,0.0849746,-0.153847,-0.000773353,3.73279,-23.2909,6.08674,24.2612,1.8399,2.11114,-0.00996382,-1.9417,2.96019,-1.18982,-1.40072,-0.458907,1.1192,1.16408,0.21476,1.14154,-0.955866,0.650709,-0.743615,-0.0136775,
0.0716609,-0.214128,-0.273981,-1.68525,-0.0353598,-0.186718,-0.38284,0.692483,-0.0637982,0.656032,-0.298813,0.474821,-0.436324,0.0100942,0,0,0,0,0,0,0,0.0680245,-0.214965,-0.276639,-1.6841,-0.0407321,1.38837,0.402226,0.426889,-0.103599,0.376897,-0.195991,0.0849746,-0.153847,-0.000773353,3.73279,-23.2909,6.08674,24.2612,1.8399,2.11114,-0.00996382,-1.9417,2.96019,-1.18982,-1.40072,-0.458907,1.1192,1.16408,0.21476,1.14154,-0.955866,0.650709,-0.743615,-0.0136775,
0.0590059,-0.212338,-0.28574,-1.67941,-0.0418596,-0.178445,-0.383064,0.514397,-0.125075,0.451212,-0.267097,0.098052,-0.332388,0.013762,0,0,0,0,0,0,0,0.0680245,-0.214965,-0.276639,-1.6841,-0.0407321,1.38837,0.402226,0.426889,-0.103599,0.376897,-0.195991,0.0849746,-0.153847,-0.000773353,3.73279,-23.2909,6.08674,24.2612,1.8399,2.11114,-0.00996382,-0.124748,2.05469,-0.853243,-0.799247,0.828719,0.913042,0.921611,0.876128,0.89499,-1.03412,0.59466,-0.7284,-0.0134641,
0.0746709,-0.216267,-0.270683,-1.68725,-0.0384608,-0.185437,-0.383012,0.599488,-0.100207,0.54905,-0.275563,0.256989,-0.296335,0.0125281,0,0,0,0,0,0,0,0.0680245,-0.214965,-0.276639,-1.6841,-0.0407321,1.38837,0.402226,0.426889,-0.103599,0.376897,-0.195991,0.0849746,-0.153847,-0.000773353,3.73279,-23.2909,6.08674,24.2612,1.8399,2.11114,-0.00996382,-1.91014,-0.945235,-0.598458,1.15713,-0.65141,-0.634607,-0.505805,-0.090857,-0.908529,-0.648454,0.2205,-0.658624,-0.00652649,
0.0772111,-0.21662,-0.268323,-1.68837,-0.0371383,-0.18675,-0.382965,0.635068,-0.0882423,0.590213,-0.281597,0.330635,-0.328215,0.0117284,0,0,0,0,0,0,0,0.0680245,-0.214965,-0.276639,-1.6841,-0.0407321,1.38837,0.402226,0.426889,-0.103599,0.376897,-0.195991,0.0849746,-0.153847,-0.000773353,3.73279,-23.2909,6.08674,24.2612,1.8399,2.11114,-0.00996382,-1.91014,-0.945235,-0.598458,1.15713,-0.65141,-0.634607,-0.505805,-0.090857,-0.908529,-0.648454,0.2205,-0.658624,-0.00652649,
0.0798723,-0.216924,-0.265823,-1.68951,-0.0355245,-0.18815,-0.38292,0.665296,-0.0760191,0.624913,-0.285542,0.403445,-0.350086,0.0111101,0,0,0,0,0,0,0,0.0814368,-0.218131,-0.264295,-1.69078,-0.039179,1.38499,0.402235,0.436247,-0.0832767,0.429302,-0.199449,0.109214,-0.100381,-0.000141311,3.07422,-23.8622,4.86085,25.0586,1.78405,2.22375,-0.0301054,-2.45162,-1.06351,-0.350632,1.21886,-1.17376,-0.730748,-0.570028,-0.439636,-1.02808,-0.478139,0.217031,-0.64584,-0.00896131,
0.0826371,-0.217181,-0.263205,-1.69067,-0.0336318,-0.189605,-0.382878,0.691204,-0.064171,0.654445,-0.288226,0.473177,-0.363545,0.0106004,0,0,0,0,0,0,0,0.0814368,-0.218131,-0.264295,-1.69078,-0.039179,1.38499,0.402235,0.436247,-0.0832767,0.429302,-0.199449,0.109214,-0.100381,-0.000141311,3.07422,-23.8622,4.86085,25.0586,1.78405,2.22375,-0.0301054,-2.45162,-1.06351,-0.350632,1.21886,-1.17376,-0.730748,-0.570028,-0.439636,-1.02808,-0.478139,0.217031,-0.64584,-0.00896131,
0.0854914,-0.217393,-0.260486,-1.69183,-0.0314776,-0.191085,-0.382837,0.713557,-0.052975,0.679777,-0.28999,0.538547,-0.370154,0.0101726,0,0,0,0,0,0,0,0.0814368,-0.218131,-0.264295,-1.69078,-0.039179,1.38499,0.402235,0.436247,-0.0832767,0.429302,-0.199449,0.109214,-0.100381,-0.000141311,3.07422,-23.8622,4.86085,25.0586,1.78405,2.22375,-0.0301054,-0.680502,0.556862,0.367526,0.115531,-0.0597393,0.175611,0.20801,0.137142,0.0759151,-0.474124,0.466479,-0.692926,-0.0118394,
0.0722729,-0.215866,-0.27288,-1.68614,-0.0394888,-0.184252,-0.383062,0.557081,-0.110403,0.499684,-0.265222,0.186236,-0.25355,0.0135961,0,0,0,0,0,0,0,0.0814368,-0.218131,-0.264295,-1.69078,-0.039179,1.38499,0.402235,0.436247,-0.0832767,0.429302,-0.199449,0.109214,-0.100381,-0.000141311,3.07422,-23.8622,4.86085,25.0586,1.78405,2.22375,-0.0301054,-1.09225,0.497063,0.795843,0.0302424,-0.563323,0.124735,0.186175,-0.220757,0.0319857,-0.225833,0.374325,-0.652719,-0.0115429,
0.0883422,-0.219216,-0.258037,-1.69389,-0.0365449,-0.18816,-0.382997,0.618069,-0.0836067,0.570017,-0.271442,0.289113,-0.2422,0.0129146,0,0,0,0,0,0,0,0.0814368,-0.218131,-0.264295,-1.69078,-0.039179,1.38499,0.402235,0.436247,-0.0832767,0.429302,-0.199449,0.109214,-0.100381,-0.000141311,3.07422,-23.8622,4.86085,25.0586,1.78405,2.22375,-0.0301054,-1.09225,0.497063,0.795843,0.0302424,-0.563323,0.124735,0.186175,-0.220757,0.0319857,-0.225833,0.374325,-0.652719,-0.0115429,
0.0909466,-0.219509,-0.255604,-1.695,-0.0350955,-0.189261,-0.382948,0.651113,-0.0733254,0.608296,-0.276572,0.362339,-0.275213,0.012105,0,0,0,0,0,0,0,0.0955091,-0.220457,-0.250862,-1.69714,-0.0368508,1.38334,0.402244,0.443341,-0.0699376,0.423137,-0.192563,0.121006,-0.0296317,0.00145,4.03827,-24.3898,5.31312,24.8087,1.78405,2.31713,-0.0630644,-1.27715,0.109214,-0.807138,0.35268,-0.0691007,-0.0435856,0.0999296,0.307728,-0.255204,-0.810787,0.257637,-0.659654,-0.0143214,
0.0936635,-0.21976,-0.253041,-1.69612,-0.0333604,-0.190455,-0.382903,0.679231,-0.0627447,0.640642,-0.279844,0.433794,-0.29845,0.0114509,0,0,0,0,0,0,0,0.0955091,-0.220457,-0.250862,-1.69714,-0.0368508,1.38334,0.402244,0.443341,-0.0699376,0.423137,-0.192563,0.121006,-0.0296317,0.00145,4.03827,-24.3898,5.31312,24.8087,1.78405,2.31713,-0.0630644,-1.27715,0.109214,-0.807138,0.35268,-0.0691007,-0.0435856,0.0999296,0.307728,-0.255204,-0.810787,0.257637,-0.659654,-0.0143214,
0.096477,-0.21997,-0.250368,-1.69725,-0.0313538,-0.191708,-0.382859,0.70336,-0.0524397,0.668217,-0.28201,0.501634,-0.313337,0.0109079,0,0,0,0,0,0,0,0.0955091,-0.220457,-0.250862,-1.69714,-0.0368508,1.38334,0.402244,0.443341,-0.0699376,0.423137,-0.192563,0.121006,-0.0296317,0.00145,4.03827,-24.3898,5.31312,24.8087,1.78405,2.31713,-0.0630644,-1.42858,1.43261,-1.02905,-0.471643,-0.0537661,0.5462,0.63738,0.414273,0.4457,-0.956112,0.45768,-0.729747,-0.0163151,
0.0993738,-0.220141,-0.247601,-1.69838,-0.0290945,-0.192994,-0.382817,0.724197,-0.0426619,0.691902,-0.283365,0.564838,-0.321351,0.0104485,0,0,0,0,0,0,0,0.0955091,-0.220457,-0.250862,-1.69714,-0.0368508,1.38334,0.402244,0.443341,-0.0699376,0.423137,-0.192563,0.121006,-0.0296317,0.00145,4.03827,-24.3898,5.31312,24.8087,1.78405,2.31713,-0.0630644,-1.42858,1.43261,-1.02905,-0.471643,-0.0537661,0.5462,0.63738,0.414273,0.4457,-0.956112,0.45768,-0.729747,-0.0163151,
0.0858699,-0.218882,-0.260317,-1.69281,-0.0377013,-0.187191,-0.383048,0.578719,-0.0921949,0.524288,-0.262373,0.217238,-0.198816,0.0139319,0,0,0,0,0,0,0,0.0955091,-0.220457,-0.250862,-1.69714,-0.0368508,1.38334,0.402244,0.443341,-0.0699376,0.423137,-0.192563,0.121006,-0.0296317,0.00145,4.03827,-24.3898,5.31312,24.8087,1.78405,2.31713,-0.0630644,-2.30188,-0.159288,-0.125558,0.572761,-1.05123,-0.264834,-0.222013,-0.342149,-0.400619,-0.504877,0.339768,-0.729308,-0.0113756,
0.102429,-0.221419,-0.244597,-1.70016,-0.03413,-0.189044,-0.382977,0.619421,-0.0747986,0.571243,-0.263307,0.294082,-0.182373,0.0137329,0,0,0,0,0,0,0,0.0955091,-0.220457,-0.250862,-1.69714,-0.0368508,1.38334,0.402244,0.443341,-0.0699376,0.423137,-0.192563,0.121006,-0.0296317,0.00145,4.03827,-24.3898,5.31312,24.8087,1.78405,2.31713,-0.0630644,-2.30188,-0.159288,-0.125558,0.572761,-1.05123,-0.264834,-0.222013,-0.342149,-0.400619,-0.504877,0.339768,-0.729308,-0.0113756,
0.10504,-0.221682,-0.242158,-1.70123,-0.0326668,-0.189919,-0.382926,0.652552,-0.0657667,0.60984,-0.268154,0.365786,-0.21871,0.0128203,0,0,0,0,0,0,0,0.115236,-0.222554,-0.231842,-1.70441,-0.0305971,1.38293,0.402247,0.462243,-0.0400369,0.462715,-0.164759,0.20945,0.00473191,4.5278e-05,2.92347,-24.4612,4.2856,24.1898,1.93695,2.11846,-0.0365141,-2.3847,-0.913853,-0.848656,1.05622,-0.849245,-0.59089,-0.479321,-0.146497,-0.832734,-0.729006,0.188365,-0.696299,-0.0110205,
0.107762,-0.221907,-0.239588,-1.70231,-0.0309223,-0.190898,-0.382878,0.680689,-0.0562833,0.642381,-0.271234,0.43613,-0.244888,0.0120766,0,0,0,0,0,0,0,0.115236,-0.222554,-0.231842,-1.70441,-0.0305971,1.38293,0.402247,0.462243,-0.0400369,0.462715,-0.164759,0.20945,0.00473191,4.5278e-05,2.92347,-24.4612,4.2856,24.1898,1.93695,2.11846,-0.0365141,-2.47604,0.232787,-1.78235,0.355516,-0.566539,-0.0532124,0.0872358,0.197321,-0.271212,-1.08695,0.328596,-0.703327,-0.0141204,
0.110581,-0.222095,-0.236908,-1.70341,-0.0289096,-0.191948,-0.382832,0.704785,-0.0469354,0.670062,-0.273276,0.503162,-0.262354,0.011456,0,0,0,0,0,0,0,0.115236,-0.222554,-0.231842,-1.70441,-0.0305971,1.38293,0.402247,0.462243,-0.0400369,0.462715,-0.164759,0.20945,0.00473191,4.5278e-05,2.92347,-24.4612,4.2856,24.1898,1.93695,2.11846,-0.0365141,-2.47604,0.232787,-1.78235,0.355516,-0.566539,-0.0532124,0.0872358,0.197321,-0.271212,-1.08695,0.328596,-0.703327,-0.0141204,
0.113484,-0.222247,-0.234133,-1.70451,-0.0266465,-0.193038,-0.382788,0.725556,-0.0379882,0.693789,-0.274558,0.565776,-0.272627,0.0109293,0,0,0,0,0,0,0,0.115236,-0.222554,-0.231842,-1.70441,-0.0305971,1.38293,0.402247,0.462243,-0.0400369,0.462715,-0.164759,0.20945,0.00473191,4.5278e-05,2.92347,-24.4612,4.2856,24.1898,1.93695,2.11846,-0.0365141,-1.89505,0.935824,-1.51532,-0.0683869,-0.172017,0.303868,0.36623,0.422194,0.178386,-1.11844,0.489248,-0.759676,-0.0147685,
0.116458,-0.222365,-0.231276,-1.70561,-0.0241528,-0.194146,-0.382746,0.743553,-0.0295675,0.71426,-0.275207,0.623425,-0.27706,0.0104766,0,0,0,0,0,0,0,0.115236,-0.222554,-0.231842,-1.70441,-0.0305971,1.38293,0.402247,0.462243,-0.0400369,0.462715,-0.164759,0.20945,0.00473191,4.5278e-05,2.92347,-24.4612,4.2856,24.1898,1.93695,2.11846,-0.0365141,-1.89505,0.935824,-1.51532,-0.0683869,-0.172017,0.303868,0.36623,0.422194,0.178386,-1.11844,0.489248,-0.759676,-0.0147685,
0.0999516,-0.22112,-0.246882,-1.6991,-0.0353063,-0.188314,-0.383032,0.579904,-0.0819781,0.525026,-0.254641,0.224268,-0.135313,0.0148634,0,0,0,0,0,0,0,0.129924,-0.223633,-0.217673,-1.7096,-0.0259145,1.38306,0.402248,0.477222,-0.0360025,0.455786,-0.168702,0.185496,-0.00426524,0.00416914,3.30432,-24.0367,4.51173,23.6383,1.45446,2.21093,-0.00996382,-1.78977,0.801071,-1.08399,-0.0486651,-0.248276,0.262101,0.331909,0.313357,0.13949,-0.966823,0.438763,-0.757265,-0.0135143,
0.137118,-0.22432,-0.211082,-1.71252,-0.0224721,-0.188782,-0.382974,0.639246,-0.0548974,0.59494,-0.257553,0.350093,-0.133518,0.0136574,0,0,0,0,0,0,0,0.129924,-0.223633,-0.217673,-1.7096,-0.0259145,1.38306,0.402248,0.477222,-0.0360025,0.455786,-0.168702,0.185496,-0.00426524,0.00416914,3.30432,-24.0367,4.51173,23.6383,1.45446,2.21093,-0.00996382,-2.06169,-0.247268,-1.80652,0.643285,-0.182937,-0.217136,-0.0982532,0.418016,-0.449197,-1.17586,0.287269,-0.735072,-0.0139492,
0.139798,-0.224512,-0.208559,-1.71357,-0.0208043,-0.189459,-0.382923,0.669983,-0.0478052,0.63086,-0.262749,0.416948,-0.169341,0.0127569,0,0,0,0,0,0,0,0.129924,-0.223633,-0.217673,-1.7096,-0.0259145,1.38306,0.402248,0.477222,-0.0360025,0.455786,-0.168702,0.185496,-0.00426524,0.00416914,3.30432,-24.0367,4.51173,23.6383,1.45446,2.21093,-0.00996382,-2.06169,-0.247268,-1.80652,0.643285,-0.182937,-0.217136,-0.0982532,0.418016,-0.449197,-1.17586,0.287269,-0.735072,-0.0139492,
0.142582,-0.224671,-0.205914,-1.71463,-0.0188747,-0.190242,-0.382875,0.696062,-0.039996,0.661145,-0.265808,0.482392,-0.195718,0.0120207,0,0,0,0,0,0,0,0.129924,-0.223633,-0.217673,-1.7096,-0.0259145,1.38306,0.402248,0.477222,-0.0360025,0.455786,-0.168702,0.185496,-0.00426524,0.00416914,3.30432,-24.0367,4.51173,23.6383,1.45446,2.21093,-0.00996382,-2.30166,-0.370475,-2.01931,0.81482,-0.207999,-0.283739,-0.161495,0.451008,-0.54816,-1.30551,0.361966,-0.8122,-0.0138368,
0.145456,-0.2248,-0.203167,-1.71571,-0.016696,-0.191097,-0.382829,0.718374,-0.0321558,0.6869,-0.2677,0.544669,-0.213748,0.0114044,0,0,0,0,0,0,0,0.129924,-0.223633,-0.217673,-1.7096,-0.0259145,1.38306,0.402248,0.477222,-0.0360025,0.455786,-0.168702,0.185496,-0.00426524,0.00416914,3.30432,-24.0367,4.51173,23.6383,1.45446,2.21093,-0.00996382,-2.30166,-0.370475,-2.01931,0.81482,-0.207999,-0.283739,-0.161495,0.451008,-0.54816,-1.30551,0.361966,-0.8122,-0.0138368,
0.148406,-0.224898,-0.200331,-1.71678,-0.0142849,-0.191996,-0.382786,0.737587,-0.0245854,0.708966,-0.268794,0.602784,-0.224788,0.0108798,0,0,0,0,0,0,0,0.145113,-0.224367,-0.202676,-1.7146,-0.0200881,1.38359,0.40225,0.496299,-0.021602,0.475116,-0.165574,0.161104,0.0291604,-0.000477505,2.11017,-25.0127,3.56355,24.3365,1.14318,2.03881,-0.00996382,-1.7837,1.16981,-1.13591,-0.233343,-0.116808,0.458275,0.526208,0.446702,0.340436,-1.09242,0.568042,-0.852621,-0.0168203,
0.151423,-0.224968,-0.197419,-1.71786,-0.0116599,-0.192917,-0.382744,0.754217,-0.0174249,0.727991,-0.269251,0.656245,-0.230111,0.0104274,0,0,0,0,0,0,0,0.145113,-0.224367,-0.202676,-1.7146,-0.0200881,1.38359,0.40225,0.496299,-0.021602,0.475116,-0.165574,0.161104,0.0291604,-0.000477505,2.11017,-25.0127,3.56355,24.3365,1.14318,2.03881,-0.00996382,-1.90846,0.20113,-0.768257,0.313531,-0.423274,0.0175656,0.0765601,0.150613,-0.122597,-0.845117,0.395244,-0.767671,-0.0154668,
0.134561,-0.224101,-0.213462,-1.71149,-0.0238724,-0.188248,-0.383029,0.602541,-0.0595804,0.551949,-0.24751,0.284735,-0.0885273,0.0147774,0,0,0,0,0,0,0,0.145113,-0.224367,-0.202676,-1.7146,-0.0200881,1.38359,0.40225,0.496299,-0.021602,0.475116,-0.165574,0.161104,0.0291604,-0.000477505,2.11017,-25.0127,3.56355,24.3365,1.14318,2.03881,-0.00996382,-1.90846,0.20113,-0.768257,0.313531,-0.423274,0.0175656,0.0765601,0.150613,-0.122597,-0.845117,0.395244,-0.767671,-0.0154668,
0.152438,-0.2249,-0.19592,-1.71746,-0.0167145,-0.187826,-0.382972,0.647931,-0.0430994,0.606108,-0.252435,0.349909,-0.0971632,0.0138151,0,0,0,0,0,0,0,0.145113,-0.224367,-0.202676,-1.7146,-0.0200881,1.38359,0.40225,0.496299,-0.021602,0.475116,-0.165574,0.161104,0.0291604,-0.000477505,2.11017,-25.0127,3.56355,24.3365,1.14318,2.03881,-0.00996382,-2.91708,0.602764,-0.822639,-0.0356023,-1.23341,0.197185,0.309634,-0.289227,0.0709437,-0.700197,0.361524,-0.706755,-0.0162048,
0.155147,-0.225048,-0.193359,-1.71849,-0.0150363,-0.188356,-0.38292,0.677189,-0.0371407,0.640201,-0.257339,0.419555,-0.132599,0.0129227,0,0,0,0,0,0,0,0.145113,-0.224367,-0.202676,-1.7146,-0.0200881,1.38359,0.40225,0.496299,-0.021602,0.475116,-0.165574,0.161104,0.0291604,-0.000477505,2.11017,-25.0127,3.56355,24.3365,1.14318,2.03881,-0.00996382,-2.91708,0.602764,-0.822639,-0.0356023,-1.23341,0.197185,0.309634,-0.289227,0.0709437,-0.700197,0.361524,-0.706755,-0.0162048,
0.157955,-0.22517,-0.190682,-1.71953,-0.0130901,-0.188992,-0.382871,0.702103,-0.0304085,0.669076,-0.260134,0.486566,-0.158837,0.0121824,0,0,0,0,0,0,0,0.145113,-0.224367,-0.202676,-1.7146,-0.0200881,1.38359,0.40225,0.496299,-0.021602,0.475116,-0.165574,0.161104,0.0291604,-0.000477505,2.11017,-25.0127,3.56355,24.3365,1.14318,2.03881,-0.00996382,-3.28562,0.0996863,-0.709742,0.400907,-1.53832,-0.0449363,0.0592334,-0.512413,-0.210384,-0.628227,0.422964,-0.722221,-0.0142353,
0.160849,-0.225264,-0.187908,-1.72058,-0.0108917,-0.189699,-0.382825,0.723483,-0.0235688,0.693724,-0.261782,0.549595,-0.176917,0.0115559,0,0,0,0,0,0,0,0.161579,-0.224535,-0.186932,-1.71981,-0.012314,1.38391,0.402257,0.530266,-0.00113771,0.495824,-0.157877,0.212443,0.0117449,0.00116512,-0.95654,-26.1592,0.639662,25.9076,1.44897,2.06536,-0.0365141,-3.28562,0.0996863,-0.709742,0.400907,-1.53832,-0.0449363,0.0592334,-0.512413,-0.210384,-0.628227,0.422964,-0.722221,-0.0142353,
0.163817,-0.225332,-0.185048,-1.72163,-0.00845999,-0.190452,-0.382781,0.741937,-0.0169156,0.714907,-0.262655,0.607924,-0.188153,0.0110206,0,0,0,0,0,0,0,0.161579,-0.224535,-0.186932,-1.71981,-0.012314,1.38391,0.402257,0.530266,-0.00113771,0.495824,-0.157877,0.212443,0.0117449,0.00116512,-0.95654,-26.1592,0.639662,25.9076,1.44897,2.06536,-0.0365141,-2.33879,1.57399,-0.36789,-0.557438,-0.978153,0.663534,0.692946,-0.192182,0.637217,-0.590685,0.635839,-0.685414,-0.0149641,
0.166849,-0.225374,-0.182115,-1.72268,-0.00581497,-0.191227,-0.382739,0.75794,-0.0105895,0.733219,-0.262917,0.661255,-0.193782,0.0105504,0,0,0,0,0,0,0,0.161579,-0.224535,-0.186932,-1.71981,-0.012314,1.38391,0.402257,0.530266,-0.00113771,0.495824,-0.157877,0.212443,0.0117449,0.00116512,-0.95654,-26.1592,0.639662,25.9076,1.44897,2.06536,-0.0365141,-1.86548,0.702595,-1.12539,-0.080426,-0.382354,0.287812,0.333613,0.207415,0.199796,-0.845776,0.432868,-0.613888,-0.0122063,
0.149846,-0.224727,-0.198344,-1.71645,-0.0181142,-0.187437,-0.383027,0.613149,-0.046645,0.565516,-0.242748,0.279926,-0.0528627,0.0148818,0,0,0,0,0,0,0,0.161579,-0.224535,-0.186932,-1.71981,-0.012314,1.38391,0.402257,0.530266,-0.00113771,0.495824,-0.157877,0.212443,0.0117449,0.00116512,-0.95654,-26.1592,0.639662,25.9076,1.44897,2.06536,-0.0365141,-1.86548,0.702595,-1.12539,-0.080426,-0.382354,0.287812,0.333613,0.207415,0.199796,-0.845776,0.432868,-0.613888,-0.0122063,
0.169118,-0.224885,-0.179922,-1.72264,-0.00835331,-0.187434,-0.382968,0.663144,-0.0294241,0.624361,-0.250148,0.395356,-0.0840644,0.0136437,0,0,0,0,0,0,0,0.161579,-0.224535,-0.186932,-1.71981,-0.012314,1.38391,0.402257,0.530266,-0.00113771,0.495824,-0.157877,0.212443,0.0117449,0.00116512,-0.95654,-26.1592,0.639662,25.9076,1.44897,2.06536,-0.0365141,-2.4884,-0.979983,-1.43615,0.979803,-0.823316,-0.479513,-0.370597,-0.113917,-0.701742,-0.780262,0.190916,-0.522729,-0.0109805,
0.17188,-0.224983,-0.177297,-1.72366,-0.00650966,-0.187893,-0.382916,0.690429,-0.0246819,0.656167,-0.254607,0.460913,-0.114672,0.0127796,0,0,0,0,0,0,0,0.177705,-0.224449,-0.171099,-1.72472,-0.004588,1.38418,0.402255,0.541016,0.00932903,0.514985,-0.153309,0.295564,0.00633554,-0.00120128,1.93164,-26.7583,3.18666,25.733,2.22992,1.89965,0.0101778,-2.4884,-0.979983,-1.43615,0.979803,-0.823316,-0.479513,-0.370597,-0.113917,-0.701742,-0.780262,0.190916,-0.522729,-0.0109805,
0.174735,-0.22506,-0.174565,-1.72469,-0.00441447,-0.188442,-0.382868,0.713668,-0.0190523,0.68313,-0.256878,0.523798,-0.137218,0.0120606,0,0,0,0,0,0,0,0.177705,-0.224449,-0.171099,-1.72472,-0.004588,1.38418,0.402255,0.541016,0.00932903,0.514985,-0.153309,0.295564,0.00633554,-0.00120128,1.93164,-26.7583,3.18666,25.733,2.22992,1.89965,0.0101778,-1.96845,0.900992,-1.55238,-0.240555,-0.384753,0.409356,0.506999,0.251976,0.293173,-0.902847,0.435046,-0.513587,-0.0155172,
0.177669,-0.225113,-0.17174,-1.72572,-0.00208317,-0.189052,-0.382822,0.733613,-0.0132348,0.70616,-0.258018,0.582824,-0.152463,0.0114441,0,0,0,0,0,0,0,0.177705,-0.224449,-0.171099,-1.72472,-0.004588,1.38418,0.402255,0.541016,0.00932903,0.514985,-0.153309,0.295564,0.00633554,-0.00120128,1.93164,-26.7583,3.18666,25.733,2.22992,1.89965,0.0101778,-1.69255,1.44614,-1.41509,-0.554086,-0.204742,0.656007,0.690502,0.364996,0.611693,-0.904671,0.565479,-0.526271,-0.0142426,
0.180672,-0.225143,-0.168836,-1.72676,0.000466285,-0.189698,-0.382779,0.750828,-0.00753317,0.725963,-0.258427,0.637364,-0.161539,0.010926,0,0,0,0,0,0,0,0.177705,-0.224449,-0.171099,-1.72472,-0.004588,1.38418,0.402255,0.541016,0.00932903,0.514985,-0.153309,0.295564,0.00633554,-0.00120128,1.93164,-26.7583,3.18666,25.733,2.22992,1.89965,0.0101778,-1.69255,1.44614,-1.41509,-0.554086,-0.204742,0.656007,0.690502,0.364996,0.611693,-0.904671,0.565479,-0.526271,-0.0142426,
0.183735,-0.225151,-0.165864,-1.72779,0.00321497,-0.19036,-0.382737,0.765755,-0.00209059,0.743086,-0.258279,0.68717,-0.165553,0.0104569,0,0,0,0,0,0,0,0.177705,-0.224449,-0.171099,-1.72472,-0.004588,1.38418,0.402255,0.541016,0.00932903,0.514985,-0.153309,0.295564,0.00633554,-0.00120128,1.93164,-26.7583,3.18666,25.733,2.22992,1.89965,0.0101778,-2.06172,-0.372714,-2.06507,0.573602,-0.248142,-0.176181,-0.144925,0.342879,-0.31424,-1.06743,0.305441,-0.511786,-0.0115299,
0.166466,-0.224767,-0.18242,-1.72164,-0.00993473,-0.187098,-0.383022,0.630737,-0.0315317,0.586527,-0.240569,0.32915,-0.0462293,0.0146623,0,0,0,0,0,0,0,0.177705,-0.224449,-0.171099,-1.72472,-0.004588,1.38418,0.402255,0.541016,0.00932903,0.514985,-0.153309,0.295564,0.00633554,-0.00120128,1.93164,-26.7583,3.18666,25.733,2.22992,1.89965,0.0101778,-2.06172,-0.372714,-2.06507,0.573602,-0.248142,-0.176181,-0.144925,0.342879,-0.31424,-1.06743,0.305441,-0.511786,-0.0115299,
0.185384,-0.224694,-0.163925,-1.7275,0.000114826,-0.187038,-0.382971,0.673607,-0.0214277,0.636823,-0.245594,0.448187,-0.0678665,0.0135804,0,0,0,0,0,0,0,0.194217,-0.224341,-0.15489,-1.72942,0.00286471,1.38438,0.402261,0.51903,0.00304354,0.552938,-0.156169,0.279971,0.00190397,-0.00072506,3.53046,-26.6075,4.16261,24.8087,1.3446,2.23748,-0.0163725,-2.50455,-1.64326,-1.9446,1.31332,-0.731919,-0.728405,-0.623457,-0.0552612,-0.969482,-0.861021,0.0679583,-0.41801,-0.0109752,
0.188183,-0.224764,-0.161254,-1.7285,0.00214026,-0.187416,-0.38292,0.699858,-0.0172804,0.667565,-0.249693,0.506359,-0.0943674,0.0127115,0,0,0,0,0,0,0,0.194217,-0.224341,-0.15489,-1.72942,0.00286471,1.38438,0.402261,0.51903,0.00304354,0.552938,-0.156169,0.279971,0.00190397,-0.00072506,3.53046,-26.6075,4.16261,24.8087,1.3446,2.23748,-0.0163725,-2.50455,-1.64326,-1.9446,1.31332,-0.731919,-0.728405,-0.623457,-0.0552612,-0.969482,-0.861021,0.0679583,-0.41801,-0.0109752,
0.191072,-0.224812,-0.15848,-1.72951,0.00439179,-0.187871,-0.382872,0.722143,-0.0122172,0.693539,-0.251624,0.562882,-0.113748,0.011997,0,0,0,0,0,0,0,0.194217,-0.224341,-0.15489,-1.72942,0.00286471,1.38438,0.402261,0.51903,0.00304354,0.552938,-0.156169,0.279971,0.00190397,-0.00072506,3.53046,-26.6075,4.16261,24.8087,1.3446,2.23748,-0.0163725,-2.35069,-0.0433414,-1.79945,0.244093,-0.6418,0.0281776,0.111152,0.0886946,-0.0984579,-0.87345,0.247127,-0.438686,-0.0150389,
0.194037,-0.22484,-0.155618,-1.73052,0.00685747,-0.188377,-0.382826,0.741211,-0.00694247,0.715656,-0.252462,0.616419,-0.126581,0.0113716,0,0,0,0,0,0,0,0.194217,-0.224341,-0.15489,-1.72942,0.00286471,1.38438,0.402261,0.51903,0.00304354,0.552938,-0.156169,0.279971,0.00190397,-0.00072506,3.53046,-26.6075,4.16261,24.8087,1.3446,2.23748,-0.0163725,-2.54974,3.23888,-1.66652,-1.89947,-0.729967,1.56266,1.58655,0.287736,1.67644,-0.959319,0.652744,-0.532254,-0.0187232,
0.197062,-0.224847,-0.152676,-1.73153,0.00952419,-0.188912,-0.382783,0.756433,-0.00172845,0.735302,-0.252626,0.666682,-0.133847,0.0108108,0,0,0,0,0,0,0,0.194217,-0.224341,-0.15489,-1.72942,0.00286471,1.38438,0.402261,0.51903,0.00304354,0.552938,-0.156169,0.279971,0.00190397,-0.00072506,3.53046,-26.6075,4.16261,24.8087,1.3446,2.23748,-0.0163725,-2.54974,3.23888,-1.66652,-1.89947,-0.729967,1.56266,1.58655,0.287736,1.67644,-0.959319,0.652744,-0.532254,-0.0187232,
0.200128,-0.224834,-0.149661,-1.73254,0.0123808,-0.189459,-0.382742,0.766336,0.00333397,0.753944,-0.252305,0.714154,-0.13654,0.0102277,0,0,0,0,0,0,0,0.217194,-0.224239,-0.132559,-1.73625,0.0157844,1.38528,0.402264,0.54254,-0.00306744,0.559783,-0.163347,0.317607,0.0263376,0.000550867,1.93164,-26.4607,2.1869,24.6381,1.24664,1.96557,-0.00996382,-1.644,-0.938568,-2.22375,0.854789,0.141592,-0.399419,-0.370386,0.555681,-0.563864,-1.16461,0.222189,-0.509057,-0.0112939,
0.182689,-0.224609,-0.166472,-1.72652,-0.00167792,-0.186767,-0.383025,0.642318,-0.0228908,0.600141,-0.236333,0.390551,-0.0353492,0.0145863,0,0,0,0,0,0,0,0.217194,-0.224239,-0.132559,-1.73625,0.0157844,1.38528,0.402264,0.54254,-0.00306744,0.559783,-0.163347,0.317607,0.0263376,0.000550867,1.93164,-26.4607,2.1869,24.6381,1.24664,1.96557,-0.00996382,-1.644,-0.938568,-2.22375,0.854789,0.141592,-0.399419,-0.370386,0.555681,-0.563864,-1.16461,0.222189,-0.509057,-0.0112939,
0.225041,-0.224487,-0.125143,-1.73896,0.0207971,-0.1857,-0.382964,0.685523,-0.0191689,0.653685,-0.237584,0.474807,-0.044089,0.0133623,0,0,0,0,0,0,0,0.217194,-0.224239,-0.132559,-1.73625,0.0157844,1.38528,0.402264,0.54254,-0.00306744,0.559783,-0.163347,0.317607,0.0263376,0.000550867,1.93164,-26.4607,2.1869,24.6381,1.24664,1.96557,-0.00996382,-1.62306,-1.65541,-2.68507,1.20517,0.274132,-0.70002,-0.597994,0.647607,-0.949551,-1.2784,0.0376563,-0.458549,-0.0119574,
0.227882,-0.224543,-0.122414,-1.73993,0.0229244,-0.185967,-0.382914,0.710047,-0.0140704,0.682304,-0.241537,0.531808,-0.0667168,0.0125298,0,0,0,0,0,0,0,0.217194,-0.224239,-0.132559,-1.73625,0.0157844,1.38528,0.402264,0.54254,-0.00306744,0.559783,-0.163347,0.317607,0.0263376,0.000550867,1.93164,-26.4607,2.1869,24.6381,1.24664,1.96557,-0.00996382,-1.62306,-1.65541,-2.68507,1.20517,0.274132,-0.70002,-0.597994,0.647607,-0.949551,-1.2784,0.0376563,-0.458549,-0.0119574,
0.230801,-0.224577,-0.119585,-1.7409,0.025272,-0.186299,-0.382867,0.729754,-0.00846786,0.70728,-0.243602,0.586914,-0.0830725,0.0118007,0,0,0,0,0,0,0,0.217194,-0.224239,-0.132559,-1.73625,0.0157844,1.38528,0.402264,0.54254,-0.00306744,0.559783,-0.163347,0.317607,0.0263376,0.000550867,1.93164,-26.4607,2.1869,24.6381,1.24664,1.96557,-0.00996382,-1.5559,-1.41487,-2.54819,1.09004,0.308815,-0.586794,-0.489459,0.662588,-0.829437,-1.26631,0.127328,-0.485299,-0.0123282,
0.233774,-0.224589,-0.116663,-1.74188,0.0278319,-0.186674,-0.382823,0.743389,-0.00284466,0.730327,-0.244661,0.639974,-0.0937187,0.011079,0,0,0,0,0,0,0,0.217194,-0.224239,-0.132559,-1.73625,0.0157844,1.38528,0.402264,0.54254,-0.00306744,0.559783,-0.163347,0.317607,0.0263376,0.000550867,1.93164,-26.4607,2.1869,24.6381,1.24664,1.96557,-0.00996382,-1.47864,2.48114,-1.97313,-1.45107,0.188257,1.21503,1.24206,0.80656,1.26215,-1.14079,0.578634,-0.490584,-0.0185291,
0.23679,-0.224579,-0.113663,-1.74286,0.0305903,-0.187072,-0.382781,0.75406,0.00253476,0.750149,-0.245022,0.689583,-0.0995258,0.0104639,0,0,0,0,0,0,0,0.234692,-0.224068,-0.11518,-1.74128,0.0269163,1.38613,0.402261,0.547004,0.00875291,0.51976,-0.15187,0.287356,0.0415601,-0.00101342,0.793033,-27.1352,1.36171,25.4593,1.43066,2.07177,0.0303194,-1.47864,2.48114,-1.97313,-1.45107,0.188257,1.21503,1.24206,0.80656,1.26215,-1.14079,0.578634,-0.490584,-0.0185291,
0.23984,-0.224548,-0.110594,-1.74384,0.0335313,-0.187478,-0.382741,0.762362,0.00755941,0.767217,-0.244853,0.73527,-0.101339,0.00994203,0,0,0,0,0,0,0,0.234692,-0.224068,-0.11518,-1.74128,0.0269163,1.38613,0.402261,0.547004,0.00875291,0.51976,-0.15187,0.287356,0.0415601,-0.00101342,0.793033,-27.1352,1.36171,25.4593,1.43066,2.07177,0.0303194,-1.81135,-0.108219,-1.51749,0.299808,-0.302315,0.0360766,0.0792071,0.228568,-0.0734603,-0.838065,0.336097,-0.444089,-0.0117651,
0.222299,-0.22441,-0.127758,-1.73801,0.0188979,-0.185524,-0.383018,0.656417,-0.0224564,0.619781,-0.229386,0.417064,-0.0159234,0.0143156,0,0,0,0,0,0,0,0.234692,-0.224068,-0.11518,-1.74128,0.0269163,1.38613,0.402261,0.547004,0.00875291,0.51976,-0.15187,0.287356,0.0415601,-0.00101342,0.793033,-27.1352,1.36171,25.4593,1.43066,2.07177,0.0303194,-1.81135,-0.108219,-1.51749,0.299808,-0.302315,0.0360766,0.0792071,0.228568,-0.0734603,-0.838065,0.336097,-0.444089,-0.0117651,
0.24238,-0.224226,-0.10794,-1.74391,0.0315973,-0.184554,-0.382961,0.673192,-0.0128572,0.642578,-0.23227,0.447277,-0.0166457,0.0139234,0,0,0,0,0,0,0,0.234692,-0.224068,-0.11518,-1.74128,0.0269163,1.38613,0.402261,0.547004,0.00875291,0.51976,-0.15187,0.287356,0.0415601,-0.00101342,0.793033,-27.1352,1.36171,25.4593,1.43066,2.07177,0.0303194,-1.55708,-1.80481,-1.55086,1.38715,-0.221314,-0.745373,-0.642787,0.0947062,-0.998236,-0.735416,0.11567,-0.336975,-0.00903899,
0.24516,-0.22426,-0.105238,-1.74486,0.0336244,-0.184708,-0.38291,0.69512,-0.00844292,0.67556,-0.236216,0.506753,-0.0384346,0.012894,0,0,0,0,0,0,0,0.234692,-0.224068,-0.11518,-1.74128,0.0269163,1.38613,0.402261,0.547004,0.00875291,0.51976,-0.15187,0.287356,0.0415601,-0.00101342,0.793033,-27.1352,1.36171,25.4593,1.43066,2.07177,0.0303194,-1.32767,-0.856356,-1.44272,0.788863,-0.0953787,-0.316947,-0.221857,0.208462,-0.516427,-0.713539,0.246962,-0.312416,-0.0114441,
0.248011,-0.224274,-0.102423,-1.74581,0.0358834,-0.184926,-0.382862,0.712631,-0.00340825,0.703526,-0.23817,0.564756,-0.0543835,0.0120229,0,0,0,0,0,0,0,0.252145,-0.223672,-0.0974652,-1.74613,0.0383477,1.38685,0.402275,0.574475,0.0177749,0.569184,-0.157812,0.36776,0.028158,0.00013855,1.04694,-26.9606,1.86159,25.6061,1.72363,1.9262,-0.0227812,-1.32767,-0.856356,-1.44272,0.788863,-0.0953787,-0.316947,-0.221857,0.208462,-0.516427,-0.713539,0.246962,-0.312416,-0.0114441,
0.250917,-0.224267,-0.0995141,-1.74677,0.0383628,-0.185185,-0.382816,0.726637,0.00166053,0.727329,-0.239081,0.619867,-0.0648741,0.0112886,0,0,0,0,0,0,0,0.252145,-0.223672,-0.0974652,-1.74613,0.0383477,1.38685,0.402275,0.574475,0.0177749,0.569184,-0.157812,0.36776,0.028158,0.00013855,1.04694,-26.9606,1.86159,25.6061,1.72363,1.9262,-0.0227812,-2.00322,2.44991,-1.09044,-1.35471,-0.662038,1.25104,1.27606,0.141725,1.31416,-0.619301,0.635925,-0.346383,-0.0149732,
0.253868,-0.224241,-0.0965234,-1.74773,0.0410479,-0.185468,-0.382774,0.73778,0.00652015,0.747691,-0.239313,0.671251,-0.0706947,0.0106497,0,0,0,0,0,0,0,0.252145,-0.223672,-0.0974652,-1.74613,0.0383477,1.38685,0.402275,0.574475,0.0177749,0.569184,-0.157812,0.36776,0.028158,0.00013855,1.04694,-26.9606,1.86159,25.6061,1.72363,1.9262,-0.0227812,-2.00322,2.44991,-1.09044,-1.35471,-0.662038,1.25104,1.27606,0.141725,1.31416,-0.619301,0.635925,-0.346383,-0.0149732,
0.256854,-0.224197,-0.0934626,-1.74868,0.0439218,-0.185758,-0.382733,0.746537,0.0110637,0.765205,-0.239034,0.718494,-0.0726558,0.010086,0,0,0,0,0,0,0,0.252145,-0.223672,-0.0974652,-1.74613,0.0383477,1.38685,0.402275,0.574475,0.0177749,0.569184,-0.157812,0.36776,0.028158,0.00013855,1.04694,-26.9606,1.86159,25.6061,1.72363,1.9262,-0.0227812,-2.40168,2.90795,-1.64681,-1.7758,-0.773295,1.50463,1.4981,0.235921,1.64428,-0.781849,0.608173,-0.324496,-0.0154468,
0.239687,-0.224175,-0.11051,-1.74298,0.0298082,-0.184488,-0.383017,0.64327,-0.0151574,0.605408,-0.223803,0.389034,0.00991691,0.0149662,0,0,0,0,0,0,0,0.252145,-0.223672,-0.0974652,-1.74613,0.0383477,1.38685,0.402275,0.574475,0.0177749,0.569184,-0.157812,0.36776,0.028158,0.00013855,1.04694,-26.9606,1.86159,25.6061,1.72363,1.9262,-0.0227812,-1.98507,-1.69708,-1.969,1.24588,-0.457223,-0.627697,-0.546758,0.0139743,-0.837173,-0.780072,0.127648,-0.257252,-0.00730731,
0.26008,-0.223703,-0.0898159,-1.74877,0.0439137,-0.183833,-0.382958,0.686288,-0.00248335,0.673579,-0.230742,0.517627,-0.0101865,0.0129828,0,0,0,0,0,0,0,0.252145,-0.223672,-0.0974652,-1.74613,0.0383477,1.38685,0.402275,0.574475,0.0177749,0.569184,-0.157812,0.36776,0.028158,0.00013855,1.04694,-26.9606,1.86159,25.6061,1.72363,1.9262,-0.0227812,-1.98507,-1.69708,-1.969,1.24588,-0.457223,-0.627697,-0.546758,0.0139743,-0.837173,-0.780072,0.127648,-0.257252,-0.00730731,
0.262898,-0.223698,-0.0870063,-1.7497,0.046201,-0.183941,-0.38291,0.704441,0.00129441,0.702417,-0.233957,0.571829,-0.0268477,0.0121007,0,0,0,0,0,0,0,0.270073,-0.222926,-0.0795141,-1.7507,0.0488104,1.38762,0.402275,0.554326,0.0247261,0.600065,-0.138635,0.382685,0.0226252,-0.000426216,0.840641,-27.032,1.23872,25.4593,1.76025,2.03881,-0.0227812,-1.49775,-1.32335,-2.0391,1.03491,-0.0563484,-0.490431,-0.390607,0.262548,-0.715377,-0.84925,0.216905,-0.242763,-0.00952665,
0.265774,-0.223676,-0.0840989,-1.75065,0.0486974,-0.184095,-0.382864,0.71894,0.00559106,0.726843,-0.23534,0.62408,-0.0387031,0.0113392,0,0,0,0,0,0,0,0.270073,-0.222926,-0.0795141,-1.7507,0.0488104,1.38762,0.402275,0.554326,0.0247261,0.600065,-0.138635,0.382685,0.0226252,-0.000426216,0.840641,-27.032,1.23872,25.4593,1.76025,2.03881,-0.0227812,-1.49775,-1.32335,-2.0391,1.03491,-0.0563484,-0.490431,-0.390607,0.262548,-0.715377,-0.84925,0.216905,-0.242763,-0.00952665,
0.268696,-0.223636,-0.0811083,-1.75159,0.0513907,-0.184279,-0.382822,0.730448,0.00989133,0.74766,-0.235767,0.673338,-0.0460096,0.0106752,0,0,0,0,0,0,0,0.270073,-0.222926,-0.0795141,-1.7507,0.0488104,1.38762,0.402275,0.554326,0.0247261,0.600065,-0.138635,0.382685,0.0226252,-0.000426216,0.840641,-27.032,1.23872,25.4593,1.76025,2.03881,-0.0227812,-1.15909,1.21968,-2.48816,-0.661984,0.480115,0.633972,0.675693,0.902645,0.584417,-1.16646,0.527437,-0.298373,-0.0120941,
0.271653,-0.22358,-0.0780462,-1.75253,0.0542667,-0.184477,-0.382781,0.739476,0.0139856,0.765504,-0.235582,0.719005,-0.0493993,0.0100916,0,0,0,0,0,0,0,0.270073,-0.222926,-0.0795141,-1.7507,0.0488104,1.38762,0.402275,0.554326,0.0247261,0.600065,-0.138635,0.382685,0.0226252,-0.000426216,0.840641,-27.032,1.23872,25.4593,1.76025,2.03881,-0.0227812,-1.15909,1.21968,-2.48816,-0.661984,0.480115,0.633972,0.675693,0.902645,0.584417,-1.16646,0.527437,-0.298373,-0.0120941,
0.274639,-0.223509,-0.0749227,-1.75347,0.05731,-0.184675,-0.382743,0.746431,0.0177858,0.780878,-0.23494,0.760809,-0.0495464,0.00957494,0,0,0,0,0,0,0,0.270073,-0.222926,-0.0795141,-1.7507,0.0488104,1.38762,0.402275,0.554326,0.0247261,0.600065,-0.138635,0.382685,0.0226252,-0.000426216,0.840641,-27.032,1.23872,25.4593,1.76025,2.03881,-0.0227812,-2.31149,1.35552,-2.4423,-0.821744,-0.402159,0.82654,0.850267,0.457345,0.84193,-1.06063,0.488768,-0.314892,-0.0121601,
0.257335,-0.223693,-0.0925103,-1.74785,0.0418432,-0.183792,-0.38301,0.663527,-0.00441385,0.639371,-0.22332,0.463114,0.0101647,0.0139903,0,0,0,0,0,0,0,0.287836,-0.222245,-0.0610365,-1.75501,0.0597178,1.38863,0.402281,0.549154,0.0268561,0.579044,-0.12798,0.378954,0.0283725,0.000334648,2.26093,-27.2344,2.06392,24.6619,1.1679,2.28417,-0.0365141,-1.8575,-1.92013,-2.56685,1.26364,-0.168495,-0.686389,-0.596279,0.249705,-0.905518,-0.990839,0.0792965,-0.227701,-0.00807094,
0.295599,-0.222244,-0.053368,-1.75749,0.0653678,-0.181747,-0.38295,0.672544,-0.000602112,0.675387,-0.221243,0.522609,0.0205119,0.0130502,0,0,0,0,0,0,0,0.287836,-0.222245,-0.0610365,-1.75501,0.0597178,1.38863,0.402281,0.549154,0.0268561,0.579044,-0.12798,0.378954,0.0283725,0.000334648,2.26093,-27.2344,2.06392,24.6619,1.1679,2.28417,-0.0365141,-1.8575,-1.92013,-2.56685,1.26364,-0.168495,-0.686389,-0.596279,0.249705,-0.905518,-0.990839,0.0792965,-0.227701,-0.00807094,
0.298364,-0.222231,-0.0505499,-1.75839,0.0676672,-0.181723,-0.382902,0.691023,0.00315326,0.704525,-0.225416,0.574861,0.00584838,0.0121403,0,0,0,0,0,0,0,0.287836,-0.222245,-0.0610365,-1.75501,0.0597178,1.38863,0.402281,0.549154,0.0268561,0.579044,-0.12798,0.378954,0.0283725,0.000334648,2.26093,-27.2344,2.06392,24.6619,1.1679,2.28417,-0.0365141,-0.826898,-1.56482,-2.68143,1.03234,0.647555,-0.638045,-0.557063,0.731122,-0.857762,-1.1194,0.142122,-0.20655,-0.00915049,
0.301187,-0.222201,-0.0476331,-1.7593,0.0701689,-0.181743,-0.382856,0.705789,0.00748634,0.729192,-0.227323,0.625418,-0.00503596,0.0113468,0,0,0,0,0,0,0,0.287836,-0.222245,-0.0610365,-1.75501,0.0597178,1.38863,0.402281,0.549154,0.0268561,0.579044,-0.12798,0.378954,0.0283725,0.000334648,2.26093,-27.2344,2.06392,24.6619,1.1679,2.28417,-0.0365141,-0.826898,-1.56482,-2.68143,1.03234,0.647555,-0.638045,-0.557063,0.731122,-0.857762,-1.1194,0.142122,-0.20655,-0.00915049,
0.304057,-0.222154,-0.0446324,-1.76022,0.0728619,-0.181791,-0.382814,0.71751,0.0117941,0.750194,-0.228091,0.673246,-0.0119802,0.0106537,0,0,0,0,0,0,0,0.287836,-0.222245,-0.0610365,-1.75501,0.0597178,1.38863,0.402281,0.549154,0.0268561,0.579044,-0.12798,0.378954,0.0283725,0.000334648,2.26093,-27.2344,2.06392,24.6619,1.1679,2.28417,-0.0365141,-1.38414,1.89529,-2.53702,-1.1971,0.337607,0.984714,1.00735,0.931633,1.00776,-1.17437,0.574877,-0.286615,-0.0120199,
0.306964,-0.222091,-0.0415597,-1.76113,0.0757328,-0.181853,-0.382774,0.726707,0.0158485,0.768173,-0.228159,0.717721,-0.0154034,0.0100452,0,0,0,0,0,0,0,0.310774,-0.221614,-0.0369225,-1.76095,0.07587,1.39043,0.402286,0.53812,0.0120816,0.592536,-0.146751,0.361736,0.0556231,0.00132819,2.72113,-27.1828,2.21467,24.6103,1.47918,2.05804,-0.0429228,-1.90251,2.04944,-2.71853,-1.35912,0.0250691,1.12301,1.12689,0.833845,1.19026,-1.21222,0.569319,-0.297922,-0.0100722,
0.292909,-0.222242,-0.0560696,-1.75661,0.0632773,-0.181829,-0.383003,0.649412,-0.00215905,0.640835,-0.211744,0.470182,0.0369099,0.0140635,0,0,0,0,0,0,0,0.310774,-0.221614,-0.0369225,-1.76095,0.07587,1.39043,0.402286,0.53812,0.0120816,0.592536,-0.146751,0.361736,0.0556231,0.00132819,2.72113,-27.1828,2.21467,24.6103,1.47918,2.05804,-0.0429228,-1.90251,2.04944,-2.71853,-1.35912,0.0250691,1.12301,1.12689,0.833845,1.19026,-1.21222,0.569319,-0.297922,-0.0100722,
0.318428,-0.221639,-0.0291741,-1.76341,0.0814085,-0.17975,-0.382946,0.662631,-0.000465844,0.68086,-0.216041,0.516365,0.0379366,0.0129555,0,0,0,0,0,0,0,0.310774,-0.221614,-0.0369225,-1.76095,0.07587,1.39043,0.402286,0.53812,0.0120816,0.592536,-0.146751,0.361736,0.0556231,0.00132819,2.72113,-27.1828,2.21467,24.6103,1.47918,2.05804,-0.0429228,-1.76907,-0.879378,-2.86895,0.50229,0.062136,-0.185329,-0.0930627,0.55334,-0.34695,-1.16758,0.217468,-0.249701,-0.00456277,
0.32115,-0.221623,-0.0263372,-1.76429,0.0836897,-0.179648,-0.382897,0.680595,0.00396216,0.709247,-0.219573,0.570318,0.0254686,0.0120412,0,0,0,0,0,0,0,0.310774,-0.221614,-0.0369225,-1.76095,0.07587,1.39043,0.402286,0.53812,0.0120816,0.592536,-0.146751,0.361736,0.0556231,0.00132819,2.72113,-27.1828,2.21467,24.6103,1.47918,2.05804,-0.0429228,-1.76907,-0.879378,-2.86895,0.50229,0.062136,-0.185329,-0.0930627,0.55334,-0.34695,-1.16758,0.217468,-0.249701,-0.00456277,
0.32393,-0.221588,-0.0234038,-1.76518,0.0861773,-0.179582,-0.382853,0.694991,0.00858725,0.733348,-0.221283,0.621893,0.0164943,0.0112415,0,0,0,0,0,0,0,0.310774,-0.221614,-0.0369225,-1.76095,0.07587,1.39043,0.402286,0.53812,0.0120816,0.592536,-0.146751,0.361736,0.0556231,0.00132819,2.72113,-27.1828,2.21467,24.6103,1.47918,2.05804,-0.0429228,-1.0374,-1.38693,-2.8409,0.855961,0.588736,-0.506909,-0.425733,0.760772,-0.710046,-1.19942,0.203419,-0.235866,-0.00700444,
0.326756,-0.221536,-0.0203881,-1.76607,0.0888584,-0.179538,-0.38281,0.706442,0.0129978,0.753916,-0.222002,0.670263,0.0110155,0.0105413,0,0,0,0,0,0,0,0.310774,-0.221614,-0.0369225,-1.76095,0.07587,1.39043,0.402286,0.53812,0.0120816,0.592536,-0.146751,0.361736,0.0556231,0.00132819,2.72113,-27.1828,2.21467,24.6103,1.47918,2.05804,-0.0429228,-1.0374,-1.38693,-2.8409,0.855961,0.588736,-0.506909,-0.425733,0.760772,-0.710046,-1.19942,0.203419,-0.235866,-0.00700444,
0.329618,-0.221468,-0.0173019,-1.76695,0.0917182,-0.179503,-0.382771,0.715444,0.0170482,0.771557,-0.22207,0.714959,0.00862764,0.00992549,0,0,0,0,0,0,0,0.329432,-0.221207,-0.0169414,-1.76582,0.088082,1.39267,0.402284,0.561544,0.0121452,0.595895,-0.14534,0.328383,0.0747176,-0.00066214,1.60236,-27.032,1.3379,24.9356,1.46087,2.01226,0.0239107,-0.892521,0.519053,-2.44828,-0.298523,0.640931,0.309328,0.316429,0.928613,0.256026,-1.13005,0.486295,-0.256646,-0.0100102,
0.332507,-0.221385,-0.0141549,-1.76784,0.0947413,-0.179468,-0.382733,0.72239,0.020694,0.786754,-0.221645,0.755782,0.00884148,0.0093813,0,0,0,0,0,0,0,0.329432,-0.221207,-0.0169414,-1.76582,0.088082,1.39267,0.402284,0.561544,0.0121452,0.595895,-0.14534,0.328383,0.0747176,-0.00066214,1.60236,-27.032,1.3379,24.9356,1.46087,2.01226,0.0239107,-1.2439,0.782689,-2.4288,-0.498295,0.350657,0.488728,0.526045,0.800617,0.439764,-1.0776,0.488527,-0.235354,-0.00877556,
0.315777,-0.221637,-0.0318976,-1.76255,0.079343,-0.179901,-0.382997,0.640224,-0.00356384,0.647321,-0.208483,0.461286,0.0525618,0.0139787,0,0,0,0,0,0,0,0.329432,-0.221207,-0.0169414,-1.76582,0.088082,1.39267,0.402284,0.561544,0.0121452,0.595895,-0.14534,0.328383,0.0747176,-0.00066214,1.60236,-27.032,1.3379,24.9356,1.46087,2.01226,0.0239107,-1.2439,0.782689,-2.4288,-0.498295,0.350657,0.488728,0.526045,0.800617,0.439764,-1.0776,0.488527,-0.235354,-0.00877556,
0.337053,-0.221203,-0.00903556,-1.76823,0.0934943,-0.177259,-0.382955,0.65749,0.002308,0.691639,-0.210913,0.511836,0.0598732,0.012599,0,0,0,0,0,0,0,0.329432,-0.221207,-0.0169414,-1.76582,0.088082,1.39267,0.402284,0.561544,0.0121452,0.595895,-0.14534,0.328383,0.0747176,-0.00066214,1.60236,-27.032,1.3379,24.9356,1.46087,2.01226,0.0239107,-0.788139,-0.348022,-2.02464,0.281426,0.427489,-0.0681323,0.0179041,0.59487,-0.223937,-0.853765,0.341774,-0.151029,-0.00790724,
0.339749,-0.221176,-0.00616274,-1.76908,0.09577,-0.177065,-0.382908,0.674095,0.00670578,0.718204,-0.214284,0.56894,0.0485319,0.0117308,0,0,0,0,0,0,0,0.329432,-0.221207,-0.0169414,-1.76582,0.088082,1.39267,0.402284,0.561544,0.0121452,0.595895,-0.14534,0.328383,0.0747176,-0.00066214,1.60236,-27.032,1.3379,24.9356,1.46087,2.01226,0.0239107,-0.788139,-0.348022,-2.02464,0.281426,0.427489,-0.0681323,0.0179041,0.59487,-0.223937,-0.853765,0.341774,-0.151029,-0.00790724,
0.342499,-0.221131,-0.00319916,-1.76995,0.0982596,-0.176904,-0.382864,0.687448,0.0111806,0.740895,-0.215905,0.622387,0.0403722,0.0109613,0,0,0,0,0,0,0,0.347238,-0.220658,0.0028865,-1.77039,0.100318,1.39458,0.402295,0.548306,0.0182817,0.608861,-0.135633,0.36218,0.0589059,0.000575117,-1.15887,-27.5319,-1.33605,26.2289,1.38763,2.23107,-0.0301054,-0.674725,0.246211,-1.84595,-0.037774,0.509881,0.165117,0.221254,0.675967,0.0500308,-0.833388,0.477304,-0.17281,-0.00768089,
0.345291,-0.22107,-0.000157716,-1.77081,0.100947,-0.176762,-0.382823,0.698092,0.0153754,0.760361,-0.216561,0.671756,0.0354142,0.0102833,0,0,0,0,0,0,0,0.347238,-0.220658,0.0028865,-1.77039,0.100318,1.39458,0.402295,0.548306,0.0182817,0.608861,-0.135633,0.36218,0.0589059,0.000575117,-1.15887,-27.5319,-1.33605,26.2289,1.38763,2.23107,-0.0301054,-0.674725,0.246211,-1.84595,-0.037774,0.509881,0.165117,0.221254,0.675967,0.0500308,-0.833388,0.477304,-0.17281,-0.00768089,
0.348117,-0.220993,0.00295081,-1.77168,0.103814,-0.176629,-0.382784,0.706457,0.0191743,0.777132,-0.216577,0.716865,0.0332952,0.0096848,0,0,0,0,0,0,0,0.347238,-0.220658,0.0028865,-1.77039,0.100318,1.39458,0.402295,0.548306,0.0182817,0.608861,-0.135633,0.36218,0.0589059,0.000575117,-1.15887,-27.5319,-1.33605,26.2289,1.38763,2.23107,-0.0301054,-1.12185,1.84609,-1.84917,-1.08563,0.264174,0.932493,0.93373,0.76129,0.957847,-0.868709,0.673428,-0.206569,-0.00915915,
0.350969,-0.220903,0.00611739,-1.77254,0.106845,-0.176495,-0.382748,0.712883,0.0225517,0.791645,-0.216112,0.757723,0.0335756,0.00915309,0,0,0,0,0,0,0,0.347238,-0.220658,0.0028865,-1.77039,0.100318,1.39458,0.402295,0.548306,0.0182817,0.608861,-0.135633,0.36218,0.0589059,0.000575117,-1.15887,-27.5319,-1.33605,26.2289,1.38763,2.23107,-0.0301054,-1.12185,1.84609,-1.84917,-1.08563,0.264174,0.932493,0.93373,0.76129,0.957847,-0.868709,0.673428,-0.206569,-0.00915915,
0.337053,-0.221203,-0.00903551,-1.76823,0.0934935,-0.177259,-0.382955,0.657497,0.00230636,0.691644,-0.210914,0.511745,0.059901,0.0125985,0,0,0,0,0,0,0,0.347238,-0.220658,0.0028865,-1.77039,0.100318,1.39458,0.402295,0.548306,0.0182817,0.608861,-0.135633,0.36218,0.0589059,0.000575117,-1.15887,-27.5319,-1.33605,26.2289,1.38763,2.23107,-0.0301054,-1.58072,0.0964246,-1.7469,0.0432402,-0.2168,0.266775,0.300558,0.263596,0.193106,-0.70784,0.458998,-0.166172,-0.00825355,
0.354762,-0.220611,0.0108717,-1.77274,0.106026,-0.175317,-0.382946,0.649177,0.00541093,0.697689,-0.206546,0.532631,0.068396,0.0123767,0,0,0,0,0,0,0,0.347238,-0.220658,0.0028865,-1.77039,0.100318,1.39458,0.402295,0.548306,0.0182817,0.608861,-0.135633,0.36218,0.0589059,0.000575117,-1.15887,-27.5319,-1.33605,26.2289,1.38763,2.23107,-0.0301054,-1.15895,-1.29436,-2.02043,0.931756,0.165195,-0.402366,-0.319095,0.336682,-0.607916,-0.809551,0.346353,-0.157372,-0.00646803,
0.357424,-0.220572,0.013767,-1.77357,0.108372,-0.175074,-0.3829,0.665442,0.00953477,0.723835,-0.209886,0.586368,0.0607489,0.0115103,0,0,0,0,0,0,0,0.365513,-0.219713,0.0234772,-1.77454,0.11299,1.39636,0.402298,0.559329,0.0292998,0.630347,-0.11605,0.414322,0.0497998,0.000304806,0.511356,-27.032,0.314344,25.4315,2.13836,1.9793,-0.0163725,-1.15895,-1.29436,-2.02043,0.931756,0.165195,-0.402366,-0.319095,0.336682,-0.607916,-0.809551,0.346353,-0.157372,-0.00646803,
0.360138,-0.220517,0.0167516,-1.77442,0.110919,-0.174853,-0.382857,0.678477,0.0137517,0.74613,-0.211379,0.636876,0.0553245,0.010742,0,0,0,0,0,0,0,0.365513,-0.219713,0.0234772,-1.77454,0.11299,1.39636,0.402298,0.559329,0.0292998,0.630347,-0.11605,0.414322,0.0497998,0.000304806,0.511356,-27.032,0.314344,25.4315,2.13836,1.9793,-0.0163725,-1.14991,0.509274,-2.27726,-0.266198,0.384988,0.366683,0.419752,0.751209,0.272222,-0.996949,0.587674,-0.199996,-0.00856434,
0.362893,-0.220447,0.0198125,-1.77527,0.113654,-0.174643,-0.382817,0.688808,0.0176816,0.765232,-0.21189,0.683698,0.0523922,0.0100642,0,0,0,0,0,0,0,0.365513,-0.219713,0.0234772,-1.77454,0.11299,1.39636,0.402298,0.559329,0.0292998,0.630347,-0.11605,0.414322,0.0497998,0.000304806,0.511356,-27.032,0.314344,25.4315,2.13836,1.9793,-0.0163725,-1.14991,0.509274,-2.27726,-0.266198,0.384988,0.366683,0.419752,0.751209,0.272222,-0.996949,0.587674,-0.199996,-0.00856434,
0.36568,-0.220362,0.0229393,-1.77611,0.116561,-0.174436,-0.382779,0.696788,0.0212068,0.781716,-0.211784,0.726638,0.0517862,0.00949799,0,0,0,0,0,0,0,0.365513,-0.219713,0.0234772,-1.77454,0.11299,1.39636,0.402298,0.559329,0.0292998,0.630347,-0.11605,0.414322,0.0497998,0.000304806,0.511356,-27.032,0.314344,25.4315,2.13836,1.9793,-0.0163725,-1.23337,1.06191,-2.46749,-0.657274,0.454357,0.613561,0.63178,0.916491,0.576352,-1.11061,0.680331,-0.232889,-0.00813526,
0.368497,-0.220265,0.0261258,-1.77696,0.119576,-0.174224,-0.382743,0.704166,0.024293,0.796607,-0.210717,0.753803,0.0530304,0.00900714,0,0,0,0,0,0,0,0.365513,-0.219713,0.0234772,-1.77454,0.11299,1.39636,0.402298,0.559329,0.0292998,0.630347,-0.11605,0.414322,0.0497998,0.000304806,0.511356,-27.032,0.314344,25.4315,2.13836,1.9793,-0.0163725,-1.75131,0.235124,-2.47527,-0.197238,-0.0123893,0.383859,0.405275,0.57444,0.335107,-1.0258,0.518022,-0.209922,-0.00868115,
0.354763,-0.220611,0.0108722,-1.77274,0.106018,-0.175315,-0.382947,0.649246,0.00539407,0.697749,-0.206553,0.531633,0.0686728,0.0123715,0,0,0,0,0,0,0,0.381938,-0.218827,0.0423521,-1.77789,0.123767,1.39828,0.402296,0.550257,0.0349181,0.632755,-0.103408,0.400362,0.0606983,-0.00114156,1.67774,-27.3097,0.488905,25.2332,1.80877,2.15783,0.00376909,-1.75131,0.235124,-2.47527,-0.197238,-0.0123893,0.383859,0.405275,0.57444,0.335107,-1.0258,0.518022,-0.209922,-0.00868115,
0.389452,-0.218705,0.0505336,-1.78011,0.129905,-0.171295,-0.382954,0.646707,0.0098073,0.711946,-0.199127,0.564826,0.0999249,0.0118095,0,0,0,0,0,0,0,0.381938,-0.218827,0.0423521,-1.77789,0.123767,1.39828,0.402296,0.550257,0.0349181,0.632755,-0.103408,0.400362,0.0606983,-0.00114156,1.67774,-27.3097,0.488905,25.2332,1.80877,2.15783,0.00376909,-1.05878,-1.68792,-2.36533,1.06237,0.345937,-0.552986,-0.480315,0.458993,-0.758624,-0.9457,0.298102,-0.158534,-0.00814279,
0.392099,-0.218652,0.0534799,-1.78092,0.132362,-0.170922,-0.38291,0.661703,0.0132647,0.736577,-0.203356,0.614382,0.0932851,0.0110112,0,0,0,0,0,0,0,0.381938,-0.218827,0.0423521,-1.77789,0.123767,1.39828,0.402296,0.550257,0.0349181,0.632755,-0.103408,0.400362,0.0606983,-0.00114156,1.67774,-27.3097,0.488905,25.2332,1.80877,2.15783,0.00376909,-1.05878,-1.68792,-2.36533,1.06237,0.345937,-0.552986,-0.480315,0.458993,-0.758624,-0.9457,0.298102,-0.158534,-0.00814279,
0.394793,-0.218584,0.0565105,-1.78174,0.135006,-0.17057,-0.382869,0.673572,0.0170042,0.757657,-0.205251,0.660883,0.0880308,0.0103197,0,0,0,0,0,0,0,0.381938,-0.218827,0.0423521,-1.77789,0.123767,1.39828,0.402296,0.550257,0.0349181,0.632755,-0.103408,0.400362,0.0606983,-0.00114156,1.67774,-27.3097,0.488905,25.2332,1.80877,2.15783,0.00376909,-0.964957,0.60784,-2.43698,-0.421505,0.586536,0.391148,0.453148,0.923442,0.297956,-1.07699,0.595845,-0.1963,-0.0121066,
0.39753,-0.218502,0.059616,-1.78256,0.137774,-0.170231,-0.38283,0.684191,0.0205349,0.77636,-0.20542,0.692169,0.0846861,0.00971894,0,0,0,0,0,0,0,0.381938,-0.218827,0.0423521,-1.77789,0.123767,1.39828,0.402296,0.550257,0.0349181,0.632755,-0.103408,0.400362,0.0606983,-0.00114156,1.67774,-27.3097,0.488905,25.2332,1.80877,2.15783,0.00376909,-1.07607,1.50151,-2.85824,-1.08869,0.759637,0.781016,0.816605,1.25939,0.756254,-1.315,0.728907,-0.258331,-0.0112018,
0.40031,-0.218408,0.0627808,-1.78338,0.14061,-0.169898,-0.382793,0.694959,0.0235689,0.791215,-0.204671,0.708804,0.0833305,0.00914729,0,0,0,0,0,0,0,0.381938,-0.218827,0.0423521,-1.77789,0.123767,1.39828,0.402296,0.550257,0.0349181,0.632755,-0.103408,0.400362,0.0606983,-0.00114156,1.67774,-27.3097,0.488905,25.2332,1.80877,2.15783,0.00376909,-1.07607,1.50151,-2.85824,-1.08869,0.759637,0.781016,0.816605,1.25939,0.756254,-1.315,0.728907,-0.258331,-0.0112018,
0.403128,-0.218304,0.0659913,-1.7842,0.143479,-0.169563,-0.382759,0.704454,0.0260175,0.802615,-0.20362,0.717447,0.0837443,0.00857504,0,0,0,0,0,0,0,0.398875,-0.217954,0.0620579,-1.78125,0.135638,1.40059,0.402302,0.545246,0.027572,0.6266,-0.104757,0.342582,0.0897289,-8.87533e-05,-0.373349,-27.4565,-1.26067,24.7849,1.47918,2.05804,-0.00996382,-1.74228,0.0844907,-2.93063,-0.222051,0.200197,0.352638,0.393143,0.794535,0.282833,-1.23532,0.550562,-0.240768,-0.0104019,
0.38946,-0.218707,0.0505393,-1.78011,0.129804,-0.171275,-0.382955,0.647498,0.00963651,0.712622,-0.199095,0.553167,0.102296,0.0117528,0,0,0,0,0,0,0,0.398875,-0.217954,0.0620579,-1.78125,0.135638,1.40059,0.402302,0.545246,0.027572,0.6266,-0.104757,0.342582,0.0897289,-8.87533e-05,-0.373349,-27.4565,-1.26067,24.7849,1.47918,2.05804,-0.00996382,-1.74228,0.0844907,-2.93063,-0.222051,0.200197,0.352638,0.393143,0.794535,0.282833,-1.23532,0.550562,-0.240768,-0.0104019,
0.406225,-0.217862,0.0702393,-1.7834,0.141221,-0.168674,-0.382949,0.632693,0.00834714,0.711933,-0.19304,0.522307,0.125663,0.0117496,0,0,0,0,0,0,0,0.398875,-0.217954,0.0620579,-1.78125,0.135638,1.40059,0.402302,0.545246,0.027572,0.6266,-0.104757,0.342582,0.0897289,-8.87533e-05,-0.373349,-27.4565,-1.26067,24.7849,1.47918,2.05804,-0.00996382,-1.08108,-1.85348,-2.50753,1.09992,0.389384,-0.579027,-0.498175,0.496575,-0.793622,-1.01058,0.313103,-0.169315,-0.00639274,
0.40882,-0.217813,0.0731881,-1.78419,0.143471,-0.168196,-0.382905,0.648943,0.0122367,0.737211,-0.196629,0.562704,0.119457,0.0109891,0,0,0,0,0,0,0,0.398875,-0.217954,0.0620579,-1.78125,0.135638,1.40059,0.402302,0.545246,0.027572,0.6266,-0.104757,0.342582,0.0897289,-8.87533e-05,-0.373349,-27.4565,-1.26067,24.7849,1.47918,2.05804,-0.00996382,-1.0844,0.0467877,-2.59404,-0.158818,0.53491,0.20128,0.255475,0.878639,0.101229,-1.12332,0.540417,-0.201394,-0.00956035,
0.411478,-0.217749,0.0762186,-1.78498,0.145825,-0.167739,-0.382864,0.664478,0.0161176,0.757608,-0.197799,0.58837,0.114397,0.0102572,0,0,0,0,0,0,0,0.398875,-0.217954,0.0620579,-1.78125,0.135638,1.40059,0.402302,0.545246,0.027572,0.6266,-0.104757,0.342582,0.0897289,-8.87533e-05,-0.373349,-27.4565,-1.26067,24.7849,1.47918,2.05804,-0.00996382,-1.0844,0.0467877,-2.59404,-0.158818,0.53491,0.20128,0.255475,0.878639,0.101229,-1.12332,0.540417,-0.201394,-0.00956035,
0.41419,-0.217671,0.0793133,-1.78577,0.148248,-0.167294,-0.382826,0.67802,0.0194848,0.773687,-0.198043,0.605824,0.111137,0.00954009,0,0,0,0,0,0,0,0.416235,-0.217093,0.0828736,-1.78502,0.149086,1.40385,0.402302,0.522567,0.019966,0.630153,-0.121368,0.391739,0.112677,0.000334496,0.717655,-26.8099,-0.312487,25.3323,2.26104,1.89232,-0.00996382,-2.24104,2.96487,-3.09356,-2.1685,0.0638997,1.65738,1.6761,1.22298,1.76373,-1.37956,0.8897,-0.288066,-0.0125519,
0.416944,-0.217582,0.0824596,-1.78656,0.150728,-0.166856,-0.38279,0.688483,0.0222691,0.786573,-0.197912,0.62,0.109656,0.0089285,0,0,0,0,0,0,0,0.416235,-0.217093,0.0828736,-1.78502,0.149086,1.40385,0.402302,0.522567,0.019966,0.630153,-0.121368,0.391739,0.112677,0.000334496,0.717655,-26.8099,-0.312487,25.3323,2.26104,1.89232,-0.00996382,-2.24104,2.96487,-3.09356,-2.1685,0.0638997,1.65738,1.6761,1.22298,1.76373,-1.37956,0.8897,-0.288066,-0.0125519,
0.406286,-0.217872,0.070282,-1.78339,0.140445,-0.168569,-0.382954,0.638634,0.00720089,0.716977,-0.192137,0.432862,0.13781,0.0112902,0,0,0,0,0,0,0,0.416235,-0.217093,0.0828736,-1.78502,0.149086,1.40385,0.402302,0.522567,0.019966,0.630153,-0.121368,0.391739,0.112677,0.000334496,0.717655,-26.8099,-0.312487,25.3323,2.26104,1.89232,-0.00996382,-1.74161,0.281907,-2.8425,-0.397403,0.188448,0.461423,0.474954,0.82557,0.43084,-1.2181,0.595821,-0.24656,-0.00805605,
0.423514,-0.216999,0.0911039,-1.78715,0.154027,-0.165145,-0.382953,0.631108,0.00921389,0.71807,-0.187046,0.41773,0.152602,0.0112843,0,0,0,0,0,0,0,0.416235,-0.217093,0.0828736,-1.78502,0.149086,1.40385,0.402302,0.522567,0.019966,0.630153,-0.121368,0.391739,0.112677,0.000334496,0.717655,-26.8099,-0.312487,25.3323,2.26104,1.89232,-0.00996382,-1.74161,0.281907,-2.8425,-0.397403,0.188448,0.461423,0.474954,0.82557,0.43084,-1.2181,0.595821,-0.24656,-0.00805605,
0.426117,-0.216949,0.0940708,-1.78791,0.155707,-0.164544,-0.382911,0.650608,0.0125569,0.741722,-0.190009,0.420071,0.150285,0.0103831,0,0,0,0,0,0,0,0.416235,-0.217093,0.0828736,-1.78502,0.149086,1.40385,0.402302,0.522567,0.019966,0.630153,-0.121368,0.391739,0.112677,0.000334496,0.717655,-26.8099,-0.312487,25.3323,2.26104,1.89232,-0.00996382,-0.826092,-1.83958,-2.89391,0.918218,0.730815,-0.594619,-0.534269,0.786751,-0.781691,-1.22338,0.317383,-0.208072,-0.0055499,
0.42878,-0.216886,0.0971129,-1.78867,0.157404,-0.163951,-0.382873,0.66575,0.0157355,0.760519,-0.191518,0.424173,0.148202,0.0096121,0,0,0,0,0,0,0,0.416235,-0.217093,0.0828736,-1.78502,0.149086,1.40385,0.402302,0.522567,0.019966,0.630153,-0.121368,0.391739,0.112677,0.000334496,0.717655,-26.8099,-0.312487,25.3323,2.26104,1.89232,-0.00996382,-1.03993,-0.165464,-2.6099,-0.116737,0.562877,0.134542,0.192165,0.897649,0.0330821,-1.14665,0.504355,-0.216693,-0.00905899,
0.431491,-0.216812,0.100214,-1.78944,0.159107,-0.163363,-0.382837,0.677795,0.0185508,0.77539,-0.192039,0.425663,0.146919,0.00895783,0,0,0,0,0,0,0,0.439166,-0.216187,0.110074,-1.79002,0.163649,1.40979,0.402307,0.545739,0.0125066,0.638874,-0.117644,0.29028,0.154534,-0.000383808,-1.41278,-27.1352,-2.68492,25.8322,1.55243,2.10473,-0.0163725,-1.03993,-0.165464,-2.6099,-0.116737,0.562877,0.134542,0.192165,0.897649,0.0330821,-1.14665,0.504355,-0.216693,-0.00905899,
0.43424,-0.216728,0.103363,-1.79021,0.160801,-0.162777,-0.382803,0.687239,0.020922,0.787104,-0.191914,0.423573,0.146632,0.00843685,0,0,0,0,0,0,0,0.439166,-0.216187,0.110074,-1.79002,0.163649,1.40979,0.402307,0.545739,0.0125066,0.638874,-0.117644,0.29028,0.154534,-0.000383808,-1.41278,-27.1352,-2.68492,25.8322,1.55243,2.10473,-0.0163725,-1.59417,1.30931,-2.67849,-1.10672,0.29431,0.863435,0.893309,1.03437,0.872033,-1.21256,0.686273,-0.264743,-0.0130183,
0.437017,-0.216637,0.106547,-1.79097,0.162482,-0.162187,-0.382772,0.694214,0.0228369,0.79606,-0.191473,0.420234,0.147367,0.00784279,0,0,0,0,0,0,0,0.439166,-0.216187,0.110074,-1.79002,0.163649,1.40979,0.402307,0.545739,0.0125066,0.638874,-0.117644,0.29028,0.154534,-0.000383808,-1.41278,-27.1352,-2.68492,25.8322,1.55243,2.10473,-0.0163725,-1.59417,1.30931,-2.67849,-1.10672,0.29431,0.863435,0.893309,1.03437,0.872033,-1.21256,0.686273,-0.264743,-0.0130183,
0.423729,-0.217023,0.091249,-1.78709,0.151207,-0.164914,-0.382971,0.651117,0.00584679,0.734968,-0.182016,0.0963083,0.179226,0.00979146,0,0,0,0,0,0,0,0.439166,-0.216187,0.110074,-1.79002,0.163649,1.40979,0.402307,0.545739,0.0125066,0.638874,-0.117644,0.29028,0.154534,-0.000383808,-1.41278,-27.1352,-2.68492,25.8322,1.55243,2.10473,-0.0163725,-1.28725,-0.357296,-2.28186,0.0300621,0.269007,0.14994,0.206963,0.668429,0.0500573,-1.01635,0.4801,-0.236781,-0.00983238,
0.44669,-0.216161,0.118574,-1.79199,0.164753,-0.158593,-0.382967,0.651488,0.00295259,0.739813,-0.174293,0.0197821,0.208094,0.00970574,0,0,0,0,0,0,0,0.439166,-0.216187,0.110074,-1.79002,0.163649,1.40979,0.402307,0.545739,0.0125066,0.638874,-0.117644,0.29028,0.154534,-0.000383808,-1.41278,-27.1352,-2.68492,25.8322,1.55243,2.10473,-0.0163725,-1.28725,-0.357296,-2.28186,0.0300621,0.269007,0.14994,0.206963,0.668429,0.0500573,-1.01635,0.4801,-0.236781,-0.00983238,
0.449362,-0.216139,0.12162,-1.79271,0.164634,-0.157761,-0.382931,0.667928,0.00562452,0.761456,-0.17829,-0.0296695,0.20791,0.00899017,0,0,0,0,0,0,0,0.456689,-0.215416,0.131181,-1.7935,0.171941,1.41501,0.402307,0.536033,0.0237312,0.670997,-0.101627,0.262652,0.154406,-0.000182608,1.04694,-26.6075,-0.260912,25.4831,1.76574,1.90606,-0.00996382,0.498504,-1.97225,-2.49589,0.925926,1.49278,-0.94181,-0.867412,1.07487,-1.16008,-1.16932,0.197183,-0.205054,-0.00746623,
0.452083,-0.216105,0.124731,-1.79343,0.164356,-0.156936,-0.382897,0.680196,0.00837911,0.777692,-0.180621,-0.069666,0.206313,0.00846662,0,0,0,0,0,0,0,0.456689,-0.215416,0.131181,-1.7935,0.171941,1.41501,0.402307,0.536033,0.0237312,0.670997,-0.101627,0.262652,0.154406,-0.000182608,1.04694,-26.6075,-0.260912,25.4831,1.76574,1.90606,-0.00996382,-0.45218,-0.0102316,-2.27031,-0.341167,0.80249,0.0852725,0.135766,1.0085,0.0151971,-1.07222,0.368973,-0.224765,-0.0117352,
0.454838,-0.216062,0.127889,-1.79416,0.163951,-0.156118,-0.382866,0.688891,0.0109009,0.789568,-0.18212,-0.101107,0.204417,0.00786761,0,0,0,0,0,0,0,0.456689,-0.215416,0.131181,-1.7935,0.171941,1.41501,0.402307,0.536033,0.0237312,0.670997,-0.101627,0.262652,0.154406,-0.000182608,1.04694,-26.6075,-0.260912,25.4831,1.76574,1.90606,-0.00996382,-0.45218,-0.0102316,-2.27031,-0.341167,0.80249,0.0852725,0.135766,1.0085,0.0151971,-1.07222,0.368973,-0.224765,-0.0117352,
0.457616,-0.216009,0.13108,-1.79489,0.163458,-0.155307,-0.382836,0.694331,0.0130974,0.79786,-0.183222,-0.123256,0.202796,0.00745331,0,0,0,0,0,0,0,0.456689,-0.215416,0.131181,-1.7935,0.171941,1.41501,0.402307,0.536033,0.0237312,0.670997,-0.101627,0.262652,0.154406,-0.000182608,1.04694,-26.6075,-0.260912,25.4831,1.76574,1.90606,-0.00996382,-1.59927,1.54335,-2.07642,-1.33628,-0.0206211,1.00354,1.02079,0.828793,1.07274,-0.970905,0.521678,-0.251276,-0.0114036,
0.460408,-0.215949,0.134294,-1.79563,0.16288,-0.154501,-0.382808,0.698087,0.0150693,0.803489,-0.183577,-0.144487,0.201532,0.00710467,0,0,0,0,0,0,0,0.456689,-0.215416,0.131181,-1.7935,0.171941,1.41501,0.402307,0.536033,0.0237312,0.670997,-0.101627,0.262652,0.154406,-0.000182608,1.04694,-26.6075,-0.260912,25.4831,1.76574,1.90606,-0.00996382,-1.59927,1.54335,-2.07642,-1.33628,-0.0206211,1.00354,1.02079,0.828793,1.07274,-0.970905,0.521678,-0.251276,-0.0114036,
0.446848,-0.216299,0.118617,-1.79202,0.159829,-0.1576,-0.382984,0.657883,-0.012298,0.742821,-0.176848,-0.518435,0.313166,0.00876563,0,0,0,0,0,0,0,0.474076,-0.214511,0.151567,-1.79631,0.173959,1.4204,0.402308,0.584121,0.0385046,0.679409,-0.0830221,-0.00954939,0.186821,-0.00106433,0.0828892,-26.9844,-1.41142,25.257,1.05163,1.98571,0.0101778,-1.82524,0.254261,-2.12645,-0.598966,-0.306181,0.609644,0.643232,0.504441,0.6348,-0.931445,0.291291,-0.243804,-0.00972105,
0.481758,-0.21449,0.160272,-1.79825,0.169145,-0.146759,-0.382982,0.651071,-0.00407154,0.744672,-0.176682,-0.534281,0.326317,0.00900329,0,0,0,0,0,0,0,0.474076,-0.214511,0.151567,-1.79631,0.173959,1.4204,0.402308,0.584121,0.0385046,0.679409,-0.0830221,-0.00954939,0.186821,-0.00106433,0.0828892,-26.9844,-1.41142,25.257,1.05163,1.98571,0.0101778,0.136352,-2.33896,-2.31761,0.917833,0.944995,-0.90717,-0.850434,0.73623,-1.04986,-1.05516,-0.121829,-0.20662,-0.00408479,
0.484379,-0.214509,0.163288,-1.79898,0.166681,-0.14543,-0.382948,0.655244,-0.00471054,0.754002,-0.1822,-0.616018,0.332411,0.00857715,0,0,0,0,0,0,0,0.474076,-0.214511,0.151567,-1.79631,0.173959,1.4204,0.402308,0.584121,0.0385046,0.679409,-0.0830221,-0.00954939,0.186821,-0.00106433,0.0828892,-26.9844,-1.41142,25.257,1.05163,1.98571,0.0101778,0.136352,-2.33896,-2.31761,0.917833,0.944995,-0.90717,-0.850434,0.73623,-1.04986,-1.05516,-0.121829,-0.20662,-0.00408479,
0.487003,-0.214525,0.166322,-1.79972,0.164001,-0.144094,-0.382915,0.655805,-0.00421681,0.758464,-0.185502,-0.670081,0.333964,0.00828579,0,0,0,0,0,0,0,0.474076,-0.214511,0.151567,-1.79631,0.173959,1.4204,0.402308,0.584121,0.0385046,0.679409,-0.0830221,-0.00954939,0.186821,-0.00106433,0.0828892,-26.9844,-1.41142,25.257,1.05163,1.98571,0.0101778,-0.161518,-0.396023,-2.63642,-0.531069,0.852689,-0.0845285,-0.0390089,1.11318,-0.0879474,-1.2073,-0.0392538,-0.212879,-0.00675706,
0.489622,-0.214538,0.169361,-1.80047,0.161158,-0.142761,-0.382883,0.654737,-0.00312977,0.759725,-0.187202,-0.710614,0.333155,0.0080711,0,0,0,0,0,0,0,0.474076,-0.214511,0.151567,-1.79631,0.173959,1.4204,0.402308,0.584121,0.0385046,0.679409,-0.0830221,-0.00954939,0.186821,-0.00106433,0.0828892,-26.9844,-1.41142,25.257,1.05163,1.98571,0.0101778,-0.161518,-0.396023,-2.63642,-0.531069,0.852689,-0.0845285,-0.0390089,1.11318,-0.0879474,-1.2073,-0.0392538,-0.212879,-0.00675706,
0.49223,-0.214545,0.172396,-1.80122,0.158196,-0.141436,-0.382851,0.652147,-0.00187493,0.758852,-0.18809,-0.740472,0.331319,0.00782627,0,0,0,0,0,0,0,0.474076,-0.214511,0.151567,-1.79631,0.173959,1.4204,0.402308,0.584121,0.0385046,0.679409,-0.0830221,-0.00954939,0.186821,-0.00106433,0.0828892,-26.9844,-1.41142,25.257,1.05163,1.98571,0.0101778,-1.16038,0.528936,-2.7272,-1.20153,0.195552,0.56666,0.593842,0.998545,0.662768,-1.2215,0.0345233,-0.246755,-0.00858869,
0.494824,-0.214548,0.175422,-1.80197,0.155147,-0.14012,-0.38282,0.648475,-0.000605879,0.756438,-0.188452,-0.762357,0.329077,0.00770231,0,0,0,0,0,0,0,0.491747,-0.213618,0.172634,-1.7989,0.170766,1.42687,0.40231,0.563093,0.0247952,0.674495,-0.0878746,-0.221575,0.247421,-0.00109129,0.66608,-27.2344,-1.16149,25.0586,0.116879,2.23107,0.00376909,-1.3818,-0.694978,-2.3817,-0.377878,-0.260291,0.223178,0.293475,0.469831,0.249343,-0.987075,-0.199503,-0.194951,-0.00497363,
0.481464,-0.214562,0.159962,-1.79828,0.168507,-0.146745,-0.382992,0.618166,-0.0114976,0.708476,-0.17809,-0.628499,0.324265,0.00851258,0,0,0,0,0,0,0,0.491747,-0.213618,0.172634,-1.7989,0.170766,1.42687,0.40231,0.563093,0.0247952,0.674495,-0.0878746,-0.221575,0.247421,-0.00109129,0.66608,-27.2344,-1.16149,25.0586,0.116879,2.23107,0.00376909,-1.3818,-0.694978,-2.3817,-0.377878,-0.260291,0.223178,0.293475,0.469831,0.249343,-0.987075,-0.199503,-0.194951,-0.00497363,
0.498893,-0.213734,0.180833,-1.80081,0.163639,-0.139981,-0.382984,0.59731,-0.0153338,0.689876,-0.173209,-0.739426,0.341179,0.00874031,0,0,0,0,0,0,0,0.491747,-0.213618,0.172634,-1.7989,0.170766,1.42687,0.40231,0.563093,0.0247952,0.674495,-0.0878746,-0.221575,0.247421,-0.00109129,0.66608,-27.2344,-1.16149,25.0586,0.116879,2.23107,0.00376909,0.0971545,-1.87728,-2.39612,0.247222,0.535479,-0.629418,-0.531018,0.62723,-0.682792,-0.980947,-0.556334,-0.104791,-0.00331226,
0.501268,-0.213799,0.183594,-1.80153,0.160295,-0.138615,-0.382949,0.593648,-0.0163272,0.690363,-0.178857,-0.835976,0.341376,0.00857855,0,0,0,0,0,0,0,0.491747,-0.213618,0.172634,-1.7989,0.170766,1.42687,0.40231,0.563093,0.0247952,0.674495,-0.0878746,-0.221575,0.247421,-0.00109129,0.66608,-27.2344,-1.16149,25.0586,0.116879,2.23107,0.00376909,0.0971545,-1.87728,-2.39612,0.247222,0.535479,-0.629418,-0.531018,0.62723,-0.682792,-0.980947,-0.556334,-0.104791,-0.00331226,
