PerkyPenguin/Analysis-on-Approximated-Derivatives/Code_and_Data/PaperData/Real_Robot/Scene_2/set_interval/10/trajectory.csv
Commanded Joint 0 Position,Commanded Joint 1 Position,Commanded Joint 2 Position,Commanded Joint 3 Position,Commanded Joint 4 Position,Commanded Joint 5 Position,Commanded Joint 6 Position,Commanded Joint 0 Velocity,Commanded Joint 1 Velocity,Commanded Joint 2 Velocity,Commanded Joint 3 Velocity,Commanded Joint 4 Velocity,Commanded Joint 5 Velocity,Commanded Joint 6 Velocity,Commanded Joint 0 Torque,Commanded Joint 1 Torque,Commanded Joint 2 Torque,Commanded Joint 3 Torque,Commanded Joint 4 Torque,Commanded Joint 5 Torque,Commanded Joint 6 Torque,Actual Joint 0 Position,Actual Joint 1 Position,Actual Joint 2 Position,Actual Joint 3 Position,Actual Joint 4 Position,Actual Joint 5 Position,Actual Joint 6 Position,Actual Joint 0 Velocity,Actual Joint 1 Velocity,Actual Joint 2 Velocity,Actual Joint 3 Velocity,Actual Joint 4 Velocity,Actual Joint 5 Velocity,Actual Joint 6 Velocity,Actual Joint 0 Torque,Actual Joint 1 Torque,Actual Joint 2 Torque,Actual Joint 3 Torque,Actual Joint 4 Torque,Actual Joint 5 Torque,Actual Joint 6 Torque,EE ext force 0,EE ext force 1,EE ext force 2,EE ext force 3,EE ext force 4,EE ext force 5,joint ext torque 0,joint ext torque 1,joint ext torque 2,joint ext torque 3,joint ext torque 4,joint ext torque 5,joint ext torque 6,
0.0209271,-0.0547995,0.511786,-1.5677,0.0383146,-0.012406,0.532219,0.0111448,0.0317988,0.0155095,-0.144449,-0.0633511,0.202767,-0.00126162,0,0,0,0,0,0,0,0.020855,-0.0549662,0.511675,-1.56626,0.0386552,1.55637,1.31764,0.000117973,-0.00124651,-0.00056842,-0.000217661,0.00330748,-0.00214963,0.000540347,0.106693,-27.4327,-0.812364,27.0026,1.06994,3.05962,0.0577852,2.14151,1.86333,2.16277,-0.969049,1.15191,0.171749,0.182417,0.445746,0.179837,0.195517,0.115073,-0.342238,0.0850249,
0.0209856,-0.054592,0.511865,-1.56832,0.0379826,-0.0115613,0.532214,0.0146397,0.051882,0.0198073,-0.155293,-0.0830031,0.21118,-0.00135475,0,0,0,0,0,0,0,0.0208547,-0.0549626,0.511676,-1.56626,0.0386289,1.55637,1.31764,0.000854197,-8.04568e-05,-0.000360437,-0.000212281,-0.00425936,0.000212615,0.000758122,0.106693,-27.4565,-0.836168,27.0026,1.24115,3.05321,0.0779268,1.94292,1.89143,2.13726,-0.981215,1.02034,0.239788,0.250592,0.380369,0.24795,0.203627,0.132996,-0.34217,0.086261,
0.0208546,-0.0549644,0.511677,-1.56626,0.0385927,-0.0144276,0.532239,-7.8333e-05,-0.000120972,-1.0636e-05,-3.32856e-05,-0.00149512,-6.16567e-05,-4.53818e-06,0,0,0,0,0,0,0,0.0208547,-0.0549626,0.511676,-1.56626,0.0386289,1.55637,1.31764,0.000854197,-8.04568e-05,-0.000360437,-0.000212281,-0.00425936,0.000212615,0.000758122,0.106693,-27.4565,-0.836168,27.0026,1.24115,3.05321,0.0779268,1.94292,1.89143,2.13726,-0.981215,1.02034,0.239788,0.250592,0.380369,0.24795,0.203627,0.132996,-0.34217,0.086261,
0.0208542,-0.0549649,0.511677,-1.56626,0.038588,-0.014428,0.532239,-9.76211e-05,-0.000126475,-2.61594e-05,-1.19326e-05,-0.00118532,-8.76534e-05,-2.53733e-06,0,0,0,0,0,0,0,0.0208547,-0.0549626,0.511676,-1.56626,0.0386289,1.55637,1.31764,0.000854197,-8.04568e-05,-0.000360437,-0.000212281,-0.00425936,0.000212615,0.000758122,0.106693,-27.4565,-0.836168,27.0026,1.24115,3.05321,0.0779268,2.12053,1.75206,2.2324,-0.857694,1.10669,0.125708,0.140461,0.406174,0.126047,0.236544,0.122215,-0.33408,0.0868587,
0.0208537,-0.0549654,0.511677,-1.56626,0.0385842,-0.0144284,0.532239,-0.000108059,-0.000133084,-3.28133e-05,3.84208e-06,-0.000949112,-0.000107287,-1.12028e-06,0,0,0,0,0,0,0,0.0208547,-0.0549626,0.511676,-1.56626,0.0386289,1.55637,1.31764,0.000854197,-8.04568e-05,-0.000360437,-0.000212281,-0.00425936,0.000212615,0.000758122,0.106693,-27.4565,-0.836168,27.0026,1.24115,3.05321,0.0779268,1.66388,1.30084,1.96429,-0.586524,0.839313,0.0493471,0.0627349,0.288362,0.0445751,0.214583,0.103974,-0.316397,0.0850425,
0.0208533,-0.054966,0.511677,-1.56626,0.0385811,-0.0144289,0.532239,-0.000112444,-0.00014058,-3.35342e-05,1.55998e-05,-0.000767077,-0.000123244,-1.20998e-07,0,0,0,0,0,0,0,0.0208547,-0.0549626,0.511676,-1.56626,0.0386289,1.55637,1.31764,0.000854197,-8.04568e-05,-0.000360437,-0.000212281,-0.00425936,0.000212615,0.000758122,0.106693,-27.4565,-0.836168,27.0026,1.24115,3.05321,0.0779268,1.66388,1.30084,1.96429,-0.586524,0.839313,0.0493471,0.0627349,0.288362,0.0445751,0.214583,0.103974,-0.316397,0.0850425,
0.0208528,-0.0549666,0.511677,-1.56626,0.0385786,-0.0144295,0.532239,-0.000112743,-0.00014872,-3.03696e-05,2.44822e-05,-0.000625204,-0.000137186,5.84115e-07,0,0,0,0,0,0,0,0.0208547,-0.0550465,0.511675,-1.56665,0.038607,1.5569,1.31763,0.00207048,-0.00487152,0.00177365,-0.0323892,-0.0156567,0.0397568,-0.00166139,0.106693,-26.5599,-0.812364,26.1298,1.27777,3.03948,0.131027,0.456767,1.14306,1.42399,-0.541976,0.118774,0.315965,0.31957,-0.0302455,0.321023,0.169473,0.145193,-0.277824,0.085998,
0.0208524,-0.0549672,0.511677,-1.56626,0.0385765,-0.0144301,0.532239,-0.000110341,-0.000157277,-2.47446e-05,3.13046e-05,-0.000513333,-0.000150086,1.08169e-06,0,0,0,0,0,0,0,0.0208547,-0.0550465,0.511675,-1.56665,0.038607,1.5569,1.31763,0.00207048,-0.00487152,0.00177365,-0.0323892,-0.0156567,0.0397568,-0.00166139,0.106693,-26.5599,-0.812364,26.1298,1.27777,3.03948,0.131027,0.456767,1.14306,1.42399,-0.541976,0.118774,0.315965,0.31957,-0.0302455,0.321023,0.169473,0.145193,-0.277824,0.085998,
0.020852,-0.0549679,0.511677,-1.56626,0.0385749,-0.0144307,0.532239,-0.000106208,-0.000166054,-1.76467e-05,3.66446e-05,-0.00042406,-0.000162468,1.4325e-06,0,0,0,0,0,0,0,0.0208547,-0.0550465,0.511675,-1.56665,0.038607,1.5569,1.31763,0.00207048,-0.00487152,0.00177365,-0.0323892,-0.0156567,0.0397568,-0.00166139,0.106693,-26.5599,-0.812364,26.1298,1.27777,3.03948,0.131027,1.78973,1.93189,0.933005,-1.26983,1.28422,0.300095,0.308893,0.700993,0.324731,-0.160339,0.117097,-0.263128,0.0845131,
0.0208516,-0.0549686,0.511677,-1.56626,0.0385734,-0.0144314,0.532239,-0.000101025,-0.000174886,-9.75481e-06,4.091e-05,-0.000351966,-0.000174579,1.67934e-06,0,0,0,0,0,0,0,0.0208547,-0.0550465,0.511675,-1.56665,0.038607,1.5569,1.31763,0.00207048,-0.00487152,0.00177365,-0.0323892,-0.0156567,0.0397568,-0.00166139,0.106693,-26.5599,-0.812364,26.1298,1.27777,3.03948,0.131027,1.78973,1.93189,0.933005,-1.26983,1.28422,0.300095,0.308893,0.700993,0.324731,-0.160339,0.117097,-0.263128,0.0845131,
0.0208512,-0.0549693,0.511677,-1.56626,0.0385723,-0.0144322,0.532239,-9.52646e-05,-0.000183642,-1.53126e-06,4.43889e-05,-0.000293058,-0.0001865,1.8524e-06,0,0,0,0,0,0,0,0.0208547,-0.0550465,0.511675,-1.56665,0.038607,1.5569,1.31763,0.00207048,-0.00487152,0.00177365,-0.0323892,-0.0156567,0.0397568,-0.00166139,0.106693,-26.5599,-0.812364,26.1298,1.27777,3.03948,0.131027,2.25218,1.90309,1.21463,-1.17949,1.50625,0.157007,0.166768,0.767339,0.176455,-0.077609,0.107334,-0.244321,0.0843212,
0.0208508,-0.0549701,0.511677,-1.56626,0.0385713,-0.014433,0.532239,-8.92511e-05,-0.00019222,6.7141e-06,4.72853e-05,-0.000244375,-0.000198221,1.97306e-06,0,0,0,0,0,0,0,0.0208547,-0.0550465,0.511675,-1.56665,0.038607,1.5569,1.31763,0.00207048,-0.00487152,0.00177365,-0.0323892,-0.0156567,0.0397568,-0.00166139,0.106693,-26.5599,-0.812364,26.1298,1.27777,3.03948,0.131027,2.37427,2.0219,1.52154,-1.16741,1.46819,0.175417,0.172068,0.687124,0.204631,0.0490475,0.126392,-0.217508,0.085768,
0.0208505,-0.0549709,0.511677,-1.56626,0.0385705,-0.0144338,0.532239,-8.3206e-05,-0.000200541,1.47781e-05,4.97437e-05,-0.000203712,-0.000209683,2.05642e-06,0,0,0,0,0,0,0,0.0208414,-0.0550238,0.511669,-1.56671,0.0386553,1.55706,1.31764,-0.00381965,6.92169e-06,-0.00180887,0.00364317,0.0171148,0.00593452,0.00110254,0.209842,-27.5597,-0.736986,27.0264,0.635983,3.06603,0.0577852,2.37427,2.0219,1.52154,-1.16741,1.46819,0.175417,0.172068,0.687124,0.204631,0.0490475,0.126392,-0.217508,0.085768,
0.0208502,-0.0549717,0.511677,-1.56626,0.0385698,-0.0144347,0.532239,-7.72769e-05,-0.00020855,2.25322e-05,5.18675e-05,-0.000169406,-0.000220816,2.11322e-06,0,0,0,0,0,0,0,0.0208414,-0.0550238,0.511669,-1.56671,0.0386553,1.55706,1.31764,-0.00381965,6.92169e-06,-0.00180887,0.00364317,0.0171148,0.00593452,0.00110254,0.209842,-27.5597,-0.736986,27.0264,0.635983,3.06603,0.0577852,2.24407,1.9349,1.47098,-1.14287,1.40027,0.170945,0.158288,0.662436,0.209214,0.0212997,0.107445,-0.241935,0.0862743,
0.0208499,-0.0549726,0.511677,-1.56625,0.0385692,-0.0144356,0.532239,-7.15593e-05,-0.000216207,2.98993e-05,5.37307e-05,-0.0001402,-0.000231546,2.15108e-06,0,0,0,0,0,0,0,0.0208414,-0.0550238,0.511669,-1.56671,0.0386553,1.55706,1.31764,-0.00381965,6.92169e-06,-0.00180887,0.00364317,0.0171148,0.00593452,0.00110254,0.209842,-27.5597,-0.736986,27.0264,0.635983,3.06603,0.0577852,2.24407,1.9349,1.47098,-1.14287,1.40027,0.170945,0.158288,0.662436,0.209214,0.0212997,0.107445,-0.241935,0.0862743,
0.0208496,-0.0549735,0.511677,-1.56625,0.0385688,-0.0144366,0.532239,-6.61124e-05,-0.000223489,3.68384e-05,5.53867e-05,-0.000115128,-0.000241809,2.17543e-06,0,0,0,0,0,0,0,0.0208414,-0.0550238,0.511669,-1.56671,0.0386553,1.55706,1.31764,-0.00381965,6.92169e-06,-0.00180887,0.00364317,0.0171148,0.00593452,0.00110254,0.209842,-27.5597,-0.736986,27.0264,0.635983,3.06603,0.0577852,1.81892,1.6552,1.74131,-0.864899,0.982176,0.161547,0.14034,0.38179,0.198279,0.172404,0.113046,-0.244976,0.088103,
0.0208494,-0.0549744,0.511677,-1.56625,0.0385684,-0.0144376,0.532239,-6.09697e-05,-0.000230382,4.33324e-05,5.68748e-05,-9.34465e-05,-0.000251557,2.19014e-06,0,0,0,0,0,0,0,0.0208414,-0.0550238,0.511669,-1.56671,0.0386553,1.55706,1.31764,-0.00381965,6.92169e-06,-0.00180887,0.00364317,0.0171148,0.00593452,0.00110254,0.209842,-27.5597,-0.736986,27.0264,0.635983,3.06603,0.0577852,2.02983,1.55802,1.71637,-0.820722,1.14024,0.0565764,0.0270704,0.469106,0.100578,0.144297,0.0872065,-0.247513,0.0882037,
0.0208492,-0.0549754,0.511677,-1.56625,0.0385681,-0.0144386,0.532239,-5.61468e-05,-0.000236884,4.93809e-05,5.82239e-05,-7.45743e-05,-0.000260753,2.19797e-06,0,0,0,0,0,0,0,0.0208592,-0.0550234,0.511675,-1.56671,0.0385957,1.55705,1.31764,-0.000107011,-0.000505075,-0.0010863,0.000475258,0.00549199,0.00144229,0.00100916,0.00751081,-27.5319,-0.812364,27.1533,1.05163,3.24547,0.0641939,2.02983,1.55802,1.71637,-0.820722,1.14024,0.0565764,0.0270704,0.469106,0.100578,0.144297,0.0872065,-0.247513,0.0882037,
0.020849,-0.0549763,0.511678,-1.56625,0.0385679,-0.0144397,0.532239,-5.16476e-05,-0.000242997,5.4994e-05,5.94556e-05,-5.80528e-05,-0.000269377,2.20093e-06,0,0,0,0,0,0,0,0.0208592,-0.0550234,0.511675,-1.56671,0.0385957,1.55705,1.31764,-0.000107011,-0.000505075,-0.0010863,0.000475258,0.00549199,0.00144229,0.00100916,0.00751081,-27.5319,-0.812364,27.1533,1.05163,3.24547,0.0641939,1.925,1.6681,1.51763,-0.939263,1.14738,0.137964,0.100505,0.512658,0.193849,0.0708041,0.103931,-0.251227,0.0864246,
0.0208488,-0.0549773,0.511678,-1.56625,0.0385677,-0.0144408,0.532239,-4.74672e-05,-0.000248731,6.01888e-05,6.05866e-05,-4.35165e-05,-0.000277419,2.20044e-06,0,0,0,0,0,0,0,0.0208592,-0.0550234,0.511675,-1.56671,0.0385957,1.55705,1.31764,-0.000107011,-0.000505075,-0.0010863,0.000475258,0.00549199,0.00144229,0.00100916,0.00751081,-27.5319,-0.812364,27.1533,1.05163,3.24547,0.0641939,1.925,1.6681,1.51763,-0.939263,1.14738,0.137964,0.100505,0.512658,0.193849,0.0708041,0.103931,-0.251227,0.0864246,
0.0208486,-0.0549783,0.511678,-1.56625,0.0385676,-0.0144419,0.532239,-4.35956e-05,-0.000254099,6.49865e-05,6.16297e-05,-3.06709e-05,-0.000284882,2.19754e-06,0,0,0,0,0,0,0,0.0208592,-0.0550234,0.511675,-1.56671,0.0385957,1.55705,1.31764,-0.000107011,-0.000505075,-0.0010863,0.000475258,0.00549199,0.00144229,0.00100916,0.00751081,-27.5319,-0.812364,27.1533,1.05163,3.24547,0.0641939,1.64044,1.65207,1.60658,-0.882279,0.903558,0.212566,0.176501,0.362577,0.264412,0.140178,0.127468,-0.2433,0.0855162,
0.0208484,-0.0549794,0.511678,-1.56625,0.0385675,-0.0144431,0.532239,-4.00193e-05,-0.000259115,6.94105e-05,6.25952e-05,-1.92761e-05,-0.000291776,2.19297e-06,0,0,0,0,0,0,0,0.0208592,-0.0550234,0.511675,-1.56671,0.0385957,1.55705,1.31764,-0.000107011,-0.000505075,-0.0010863,0.000475258,0.00549199,0.00144229,0.00100916,0.00751081,-27.5319,-0.812364,27.1533,1.05163,3.24547,0.0641939,1.63178,1.75832,1.58937,-0.986303,0.903277,0.264979,0.243825,0.367043,0.306203,0.120403,0.109921,-0.253193,0.0839384,
0.0208483,-0.0549804,0.511679,-1.56625,0.0385675,-0.0144443,0.532239,-3.67229e-05,-0.000263798,7.34852e-05,6.34914e-05,-9.13495e-06,-0.00029812,2.1873e-06,0,0,0,0,0,0,0,0.0208224,-0.0550318,0.511661,-1.56668,0.0385615,1.55706,1.31763,0.000627068,-0.00105947,0.000368619,0.000355877,-0.0110754,0.000186229,0.000295472,0.384403,-27.4565,-0.661608,26.8518,1.31988,3.15209,0.0706026,1.63178,1.75832,1.58937,-0.986303,0.903277,0.264979,0.243825,0.367043,0.306203,0.120403,0.109921,-0.253193,0.0839384,
0.0208482,-0.0549815,0.511679,-1.56625,0.0385675,-0.0144455,0.532239,-3.36896e-05,-0.000268165,7.72349e-05,6.43252e-05,-8.34916e-08,-0.000303936,2.18091e-06,0,0,0,0,0,0,0,0.0208224,-0.0550318,0.511661,-1.56668,0.0385615,1.55706,1.31763,0.000627068,-0.00105947,0.000368619,0.000355877,-0.0110754,0.000186229,0.000295472,0.384403,-27.4565,-0.661608,26.8518,1.31988,3.15209,0.0706026,1.65963,1.67937,1.40729,-0.973971,1.00833,0.222747,0.216105,0.463589,0.250939,0.0368979,0.112695,-0.268159,0.0833231,
0.020848,-0.0549826,0.511679,-1.56625,0.0385675,-0.0144468,0.532239,-3.09025e-05,-0.000272235,8.06835e-05,6.51024e-05,8.01562e-06,-0.000309251,2.1741e-06,0,0,0,0,0,0,0,0.0208224,-0.0550318,0.511661,-1.56668,0.0385615,1.55706,1.31763,0.000627068,-0.00105947,0.000368619,0.000355877,-0.0110754,0.000186229,0.000295472,0.384403,-27.4565,-0.661608,26.8518,1.31988,3.15209,0.0706026,1.65963,1.67937,1.40729,-0.973971,1.00833,0.222747,0.216105,0.463589,0.250939,0.0368979,0.112695,-0.268159,0.0833231,
0.0208479,-0.0549837,0.51168,-1.56625,0.0385676,-0.014448,0.532239,-2.83448e-05,-0.000276027,8.38539e-05,6.58279e-05,1.52785e-05,-0.000314093,2.16709e-06,0,0,0,0,0,0,0,0.0208224,-0.0550318,0.511661,-1.56668,0.0385615,1.55706,1.31763,0.000627068,-0.00105947,0.000368619,0.000355877,-0.0110754,0.000186229,0.000295472,0.384403,-27.4565,-0.661608,26.8518,1.31988,3.15209,0.0706026,1.60155,1.76864,1.45846,-1.01439,0.942146,0.279359,0.279141,0.417135,0.301964,0.0682245,0.124044,-0.25815,0.0842382,
0.0208478,-0.0549848,0.51168,-1.56625,0.0385676,-0.0144493,0.532239,-2.60001e-05,-0.00027956,8.67681e-05,6.65063e-05,2.18042e-05,-0.000318493,2.16003e-06,0,0,0,0,0,0,0,0.0208224,-0.0550318,0.511661,-1.56668,0.0385615,1.55706,1.31763,0.000627068,-0.00105947,0.000368619,0.000355877,-0.0110754,0.000186229,0.000295472,0.384403,-27.4565,-0.661608,26.8518,1.31988,3.15209,0.0706026,1.60155,1.76864,1.45846,-1.01439,0.942146,0.279359,0.279141,0.417135,0.301964,0.0682245,0.124044,-0.25815,0.0842382,
0.0208477,-0.054986,0.51168,-1.56625,0.0385678,-0.0144506,0.532239,-2.38525e-05,-0.000282853,8.94466e-05,6.71411e-05,2.76775e-05,-0.000322482,2.15303e-06,0,0,0,0,0,0,0,0.0208224,-0.0550318,0.511661,-1.56668,0.0385615,1.55706,1.31763,0.000627068,-0.00105947,0.000368619,0.000355877,-0.0110754,0.000186229,0.000295472,0.384403,-27.4565,-0.661608,26.8518,1.31988,3.15209,0.0706026,1.62813,1.69765,1.539,-0.942287,0.917403,0.238915,0.232743,0.382341,0.264638,0.1112,0.116357,-0.246047,0.0842799,
0.0210314,-0.0552184,0.511858,-1.56603,-0.0188821,-0.0506646,0.53208,-0.00521497,0.0009575,-0.00518061,-0.00226876,-0.332722,-0.212032,-0.000684709,0,0,0,0,0,0,0,0.0208176,-0.0550523,0.511656,-1.56669,0.0385904,1.55704,1.31763,0.00213359,-0.00135288,0.00079338,0.000994488,-0.0132071,-0.00141369,0.000141005,0.0828892,-27.3811,-0.788561,27.0264,1.03973,3.25829,0.0779268,2.04627,1.84955,1.39802,-1.08842,1.29156,0.188972,0.172226,0.618914,0.229839,0.00843104,0.120724,-0.249387,0.0854147,
0.0209853,-0.0553759,0.511844,-1.56648,-0.00820581,-0.0437985,0.532149,-0.0045054,0.000160449,-0.00437768,-0.00214403,-0.249185,-0.166655,-0.000336032,0,0,0,0,0,0,0,0.0208176,-0.0550523,0.511656,-1.56669,0.0385904,1.55704,1.31763,0.00213359,-0.00135288,0.00079338,0.000994488,-0.0132071,-0.00141369,0.000141005,0.0828892,-27.3811,-0.788561,27.0264,1.03973,3.25829,0.0779268,2.04627,1.84955,1.39802,-1.08842,1.29156,0.188972,0.172226,0.618914,0.229839,0.00843104,0.120724,-0.249387,0.0854147,
0.020967,-0.0553752,0.511826,-1.56649,-0.00918521,-0.0444551,0.532148,-0.00457394,0.000165304,-0.00444782,-0.00217501,-0.24485,-0.164153,-0.000336439,0,0,0,0,0,0,0,0.0208176,-0.0550523,0.511656,-1.56669,0.0385904,1.55704,1.31763,0.00213359,-0.00135288,0.00079338,0.000994488,-0.0132071,-0.00141369,0.000141005,0.0828892,-27.3811,-0.788561,27.0264,1.03973,3.25829,0.0779268,2.11387,1.72574,1.4603,-1.00155,1.31274,0.110981,0.080666,0.616244,0.162411,0.025251,0.0993087,-0.254663,0.0866443,
0.0209484,-0.0553746,0.511808,-1.5665,-0.010146,-0.0451008,0.532147,-0.00464709,0.000164542,-0.00452219,-0.00221628,-0.240196,-0.161425,-0.000338015,0,0,0,0,0,0,0,0.0208176,-0.0550523,0.511656,-1.56669,0.0385904,1.55704,1.31763,0.00213359,-0.00135288,0.00079338,0.000994488,-0.0132071,-0.00141369,0.000141005,0.0828892,-27.3811,-0.788561,27.0264,1.03973,3.25829,0.0779268,2.11387,1.72574,1.4603,-1.00155,1.31274,0.110981,0.080666,0.616244,0.162411,0.025251,0.0993087,-0.254663,0.0866443,
0.0209295,-0.0553739,0.51179,-1.56651,-0.0110867,-0.0457345,0.532145,-0.00472741,0.000158734,-0.00460332,-0.00227073,-0.235176,-0.158429,-0.000340792,0,0,0,0,0,0,0,0.0208176,-0.0550523,0.511656,-1.56669,0.0385904,1.55704,1.31763,0.00213359,-0.00135288,0.00079338,0.000994488,-0.0132071,-0.00141369,0.000141005,0.0828892,-27.3811,-0.788561,27.0264,1.03973,3.25829,0.0779268,1.6308,2.00845,1.64294,-1.15867,0.909497,0.374674,0.329396,0.374767,0.443742,0.108794,0.129277,-0.274867,0.0874913,
0.0209102,-0.0553734,0.511771,-1.56652,-0.0120056,-0.0463549,0.532144,-0.00481812,0.000148517,-0.00469427,-0.00234177,-0.229726,-0.155114,-0.000344914,0,0,0,0,0,0,0,0.0208738,-0.0550687,0.511698,-1.56665,0.0373683,1.55701,1.31763,0.0104032,-0.00374472,0.00426494,-0.000513198,-0.124838,-0.00244585,-0.000132651,-0.551876,-27.4327,-1.28844,26.6058,0.0802576,2.8344,0.0706026,1.75516,2.12161,1.65998,-1.33944,0.998918,0.387971,0.328957,0.425365,0.477784,0.046612,0.0456652,-0.327207,0.0866203,
0.0208905,-0.0553728,0.511752,-1.56653,-0.0129007,-0.0469606,0.532143,-0.00492315,0.000134597,-0.00479891,-0.00243347,-0.223773,-0.151418,-0.000350222,0,0,0,0,0,0,0,0.0208738,-0.0550687,0.511698,-1.56665,0.0373683,1.55701,1.31763,0.0104032,-0.00374472,0.00426494,-0.000513198,-0.124838,-0.00244585,-0.000132651,-0.551876,-27.4327,-1.28844,26.6058,0.0802576,2.8344,0.0706026,1.75516,2.12161,1.65998,-1.33944,0.998918,0.387971,0.328957,0.425365,0.477784,0.046612,0.0456652,-0.327207,0.0866203,
0.0208703,-0.0553723,0.511732,-1.56654,-0.0137696,-0.0475497,0.532141,-0.00504755,0.000117762,-0.00492213,-0.00255064,-0.217222,-0.147266,-0.000356569,0,0,0,0,0,0,0,0.0208738,-0.0550687,0.511698,-1.56665,0.0373683,1.55701,1.31763,0.0104032,-0.00374472,0.00426494,-0.000513198,-0.124838,-0.00244585,-0.000132651,-0.551876,-27.4327,-1.28844,26.6058,0.0802576,2.8344,0.0706026,1.64572,2.10609,1.79048,-1.39513,0.823618,0.407846,0.337556,0.287424,0.511692,0.0944625,-0.060072,-0.339974,0.0852658,
0.0208495,-0.0553719,0.511712,-1.56655,-0.0146094,-0.04812,0.53214,-0.00519778,9.89063e-05,-0.00507021,-0.00269902,-0.209956,-0.14257,-0.000363763,0,0,0,0,0,0,0,0.0208738,-0.0550687,0.511698,-1.56665,0.0373683,1.55701,1.31763,0.0104032,-0.00374472,0.00426494,-0.000513198,-0.124838,-0.00244585,-0.000132651,-0.551876,-27.4327,-1.28844,26.6058,0.0802576,2.8344,0.0706026,1.64572,2.10609,1.79048,-1.39513,0.823618,0.407846,0.337556,0.287424,0.511692,0.0944625,-0.060072,-0.339974,0.0852658,
0.020828,-0.0553716,0.511691,-1.56656,-0.0154167,-0.0486689,0.532138,-0.00538223,7.90233e-05,-0.00525133,-0.00288544,-0.201827,-0.137224,-0.000371295,0,0,0,0,0,0,0,0.0208738,-0.0550687,0.511698,-1.56665,0.0373683,1.55701,1.31763,0.0104032,-0.00374472,0.00426494,-0.000513198,-0.124838,-0.00244585,-0.000132651,-0.551876,-27.4327,-1.28844,26.6058,0.0802576,2.8344,0.0706026,1.58662,2.00973,1.85361,-1.33244,0.739903,0.378391,0.301376,0.222586,0.487148,0.128242,-0.0891856,-0.339587,0.0852048,
0.0208056,-0.0553714,0.511669,-1.56657,-0.0161873,-0.0491933,0.532137,-0.00561189,5.9203e-05,-0.00547617,-0.00311799,-0.192646,-0.1311,-0.00037824,0,0,0,0,0,0,0,0.0208738,-0.0550687,0.511698,-1.56665,0.0373683,1.55701,1.31763,0.0104032,-0.00374472,0.00426494,-0.000513198,-0.124838,-0.00244585,-0.000132651,-0.551876,-27.4327,-1.28844,26.6058,0.0802576,2.8344,0.0706026,1.58662,2.00973,1.85361,-1.33244,0.739903,0.378391,0.301376,0.222586,0.487148,0.128242,-0.0891856,-0.339587,0.0852048,
0.020782,-0.0553712,0.511646,-1.56659,-0.016916,-0.0496895,0.532135,-0.00590132,4.05456e-05,-0.00575894,-0.00340633,-0.182172,-0.12405,-0.000383117,0,0,0,0,0,0,0,0.0209562,-0.0550836,0.511755,-1.56667,0.0304741,1.55598,1.31763,0.00261555,2.22921e-05,0.00131755,0.00163188,-0.185505,-0.0372956,0.000786526,-0.67883,-27.3097,-1.463,26.8042,0.489498,2.82799,0.0641939,1.98899,1.88942,2.00556,-1.28061,0.979735,0.207989,0.136575,0.32833,0.310842,0.120138,-0.158715,-0.372115,0.0847353,
0.0207569,-0.0553711,0.511621,-1.5666,-0.0175964,-0.050153,0.532134,-0.00626994,2.39175e-05,-0.00611861,-0.00376234,-0.170092,-0.115894,-0.00038347,0,0,0,0,0,0,0,0.0209562,-0.0550836,0.511755,-1.56667,0.0304741,1.55598,1.31763,0.00261555,2.22921e-05,0.00131755,0.00163188,-0.185505,-0.0372956,0.000786526,-0.67883,-27.3097,-1.463,26.8042,0.489498,2.82799,0.0641939,2.16382,1.4347,2.09927,-1.03611,1.09893,-0.0519336,-0.127338,0.387213,0.0498597,0.0768414,-0.253278,-0.453152,0.0843698,
0.0207299,-0.0553711,0.511595,-1.56662,-0.0182203,-0.0505787,0.532132,-0.0067442,9.12861e-06,-0.00658099,-0.0042018,-0.155998,-0.106419,-0.000374106,0,0,0,0,0,0,0,0.0209562,-0.0550836,0.511755,-1.56667,0.0304741,1.55598,1.31763,0.00261555,2.22921e-05,0.00131755,0.00163188,-0.185505,-0.0372956,0.000786526,-0.67883,-27.3097,-1.463,26.8042,0.489498,2.82799,0.0641939,2.16382,1.4347,2.09927,-1.03611,1.09893,-0.0519336,-0.127338,0.387213,0.0498597,0.0768414,-0.253278,-0.453152,0.0843698,
0.0207004,-0.0553711,0.511566,-1.56664,-0.0187777,-0.0509601,0.532131,-0.00736113,-7.63379e-06,-0.00718223,-0.0047497,-0.139342,-0.0953596,-0.00034439,0,0,0,0,0,0,0,0.0209562,-0.0550836,0.511755,-1.56667,0.0304741,1.55598,1.31763,0.00261555,2.22921e-05,0.00131755,0.00163188,-0.185505,-0.0372956,0.000786526,-0.67883,-27.3097,-1.463,26.8042,0.489498,2.82799,0.0641939,2.31926,1.3718,2.10401,-1.0354,1.23189,-0.126577,-0.204178,0.468764,-0.0215584,0.0271428,-0.286192,-0.492606,0.0845366,
0.0206677,-0.0553713,0.511534,-1.56666,-0.0192552,-0.0512895,0.53213,-0.0081759,-4.23181e-05,-0.00797606,-0.00545796,-0.119367,-0.0823466,-0.000270523,0,0,0,0,0,0,0,0.0209562,-0.0550836,0.511755,-1.56667,0.0304741,1.55598,1.31763,0.00261555,2.22921e-05,0.00131755,0.00163188,-0.185505,-0.0372956,0.000786526,-0.67883,-27.3097,-1.463,26.8042,0.489498,2.82799,0.0641939,2.31926,1.3718,2.10401,-1.0354,1.23189,-0.126577,-0.204178,0.468764,-0.0215584,0.0271428,-0.286192,-0.492606,0.0845366,
0.0206306,-0.0553719,0.511498,-1.56669,-0.0196349,-0.0515565,0.532129,-0.00928049,-0.000151416,-0.00905256,-0.00646515,-0.0949429,-0.0667507,-0.000147492,0,0,0,0,0,0,0,0.0209161,-0.0550901,0.511719,-1.56668,0.0256489,1.55543,1.31763,-0.00346535,-0.000676131,-0.0041331,-0.000463946,-0.133532,-0.00232345,0.000642982,-0.0202602,-27.3097,-1.01073,26.8796,0.788876,2.78771,0.0706026,2.34832,1.29948,2.1122,-1.02535,1.28778,-0.167504,-0.227402,0.515788,-0.0786488,-0.0249913,-0.308792,-0.548227,0.0834762,
0.0205926,-0.0553697,0.511461,-1.56671,-0.019942,-0.0517773,0.532129,-0.00950063,0.000543475,-0.00936679,-0.0058377,-0.0767684,-0.0551904,-5.17498e-05,0,0,0,0,0,0,0,0.0209161,-0.0550901,0.511719,-1.56668,0.0256489,1.55543,1.31763,-0.00346535,-0.000676131,-0.0041331,-0.000463946,-0.133532,-0.00232345,0.000642982,-0.0202602,-27.3097,-1.01073,26.8796,0.788876,2.78771,0.0706026,2.34832,1.29948,2.1122,-1.02535,1.28778,-0.167504,-0.227402,0.515788,-0.0786488,-0.0249913,-0.308792,-0.548227,0.0834762,
0.0205553,-0.0553646,0.511424,-1.56673,-0.020193,-0.0519609,0.532129,-0.0093264,0.0012847,-0.00926044,-0.00491674,-0.0627405,-0.045901,-1.16713e-05,0,0,0,0,0,0,0,0.0209161,-0.0550901,0.511719,-1.56668,0.0256489,1.55543,1.31763,-0.00346535,-0.000676131,-0.0041331,-0.000463946,-0.133532,-0.00232345,0.000642982,-0.0202602,-27.3097,-1.01073,26.8796,0.788876,2.78771,0.0706026,2.05965,1.56887,2.24824,-1.16357,1.08317,0.0387274,0.00359957,0.409017,0.106511,0.00375441,-0.247164,-0.587275,0.0831879,
0.0205195,-0.0553571,0.511388,-1.56674,-0.0203997,-0.0521137,0.532129,-0.00894307,0.00188469,-0.00892265,-0.00405248,-0.0516874,-0.0382061,2.89005e-06,0,0,0,0,0,0,0,0.0209161,-0.0550901,0.511719,-1.56668,0.0256489,1.55543,1.31763,-0.00346535,-0.000676131,-0.0041331,-0.000463946,-0.133532,-0.00232345,0.000642982,-0.0202602,-27.3097,-1.01073,26.8796,0.788876,2.78771,0.0706026,2.05965,1.56887,2.24824,-1.16357,1.08317,0.0387274,0.00359957,0.409017,0.106511,0.00375441,-0.247164,-0.587275,0.0831879,
0.0204858,-0.0553478,0.511354,-1.56676,-0.0205711,-0.0522408,0.532129,-0.0084471,0.00231898,-0.00845636,-0.00331359,-0.0428541,-0.0317689,5.73639e-06,0,0,0,0,0,0,0,0.0209161,-0.0550901,0.511719,-1.56668,0.0256489,1.55543,1.31763,-0.00346535,-0.000676131,-0.0041331,-0.000463946,-0.133532,-0.00232345,0.000642982,-0.0202602,-27.3097,-1.01073,26.8796,0.788876,2.78771,0.0706026,2.42705,1.49301,2.38102,-1.06299,1.32316,-0.0986071,-0.11509,0.525589,-0.0526001,0.0173542,-0.232574,-0.592503,0.0832033,
0.0204542,-0.0553374,0.511323,-1.56677,-0.020714,-0.0523463,0.532129,-0.00789553,0.00260632,-0.00792358,-0.00269471,-0.035713,-0.0263696,2.72588e-06,0,0,0,0,0,0,0,0.0209161,-0.0550901,0.511719,-1.56668,0.0256489,1.55543,1.31763,-0.00346535,-0.000676131,-0.0041331,-0.000463946,-0.133532,-0.00232345,0.000642982,-0.0202602,-27.3097,-1.01073,26.8796,0.788876,2.78771,0.0706026,2.29321,1.7463,2.35598,-1.20424,1.26048,0.057556,0.0541569,0.509035,0.0939724,0.0136839,-0.169177,-0.588884,0.0819002,
0.0204249,-0.0553263,0.511293,-1.56678,-0.0208335,-0.0524336,0.532129,-0.00732425,0.00277372,-0.00736373,-0.00217542,-0.0298799,-0.0218392,-3.3338e-06,0,0,0,0,0,0,0,0.0207666,-0.0550876,0.511639,-1.56668,0.0214853,1.55541,1.31763,-0.00513627,0.000491134,-0.00231995,-0.000974254,-0.123226,-0.00106038,-0.0011288,0.309024,-27.4327,-0.661608,26.8518,1.11847,2.8875,0.104477,2.29321,1.7463,2.35598,-1.20424,1.26048,0.057556,0.0541569,0.509035,0.0939724,0.0136839,-0.169177,-0.588884,0.0819002,
0.0203979,-0.0553149,0.511266,-1.56678,-0.0209338,-0.0525058,0.532129,-0.0067562,0.00284676,-0.00680224,-0.00173578,-0.0250692,-0.0180384,-1.0913e-05,0,0,0,0,0,0,0,0.0207666,-0.0550876,0.511639,-1.56668,0.0214853,1.55541,1.31763,-0.00513627,0.000491134,-0.00231995,-0.000974254,-0.123226,-0.00106038,-0.0011288,0.309024,-27.4327,-0.661608,26.8518,1.11847,2.8875,0.104477,1.95295,1.91284,2.35507,-1.24367,1.03448,0.232759,0.235943,0.396159,0.262003,0.0563559,-0.0780132,-0.571076,0.0810229,
0.020373,-0.0553035,0.511241,-1.56679,-0.0210181,-0.0525652,0.532129,-0.0062059,0.00284729,-0.00625532,-0.00135961,-0.0210654,-0.0148496,-1.91094e-05,0,0,0,0,0,0,0,0.0207666,-0.0550876,0.511639,-1.56668,0.0214853,1.55541,1.31763,-0.00513627,0.000491134,-0.00231995,-0.000974254,-0.123226,-0.00106038,-0.0011288,0.309024,-27.4327,-0.661608,26.8518,1.11847,2.8875,0.104477,1.95295,1.91284,2.35507,-1.24367,1.03448,0.232759,0.235943,0.396159,0.262003,0.0563559,-0.0780132,-0.571076,0.0810229,
0.0203503,-0.0552923,0.511218,-1.56679,-0.0210889,-0.0526139,0.532129,-0.00568213,0.0027933,-0.00573291,-0.00103441,-0.017705,-0.0121736,-2.73751e-05,0,0,0,0,0,0,0,0.0207666,-0.0550876,0.511639,-1.56668,0.0214853,1.55541,1.31763,-0.00513627,0.000491134,-0.00231995,-0.000974254,-0.123226,-0.00106038,-0.0011288,0.309024,-27.4327,-0.661608,26.8518,1.11847,2.8875,0.104477,2.07153,1.96161,2.37814,-1.22792,1.11984,0.222034,0.235686,0.441603,0.239545,0.0718441,-0.0358124,-0.551143,0.0821966,
0.0193969,-0.0537598,0.510051,-1.56688,-0.144247,-0.191433,0.530671,-0.0316889,0.0210475,-0.0327263,-0.0206426,-1.20558,-1.05052,-0.00731403,0,0,0,0,0,0,0,0.0207666,-0.0550876,0.511639,-1.56668,0.0214853,1.55541,1.31763,-0.00513627,0.000491134,-0.00231995,-0.000974254,-0.123226,-0.00106038,-0.0011288,0.309024,-27.4327,-0.661608,26.8518,1.11847,2.8875,0.104477,2.0318,1.99054,2.35852,-1.1955,1.10773,0.247964,0.271771,0.442138,0.253508,0.0878578,0.0198491,-0.530212,0.082734,
0.0189361,-0.0540783,0.509703,-1.56674,-0.110444,-0.145793,0.531416,-0.0263031,0.0139127,-0.0269856,-0.0117556,-0.649999,-0.780416,-0.00291976,0,0,0,0,0,0,0,0.0205373,-0.0550777,0.511474,-1.56669,0.0181775,1.5554,1.31763,-0.00539458,0.000201548,-0.000997962,0.000394855,-0.0945726,-0.00214921,-0.000915931,0.309024,-27.5319,-0.736986,27.0541,0.886837,2.95342,0.104477,2.0318,1.99054,2.35852,-1.1955,1.10773,0.247964,0.271771,0.442138,0.253508,0.0878578,0.0198491,-0.530212,0.082734,
0.0188311,-0.0540237,0.509595,-1.56678,-0.113001,-0.148896,0.531404,-0.0262426,0.013648,-0.0269355,-0.0115781,-0.639155,-0.775799,-0.00284513,0,0,0,0,0,0,0,0.0205373,-0.0550777,0.511474,-1.56669,0.0181775,1.5554,1.31763,-0.00539458,0.000201548,-0.000997962,0.000394855,-0.0945726,-0.00214921,-0.000915931,0.309024,-27.5319,-0.736986,27.0541,0.886837,2.95342,0.104477,2.32004,1.86697,2.43884,-1.05748,1.28679,0.110353,0.140386,0.523504,0.104937,0.115977,0.036434,-0.510415,0.0837932,
0.0187264,-0.0539703,0.509488,-1.56683,-0.115512,-0.151979,0.531393,-0.0261898,0.0133487,-0.0268927,-0.011417,-0.627806,-0.77073,-0.00277387,0,0,0,0,0,0,0,0.0205373,-0.0550777,0.511474,-1.56669,0.0181775,1.5554,1.31763,-0.00539458,0.000201548,-0.000997962,0.000394855,-0.0945726,-0.00214921,-0.000915931,0.309024,-27.5319,-0.736986,27.0541,0.886837,2.95342,0.104477,2.32004,1.86697,2.43884,-1.05748,1.28679,0.110353,0.140386,0.523504,0.104937,0.115977,0.036434,-0.510415,0.0837932,
0.0186218,-0.0539183,0.50938,-1.56688,-0.117976,-0.155039,0.531382,-0.0261489,0.0130145,-0.0268612,-0.0112775,-0.615859,-0.765094,-0.00270695,0,0,0,0,0,0,0,0.0205373,-0.0550777,0.511474,-1.56669,0.0181775,1.5554,1.31763,-0.00539458,0.000201548,-0.000997962,0.000394855,-0.0945726,-0.00214921,-0.000915931,0.309024,-27.5319,-0.736986,27.0541,0.886837,2.95342,0.104477,3.05341,3.99578,3.16283,-2.34226,1.53732,0.869017,0.913895,0.543074,0.880227,0.334018,0.157878,-0.406745,0.08926,
0.0185173,-0.0538677,0.509273,-1.56692,-0.120388,-0.158074,0.531372,-0.0261242,0.0126441,-0.0268456,-0.0111662,-0.603205,-0.758752,-0.00264444,0,0,0,0,0,0,0,0.0205373,-0.0550777,0.511474,-1.56669,0.0181775,1.5554,1.31763,-0.00539458,0.000201548,-0.000997962,0.000394855,-0.0945726,-0.00214921,-0.000915931,0.309024,-27.5319,-0.736986,27.0541,0.886837,2.95342,0.104477,3.05341,3.99578,3.16283,-2.34226,1.53732,0.869017,0.913895,0.543074,0.880227,0.334018,0.157878,-0.406745,0.08926,
0.0184128,-0.0538187,0.509166,-1.56696,-0.122747,-0.16108,0.531361,-0.0261212,0.0122365,-0.0268509,-0.0110904,-0.589719,-0.751539,-0.00258614,0,0,0,0,0,0,0,0.0206194,-0.0551384,0.511462,-1.56609,0.00634801,1.54855,1.31763,0.0132507,-0.000188543,0.000448645,0.0338414,-0.608075,-0.414368,-0.000593132,-1.46435,-26.7583,-2.16124,25.0864,-0.56702,1.48125,0.0843355,3.72849,4.70013,3.07337,-2.92443,2.07421,0.988433,1.01097,0.861923,1.03953,0.197546,0.131484,-0.414305,0.0938904,
0.0183082,-0.0537716,0.509058,-1.56701,-0.125048,-0.164053,0.531351,-0.0261457,0.01179,-0.0268831,-0.0110595,-0.575256,-0.743255,-0.00253376,0,0,0,0,0,0,0,0.0206194,-0.0551384,0.511462,-1.56609,0.00634801,1.54855,1.31763,0.0132507,-0.000188543,0.000448645,0.0338414,-0.608075,-0.414368,-0.000593132,-1.46435,-26.7583,-2.16124,25.0864,-0.56702,1.48125,0.0843355,2.75899,4.263,3.31474,-2.74074,1.27147,1.04757,1.03342,0.38025,1.13205,0.277643,-0.0305326,-0.534138,0.0933299,
0.0182034,-0.0537264,0.50895,-1.56705,-0.127287,-0.166988,0.531341,-0.0262048,0.0113027,-0.0269491,-0.0110843,-0.55965,-0.733661,-0.00248803,0,0,0,0,0,0,0,0.0206194,-0.0551384,0.511462,-1.56609,0.00634801,1.54855,1.31763,0.0132507,-0.000188543,0.000448645,0.0338414,-0.608075,-0.414368,-0.000593132,-1.46435,-26.7583,-2.16124,25.0864,-0.56702,1.48125,0.0843355,2.75899,4.263,3.31474,-2.74074,1.27147,1.04757,1.03342,0.38025,1.13205,0.277643,-0.0305326,-0.534138,0.0933299,
0.0180982,-0.0536833,0.508842,-1.5671,-0.129458,-0.169878,0.531332,-0.0263063,0.0107728,-0.0270566,-0.0111779,-0.542711,-0.722469,-0.00245019,0,0,0,0,0,0,0,0.0206194,-0.0551384,0.511462,-1.56609,0.00634801,1.54855,1.31763,0.0132507,-0.000188543,0.000448645,0.0338414,-0.608075,-0.414368,-0.000593132,-1.46435,-26.7583,-2.16124,25.0864,-0.56702,1.48125,0.0843355,3.15213,3.27981,3.56411,-2.38549,1.49559,0.471367,0.438252,0.472277,0.573066,0.130355,-0.407991,-0.781171,0.0890158,
0.0179923,-0.0536425,0.508733,-1.56714,-0.131555,-0.172715,0.531322,-0.0264592,0.0101982,-0.0272146,-0.011356,-0.524222,-0.709335,-0.00242098,0,0,0,0,0,0,0,0.0206194,-0.0551384,0.511462,-1.56609,0.00634801,1.54855,1.31763,0.0132507,-0.000188543,0.000448645,0.0338414,-0.608075,-0.414368,-0.000593132,-1.46435,-26.7583,-2.16124,25.0864,-0.56702,1.48125,0.0843355,3.15213,3.27981,3.56411,-2.38549,1.49559,0.471367,0.438252,0.472277,0.573066,0.130355,-0.407991,-0.781171,0.0890158,
0.0178856,-0.0536042,0.508623,-1.56719,-0.13357,-0.175491,0.531312,-0.0266736,0.00957722,-0.0274329,-0.0116372,-0.503939,-0.693847,-0.00240249,0,0,0,0,0,0,0,0.0206194,-0.0551384,0.511462,-1.56609,0.00634801,1.54855,1.31763,0.0132507,-0.000188543,0.000448645,0.0338414,-0.608075,-0.414368,-0.000593132,-1.46435,-26.7583,-2.16124,25.0864,-0.56702,1.48125,0.0843355,4.07106,1.90021,4.36376,-1.50345,1.8561,-0.433524,-0.480708,0.517319,-0.340016,0.252272,-0.731709,-0.937343,0.0899168,
0.0177778,-0.0535685,0.508513,-1.56724,-0.135497,-0.178193,0.531303,-0.0269606,0.00890857,-0.0277224,-0.0120439,-0.481588,-0.675516,-0.00239702,0,0,0,0,0,0,0,0.0208782,-0.0552827,0.511583,-1.56552,-0.0124567,1.53191,1.31763,0.00393356,-0.010134,0.00295091,0.00183924,-0.545508,-0.555076,0.000939458,-1.23822,-26.9328,-1.98668,26.0822,-0.633854,1.36864,0.050461,4.10577,1.56219,4.70197,-1.31743,1.86079,-0.6089,-0.666231,0.508648,-0.509499,0.223375,-0.807591,-1.10676,0.0880229,
0.0176685,-0.0535358,0.5084,-1.56729,-0.137324,-0.180808,0.531293,-0.0273316,0.00819181,-0.0280947,-0.0126022,-0.456868,-0.653757,-0.00240668,0,0,0,0,0,0,0,0.0208782,-0.0552827,0.511583,-1.56552,-0.0124567,1.53191,1.31763,0.00393356,-0.010134,0.00295091,0.00183924,-0.545508,-0.555076,0.000939458,-1.23822,-26.9328,-1.98668,26.0822,-0.633854,1.36864,0.050461,4.10577,1.56219,4.70197,-1.31743,1.86079,-0.6089,-0.666231,0.508648,-0.509499,0.223375,-0.807591,-1.10676,0.0880229,
0.0175573,-0.0535061,0.508286,-1.56734,-0.139042,-0.183319,0.531283,-0.0277985,0.0074279,-0.0285611,-0.013343,-0.429456,-0.627882,-0.00243568,0,0,0,0,0,0,0,0.0208782,-0.0552827,0.511583,-1.56552,-0.0124567,1.53191,1.31763,0.00393356,-0.010134,0.00295091,0.00183924,-0.545508,-0.555076,0.000939458,-1.23822,-26.9328,-1.98668,26.0822,-0.633854,1.36864,0.050461,2.57523,1.29268,4.81736,-1.21476,0.932112,-0.320036,-0.386536,0.0889052,-0.21269,0.124873,-0.777963,-1.4044,0.0856355,
0.0174438,-0.0534796,0.508169,-1.5674,-0.140638,-0.185708,0.531273,-0.0283719,0.00661993,-0.0291323,-0.0143023,-0.399018,-0.597079,-0.00248762,0,0,0,0,0,0,0,0.0208782,-0.0552827,0.511583,-1.56552,-0.0124567,1.53191,1.31763,0.00393356,-0.010134,0.00295091,0.00183924,-0.545508,-0.555076,0.000939458,-1.23822,-26.9328,-1.98668,26.0822,-0.633854,1.36864,0.050461,2.57523,1.29268,4.81736,-1.21476,0.932112,-0.320036,-0.386536,0.0889052,-0.21269,0.124873,-0.777963,-1.4044,0.0856355,
0.0173276,-0.0534565,0.50805,-1.56746,-0.142099,-0.187949,0.531263,-0.0290598,0.00577411,-0.0298163,-0.0155223,-0.365223,-0.560395,-0.00257141,0,0,0,0,0,0,0,0.0208782,-0.0552827,0.511583,-1.56552,-0.0124567,1.53191,1.31763,0.00393356,-0.010134,0.00295091,0.00183924,-0.545508,-0.555076,0.000939458,-1.23822,-26.9328,-1.98668,26.0822,-0.633854,1.36864,0.050461,2.6454,0.90026,4.80781,-1.12557,1.03547,-0.527172,-0.593958,0.169804,-0.41724,-0.0135928,-0.932761,-1.55097,0.0815215,
0.0172081,-0.0534369,0.507928,-1.56753,-0.14341,-0.190016,0.531252,-0.029865,0.00490146,-0.0306156,-0.0170511,-0.327769,-0.516716,-0.00269517,0,0,0,0,0,0,0,0.020944,-0.055394,0.511642,-1.56553,-0.0296118,1.51483,1.31762,-0.00230996,6.3551e-05,-0.00149288,-0.00180082,-0.470532,-0.522484,-0.000325225,-0.984311,-27.032,-1.8875,26.2567,-0.493778,1.32287,0.0907442,2.6454,0.90026,4.80781,-1.12557,1.03547,-0.527172,-0.593958,0.169804,-0.41724,-0.0135928,-0.932761,-1.55097,0.0815215,
0.017085,-0.0534208,0.507802,-1.56761,-0.144556,-0.191875,0.531241,-0.0307811,0.00402137,-0.0315241,-0.0189407,-0.286427,-0.464748,-0.00286761,0,0,0,0,0,0,0,0.020944,-0.055394,0.511642,-1.56553,-0.0296118,1.51483,1.31762,-0.00230996,6.3551e-05,-0.00149288,-0.00180082,-0.470532,-0.522484,-0.000325225,-0.984311,-27.032,-1.8875,26.2567,-0.493778,1.32287,0.0907442,3.01337,0.863634,4.42194,-1.26698,1.52532,-0.650915,-0.704274,0.540758,-0.545735,-0.28944,-0.968565,-1.64857,0.0782289,
0.0169578,-0.0534081,0.507671,-1.56769,-0.14552,-0.193487,0.531229,-0.0317853,0.00317057,-0.0325192,-0.0212365,-0.2411,-0.403015,-0.00299443,0,0,0,0,0,0,0,0.020944,-0.055394,0.511642,-1.56553,-0.0296118,1.51483,1.31762,-0.00230996,6.3551e-05,-0.00149288,-0.00180082,-0.470532,-0.522484,-0.000325225,-0.984311,-27.032,-1.8875,26.2567,-0.493778,1.32287,0.0907442,3.01337,0.863634,4.42194,-1.26698,1.52532,-0.650915,-0.704274,0.540758,-0.545735,-0.28944,-0.968565,-1.64857,0.0782289,
0.0168266,-0.0533984,0.507537,-1.56779,-0.146288,-0.194807,0.531223,-0.0328116,0.00243347,-0.0335516,-0.0239303,-0.191948,-0.329935,-0.00137779,0,0,0,0,0,0,0,0.020944,-0.055394,0.511642,-1.56553,-0.0296118,1.51483,1.31762,-0.00230996,6.3551e-05,-0.00149288,-0.00180082,-0.470532,-0.522484,-0.000325225,-0.984311,-27.032,-1.8875,26.2567,-0.493778,1.32287,0.0907442,3.39887,0.936194,4.08582,-1.32855,2.06072,-0.730143,-0.753379,0.949256,-0.652025,-0.520268,-0.849566,-1.714,0.0749026,
0.0166985,-0.0533819,0.507406,-1.56787,-0.146908,-0.195902,0.531218,-0.032025,0.00411409,-0.0328733,-0.0216006,-0.154862,-0.273707,-0.00123096,0,0,0,0,0,0,0,0.020944,-0.055394,0.511642,-1.56553,-0.0296118,1.51483,1.31762,-0.00230996,6.3551e-05,-0.00149288,-0.00180082,-0.470532,-0.522484,-0.000325225,-0.984311,-27.032,-1.8875,26.2567,-0.493778,1.32287,0.0907442,2.66456,0.530227,4.3195,-0.861056,1.42517,-0.711211,-0.710614,0.551935,-0.673671,-0.298065,-0.756283,-1.66817,0.0730479,
0.0165764,-0.053358,0.50728,-1.56795,-0.14741,-0.196814,0.531213,-0.0305134,0.00597374,-0.0314381,-0.0182666,-0.125649,-0.228158,-0.00127372,0,0,0,0,0,0,0,0.020944,-0.055394,0.511642,-1.56553,-0.0296118,1.51483,1.31762,-0.00230996,6.3551e-05,-0.00149288,-0.00180082,-0.470532,-0.522484,-0.000325225,-0.984311,-27.032,-1.8875,26.2567,-0.493778,1.32287,0.0907442,2.66456,0.530227,4.3195,-0.861056,1.42517,-0.711211,-0.710614,0.551935,-0.673671,-0.298065,-0.756283,-1.66817,0.0730479,
0.0164617,-0.0533283,0.507161,-1.56801,-0.147818,-0.197576,0.531208,-0.0286905,0.0074445,-0.0296635,-0.0150482,-0.102094,-0.190491,-0.00135072,0,0,0,0,0,0,0,0.020834,-0.0555203,0.511586,-1.56557,-0.0443125,1.49855,1.31762,-0.00521439,0.000704373,-0.00128985,-0.00720581,-0.435355,-0.488249,0.000130418,-0.349545,-27.282,-1.463,26.5781,0.190121,1.90606,0.0641939,1.80163,0.816918,3.7876,-1.08282,1.01711,-0.33635,-0.322762,0.434209,-0.30482,-0.404617,-0.628615,-1.63986,0.0688345,
0.0163547,-0.0532945,0.50705,-1.56805,-0.14815,-0.198213,0.531202,-0.0267492,0.00844871,-0.0277507,-0.0122035,-0.0828158,-0.159089,-0.00143129,0,0,0,0,0,0,0,0.020834,-0.0555203,0.511586,-1.56557,-0.0443125,1.49855,1.31762,-0.00521439,0.000704373,-0.00128985,-0.00720581,-0.435355,-0.488249,0.000130418,-0.349545,-27.282,-1.463,26.5781,0.190121,1.90606,0.0641939,1.80163,0.816918,3.7876,-1.08282,1.01711,-0.33635,-0.322762,0.434209,-0.30482,-0.404617,-0.628615,-1.63986,0.0688345,
0.0162555,-0.0532583,0.506947,-1.56809,-0.148417,-0.198744,0.531196,-0.0247931,0.00904084,-0.0258099,-0.00974698,-0.0668608,-0.132823,-0.00150717,0,0,0,0,0,0,0,0.020834,-0.0555203,0.511586,-1.56557,-0.0443125,1.49855,1.31762,-0.00521439,0.000704373,-0.00128985,-0.00720581,-0.435355,-0.488249,0.000130418,-0.349545,-27.282,-1.463,26.5781,0.190121,1.90606,0.0641939,1.27047,0.680593,3.31822,-1.02696,0.865169,-0.250293,-0.228259,0.458983,-0.227679,-0.555468,-0.537443,-1.6686,0.0647116,
-0.00719625,-0.0428334,0.482115,-1.58051,-0.160189,-0.217029,0.519194,-0.202445,0.107417,-0.212076,-0.098176,-1.24253,-1.32008,-0.0581805,0,0,0,0,0,0,0,0.020834,-0.0555203,0.511586,-1.56557,-0.0443125,1.49855,1.31762,-0.00521439,0.000704373,-0.00128985,-0.00720581,-0.435355,-0.488249,0.000130418,-0.349545,-27.282,-1.463,26.5781,0.190121,1.90606,0.0641939,0.936848,0.60123,3.61226,-0.685111,0.411508,-0.193177,-0.160541,0.110003,-0.197673,-0.223406,-0.400476,-1.4837,0.070011,
-0.00156664,-0.0476071,0.48811,-1.57662,-0.225509,-0.194042,0.525516,-0.166661,0.056591,-0.173304,-0.068077,-0.951215,0.0640744,-0.0213128,0,0,0,0,0,0,0,0.020834,-0.0555203,0.511586,-1.56557,-0.0443125,1.49855,1.31762,-0.00521439,0.000704373,-0.00128985,-0.00720581,-0.435355,-0.488249,0.000130418,-0.349545,-27.282,-1.463,26.5781,0.190121,1.90606,0.0641939,0.936848,0.60123,3.61226,-0.685111,0.411508,-0.193177,-0.160541,0.110003,-0.197673,-0.223406,-0.400476,-1.4837,0.070011,
-0.00224045,-0.0473872,0.48741,-1.57689,-0.22906,-0.193592,0.525434,-0.168451,0.0549807,-0.175131,-0.066924,-0.887804,0.112612,-0.020525,0,0,0,0,0,0,0,0.0201061,-0.0554451,0.510882,-1.56599,-0.0591419,1.48096,1.31761,-0.0291712,0.00278027,-0.035879,-0.0208243,-0.395286,-0.478386,-0.00428063,-1.05969,-27.032,-2.18505,25.9314,0.00701543,2.03881,-0.00996382,0.41579,2.16825,4.09992,-1.25036,-0.331952,0.681638,0.719727,-0.458452,0.674253,0.343636,-0.0425693,-1.0759,0.0679376,
-0.00292107,-0.0471739,0.486702,-1.57715,-0.232336,-0.192941,0.525355,-0.170155,0.0533144,-0.176868,-0.0658098,-0.818867,0.162708,-0.0197617,0,0,0,0,0,0,0,0.0201061,-0.0554451,0.510882,-1.56599,-0.0591419,1.48096,1.31761,-0.0291712,0.00278027,-0.035879,-0.0208243,-0.395286,-0.478386,-0.00428063,-1.05969,-27.032,-2.18505,25.9314,0.00701543,2.03881,-0.00996382,0.41579,2.16825,4.09992,-1.25036,-0.331952,0.681638,0.719727,-0.458452,0.674253,0.343636,-0.0425693,-1.0759,0.0679376,
-0.00360818,-0.0469676,0.485988,-1.57741,-0.235312,-0.192083,0.525279,-0.171778,0.0515734,-0.17852,-0.0647486,-0.744175,0.214518,-0.0190357,0,0,0,0,0,0,0,0.0201061,-0.0554451,0.510882,-1.56599,-0.0591419,1.48096,1.31761,-0.0291712,0.00278027,-0.035879,-0.0208243,-0.395286,-0.478386,-0.00428063,-1.05969,-27.032,-2.18505,25.9314,0.00701543,2.03881,-0.00996382,0.198151,5.35781,3.3596,-3.22268,-0.304832,2.21125,2.25675,-0.339561,2.24509,0.338198,0.452713,-0.668368,0.0642378,
-0.00430153,-0.0467687,0.485268,-1.57767,-0.237966,-0.19101,0.525205,-0.173337,0.0497404,-0.180101,-0.0637489,-0.663347,0.268177,-0.0183495,0,0,0,0,0,0,0,0.0201061,-0.0554451,0.510882,-1.56599,-0.0591419,1.48096,1.31761,-0.0291712,0.00278027,-0.035879,-0.0208243,-0.395286,-0.478386,-0.00428063,-1.05969,-27.032,-2.18505,25.9314,0.00701543,2.03881,-0.00996382,0.198151,5.35781,3.3596,-3.22268,-0.304832,2.21125,2.25675,-0.339561,2.24509,0.338198,0.452713,-0.668368,0.0642378,
-0.00500092,-0.0465775,0.484541,-1.57792,-0.240269,-0.189715,0.525135,-0.174848,0.0478002,-0.181626,-0.0628143,-0.575877,0.323794,-0.0177029,0,0,0,0,0,0,0,0.0201061,-0.0554451,0.510882,-1.56599,-0.0591419,1.48096,1.31761,-0.0291712,0.00278027,-0.035879,-0.0208243,-0.395286,-0.478386,-0.00428063,-1.05969,-27.032,-2.18505,25.9314,0.00701543,2.03881,-0.00996382,-1.02789,4.16864,2.03167,-2.48745,-0.708914,2.04253,2.07344,-0.3435,2.07163,0.0608294,0.590797,-0.607954,0.0330939,
-0.00570622,-0.0463945,0.483809,-1.57816,-0.242194,-0.188189,0.525066,-0.176326,0.0457418,-0.183107,-0.0619423,-0.481179,0.381423,-0.0171077,0,0,0,0,0,0,0,0.0201061,-0.0554451,0.510882,-1.56599,-0.0591419,1.48096,1.31761,-0.0291712,0.00278027,-0.035879,-0.0208243,-0.395286,-0.478386,-0.00428063,-1.05969,-27.032,-2.18505,25.9314,0.00701543,2.03881,-0.00996382,0.991275,1.5298,2.1575,-0.936227,0.26028,0.336938,0.378717,-0.060583,0.320797,0.228166,-0.0840511,-0.429352,0.0204416,
-0.00641731,-0.0462203,0.483071,-1.57841,-0.243709,-0.186425,0.525,-0.177773,0.0435602,-0.184549,-0.0611245,-0.378651,0.441027,-0.0165673,0,0,0,0,0,0,0,0.0191992,-0.0555384,0.509582,-1.56695,-0.085495,1.46482,1.31726,-0.0218305,-0.0124485,-0.0352235,-0.0526985,-0.793976,-0.396907,-0.00192326,-3.82489,-25.3618,-4.66063,26.951,-1.42762,3.77556,0.0101778,0.991275,1.5298,2.1575,-0.936227,0.26028,0.336938,0.378717,-0.060583,0.320797,0.228166,-0.0840511,-0.429352,0.0204416,
-0.00713399,-0.0460552,0.482327,-1.57865,-0.24478,-0.184415,0.524936,-0.17917,0.0412611,-0.185931,-0.0603402,-0.267784,0.502407,-0.0160868,0,0,0,0,0,0,0,0.0191992,-0.0555384,0.509582,-1.56695,-0.085495,1.46482,1.31726,-0.0218305,-0.0124485,-0.0352235,-0.0526985,-0.793976,-0.396907,-0.00192326,-3.82489,-25.3618,-4.66063,26.951,-1.42762,3.77556,0.0101778,4.3771,1.16284,1.52858,-0.988199,2.61258,-0.704482,-0.660549,1.16708,-0.71297,-0.0229269,-0.468875,-0.151656,0.0119907,
-0.00785582,-0.0458997,0.481578,-1.57889,-0.245373,-0.182155,0.524873,-0.180456,0.0388693,-0.187192,-0.0595473,-0.148365,0.565086,-0.0156834,0,0,0,0,0,0,0,0.0191992,-0.0555384,0.509582,-1.56695,-0.085495,1.46482,1.31726,-0.0218305,-0.0124485,-0.0352235,-0.0526985,-0.793976,-0.396907,-0.00192326,-3.82489,-25.3618,-4.66063,26.951,-1.42762,3.77556,0.0101778,4.3771,1.16284,1.52858,-0.988199,2.61258,-0.704482,-0.660549,1.16708,-0.71297,-0.0229269,-0.468875,-0.151656,0.0119907,
-0.00858178,-0.045754,0.480826,-1.57912,-0.245457,-0.179643,0.524811,-0.181491,0.0364426,-0.188195,-0.058665,-0.0208465,0.628108,-0.0153721,0,0,0,0,0,0,0,0.0191992,-0.0555384,0.509582,-1.56695,-0.085495,1.46482,1.31726,-0.0218305,-0.0124485,-0.0352235,-0.0526985,-0.793976,-0.396907,-0.00192326,-3.82489,-25.3618,-4.66063,26.951,-1.42762,3.77556,0.0101778,3.9479,2.22456,1.03566,-1.63026,2.439,-0.0748013,-0.0433014,1.14095,-0.0560657,-0.0409618,-0.242636,0.0306585,0.0023039,
-0.00930979,-0.0456176,0.480071,-1.57935,-0.245004,-0.176884,0.524751,-0.182002,0.0340949,-0.18867,-0.0575423,0.113041,0.689723,-0.0151772,0,0,0,0,0,0,0,0.0191992,-0.0555384,0.509582,-1.56695,-0.085495,1.46482,1.31726,-0.0218305,-0.0124485,-0.0352235,-0.0526985,-0.793976,-0.396907,-0.00192326,-3.82489,-25.3618,-4.66063,26.951,-1.42762,3.77556,0.0101778,3.66939,2.75644,1.00395,-1.92598,2.06155,0.294493,0.32332,0.857775,0.322368,0.165544,-0.229039,0.253211,-0.0140737,
-0.0100357,-0.0454895,0.479318,-1.57958,-0.244007,-0.173896,0.52469,-0.181489,0.0320333,-0.188129,-0.0559101,0.249285,0.746911,-0.0151571,0,0,0,0,0,0,0,0.0175175,-0.0561788,0.50749,-1.56907,-0.106934,1.45528,1.3171,-0.0746141,-0.0157015,-0.0923965,-0.0768326,-0.549724,-0.243806,-0.000756496,-2.53155,-25.7625,-3.68468,27.3755,-0.951542,4.24615,-0.00996382,3.66939,2.75644,1.00395,-1.92598,2.06155,0.294493,0.32332,0.857775,0.322368,0.165544,-0.229039,0.253211,-0.0140737,
-0.0107522,-0.045367,0.478575,-1.57979,-0.242486,-0.170717,0.524628,-0.179105,0.0306111,-0.185734,-0.0533049,0.380186,0.794749,-0.0154267,0,0,0,0,0,0,0,0.0175175,-0.0561788,0.50749,-1.56907,-0.106934,1.45528,1.3171,-0.0746141,-0.0157015,-0.0923965,-0.0768326,-0.549724,-0.243806,-0.000756496,-2.53155,-25.7625,-3.68468,27.3755,-0.951542,4.24615,-0.00996382,3.35938,1.16897,1.71817,-0.788159,1.2388,-0.294996,-0.268274,0.126992,-0.297904,0.692763,-0.584206,0.40667,-0.0219689,
-0.0114462,-0.0452454,0.477855,-1.57999,-0.240516,-0.167414,0.524563,-0.173514,0.0304118,-0.180167,-0.0489334,0.492726,0.825704,-0.0162542,0,0,0,0,0,0,0,0.0175175,-0.0561788,0.50749,-1.56907,-0.106934,1.45528,1.3171,-0.0746141,-0.0157015,-0.0923965,-0.0768326,-0.549724,-0.243806,-0.000756496,-2.53155,-25.7625,-3.68468,27.3755,-0.951542,4.24615,-0.00996382,3.35938,1.16897,1.71817,-0.788159,1.2388,-0.294996,-0.268274,0.126992,-0.297904,0.692763,-0.584206,0.40667,-0.0219689,
-0.0120972,-0.0451155,0.477177,-1.58015,-0.238247,-0.1641,0.52449,-0.162754,0.0324597,-0.169478,-0.0412726,0.567192,0.828605,-0.0182324,0,0,0,0,0,0,0,0.0175175,-0.0561788,0.50749,-1.56907,-0.106934,1.45528,1.3171,-0.0746141,-0.0157015,-0.0923965,-0.0768326,-0.549724,-0.243806,-0.000756496,-2.53155,-25.7625,-3.68468,27.3755,-0.951542,4.24615,-0.00996382,3.96602,0.593573,1.39927,-0.495434,1.76474,-0.70726,-0.67591,0.448973,-0.720038,0.551892,-0.668672,0.412008,-0.0224569,
-0.012673,-0.0449595,0.476574,-1.58026,-0.235945,-0.160959,0.524403,-0.143934,0.0390186,-0.15078,-0.0265169,0.57557,0.785123,-0.0218432,0,0,0,0,0,0,0,0.0175175,-0.0561788,0.50749,-1.56907,-0.106934,1.45528,1.3171,-0.0746141,-0.0157015,-0.0923965,-0.0768326,-0.549724,-0.243806,-0.000756496,-2.53155,-25.7625,-3.68468,27.3755,-0.951542,4.24615,-0.00996382,3.96602,0.593573,1.39927,-0.495434,1.76474,-0.70726,-0.67591,0.448973,-0.720038,0.551892,-0.668672,0.412008,-0.0224569,
-0.0131212,-0.044733,0.476099,-1.58023,-0.234045,-0.15834,0.524351,-0.112062,0.0566115,-0.118705,0.00721127,0.474803,0.654805,-0.0130015,0,0,0,0,0,0,0,0.0175175,-0.0561788,0.50749,-1.56907,-0.106934,1.45528,1.3171,-0.0746141,-0.0157015,-0.0923965,-0.0768326,-0.549724,-0.243806,-0.000756496,-2.53155,-25.7625,-3.68468,27.3755,-0.951542,4.24615,-0.00996382,4.52698,0.515195,0.442249,-0.559729,2.60668,-0.878837,-0.842285,1.1056,-0.891674,0.142593,-0.555628,0.411271,-0.0298535,
-0.0134883,-0.0445074,0.475708,-1.58018,-0.232391,-0.156044,0.524298,-0.0917588,0.0564018,-0.0976231,0.0118138,0.41367,0.573899,-0.0131757,0,0,0,0,0,0,0,0.0144647,-0.0565399,0.503526,-1.57192,-0.114156,1.453,1.31703,-0.103753,-0.0105687,-0.137148,-0.0791694,-0.0508199,0.013576,0.000814528,-1.46435,-25.8855,-2.51036,26.5543,0.722042,3.60345,-0.00996382,3.54302,-0.352744,-0.0677504,0.0552195,2.14483,-1.00907,-0.976122,0.966712,-1.03634,0.0412267,-0.445248,0.372654,-0.0313228,
-0.0137975,-0.0443018,0.475378,-1.58015,-0.23089,-0.153983,0.524244,-0.0773044,0.0514014,-0.0825881,0.0089745,0.37509,0.515331,-0.0135809,0,0,0,0,0,0,0,0.0144647,-0.0565399,0.503526,-1.57192,-0.114156,1.453,1.31703,-0.103753,-0.0105687,-0.137148,-0.0791694,-0.0508199,0.013576,0.000814528,-1.46435,-25.8855,-2.51036,26.5543,0.722042,3.60345,-0.00996382,3.54302,-0.352744,-0.0677504,0.0552195,2.14483,-1.00907,-0.976122,0.966712,-1.03634,0.0412267,-0.445248,0.372654,-0.0313228,
-0.0140632,-0.0441195,0.475093,-1.58013,-0.229488,-0.152105,0.524189,-0.0664312,0.0455731,-0.0712991,0.0049705,0.350655,0.469515,-0.0138307,0,0,0,0,0,0,0,0.0144647,-0.0565399,0.503526,-1.57192,-0.114156,1.453,1.31703,-0.103753,-0.0105687,-0.137148,-0.0791694,-0.0508199,0.013576,0.000814528,-1.46435,-25.8855,-2.51036,26.5543,0.722042,3.60345,-0.00996382,1.39275,-0.469482,0.310219,0.364871,0.56792,-0.510801,-0.48337,0.102404,-0.548014,0.293601,-0.231444,0.282708,-0.0292314,
-0.0142952,-0.0439592,0.474843,-1.58012,-0.228145,-0.150375,0.524133,-0.0579913,0.0400769,-0.0625632,0.00143287,0.335546,0.43248,-0.0139888,0,0,0,0,0,0,0,0.0144647,-0.0565399,0.503526,-1.57192,-0.114156,1.453,1.31703,-0.103753,-0.0105687,-0.137148,-0.0791694,-0.0508199,0.013576,0.000814528,-1.46435,-25.8855,-2.51036,26.5543,0.722042,3.60345,-0.00996382,1.39275,-0.469482,0.310219,0.364871,0.56792,-0.510801,-0.48337,0.102404,-0.548014,0.293601,-0.231444,0.282708,-0.0292314,
-0.0145004,-0.0438184,0.47462,-1.58012,-0.226839,-0.148766,0.524076,-0.0513034,0.035204,-0.0556643,-0.00135793,0.326706,0.402165,-0.0140963,0,0,0,0,0,0,0,0.0144647,-0.0565399,0.503526,-1.57192,-0.114156,1.453,1.31703,-0.103753,-0.0105687,-0.137148,-0.0791694,-0.0508199,0.013576,0.000814528,-1.46435,-25.8855,-2.51036,26.5543,0.722042,3.60345,-0.00996382,1.14161,0.380072,-0.07661,-0.169146,0.688242,-0.0680337,-0.0421343,0.309241,-0.0903571,0.0920304,0.0198512,0.244393,-0.0296799,
-0.014684,-0.0436945,0.474419,-1.58014,-0.22555,-0.147258,0.52402,-0.0459179,0.0309792,-0.0501281,-0.00347691,0.322085,0.377238,-0.0141729,0,0,0,0,0,0,0,0.0107873,-0.0559186,0.498969,-1.5734,-0.113853,1.45524,1.31699,-0.120099,0.0265663,-0.140668,-0.0153021,-0.0196303,0.0696143,0.000693061,0.919986,-27.4327,0.0366345,26.3281,0.9967,3.33153,-0.0365141,1.01507,0.929232,-1.20998,-0.692274,1.18514,0.211065,0.235972,0.851564,0.207899,-0.412239,0.22591,0.184283,-0.0282687,
-0.0148501,-0.0435851,0.474237,-1.58016,-0.224269,-0.145831,0.523963,-0.0415205,0.0273494,-0.0456224,-0.00506438,0.320273,0.35671,-0.0142294,0,0,0,0,0,0,0,0.0107873,-0.0559186,0.498969,-1.5734,-0.113853,1.45524,1.31699,-0.120099,0.0265663,-0.140668,-0.0153021,-0.0196303,0.0696143,0.000693061,0.919986,-27.4327,0.0366345,26.3281,0.9967,3.33153,-0.0365141,1.01507,0.929232,-1.20998,-0.692274,1.18514,0.211065,0.235972,0.851564,0.207899,-0.412239,0.22591,0.184283,-0.0282687,
-0.0289941,-0.0320814,0.45929,-1.58737,-0.221775,-0.272228,0.513631,-0.33732,0.17612,-0.352755,-0.141198,-1.23384,-1.10706,-0.0749616,0,0,0,0,0,0,0,0.0107873,-0.0559186,0.498969,-1.5734,-0.113853,1.45524,1.31699,-0.120099,0.0265663,-0.140668,-0.0153021,-0.0196303,0.0696143,0.000693061,0.919986,-27.4327,0.0366345,26.3281,0.9967,3.33153,-0.0365141,0.526316,1.1045,-1.75879,-0.906724,1.17226,0.41168,0.438326,1.00252,0.415131,-0.687449,0.331452,0.0819597,-0.0303458,
-0.0231258,-0.0421729,0.463559,-1.58497,-0.23109,-0.174141,0.522904,-0.200358,0.0778033,-0.208301,-0.0652022,-0.100516,-0.261553,-0.0323905,0,0,0,0,0,0,0,0.0107873,-0.0559186,0.498969,-1.5734,-0.113853,1.45524,1.31699,-0.120099,0.0265663,-0.140668,-0.0153021,-0.0196303,0.0696143,0.000693061,0.919986,-27.4327,0.0366345,26.3281,0.9967,3.33153,-0.0365141,0.526316,1.1045,-1.75879,-0.906724,1.17226,0.41168,0.438326,1.00252,0.415131,-0.687449,0.331452,0.0819597,-0.0303458,
-0.0239278,-0.0418679,0.462725,-1.58522,-0.2312,-0.175098,0.522777,-0.200518,0.0762502,-0.208457,-0.0645779,-0.0274925,-0.239371,-0.0316696,0,0,0,0,0,0,0,0.0107873,-0.0559186,0.498969,-1.5734,-0.113853,1.45524,1.31699,-0.120099,0.0265663,-0.140668,-0.0153021,-0.0196303,0.0696143,0.000693061,0.919986,-27.4327,0.0366345,26.3281,0.9967,3.33153,-0.0365141,-1.8303,1.59503,-1.59928,-1.15473,-0.323052,1.21532,1.24942,0.291811,1.2151,-0.683887,0.569652,-0.162932,-0.0300663,
-0.0247309,-0.0415697,0.46189,-1.58548,-0.230998,-0.175962,0.522654,-0.200753,0.0745595,-0.208687,-0.0639566,0.0507056,-0.216023,-0.0309673,0,0,0,0,0,0,0,0.00675358,-0.0548916,0.49469,-1.57343,-0.114984,1.45885,1.31694,-0.135552,0.0388522,-0.137488,-0.0121758,-0.0813984,0.141177,-0.003154,1.09455,-28.0556,0.0128308,25.9314,0.526119,2.21093,-0.0301054,-1.8303,1.59503,-1.59928,-1.15473,-0.323052,1.21532,1.24942,0.291811,1.2151,-0.683887,0.569652,-0.162932,-0.0300663,
-0.0255352,-0.0412788,0.461054,-1.58573,-0.230459,-0.176728,0.522532,-0.20108,0.0727205,-0.209004,-0.0633487,0.13473,-0.191377,-0.0302887,0,0,0,0,0,0,0,0.00675358,-0.0548916,0.49469,-1.57343,-0.114984,1.45885,1.31694,-0.135552,0.0388522,-0.137488,-0.0121758,-0.0813984,0.141177,-0.003154,1.09455,-28.0556,0.0128308,25.9314,0.526119,2.21093,-0.0301054,-3.95853,4.62718,-0.930576,-2.91162,-2.03376,3.16034,3.19558,-0.706056,3.19598,-0.298828,0.979903,-0.0765513,-0.0311208,
-0.0263412,-0.0409959,0.460217,-1.58598,-0.229558,-0.177389,0.522414,-0.201511,0.0707227,-0.209425,-0.0627684,0.225281,-0.165264,-0.0296353,0,0,0,0,0,0,0,0.00675358,-0.0548916,0.49469,-1.57343,-0.114984,1.45885,1.31694,-0.135552,0.0388522,-0.137488,-0.0121758,-0.0813984,0.141177,-0.003154,1.09455,-28.0556,0.0128308,25.9314,0.526119,2.21093,-0.0301054,-2.43721,3.43072,-1.8121,-2.40498,-0.589252,2.21704,2.23346,0.227454,2.26594,-0.788937,0.777666,-0.153236,-0.0332159,
-0.0271495,-0.0407217,0.459377,-1.58623,-0.228265,-0.177939,0.522298,-0.202058,0.0685566,-0.209957,-0.062234,0.32308,-0.137474,-0.0290126,0,0,0,0,0,0,0,0.00675358,-0.0548916,0.49469,-1.57343,-0.114984,1.45885,1.31694,-0.135552,0.0388522,-0.137488,-0.0121758,-0.0813984,0.141177,-0.003154,1.09455,-28.0556,0.0128308,25.9314,0.526119,2.21093,-0.0301054,-2.43721,3.43072,-1.8121,-2.40498,-0.589252,2.21704,2.23346,0.227454,2.26594,-0.788937,0.777666,-0.153236,-0.0332159,
-0.0279603,-0.0404568,0.458535,-1.58648,-0.22655,-0.17837,0.522184,-0.202721,0.0662143,-0.210603,-0.0617702,0.42883,-0.107742,-0.0284291,0,0,0,0,0,0,0,0.00675358,-0.0548916,0.49469,-1.57343,-0.114984,1.45885,1.31694,-0.135552,0.0388522,-0.137488,-0.0121758,-0.0813984,0.141177,-0.003154,1.09455,-28.0556,0.0128308,25.9314,0.526119,2.21093,-0.0301054,0.669177,1.5329,-1.67276,-1.40772,1.56082,0.542796,0.579945,1.34106,0.554277,-1.05836,0.293283,-0.289441,-0.0424117,
-0.0287743,-0.040202,0.457689,-1.58673,-0.224377,-0.178673,0.522073,-0.203487,0.0636926,-0.211349,-0.0614088,0.543123,-0.075742,-0.0278937,0,0,0,0,0,0,0,0.00675358,-0.0548916,0.49469,-1.57343,-0.114984,1.45885,1.31694,-0.135552,0.0388522,-0.137488,-0.0121758,-0.0813984,0.141177,-0.003154,1.09455,-28.0556,0.0128308,25.9314,0.526119,2.21093,-0.0301054,0.669177,1.5329,-1.67276,-1.40772,1.56082,0.542796,0.579945,1.34106,0.554277,-1.05836,0.293283,-0.289441,-0.0424117,
-0.0295888,-0.0399568,0.456843,-1.58697,-0.22174,-0.178839,0.521963,-0.203636,0.0613047,-0.211544,-0.0610117,0.659411,-0.0414752,-0.0274178,0,0,0,0,0,0,0,0.00177788,-0.0539121,0.489458,-1.57369,-0.123628,1.45753,1.31647,-0.133133,0.0155312,-0.162568,-0.016328,-0.123395,-0.0465432,-0.00347782,-1.66668,-27.3811,-2.7603,25.5585,-0.530399,1.81267,-0.110672,1.17903,-0.754129,-0.84936,0.0606051,1.56921,-0.65148,-0.609858,1.17803,-0.680209,-0.865374,-0.125047,-0.46961,-0.0546198,
-0.0303904,-0.0397161,0.456008,-1.58721,-0.218745,-0.178862,0.521855,-0.200399,0.0601852,-0.20862,-0.060079,0.748591,-0.0058084,-0.0270098,0,0,0,0,0,0,0,0.00177788,-0.0539121,0.489458,-1.57369,-0.123628,1.45753,1.31647,-0.133133,0.0155312,-0.162568,-0.016328,-0.123395,-0.0465432,-0.00347782,-1.66668,-27.3811,-2.7603,25.5585,-0.530399,1.81267,-0.110672,1.17903,-0.754129,-0.84936,0.0606051,1.56921,-0.65148,-0.609858,1.17803,-0.680209,-0.865374,-0.125047,-0.46961,-0.0546198,
-0.031171,-0.0394792,0.455194,-1.58745,-0.215474,-0.178727,0.521748,-0.195146,0.0592101,-0.203557,-0.0597956,0.817784,0.033804,-0.0267913,0,0,0,0,0,0,0,0.00177788,-0.0539121,0.489458,-1.57369,-0.123628,1.45753,1.31647,-0.133133,0.0155312,-0.162568,-0.016328,-0.123395,-0.0465432,-0.00347782,-1.66668,-27.3811,-2.7603,25.5585,-0.530399,1.81267,-0.110672,0.177954,-1.86891,-0.445299,0.805325,0.775842,-0.935473,-0.906094,0.717821,-0.971848,-0.766795,-0.235312,-0.664282,-0.0604614,
-0.0319252,-0.0392473,0.454406,-1.58769,-0.211987,-0.178412,0.521641,-0.188544,0.0579909,-0.197049,-0.0603269,0.871872,0.078581,-0.0267794,0,0,0,0,0,0,0,0.00177788,-0.0539121,0.489458,-1.57369,-0.123628,1.45753,1.31647,-0.133133,0.0155312,-0.162568,-0.016328,-0.123395,-0.0465432,-0.00347782,-1.66668,-27.3811,-2.7603,25.5585,-0.530399,1.81267,-0.110672,-0.164589,-1.90294,-0.185697,0.793121,0.531529,-0.88634,-0.859928,0.587715,-0.918648,-0.780355,-0.268402,-0.808096,-0.060731,
-0.0326491,-0.0390217,0.453648,-1.58794,-0.20833,-0.177896,0.521532,-0.180975,0.0563993,-0.189497,-0.061552,0.914285,0.128977,-0.0270484,0,0,0,0,0,0,0,0.00177788,-0.0539121,0.489458,-1.57369,-0.123628,1.45753,1.31647,-0.133133,0.0155312,-0.162568,-0.016328,-0.123395,-0.0465432,-0.00347782,-1.66668,-27.3811,-2.7603,25.5585,-0.530399,1.81267,-0.110672,-0.164589,-1.90294,-0.185697,0.793121,0.531529,-0.88634,-0.859928,0.587715,-0.918648,-0.780355,-0.268402,-0.808096,-0.060731,
-0.0333395,-0.0388039,0.452924,-1.58819,-0.20454,-0.177159,0.521421,-0.172605,0.0544392,-0.181067,-0.0631993,0.947393,0.18432,-0.0277694,0,0,0,0,0,0,0,-0.00473821,-0.052846,0.481782,-1.57463,-0.119035,1.45707,1.31635,-0.179959,0.0154426,-0.190473,-0.0287204,0.293682,-0.000518086,-0.00697604,-0.603451,-27.2344,-1.56218,25.6577,0.685421,2.09832,-0.0429228,0.415609,-1.96603,-0.225356,0.73354,0.967622,-1.05784,-1.03582,0.830557,-1.08113,-0.878184,-0.366306,-0.840352,-0.0635001,
-0.033993,-0.0385949,0.452237,-1.58845,-0.200649,-0.176192,0.521304,-0.163385,0.0522627,-0.171688,-0.064734,0.972679,0.24187,-0.0292934,0,0,0,0,0,0,0,-0.00473821,-0.052846,0.481782,-1.57463,-0.119035,1.45707,1.31635,-0.179959,0.0154426,-0.190473,-0.0287204,0.293682,-0.000518086,-0.00697604,-0.603451,-27.2344,-1.56218,25.6577,0.685421,2.09832,-0.0429228,0.415609,-1.96603,-0.225356,0.73354,0.967622,-1.05784,-1.03582,0.830557,-1.08113,-0.878184,-0.366306,-0.840352,-0.0635001,
-0.034605,-0.0383935,0.451593,-1.58871,-0.196686,-0.17501,0.521175,-0.152981,0.0503314,-0.16099,-0.0650043,0.990764,0.295448,-0.0322622,0,0,0,0,0,0,0,-0.00473821,-0.052846,0.481782,-1.57463,-0.119035,1.45707,1.31635,-0.179959,0.0154426,-0.190473,-0.0287204,0.293682,-0.000518086,-0.00697604,-0.603451,-27.2344,-1.56218,25.6577,0.685421,2.09832,-0.0429228,0.632962,-1.51993,-0.0912584,0.491625,1.11427,-0.903359,-0.88016,0.904308,-0.922947,-0.865034,-0.294445,-0.838192,-0.0670283,
-0.0351674,-0.0381936,0.451001,-1.58895,-0.192681,-0.173679,0.521028,-0.140605,0.0499869,-0.148128,-0.0611243,1.00121,0.332666,-0.0368832,0,0,0,0,0,0,0,-0.00473821,-0.052846,0.481782,-1.57463,-0.119035,1.45707,1.31635,-0.179959,0.0154426,-0.190473,-0.0287204,0.293682,-0.000518086,-0.00697604,-0.603451,-27.2344,-1.56218,25.6577,0.685421,2.09832,-0.0429228,1.27668,-1.03612,-1.29174,-0.0175692,2.20843,-0.834966,-0.809771,1.78116,-0.837504,-1.47033,-0.139718,-0.908113,-0.0705282,
-0.0356341,-0.0379578,0.450505,-1.58912,-0.188998,-0.172398,0.520919,-0.116688,0.058942,-0.123967,-0.0420221,0.920938,0.320298,-0.0272383,0,0,0,0,0,0,0,-0.00473821,-0.052846,0.481782,-1.57463,-0.119035,1.45707,1.31635,-0.179959,0.0154426,-0.190473,-0.0287204,0.293682,-0.000518086,-0.00697604,-0.603451,-27.2344,-1.56218,25.6577,0.685421,2.09832,-0.0429228,1.27668,-1.03612,-1.29174,-0.0175692,2.20843,-0.834966,-0.809771,1.78116,-0.837504,-1.47033,-0.139718,-0.908113,-0.0705282,
-0.0360349,-0.037724,0.450077,-1.58927,-0.185521,-0.171103,0.52081,-0.100188,0.0584669,-0.106949,-0.0372756,0.869172,0.323734,-0.0271202,0,0,0,0,0,0,0,-0.00473821,-0.052846,0.481782,-1.57463,-0.119035,1.45707,1.31635,-0.179959,0.0154426,-0.190473,-0.0287204,0.293682,-0.000518086,-0.00697604,-0.603451,-27.2344,-1.56218,25.6577,0.685421,2.09832,-0.0429228,-0.612426,-1.44751,-1.28567,0.404399,0.902085,-0.572755,-0.554232,1.10602,-0.584121,-1.33056,0.00749078,-0.956344,-0.0708915,
-0.0363865,-0.0375033,0.4497,-1.58941,-0.182181,-0.169779,0.5207,-0.0878909,0.0551706,-0.0942751,-0.0362196,0.834956,0.33108,-0.0274472,0,0,0,0,0,0,0,-0.0104324,-0.0522713,0.475624,-1.5752,-0.106592,1.45763,1.31632,-0.181185,0.0306342,-0.204749,-0.017205,0.440054,0.055329,-0.00639731,0.94379,-28.2579,-0.0109729,25.4077,1.09466,2.14501,-0.0301054,-0.612426,-1.44751,-1.28567,0.404399,0.902085,-0.572755,-0.554232,1.10602,-0.584121,-1.33056,0.00749078,-0.956344,-0.0708915,
-0.0366999,-0.0372986,0.449362,-1.58956,-0.178932,-0.168424,0.52059,-0.0783693,0.0511651,-0.0844892,-0.0358051,0.812301,0.33879,-0.0276891,0,0,0,0,0,0,0,-0.0104324,-0.0522713,0.475624,-1.5752,-0.106592,1.45763,1.31632,-0.181185,0.0306342,-0.204749,-0.017205,0.440054,0.055329,-0.00639731,0.94379,-28.2579,-0.0109729,25.4077,1.09466,2.14501,-0.0301054,-2.62314,-1.79304,-0.739978,0.91351,-0.726463,-0.261718,-0.247278,0.15158,-0.290728,-0.951763,0.168607,-0.979173,-0.0695662,
-0.0369832,-0.03711,0.449055,-1.5897,-0.175742,-0.16704,0.520478,-0.0708184,0.0471397,-0.0767551,-0.0352705,0.797508,0.345891,-0.0278607,0,0,0,0,0,0,0,-0.0104324,-0.0522713,0.475624,-1.5752,-0.106592,1.45763,1.31632,-0.181185,0.0306342,-0.204749,-0.017205,0.440054,0.055329,-0.00639731,0.94379,-28.2579,-0.0109729,25.4077,1.09466,2.14501,-0.0301054,-2.68675,-2.01536,-0.530033,1.20512,-0.8409,-0.361653,-0.346933,0.0619038,-0.401777,-0.83856,0.243518,-0.961079,-0.0677512,
-0.0372421,-0.0369368,0.448773,-1.58984,-0.172589,-0.165631,0.520366,-0.0647235,0.0433223,-0.0705341,-0.0345078,0.788115,0.352185,-0.0279872,0,0,0,0,0,0,0,-0.0104324,-0.0522713,0.475624,-1.5752,-0.106592,1.45763,1.31632,-0.181185,0.0306342,-0.204749,-0.017205,0.440054,0.055329,-0.00639731,0.94379,-28.2579,-0.0109729,25.4077,1.09466,2.14501,-0.0301054,-2.68675,-2.01536,-0.530033,1.20512,-0.8409,-0.361653,-0.346933,0.0619038,-0.401777,-0.83856,0.243518,-0.961079,-0.0677512,
-0.037481,-0.0367776,0.448511,-1.58997,-0.16946,-0.1642,0.520254,-0.0597297,0.0397858,-0.0654545,-0.0335719,0.782427,0.357696,-0.0280832,0,0,0,0,0,0,0,-0.0104324,-0.0522713,0.475624,-1.5752,-0.106592,1.45763,1.31632,-0.181185,0.0306342,-0.204749,-0.017205,0.440054,0.055329,-0.00639731,0.94379,-28.2579,-0.0109729,25.4077,1.09466,2.14501,-0.0301054,-2.10672,-1.59397,-1.34851,0.837528,-0.069963,-0.300505,-0.287632,0.637007,-0.326544,-1.17575,0.349067,-0.917166,-0.0655858,
-0.0377034,-0.0366314,0.448266,-1.5901,-0.166343,-0.16275,0.520141,-0.055583,0.0365467,-0.0612502,-0.0325393,0.779258,0.362504,-0.0281577,0,0,0,0,0,0,0,-0.015348,-0.0510833,0.469708,-1.57556,-0.0945246,1.45999,1.31631,-0.155373,0.0375195,-0.183795,0.00477784,0.351303,0.0686829,-0.0047111,1.88404,-28.7816,1.01259,25.1855,0.923458,2.8875,-0.050247,-2.10672,-1.59397,-1.34851,0.837528,-0.069963,-0.300505,-0.287632,0.637007,-0.326544,-1.17575,0.349067,-0.917166,-0.0655858,
-0.0415723,-0.0352737,0.444435,-1.59653,-0.281738,-0.288719,0.51166,-0.316363,0.141562,-0.328951,-0.150072,-1.20679,-0.827756,-0.0856271,0,0,0,0,0,0,0,-0.015348,-0.0510833,0.469708,-1.57556,-0.0945246,1.45999,1.31631,-0.155373,0.0375195,-0.183795,0.00477784,0.351303,0.0686829,-0.0047111,1.88404,-28.7816,1.01259,25.1855,0.923458,2.8875,-0.050247,-1.82006,-0.238585,-1.95716,-0.0549848,0.259133,0.294117,0.303051,0.86326,0.293779,-1.25491,0.515199,-0.682308,-0.0625236,
-0.0447694,-0.0434201,0.438947,-1.58991,-0.200588,-0.0962861,0.520386,-0.156763,0.0322556,-0.163871,-0.0806054,-0.439198,0.579937,-0.0465923,0,0,0,0,0,0,0,-0.015348,-0.0510833,0.469708,-1.57556,-0.0945246,1.45999,1.31631,-0.155373,0.0375195,-0.183795,0.00477784,0.351303,0.0686829,-0.0047111,1.88404,-28.7816,1.01259,25.1855,0.923458,2.8875,-0.050247,-1.82006,-0.238585,-1.95716,-0.0549848,0.259133,0.294117,0.303051,0.86326,0.293779,-1.25491,0.515199,-0.682308,-0.0625236,
-0.045395,-0.0432947,0.438293,-1.59023,-0.202218,-0.0938219,0.520203,-0.156378,0.0313424,-0.163486,-0.0804432,-0.40739,0.616057,-0.0458937,0,0,0,0,0,0,0,-0.015348,-0.0510833,0.469708,-1.57556,-0.0945246,1.45999,1.31631,-0.155373,0.0375195,-0.183795,0.00477784,0.351303,0.0686829,-0.0047111,1.88404,-28.7816,1.01259,25.1855,0.923458,2.8875,-0.050247,-1.70673,1.39804,-2.29062,-1.01033,0.279892,1.07872,1.086,0.837843,1.09952,-1.12154,0.735739,-0.344613,-0.0666041,
-0.0460191,-0.043173,0.43764,-1.59056,-0.203712,-0.0912055,0.520022,-0.156046,0.0304376,-0.163151,-0.0803388,-0.37353,0.654104,-0.0452147,0,0,0,0,0,0,0,-0.015348,-0.0510833,0.469708,-1.57556,-0.0945246,1.45999,1.31631,-0.155373,0.0375195,-0.183795,0.00477784,0.351303,0.0686829,-0.0047111,1.88404,-28.7816,1.01259,25.1855,0.923458,2.8875,-0.050247,-2.70005,4.28797,-1.92426,-2.6658,-0.73954,2.71245,2.72263,0.135034,2.7608,-0.683576,1.08132,-0.0171656,-0.0703965,
-0.0466422,-0.0430548,0.436988,-1.59088,-0.205061,-0.0884288,0.519844,-0.155776,0.0295359,-0.162876,-0.0802913,-0.33726,0.694163,-0.0445625,0,0,0,0,0,0,0,-0.015348,-0.0510833,0.469708,-1.57556,-0.0945246,1.45999,1.31631,-0.155373,0.0375195,-0.183795,0.00477784,0.351303,0.0686829,-0.0047111,1.88404,-28.7816,1.01259,25.1855,0.923458,2.8875,-0.050247,-2.70005,4.28797,-1.92426,-2.6658,-0.73954,2.71245,2.72263,0.135034,2.7608,-0.683576,1.08132,-0.0171656,-0.0703965,
-0.0472646,-0.0429403,0.436338,-1.5912,-0.206253,-0.0854836,0.519668,-0.155577,0.0286324,-0.162668,-0.0802993,-0.298161,0.736301,-0.0439389,0,0,0,0,0,0,0,-0.0209608,-0.0501188,0.463505,-1.57598,-0.0877228,1.4592,1.31614,-0.162308,0.0259931,-0.191173,-0.0219444,-0.0967859,-0.125139,-0.0151402,-3.97564,-27.881,-4.58525,22.9678,-1.37909,2.70806,-0.0566557,-2.08166,2.41841,-2.262,-1.5371,-0.112268,1.67576,1.67335,0.565135,1.71305,-0.923726,0.897272,-0.148312,-0.0789757,
-0.0478864,-0.0428294,0.435688,-1.59152,-0.207276,-0.0823613,0.519495,-0.155459,0.0277224,-0.162538,-0.0803612,-0.255751,0.780572,-0.0433481,0,0,0,0,0,0,0,-0.0209608,-0.0501188,0.463505,-1.57598,-0.0877228,1.4592,1.31614,-0.162308,0.0259931,-0.191173,-0.0219444,-0.0967859,-0.125139,-0.0151402,-3.97564,-27.881,-4.58525,22.9678,-1.37909,2.70806,-0.0566557,-2.08166,2.41841,-2.262,-1.5371,-0.112268,1.67576,1.67335,0.565135,1.71305,-0.923726,0.897272,-0.148312,-0.0789757,
-0.0485075,-0.0427209,0.435038,-1.59184,-0.208115,-0.0790735,0.519323,-0.155281,0.0271354,-0.162337,-0.0794544,-0.209769,0.821967,-0.0428045,0,0,0,0,0,0,0,-0.0209608,-0.0501188,0.463505,-1.57598,-0.0877228,1.4592,1.31614,-0.162308,0.0259931,-0.191173,-0.0219444,-0.0967859,-0.125139,-0.0151402,-3.97564,-27.881,-4.58525,22.9678,-1.37909,2.70806,-0.0566557,-1.24843,-0.491314,-2.16726,0.0554276,0.33618,0.109819,0.115021,0.75009,0.110293,-1.00475,0.275831,-0.304191,-0.0863728,
-0.0491272,-0.0426129,0.43439,-1.59214,-0.208754,-0.0756561,0.519154,-0.154932,0.0269878,-0.161956,-0.076831,-0.159745,0.85435,-0.0423275,0,0,0,0,0,0,0,-0.0209608,-0.0501188,0.463505,-1.57598,-0.0877228,1.4592,1.31614,-0.162308,0.0259931,-0.191173,-0.0219444,-0.0967859,-0.125139,-0.0151402,-3.97564,-27.881,-4.58525,22.9678,-1.37909,2.70806,-0.0566557,-1.24843,-0.491314,-2.16726,0.0554276,0.33618,0.109819,0.115021,0.75009,0.110293,-1.00475,0.275831,-0.304191,-0.0863728,
-0.0497457,-0.0425064,0.433744,-1.59244,-0.209172,-0.0721343,0.518986,-0.154624,0.0266256,-0.161618,-0.073885,-0.104454,0.880448,-0.0419177,0,0,0,0,0,0,0,-0.0209608,-0.0501188,0.463505,-1.57598,-0.0877228,1.4592,1.31614,-0.162308,0.0259931,-0.191173,-0.0219444,-0.0967859,-0.125139,-0.0151402,-3.97564,-27.881,-4.58525,22.9678,-1.37909,2.70806,-0.0566557,0.959204,-2.60815,-2.36401,1.00307,1.58013,-1.35551,-1.34668,1.26457,-1.36845,-1.02348,-0.483832,-0.130787,-0.0847758,
-0.0503635,-0.0424028,0.433098,-1.59272,-0.209344,-0.0685275,0.51882,-0.154436,0.0259094,-0.161398,-0.0710318,-0.0428988,0.901703,-0.041566,0,0,0,0,0,0,0,-0.0251451,-0.0500031,0.458824,-1.57809,-0.0953128,1.46362,1.31596,-0.119046,0.00709326,-0.155071,-0.0848268,-0.246713,0.233537,-0.00434889,-1.3374,-28.5079,-2.06206,25.9076,-0.371097,4.26629,-0.0566557,-0.538779,-2.47415,-2.51072,0.967008,0.256508,-0.91008,-0.915862,0.440583,-0.911197,-0.668394,-0.506581,0.156865,-0.0824472,
-0.0509811,-0.0423034,0.432453,-1.593,-0.20924,-0.0648512,0.518655,-0.154401,0.0248439,-0.16133,-0.0683933,0.0259105,0.91906,-0.0412803,0,0,0,0,0,0,0,-0.0251451,-0.0500031,0.458824,-1.57809,-0.0953128,1.46362,1.31596,-0.119046,0.00709326,-0.155071,-0.0848268,-0.246713,0.233537,-0.00434889,-1.3374,-28.5079,-2.06206,25.9076,-0.371097,4.26629,-0.0566557,-0.538779,-2.47415,-2.51072,0.967008,0.256508,-0.91008,-0.915862,0.440583,-0.911197,-0.668394,-0.506581,0.156865,-0.0824472,
-0.0515992,-0.0422095,0.431807,-1.59326,-0.208828,-0.0611183,0.518491,-0.154535,0.0234683,-0.161425,-0.0660115,0.102968,0.933227,-0.0410696,0,0,0,0,0,0,0,-0.0251451,-0.0500031,0.458824,-1.57809,-0.0953128,1.46362,1.31596,-0.119046,0.00709326,-0.155071,-0.0848268,-0.246713,0.233537,-0.00434889,-1.3374,-28.5079,-2.06206,25.9076,-0.371097,4.26629,-0.0566557,-0.368297,-1.07875,-2.32781,0.170708,-0.00254326,-0.228702,-0.23379,0.115556,-0.215017,-0.282285,-0.440108,0.54741,-0.0887756,
-0.0522185,-0.0421222,0.431161,-1.59352,-0.208072,-0.0573393,0.518327,-0.154822,0.0218283,-0.16167,-0.0639162,0.18912,0.94476,-0.0409463,0,0,0,0,0,0,0,-0.0251451,-0.0500031,0.458824,-1.57809,-0.0953128,1.46362,1.31596,-0.119046,0.00709326,-0.155071,-0.0848268,-0.246713,0.233537,-0.00434889,-1.3374,-28.5079,-2.06206,25.9076,-0.371097,4.26629,-0.0566557,-0.368297,-1.07875,-2.32781,0.170708,-0.00254326,-0.228702,-0.23379,0.115556,-0.215017,-0.282285,-0.440108,0.54741,-0.0887756,
-0.0528393,-0.0420423,0.430513,-1.59377,-0.206933,-0.0535229,0.518163,-0.155189,0.0199765,-0.161996,-0.0621482,0.284709,0.954103,-0.040929,0,0,0,0,0,0,0,-0.0251451,-0.0500031,0.458824,-1.57809,-0.0953128,1.46362,1.31596,-0.119046,0.00709326,-0.155071,-0.0848268,-0.246713,0.233537,-0.00434889,-1.3374,-28.5079,-2.06206,25.9076,-0.371097,4.26629,-0.0566557,1.57217,-2.01801,-1.89172,0.631677,1.06626,-1.09583,-1.09664,0.541805,-1.09221,-0.209717,-0.826846,0.590148,-0.0977599,
-0.0534611,-0.0419704,0.429864,-1.59401,-0.205377,-0.0496765,0.517999,-0.155448,0.0179896,-0.162223,-0.0607614,0.388903,0.961584,-0.0410492,0,0,0,0,0,0,0,-0.0251451,-0.0500031,0.458824,-1.57809,-0.0953128,1.46362,1.31596,-0.119046,0.00709326,-0.155071,-0.0848268,-0.246713,0.233537,-0.00434889,-1.3374,-28.5079,-2.06206,25.9076,-0.371097,4.26629,-0.0566557,1.57217,-2.01801,-1.89172,0.631677,1.06626,-1.09583,-1.09664,0.541805,-1.09221,-0.209717,-0.826846,0.590148,-0.0977599,
-0.0540819,-0.0419063,0.429216,-1.59425,-0.203383,-0.045807,0.517834,-0.155204,0.0160078,-0.161974,-0.0597949,0.498603,0.967382,-0.0413771,0,0,0,0,0,0,0,-0.0292431,-0.0501114,0.453667,-1.5815,-0.102098,1.47374,1.31588,-0.131109,-0.00157223,-0.153508,-0.107859,-0.0897519,0.382851,0.000372315,-0.500302,-27.9326,-1.23686,27.1771,-1.05591,4.30657,-0.117081,3.09033,-2.2932,-1.99103,0.602286,2.08854,-1.5531,-1.54688,1.05459,-1.5491,-0.323863,-1.08868,0.637674,-0.098161,
-0.0546968,-0.0418491,0.428574,-1.59448,-0.200955,-0.0419213,0.517665,-0.153736,0.014316,-0.160553,-0.059166,0.60704,0.971435,-0.0421094,0,0,0,0,0,0,0,-0.0292431,-0.0501114,0.453667,-1.5815,-0.102098,1.47374,1.31588,-0.131109,-0.00157223,-0.153508,-0.107859,-0.0897519,0.382851,0.000372315,-0.500302,-27.9326,-1.23686,27.1771,-1.05591,4.30657,-0.117081,3.9363,-1.58777,-2.85531,0.0319615,3.02853,-1.38383,-1.37327,1.70157,-1.36609,-0.65845,-0.994237,0.733875,-0.100038,
-0.0552963,-0.0417949,0.427946,-1.59472,-0.198145,-0.0380285,0.51749,-0.149874,0.0135453,-0.156823,-0.0583258,0.702405,0.973185,-0.0437374,0,0,0,0,0,0,0,-0.0292431,-0.0501114,0.453667,-1.5815,-0.102098,1.47374,1.31588,-0.131109,-0.00157223,-0.153508,-0.107859,-0.0897519,0.382851,0.000372315,-0.500302,-27.9326,-1.23686,27.1771,-1.05591,4.30657,-0.117081,3.9363,-1.58777,-2.85531,0.0319615,3.02853,-1.38383,-1.37327,1.70157,-1.36609,-0.65845,-0.994237,0.733875,-0.100038,
-0.0558635,-0.0417338,0.42735,-1.59494,-0.19508,-0.0341454,0.517303,-0.141792,0.0152787,-0.148991,-0.0551775,0.766327,0.97077,-0.0467027,0,0,0,0,0,0,0,-0.0292431,-0.0501114,0.453667,-1.5815,-0.102098,1.47374,1.31588,-0.131109,-0.00157223,-0.153508,-0.107859,-0.0897519,0.382851,0.000372315,-0.500302,-27.9326,-1.23686,27.1771,-1.05591,4.30657,-0.117081,2.49183,-2.10179,-2.68835,0.543998,1.97532,-1.31676,-1.30782,1.14069,-1.31535,-0.493879,-0.868929,0.689247,-0.10804,
-0.0563605,-0.0416191,0.426825,-1.59505,-0.192023,-0.0306032,0.51715,-0.124263,0.0286679,-0.131446,-0.0276595,0.764237,0.885555,-0.0382951,0,0,0,0,0,0,0,-0.0292431,-0.0501114,0.453667,-1.5815,-0.102098,1.47374,1.31588,-0.131109,-0.00157223,-0.153508,-0.107859,-0.0897519,0.382851,0.000372315,-0.500302,-27.9326,-1.23686,27.1771,-1.05591,4.30657,-0.117081,2.49183,-2.10179,-2.68835,0.543998,1.97532,-1.31676,-1.30782,1.14069,-1.31535,-0.493879,-0.868929,0.689247,-0.10804,
-0.0568092,-0.0414983,0.426348,-1.59514,-0.188929,-0.0272654,0.516997,-0.112176,0.0302054,-0.119129,-0.0221508,0.773408,0.834445,-0.0382213,0,0,0,0,0,0,0,-0.0354106,-0.0500589,0.447069,-1.58534,-0.100767,1.49498,1.31578,-0.145023,0.00215041,-0.157855,-0.0937481,0.135783,0.596007,-0.00262315,0.158268,-29.6306,-0.661608,27.8992,0.752255,4.10699,-0.0630644,1.90013,-2.16748,-2.08688,0.812781,1.41868,-1.24113,-1.23387,0.789673,-1.25075,-0.284879,-0.719817,0.613604,-0.110279,
-0.0572199,-0.041384,0.42591,-1.59523,-0.185785,-0.0240732,0.516843,-0.102668,0.0285604,-0.109425,-0.022838,0.786205,0.79807,-0.0384678,0,0,0,0,0,0,0,-0.0354106,-0.0500589,0.447069,-1.58534,-0.100767,1.49498,1.31578,-0.145023,0.00215041,-0.157855,-0.0937481,0.135783,0.596007,-0.00262315,0.158268,-29.6306,-0.661608,27.8992,0.752255,4.10699,-0.0630644,1.72525,-1.52757,-1.43414,0.675576,1.08861,-0.907703,-0.90117,0.520593,-0.920864,-0.0121184,-0.491579,0.644353,-0.108497,
-0.0575988,-0.0412788,0.425505,-1.59533,-0.182585,-0.0209941,0.516689,-0.094732,0.0263038,-0.101329,-0.0249979,0.799879,0.769754,-0.0386325,0,0,0,0,0,0,0,-0.0354106,-0.0500589,0.447069,-1.58534,-0.100767,1.49498,1.31578,-0.145023,0.00215041,-0.157855,-0.0937481,0.135783,0.596007,-0.00262315,0.158268,-29.6306,-0.661608,27.8992,0.752255,4.10699,-0.0630644,1.72525,-1.52757,-1.43414,0.675576,1.08861,-0.907703,-0.90117,0.520593,-0.920864,-0.0121184,-0.491579,0.644353,-0.108497,
-0.0579506,-0.0411822,0.425128,-1.59544,-0.179332,-0.0180068,0.516534,-0.0879272,0.0241584,-0.0943915,-0.0272713,0.813334,0.746832,-0.0387472,0,0,0,0,0,0,0,-0.0354106,-0.0500589,0.447069,-1.58534,-0.100767,1.49498,1.31578,-0.145023,0.00215041,-0.157855,-0.0937481,0.135783,0.596007,-0.00262315,0.158268,-29.6306,-0.661608,27.8992,0.752255,4.10699,-0.0630644,0.531793,-0.930685,-1.52233,0.547841,0.452103,-0.370053,-0.367151,0.284597,-0.383642,-0.0226638,-0.0965254,0.585158,-0.114825,
-0.0582786,-0.041093,0.424774,-1.59556,-0.176027,-0.0150949,0.516379,-0.082015,0.0222926,-0.088369,-0.0293081,0.826086,0.727975,-0.0388357,0,0,0,0,0,0,0,-0.0354106,-0.0500589,0.447069,-1.58534,-0.100767,1.49498,1.31578,-0.145023,0.00215041,-0.157855,-0.0937481,0.135783,0.596007,-0.00262315,0.158268,-29.6306,-0.661608,27.8992,0.752255,4.10699,-0.0630644,0.531793,-0.930685,-1.52233,0.547841,0.452103,-0.370053,-0.367151,0.284597,-0.383642,-0.0226638,-0.0965254,0.585158,-0.114825,
-0.0510061,-0.0343569,0.432299,-1.59581,-0.268399,-0.241332,0.512244,-0.189682,0.0960003,-0.199106,-0.123229,-1.1967,-0.270102,-0.0808674,0,0,0,0,0,0,0,-0.0398925,-0.0495645,0.441773,-1.58746,-0.0953621,1.51456,1.31567,-0.144809,0.0298612,-0.167267,-0.0490179,0.175409,0.631447,-0.00790279,1.4516,-30.428,0.536512,27.1771,1.5039,3.08617,-0.183914,-0.354448,-0.235081,-1.1115,0.449162,-0.229862,0.147668,0.151188,-0.0965452,0.126122,0.193248,0.279673,0.591441,-0.114148,
-0.0568787,-0.041416,0.423721,-1.59848,-0.18441,-0.0594474,0.519618,-0.0644865,0.0453573,-0.0700009,-0.0643607,-0.463679,-0.264106,-0.0508079,0,0,0,0,0,0,0,-0.0398925,-0.0495645,0.441773,-1.58746,-0.0953621,1.51456,1.31567,-0.144809,0.0298612,-0.167267,-0.0490179,0.175409,0.631447,-0.00790279,1.4516,-30.428,0.536512,27.1771,1.5039,3.08617,-0.183914,-0.354448,-0.235081,-1.1115,0.449162,-0.229862,0.147668,0.151188,-0.0965452,0.126122,0.193248,0.279673,0.591441,-0.114148,
-0.0571318,-0.0412375,0.423446,-1.59874,-0.186318,-0.0605264,0.519417,-0.0632722,0.0446036,-0.0687812,-0.0639526,-0.477067,-0.269739,-0.0503334,0,0,0,0,0,0,0,-0.0398925,-0.0495645,0.441773,-1.58746,-0.0953621,1.51456,1.31567,-0.144809,0.0298612,-0.167267,-0.0490179,0.175409,0.631447,-0.00790279,1.4516,-30.428,0.536512,27.1771,1.5039,3.08617,-0.183914,-0.317845,0.309688,-1.62695,0.154201,0.235777,0.392894,0.398536,0.352375,0.376127,-0.151489,0.55724,0.464941,-0.115295,
-0.0573801,-0.0410624,0.423175,-1.59899,-0.188283,-0.0616286,0.519217,-0.0620761,0.0437872,-0.0675797,-0.0635287,-0.491308,-0.275573,-0.0498684,0,0,0,0,0,0,0,-0.0398925,-0.0495645,0.441773,-1.58746,-0.0953621,1.51456,1.31567,-0.144809,0.0298612,-0.167267,-0.0490179,0.175409,0.631447,-0.00790279,1.4516,-30.428,0.536512,27.1771,1.5039,3.08617,-0.183914,-1.42172,2.19179,-1.64614,-0.95557,-0.273199,1.53852,1.54274,0.190762,1.54422,-0.280828,0.951536,0.314709,-0.118996,
-0.0576237,-0.0408908,0.42291,-1.59924,-0.190308,-0.0627547,0.51902,-0.0608991,0.0428993,-0.0663972,-0.0631031,-0.50629,-0.281503,-0.0494169,0,0,0,0,0,0,0,-0.0398925,-0.0495645,0.441773,-1.58746,-0.0953621,1.51456,1.31567,-0.144809,0.0298612,-0.167267,-0.0490179,0.175409,0.631447,-0.00790279,1.4516,-30.428,0.536512,27.1771,1.5039,3.08617,-0.183914,-1.42172,2.19179,-1.64614,-0.95557,-0.273199,1.53852,1.54274,0.190762,1.54422,-0.280828,0.951536,0.314709,-0.118996,
-0.0578627,-0.0407231,0.422649,-1.59949,-0.192396,-0.0639041,0.518824,-0.0597473,0.0419285,-0.065239,-0.0626953,-0.521835,-0.287351,-0.0489768,0,0,0,0,0,0,0,-0.0398925,-0.0495645,0.441773,-1.58746,-0.0953621,1.51456,1.31567,-0.144809,0.0298612,-0.167267,-0.0490179,0.175409,0.631447,-0.00790279,1.4516,-30.428,0.536512,27.1771,1.5039,3.08617,-0.183914,-0.100233,3.21241,-2.63456,-1.73443,1.29181,1.7492,1.75216,1.29525,1.7793,-0.904186,1.16425,0.218583,-0.108691,
-0.0580972,-0.0405596,0.422392,-1.59974,-0.194546,-0.0650754,0.51863,-0.0586346,0.040861,-0.0641183,-0.0623326,-0.537665,-0.292833,-0.0485502,0,0,0,0,0,0,0,-0.0442715,-0.0487407,0.436897,-1.58775,-0.0978298,1.52877,1.31549,-0.131816,0.019942,-0.129806,7.18392e-05,-0.422413,0.228045,-0.00627916,1.93164,-29.0791,1.13954,24.3365,-0.389408,2.31072,-0.137222,-0.100233,3.21241,-2.63456,-1.73443,1.29181,1.7492,1.75216,1.29525,1.7793,-0.904186,1.16425,0.218583,-0.108691,
-0.0583276,-0.0404009,0.42214,-1.59999,-0.19676,-0.0662655,0.518437,-0.0575861,0.0396789,-0.0630594,-0.0620528,-0.553351,-0.297522,-0.0481365,0,0,0,0,0,0,0,-0.0442715,-0.0487407,0.436897,-1.58775,-0.0978298,1.52877,1.31549,-0.131816,0.019942,-0.129806,7.18392e-05,-0.422413,0.228045,-0.00627916,1.93164,-29.0791,1.13954,24.3365,-0.389408,2.31072,-0.137222,0.570957,3.31721,-1.91777,-1.83082,1.44293,1.65323,1.66507,1.21938,1.67759,-0.702685,1.00482,0.208739,-0.104282,
-0.0585542,-0.0402475,0.421892,-1.60024,-0.199033,-0.0674686,0.518246,-0.0566447,0.0383594,-0.0621036,-0.0619088,-0.56824,-0.300792,-0.0477344,0,0,0,0,0,0,0,-0.0442715,-0.0487407,0.436897,-1.58775,-0.0978298,1.52877,1.31549,-0.131816,0.019942,-0.129806,7.18392e-05,-0.422413,0.228045,-0.00627916,1.93164,-29.0791,1.13954,24.3365,-0.389408,2.31072,-0.137222,0.602104,2.20656,-1.70145,-1.53351,1.40688,1.07754,1.09087,1.16867,1.10374,-0.838752,0.4848,-0.04566,-0.10708,
-0.0587777,-0.0401,0.421646,-1.60049,-0.201358,-0.0686756,0.518057,-0.0558785,0.0368732,-0.0613169,-0.061972,-0.581339,-0.301749,-0.0473397,0,0,0,0,0,0,0,-0.0442715,-0.0487407,0.436897,-1.58775,-0.0978298,1.52877,1.31549,-0.131816,0.019942,-0.129806,7.18392e-05,-0.422413,0.228045,-0.00627916,1.93164,-29.0791,1.13954,24.3365,-0.389408,2.31072,-0.137222,0.602104,2.20656,-1.70145,-1.53351,1.40688,1.07754,1.09087,1.16867,1.10374,-0.838752,0.4848,-0.04566,-0.10708,
-0.0589992,-0.0399593,0.421403,-1.60074,-0.203723,-0.0698723,0.517869,-0.055393,0.0351827,-0.0608025,-0.062336,-0.591163,-0.299152,-0.046943,0,0,0,0,0,0,0,-0.0442715,-0.0487407,0.436897,-1.58775,-0.0978298,1.52877,1.31549,-0.131816,0.019942,-0.129806,7.18392e-05,-0.422413,0.228045,-0.00627916,1.93164,-29.0791,1.13954,24.3365,-0.389408,2.31072,-0.137222,-0.177963,0.757561,-1.46542,-1.02291,0.989578,0.465569,0.475209,1.01132,0.494116,-1.11431,0.0115936,-0.531597,-0.108131,
-0.0592206,-0.0398263,0.42116,-1.60099,-0.206105,-0.0710376,0.517683,-0.0553468,0.0332411,-0.0607151,-0.0631158,-0.595515,-0.291343,-0.0465294,0,0,0,0,0,0,0,-0.0477755,-0.0481856,0.433163,-1.5877,-0.113128,1.53225,1.3154,-0.11302,0.0175034,-0.105242,-0.00187795,-0.486602,0.0912684,-0.0014139,1.27307,-29.706,0.564283,24.5349,-0.0900305,1.60119,-0.110672,-0.177963,0.757561,-1.46542,-1.02291,0.989578,0.465569,0.475209,1.01132,0.494116,-1.11431,0.0115936,-0.531597,-0.108131,
-0.0594445,-0.0397023,0.420915,-1.60125,-0.20847,-0.0721425,0.517499,-0.0559703,0.030993,-0.0612801,-0.0644382,-0.591202,-0.276216,-0.0460712,0,0,0,0,0,0,0,-0.0477755,-0.0481856,0.433163,-1.5877,-0.113128,1.53225,1.3154,-0.11302,0.0175034,-0.105242,-0.00187795,-0.486602,0.0912684,-0.0014139,1.27307,-29.706,0.564283,24.5349,-0.0900305,1.60119,-0.110672,-1.19795,0.387305,-1.07939,-0.893923,0.234232,0.456733,0.463325,0.59555,0.486418,-1.09953,-0.129476,-0.765458,-0.107906,
-0.0596749,-0.0395888,0.420664,-1.60151,-0.210764,-0.0731476,0.517316,-0.0575857,0.0283782,-0.0628136,-0.066417,-0.573703,-0.251285,-0.0455274,0,0,0,0,0,0,0,-0.0477755,-0.0481856,0.433163,-1.5877,-0.113128,1.53225,1.3154,-0.11302,0.0175034,-0.105242,-0.00187795,-0.486602,0.0912684,-0.0014139,1.27307,-29.706,0.564283,24.5349,-0.0900305,1.60119,-0.110672,-1.19795,0.387305,-1.07939,-0.893923,0.234232,0.456733,0.463325,0.59555,0.486418,-1.09953,-0.129476,-0.765458,-0.107906,
-0.0599173,-0.0394875,0.420401,-1.60179,-0.212912,-0.0740032,0.517137,-0.0606189,0.0253402,-0.0657353,-0.0691105,-0.536876,-0.213895,-0.044833,0,0,0,0,0,0,0,-0.0477755,-0.0481856,0.433163,-1.5877,-0.113128,1.53225,1.3154,-0.11302,0.0175034,-0.105242,-0.00187795,-0.486602,0.0912684,-0.0014139,1.27307,-29.706,0.564283,24.5349,-0.0900305,1.60119,-0.110672,-1.17756,-0.327479,-0.57338,-0.562371,-0.0279256,0.0832053,0.0944703,0.330784,0.103563,-0.934597,-0.427806,-0.818062,-0.107404,
-0.0601797,-0.0394001,0.420119,-1.60208,-0.214804,-0.0746494,0.516962,-0.0655898,0.021837,-0.0705615,-0.0724797,-0.472887,-0.16154,-0.0438989,0,0,0,0,0,0,0,-0.0477755,-0.0481856,0.433163,-1.5877,-0.113128,1.53225,1.3154,-0.11302,0.0175034,-0.105242,-0.00187795,-0.486602,0.0912684,-0.0014139,1.27307,-29.706,0.564283,24.5349,-0.0900305,1.60119,-0.110672,-0.62915,-2.50636,-0.172318,0.512803,0.229189,-1.1503,-1.13255,0.422088,-1.15119,-1.01682,-1.00381,-1.08868,-0.110806,
-0.060472,-0.0393287,0.419807,-1.60239,-0.216294,-0.0750176,0.516791,-0.0730663,0.0178431,-0.077863,-0.0763957,-0.372616,-0.0920686,-0.0426044,0,0,0,0,0,0,0,-0.0477755,-0.0481856,0.433163,-1.5877,-0.113128,1.53225,1.3154,-0.11302,0.0175034,-0.105242,-0.00187795,-0.486602,0.0912684,-0.0014139,1.27307,-29.706,0.564283,24.5349,-0.0900305,1.60119,-0.110672,-0.62915,-2.50636,-0.172318,0.512803,0.229189,-1.1503,-1.13255,0.422088,-1.15119,-1.01682,-1.00381,-1.08868,-0.110806,
-0.0608064,-0.0392754,0.419454,-1.60271,-0.2172,-0.0750314,0.516628,-0.0835987,0.0133217,-0.0882033,-0.0807638,-0.226504,-0.00344726,-0.0408737,0,0,0,0,0,0,0,-0.0504888,-0.047431,0.429915,-1.58779,-0.12881,1.5333,1.31532,-0.0679544,0.0190159,-0.0913024,-0.0013764,-0.438566,0.0109268,-0.000660657,0.638309,-29.9797,-0.0387439,25.2332,-0.884708,1.57464,-0.0905302,0.00612478,-3.64089,-0.124566,1.07542,0.700827,-1.86805,-1.84848,0.690955,-1.87823,-1.14941,-1.27194,-1.2295,-0.111111,
-0.0611973,-0.0392431,0.419046,-1.60305,-0.217299,-0.0746027,0.516467,-0.0977445,0.00809776,-0.102174,-0.0858438,-0.0246969,0.107184,-0.0400909,0,0,0,0,0,0,0,-0.0504888,-0.047431,0.429915,-1.58779,-0.12881,1.5333,1.31532,-0.0679544,0.0190159,-0.0913024,-0.0013764,-0.438566,0.0109268,-0.000660657,0.638309,-29.9797,-0.0387439,25.2332,-0.884708,1.57464,-0.0905302,0.00612478,-3.64089,-0.124566,1.07542,0.700827,-1.86805,-1.84848,0.690955,-1.87823,-1.14941,-1.27194,-1.2295,-0.111111,
-0.0616121,-0.0392038,0.418611,-1.60337,-0.216799,-0.073855,0.51631,-0.103682,0.00982022,-0.108818,-0.0803321,0.124851,0.186914,-0.0393468,0,0,0,0,0,0,0,-0.0504888,-0.047431,0.429915,-1.58779,-0.12881,1.5333,1.31532,-0.0679544,0.0190159,-0.0913024,-0.0013764,-0.438566,0.0109268,-0.000660657,0.638309,-29.9797,-0.0387439,25.2332,-0.884708,1.57464,-0.0905302,0.730545,-3.14497,-1.07886,0.525748,1.67638,-1.76486,-1.74417,1.40445,-1.75673,-1.63121,-1.27327,-1.26587,-0.115106,
-0.0620332,-0.0391518,0.418167,-1.60367,-0.215846,-0.0728572,0.516154,-0.105277,0.0129817,-0.110906,-0.0733587,0.238375,0.249468,-0.0389555,0,0,0,0,0,0,0,-0.0504888,-0.047431,0.429915,-1.58779,-0.12881,1.5333,1.31532,-0.0679544,0.0190159,-0.0913024,-0.0013764,-0.438566,0.0109268,-0.000660657,0.638309,-29.9797,-0.0387439,25.2332,-0.884708,1.57464,-0.0905302,0.399258,-2.84357,-1.69776,0.175729,1.70325,-1.53908,-1.51906,1.52839,-1.51837,-1.86569,-1.28647,-1.2786,-0.121042,
-0.0624502,-0.0390879,0.417726,-1.60394,-0.214542,-0.0716557,0.515999,-0.10426,0.0159837,-0.110213,-0.0672451,0.325983,0.300361,-0.038764,0,0,0,0,0,0,0,-0.0504888,-0.047431,0.429915,-1.58779,-0.12881,1.5333,1.31532,-0.0679544,0.0190159,-0.0913024,-0.0013764,-0.438566,0.0109268,-0.000660657,0.638309,-29.9797,-0.0387439,25.2332,-0.884708,1.57464,-0.0905302,0.399258,-2.84357,-1.69776,0.175729,1.70325,-1.53908,-1.51906,1.52839,-1.51837,-1.86569,-1.28647,-1.2786,-0.121042,
-0.0628568,-0.0390142,0.417295,-1.60418,-0.212964,-0.0702863,0.515844,-0.101657,0.0184264,-0.107816,-0.0623486,0.394507,0.342366,-0.0386841,0,0,0,0,0,0,0,-0.0533113,-0.0471268,0.426334,-1.58817,-0.14241,1.5343,1.31522,-0.0751043,-0.0012276,-0.0944808,-0.0233688,-0.100064,0.0671118,-0.00110842,0.0551182,-29.5274,-0.685411,26.0822,0.0866663,2.3565,-0.190323,-0.37829,-3.19949,-1.32127,0.605788,0.893357,-1.54648,-1.5293,0.994178,-1.53851,-1.53605,-1.22291,-1.17098,-0.124632,
-0.0632493,-0.0389331,0.416877,-1.60442,-0.211169,-0.0687773,0.51569,-0.0981261,0.0202714,-0.104409,-0.0585209,0.448764,0.377233,-0.0386694,0,0,0,0,0,0,0,-0.0533113,-0.0471268,0.426334,-1.58817,-0.14241,1.5343,1.31522,-0.0751043,-0.0012276,-0.0944808,-0.0233688,-0.100064,0.0671118,-0.00110842,0.0551182,-29.5274,-0.685411,26.0822,0.0866663,2.3565,-0.190323,-0.37829,-3.19949,-1.32127,0.605788,0.893357,-1.54648,-1.5293,0.994178,-1.53851,-1.53605,-1.22291,-1.17098,-0.124632,
-0.0636258,-0.0388468,0.416475,-1.60464,-0.2092,-0.0671524,0.515535,-0.0941023,0.0215824,-0.100455,-0.0555306,0.492226,0.406243,-0.0386933,0,0,0,0,0,0,0,-0.0533113,-0.0471268,0.426334,-1.58817,-0.14241,1.5343,1.31522,-0.0751043,-0.0012276,-0.0944808,-0.0233688,-0.100064,0.0671118,-0.00110842,0.0551182,-29.5274,-0.685411,26.0822,0.0866663,2.3565,-0.190323,-0.872441,-3.52038,-1.32573,1.00932,0.544568,-1.59171,-1.57473,0.826068,-1.59748,-1.43994,-1.06514,-1.12514,-0.136128,
-0.0639853,-0.038757,0.41609,-1.60485,-0.20709,-0.0654307,0.51538,-0.0898761,0.022445,-0.0962625,-0.053173,0.527427,0.43041,-0.0387397,0,0,0,0,0,0,0,-0.0533113,-0.0471268,0.426334,-1.58817,-0.14241,1.5343,1.31522,-0.0751043,-0.0012276,-0.0944808,-0.0233688,-0.100064,0.0671118,-0.00110842,0.0551182,-29.5274,-0.685411,26.0822,0.0866663,2.3565,-0.190323,-0.872441,-3.52038,-1.32573,1.00932,0.544568,-1.59171,-1.57473,0.826068,-1.59748,-1.43994,-1.06514,-1.12514,-0.136128,
-0.069726,-0.0314276,0.410192,-1.60373,-0.268041,-0.20463,0.51208,-0.176237,0.129795,-0.186369,-0.114419,-1.19128,-0.793125,-0.0863036,0,0,0,0,0,0,0,-0.0533113,-0.0471268,0.426334,-1.58817,-0.14241,1.5343,1.31522,-0.0751043,-0.0012276,-0.0944808,-0.0233688,-0.100064,0.0671118,-0.00110842,0.0551182,-29.5274,-0.685411,26.0822,0.0866663,2.3565,-0.190323,-1.60264,-3.79399,-1.07365,1.49975,-0.107988,-1.57245,-1.5521,0.439336,-1.60107,-1.1787,-0.841776,-1.03154,-0.138454,
-0.0756251,-0.0370107,0.40273,-1.59979,-0.189565,-0.0757307,0.519012,-0.143119,0.0681528,-0.15128,-0.0669057,0.467996,0.00667457,-0.0519515,0,0,0,0,0,0,0,-0.0533113,-0.0471268,0.426334,-1.58817,-0.14241,1.5343,1.31522,-0.0751043,-0.0012276,-0.0944808,-0.0233688,-0.100064,0.0671118,-0.00110842,0.0551182,-29.5274,-0.685411,26.0822,0.0866663,2.3565,-0.190323,-1.20417,-3.10932,-0.522197,1.53086,-0.267944,-1.26626,-1.24531,0.161555,-1.30814,-0.646913,-0.505791,-0.649445,-0.135597,
-0.0761941,-0.0367428,0.402129,-1.60005,-0.187575,-0.0757179,0.518806,-0.142243,0.066972,-0.150391,-0.0663839,0.497373,0.0031973,-0.0514968,0,0,0,0,0,0,0,-0.0557894,-0.0470752,0.423352,-1.58912,-0.142104,1.53781,1.31517,-0.0892002,0.000480665,-0.0960955,-0.0402617,0.0250295,0.0858686,-0.00111513,0.487552,-29.8052,-0.312487,26.9034,1.06353,3.56316,-0.117081,-1.20417,-3.10932,-0.522197,1.53086,-0.267944,-1.26626,-1.24531,0.161555,-1.30814,-0.646913,-0.505791,-0.649445,-0.135597,
-0.0767602,-0.0364798,0.40153,-1.60032,-0.185459,-0.0757194,0.518602,-0.14152,0.0657495,-0.149653,-0.065879,0.529199,-0.00036195,-0.051051,0,0,0,0,0,0,0,-0.0557894,-0.0470752,0.423352,-1.58912,-0.142104,1.53781,1.31517,-0.0892002,0.000480665,-0.0960955,-0.0402617,0.0250295,0.0858686,-0.00111513,0.487552,-29.8052,-0.312487,26.9034,1.06353,3.56316,-0.117081,-1.75937,0.00867642,-0.126345,-0.0601193,-1.01742,0.456921,0.476709,-0.433619,0.438795,-0.12443,0.0578651,-0.206311,-0.136114,
-0.077324,-0.0362219,0.400934,-1.60058,-0.183203,-0.0757351,0.518399,-0.140947,0.0644809,-0.149065,-0.0653919,0.563843,-0.00392862,-0.0506143,0,0,0,0,0,0,0,-0.0557894,-0.0470752,0.423352,-1.58912,-0.142104,1.53781,1.31517,-0.0892002,0.000480665,-0.0960955,-0.0402617,0.0250295,0.0858686,-0.00111513,0.487552,-29.8052,-0.312487,26.9034,1.06353,3.56316,-0.117081,-1.75937,0.00867642,-0.126345,-0.0601193,-1.01742,0.456921,0.476709,-0.433619,0.438795,-0.12443,0.0578651,-0.206311,-0.136114,
-0.0778861,-0.0359693,0.400339,-1.60084,-0.180796,-0.0757648,0.518199,-0.140522,0.0631605,-0.148626,-0.0649251,0.601703,-0.00741865,-0.0501891,0,0,0,0,0,0,0,-0.0557894,-0.0470752,0.423352,-1.58912,-0.142104,1.53781,1.31517,-0.0892002,0.000480665,-0.0960955,-0.0402617,0.0250295,0.0858686,-0.00111513,0.487552,-29.8052,-0.312487,26.9034,1.06353,3.56316,-0.117081,-1.05826,1.75913,-1.41363,-1.15438,-0.0184672,1.24766,1.25798,0.300775,1.26409,-0.511689,0.43573,0.0265653,-0.142706,
-0.0784471,-0.0357221,0.399746,-1.60109,-0.178224,-0.0758077,0.517999,-0.140245,0.0617818,-0.148334,-0.0644833,0.643203,-0.0107309,-0.0497778,0,0,0,0,0,0,0,-0.0557894,-0.0470752,0.423352,-1.58912,-0.142104,1.53781,1.31517,-0.0892002,0.000480665,-0.0960955,-0.0402617,0.0250295,0.0858686,-0.00111513,0.487552,-29.8052,-0.312487,26.9034,1.06353,3.56316,-0.117081,-1.05826,1.75913,-1.41363,-1.15438,-0.0184672,1.24766,1.25798,0.300775,1.26409,-0.511689,0.43573,0.0265653,-0.142706,
-0.0790075,-0.0354808,0.399153,-1.60135,-0.175468,-0.0758626,0.517802,-0.140116,0.0603371,-0.14819,-0.064075,0.688791,-0.0137346,-0.0493856,0,0,0,0,0,0,0,-0.0590579,-0.0469988,0.419868,-1.58978,-0.144229,1.53477,1.31497,-0.119187,-0.00626943,-0.124546,-0.0209655,0.0249112,-0.108481,-0.0066823,-0.0718349,-27.4327,-1.01073,26.7764,1.88202,3.66295,-0.0969389,-0.0681302,1.45348,-1.77236,-0.875009,0.846705,0.921013,0.934503,0.845028,0.928368,-0.66997,0.529651,0.0784749,-0.151685,
-0.0795681,-0.0352455,0.398561,-1.60161,-0.172513,-0.0759277,0.517606,-0.140134,0.0588184,-0.148192,-0.0637133,0.738931,-0.0162546,-0.0490179,0,0,0,0,0,0,0,-0.0590579,-0.0469988,0.419868,-1.58978,-0.144229,1.53477,1.31497,-0.119187,-0.00626943,-0.124546,-0.0209655,0.0249112,-0.108481,-0.0066823,-0.0718349,-27.4327,-1.01073,26.7764,1.88202,3.66295,-0.0969389,2.25908,1.83713,-2.39112,-0.996179,2.80698,0.686731,0.71339,2.02832,0.685045,-1.00138,0.765414,0.19418,-0.154564,
-0.0801292,-0.0350166,0.397967,-1.60186,-0.169336,-0.0759999,0.517411,-0.140295,0.0572173,-0.148338,-0.0634186,0.794075,-0.0180482,-0.0486785,0,0,0,0,0,0,0,-0.0590579,-0.0469988,0.419868,-1.58978,-0.144229,1.53477,1.31497,-0.119187,-0.00626943,-0.124546,-0.0209655,0.0249112,-0.108481,-0.0066823,-0.0718349,-27.4327,-1.01073,26.7764,1.88202,3.66295,-0.0969389,2.25908,1.83713,-2.39112,-0.996179,2.80698,0.686731,0.71339,2.02832,0.685045,-1.00138,0.765414,0.19418,-0.154564,
-0.0806916,-0.0347945,0.397373,-1.60211,-0.165918,-0.076075,0.517218,-0.140588,0.0555266,-0.148616,-0.0632206,0.854619,-0.0187769,-0.0483807,0,0,0,0,0,0,0,-0.0590579,-0.0469988,0.419868,-1.58978,-0.144229,1.53477,1.31497,-0.119187,-0.00626943,-0.124546,-0.0209655,0.0249112,-0.108481,-0.0066823,-0.0718349,-27.4327,-1.01073,26.7764,1.88202,3.66295,-0.0969389,2.1439,1.35009,-1.92728,-0.407069,2.51639,0.467881,0.492816,1.80215,0.447559,-0.742466,0.899874,0.246674,-0.15466,
-0.0812519,-0.0345781,0.39678,-1.60236,-0.162273,-0.0761488,0.517025,-0.140074,0.0541081,-0.148168,-0.062866,0.911187,-0.0184636,-0.0480591,0,0,0,0,0,0,0,-0.0590579,-0.0469988,0.419868,-1.58978,-0.144229,1.53477,1.31497,-0.119187,-0.00626943,-0.124546,-0.0209655,0.0249112,-0.108481,-0.0066823,-0.0718349,-27.4327,-1.01073,26.7764,1.88202,3.66295,-0.0969389,2.1439,1.35009,-1.92728,-0.407069,2.51639,0.467881,0.492816,1.80215,0.447559,-0.742466,0.899874,0.246674,-0.15466,
-0.0818038,-0.0343656,0.396195,-1.60261,-0.158457,-0.076215,0.516834,-0.137976,0.0531127,-0.146211,-0.0623928,0.954055,-0.016539,-0.0477454,0,0,0,0,0,0,0,-0.0590579,-0.0469988,0.419868,-1.58978,-0.144229,1.53477,1.31497,-0.119187,-0.00626943,-0.124546,-0.0209655,0.0249112,-0.108481,-0.0066823,-0.0718349,-27.4327,-1.01073,26.7764,1.88202,3.66295,-0.0969389,0.838931,1.94329,-1.65742,-0.697443,1.51529,1.00994,1.03055,1.23046,0.996188,-0.580441,1.02882,0.215053,-0.157746,
-0.0823434,-0.0341573,0.395622,-1.60286,-0.15451,-0.0762603,0.516644,-0.134902,0.0520852,-0.143227,-0.0623542,0.986828,-0.0113221,-0.0475919,0,0,0,0,0,0,0,-0.0630297,-0.0471671,0.415499,-1.59021,-0.140784,1.53075,1.31496,-0.130986,-0.00179904,-0.164773,-0.0155121,0.207128,-0.113888,-0.0053717,0.360599,-28.4563,-0.312487,26.2805,1.56433,3.43133,-0.117081,-0.0851706,2.77086,-1.55041,-1.19593,0.830403,1.59713,1.60803,0.839063,1.60133,-0.48995,1.13893,0.213503,-0.157018,
-0.0828681,-0.0339539,0.395064,-1.60311,-0.150462,-0.0762658,0.516453,-0.131177,0.0508616,-0.139554,-0.0629027,1.01202,-0.00137448,-0.0476376,0,0,0,0,0,0,0,-0.0630297,-0.0471671,0.415499,-1.59021,-0.140784,1.53075,1.31496,-0.130986,-0.00179904,-0.164773,-0.0155121,0.207128,-0.113888,-0.0053717,0.360599,-28.4563,-0.312487,26.2805,1.56433,3.43133,-0.117081,-0.0851706,2.77086,-1.55041,-1.19593,0.830403,1.59713,1.60803,0.839063,1.60133,-0.48995,1.13893,0.213503,-0.157018,
-0.0833761,-0.0337564,0.394522,-1.60337,-0.146336,-0.0762062,0.516262,-0.127001,0.0493726,-0.135401,-0.0641182,1.03141,0.0149004,-0.0479573,0,0,0,0,0,0,0,-0.0630297,-0.0471671,0.415499,-1.59021,-0.140784,1.53075,1.31496,-0.130986,-0.00179904,-0.164773,-0.0155121,0.207128,-0.113888,-0.0053717,0.360599,-28.4563,-0.312487,26.2805,1.56433,3.43133,-0.117081,-0.295357,3.21337,-1.39549,-1.47274,0.66156,1.85473,1.86372,0.731043,1.86645,-0.465457,1.18139,0.173717,-0.161966,
-0.083866,-0.033566,0.393999,-1.60364,-0.142151,-0.076049,0.516067,-0.122481,0.0475872,-0.130871,-0.0660831,1.04627,0.039301,-0.0486939,0,0,0,0,0,0,0,-0.0630297,-0.0471671,0.415499,-1.59021,-0.140784,1.53075,1.31496,-0.130986,-0.00179904,-0.164773,-0.0155121,0.207128,-0.113888,-0.0053717,0.360599,-28.4563,-0.312487,26.2805,1.56433,3.43133,-0.117081,-0.295357,3.21337,-1.39549,-1.47274,0.66156,1.85473,1.86372,0.731043,1.86645,-0.465457,1.18139,0.173717,-0.161966,
-0.0843366,-0.033384,0.393495,-1.60391,-0.137921,-0.0757545,0.515866,-0.117632,0.0455137,-0.125972,-0.0688505,1.05744,0.0736191,-0.0500896,0,0,0,0,0,0,0,-0.0630297,-0.0471671,0.415499,-1.59021,-0.140784,1.53075,1.31496,-0.130986,-0.00179904,-0.164773,-0.0155121,0.207128,-0.113888,-0.0053717,0.360599,-28.4563,-0.312487,26.2805,1.56433,3.43133,-0.117081,-0.0175862,2.63566,-1.49109,-1.10087,0.960815,1.50136,1.51051,0.948917,1.50574,-0.580884,1.15513,0.0950249,-0.161267,
-0.084786,-0.0332109,0.393013,-1.6042,-0.13366,-0.0752783,0.515657,-0.112351,0.0432655,-0.120576,-0.0722859,1.06531,0.119057,-0.0524906,0,0,0,0,0,0,0,-0.0676737,-0.0471293,0.409637,-1.5909,-0.128948,1.52842,1.31493,-0.153255,-0.000656498,-0.19167,-0.0188442,0.497643,-0.0485359,-0.000386616,0.967594,-28.6308,0.187391,25.8322,1.43615,3.15209,-0.170181,0.40112,1.2919,-1.73861,-0.244177,1.39495,0.741614,0.752402,1.2712,0.72736,-0.738561,1.05768,0.0198225,-0.161821,
-0.0852113,-0.0330458,0.392555,-1.6045,-0.129381,-0.074579,0.515434,-0.106344,0.0412716,-0.114365,-0.0755991,1.06983,0.174804,-0.0557169,0,0,0,0,0,0,0,-0.0676737,-0.0471293,0.409637,-1.5909,-0.128948,1.52842,1.31493,-0.153255,-0.000656498,-0.19167,-0.0188442,0.497643,-0.0485359,-0.000386616,0.967594,-28.6308,0.187391,25.8322,1.43615,3.15209,-0.170181,0.40112,1.2919,-1.73861,-0.244177,1.39495,0.741614,0.752402,1.2712,0.72736,-0.738561,1.05768,0.0198225,-0.161821,
-0.0855918,-0.0328761,0.392143,-1.6048,-0.125265,-0.073651,0.51524,-0.0951231,0.0424271,-0.103079,-0.0744521,1.02902,0.232,-0.0483416,0,0,0,0,0,0,0,-0.0676737,-0.0471293,0.409637,-1.5909,-0.128948,1.52842,1.31493,-0.153255,-0.000656498,-0.19167,-0.0188442,0.497643,-0.0485359,-0.000386616,0.967594,-28.6308,0.187391,25.8322,1.43615,3.15209,-0.170181,-0.0881641,1.13336,-1.36603,-0.0934762,0.960051,0.733651,0.747797,1.00713,0.710649,-0.643208,1.05863,-0.0772357,-0.161106,
