PerkyPenguin/Analysis-on-Approximated-Derivatives/Code_and_Data/PaperData/Real_Robot/Scene_1/contact_change/17/trajectory.csv
Commanded Joint 0 Position,Commanded Joint 1 Position,Commanded Joint 2 Position,Commanded Joint 3 Position,Commanded Joint 4 Position,Commanded Joint 5 Position,Commanded Joint 6 Position,Commanded Joint 0 Velocity,Commanded Joint 1 Velocity,Commanded Joint 2 Velocity,Commanded Joint 3 Velocity,Commanded Joint 4 Velocity,Commanded Joint 5 Velocity,Commanded Joint 6 Velocity,Commanded Joint 0 Torque,Commanded Joint 1 Torque,Commanded Joint 2 Torque,Commanded Joint 3 Torque,Commanded Joint 4 Torque,Commanded Joint 5 Torque,Commanded Joint 6 Torque,Actual Joint 0 Position,Actual Joint 1 Position,Actual Joint 2 Position,Actual Joint 3 Position,Actual Joint 4 Position,Actual Joint 5 Position,Actual Joint 6 Position,Actual Joint 0 Velocity,Actual Joint 1 Velocity,Actual Joint 2 Velocity,Actual Joint 3 Velocity,Actual Joint 4 Velocity,Actual Joint 5 Velocity,Actual Joint 6 Velocity,Actual Joint 0 Torque,Actual Joint 1 Torque,Actual Joint 2 Torque,Actual Joint 3 Torque,Actual Joint 4 Torque,Actual Joint 5 Torque,Actual Joint 6 Torque,EE ext force 0,EE ext force 1,EE ext force 2,EE ext force 3,EE ext force 4,EE ext force 5,joint ext torque 0,joint ext torque 1,joint ext torque 2,joint ext torque 3,joint ext torque 4,joint ext torque 5,joint ext torque 6,
0.0130975,-0.195916,-0.333644,-1.66031,-0.0931868,-0.0934252,-0.38308,-0.00294794,0.0136865,-0.0128958,-0.149432,0.00681681,0.198568,-0.00212298,0,0,0,0,0,0,0,0.0131218,-0.195898,-0.333538,-1.6588,-0.0932466,1.4754,0.402344,-0.000423273,-0.0042342,0.000551464,0.000911415,0.00223889,0.000501066,0.000122396,-0.0440639,-25.4094,1.86159,25.8322,0.343014,2.97356,-0.0429228,-1.03866,0.04683,-0.71955,0.0640027,-0.190749,-0.119788,-0.0156254,0.147257,-0.22195,-0.474266,-0.134109,-0.331816,-0.0361295,
0.013081,-0.195786,-0.333707,-1.66094,-0.0931645,-0.0926007,-0.383088,-0.00413244,0.0326264,-0.0157159,-0.158662,0.00557481,0.206124,-0.00202245,0,0,0,0,0,0,0,0.0131218,-0.195898,-0.333538,-1.6588,-0.0932466,1.4754,0.402344,-0.000423273,-0.0042342,0.000551464,0.000911415,0.00223889,0.000501066,0.000122396,-0.0440639,-25.4094,1.86159,25.8322,0.343014,2.97356,-0.0429228,-1.52655,0.110258,-0.466767,-0.0302197,-0.6687,-0.177928,-0.0718617,-0.167394,-0.26556,-0.312039,-0.140204,-0.324629,-0.0361901,
0.0131207,-0.195943,-0.333538,-1.65878,-0.0932202,-0.0953891,-0.383054,-7.6891e-05,-0.00220797,-1.24458e-05,0.00116611,0.0013133,0.000581618,6.14796e-06,0,0,0,0,0,0,0,0.0131218,-0.195898,-0.333538,-1.6588,-0.0932466,1.4754,0.402344,-0.000423273,-0.0042342,0.000551464,0.000911415,0.00223889,0.000501066,0.000122396,-0.0440639,-25.4094,1.86159,25.8322,0.343014,2.97356,-0.0429228,-1.50235,0.0696129,-0.524785,0.00640382,-0.624248,-0.192285,-0.0851995,-0.131378,-0.285089,-0.33992,-0.145462,-0.327585,-0.0357041,
0.0131204,-0.19595,-0.333538,-1.65878,-0.0932158,-0.0953865,-0.383054,-7.39843e-05,-0.00194637,-2.52891e-05,0.00104756,0.00111577,0.000653514,5.96797e-06,0,0,0,0,0,0,0,0.0131218,-0.195898,-0.333538,-1.6588,-0.0932466,1.4754,0.402344,-0.000423273,-0.0042342,0.000551464,0.000911415,0.00223889,0.000501066,0.000122396,-0.0440639,-25.4094,1.86159,25.8322,0.343014,2.97356,-0.0429228,-1.50235,0.0696129,-0.524785,0.00640382,-0.624248,-0.192285,-0.0851995,-0.131378,-0.285089,-0.33992,-0.145462,-0.327585,-0.0357041,
0.0131201,-0.195957,-0.333538,-1.65877,-0.093212,-0.0953837,-0.383054,-6.93979e-05,-0.00172402,-3.40311e-05,0.000938649,0.000940367,0.000688199,5.61557e-06,0,0,0,0,0,0,0,0.0131182,-0.195996,-0.333539,-1.65914,-0.0932527,1.47591,0.402346,-0.000174848,-0.00590923,0.00229178,-0.0217494,0.00281896,0.0499295,0.000354708,0.00751081,-24.4136,1.86159,25.1578,0.397946,2.98638,-0.0566557,-1.67755,0.205312,-0.977603,-0.0243527,-0.582695,-0.163067,-0.0571003,-0.0315052,-0.258579,-0.498615,-0.141596,-0.33968,-0.0340967,
0.0131199,-0.195963,-0.333538,-1.65877,-0.0932089,-0.095381,-0.383054,-6.41046e-05,-0.00153356,-4.00026e-05,0.000841053,0.000786381,0.000693043,5.22446e-06,0,0,0,0,0,0,0,0.0131182,-0.195996,-0.333539,-1.65914,-0.0932527,1.47591,0.402346,-0.000174848,-0.00590923,0.00229178,-0.0217494,0.00281896,0.0499295,0.000354708,0.00751081,-24.4136,1.86159,25.1578,0.397946,2.98638,-0.0566557,-1.67755,0.205312,-0.977603,-0.0243527,-0.582695,-0.163067,-0.0571003,-0.0315052,-0.258579,-0.498615,-0.141596,-0.33968,-0.0340967,
0.0131196,-0.195969,-0.333538,-1.65877,-0.0932063,-0.0953783,-0.383054,-5.86208e-05,-0.00136975,-4.4074e-05,0.000754352,0.000652217,0.00067545,4.8458e-06,0,0,0,0,0,0,0,0.0131182,-0.195996,-0.333539,-1.65914,-0.0932527,1.47591,0.402346,-0.000174848,-0.00590923,0.00229178,-0.0217494,0.00281896,0.0499295,0.000354708,0.00751081,-24.4136,1.86159,25.1578,0.397946,2.98638,-0.0566557,-3.35247,0.446265,-0.909197,-0.239563,-1.93948,-0.349653,-0.232681,-0.829375,-0.422678,-0.231905,-0.153252,-0.306448,-0.0338305,
0.0131194,-0.195974,-0.333538,-1.65876,-0.0932041,-0.0953757,-0.383054,-5.32337e-05,-0.00122852,-4.68342e-05,0.000677555,0.000535958,0.000641725,4.49821e-06,0,0,0,0,0,0,0,0.0131182,-0.195996,-0.333539,-1.65914,-0.0932527,1.47591,0.402346,-0.000174848,-0.00590923,0.00229178,-0.0217494,0.00281896,0.0499295,0.000354708,0.00751081,-24.4136,1.86159,25.1578,0.397946,2.98638,-0.0566557,-3.35247,0.446265,-0.909197,-0.239563,-1.93948,-0.349653,-0.232681,-0.829375,-0.422678,-0.231905,-0.153252,-0.306448,-0.0338305,
0.0129969,-0.195877,-0.333633,-1.65866,-0.0916644,-0.0963744,-0.383053,-0.0118244,0.00144842,-0.0104994,0.0114622,0.179105,-0.11084,0.000389751,0,0,0,0,0,0,0,0.0131182,-0.195996,-0.333539,-1.65914,-0.0932527,1.47591,0.402346,-0.000174848,-0.00590923,0.00229178,-0.0217494,0.00281896,0.0499295,0.000354708,0.00751081,-24.4136,1.86159,25.1578,0.397946,2.98638,-0.0566557,-0.60151,-0.115061,-1.68477,0.315801,0.446184,-0.110108,0.00105218,0.635684,-0.258122,-0.828541,-0.134057,-0.270047,-0.0360568,
0.0130042,-0.19592,-0.333629,-1.65905,-0.0916813,-0.0955984,-0.383053,-0.0110138,0.00631982,-0.010023,0.00923924,0.177335,-0.0945222,0.000323687,0,0,0,0,0,0,0,0.0131182,-0.195996,-0.333539,-1.65914,-0.0932527,1.47591,0.402346,-0.000174848,-0.00590923,0.00229178,-0.0217494,0.00281896,0.0499295,0.000354708,0.00751081,-24.4136,1.86159,25.1578,0.397946,2.98638,-0.0566557,-1.18145,0.0333979,-1.01588,0.093248,-0.290233,-0.146671,-0.0392109,0.0948444,-0.255779,-0.467108,-0.128196,-0.230885,-0.0365651,
0.0129604,-0.195901,-0.333672,-1.65902,-0.090845,-0.0960749,-0.383051,-0.0109561,0.00470872,-0.0106209,0.00816063,0.209078,-0.119128,0.000470636,0,0,0,0,0,0,0,0.0131108,-0.195845,-0.333543,-1.65912,-0.0932502,1.47613,0.402343,-0.00269423,0.003381,-0.00162688,0.00606888,0.00459257,-0.00123049,0.000174081,0.0828892,-26.1354,1.93696,25.8084,0.392452,3.07976,-0.0301054,-1.18145,0.0333979,-1.01588,0.093248,-0.290233,-0.146671,-0.0392109,0.0948444,-0.255779,-0.467108,-0.128196,-0.230885,-0.0365651,
0.0129189,-0.195888,-0.333714,-1.65899,-0.0899108,-0.096631,-0.383049,-0.0103689,0.00314782,-0.0104645,0.00677107,0.233542,-0.139003,0.000548785,0,0,0,0,0,0,0,0.0131108,-0.195845,-0.333543,-1.65912,-0.0932502,1.47613,0.402343,-0.00269423,0.003381,-0.00162688,0.00606888,0.00459257,-0.00123049,0.000174081,0.0828892,-26.1354,1.93696,25.8084,0.392452,3.07976,-0.0301054,-0.950237,-0.0718753,-1.03227,0.160505,-0.109886,-0.151328,-0.0410112,0.197584,-0.269202,-0.492253,-0.143132,-0.220441,-0.037664,
0.0128809,-0.195881,-0.333753,-1.65897,-0.0889006,-0.0972519,-0.383046,-0.00949165,0.00183104,-0.00985226,0.00545934,0.25256,-0.155227,0.000588002,0,0,0,0,0,0,0,0.0131108,-0.195845,-0.333543,-1.65912,-0.0932502,1.47613,0.402343,-0.00269423,0.003381,-0.00162688,0.00606888,0.00459257,-0.00123049,0.000174081,0.0828892,-26.1354,1.93696,25.8084,0.392452,3.07976,-0.0301054,-0.950237,-0.0718753,-1.03227,0.160505,-0.109886,-0.151328,-0.0410112,0.197584,-0.269202,-0.492253,-0.143132,-0.220441,-0.037664,
0.012847,-0.195878,-0.333789,-1.65896,-0.0878308,-0.0979258,-0.383044,-0.00846831,0.000785897,-0.00897798,0.00431812,0.267435,-0.168483,0.000603653,0,0,0,0,0,0,0,0.0131108,-0.195845,-0.333543,-1.65912,-0.0932502,1.47613,0.402343,-0.00269423,0.003381,-0.00162688,0.00606888,0.00459257,-0.00123049,0.000174081,0.0828892,-26.1354,1.93696,25.8084,0.392452,3.07976,-0.0301054,-1.31018,-0.0745669,-1.22356,0.235811,-0.301607,-0.215329,-0.0942845,0.124093,-0.355304,-0.549954,-0.109352,-0.251597,-0.0375491,
0.0128175,-0.195878,-0.333821,-1.65894,-0.0867143,-0.0986429,-0.383042,-0.00738876,-1.21715e-05,-0.00796893,0.00334967,0.279119,-0.179276,0.000604505,0,0,0,0,0,0,0,0.0131108,-0.195845,-0.333543,-1.65912,-0.0932502,1.47613,0.402343,-0.00269423,0.003381,-0.00162688,0.00606888,0.00459257,-0.00123049,0.000174081,0.0828892,-26.1354,1.93696,25.8084,0.392452,3.07976,-0.0301054,-1.31018,-0.0745669,-1.22356,0.235811,-0.301607,-0.215329,-0.0942845,0.124093,-0.355304,-0.549954,-0.109352,-0.251597,-0.0375491,
0.0128331,-0.195823,-0.333741,-1.65874,-0.0886615,-0.0984135,-0.383022,-0.0262543,0.0112627,-0.0217904,0.0339903,0.523999,-0.408573,0.00325858,0,0,0,0,0,0,0,0.0130661,-0.195749,-0.333588,-1.65906,-0.0916767,1.47613,0.402341,-0.00348366,0.00112214,-0.00236784,-0.000607734,0.0840978,-0.00115573,-0.00104813,0.435978,-25.7347,2.21467,26.3043,1.10016,2.89391,-0.0163725,-2.0904,0.050315,-0.576592,0.111849,-1.18149,-0.296977,-0.157728,-0.496135,-0.433234,-0.200074,-0.0365566,-0.241311,-0.0364459,
0.0127848,-0.195604,-0.333794,-1.65866,-0.086498,-0.0982399,-0.383028,-0.0250641,0.00841943,-0.0210604,0.0319051,0.56178,-0.401634,0.0031865,0,0,0,0,0,0,0,0.0130661,-0.195749,-0.333588,-1.65906,-0.0916767,1.47613,0.402341,-0.00348366,0.00112214,-0.00236784,-0.000607734,0.0840978,-0.00115573,-0.00104813,0.435978,-25.7347,2.21467,26.3043,1.10016,2.89391,-0.0163725,-2.0904,0.050315,-0.576592,0.111849,-1.18149,-0.296977,-0.157728,-0.496135,-0.433234,-0.200074,-0.0365566,-0.241311,-0.0364459,
0.0126911,-0.19559,-0.333878,-1.65856,-0.0838796,-0.100136,-0.383014,-0.0234133,0.00345388,-0.0209753,0.0255629,0.654589,-0.474149,0.00347924,0,0,0,0,0,0,0,0.0130661,-0.195749,-0.333588,-1.65906,-0.0916767,1.47613,0.402341,-0.00348366,0.00112214,-0.00236784,-0.000607734,0.0840978,-0.00115573,-0.00104813,0.435978,-25.7347,2.21467,26.3043,1.10016,2.89391,-0.0163725,-1.2573,-0.0582377,-0.700527,0.305577,-0.490299,-0.196367,-0.0537384,-0.08467,-0.36895,-0.375685,0.0507477,-0.267908,-0.0375869,
0.0126084,-0.195593,-0.333955,-1.65848,-0.0809668,-0.102262,-0.383,-0.0206917,-0.000646692,-0.0192768,0.0194524,0.728198,-0.53136,0.00363119,0,0,0,0,0,0,0,0.0130661,-0.195749,-0.333588,-1.65906,-0.0916767,1.47613,0.402341,-0.00348366,0.00112214,-0.00236784,-0.000607734,0.0840978,-0.00115573,-0.00104813,0.435978,-25.7347,2.21467,26.3043,1.10016,2.89391,-0.0163725,-1.20256,-0.216804,-0.570713,0.461509,-0.500571,-0.257056,-0.109936,-0.114821,-0.452122,-0.346852,0.0997174,-0.280126,-0.038437,
0.0125387,-0.195607,-0.334021,-1.65842,-0.0778181,-0.104568,-0.382985,-0.0174157,-0.00373067,-0.01663,0.0141006,0.787174,-0.576515,0.00370004,0,0,0,0,0,0,0,0.0130661,-0.195749,-0.333588,-1.65906,-0.0916767,1.47613,0.402341,-0.00348366,0.00112214,-0.00236784,-0.000607734,0.0840978,-0.00115573,-0.00104813,0.435978,-25.7347,2.21467,26.3043,1.10016,2.89391,-0.0163725,-1.20256,-0.216804,-0.570713,0.461509,-0.500571,-0.257056,-0.109936,-0.114821,-0.452122,-0.346852,0.0997174,-0.280126,-0.038437,
0.0124831,-0.195631,-0.334075,-1.65839,-0.0744787,-0.107016,-0.38297,-0.0139017,-0.00589748,-0.0134706,0.00955654,0.834846,-0.611919,0.00371633,0,0,0,0,0,0,0,0.0130661,-0.195749,-0.333588,-1.65906,-0.0916767,1.47613,0.402341,-0.00348366,0.00112214,-0.00236784,-0.000607734,0.0840978,-0.00115573,-0.00104813,0.435978,-25.7347,2.21467,26.3043,1.10016,2.89391,-0.0163725,-1.75469,-0.555997,0.229463,0.645759,-1.23996,-0.50655,-0.351161,-0.67184,-0.716347,0.018221,0.137289,-0.279622,-0.0403402,
0.0136739,-0.195855,-0.332875,-1.65895,-0.0881566,-0.100167,-0.382913,0.073735,-0.015848,0.0861137,0.00280764,0.388555,-0.634637,0.0119828,0,0,0,0,0,0,0,0.012941,-0.195628,-0.333736,-1.65889,-0.0863159,1.47538,0.402345,-0.00681171,0.00568217,-0.00592429,0.00326561,0.269408,-0.0572644,0.0011484,0.741459,-26.2862,2.31386,26.2051,2.20611,2.29699,-0.050247,-1.75469,-0.555997,0.229463,0.645759,-1.23996,-0.50655,-0.351161,-0.67184,-0.716347,0.018221,0.137289,-0.279622,-0.0403402,
0.0135916,-0.195741,-0.333005,-1.65882,-0.0813995,-0.101329,-0.382902,0.0784537,-0.0167846,0.0894539,-0.00144651,0.479758,-0.6618,0.0124021,0,0,0,0,0,0,0,0.012941,-0.195628,-0.333736,-1.65889,-0.0863159,1.47538,0.402345,-0.00681171,0.00568217,-0.00592429,0.00326561,0.269408,-0.0572644,0.0011484,0.741459,-26.2862,2.31386,26.2051,2.20611,2.29699,-0.050247,-0.161831,-0.510184,0.0875098,0.870341,0.0801607,-0.201517,-0.0417867,0.114516,-0.469107,-0.331911,0.357485,-0.382656,-0.0413045,
0.0139826,-0.195826,-0.332558,-1.65886,-0.0792159,-0.104483,-0.382854,0.0977395,-0.0211444,0.111583,-0.0102635,0.545914,-0.788586,0.0119423,0,0,0,0,0,0,0,0.012941,-0.195628,-0.333736,-1.65889,-0.0863159,1.47538,0.402345,-0.00681171,0.00568217,-0.00592429,0.00326561,0.269408,-0.0572644,0.0011484,0.741459,-26.2862,2.31386,26.2051,2.20611,2.29699,-0.050247,-0.161831,-0.510184,0.0875098,0.870341,0.0801607,-0.201517,-0.0417867,0.114516,-0.469107,-0.331911,0.357485,-0.382656,-0.0413045,
0.0144392,-0.19592,-0.332038,-1.65894,-0.0767857,-0.108051,-0.382808,0.114156,-0.0233894,0.130136,-0.0186589,0.607552,-0.892031,0.0115324,0,0,0,0,0,0,0,0.012941,-0.195628,-0.333736,-1.65889,-0.0863159,1.47538,0.402345,-0.00681171,0.00568217,-0.00592429,0.00326561,0.269408,-0.0572644,0.0011484,0.741459,-26.2862,2.31386,26.2051,2.20611,2.29699,-0.050247,-0.301394,-0.295299,0.389128,0.894064,-0.077498,-0.130834,0.0443152,0.00119177,-0.431083,-0.332048,0.5592,-0.516332,-0.0386345,
0.0149521,-0.196015,-0.331455,-1.65904,-0.0741293,-0.111958,-0.382764,0.128219,-0.0239596,0.145832,-0.0263224,0.664098,-0.976693,0.0111682,0,0,0,0,0,0,0,0.012941,-0.195628,-0.333736,-1.65889,-0.0863159,1.47538,0.402345,-0.00681171,0.00568217,-0.00592429,0.00326561,0.269408,-0.0572644,0.0011484,0.741459,-26.2862,2.31386,26.2051,2.20611,2.29699,-0.050247,-0.469835,-0.145906,0.495232,0.886478,-0.144072,-0.100233,0.0868474,-0.0106759,-0.419364,-0.406542,0.642181,-0.653858,-0.0309159,
0.0155134,-0.196108,-0.330818,-1.65918,-0.0712678,-0.116142,-0.38272,0.140333,-0.0232757,0.159215,-0.033187,0.715382,-1.04609,0.0108401,0,0,0,0,0,0,0,0.0127166,-0.195692,-0.333877,-1.65863,-0.0762497,1.47236,0.402343,0.00606104,0.00248353,0.00807259,0.00467255,0.249393,-0.110661,-5.69305e-05,1.4516,-25.3102,3.61116,25.6815,1.44256,1.86577,-0.0227812,-0.469835,-0.145906,0.495232,0.886478,-0.144072,-0.100233,0.0868474,-0.0106759,-0.419364,-0.406542,0.642181,-0.653858,-0.0309159,
0.014322,-0.196111,-0.332267,-1.65939,-0.0827409,-0.101075,-0.382875,0.159096,-0.0515911,0.17508,-0.054768,0.340756,-0.643583,0.0144258,0,0,0,0,0,0,0,0.0127166,-0.195692,-0.333877,-1.65863,-0.0762497,1.47236,0.402343,0.00606104,0.00248353,0.00807259,0.00467255,0.249393,-0.110661,-5.69305e-05,1.4516,-25.3102,3.61116,25.6815,1.44256,1.86577,-0.0227812,-0.792619,-0.349886,1.22623,0.903522,-0.56056,-0.261787,-0.100635,-0.317374,-0.54541,-0.183808,0.580461,-0.74202,-0.0229773,
0.0141649,-0.196196,-0.332323,-1.65915,-0.0726933,-0.104446,-0.382862,0.16262,-0.05248,0.179298,-0.0574,0.344389,-0.665331,0.0153155,0,0,0,0,0,0,0,0.0127166,-0.195692,-0.333877,-1.65863,-0.0762497,1.47236,0.402343,0.00606104,0.00248353,0.00807259,0.00467255,0.249393,-0.110661,-5.69305e-05,1.4516,-25.3102,3.61116,25.6815,1.44256,1.86577,-0.0227812,-0.792619,-0.349886,1.22623,0.903522,-0.56056,-0.261787,-0.100635,-0.317374,-0.54541,-0.183808,0.580461,-0.74202,-0.0229773,
0.0149419,-0.196419,-0.331457,-1.65942,-0.0710693,-0.107612,-0.382804,0.194265,-0.0557167,0.21634,-0.0668144,0.40601,-0.791453,0.0144584,0,0,0,0,0,0,0,0.0127166,-0.195692,-0.333877,-1.65863,-0.0762497,1.47236,0.402343,0.00606104,0.00248353,0.00807259,0.00467255,0.249393,-0.110661,-5.69305e-05,1.4516,-25.3102,3.61116,25.6815,1.44256,1.86577,-0.0227812,-0.0641157,0.109871,1.76795,0.47969,-0.139023,0.065512,0.174652,-0.131571,-0.128273,-0.122858,0.591187,-0.797368,-0.019588,
0.015824,-0.196643,-0.330471,-1.65972,-0.0691884,-0.111189,-0.382749,0.220529,-0.0560475,0.246644,-0.075069,0.470228,-0.894201,0.0137579,0,0,0,0,0,0,0,0.0127166,-0.195692,-0.333877,-1.65863,-0.0762497,1.47236,0.402343,0.00606104,0.00248353,0.00807259,0.00467255,0.249393,-0.110661,-5.69305e-05,1.4516,-25.3102,3.61116,25.6815,1.44256,1.86577,-0.0227812,-0.0641157,0.109871,1.76795,0.47969,-0.139023,0.065512,0.174652,-0.131571,-0.128273,-0.122858,0.591187,-0.797368,-0.019588,
0.0167943,-0.196861,-0.329384,-1.66005,-0.0670537,-0.1151,-0.382696,0.242558,-0.0544564,0.271727,-0.0824783,0.533684,-0.977789,0.0131701,0,0,0,0,0,0,0,0.0127166,-0.195692,-0.333877,-1.65863,-0.0762497,1.47236,0.402343,0.00606104,0.00248353,0.00807259,0.00467255,0.249393,-0.110661,-5.69305e-05,1.4516,-25.3102,3.61116,25.6815,1.44256,1.86577,-0.0227812,0.466464,1.19709,0.898107,-0.017689,0.731891,0.643621,0.731809,0.565658,0.481328,-0.699992,0.766997,-0.99558,-0.015634,
0.017839,-0.197068,-0.328213,-1.66041,-0.0646762,-0.119283,-0.382646,0.261187,-0.0515897,0.292694,-0.0891327,0.594364,-1.04578,0.0126656,0,0,0,0,0,0,0,0.0130838,-0.196037,-0.333262,-1.6586,-0.0675079,1.46609,0.402349,0.028754,-0.0171895,0.0272986,-0.0168786,0.172757,-0.183558,-0.000381275,2.21332,-25.3856,4.58711,25.3085,1.42425,2.01867,-0.0026396,-0.850864,1.45344,0.979168,-0.234955,-0.235281,0.519341,0.603276,0.0391072,0.38995,-0.585354,0.733385,-1.07569,-0.00892539,
0.0148515,-0.196474,-0.331629,-1.65965,-0.0739453,-0.104206,-0.382866,0.238467,-0.0773534,0.259784,-0.104527,0.214635,-0.647183,0.0151537,0,0,0,0,0,0,0,0.0130838,-0.196037,-0.333262,-1.6586,-0.0675079,1.46609,0.402349,0.028754,-0.0171895,0.0272986,-0.0168786,0.172757,-0.183558,-0.000381275,2.21332,-25.3856,4.58711,25.3085,1.42425,2.01867,-0.0026396,-0.850864,1.45344,0.979168,-0.234955,-0.235281,0.519341,0.603276,0.0391072,0.38995,-0.585354,0.733385,-1.07569,-0.00892539,
0.015301,-0.196889,-0.330907,-1.65971,-0.065551,-0.111118,-0.382835,0.241848,-0.0800517,0.264178,-0.109008,0.199846,-0.689806,0.0167012,0,0,0,0,0,0,0,0.0130838,-0.196037,-0.333262,-1.6586,-0.0675079,1.46609,0.402349,0.028754,-0.0171895,0.0272986,-0.0168786,0.172757,-0.183558,-0.000381275,2.21332,-25.3856,4.58711,25.3085,1.42425,2.01867,-0.0026396,-1.57725,0.0166711,0.834755,0.580761,-0.663486,-0.257571,-0.164686,-0.152491,-0.444898,-0.542019,0.387995,-1.05284,-0.00349201,
0.0164388,-0.197209,-0.32965,-1.66018,-0.0645004,-0.114361,-0.382773,0.284451,-0.0800056,0.314221,-0.118745,0.262657,-0.810603,0.0155791,0,0,0,0,0,0,0,0.0130838,-0.196037,-0.333262,-1.6586,-0.0675079,1.46609,0.402349,0.028754,-0.0171895,0.0272986,-0.0168786,0.172757,-0.183558,-0.000381275,2.21332,-25.3856,4.58711,25.3085,1.42425,2.01867,-0.0026396,-1.57725,0.0166711,0.834755,0.580761,-0.663486,-0.257571,-0.164686,-0.152491,-0.444898,-0.542019,0.387995,-1.05284,-0.00349201,
0.0177171,-0.197517,-0.32823,-1.66069,-0.0631682,-0.117996,-0.382714,0.319577,-0.0769113,0.35492,-0.127019,0.333054,-0.90875,0.0146889,0,0,0,0,0,0,0,0.0130838,-0.196037,-0.333262,-1.6586,-0.0675079,1.46609,0.402349,0.028754,-0.0171895,0.0272986,-0.0168786,0.172757,-0.183558,-0.000381275,2.21332,-25.3856,4.58711,25.3085,1.42425,2.01867,-0.0026396,-1.00184,-0.337549,0.851028,0.718968,-0.181718,-0.315122,-0.227001,0.137267,-0.502335,-0.606357,0.248596,-1.04829,-0.00107044,
0.0191126,-0.197805,-0.326677,-1.66123,-0.0615457,-0.121948,-0.382658,0.348856,-0.0720055,0.388415,-0.134384,0.405619,-0.988187,0.0139967,0,0,0,0,0,0,0,0.014545,-0.196724,-0.331197,-1.65911,-0.060955,1.45852,0.402352,0.066679,-0.0327082,0.0811975,-0.031142,0.19344,-0.269009,-0.000581253,2.74494,-25.0881,5.23775,25.0864,1.18621,2.20452,0.0101778,-1.08173,1.24281,0.727549,-0.356507,-0.211494,0.377451,0.443229,0.143411,0.302823,-0.65645,0.397582,-1.0772,0.00380877,
0.0206065,-0.198068,-0.325012,-1.66179,-0.0596378,-0.126159,-0.382605,0.373488,-0.0658984,0.416218,-0.140707,0.47698,-1.0526,0.0133087,0,0,0,0,0,0,0,0.014545,-0.196724,-0.331197,-1.65911,-0.060955,1.45852,0.402352,0.066679,-0.0327082,0.0811975,-0.031142,0.19344,-0.269009,-0.000581253,2.74494,-25.0881,5.23775,25.0864,1.18621,2.20452,0.0101778,-1.08173,1.24281,0.727549,-0.356507,-0.211494,0.377451,0.443229,0.143411,0.302823,-0.65645,0.397582,-1.0772,0.00380877,
0.0159033,-0.197156,-0.330304,-1.66017,-0.0666372,-0.11088,-0.382856,0.308181,-0.104229,0.334047,-0.153048,0.08757,-0.671577,0.0153652,0,0,0,0,0,0,0,0.014545,-0.196724,-0.331197,-1.65911,-0.060955,1.45852,0.402352,0.066679,-0.0327082,0.0811975,-0.031142,0.19344,-0.269009,-0.000581253,2.74494,-25.0881,5.23775,25.0864,1.18621,2.20452,0.0101778,-1.48099,0.659891,-0.0241432,0.0540428,-0.225298,0.0458295,0.114402,0.258832,-0.0674597,-0.86415,0.242297,-1.04725,0.00640406,
0.0176715,-0.197888,-0.327881,-1.66073,-0.0594935,-0.11914,-0.382825,0.328024,-0.105041,0.356423,-0.156262,0.142922,-0.716016,0.0169438,0,0,0,0,0,0,0,0.014545,-0.196724,-0.331197,-1.65911,-0.060955,1.45852,0.402352,0.066679,-0.0327082,0.0811975,-0.031142,0.19344,-0.269009,-0.000581253,2.74494,-25.0881,5.23775,25.0864,1.18621,2.20452,0.0101778,-1.48099,0.659891,-0.0241432,0.0540428,-0.225298,0.0458295,0.114402,0.258832,-0.0674597,-0.86415,0.242297,-1.04725,0.00640406,
0.0191824,-0.198296,-0.326221,-1.6614,-0.05869,-0.12246,-0.382762,0.377729,-0.102145,0.41499,-0.166456,0.200877,-0.83,0.0157692,0,0,0,0,0,0,0,0.014545,-0.196724,-0.331197,-1.65911,-0.060955,1.45852,0.402352,0.066679,-0.0327082,0.0811975,-0.031142,0.19344,-0.269009,-0.000581253,2.74494,-25.0881,5.23775,25.0864,1.18621,2.20452,0.0101778,-2.55245,-0.251892,-0.201445,0.51549,-0.994656,-0.542753,-0.45049,-0.158258,-0.694393,-0.722493,-0.0272978,-0.961411,0.00912735,
0.0208563,-0.19868,-0.324372,-1.6621,-0.0576061,-0.12615,-0.382703,0.418461,-0.0959032,0.462289,-0.17435,0.270961,-0.922636,0.0147312,0,0,0,0,0,0,0,0.0174703,-0.198108,-0.327512,-1.66026,-0.0567501,1.44921,0.402357,0.111334,-0.0489875,0.141995,-0.0430803,0.174666,-0.341879,-0.000924952,3.85974,-24.8857,6.56282,24.6857,1.17981,2.39678,0.017502,-2.55245,-0.251892,-0.201445,0.51549,-0.994656,-0.542753,-0.45049,-0.158258,-0.694393,-0.722493,-0.0272978,-0.961411,0.00912735,
0.0226645,-0.199036,-0.322368,-1.66284,-0.0562209,-0.130064,-0.382647,0.45205,-0.08895,0.501025,-0.184633,0.346321,-0.978294,0.0139281,0,0,0,0,0,0,0,0.0174703,-0.198108,-0.327512,-1.66026,-0.0567501,1.44921,0.402357,0.111334,-0.0489875,0.141995,-0.0430803,0.174666,-0.341879,-0.000924952,3.85974,-24.8857,6.56282,24.6857,1.17981,2.39678,0.017502,-1.43402,0.998368,-0.393036,-0.356895,-0.142855,0.212266,0.276141,0.330786,0.157655,-0.858384,0.0886856,-0.899221,0.00918274,
0.0245845,-0.199361,-0.320236,-1.66362,-0.0545313,-0.134055,-0.382594,0.480008,-0.0814079,0.532885,-0.196257,0.422398,-0.997901,0.0133237,0,0,0,0,0,0,0,0.0174703,-0.198108,-0.327512,-1.66026,-0.0567501,1.44921,0.402357,0.111334,-0.0489875,0.141995,-0.0430803,0.174666,-0.341879,-0.000924952,3.85974,-24.8857,6.56282,24.6857,1.17981,2.39678,0.017502,-1.17108,0.892247,-0.30552,-0.270841,-0.0180985,0.203234,0.241782,0.368681,0.159988,-0.818044,0.124889,-0.858288,0.0119071,
0.0184707,-0.198095,-0.327827,-1.66114,-0.0602459,-0.118904,-0.382861,0.402768,-0.123329,0.376661,-0.195634,0.0664359,-0.696245,0.0145399,0,0,0,0,0,0,0,0.0174703,-0.198108,-0.327512,-1.66026,-0.0567501,1.44921,0.402357,0.111334,-0.0489875,0.141995,-0.0430803,0.174666,-0.341879,-0.000924952,3.85974,-24.8857,6.56282,24.6857,1.17981,2.39678,0.017502,-1.17108,0.892247,-0.30552,-0.270841,-0.0180985,0.203234,0.241782,0.368681,0.159988,-0.818044,0.124889,-0.858288,0.0119071,
0.0216837,-0.199525,-0.323645,-1.66232,-0.0557271,-0.128804,-0.382823,0.421088,-0.124093,0.409573,-0.19641,0.104354,-0.73469,0.0165357,0,0,0,0,0,0,0,0.0174703,-0.198108,-0.327512,-1.66026,-0.0567501,1.44921,0.402357,0.111334,-0.0489875,0.141995,-0.0430803,0.174666,-0.341879,-0.000924952,3.85974,-24.8857,6.56282,24.6857,1.17981,2.39678,0.017502,-3.42774,-0.634388,-0.296326,0.703715,-1.74752,-0.853896,-0.75261,-0.623244,-1.01747,-0.514523,-0.109448,-0.822591,0.0160389,
0.0235712,-0.200001,-0.321745,-1.66316,-0.0550769,-0.132102,-0.382762,0.471884,-0.1189,0.475073,-0.210276,0.162545,-0.824495,0.015251,0,0,0,0,0,0,0,0.0174703,-0.198108,-0.327512,-1.66026,-0.0567501,1.44921,0.402357,0.111334,-0.0489875,0.141995,-0.0430803,0.174666,-0.341879,-0.000924952,3.85974,-24.8857,6.56282,24.6857,1.17981,2.39678,0.017502,-3.42774,-0.634388,-0.296326,0.703715,-1.74752,-0.853896,-0.75261,-0.623244,-1.01747,-0.514523,-0.109448,-0.822591,0.0160389,
0.0256242,-0.200446,-0.31963,-1.66406,-0.0541411,-0.135564,-0.382704,0.513239,-0.111381,0.528782,-0.225119,0.233953,-0.865567,0.0143826,0,0,0,0,0,0,0,0.0237347,-0.201162,-0.319708,-1.66357,-0.0542493,1.43459,0.402365,0.198222,-0.0852633,0.199218,-0.099,0.0200892,-0.380338,-0.00122099,2.34027,-24.9611,4.964,25.3323,1.73553,2.15783,0.0303194,-3.48094,-0.590713,-0.462069,0.663445,-1.78905,-0.826882,-0.692985,-0.649641,-1.01337,-0.502885,-0.119988,-0.755997,0.012607,
0.0278139,-0.200851,-0.317337,-1.66501,-0.0528982,-0.139086,-0.382649,0.54743,-0.101203,0.573193,-0.236593,0.310735,-0.880456,0.0136727,0,0,0,0,0,0,0,0.0237347,-0.201162,-0.319708,-1.66357,-0.0542493,1.43459,0.402365,0.198222,-0.0852633,0.199218,-0.099,0.0200892,-0.380338,-0.00122099,2.34027,-24.9611,4.964,25.3323,1.73553,2.15783,0.0303194,-2.07852,1.28209,-0.0513614,-0.579583,-0.896411,0.243113,0.305333,-0.204444,0.217311,-0.54234,0.184798,-0.790828,0.00927013,
0.0301174,-0.201209,-0.314895,-1.66599,-0.0513467,-0.142606,-0.382597,0.575879,-0.0894467,0.6105,-0.244675,0.38786,-0.879961,0.0130785,0,0,0,0,0,0,0,0.0237347,-0.201162,-0.319708,-1.66357,-0.0542493,1.43459,0.402365,0.198222,-0.0852633,0.199218,-0.099,0.0200892,-0.380338,-0.00122099,2.34027,-24.9611,4.964,25.3323,1.73553,2.15783,0.0303194,-2.07852,1.28209,-0.0513614,-0.579583,-0.896411,0.243113,0.305333,-0.204444,0.217311,-0.54234,0.184798,-0.790828,0.00927013,
0.0325161,-0.201517,-0.312326,-1.66699,-0.0494976,-0.146086,-0.382547,0.59968,-0.0771167,0.642268,-0.250134,0.462279,-0.869941,0.0125713,0,0,0,0,0,0,0,0.0237347,-0.201162,-0.319708,-1.66357,-0.0542493,1.43459,0.402365,0.198222,-0.0852633,0.199218,-0.099,0.0200892,-0.380338,-0.00122099,2.34027,-24.9611,4.964,25.3323,1.73553,2.15783,0.0303194,-2.42284,0.443266,0.391132,-0.0265457,-1.33411,-0.190461,-0.137156,-0.534119,-0.252761,-0.322706,0.146813,-0.772447,0.0104814,
0.0221223,-0.199658,-0.323837,-1.66267,-0.055929,-0.12856,-0.38288,0.463893,-0.135606,0.394004,-0.231444,0.0840642,-0.713221,0.0126623,0,0,0,0,0,0,0,0.0237347,-0.201162,-0.319708,-1.66357,-0.0542493,1.43459,0.402365,0.198222,-0.0852633,0.199218,-0.099,0.0200892,-0.380338,-0.00122099,2.34027,-24.9611,4.964,25.3323,1.73553,2.15783,0.0303194,-2.42284,0.443266,0.391132,-0.0265457,-1.33411,-0.190461,-0.137156,-0.534119,-0.252761,-0.322706,0.146813,-0.772447,0.0104814,
0.0288455,-0.202753,-0.315493,-1.66613,-0.0540161,-0.143556,-0.382847,0.493053,-0.134432,0.428909,-0.242109,0.0667782,-0.702262,0.0143216,0,0,0,0,0,0,0,0.0309938,-0.20414,-0.312513,-1.66727,-0.0541243,1.42344,0.402381,0.243512,-0.100536,0.281028,-0.126363,0.0212857,-0.362254,0.000624805,4.87537,-24.1399,7.56257,24.7849,2.27295,1.93902,-0.0301054,-2.28891,-0.680094,-0.33301,0.841746,-0.945225,-0.663719,-0.552511,-0.208997,-0.866892,-0.60226,0.0298733,-0.758058,0.0115683,
0.0310198,-0.203258,-0.313542,-1.66717,-0.0534546,-0.146513,-0.382793,0.543565,-0.126322,0.487802,-0.259283,0.140385,-0.739214,0.0134351,0,0,0,0,0,0,0,0.0309938,-0.20414,-0.312513,-1.66727,-0.0541243,1.42344,0.402381,0.243512,-0.100536,0.281028,-0.126363,0.0212857,-0.362254,0.000624805,4.87537,-24.1399,7.56257,24.7849,2.27295,1.93902,-0.0301054,-2.28891,-0.680094,-0.33301,0.841746,-0.945225,-0.663719,-0.552511,-0.208997,-0.866892,-0.60226,0.0298733,-0.758058,0.0115683,
0.0333635,-0.203716,-0.311396,-1.66825,-0.0525715,-0.149533,-0.382742,0.585916,-0.114639,0.536457,-0.270637,0.220761,-0.755158,0.0127458,0,0,0,0,0,0,0,0.0309938,-0.20414,-0.312513,-1.66727,-0.0541243,1.42344,0.402381,0.243512,-0.100536,0.281028,-0.126363,0.0212857,-0.362254,0.000624805,4.87537,-24.1399,7.56257,24.7849,2.27295,1.93902,-0.0301054,-2.63671,0.401772,-0.455445,0.177306,-1.17676,-0.22603,-0.120369,-0.315884,-0.37145,-0.635842,0.19949,-0.795622,0.0107693,
0.0358509,-0.204122,-0.309087,-1.66936,-0.0513627,-0.152563,-0.382693,0.621868,-0.10136,0.57728,-0.278102,0.302196,-0.75747,0.0121881,0,0,0,0,0,0,0,0.0309938,-0.20414,-0.312513,-1.66727,-0.0541243,1.42344,0.402381,0.243512,-0.100536,0.281028,-0.126363,0.0212857,-0.362254,0.000624805,4.87537,-24.1399,7.56257,24.7849,2.27295,1.93902,-0.0301054,-1.08303,3.39113,-0.308603,-1.82758,-0.0752605,1.35952,1.38276,0.309016,1.45182,-0.797008,0.583904,-0.835754,0.00347993,
0.0384617,-0.204473,-0.306639,-1.67049,-0.0498377,-0.155566,-0.382646,0.652699,-0.0876895,0.611971,-0.282946,0.381252,-0.750742,0.0117245,0,0,0,0,0,0,0,0.0309938,-0.20414,-0.312513,-1.66727,-0.0541243,1.42344,0.402381,0.243512,-0.100536,0.281028,-0.126363,0.0212857,-0.362254,0.000624805,4.87537,-24.1399,7.56257,24.7849,2.27295,1.93902,-0.0301054,-1.08303,3.39113,-0.308603,-1.82758,-0.0752605,1.35952,1.38276,0.309016,1.45182,-0.797008,0.583904,-0.835754,0.00347993,
0.0288416,-0.202838,-0.315483,-1.66644,-0.0540057,-0.143399,-0.382896,0.492787,-0.140985,0.429411,-0.27149,0.068284,-0.695176,0.0106981,0,0,0,0,0,0,0,0.0309938,-0.20414,-0.312513,-1.66727,-0.0541243,1.42344,0.402381,0.243512,-0.100536,0.281028,-0.126363,0.0212857,-0.362254,0.000624805,4.87537,-24.1399,7.56257,24.7849,2.27295,1.93902,-0.0301054,-1.33042,1.49061,-0.388832,-0.449323,-0.202343,0.459147,0.479385,0.237318,0.42081,-0.807314,0.459628,-0.836211,0.00583287,
0.0365764,-0.205817,-0.307731,-1.67027,-0.053395,-0.153363,-0.382857,0.52556,-0.137286,0.466717,-0.279815,0.119431,-0.550196,0.012141,0,0,0,0,0,0,0,0.0399819,-0.207516,-0.304047,-1.67172,-0.0540256,1.41273,0.402393,0.327868,-0.114516,0.276978,-0.151303,0.00305148,-0.316337,0.00108735,5.9386,-24.2629,7.61018,24.1382,1.8399,2.36382,-0.0566557,-1.33042,1.49061,-0.388832,-0.449323,-0.202343,0.459147,0.479385,0.237318,0.42081,-0.807314,0.459628,-0.836211,0.00583287,
0.0388607,-0.206317,-0.305654,-1.67144,-0.0526116,-0.155666,-0.382812,0.571075,-0.125136,0.519198,-0.293072,0.195852,-0.575645,0.0113258,0,0,0,0,0,0,0,0.0399819,-0.207516,-0.304047,-1.67172,-0.0540256,1.41273,0.402393,0.327868,-0.114516,0.276978,-0.151303,0.00305148,-0.316337,0.00108735,5.9386,-24.2629,7.61018,24.1382,1.8399,2.36382,-0.0566557,-2.97429,-0.0394289,-1.22477,0.709228,-1.14849,-0.453324,-0.307989,-0.197293,-0.707945,-0.906303,0.296147,-0.818278,0.00739934,
0.0412984,-0.206761,-0.303402,-1.67264,-0.0515095,-0.158017,-0.382769,0.609441,-0.110904,0.562984,-0.301286,0.275525,-0.587734,0.0106913,0,0,0,0,0,0,0,0.0399819,-0.207516,-0.304047,-1.67172,-0.0540256,1.41273,0.402393,0.327868,-0.114516,0.276978,-0.151303,0.00305148,-0.316337,0.00108735,5.9386,-24.2629,7.61018,24.1382,1.8399,2.36382,-0.0566557,-2.97429,-0.0394289,-1.22477,0.709228,-1.14849,-0.453324,-0.307989,-0.197293,-0.707945,-0.906303,0.296147,-0.818278,0.00739934,
0.0438671,-0.207146,-0.301002,-1.67387,-0.0500926,-0.160377,-0.382728,0.642172,-0.0962143,0.600001,-0.306537,0.354231,-0.590064,0.0101645,0,0,0,0,0,0,0,0.0399819,-0.207516,-0.304047,-1.67172,-0.0540256,1.41273,0.402393,0.327868,-0.114516,0.276978,-0.151303,0.00305148,-0.316337,0.00108735,5.9386,-24.2629,7.61018,24.1382,1.8399,2.36382,-0.0566557,-2.71009,1.37613,-1.33807,-0.188069,-0.972826,0.232225,0.362234,-0.0912762,0.0625756,-0.952157,0.519772,-0.793512,0.0016488,
0.0465485,-0.207473,-0.298476,-1.67511,-0.0483746,-0.162719,-0.382689,0.670347,-0.0818818,0.63163,-0.309857,0.429493,-0.585363,0.00970206,0,0,0,0,0,0,0,0.0399819,-0.207516,-0.304047,-1.67172,-0.0540256,1.41273,0.402393,0.327868,-0.114516,0.276978,-0.151303,0.00305148,-0.316337,0.00108735,5.9386,-24.2629,7.61018,24.1382,1.8399,2.36382,-0.0566557,-1.85867,2.15889,-0.671098,-0.771286,-0.592601,0.699004,0.735113,0.0267152,0.664007,-0.796934,0.659437,-0.783307,-0.00134791,
0.0344741,-0.205268,-0.309598,-1.66915,-0.0538727,-0.151163,-0.382905,0.470539,-0.144,0.402881,-0.256934,0.0532817,-0.507254,0.0132824,0,0,0,0,0,0,0,0.0507865,-0.210959,-0.294432,-1.67672,-0.0540266,1.40402,0.402394,0.337935,-0.113582,0.302773,-0.173162,0.0134775,-0.230315,0.000185473,5.0777,-23.513,6.83656,23.8882,1.35742,2.54876,-0.0227812,-1.85867,2.15889,-0.671098,-0.771286,-0.592601,0.699004,0.735113,0.0267152,0.664007,-0.796934,0.659437,-0.783307,-0.00134791,
0.0567971,-0.212514,-0.289197,-1.67983,-0.0528848,-0.171002,-0.382836,0.554902,-0.122696,0.498477,-0.278326,0.161299,-0.404879,0.0128843,0,0,0,0,0,0,0,0.0507865,-0.210959,-0.294432,-1.67672,-0.0540266,1.40402,0.402394,0.337935,-0.113582,0.302773,-0.173162,0.0134775,-0.230315,0.000185473,5.0777,-23.513,6.83656,23.8882,1.35742,2.54876,-0.0227812,-2.50284,0.735667,-0.747696,0.121749,-1.09309,-0.0145282,0.0884721,-0.285646,-0.174517,-0.666502,0.436669,-0.698222,0.000591001,
0.0591832,-0.212954,-0.287011,-1.68097,-0.0519288,-0.172758,-0.382789,0.596509,-0.110114,0.546645,-0.286885,0.239,-0.438906,0.0119613,0,0,0,0,0,0,0,0.0507865,-0.210959,-0.294432,-1.67672,-0.0540266,1.40402,0.402394,0.337935,-0.113582,0.302773,-0.173162,0.0134775,-0.230315,0.000185473,5.0777,-23.513,6.83656,23.8882,1.35742,2.54876,-0.0227812,-2.50284,0.735667,-0.747696,0.121749,-1.09309,-0.0145282,0.0884721,-0.285646,-0.174517,-0.666502,0.436669,-0.698222,0.000591001,
0.06171,-0.213341,-0.284663,-1.68214,-0.0506575,-0.174601,-0.382744,0.631717,-0.0966514,0.587033,-0.292455,0.317812,-0.460861,0.0112047,0,0,0,0,0,0,0,0.0507865,-0.210959,-0.294432,-1.67672,-0.0540266,1.40402,0.402394,0.337935,-0.113582,0.302773,-0.173162,0.0134775,-0.230315,0.000185473,5.0777,-23.513,6.83656,23.8882,1.35742,2.54876,-0.0227812,-1.95914,-0.159809,-1.70758,0.82222,-0.346148,-0.334495,-0.186216,0.251455,-0.617426,-1.03108,0.339984,-0.636319,0.000884299,
0.0643573,-0.213674,-0.282178,-1.68333,-0.0490795,-0.176494,-0.382701,0.661811,-0.0832838,0.62127,-0.296245,0.394503,-0.473131,0.0105956,0,0,0,0,0,0,0,0.0507865,-0.210959,-0.294432,-1.67672,-0.0540266,1.40402,0.402394,0.337935,-0.113582,0.302773,-0.173162,0.0134775,-0.230315,0.000185473,5.0777,-23.513,6.83656,23.8882,1.35742,2.54876,-0.0227812,-1.95914,-0.159809,-1.70758,0.82222,-0.346148,-0.334495,-0.186216,0.251455,-0.617426,-1.03108,0.339984,-0.636319,0.000884299,
0.0671082,-0.213956,-0.279575,-1.68452,-0.0472108,-0.178405,-0.382661,0.687733,-0.0704737,0.650558,-0.298789,0.46717,-0.477835,0.0101592,0,0,0,0,0,0,0,0.0507865,-0.210959,-0.294432,-1.67672,-0.0540266,1.40402,0.402394,0.337935,-0.113582,0.302773,-0.173162,0.0134775,-0.230315,0.000185473,5.0777,-23.513,6.83656,23.8882,1.35742,2.54876,-0.0227812,-1.39573,1.51139,-1.17781,-0.366459,-0.100187,0.489281,0.530888,0.35287,0.409332,-0.943327,0.542076,-0.676523,-0.0023958,
0.0545775,-0.212023,-0.291191,-1.67871,-0.05353,-0.169382,-0.382888,0.505002,-0.132248,0.440306,-0.263795,0.0900289,-0.356737,0.0140522,0,0,0,0,0,0,0,0.0629303,-0.214714,-0.283153,-1.68305,-0.0534011,1.39739,0.402402,0.366218,-0.115409,0.347778,-0.200399,0.0193586,-0.149471,0.00165605,3.76056,-24.1399,5.76143,24.1144,1.11847,2.3565,-0.0429228,-2.77164,0.600721,-0.716291,0.104543,-1.3041,-0.079841,-0.0190601,-0.404265,-0.188146,-0.59877,0.349656,-0.669144,-0.00136844,
0.069225,-0.216149,-0.277597,-1.68618,-0.0519631,-0.176696,-0.382822,0.574733,-0.111072,0.520543,-0.274112,0.190541,-0.327872,0.0133951,0,0,0,0,0,0,0,0.0629303,-0.214714,-0.283153,-1.68305,-0.0534011,1.39739,0.402402,0.366218,-0.115409,0.347778,-0.200399,0.0193586,-0.149471,0.00165605,3.76056,-24.1399,5.76143,24.1144,1.11847,2.3565,-0.0429228,-2.77164,0.600721,-0.716291,0.104543,-1.3041,-0.079841,-0.0190601,-0.404265,-0.188146,-0.59877,0.349656,-0.669144,-0.00136844,
0.0716793,-0.216544,-0.275335,-1.6873,-0.0508868,-0.178154,-0.382772,0.613555,-0.0988933,0.565552,-0.280442,0.269052,-0.364477,0.0124161,0,0,0,0,0,0,0,0.0629303,-0.214714,-0.283153,-1.68305,-0.0534011,1.39739,0.402402,0.366218,-0.115409,0.347778,-0.200399,0.0193586,-0.149471,0.00165605,3.76056,-24.1399,5.76143,24.1144,1.11847,2.3565,-0.0429228,-1.9823,-0.0788442,-1.68146,0.593535,-0.321314,-0.264868,-0.131348,0.289506,-0.497291,-1.03101,0.208755,-0.644557,-0.00331805,
0.0742653,-0.216889,-0.272921,-1.68844,-0.0494978,-0.179712,-0.382726,0.646504,-0.0863278,0.603424,-0.284745,0.347257,-0.389577,0.0116997,0,0,0,0,0,0,0,0.0629303,-0.214714,-0.283153,-1.68305,-0.0534011,1.39739,0.402402,0.366218,-0.115409,0.347778,-0.200399,0.0193586,-0.149471,0.00165605,3.76056,-24.1399,5.76143,24.1144,1.11847,2.3565,-0.0429228,-1.9823,-0.0788442,-1.68146,0.593535,-0.321314,-0.264868,-0.131348,0.289506,-0.497291,-1.03101,0.208755,-0.644557,-0.00331805,
0.0769642,-0.217186,-0.270379,-1.68959,-0.0478077,-0.181333,-0.382681,0.67472,-0.07404,0.635604,-0.287783,0.422527,-0.405193,0.0111167,0,0,0,0,0,0,0,0.0629303,-0.214714,-0.283153,-1.68305,-0.0534011,1.39739,0.402402,0.366218,-0.115409,0.347778,-0.200399,0.0193586,-0.149471,0.00165605,3.76056,-24.1399,5.76143,24.1144,1.11847,2.3565,-0.0429228,-0.836048,1.81265,-1.33133,-0.683513,0.425418,0.730527,0.823291,0.702529,0.641252,-1.07532,0.463781,-0.676022,-0.00664296,
0.0797604,-0.217435,-0.267726,-1.69075,-0.0458344,-0.182986,-0.382639,0.699051,-0.0623421,0.663176,-0.289877,0.493336,-0.41317,0.0106274,0,0,0,0,0,0,0,0.0762922,-0.218224,-0.271157,-1.6897,-0.0514043,1.39311,0.4024,0.403976,-0.0938452,0.36,-0.19289,0.0377887,-0.0940592,-0.000311607,0.892215,-24.7389,3.0121,25.6577,1.06994,2.40319,0.0101778,-0.836048,1.81265,-1.33133,-0.683513,0.425418,0.730527,0.823291,0.702529,0.641252,-1.07532,0.463781,-0.676022,-0.00664296,
0.0669261,-0.215704,-0.279679,-1.68508,-0.0527252,-0.175384,-0.382876,0.528375,-0.121369,0.466483,-0.263755,0.116057,-0.27813,0.0146442,0,0,0,0,0,0,0,0.0762922,-0.218224,-0.271157,-1.6897,-0.0514043,1.39311,0.4024,0.403976,-0.0938452,0.36,-0.19289,0.0377887,-0.0940592,-0.000311607,0.892215,-24.7389,3.0121,25.6577,1.06994,2.40319,0.0101778,-1.96826,0.235959,0.118155,0.256186,-0.961906,-0.121709,-0.0649036,-0.335609,-0.233193,-0.399281,0.316568,-0.681925,-0.0023463,
0.0827898,-0.219458,-0.265384,-1.69276,-0.0496526,-0.180211,-0.382819,0.589097,-0.0962676,0.536288,-0.268675,0.217045,-0.264511,0.0139059,0,0,0,0,0,0,0,0.0762922,-0.218224,-0.271157,-1.6897,-0.0514043,1.39311,0.4024,0.403976,-0.0938452,0.36,-0.19289,0.0377887,-0.0940592,-0.000311607,0.892215,-24.7389,3.0121,25.6577,1.06994,2.40319,0.0101778,-1.96826,0.235959,0.118155,0.256186,-0.961906,-0.121709,-0.0649036,-0.335609,-0.233193,-0.399281,0.316568,-0.681925,-0.0023463,
0.0852943,-0.219801,-0.263067,-1.69386,-0.0484746,-0.181423,-0.382767,0.626123,-0.0857301,0.579357,-0.274275,0.294508,-0.303205,0.0129505,0,0,0,0,0,0,0,0.0762922,-0.218224,-0.271157,-1.6897,-0.0514043,1.39311,0.4024,0.403976,-0.0938452,0.36,-0.19289,0.0377887,-0.0940592,-0.000311607,0.892215,-24.7389,3.0121,25.6577,1.06994,2.40319,0.0101778,-1.59268,-1.92874,0.364602,1.6261,-0.786403,-1.05294,-0.950287,-0.344577,-1.32242,-0.267328,0.0247859,-0.605562,0.0011512,
0.0879245,-0.2201,-0.260604,-1.69497,-0.0469899,-0.182746,-0.382718,0.657546,-0.0747032,0.615612,-0.277985,0.371168,-0.330656,0.0121785,0,0,0,0,0,0,0,0.0762922,-0.218224,-0.271157,-1.6897,-0.0514043,1.39311,0.4024,0.403976,-0.0938452,0.36,-0.19289,0.0377887,-0.0940592,-0.000311607,0.892215,-24.7389,3.0121,25.6577,1.06994,2.40319,0.0101778,-0.869039,0.523765,-0.420747,-0.0100937,0.0562537,0.159198,0.261881,0.323742,0.0269359,-0.677382,0.242502,-0.622934,-0.00537753,
0.0906623,-0.220355,-0.258018,-1.6961,-0.0452113,-0.184141,-0.382672,0.684451,-0.0638394,0.646422,-0.280569,0.444642,-0.348605,0.0115401,0,0,0,0,0,0,0,0.0762922,-0.218224,-0.271157,-1.6897,-0.0514043,1.39311,0.4024,0.403976,-0.0938452,0.36,-0.19289,0.0377887,-0.0940592,-0.000311607,0.892215,-24.7389,3.0121,25.6577,1.06994,2.40319,0.0101778,-0.869039,0.523765,-0.420747,-0.0100937,0.0562537,0.159198,0.261881,0.323742,0.0269359,-0.677382,0.242502,-0.622934,-0.00537753,
0.0934929,-0.220569,-0.255327,-1.69722,-0.0431571,-0.185576,-0.382628,0.707645,-0.05344,0.672816,-0.282319,0.513558,-0.35878,0.0110021,0,0,0,0,0,0,0,0.0896561,-0.220975,-0.258637,-1.69599,-0.0480684,1.391,0.402411,0.424408,-0.0873062,0.394821,-0.189204,0.0806428,-0.0383681,0.00012436,-0.551876,-25.6117,1.56404,26.6534,1.5039,2.12487,-0.0026396,-1.34403,0.854185,0.0234017,-0.152901,-0.421038,0.245243,0.28887,0.0115943,0.173627,-0.535622,0.398528,-0.701742,-0.00156105,
0.0964039,-0.220743,-0.252545,-1.69836,-0.0408483,-0.187026,-0.382586,0.727749,-0.0436499,0.695583,-0.283373,0.57721,-0.362683,0.0105422,0,0,0,0,0,0,0,0.0896561,-0.220975,-0.258637,-1.69599,-0.0480684,1.391,0.402411,0.424408,-0.0873062,0.394821,-0.189204,0.0806428,-0.0383681,0.00012436,-0.551876,-25.6117,1.56404,26.6534,1.5039,2.12487,-0.0026396,-1.34403,0.854185,0.0234017,-0.152901,-0.421038,0.245243,0.28887,0.0115943,0.173627,-0.535622,0.398528,-0.701742,-0.00156105,
0.0804334,-0.219073,-0.267529,-1.69169,-0.0505208,-0.179153,-0.382874,0.544911,-0.104795,0.48458,-0.259056,0.142726,-0.213606,0.0150927,0,0,0,0,0,0,0,0.0896561,-0.220975,-0.258637,-1.69599,-0.0480684,1.391,0.402411,0.424408,-0.0873062,0.394821,-0.189204,0.0806428,-0.0383681,0.00012436,-0.551876,-25.6117,1.56404,26.6534,1.5039,2.12487,-0.0026396,-2.39138,-0.0844059,-0.0667694,0.452563,-1.17842,-0.272105,-0.203492,-0.425957,-0.407259,-0.436164,0.264279,-0.696629,0.00187841,
0.096382,-0.222115,-0.2526,-1.69896,-0.0458061,-0.181665,-0.382804,0.605447,-0.088629,0.554968,-0.259747,0.258043,-0.210552,0.0141763,0,0,0,0,0,0,0,0.0896561,-0.220975,-0.258637,-1.69599,-0.0480684,1.391,0.402411,0.424408,-0.0873062,0.394821,-0.189204,0.0806428,-0.0383681,0.00012436,-0.551876,-25.6117,1.56404,26.6534,1.5039,2.12487,-0.0026396,-1.95036,0.47747,-1.12135,0.0864922,-0.460558,0.0511129,0.167765,0.156175,-0.105605,-0.859751,0.260511,-0.667358,-0.000855566,
0.0989434,-0.22243,-0.250218,-1.70002,-0.0444751,-0.182665,-0.382751,0.640355,-0.0786806,0.59564,-0.265157,0.332757,-0.250001,0.0132018,0,0,0,0,0,0,0,0.0896561,-0.220975,-0.258637,-1.69599,-0.0480684,1.391,0.402411,0.424408,-0.0873062,0.394821,-0.189204,0.0806428,-0.0383681,0.00012436,-0.551876,-25.6117,1.56404,26.6534,1.5039,2.12487,-0.0026396,-1.95036,0.47747,-1.12135,0.0864922,-0.460558,0.0511129,0.167765,0.156175,-0.105605,-0.859751,0.260511,-0.667358,-0.000855566,
0.101623,-0.222703,-0.247698,-1.70109,-0.0428498,-0.183778,-0.382702,0.669994,-0.068305,0.629904,-0.268797,0.406316,-0.278411,0.0124082,0,0,0,0,0,0,0,0.104187,-0.222985,-0.245189,-1.70167,-0.044732,1.39061,0.402411,0.468443,-0.0512913,0.430783,-0.158432,0.162077,-0.00315261,-0.000360358,2.97107,-24.2867,4.86085,24.5627,2.49267,1.79986,0.0101778,-2.12342,0.386007,-1.46918,0.31741,-0.416153,-0.0129201,0.0890009,0.235195,-0.202887,-1.02794,0.400282,-0.72562,0.000565251,
0.104405,-0.222936,-0.245062,-1.70218,-0.0409435,-0.184968,-0.382655,0.695376,-0.058094,0.659034,-0.271366,0.47658,-0.297442,0.0117471,0,0,0,0,0,0,0,0.104187,-0.222985,-0.245189,-1.70167,-0.044732,1.39061,0.402411,0.468443,-0.0512913,0.430783,-0.158432,0.162077,-0.00315261,-0.000360358,2.97107,-24.2867,4.86085,24.5627,2.49267,1.79986,0.0101778,-2.12342,0.386007,-1.46918,0.31741,-0.416153,-0.0129201,0.0890009,0.235195,-0.202887,-1.02794,0.400282,-0.72562,0.000565251,
0.107274,-0.223129,-0.242326,-1.70327,-0.0387742,-0.186203,-0.38261,0.717257,-0.0483206,0.683995,-0.273132,0.542327,-0.308765,0.0111867,0,0,0,0,0,0,0,0.104187,-0.222985,-0.245189,-1.70167,-0.044732,1.39061,0.402411,0.468443,-0.0512913,0.430783,-0.158432,0.162077,-0.00315261,-0.000360358,2.97107,-24.2867,4.86085,24.5627,2.49267,1.79986,0.0101778,-1.27897,0.733884,-0.66016,0.101833,-0.0890486,0.202141,0.226045,0.294037,0.0924651,-0.818092,0.537653,-0.716653,0.0011233,
0.110219,-0.223285,-0.239504,-1.70437,-0.0363624,-0.187459,-0.382567,0.73622,-0.0391162,0.705528,-0.27422,0.602941,-0.313845,0.0107055,0,0,0,0,0,0,0,0.104187,-0.222985,-0.245189,-1.70167,-0.044732,1.39061,0.402411,0.468443,-0.0512913,0.430783,-0.158432,0.162077,-0.00315261,-0.000360358,2.97107,-24.2867,4.86085,24.5627,2.49267,1.79986,0.0101778,-1.27897,0.733884,-0.66016,0.101833,-0.0890486,0.202141,0.226045,0.294037,0.0924651,-0.818092,0.537653,-0.716653,0.0011233,
0.0939602,-0.221761,-0.25482,-1.69792,-0.0468383,-0.180823,-0.382861,0.563811,-0.096763,0.506211,-0.250604,0.185725,-0.159167,0.0153736,0,0,0,0,0,0,0,0.104187,-0.222985,-0.245189,-1.70167,-0.044732,1.39061,0.402411,0.468443,-0.0512913,0.430783,-0.158432,0.162077,-0.00315261,-0.000360358,2.97107,-24.2867,4.86085,24.5627,2.49267,1.79986,0.0101778,-1.26309,0.169604,-1.19047,0.38816,0.125093,-0.0315503,0.025964,0.486112,-0.191102,-0.988429,0.358604,-0.68924,-0.00108027,
0.111248,-0.22387,-0.238771,-1.70452,-0.0415791,-0.181404,-0.382808,0.62951,-0.0710136,0.582507,-0.252903,0.326948,-0.153995,0.0139454,0,0,0,0,0,0,0,0.124608,-0.225028,-0.225559,-1.7089,-0.0391425,1.39064,0.402421,0.482455,-0.0408859,0.474682,-0.166198,0.195052,0.00617125,-0.00127962,2.26093,-24.8381,4.01185,24.4635,2.05322,1.5545,0.0101778,-2.53192,-0.981446,-1.35605,1.17152,-0.788856,-0.634017,-0.512887,-0.0567714,-0.907291,-0.879534,0.236829,-0.675429,-0.000234783,
0.113893,-0.224123,-0.236292,-1.70556,-0.0399959,-0.182182,-0.382756,0.66137,-0.0631966,0.619694,-0.258743,0.395812,-0.194507,0.0130013,0,0,0,0,0,0,0,0.124608,-0.225028,-0.225559,-1.7089,-0.0391425,1.39064,0.402421,0.482455,-0.0408859,0.474682,-0.166198,0.195052,0.00617125,-0.00127962,2.26093,-24.8381,4.01185,24.4635,2.05322,1.5545,0.0101778,-2.53192,-0.981446,-1.35605,1.17152,-0.788856,-0.634017,-0.512887,-0.0567714,-0.907291,-0.879534,0.236829,-0.675429,-0.000234783,
0.116647,-0.224341,-0.233688,-1.70661,-0.0381418,-0.18308,-0.382707,0.688386,-0.0545694,0.651008,-0.262379,0.463513,-0.224423,0.0122349,0,0,0,0,0,0,0,0.124608,-0.225028,-0.225559,-1.7089,-0.0391425,1.39064,0.402421,0.482455,-0.0408859,0.474682,-0.166198,0.195052,0.00617125,-0.00127962,2.26093,-24.8381,4.01185,24.4635,2.05322,1.5545,0.0101778,-2.21006,1.27988,-1.25681,-0.286637,-0.525713,0.437501,0.537672,0.185602,0.305934,-0.981971,0.552752,-0.752246,-0.00407562,
0.119493,-0.224524,-0.230978,-1.70767,-0.0360294,-0.18406,-0.382661,0.711503,-0.0458773,0.677622,-0.264807,0.5281,-0.24507,0.0115965,0,0,0,0,0,0,0,0.124608,-0.225028,-0.225559,-1.7089,-0.0391425,1.39064,0.402421,0.482455,-0.0408859,0.474682,-0.166198,0.195052,0.00617125,-0.00127962,2.26093,-24.8381,4.01185,24.4635,2.05322,1.5545,0.0101778,-2.21006,1.27988,-1.25681,-0.286637,-0.525713,0.437501,0.537672,0.185602,0.305934,-0.981971,0.552752,-0.752246,-0.00407562,
0.122418,-0.224674,-0.228176,-1.70873,-0.0336756,-0.185092,-0.382616,0.731421,-0.0374524,0.70042,-0.266403,0.588466,-0.257999,0.0110546,0,0,0,0,0,0,0,0.124608,-0.225028,-0.225559,-1.7089,-0.0391425,1.39064,0.402421,0.482455,-0.0408859,0.474682,-0.166198,0.195052,0.00617125,-0.00127962,2.26093,-24.8381,4.01185,24.4635,2.05322,1.5545,0.0101778,-1.19958,2.3958,-1.31678,-0.985972,0.351629,1.00762,1.04289,0.768013,0.972005,-1.21569,0.735179,-0.832557,-0.00296637,
0.125413,-0.224792,-0.225296,-1.7098,-0.0310993,-0.186151,-0.382574,0.748676,-0.0294536,0.720083,-0.267327,0.644059,-0.264638,0.0105883,0,0,0,0,0,0,0,0.124608,-0.225028,-0.225559,-1.7089,-0.0391425,1.39064,0.402421,0.482455,-0.0408859,0.474682,-0.166198,0.195052,0.00617125,-0.00127962,2.26093,-24.8381,4.01185,24.4635,2.05322,1.5545,0.0101778,-1.19958,2.3958,-1.31678,-0.985972,0.351629,1.00762,1.04289,0.768013,0.972005,-1.21569,0.735179,-0.832557,-0.00296637,
0.10873,-0.223586,-0.241101,-1.70351,-0.0428869,-0.180788,-0.382864,0.591421,-0.0762032,0.537883,-0.242036,0.26019,-0.102946,0.0151084,0,0,0,0,0,0,0,0.140335,-0.226085,-0.210574,-1.71401,-0.0344853,1.39111,0.402434,0.484838,-0.0177764,0.503921,-0.146304,0.210298,0.00392396,0.00168108,3.32813,-25.0603,4.36098,24.4119,1.58905,1.88592,-0.050247,-2.75872,-1.67938,-1.46372,1.69476,-0.788704,-0.949462,-0.869238,-0.0332254,-1.24776,-1.00642,0.250263,-0.793509,0.00466706,
0.147755,-0.226664,-0.203708,-1.71682,-0.0306847,-0.180562,-0.382789,0.655261,-0.0480451,0.613695,-0.250265,0.381968,-0.120188,0.0134841,0,0,0,0,0,0,0,0.140335,-0.226085,-0.210574,-1.71401,-0.0344853,1.39111,0.402434,0.484838,-0.0177764,0.503921,-0.146304,0.210298,0.00392396,0.00168108,3.32813,-25.0603,4.36098,24.4119,1.58905,1.88592,-0.050247,-3.24675,-1.59826,-1.37761,1.54584,-1.22511,-0.900596,-0.767288,-0.294688,-1.20869,-0.886157,0.1773,-0.757765,0.000993491,
0.15049,-0.226833,-0.201121,-1.71784,-0.0288894,-0.181193,-0.382739,0.683578,-0.0421741,0.646695,-0.2561,0.448823,-0.157723,0.0126178,0,0,0,0,0,0,0,0.140335,-0.226085,-0.210574,-1.71401,-0.0344853,1.39111,0.402434,0.484838,-0.0177764,0.503921,-0.146304,0.210298,0.00392396,0.00168108,3.32813,-25.0603,4.36098,24.4119,1.58905,1.88592,-0.050247,-3.24675,-1.59826,-1.37761,1.54584,-1.22511,-0.900596,-0.767288,-0.294688,-1.20869,-0.886157,0.1773,-0.757765,0.000993491,
0.15332,-0.226974,-0.198423,-1.71888,-0.026836,-0.181936,-0.382691,0.707656,-0.0353346,0.674613,-0.259465,0.51336,-0.185727,0.0119109,0,0,0,0,0,0,0,0.140335,-0.226085,-0.210574,-1.71401,-0.0344853,1.39111,0.402434,0.484838,-0.0177764,0.503921,-0.146304,0.210298,0.00392396,0.00168108,3.32813,-25.0603,4.36098,24.4119,1.58905,1.88592,-0.050247,-2.27174,0.0761006,-0.580276,0.475876,-0.785952,-0.0791688,0.00825318,-0.108215,-0.260195,-0.724805,0.458569,-0.762743,-0.00188187,
0.156233,-0.227088,-0.195629,-1.71993,-0.0245393,-0.182757,-0.382646,0.728308,-0.0283108,0.698428,-0.261529,0.574177,-0.205172,0.0113174,0,0,0,0,0,0,0,0.140335,-0.226085,-0.210574,-1.71401,-0.0344853,1.39111,0.402434,0.484838,-0.0177764,0.503921,-0.146304,0.210298,0.00392396,0.00168108,3.32813,-25.0603,4.36098,24.4119,1.58905,1.88592,-0.050247,-2.27174,0.0761006,-0.580276,0.475876,-0.785952,-0.0791688,0.00825318,-0.108215,-0.260195,-0.724805,0.458569,-0.762743,-0.00188187,
0.159218,-0.227173,-0.192754,-1.72098,-0.0220172,-0.183627,-0.382603,0.746132,-0.0214429,0.718889,-0.262738,0.630522,-0.217406,0.0108094,0,0,0,0,0,0,0,0.155892,-0.226501,-0.195764,-1.71888,-0.0276695,1.39151,0.402435,0.488082,-0.0136645,0.467482,-0.15386,0.197516,0.0224047,0.000693499,2.82032,-25.8339,3.91267,24.8087,1.32629,2.04522,-0.0026396,-1.31718,3.31838,-0.331688,-1.73381,-0.170358,1.46785,1.48654,0.361572,1.54509,-0.772199,0.79314,-0.748443,-0.00631419,
0.162264,-0.227233,-0.189807,-1.72203,-0.0192889,-0.184521,-0.382561,0.761592,-0.014891,0.736575,-0.263287,0.682073,-0.223727,0.0103715,0,0,0,0,0,0,0,0.155892,-0.226501,-0.195764,-1.71888,-0.0276695,1.39151,0.402435,0.488082,-0.0136645,0.467482,-0.15386,0.197516,0.0224047,0.000693499,2.82032,-25.8339,3.91267,24.8087,1.32629,2.04522,-0.0026396,-1.95119,0.599047,-0.597943,0.00360019,-0.612262,0.206317,0.280861,0.00127867,0.0925913,-0.68566,0.41781,-0.66923,-0.00260094,
0.145134,-0.226472,-0.206163,-1.71582,-0.0322126,-0.180082,-0.382843,0.621454,-0.0509888,0.574377,-0.238703,0.315214,-0.073878,0.0145846,0,0,0,0,0,0,0,0.155892,-0.226501,-0.195764,-1.71888,-0.0276695,1.39151,0.402435,0.488082,-0.0136645,0.467482,-0.15386,0.197516,0.0224047,0.000693499,2.82032,-25.8339,3.91267,24.8087,1.32629,2.04522,-0.0026396,-1.95119,0.599047,-0.597943,0.00360019,-0.612262,0.206317,0.280861,0.00127867,0.0925913,-0.68566,0.41781,-0.66923,-0.00260094,
0.163176,-0.226998,-0.189065,-1.72166,-0.0240629,-0.17994,-0.382779,0.645604,-0.0414413,0.602842,-0.246502,0.36364,-0.0997111,0.0142848,0,0,0,0,0,0,0,0.155892,-0.226501,-0.195764,-1.71888,-0.0276695,1.39151,0.402435,0.488082,-0.0136645,0.467482,-0.15386,0.197516,0.0224047,0.000693499,2.82032,-25.8339,3.91267,24.8087,1.32629,2.04522,-0.0026396,-2.61052,-2.59075,-0.863291,2.14121,-1.07578,-1.27964,-1.16399,-0.420664,-1.61863,-0.590595,0.0850858,-0.594275,0.00042283,
0.165878,-0.227143,-0.186514,-1.72267,-0.0223435,-0.18048,-0.382726,0.675506,-0.0361879,0.637899,-0.251508,0.429829,-0.135159,0.0133144,0,0,0,0,0,0,0,0.155892,-0.226501,-0.195764,-1.71888,-0.0276695,1.39151,0.402435,0.488082,-0.0136645,0.467482,-0.15386,0.197516,0.0224047,0.000693499,2.82032,-25.8339,3.91267,24.8087,1.32629,2.04522,-0.0026396,-2.61052,-2.59075,-0.863291,2.14121,-1.07578,-1.27964,-1.16399,-0.420664,-1.61863,-0.590595,0.0850858,-0.594275,0.00042283,
0.168682,-0.227263,-0.183844,-1.72368,-0.0203658,-0.181126,-0.382676,0.700875,-0.0299701,0.667465,-0.254318,0.494447,-0.161363,0.0125118,0,0,0,0,0,0,0,0.155892,-0.226501,-0.195764,-1.71888,-0.0276695,1.39151,0.402435,0.488082,-0.0136645,0.467482,-0.15386,0.197516,0.0224047,0.000693499,2.82032,-25.8339,3.91267,24.8087,1.32629,2.04522,-0.0026396,-1.56335,1.2361,-1.06591,-0.409371,-0.205088,0.530222,0.592539,0.307996,0.452062,-0.835288,0.512276,-0.585444,-0.00570296,
0.171572,-0.227357,-0.181073,-1.72471,-0.0181424,-0.181843,-0.382629,0.722577,-0.0235226,0.692609,-0.255969,0.555834,-0.179335,0.0118368,0,0,0,0,0,0,0,0.173316,-0.226554,-0.17883,-1.72399,-0.018862,1.39171,0.402438,0.531392,0.00338429,0.496041,-0.154975,0.208862,0.0203188,0.00203341,-0.908932,-26.0838,0.389723,25.733,1.39404,2.00493,0.017502,-1.56335,1.2361,-1.06591,-0.409371,-0.205088,0.530222,0.592539,0.307996,0.452062,-0.835288,0.512276,-0.585444,-0.00570296,
0.174537,-0.227426,-0.178217,-1.72574,-0.0156902,-0.182605,-0.382584,0.74126,-0.0171751,0.71415,-0.256855,0.613046,-0.1904,0.0112543,0,0,0,0,0,0,0,0.173316,-0.226554,-0.17883,-1.72399,-0.018862,1.39171,0.402438,0.531392,0.00338429,0.496041,-0.154975,0.208862,0.0203188,0.00203341,-0.908932,-26.0838,0.389723,25.733,1.39404,2.00493,0.017502,-2.04424,2.83553,-1.08225,-1.4654,-0.546801,1.26784,1.27211,0.224432,1.34202,-0.833461,0.712618,-0.600411,-0.00726863,
0.177567,-0.22747,-0.175286,-1.72676,-0.0130277,-0.183388,-0.382541,0.757426,-0.0110895,0.73272,-0.257144,0.665628,-0.195818,0.010762,0,0,0,0,0,0,0,0.173316,-0.226554,-0.17883,-1.72399,-0.018862,1.39171,0.402438,0.531392,0.00338429,0.496041,-0.154975,0.208862,0.0203188,0.00203341,-0.908932,-26.0838,0.389723,25.733,1.39404,2.00493,0.017502,-2.04424,2.83553,-1.08225,-1.4654,-0.546801,1.26784,1.27211,0.224432,1.34202,-0.833461,0.712618,-0.600411,-0.00726863,
0.160594,-0.226833,-0.191477,-1.72067,-0.0255174,-0.179541,-0.382836,0.609905,-0.0439386,0.560914,-0.236408,0.298627,-0.0555197,0.0154566,0,0,0,0,0,0,0,0.173316,-0.226554,-0.17883,-1.72399,-0.018862,1.39171,0.402438,0.531392,0.00338429,0.496041,-0.154975,0.208862,0.0203188,0.00203341,-0.908932,-26.0838,0.389723,25.733,1.39404,2.00493,0.017502,-1.71014,0.880455,-1.56281,-0.273226,-0.196517,0.38803,0.44764,0.36087,0.308739,-0.921915,0.392067,-0.501933,-0.00496666,
0.180859,-0.226859,-0.171816,-1.72676,-0.0149212,-0.179592,-0.382783,0.66329,-0.0264067,0.624666,-0.244923,0.394443,-0.0821284,0.0138967,0,0,0,0,0,0,0,0.173316,-0.226554,-0.17883,-1.72399,-0.018862,1.39171,0.402438,0.531392,0.00338429,0.496041,-0.154975,0.208862,0.0203188,0.00203341,-0.908932,-26.0838,0.389723,25.733,1.39404,2.00493,0.017502,-1.71014,0.880455,-1.56281,-0.273226,-0.196517,0.38803,0.44764,0.36087,0.308739,-0.921915,0.392067,-0.501933,-0.00496666,
0.183621,-0.226948,-0.16919,-1.72776,-0.0130789,-0.180046,-0.382731,0.690514,-0.0223019,0.656458,-0.249322,0.460594,-0.113558,0.0130031,0,0,0,0,0,0,0,0.191022,-0.226468,-0.161618,-1.72888,-0.0100135,1.39189,0.402446,0.548511,0.00497994,0.554504,-0.15799,0.318174,0.0124977,0.000430053,0.741459,-26.4607,2.03615,24.8602,2.1878,1.49499,-0.00996382,-1.99056,-2.0786,-1.8148,1.73265,-0.370245,-0.977861,-0.848633,0.0857549,-1.30255,-0.876398,0.114705,-0.441913,-0.000984754,
0.186476,-0.227017,-0.166457,-1.72876,-0.0109829,-0.180593,-0.382682,0.713709,-0.0172286,0.683411,-0.251579,0.523991,-0.136662,0.0122501,0,0,0,0,0,0,0,0.191022,-0.226468,-0.161618,-1.72888,-0.0100135,1.39189,0.402446,0.548511,0.00497994,0.554504,-0.15799,0.318174,0.0124977,0.000430053,0.741459,-26.4607,2.03615,24.8602,2.1878,1.49499,-0.00996382,-2.39553,0.462757,-1.73833,0.11155,-0.610906,0.207059,0.279223,0.128976,0.0747768,-0.938022,0.48112,-0.527844,-0.00555559,
0.189411,-0.227064,-0.163631,-1.72977,-0.00864906,-0.181202,-0.382636,0.733619,-0.0118866,0.706437,-0.252723,0.583459,-0.152281,0.0116212,0,0,0,0,0,0,0,0.191022,-0.226468,-0.161618,-1.72888,-0.0100135,1.39189,0.402446,0.548511,0.00497994,0.554504,-0.15799,0.318174,0.0124977,0.000430053,0.741459,-26.4607,2.03615,24.8602,2.1878,1.49499,-0.00996382,-2.39553,0.462757,-1.73833,0.11155,-0.610906,0.207059,0.279223,0.128976,0.0747768,-0.938022,0.48112,-0.527844,-0.00555559,
0.192414,-0.227091,-0.160726,-1.73079,-0.00609554,-0.181849,-0.382591,0.750806,-0.00658742,0.726237,-0.253148,0.638382,-0.161597,0.0110581,0,0,0,0,0,0,0,0.191022,-0.226468,-0.161618,-1.72888,-0.0100135,1.39189,0.402446,0.548511,0.00497994,0.554504,-0.15799,0.318174,0.0124977,0.000430053,0.741459,-26.4607,2.03615,24.8602,2.1878,1.49499,-0.00996382,-2.92522,1.74188,-1.33319,-0.784792,-1.1385,0.818392,0.84244,-0.120656,0.830059,-0.782254,0.590644,-0.554368,-0.00462393,
0.178206,-0.226753,-0.174315,-1.72578,-0.016499,-0.179264,-0.382839,0.630973,-0.0278234,0.586862,-0.235525,0.327539,-0.0430634,0.0149506,0,0,0,0,0,0,0,0.191022,-0.226468,-0.161618,-1.72888,-0.0100135,1.39189,0.402446,0.548511,0.00497994,0.554504,-0.15799,0.318174,0.0124977,0.000430053,0.741459,-26.4607,2.03615,24.8602,2.1878,1.49499,-0.00996382,-2.92522,1.74188,-1.33319,-0.784792,-1.1385,0.818392,0.84244,-0.120656,0.830059,-0.782254,0.590644,-0.554368,-0.00462393,
0.198884,-0.226707,-0.154218,-1.73161,-0.00498849,-0.179351,-0.382783,0.686425,-0.0202178,0.652221,-0.239849,0.476471,-0.0693485,0.0132765,0,0,0,0,0,0,0,0.191022,-0.226468,-0.161618,-1.72888,-0.0100135,1.39189,0.402446,0.548511,0.00497994,0.554504,-0.15799,0.318174,0.0124977,0.000430053,0.741459,-26.4607,2.03615,24.8602,2.1878,1.49499,-0.00996382,-2.28805,0.658877,-1.85151,-0.197704,-0.518888,0.3359,0.401368,0.231379,0.256692,-0.963641,0.351459,-0.49078,-0.00305394,
0.201727,-0.226771,-0.151495,-1.73259,-0.00285106,-0.179732,-0.382733,0.710699,-0.0160607,0.680585,-0.243848,0.534358,-0.0952662,0.0124698,0,0,0,0,0,0,0,0.2078,-0.226418,-0.145237,-1.73376,-0.00187102,1.39255,0.402454,0.530611,-0.00245522,0.537517,-0.164617,0.304018,0.0165065,-0.000222475,2.69336,-26.1116,3.46437,25.0864,1.37573,1.9793,-0.0163725,-2.08374,-0.773148,-1.9,0.688998,-0.384113,-0.309713,-0.196565,0.208089,-0.506153,-0.944387,0.141844,-0.457781,-0.0015177,
0.204652,-0.226816,-0.148677,-1.73357,-0.000491604,-0.180188,-0.382686,0.731375,-0.0111185,0.704643,-0.245838,0.589864,-0.114039,0.0117714,0,0,0,0,0,0,0,0.2078,-0.226418,-0.145237,-1.73376,-0.00187102,1.39255,0.402454,0.530611,-0.00245522,0.537517,-0.164617,0.304018,0.0165065,-0.000222475,2.69336,-26.1116,3.46437,25.0864,1.37573,1.9793,-0.0163725,-2.08374,-0.773148,-1.9,0.688998,-0.384113,-0.309713,-0.196565,0.208089,-0.506153,-0.944387,0.141844,-0.457781,-0.0015177,
0.207642,-0.22684,-0.145773,-1.73456,0.00207868,-0.180693,-0.382642,0.747561,-0.00597325,0.726092,-0.246793,0.64257,-0.126329,0.0111457,0,0,0,0,0,0,0,0.2078,-0.226418,-0.145237,-1.73376,-0.00187102,1.39255,0.402454,0.530611,-0.00245522,0.537517,-0.164617,0.304018,0.0165065,-0.000222475,2.69336,-26.1116,3.46437,25.0864,1.37573,1.9793,-0.0163725,-1.84063,-0.306399,-2.22698,0.427328,0.0472841,-0.107654,-0.0712128,0.572824,-0.238418,-1.21016,0.28355,-0.563498,-0.000535725,
0.210676,-0.226843,-0.142788,-1.73554,0.00484877,-0.181226,-0.3826,0.758533,-0.000862805,0.746025,-0.24709,0.692524,-0.13315,0.0105146,0,0,0,0,0,0,0,0.2078,-0.226418,-0.145237,-1.73376,-0.00187102,1.39255,0.402454,0.530611,-0.00245522,0.537517,-0.164617,0.304018,0.0165065,-0.000222475,2.69336,-26.1116,3.46437,25.0864,1.37573,1.9793,-0.0163725,-1.84063,-0.306399,-2.22698,0.427328,0.0472841,-0.107654,-0.0712128,0.572824,-0.238418,-1.21016,0.28355,-0.563498,-0.000535725,
0.213744,-0.226827,-0.139735,-1.73653,0.00780357,-0.181768,-0.38256,0.766975,0.00402409,0.763265,-0.246864,0.738699,-0.135509,0.00998754,0,0,0,0,0,0,0,0.2078,-0.226418,-0.145237,-1.73376,-0.00187102,1.39255,0.402454,0.530611,-0.00245522,0.537517,-0.164617,0.304018,0.0165065,-0.000222475,2.69336,-26.1116,3.46437,25.0864,1.37573,1.9793,-0.0163725,-2.10251,-0.0255493,-2.23426,0.235017,-0.0936709,0.0379679,0.0403117,0.541066,-0.0440221,-1.24299,0.335088,-0.612951,-0.00160843,
0.196138,-0.226626,-0.156827,-1.73065,-0.00689438,-0.179073,-0.382836,0.657574,-0.0220422,0.618559,-0.231212,0.417953,-0.037031,0.014249,0,0,0,0,0,0,0,0.224994,-0.226341,-0.12843,-1.73861,0.00714696,1.39356,0.402465,0.545415,0.0031075,0.548869,-0.150794,0.313233,0.0351797,0.00244224,3.88752,-27.032,4.11104,25.134,1.24664,2.19811,-0.083206,-1.30417,-1.13737,-2.2923,0.884718,0.416266,-0.473993,-0.378771,0.710359,-0.695533,-1.21774,0.124508,-0.505747,-0.00397215,
0.232808,-0.226565,-0.121058,-1.74124,0.0121112,-0.177331,-0.38276,0.68307,-0.018226,0.65073,-0.23128,0.470722,-0.0377963,0.0135823,0,0,0,0,0,0,0,0.224994,-0.226341,-0.12843,-1.73861,0.00714696,1.39356,0.402465,0.545415,0.0031075,0.548869,-0.150794,0.313233,0.0351797,0.00244224,3.88752,-27.032,4.11104,25.134,1.24664,2.19811,-0.083206,-1.30417,-1.13737,-2.2923,0.884718,0.416266,-0.473993,-0.378771,0.710359,-0.695533,-1.21774,0.124508,-0.505747,-0.00397215,
0.235634,-0.22662,-0.118335,-1.74218,0.0142258,-0.177579,-0.382709,0.706372,-0.0136972,0.6807,-0.235532,0.528648,-0.0620024,0.0126837,0,0,0,0,0,0,0,0.224994,-0.226341,-0.12843,-1.73861,0.00714696,1.39356,0.402465,0.545415,0.0031075,0.548869,-0.150794,0.313233,0.0351797,0.00244224,3.88752,-27.032,4.11104,25.134,1.24664,2.19811,-0.083206,-1.81343,-0.216607,-1.93745,0.296948,-0.141644,-0.0124265,0.0951278,0.394343,-0.175551,-1.00791,0.240585,-0.46128,-0.00782107,
0.238526,-0.226654,-0.115505,-1.74313,0.0165681,-0.177898,-0.382662,0.723205,-0.00847523,0.707618,-0.237797,0.585573,-0.0796603,0.0118311,0,0,0,0,0,0,0,0.224994,-0.226341,-0.12843,-1.73861,0.00714696,1.39356,0.402465,0.545415,0.0031075,0.548869,-0.150794,0.313233,0.0351797,0.00244224,3.88752,-27.032,4.11104,25.134,1.24664,2.19811,-0.083206,-1.81343,-0.216607,-1.93745,0.296948,-0.141644,-0.0124265,0.0951278,0.394343,-0.175551,-1.00791,0.240585,-0.46128,-0.00782107,
0.241473,-0.226667,-0.112582,-1.74409,0.0191267,-0.178263,-0.382617,0.736529,-0.0031811,0.730628,-0.238982,0.639646,-0.0913348,0.0111215,0,0,0,0,0,0,0,0.224994,-0.226341,-0.12843,-1.73861,0.00714696,1.39356,0.402465,0.545415,0.0031075,0.548869,-0.150794,0.313233,0.0351797,0.00244224,3.88752,-27.032,4.11104,25.134,1.24664,2.19811,-0.083206,-2.28624,0.58888,-1.14725,-0.127661,-0.774718,0.377631,0.434614,-0.0306472,0.306106,-0.689823,0.4257,-0.470919,-0.00649816,
0.244461,-0.226659,-0.109581,-1.74504,0.0218868,-0.178655,-0.382575,0.747077,0.00192553,0.750337,-0.239462,0.690029,-0.0979307,0.0105137,0,0,0,0,0,0,0,0.224994,-0.226341,-0.12843,-1.73861,0.00714696,1.39356,0.402465,0.545415,0.0031075,0.548869,-0.150794,0.313233,0.0351797,0.00244224,3.88752,-27.032,4.11104,25.134,1.24664,2.19811,-0.083206,-1.48725,0.0512346,-1.04954,0.213025,-0.256588,0.0840282,0.0786996,0.175305,0.0239772,-0.67235,0.364879,-0.420352,-0.00426658,
0.230076,-0.226492,-0.123661,-1.74031,0.0102283,-0.17718,-0.382814,0.653557,-0.0206322,0.61624,-0.222492,0.412917,-0.00787919,0.0146003,0,0,0,0,0,0,0,0.247892,-0.226014,-0.105748,-1.74486,0.0214783,1.39432,0.40246,0.557462,0.0153341,0.563296,-0.15743,0.347774,0.0194301,0.000345072,3.27655,-27.1828,3.51198,24.9594,1.39953,2.09191,-0.0026396,-1.48725,0.0512346,-1.04954,0.213025,-0.256588,0.0840282,0.0786996,0.175305,0.0239772,-0.67235,0.364879,-0.420352,-0.00426658,
0.25578,-0.226087,-0.0982237,-1.7475,0.026802,-0.176581,-0.382769,0.68467,-0.00615692,0.663947,-0.231113,0.498819,-0.0323573,0.0132665,0,0,0,0,0,0,0,0.247892,-0.226014,-0.105748,-1.74486,0.0214783,1.39432,0.40246,0.557462,0.0153341,0.563296,-0.15743,0.347774,0.0194301,0.000345072,3.27655,-27.1828,3.51198,24.9594,1.39953,2.09191,-0.0026396,-1.76185,-0.483021,-1.17604,0.476674,-0.513343,-0.117645,-0.0578565,-0.00921122,-0.237253,-0.601848,0.213329,-0.339683,-0.00440446,
0.258595,-0.226097,-0.0954478,-1.74844,0.0290225,-0.176787,-0.38272,0.703818,-0.00243813,0.693992,-0.234548,0.555134,-0.0514382,0.0123386,0,0,0,0,0,0,0,0.247892,-0.226014,-0.105748,-1.74486,0.0214783,1.39432,0.40246,0.557462,0.0153341,0.563296,-0.15743,0.347774,0.0194301,0.000345072,3.27655,-27.1828,3.51198,24.9594,1.39953,2.09191,-0.0026396,-1.76185,-0.483021,-1.17604,0.476674,-0.513343,-0.117645,-0.0578565,-0.00921122,-0.237253,-0.601848,0.213329,-0.339683,-0.00440446,
0.261472,-0.226089,-0.09257,-1.74938,0.0314609,-0.177047,-0.382673,0.719132,0.00188702,0.719432,-0.236126,0.609602,-0.0650194,0.011552,0,0,0,0,0,0,0,0.247892,-0.226014,-0.105748,-1.74486,0.0214783,1.39432,0.40246,0.557462,0.0153341,0.563296,-0.15743,0.347774,0.0194301,0.000345072,3.27655,-27.1828,3.51198,24.9594,1.39953,2.09191,-0.0026396,-2.0155,0.418417,-1.54878,-0.111973,-0.569494,0.330524,0.434062,0.089179,0.223145,-0.712778,0.334592,-0.311963,-0.0081798,
0.264397,-0.226064,-0.0896056,-1.75033,0.0341052,-0.177341,-0.38263,0.73133,0.00627725,0.741101,-0.236728,0.661054,-0.0735036,0.0108695,0,0,0,0,0,0,0,0.247892,-0.226014,-0.105748,-1.74486,0.0214783,1.39432,0.40246,0.557462,0.0153341,0.563296,-0.15743,0.347774,0.0194301,0.000345072,3.27655,-27.1828,3.51198,24.9594,1.39953,2.09191,-0.0026396,-2.0155,0.418417,-1.54878,-0.111973,-0.569494,0.330524,0.434062,0.089179,0.223145,-0.712778,0.334592,-0.311963,-0.0081798,
0.267361,-0.226022,-0.086567,-1.75128,0.0369405,-0.177652,-0.382589,0.740948,0.0105042,0.759669,-0.236699,0.708825,-0.0776399,0.0102705,0,0,0,0,0,0,0,0.265897,-0.225494,-0.0878001,-1.7496,0.0325625,1.39478,0.402463,0.567487,0.022708,0.560166,-0.145645,0.308308,0.022505,-0.00044871,1.30085,-27.1074,1.7386,25.0864,1.1679,2.03881,0.00376909,-1.85785,2.52356,-1.68052,-1.43172,-0.298053,1.2738,1.29776,0.464158,1.33037,-0.87768,0.665751,-0.360802,-0.00964886,
0.253041,-0.226062,-0.10088,-1.74658,0.0248067,-0.176452,-0.382822,0.660553,-0.00790033,0.628379,-0.223431,0.442522,-0.00872861,0.0143555,0,0,0,0,0,0,0,0.265897,-0.225494,-0.0878001,-1.7496,0.0325625,1.39478,0.402463,0.567487,0.022708,0.560166,-0.145645,0.308308,0.022505,-0.00044871,1.30085,-27.1074,1.7386,25.0864,1.1679,2.03881,0.00376909,-1.85785,2.52356,-1.68052,-1.43172,-0.298053,1.2738,1.29776,0.464158,1.33037,-0.87768,0.665751,-0.360802,-0.00964886,
0.273687,-0.225506,-0.0802094,-1.75216,0.0376521,-0.175922,-0.382767,0.674385,-0.00159635,0.66894,-0.225695,0.485197,-0.0113999,0.0132069,0,0,0,0,0,0,0,0.265897,-0.225494,-0.0878001,-1.7496,0.0325625,1.39478,0.402463,0.567487,0.022708,0.560166,-0.145645,0.308308,0.022505,-0.00044871,1.30085,-27.1074,1.7386,25.0864,1.1679,2.03881,0.00376909,-2.37191,-0.815099,-1.20257,0.826155,-0.935552,-0.209249,-0.166385,-0.28977,-0.350152,-0.545975,0.349966,-0.334792,-0.00303287,
0.276458,-0.225499,-0.0774171,-1.75308,0.0398313,-0.176035,-0.382718,0.692909,0.00181504,0.698071,-0.22921,0.544811,-0.028312,0.0122973,0,0,0,0,0,0,0,0.265897,-0.225494,-0.0878001,-1.7496,0.0325625,1.39478,0.402463,0.567487,0.022708,0.560166,-0.145645,0.308308,0.022505,-0.00044871,1.30085,-27.1074,1.7386,25.0864,1.1679,2.03881,0.00376909,-1.95183,-0.830861,-1.88916,0.665623,-0.441942,-0.218137,-0.1306,0.0920447,-0.382348,-0.780897,0.216519,-0.267424,-0.00598489,
0.27929,-0.225475,-0.0745258,-1.754,0.0422374,-0.176197,-0.382672,0.707802,0.00583157,0.722837,-0.230747,0.601509,-0.0404025,0.0115047,0,0,0,0,0,0,0,0.265897,-0.225494,-0.0878001,-1.7496,0.0325625,1.39478,0.402463,0.567487,0.022708,0.560166,-0.145645,0.308308,0.022505,-0.00044871,1.30085,-27.1074,1.7386,25.0864,1.1679,2.03881,0.00376909,-1.95183,-0.830861,-1.88916,0.665623,-0.441942,-0.218137,-0.1306,0.0920447,-0.382348,-0.780897,0.216519,-0.267424,-0.00598489,
0.282168,-0.225436,-0.0715497,-1.75493,0.0448552,-0.176388,-0.382629,0.719704,0.00989941,0.744016,-0.23127,0.654459,-0.0478675,0.0108116,0,0,0,0,0,0,0,0.265897,-0.225494,-0.0878001,-1.7496,0.0325625,1.39478,0.402463,0.567487,0.022708,0.560166,-0.145645,0.308308,0.022505,-0.00044871,1.30085,-27.1074,1.7386,25.0864,1.1679,2.03881,0.00376909,-1.3165,0.744047,-2.3511,-0.398908,0.284304,0.443603,0.507059,0.735311,0.366244,-1.08858,0.412311,-0.299845,-0.00807272,
0.285085,-0.22538,-0.0685008,-1.75585,0.0476681,-0.176594,-0.382588,0.729115,0.0137946,0.762223,-0.231156,0.703222,-0.0513343,0.0102015,0,0,0,0,0,0,0,0.284099,-0.224845,-0.0690781,-1.75402,0.0439844,1.39533,0.40247,0.563309,0.0140871,0.566585,-0.138533,0.310495,0.0208992,0.000383792,-0.805783,-27.0598,-0.137926,25.2094,1.04522,1.95916,-0.0163725,-1.3165,0.744047,-2.3511,-0.398908,0.284304,0.443603,0.507059,0.735311,0.366244,-1.08858,0.412311,-0.299845,-0.00807272,
0.270989,-0.225499,-0.0828852,-1.75126,0.0357113,-0.175876,-0.38282,0.651349,-0.00296499,0.634503,-0.217586,0.423995,0.00899582,0.0142094,0,0,0,0,0,0,0,0.284099,-0.224845,-0.0690781,-1.75402,0.0439844,1.39533,0.40247,0.563309,0.0140871,0.566585,-0.138533,0.310495,0.0208992,0.000383792,-0.805783,-27.0598,-0.137926,25.2094,1.04522,1.95916,-0.0163725,-1.45147,2.15721,-2.1919,-1.35738,0.193448,1.10563,1.11781,0.831122,1.16131,-1.0983,0.552585,-0.347829,-0.00982634,
0.291782,-0.224913,-0.0614131,-1.75648,0.0491458,-0.175248,-0.382761,0.66482,-0.00493771,0.674286,-0.217548,0.491591,0.00340901,0.013129,0,0,0,0,0,0,0,0.284099,-0.224845,-0.0690781,-1.75402,0.0439844,1.39533,0.40247,0.563309,0.0140871,0.566585,-0.138533,0.310495,0.0208992,0.000383792,-0.805783,-27.0598,-0.137926,25.2094,1.04522,1.95916,-0.0163725,-1.06555,-0.690829,-2.43493,0.461277,0.489593,-0.217398,-0.160308,0.739922,-0.363655,-1.12917,0.22479,-0.31653,-0.00522969,
0.294514,-0.224916,-0.0586019,-1.75737,0.0513492,-0.175288,-0.382712,0.682929,-0.000711495,0.702811,-0.221247,0.550838,-0.0100139,0.0122109,0,0,0,0,0,0,0,0.284099,-0.224845,-0.0690781,-1.75402,0.0439844,1.39533,0.40247,0.563309,0.0140871,0.566585,-0.138533,0.310495,0.0208992,0.000383792,-0.805783,-27.0598,-0.137926,25.2094,1.04522,1.95916,-0.0163725,-1.06555,-0.690829,-2.43493,0.461277,0.489593,-0.217398,-0.160308,0.739922,-0.363655,-1.12917,0.22479,-0.31653,-0.00522969,
0.297304,-0.2249,-0.0556935,-1.75826,0.0537768,-0.175366,-0.382667,0.697498,0.00390888,0.727097,-0.222974,0.606906,-0.0194618,0.011407,0,0,0,0,0,0,0,0.284099,-0.224845,-0.0690781,-1.75402,0.0439844,1.39533,0.40247,0.563309,0.0140871,0.566585,-0.138533,0.310495,0.0208992,0.000383792,-0.805783,-27.0598,-0.137926,25.2094,1.04522,1.95916,-0.0163725,-1.47936,-0.998407,-2.40745,0.672267,0.14826,-0.300682,-0.222151,0.510569,-0.473805,-1.05713,0.20931,-0.299779,-0.00598764,
0.30014,-0.224866,-0.0527019,-1.75916,0.0564132,-0.175466,-0.382624,0.709142,0.00842379,0.747884,-0.223674,0.659091,-0.0249774,0.0107027,0,0,0,0,0,0,0,0.301555,-0.224375,-0.0505869,-1.75844,0.055524,1.3963,0.402474,0.561755,0.0166898,0.593064,-0.142204,0.365281,0.041372,-0.000815715,-0.222592,-27.3335,-0.16173,25.2094,1.07635,1.94543,-0.00996382,-1.47936,-0.998407,-2.40745,0.672267,0.14826,-0.300682,-0.222151,0.510569,-0.473805,-1.05713,0.20931,-0.299779,-0.00598764,
0.303014,-0.224816,-0.0496389,-1.76005,0.0592413,-0.175574,-0.382583,0.718346,0.0126457,0.765765,-0.223721,0.707034,-0.0270544,0.010082,0,0,0,0,0,0,0,0.301555,-0.224375,-0.0505869,-1.75844,0.055524,1.3963,0.402474,0.561755,0.0166898,0.593064,-0.142204,0.365281,0.041372,-0.000815715,-0.222592,-27.3335,-0.16173,25.2094,1.07635,1.94543,-0.00996382,-1.64461,0.0905876,-2.3936,-0.0388353,0.113391,0.216898,0.264256,0.632433,0.129234,-1.12829,0.365998,-0.363373,-0.00865433,
0.305916,-0.22475,-0.046514,-1.76094,0.0622438,-0.175679,-0.382545,0.725499,0.0165068,0.781212,-0.223285,0.750627,-0.0262689,0.00953193,0,0,0,0,0,0,0,0.301555,-0.224375,-0.0505869,-1.75844,0.055524,1.3963,0.402474,0.561755,0.0166898,0.593064,-0.142204,0.365281,0.041372,-0.000815715,-0.222592,-27.3335,-0.16173,25.2094,1.07635,1.94543,-0.00996382,-1.64461,0.0905876,-2.3936,-0.0388353,0.113391,0.216898,0.264256,0.632433,0.129234,-1.12829,0.365998,-0.363373,-0.00865433,
0.289123,-0.224893,-0.0641103,-1.75561,0.0471795,-0.175262,-0.382814,0.642343,-0.00742422,0.640633,-0.209328,0.43028,0.01932,0.0141292,0,0,0,0,0,0,0,0.301555,-0.224375,-0.0505869,-1.75844,0.055524,1.3963,0.402474,0.561755,0.0166898,0.593064,-0.142204,0.365281,0.041372,-0.000815715,-0.222592,-27.3335,-0.16173,25.2094,1.07635,1.94543,-0.00996382,-1.83807,1.06805,-2.30172,-0.745295,-0.0764438,0.700349,0.73635,0.629497,0.698444,-1.08546,0.406243,-0.348487,-0.0123109,
0.309241,-0.22438,-0.0427259,-1.76086,0.0612138,-0.174025,-0.382763,0.663382,0.000319024,0.688457,-0.213172,0.530799,0.0261709,0.0126578,0,0,0,0,0,0,0,0.301555,-0.224375,-0.0505869,-1.75844,0.055524,1.3963,0.402474,0.561755,0.0166898,0.593064,-0.142204,0.365281,0.041372,-0.000815715,-0.222592,-27.3335,-0.16173,25.2094,1.07635,1.94543,-0.00996382,-1.35007,-0.761591,-2.53904,0.410933,0.294882,-0.171088,-0.098471,0.657001,-0.312891,-1.13467,0.198863,-0.305658,-0.00986199,
0.311962,-0.224363,-0.0398646,-1.76173,0.0635558,-0.173968,-0.382716,0.680107,0.00419058,0.715328,-0.216484,0.585492,0.0143214,0.0117772,0,0,0,0,0,0,0,0.320269,-0.223899,-0.0307171,-1.76327,0.0679336,1.39808,0.402475,0.56915,0.0168812,0.625784,-0.138932,0.439681,0.0515707,-0.000291109,0.00751081,-26.909,0.0366345,25.3085,1.87011,1.93902,-0.00996382,-1.35007,-0.761591,-2.53904,0.410933,0.294882,-0.171088,-0.098471,0.657001,-0.312891,-1.13467,0.198863,-0.305658,-0.00986199,
0.314736,-0.22433,-0.0369118,-1.7626,0.066105,-0.173943,-0.382672,0.693498,0.00837912,0.7382,-0.21798,0.637307,0.00605675,0.0110041,0,0,0,0,0,0,0,0.320269,-0.223899,-0.0307171,-1.76327,0.0679336,1.39808,0.402475,0.56915,0.0168812,0.625784,-0.138932,0.439681,0.0515707,-0.000291109,0.00751081,-26.909,0.0366345,25.3085,1.87011,1.93902,-0.00996382,-1.25366,-0.359242,-2.7391,0.175494,0.518164,-0.00946419,0.0407201,0.868518,-0.129345,-1.2737,0.33041,-0.347289,-0.0104629,
0.317552,-0.22428,-0.0338807,-1.76348,0.0688473,-0.173938,-0.382631,0.704134,0.0124421,0.757768,-0.218516,0.685575,0.00134261,0.0103256,0,0,0,0,0,0,0,0.320269,-0.223899,-0.0307171,-1.76327,0.0679336,1.39808,0.402475,0.56915,0.0168812,0.625784,-0.138932,0.439681,0.0515707,-0.000291109,0.00751081,-26.909,0.0366345,25.3085,1.87011,1.93902,-0.00996382,-1.25366,-0.359242,-2.7391,0.175494,0.518164,-0.00946419,0.0407201,0.868518,-0.129345,-1.2737,0.33041,-0.347289,-0.0104629,
0.320402,-0.224215,-0.0307824,-1.76435,0.0717671,-0.173939,-0.382592,0.71247,0.0162159,0.774589,-0.218435,0.729948,-0.000263586,0.00972756,0,0,0,0,0,0,0,0.320269,-0.223899,-0.0307171,-1.76327,0.0679336,1.39808,0.402475,0.56915,0.0168812,0.625784,-0.138932,0.439681,0.0515707,-0.000291109,0.00751081,-26.909,0.0366345,25.3085,1.87011,1.93902,-0.00996382,-1.02774,1.16862,-2.49883,-0.788318,0.649951,0.633404,0.647208,1.06825,0.618459,-1.24448,0.522527,-0.349626,-0.0107085,
0.323277,-0.224137,-0.0276259,-1.76522,0.0748483,-0.173936,-0.382555,0.718873,0.0196434,0.789114,-0.217895,0.770311,0.000718908,0.00919783,0,0,0,0,0,0,0,0.320269,-0.223899,-0.0307171,-1.76327,0.0679336,1.39808,0.402475,0.56915,0.0168812,0.625784,-0.138932,0.439681,0.0515707,-0.000291109,0.00751081,-26.909,0.0366345,25.3085,1.87011,1.93902,-0.00996382,-0.876251,0.81145,-2.25722,-0.609922,0.562908,0.470737,0.50096,0.91901,0.442394,-1.08225,0.385586,-0.275116,-0.0124115,
0.306588,-0.224381,-0.0454797,-1.76001,0.0590906,-0.17413,-0.382814,0.642539,-0.00203765,0.656766,-0.205753,0.474268,0.040263,0.0136141,0,0,0,0,0,0,0,0.320269,-0.223899,-0.0307171,-1.76327,0.0679336,1.39808,0.402475,0.56915,0.0168812,0.625784,-0.138932,0.439681,0.0515707,-0.000291109,0.00751081,-26.909,0.0366345,25.3085,1.87011,1.93902,-0.00996382,-0.876251,0.81145,-2.25722,-0.609922,0.562908,0.470737,0.50096,0.91901,0.442394,-1.08225,0.385586,-0.275116,-0.0124115,
0.32802,-0.223882,-0.0225895,-1.76563,0.0743605,-0.172041,-0.382771,0.66645,0.0024426,0.707697,-0.207288,0.585876,0.0464194,0.0119906,0,0,0,0,0,0,0,0.337458,-0.223397,-0.0118393,-1.76755,0.0795064,1.39972,0.402476,0.541216,0.0184728,0.596013,-0.140532,0.390239,0.0465229,-0.000722723,1.80469,-26.9606,1.26253,25.5069,1.92505,2.07177,0.00376909,-0.848948,-0.579491,-1.97133,0.358761,0.406309,-0.138464,-0.0577517,0.593107,-0.288934,-0.898428,0.259603,-0.231223,-0.0108595,
0.330745,-0.223857,-0.0196605,-1.76647,0.0768985,-0.171893,-0.382727,0.681231,0.0062919,0.732257,-0.210505,0.634481,0.036813,0.0111723,0,0,0,0,0,0,0,0.337458,-0.223397,-0.0118393,-1.76755,0.0795064,1.39972,0.402476,0.541216,0.0184728,0.596013,-0.140532,0.390239,0.0465229,-0.000722723,1.80469,-26.9606,1.26253,25.5069,1.92505,2.07177,0.00376909,-0.848948,-0.579491,-1.97133,0.358761,0.406309,-0.138464,-0.0577517,0.593107,-0.288934,-0.898428,0.259603,-0.231223,-0.0108595,
0.333517,-0.223815,-0.0166479,-1.76732,0.0796208,-0.171773,-0.382685,0.692965,0.0103681,0.753154,-0.211957,0.680581,0.0301738,0.0104514,0,0,0,0,0,0,0,0.337458,-0.223397,-0.0118393,-1.76755,0.0795064,1.39972,0.402476,0.541216,0.0184728,0.596013,-0.140532,0.390239,0.0465229,-0.000722723,1.80469,-26.9606,1.26253,25.5069,1.92505,2.07177,0.00376909,-0.665095,-0.970775,-1.43917,0.83218,0.390127,-0.359961,-0.299883,0.400586,-0.553544,-0.697024,0.391571,-0.223522,-0.00910231,
0.336326,-0.223758,-0.0135638,-1.76817,0.0825151,-0.171666,-0.382646,0.702177,0.0142652,0.771024,-0.212468,0.723569,0.0265627,0.009818,0,0,0,0,0,0,0,0.337458,-0.223397,-0.0118393,-1.76755,0.0795064,1.39972,0.402476,0.541216,0.0184728,0.596013,-0.140532,0.390239,0.0465229,-0.000722723,1.80469,-26.9606,1.26253,25.5069,1.92505,2.07177,0.00376909,-0.665095,-0.970775,-1.43917,0.83218,0.390127,-0.359961,-0.299883,0.400586,-0.553544,-0.697024,0.391571,-0.223522,-0.00910231,
0.339163,-0.223687,-0.0104183,-1.76902,0.0855675,-0.171564,-0.382609,0.709277,0.0178407,0.786381,-0.212376,0.763116,0.025633,0.00925988,0,0,0,0,0,0,0,0.337458,-0.223397,-0.0118393,-1.76755,0.0795064,1.39972,0.402476,0.541216,0.0184728,0.596013,-0.140532,0.390239,0.0465229,-0.000722723,1.80469,-26.9606,1.26253,25.5069,1.92505,2.07177,0.00376909,-1.29854,1.07528,-1.39283,-0.505791,-0.00869573,0.639546,0.653847,0.448726,0.61028,-0.703322,0.625019,-0.25079,-0.0120495,
0.342021,-0.223603,-0.00721965,-1.76987,0.088764,-0.171456,-0.382574,0.714579,0.0210526,0.79965,-0.211838,0.799116,0.0269611,0.0087653,0,0,0,0,0,0,0,0.355782,-0.222481,0.00868338,-1.77178,0.0921709,1.40104,0.40248,0.553481,0.0299364,0.598314,-0.124132,0.369751,0.0432972,0.000268467,0.765262,-27.5319,0.0644055,25.6815,1.46728,2.17797,-0.0163725,-1.52499,0.236077,-1.68317,-0.0788374,-0.140881,0.331764,0.358428,0.343592,0.273076,-0.756934,0.45735,-0.234374,-0.011523,
0.325355,-0.223892,-0.0254203,-1.7648,0.072017,-0.172226,-0.382819,0.647899,-5.49188e-05,0.678746,-0.200096,0.535683,0.057591,0.0128789,0,0,0,0,0,0,0,0.355782,-0.222481,0.00868338,-1.77178,0.0921709,1.40104,0.40248,0.553481,0.0299364,0.598314,-0.124132,0.369751,0.0432972,0.000268467,0.765262,-27.5319,0.0644055,25.6815,1.46728,2.17797,-0.0163725,-1.52499,0.236077,-1.68317,-0.0788374,-0.140881,0.331764,0.358428,0.343592,0.273076,-0.756934,0.45735,-0.234374,-0.011523,
0.363225,-0.222369,0.0166641,-1.77408,0.0979714,-0.168942,-0.382763,0.642315,0.00927225,0.697624,-0.203934,0.539128,0.0632962,0.0122992,0,0,0,0,0,0,0,0.355782,-0.222481,0.00868338,-1.77178,0.0921709,1.40104,0.40248,0.553481,0.0299364,0.598314,-0.124132,0.369751,0.0432972,0.000268467,0.765262,-27.5319,0.0644055,25.6815,1.46728,2.17797,-0.0163725,-1.63377,-0.0248397,-1.67704,0.0604579,-0.289365,0.253861,0.313762,0.219608,0.166506,-0.694934,0.382185,-0.190399,-0.0126774,
0.365859,-0.222319,0.0195595,-1.77491,0.100339,-0.168717,-0.382717,0.658653,0.01255,0.723866,-0.207363,0.592012,0.0562222,0.0114293,0,0,0,0,0,0,0,0.355782,-0.222481,0.00868338,-1.77178,0.0921709,1.40104,0.40248,0.553481,0.0299364,0.598314,-0.124132,0.369751,0.0432972,0.000268467,0.765262,-27.5319,0.0644055,25.6815,1.46728,2.17797,-0.0163725,-1.63377,-0.0248397,-1.67704,0.0604579,-0.289365,0.253861,0.313762,0.219608,0.166506,-0.694934,0.382185,-0.190399,-0.0126774,
0.368546,-0.222254,0.0225445,-1.77575,0.102907,-0.168512,-0.382674,0.671742,0.0161125,0.746227,-0.208788,0.641897,0.0512046,0.0106554,0,0,0,0,0,0,0,0.355782,-0.222481,0.00868338,-1.77178,0.0921709,1.40104,0.40248,0.553481,0.0299364,0.598314,-0.124132,0.369751,0.0432972,0.000268467,0.765262,-27.5319,0.0644055,25.6815,1.46728,2.17797,-0.0163725,-0.639948,-0.485337,-1.98402,0.390943,0.644382,-0.139385,-0.0896299,0.715768,-0.293094,-0.933666,0.458961,-0.23338,-0.0111384,
0.371275,-0.222176,0.025606,-1.77659,0.10566,-0.168318,-0.382635,0.682103,0.0195058,0.765376,-0.209193,0.688282,0.0486304,0.00997357,0,0,0,0,0,0,0,0.355782,-0.222481,0.00868338,-1.77178,0.0921709,1.40104,0.40248,0.553481,0.0299364,0.598314,-0.124132,0.369751,0.0432972,0.000268467,0.765262,-27.5319,0.0644055,25.6815,1.46728,2.17797,-0.0163725,-0.639948,-0.485337,-1.98402,0.390943,0.644382,-0.139385,-0.0896299,0.715768,-0.293094,-0.933666,0.458961,-0.23338,-0.0111384,
0.374035,-0.222086,0.0287336,-1.77742,0.108584,-0.168124,-0.382597,0.690059,0.0225779,0.781918,-0.208988,0.730939,0.0483877,0.00942738,0,0,0,0,0,0,0,0.378612,-0.221141,0.0348472,-1.77664,0.109802,1.40304,0.402479,0.528757,0.0350592,0.610898,-0.103417,0.400906,0.056561,-0.000567279,0.233646,-27.6589,-0.411669,25.3085,0.93536,2.3565,0.00376909,-1.77429,1.24505,-2.19311,-0.741163,-0.00659709,0.813666,0.835032,0.663883,0.795542,-1.00304,0.707836,-0.274418,-0.0141125,
0.376833,-0.221985,0.0319098,-1.77825,0.111623,-0.167925,-0.382561,0.699364,0.0252816,0.794042,-0.207948,0.759652,0.0499608,0.00888881,0,0,0,0,0,0,0,0.378612,-0.221141,0.0348472,-1.77664,0.109802,1.40304,0.402479,0.528757,0.0350592,0.610898,-0.103417,0.400906,0.056561,-0.000567279,0.233646,-27.6589,-0.411669,25.3085,0.93536,2.3565,0.00376909,-1.93045,-0.0314353,-2.15553,0.0275265,-0.250076,0.321668,0.355759,0.358222,0.249952,-0.901645,0.498464,-0.232914,-0.0118637,
0.363225,-0.222369,0.0166641,-1.77408,0.0979705,-0.168942,-0.382763,0.642322,0.00927067,0.69763,-0.203934,0.539029,0.0633223,0.0122987,0,0,0,0,0,0,0,0.378612,-0.221141,0.0348472,-1.77664,0.109802,1.40304,0.402479,0.528757,0.0350592,0.610898,-0.103417,0.400906,0.056561,-0.000567279,0.233646,-27.6589,-0.411669,25.3085,0.93536,2.3565,0.00376909,-1.93045,-0.0314353,-2.15553,0.0275265,-0.250076,0.321668,0.355759,0.358222,0.249952,-0.901645,0.498464,-0.232914,-0.0118637,
0.385912,-0.221016,0.0428593,-1.77883,0.115843,-0.166609,-0.382766,0.630868,0.00972103,0.700305,-0.195745,0.554712,0.093475,0.0121203,0,0,0,0,0,0,0,0.378612,-0.221141,0.0348472,-1.77664,0.109802,1.40304,0.402479,0.528757,0.0350592,0.610898,-0.103417,0.400906,0.056561,-0.000567279,0.233646,-27.6589,-0.411669,25.3085,0.93536,2.3565,0.00376909,-0.310935,-1.00578,-2.39585,0.552204,0.932087,-0.406659,-0.336502,0.876163,-0.586048,-1.05401,0.312263,-0.17903,-0.00826126,
0.388502,-0.220965,0.0457661,-1.77962,0.118259,-0.16626,-0.382721,0.647311,0.0128943,0.726721,-0.199829,0.603987,0.0870388,0.011251,0,0,0,0,0,0,0,0.378612,-0.221141,0.0348472,-1.77664,0.109802,1.40304,0.402479,0.528757,0.0350592,0.610898,-0.103417,0.400906,0.056561,-0.000567279,0.233646,-27.6589,-0.411669,25.3085,0.93536,2.3565,0.00376909,-0.310935,-1.00578,-2.39585,0.552204,0.932087,-0.406659,-0.336502,0.876163,-0.586048,-1.05401,0.312263,-0.17903,-0.00826126,
0.391143,-0.220899,0.0487632,-1.78043,0.120862,-0.165932,-0.382679,0.660311,0.0164008,0.74926,-0.201663,0.650927,0.0820943,0.010528,0,0,0,0,0,0,0,0.395999,-0.220289,0.0551274,-1.78025,0.122996,1.40541,0.402484,0.537805,0.0243586,0.619341,-0.110594,0.374192,0.0865031,-0.000112549,-0.147213,-27.3335,-1.01073,25.3323,1.59546,2.07177,-0.0163725,-0.578567,0.691598,-2.42533,-0.543228,0.838853,0.355777,0.401955,1.07314,0.284566,-1.10479,0.532359,-0.196766,-0.0108317,
0.393838,-0.22082,0.0518285,-1.78124,0.123602,-0.165616,-0.38264,0.673819,0.0197362,0.766342,-0.201958,0.684798,0.0790784,0.00983643,0,0,0,0,0,0,0,0.395999,-0.220289,0.0551274,-1.78025,0.122996,1.40541,0.402484,0.537805,0.0243586,0.619341,-0.110594,0.374192,0.0865031,-0.000112549,-0.147213,-27.3335,-1.01073,25.3323,1.59546,2.07177,-0.0163725,-1.76793,1.11338,-2.61609,-0.821174,0.130452,0.782392,0.798685,0.838343,0.779627,-1.15857,0.664892,-0.265081,-0.0121802,
0.396582,-0.22073,0.0549497,-1.78204,0.126421,-0.165304,-0.382603,0.685947,0.0226224,0.780297,-0.201323,0.704761,0.0779877,0.00919876,0,0,0,0,0,0,0,0.395999,-0.220289,0.0551274,-1.78025,0.122996,1.40541,0.402484,0.537805,0.0243586,0.619341,-0.110594,0.374192,0.0865031,-0.000112549,-0.147213,-27.3335,-1.01073,25.3323,1.59546,2.07177,-0.0163725,-1.76793,1.11338,-2.61609,-0.821174,0.130452,0.782392,0.798685,0.838343,0.779627,-1.15857,0.664892,-0.265081,-0.0121802,
0.399365,-0.22063,0.058117,-1.78285,0.129286,-0.164989,-0.382568,0.69567,0.0249782,0.791817,-0.200316,0.716432,0.0786672,0.00858021,0,0,0,0,0,0,0,0.395999,-0.220289,0.0551274,-1.78025,0.122996,1.40541,0.402484,0.537805,0.0243586,0.619341,-0.110594,0.374192,0.0865031,-0.000112549,-0.147213,-27.3335,-1.01073,25.3323,1.59546,2.07177,-0.0163725,-1.68703,0.695186,-2.79814,-0.645568,0.197026,0.606237,0.630631,0.861219,0.58921,-1.20924,0.56166,-0.249569,-0.0127809,
0.385913,-0.221017,0.0428598,-1.77883,0.115833,-0.166606,-0.382766,0.630944,0.00970469,0.70037,-0.195745,0.553594,0.0937263,0.012115,0,0,0,0,0,0,0,0.395999,-0.220289,0.0551274,-1.78025,0.122996,1.40541,0.402484,0.537805,0.0243586,0.619341,-0.110594,0.374192,0.0865031,-0.000112549,-0.147213,-27.3335,-1.01073,25.3323,1.59546,2.07177,-0.0163725,-1.68703,0.695186,-2.79814,-0.645568,0.197026,0.606237,0.630631,0.861219,0.58921,-1.20924,0.56166,-0.249569,-0.0127809,
0.403245,-0.220203,0.0632693,-1.78238,0.128899,-0.163975,-0.382766,0.624471,0.00799811,0.709297,-0.190093,0.547903,0.115032,0.0118055,0,0,0,0,0,0,0,0.395999,-0.220289,0.0551274,-1.78025,0.122996,1.40541,0.402484,0.537805,0.0243586,0.619341,-0.110594,0.374192,0.0865031,-0.000112549,-0.147213,-27.3335,-1.01073,25.3323,1.59546,2.07177,-0.0163725,-0.513546,-1.3438,-2.29615,0.755924,0.725678,-0.4837,-0.410421,0.699363,-0.673775,-0.982849,0.304547,-0.168322,-0.00907393,
0.405817,-0.220156,0.066198,-1.78315,0.131258,-0.163538,-0.382722,0.642941,0.0117366,0.732178,-0.193505,0.589706,0.109065,0.0109692,0,0,0,0,0,0,0,0.41275,-0.219556,0.0749904,-1.78388,0.135435,1.40871,0.402486,0.54936,0.0218471,0.640111,-0.129458,0.416601,0.1136,0.000813535,0.00751081,-26.5837,-0.911547,25.2332,2.30957,1.79345,-0.0301054,-0.513546,-1.3438,-2.29615,0.755924,0.725678,-0.4837,-0.410421,0.699363,-0.673775,-0.982849,0.304547,-0.168322,-0.00907393,
0.408454,-0.220094,0.0692021,-1.78393,0.133728,-0.163121,-0.382682,0.659267,0.0154449,0.751021,-0.194644,0.617554,0.104332,0.010188,0,0,0,0,0,0,0,0.41275,-0.219556,0.0749904,-1.78388,0.135435,1.40871,0.402486,0.54936,0.0218471,0.640111,-0.129458,0.416601,0.1136,0.000813535,0.00751081,-26.5837,-0.911547,25.2332,2.30957,1.79345,-0.0301054,-1.06308,0.516537,-2.4456,-0.483072,0.521501,0.405284,0.463587,0.927586,0.330832,-1.10559,0.548831,-0.230678,-0.011327,
0.411144,-0.22002,0.0722687,-1.78471,0.136276,-0.162715,-0.382644,0.672553,0.018677,0.766666,-0.194846,0.63693,0.101447,0.00944052,0,0,0,0,0,0,0,0.41275,-0.219556,0.0749904,-1.78388,0.135435,1.40871,0.402486,0.54936,0.0218471,0.640111,-0.129458,0.416601,0.1136,0.000813535,0.00751081,-26.5837,-0.911547,25.2332,2.30957,1.79345,-0.0301054,-1.78082,1.2606,-2.53857,-0.992281,0.109579,0.87611,0.900926,0.876532,0.885198,-1.15186,0.666883,-0.280379,-0.0102607,
0.413875,-0.219934,0.0753859,-1.78549,0.138886,-0.162314,-0.382608,0.682807,0.021367,0.779285,-0.194663,0.652558,0.100389,0.00888525,0,0,0,0,0,0,0,0.41275,-0.219556,0.0749904,-1.78388,0.135435,1.40871,0.402486,0.54936,0.0218471,0.640111,-0.129458,0.416601,0.1136,0.000813535,0.00751081,-26.5837,-0.911547,25.2332,2.30957,1.79345,-0.0301054,-1.78082,1.2606,-2.53857,-0.992281,0.109579,0.87611,0.900926,0.876532,0.885198,-1.15186,0.666883,-0.280379,-0.0102607,
0.41664,-0.21984,0.0785432,-1.78627,0.141531,-0.161911,-0.382575,0.691117,0.023602,0.789321,-0.193966,0.661187,0.100799,0.00826799,0,0,0,0,0,0,0,0.41275,-0.219556,0.0749904,-1.78388,0.135435,1.40871,0.402486,0.54936,0.0218471,0.640111,-0.129458,0.416601,0.1136,0.000813535,0.00751081,-26.5837,-0.911547,25.2332,2.30957,1.79345,-0.0301054,-1.28901,-0.189423,-2.28161,-0.0235372,0.24549,0.179515,0.197334,0.650166,0.117051,-0.992183,0.473218,-0.215415,-0.00801719,
0.403253,-0.220204,0.0632749,-1.78238,0.1288,-0.163956,-0.382767,0.625246,0.0078425,0.709957,-0.190048,0.536471,0.117213,0.0117508,0,0,0,0,0,0,0,0.429292,-0.218914,0.0946891,-1.78755,0.147529,1.41281,0.402489,0.518128,0.0199771,0.651906,-0.118933,0.406211,0.130805,0.000352347,1.47541,-26.4845,-0.0109729,25.0348,1.94336,1.79345,-0.0227812,-1.28901,-0.189423,-2.28161,-0.0235372,0.24549,0.179515,0.197334,0.650166,0.117051,-0.992183,0.473218,-0.215415,-0.00801719,
0.436539,-0.218806,0.102968,-1.78964,0.153449,-0.156162,-0.382766,0.627442,0.0104841,0.716652,-0.184085,0.526455,0.148426,0.0112508,0,0,0,0,0,0,0,0.429292,-0.218914,0.0946891,-1.78755,0.147529,1.41281,0.402489,0.518128,0.0199771,0.651906,-0.118933,0.406211,0.130805,0.000352347,1.47541,-26.4845,-0.0109729,25.0348,1.94336,1.79345,-0.0227812,0.282469,-1.2272,-2.59327,0.517288,1.42904,-0.615228,-0.551314,1.16667,-0.797985,-1.1997,0.296686,-0.199333,-0.0037085,
0.43912,-0.218751,0.105919,-1.79039,0.155641,-0.155594,-0.382725,0.645361,0.0138167,0.737822,-0.187062,0.548042,0.141897,0.0103735,0,0,0,0,0,0,0,0.429292,-0.218914,0.0946891,-1.78755,0.147529,1.41281,0.402489,0.518128,0.0199771,0.651906,-0.118933,0.406211,0.130805,0.000352347,1.47541,-26.4845,-0.0109729,25.0348,1.94336,1.79345,-0.0227812,0.282469,-1.2272,-2.59327,0.517288,1.42904,-0.615228,-0.551314,1.16667,-0.797985,-1.1997,0.296686,-0.199333,-0.0037085,
0.441758,-0.218683,0.108939,-1.79115,0.157909,-0.155048,-0.382686,0.659477,0.0169208,0.755018,-0.188563,0.566835,0.136636,0.00969148,0,0,0,0,0,0,0,0.429292,-0.218914,0.0946891,-1.78755,0.147529,1.41281,0.402489,0.518128,0.0199771,0.651906,-0.118933,0.406211,0.130805,0.000352347,1.47541,-26.4845,-0.0109729,25.0348,1.94336,1.79345,-0.0227812,0.0403294,0.402039,-3.04665,-0.666542,1.53637,0.0909502,0.151321,1.60628,0.00133561,-1.4581,0.489056,-0.261284,-0.00680374,
0.444442,-0.218605,0.112015,-1.7919,0.160226,-0.154516,-0.38265,0.671017,0.0196284,0.768852,-0.189037,0.579239,0.132925,0.00896486,0,0,0,0,0,0,0,0.429292,-0.218914,0.0946891,-1.78755,0.147529,1.41281,0.402489,0.518128,0.0199771,0.651906,-0.118933,0.406211,0.130805,0.000352347,1.47541,-26.4845,-0.0109729,25.0348,1.94336,1.79345,-0.0227812,-1.38645,1.00259,-2.45766,-0.877103,0.383365,0.699149,0.747701,0.998116,0.668712,-1.16677,0.650279,-0.29624,-0.00964216,
0.44716,-0.218518,0.115134,-1.79266,0.162587,-0.153992,-0.382616,0.679562,0.0218263,0.779771,-0.189148,0.590241,0.130901,0.00840412,0,0,0,0,0,0,0,0.446457,-0.218322,0.115249,-1.79112,0.159196,1.41717,0.402488,0.534504,0.0229144,0.625914,-0.106505,0.32525,0.164495,-0.000711544,-0.0202602,-27.2582,-1.23686,25.5347,1.31439,2.19079,-0.0026396,-1.38645,1.00259,-2.45766,-0.877103,0.383365,0.699149,0.747701,0.998116,0.668712,-1.16677,0.650279,-0.29624,-0.00964216,
0.449906,-0.218423,0.118287,-1.79341,0.164964,-0.153471,-0.382585,0.686444,0.0236399,0.788324,-0.188621,0.594303,0.130258,0.00791283,0,0,0,0,0,0,0,0.446457,-0.218322,0.115249,-1.79112,0.159196,1.41717,0.402488,0.534504,0.0229144,0.625914,-0.106505,0.32525,0.164495,-0.000711544,-0.0202602,-27.2582,-1.23686,25.5347,1.31439,2.19079,-0.0026396,-1.01914,-0.131595,-2.4603,-0.207157,0.541873,0.170386,0.209929,0.903644,0.0987646,-1.14411,0.465482,-0.271888,-0.00688651,
0.436606,-0.218814,0.103014,-1.78963,0.152597,-0.156092,-0.382771,0.633859,0.00943662,0.722062,-0.182497,0.428371,0.156716,0.0107961,0,0,0,0,0,0,0,0.446457,-0.218322,0.115249,-1.79112,0.159196,1.41717,0.402488,0.534504,0.0229144,0.625914,-0.106505,0.32525,0.164495,-0.000711544,-0.0202602,-27.2582,-1.23686,25.5347,1.31439,2.19079,-0.0026396,-1.01914,-0.131595,-2.4603,-0.207157,0.541873,0.170386,0.209929,0.903644,0.0987646,-1.14411,0.465482,-0.271888,-0.00688651,
0.453669,-0.218217,0.123483,-1.79309,0.163234,-0.151331,-0.382775,0.624125,0.0092479,0.713968,-0.175325,0.342217,0.188211,0.01073,0,0,0,0,0,0,0,0.446457,-0.218322,0.115249,-1.79112,0.159196,1.41717,0.402488,0.534504,0.0229144,0.625914,-0.106505,0.32525,0.164495,-0.000711544,-0.0202602,-27.2582,-1.23686,25.5347,1.31439,2.19079,-0.0026396,0.205182,-1.49248,-2.22214,0.700944,1.23049,-0.680907,-0.626468,0.954094,-0.861185,-1.05967,0.278012,-0.214006,-0.00331976,
0.456235,-0.21817,0.126422,-1.7938,0.164621,-0.150604,-0.382736,0.641302,0.0119791,0.734825,-0.179064,0.346784,0.181537,0.00985081,0,0,0,0,0,0,0,0.446457,-0.218322,0.115249,-1.79112,0.159196,1.41717,0.402488,0.534504,0.0229144,0.625914,-0.106505,0.32525,0.164495,-0.000711544,-0.0202602,-27.2582,-1.23686,25.5347,1.31439,2.19079,-0.0026396,-0.705522,0.302305,-2.10016,-0.420168,0.675105,0.256392,0.294252,0.958162,0.192352,-1.03256,0.528273,-0.260932,-0.00472575,
0.458852,-0.218111,0.129428,-1.79453,0.166034,-0.149902,-0.382699,0.654389,0.0146409,0.751359,-0.181207,0.353395,0.175655,0.00914483,0,0,0,0,0,0,0,0.446457,-0.218322,0.115249,-1.79112,0.159196,1.41717,0.402488,0.534504,0.0229144,0.625914,-0.106505,0.32525,0.164495,-0.000711544,-0.0202602,-27.2582,-1.23686,25.5347,1.31439,2.19079,-0.0026396,-0.705522,0.302305,-2.10016,-0.420168,0.675105,0.256392,0.294252,0.958162,0.192352,-1.03256,0.528273,-0.260932,-0.00472575,
0.461512,-0.218043,0.132485,-1.79526,0.167457,-0.149218,-0.382665,0.664947,0.0170445,0.764418,-0.182139,0.355576,0.171048,0.00853337,0,0,0,0,0,0,0,0.463879,-0.217539,0.136196,-1.79454,0.170377,1.42235,0.40249,0.53802,0.0205282,0.640298,-0.101552,0.306204,0.16857,0.000170928,-0.0202602,-26.9328,-1.53838,25.8084,1.54052,2.13128,-0.0227812,-1.83938,2.19198,-1.98982,-1.62847,-0.0909441,1.29672,1.31684,0.872094,1.37134,-0.960197,0.734564,-0.27432,-0.00886519,
0.464204,-0.217967,0.135584,-1.79599,0.168878,-0.148546,-0.382633,0.672949,0.0190342,0.77463,-0.182465,0.355252,0.167952,0.00797109,0,0,0,0,0,0,0,0.463879,-0.217539,0.136196,-1.79454,0.170377,1.42235,0.40249,0.53802,0.0205282,0.640298,-0.101552,0.306204,0.16857,0.000170928,-0.0202602,-26.9328,-1.53838,25.8084,1.54052,2.13128,-0.0227812,-1.83938,2.19198,-1.98982,-1.62847,-0.0909441,1.29672,1.31684,0.872094,1.37134,-0.960197,0.734564,-0.27432,-0.00886519,
0.466919,-0.217884,0.138713,-1.79672,0.170291,-0.147881,-0.382603,0.678761,0.0206225,0.782366,-0.182398,0.353288,0.166288,0.0075724,0,0,0,0,0,0,0,0.463879,-0.217539,0.136196,-1.79454,0.170377,1.42235,0.40249,0.53802,0.0205282,0.640298,-0.101552,0.306204,0.16857,0.000170928,-0.0202602,-26.9328,-1.53838,25.8084,1.54052,2.13128,-0.0227812,-1.84474,0.792092,-1.87407,-0.718247,-0.263379,0.781368,0.801441,0.520699,0.79874,-0.839407,0.549354,-0.233714,-0.00722594,
0.453901,-0.218232,0.123637,-1.79299,0.160142,-0.151293,-0.382792,0.645557,0.00629872,0.731953,-0.167264,-0.0098086,0.193437,0.00929284,0,0,0,0,0,0,0,0.463879,-0.217539,0.136196,-1.79454,0.170377,1.42235,0.40249,0.53802,0.0205282,0.640298,-0.101552,0.306204,0.16857,0.000170928,-0.0202602,-26.9328,-1.53838,25.8084,1.54052,2.13128,-0.0227812,-1.84474,0.792092,-1.87407,-0.718247,-0.263379,0.781368,0.801441,0.520699,0.79874,-0.839407,0.549354,-0.233714,-0.00722594,
0.471337,-0.217467,0.144638,-1.79636,0.17109,-0.146004,-0.38279,0.644475,0.00501131,0.733598,-0.162026,-0.030355,0.205421,0.00918839,0,0,0,0,0,0,0,0.463879,-0.217539,0.136196,-1.79454,0.170377,1.42235,0.40249,0.53802,0.0205282,0.640298,-0.101552,0.306204,0.16857,0.000170928,-0.0202602,-26.9328,-1.53838,25.8084,1.54052,2.13128,-0.0227812,0.459033,-1.94261,-1.59819,1.10477,1.11118,-0.904197,-0.83966,0.640228,-1.12054,-0.763827,0.209086,-0.149121,0.000408094,
0.473975,-0.217441,0.147653,-1.79702,0.170717,-0.1452,-0.382756,0.659504,0.00636367,0.75391,-0.166859,-0.0932115,0.200868,0.00850355,0,0,0,0,0,0,0,0.481308,-0.216574,0.157034,-1.79757,0.177917,1.42781,0.402488,0.538321,0.0277729,0.670553,-0.0915822,0.204026,0.174036,-0.000695715,0.562931,-26.7345,-1.08611,25.5347,1.65588,2.17797,-0.0026396,-0.486043,-0.281062,-1.69148,-0.00634206,0.538281,-0.00737427,0.0449626,0.6675,-0.103252,-0.777577,0.386671,-0.159754,-0.00235517,
0.476656,-0.217409,0.150729,-1.7977,0.170148,-0.144418,-0.382724,0.670205,0.0080355,0.7688,-0.170002,-0.142386,0.195539,0.00788204,0,0,0,0,0,0,0,0.481308,-0.216574,0.157034,-1.79757,0.177917,1.42781,0.402488,0.538321,0.0277729,0.670553,-0.0915822,0.204026,0.174036,-0.000695715,0.562931,-26.7345,-1.08611,25.5347,1.65588,2.17797,-0.0026396,-0.486043,-0.281062,-1.69148,-0.00634206,0.538281,-0.00737427,0.0449626,0.6675,-0.103252,-0.777577,0.386671,-0.159754,-0.00235517,
0.479366,-0.21737,0.153846,-1.79839,0.169424,-0.143656,-0.382694,0.677486,0.00970292,0.7794,-0.172171,-0.18097,0.190458,0.00751719,0,0,0,0,0,0,0,0.481308,-0.216574,0.157034,-1.79757,0.177917,1.42781,0.402488,0.538321,0.0277729,0.670553,-0.0915822,0.204026,0.174036,-0.000695715,0.562931,-26.7345,-1.08611,25.5347,1.65588,2.17797,-0.0026396,-2.13882,1.53621,-2.24601,-1.34856,-0.324347,1.15692,1.18077,0.738956,1.22824,-0.991531,0.619195,-0.24276,-0.00446067,
0.482094,-0.217325,0.156993,-1.79909,0.168577,-0.142912,-0.382666,0.682105,0.0112532,0.786631,-0.173652,-0.211722,0.186063,0.00690448,0,0,0,0,0,0,0,0.481308,-0.216574,0.157034,-1.79757,0.177917,1.42781,0.402488,0.538321,0.0277729,0.670553,-0.0915822,0.204026,0.174036,-0.000695715,0.562931,-26.7345,-1.08611,25.5347,1.65588,2.17797,-0.0026396,-2.13882,1.53621,-2.24601,-1.34856,-0.324347,1.15692,1.18077,0.738956,1.22824,-0.991531,0.619195,-0.24276,-0.00446067,
0.484833,-0.217275,0.160158,-1.79979,0.167629,-0.142182,-0.38264,0.684651,0.0126455,0.791228,-0.174587,-0.236835,0.18254,0.00669609,0,0,0,0,0,0,0,0.481308,-0.216574,0.157034,-1.79757,0.177917,1.42781,0.402488,0.538321,0.0277729,0.670553,-0.0915822,0.204026,0.174036,-0.000695715,0.562931,-26.7345,-1.08611,25.5347,1.65588,2.17797,-0.0026396,-1.78111,0.439327,-2.47612,-0.815543,-0.139075,0.677527,0.706955,0.72038,0.715657,-1.07738,0.375322,-0.242042,-0.00372228,
0.471427,-0.217596,0.144615,-1.79636,0.166583,-0.145313,-0.382802,0.64715,-0.00970286,0.730308,-0.162462,-0.547999,0.278975,0.00860442,0,0,0,0,0,0,0,0.481308,-0.216574,0.157034,-1.79757,0.177917,1.42781,0.402488,0.538321,0.0277729,0.670553,-0.0915822,0.204026,0.174036,-0.000695715,0.562931,-26.7345,-1.08611,25.5347,1.65588,2.17797,-0.0026396,-1.78111,0.439327,-2.47612,-0.815543,-0.139075,0.677527,0.706955,0.72038,0.715657,-1.07738,0.375322,-0.242042,-0.00372228,
0.488825,-0.21659,0.165513,-1.79936,0.173778,-0.139832,-0.382799,0.638409,-0.00743707,0.728322,-0.162859,-0.531405,0.280653,0.00875831,0,0,0,0,0,0,0,0.504736,-0.215332,0.184776,-1.80088,0.179725,1.43555,0.402491,0.567406,0.0298924,0.686254,-0.0710808,-0.024089,0.177467,0.00128944,-0.222592,-26.5837,-1.93511,25.3839,1.04522,1.85937,-0.0301054,0.391855,-1.63815,-2.20605,0.480133,1.04865,-0.716757,-0.660125,0.837862,-0.831696,-0.987362,-0.0505487,-0.144087,-0.0014459,
0.491391,-0.216626,0.168465,-1.80003,0.171203,-0.138691,-0.382764,0.641522,-0.00912133,0.738012,-0.169674,-0.64359,0.285271,0.00861232,0,0,0,0,0,0,0,0.504736,-0.215332,0.184776,-1.80088,0.179725,1.43555,0.402491,0.567406,0.0298924,0.686254,-0.0710808,-0.024089,0.177467,0.00128944,-0.222592,-26.5837,-1.93511,25.3839,1.04522,1.85937,-0.0301054,-0.00309999,-0.560485,-2.47331,-0.401001,0.869403,-0.189162,-0.138863,1.04899,-0.210098,-1.13427,-0.028873,-0.193644,-0.00503575,
