PerkyPenguin/Analysis-on-Approximated-Derivatives/Code_and_Data/PaperData/Real_Robot/Scene_1/contact_change/11/trajectory.csv
Commanded Joint 0 Position,Commanded Joint 1 Position,Commanded Joint 2 Position,Commanded Joint 3 Position,Commanded Joint 4 Position,Commanded Joint 5 Position,Commanded Joint 6 Position,Commanded Joint 0 Velocity,Commanded Joint 1 Velocity,Commanded Joint 2 Velocity,Commanded Joint 3 Velocity,Commanded Joint 4 Velocity,Commanded Joint 5 Velocity,Commanded Joint 6 Velocity,Commanded Joint 0 Torque,Commanded Joint 1 Torque,Commanded Joint 2 Torque,Commanded Joint 3 Torque,Commanded Joint 4 Torque,Commanded Joint 5 Torque,Commanded Joint 6 Torque,Actual Joint 0 Position,Actual Joint 1 Position,Actual Joint 2 Position,Actual Joint 3 Position,Actual Joint 4 Position,Actual Joint 5 Position,Actual Joint 6 Position,Actual Joint 0 Velocity,Actual Joint 1 Velocity,Actual Joint 2 Velocity,Actual Joint 3 Velocity,Actual Joint 4 Velocity,Actual Joint 5 Velocity,Actual Joint 6 Velocity,Actual Joint 0 Torque,Actual Joint 1 Torque,Actual Joint 2 Torque,Actual Joint 3 Torque,Actual Joint 4 Torque,Actual Joint 5 Torque,Actual Joint 6 Torque,EE ext force 0,EE ext force 1,EE ext force 2,EE ext force 3,EE ext force 4,EE ext force 5,joint ext torque 0,joint ext torque 1,joint ext torque 2,joint ext torque 3,joint ext torque 4,joint ext torque 5,joint ext torque 6,
0.00384574,-0.223331,-0.334885,-1.66678,-0.10079,-0.0931671,-0.382876,-0.00210472,0.0129656,-0.0135794,-0.152615,0.003289,0.193067,-0.00214403,0,0,0,0,0,0,0,0.0038484,-0.223322,-0.334782,-1.66522,-0.100751,1.47569,0.402545,-0.000437942,-0.00215869,-0.000823517,0.00130761,0.0080326,-0.00165544,0.000873762,0.0828892,-23.8622,2.1393,25.8322,0.306393,3.09258,-0.0429228,0.793805,-0.704981,0.376836,0.495495,0.827996,-0.130251,0.0270388,0.550561,-0.315295,-0.292522,-0.141663,-0.323537,-0.0193574,
0.00383228,-0.223208,-0.334952,-1.66742,-0.100779,-0.0923699,-0.382884,-0.00336706,0.0307475,-0.0167372,-0.161505,0.00275609,0.199306,-0.00203298,0,0,0,0,0,0,0,0.0038484,-0.223322,-0.334782,-1.66522,-0.100751,1.47569,0.402545,-0.000437942,-0.00215869,-0.000823517,0.00130761,0.0080326,-0.00165544,0.000873762,0.0828892,-23.8622,2.1393,25.8322,0.306393,3.09258,-0.0429228,0.62778,-0.716514,0.463168,0.476708,0.666926,-0.165024,-0.00259623,0.444466,-0.348344,-0.234252,-0.156941,-0.318951,-0.0195323,
0.0038457,-0.22335,-0.334786,-1.66521,-0.100681,-0.0951158,-0.382852,-4.54706e-05,-0.00145968,-7.11909e-05,0.000669061,0.0029265,-0.000336802,1.25594e-05,0,0,0,0,0,0,0,0.00385629,-0.223312,-0.334777,-1.66523,-0.100803,1.4757,0.402545,7.4594e-05,0.0011291,0.00135197,-0.000851683,-0.00265164,-0.000387123,0.00130618,-0.0202602,-24.0129,2.03615,25.983,0.703732,3.01293,-0.0429228,0.62778,-0.716514,0.463168,0.476708,0.666926,-0.165024,-0.00259623,0.444466,-0.348344,-0.234252,-0.156941,-0.318951,-0.0195323,
0.00384567,-0.223355,-0.334786,-1.66521,-0.100672,-0.0951167,-0.382852,-6.65219e-06,-0.00130136,-2.1741e-05,0.000609355,0.00231791,-0.000210982,8.91058e-06,0,0,0,0,0,0,0,0.00385629,-0.223312,-0.334777,-1.66523,-0.100803,1.4757,0.402545,7.4594e-05,0.0011291,0.00135197,-0.000851683,-0.00265164,-0.000387123,0.00130618,-0.0202602,-24.0129,2.03615,25.983,0.703732,3.01293,-0.0429228,0.775838,-0.83276,0.223474,0.603055,0.873365,-0.187513,-0.0246682,0.601269,-0.390159,-0.347729,-0.16074,-0.323209,-0.0205003,
0.00384574,-0.22336,-0.334786,-1.6652,-0.100664,-0.0951171,-0.382852,1.80815e-05,-0.00116351,8.26976e-06,0.000555454,0.00184508,-0.000119385,6.44206e-06,0,0,0,0,0,0,0,0.00385629,-0.223312,-0.334777,-1.66523,-0.100803,1.4757,0.402545,7.4594e-05,0.0011291,0.00135197,-0.000851683,-0.00265164,-0.000387123,0.00130618,-0.0202602,-24.0129,2.03615,25.983,0.703732,3.01293,-0.0429228,0.775838,-0.83276,0.223474,0.603055,0.873365,-0.187513,-0.0246682,0.601269,-0.390159,-0.347729,-0.16074,-0.323209,-0.0205003,
0.00384588,-0.223364,-0.334786,-1.6652,-0.100658,-0.0951174,-0.382852,3.32435e-05,-0.00104435,2.51915e-05,0.000506315,0.00147369,-5.54381e-05,4.76156e-06,0,0,0,0,0,0,0,0.00385629,-0.223312,-0.334777,-1.66523,-0.100803,1.4757,0.402545,7.4594e-05,0.0011291,0.00135197,-0.000851683,-0.00265164,-0.000387123,0.00130618,-0.0202602,-24.0129,2.03615,25.983,0.703732,3.01293,-0.0429228,-0.0147568,-0.404876,0.22061,0.274749,0.222531,-0.141271,0.0267787,0.214049,-0.307954,-0.214442,-0.143195,-0.295559,-0.0215355,
0.00384604,-0.223368,-0.334786,-1.6652,-0.100654,-0.0951174,-0.382852,4.1916e-05,-0.000941709,3.33856e-05,0.000461591,0.00117886,-1.38934e-05,3.62431e-06,0,0,0,0,0,0,0,0.00385629,-0.223312,-0.334777,-1.66523,-0.100803,1.4757,0.402545,7.4594e-05,0.0011291,0.00135197,-0.000851683,-0.00265164,-0.000387123,0.00130618,-0.0202602,-24.0129,2.03615,25.983,0.703732,3.01293,-0.0429228,-0.466509,-0.40039,-0.442313,0.35944,0.090145,-0.218241,-0.0373605,0.230923,-0.412663,-0.384052,-0.155355,-0.278571,-0.0211821,
0.00384623,-0.223371,-0.334785,-1.6652,-0.10065,-0.0951174,-0.382852,4.6222e-05,-0.000853479,3.58483e-05,0.000421072,0.000942443,9.69514e-06,2.86544e-06,0,0,0,0,0,0,0,0.00386084,-0.223344,-0.334778,-1.66564,-0.100804,1.47637,0.402545,0.00195235,0.00530397,0.00107462,0.00257124,-0.0178352,0.0133126,0.000262695,-0.0956386,-24.4136,2.03615,26.828,0.733944,3.14568,-0.0365141,-0.466509,-0.40039,-0.442313,0.35944,0.090145,-0.218241,-0.0373605,0.230923,-0.412663,-0.384052,-0.155355,-0.278571,-0.0211821,
0.00371546,-0.22329,-0.334882,-1.66509,-0.0990953,-0.0960138,-0.382851,-0.0123103,0.00219,-0.0109658,0.010081,0.185278,-0.10242,0.000436132,0,0,0,0,0,0,0,0.00386084,-0.223344,-0.334778,-1.66564,-0.100804,1.47637,0.402545,0.00195235,0.00530397,0.00107462,0.00257124,-0.0178352,0.0133126,0.000262695,-0.0956386,-24.4136,2.03615,26.828,0.733944,3.14568,-0.0365141,0.835773,-0.761357,-0.753677,0.697326,1.20103,-0.136753,0.0363533,0.907873,-0.375552,-0.654516,-0.13934,-0.259849,-0.0227486,
0.00373947,-0.223253,-0.334863,-1.66552,-0.0993605,-0.0951828,-0.382853,-0.0116642,0.00627533,-0.0101587,0.00918394,0.170766,-0.0917391,0.00035724,0,0,0,0,0,0,0,0.00386084,-0.223344,-0.334778,-1.66564,-0.100804,1.47637,0.402545,0.00195235,0.00530397,0.00107462,0.00257124,-0.0178352,0.0133126,0.000262695,-0.0956386,-24.4136,2.03615,26.828,0.733944,3.14568,-0.0365141,0.835773,-0.761357,-0.753677,0.697326,1.20103,-0.136753,0.0363533,0.907873,-0.375552,-0.654516,-0.13934,-0.259849,-0.0227486,
0.0036929,-0.223235,-0.334908,-1.66549,-0.0985389,-0.0956345,-0.382851,-0.0116432,0.00451795,-0.0110833,0.00756359,0.205398,-0.112934,0.000502544,0,0,0,0,0,0,0,0.00386084,-0.223344,-0.334778,-1.66564,-0.100804,1.47637,0.402545,0.00195235,0.00530397,0.00107462,0.00257124,-0.0178352,0.0133126,0.000262695,-0.0956386,-24.4136,2.03615,26.828,0.733944,3.14568,-0.0365141,0.691678,-0.660069,-0.201753,0.516739,0.843001,-0.119286,0.0411807,0.599302,-0.31524,-0.37908,-0.1358,-0.208262,-0.0241784,
0.00364865,-0.223223,-0.334952,-1.66547,-0.0976107,-0.0961561,-0.382849,-0.0110618,0.00296714,-0.0111074,0.00606278,0.232057,-0.130403,0.000584304,0,0,0,0,0,0,0,0.00386084,-0.223344,-0.334778,-1.66564,-0.100804,1.47637,0.402545,0.00195235,0.00530397,0.00107462,0.00257124,-0.0178352,0.0133126,0.000262695,-0.0956386,-24.4136,2.03615,26.828,0.733944,3.14568,-0.0365141,0.866778,-0.597354,-0.249671,0.475183,0.993725,-0.0581427,0.100984,0.691919,-0.250004,-0.415902,-0.132706,-0.204471,-0.0256984,
0.00360801,-0.223216,-0.334994,-1.66545,-0.0965997,-0.0967354,-0.382846,-0.0101609,0.00169027,-0.0105749,0.00478318,0.252744,-0.14481,0.000626686,0,0,0,0,0,0,0,0.00386084,-0.223344,-0.334778,-1.66564,-0.100804,1.47637,0.402545,0.00195235,0.00530397,0.00107462,0.00257124,-0.0178352,0.0133126,0.000262695,-0.0956386,-24.4136,2.03615,26.828,0.733944,3.14568,-0.0365141,0.866778,-0.597354,-0.249671,0.475183,0.993725,-0.0581427,0.100984,0.691919,-0.250004,-0.415902,-0.132706,-0.204471,-0.0256984,
0.00357163,-0.223214,-0.335033,-1.66544,-0.0955241,-0.0973619,-0.382844,-0.00909401,0.000679288,-0.00971525,0.00371854,0.268903,-0.156642,0.000643856,0,0,0,0,0,0,0,0.00382959,-0.223363,-0.334787,-1.66552,-0.100511,1.47637,0.402544,8.54686e-05,-0.000486594,-0.00124653,0.00332628,0.029164,4.4911e-05,0.000233775,0.25745,-24.1121,2.1631,26.0822,0.837399,3.11913,-0.0301054,0.339336,-0.715427,-0.175297,0.574491,0.562969,-0.203691,-0.0213973,0.434822,-0.424094,-0.335264,-0.126118,-0.220532,-0.0246835,
0.00353979,-0.223214,-0.335068,-1.66542,-0.0943978,-0.0980271,-0.382841,-0.00795985,-9.73572e-05,-0.00868091,0.00283659,0.281587,-0.166301,0.000644763,0,0,0,0,0,0,0,0.00382959,-0.223363,-0.334787,-1.66552,-0.100511,1.47637,0.402544,8.54686e-05,-0.000486594,-0.00124653,0.00332628,0.029164,4.4911e-05,0.000233775,0.25745,-24.1121,2.1631,26.0822,0.837399,3.11913,-0.0301054,0.339336,-0.715427,-0.175297,0.574491,0.562969,-0.203691,-0.0213973,0.434822,-0.424094,-0.335264,-0.126118,-0.220532,-0.0246835,
0.00358051,-0.223136,-0.334957,-1.66515,-0.0963992,-0.0983709,-0.382823,-0.0254146,0.0129483,-0.0199124,0.0382432,0.510749,-0.447831,0.00323881,0,0,0,0,0,0,0,0.00382959,-0.223363,-0.334787,-1.66552,-0.100511,1.47637,0.402544,8.54686e-05,-0.000486594,-0.00124653,0.00332628,0.029164,4.4911e-05,0.000233775,0.25745,-24.1121,2.1631,26.0822,0.837399,3.11913,-0.0301054,0.315475,-0.776331,-0.0618452,0.681833,0.483771,-0.231148,-0.026766,0.361565,-0.488228,-0.296148,-0.0520205,-0.227327,-0.0231047,
0.00354739,-0.223216,-0.334974,-1.66506,-0.0957516,-0.0982468,-0.382826,-0.0251616,0.00884961,-0.0200353,0.0366789,0.533797,-0.430746,0.00313178,0,0,0,0,0,0,0,0.00382959,-0.223363,-0.334787,-1.66552,-0.100511,1.47637,0.402544,8.54686e-05,-0.000486594,-0.00124653,0.00332628,0.029164,4.4911e-05,0.000233775,0.25745,-24.1121,2.1631,26.0822,0.837399,3.11913,-0.0301054,0.733498,-0.806565,-0.103668,0.812232,0.828527,-0.166351,0.0389988,0.566634,-0.452567,-0.400203,0.0425657,-0.261675,-0.0229937,
0.00345403,-0.2232,-0.335055,-1.66494,-0.0932255,-0.100285,-0.382813,-0.0233394,0.00393939,-0.0201132,0.0296544,0.631521,-0.50953,0.00345037,0,0,0,0,0,0,0,0.00382959,-0.223363,-0.334787,-1.66552,-0.100511,1.47637,0.402544,8.54686e-05,-0.000486594,-0.00124653,0.00332628,0.029164,4.4911e-05,0.000233775,0.25745,-24.1121,2.1631,26.0822,0.837399,3.11913,-0.0301054,0.733498,-0.806565,-0.103668,0.812232,0.828527,-0.166351,0.0389988,0.566634,-0.452567,-0.400203,0.0425657,-0.261675,-0.0229937,
0.00337231,-0.2232,-0.335129,-1.66485,-0.0903893,-0.102573,-0.382798,-0.0204308,-9.10282e-05,-0.0184466,0.0228819,0.709046,-0.571961,0.00361541,0,0,0,0,0,0,0,0.00356501,-0.223329,-0.33482,-1.66529,-0.0966348,1.4761,0.402544,-0.0118407,0.00655119,-0.00283449,0.0194291,0.178595,-0.0333779,0.000212223,0.539127,-24.4612,2.28609,26.0306,1.47277,2.70806,-0.0301054,0.419405,-0.8766,0.117109,0.883456,0.487322,-0.251502,-0.0379815,0.329311,-0.55263,-0.27876,0.0919295,-0.26325,-0.0235452,
0.00330442,-0.223213,-0.335192,-1.66478,-0.0873045,-0.105059,-0.382783,-0.0169735,-0.00307194,-0.0157551,0.0169302,0.771189,-0.621501,0.00369042,0,0,0,0,0,0,0,0.00356501,-0.223329,-0.33482,-1.66529,-0.0966348,1.4761,0.402544,-0.0118407,0.00655119,-0.00283449,0.0194291,0.178595,-0.0333779,0.000212223,0.539127,-24.4612,2.28609,26.0306,1.47277,2.70806,-0.0301054,0.419405,-0.8766,0.117109,0.883456,0.487322,-0.251502,-0.0379815,0.329311,-0.55263,-0.27876,0.0919295,-0.26325,-0.0235452,
0.00325125,-0.223233,-0.335242,-1.66473,-0.0840187,-0.107701,-0.382769,-0.0132925,-0.00510476,-0.0125088,0.0118551,0.821455,-0.660607,0.00370888,0,0,0,0,0,0,0,0.00356501,-0.223329,-0.33482,-1.66529,-0.0966348,1.4761,0.402544,-0.0118407,0.00655119,-0.00283449,0.0194291,0.178595,-0.0333779,0.000212223,0.539127,-24.4612,2.28609,26.0306,1.47277,2.70806,-0.0301054,0.636045,-1.15683,0.403295,1.14682,0.560508,-0.330731,-0.109122,0.329286,-0.674073,-0.236258,0.169332,-0.296942,-0.0251217,
0.00321289,-0.223258,-0.335278,-1.6647,-0.080569,-0.110466,-0.382754,-0.00958926,-0.00635693,-0.00901513,0.00756777,0.862438,-0.691184,0.00369069,0,0,0,0,0,0,0,0.00356501,-0.223329,-0.33482,-1.66529,-0.0966348,1.4761,0.402544,-0.0118407,0.00655119,-0.00283449,0.0194291,0.178595,-0.0333779,0.000212223,0.539127,-24.4612,2.28609,26.0306,1.47277,2.70806,-0.0301054,0.636045,-1.15683,0.403295,1.14682,0.560508,-0.330731,-0.109122,0.329286,-0.674073,-0.236258,0.169332,-0.296942,-0.0251217,
0.00443873,-0.223496,-0.334052,-1.66541,-0.097406,-0.0999227,-0.382707,0.0732063,-0.0179394,0.0876263,0.00225231,0.361674,-0.635704,0.0121985,0,0,0,0,0,0,0,0.00356501,-0.223329,-0.33482,-1.66529,-0.0966348,1.4761,0.402544,-0.0118407,0.00655119,-0.00283449,0.0194291,0.178595,-0.0333779,0.000212223,0.539127,-24.4612,2.28609,26.0306,1.47277,2.70806,-0.0301054,1.45066,-1.26406,1.22077,1.27635,0.908874,-0.225508,-0.00420953,0.406213,-0.592131,-0.0951812,0.332409,-0.352315,-0.0261775,
0.00418532,-0.223483,-0.334097,-1.66516,-0.0924425,-0.100353,-0.3827,0.0754802,-0.0206206,0.0884448,0.00129169,0.431931,-0.645159,0.0126388,0,0,0,0,0,0,0,0.00356501,-0.223329,-0.33482,-1.66529,-0.0966348,1.4761,0.402544,-0.0118407,0.00655119,-0.00283449,0.0194291,0.178595,-0.0333779,0.000212223,0.539127,-24.4612,2.28609,26.0306,1.47277,2.70806,-0.0301054,1.40375,-1.08924,1.34441,1.32794,0.897516,-0.151939,0.0805094,0.409562,-0.553747,-0.173968,0.504954,-0.485721,-0.0265746,
0.00456313,-0.223582,-0.333655,-1.6652,-0.0904135,-0.103457,-0.382651,0.0944526,-0.0248924,0.110454,-0.0086008,0.507245,-0.775948,0.0121752,0,0,0,0,0,0,0,0.0028925,-0.223334,-0.33498,-1.66486,-0.0869795,1.4734,0.402542,-0.022552,0.0013414,-0.00791232,0.0188895,0.394828,-0.120669,-2.59323e-05,1.17389,-24.3898,2.81373,25.6061,2.34069,1.98571,-0.0163725,1.40375,-1.08924,1.34441,1.32794,0.897516,-0.151939,0.0805094,0.409562,-0.553747,-0.173968,0.504954,-0.485721,-0.0265746,
0.00500585,-0.22369,-0.333139,-1.66527,-0.0881088,-0.106988,-0.382604,0.110679,-0.02696,0.12898,-0.01778,0.576171,-0.882925,0.0117613,0,0,0,0,0,0,0,0.0028925,-0.223334,-0.33498,-1.66486,-0.0869795,1.4734,0.402542,-0.022552,0.0013414,-0.00791232,0.0188895,0.394828,-0.120669,-2.59323e-05,1.17389,-24.3898,2.81373,25.6061,2.34069,1.98571,-0.0163725,1.51182,-0.848504,0.832669,1.43777,1.29323,-0.0243743,0.224463,0.767778,-0.484985,-0.567685,0.668972,-0.679257,-0.0225321,
0.0055044,-0.2238,-0.33256,-1.66537,-0.0855546,-0.110871,-0.382559,0.124639,-0.0273233,0.144708,-0.0260729,0.638548,-0.970615,0.0113909,0,0,0,0,0,0,0,0.0028925,-0.223334,-0.33498,-1.66486,-0.0869795,1.4734,0.402542,-0.022552,0.0013414,-0.00791232,0.0188895,0.394828,-0.120669,-2.59323e-05,1.17389,-24.3898,2.81373,25.6061,2.34069,1.98571,-0.0163725,1.51182,-0.848504,0.832669,1.43777,1.29323,-0.0243743,0.224463,0.767778,-0.484985,-0.567685,0.668972,-0.679257,-0.0225321,
0.00605123,-0.223905,-0.331928,-1.66551,-0.0827765,-0.115041,-0.382515,0.136707,-0.0264243,0.158158,-0.0334676,0.694527,-1.04258,0.0110545,0,0,0,0,0,0,0,0.0028925,-0.223334,-0.33498,-1.66486,-0.0869795,1.4734,0.402542,-0.022552,0.0013414,-0.00791232,0.0188895,0.394828,-0.120669,-2.59323e-05,1.17389,-24.3898,2.81373,25.6061,2.34069,1.98571,-0.0163725,0.692224,-0.65107,1.53729,1.2152,0.464464,-0.0954898,0.158964,0.211775,-0.524156,-0.271245,0.683668,-0.754007,-0.0138767,
0.00663995,-0.224004,-0.331249,-1.66567,-0.0797987,-0.119448,-0.382472,0.147179,-0.0246241,0.169729,-0.040009,0.744447,-1.10165,0.0107443,0,0,0,0,0,0,0,0.0028925,-0.223334,-0.33498,-1.66486,-0.0869795,1.4734,0.402542,-0.022552,0.0013414,-0.00791232,0.0188895,0.394828,-0.120669,-2.59323e-05,1.17389,-24.3898,2.81373,25.6061,2.34069,1.98571,-0.0163725,0.692224,-0.65107,1.53729,1.2152,0.464464,-0.0954898,0.158964,0.211775,-0.524156,-0.271245,0.683668,-0.754007,-0.0138767,
0.00493942,-0.223836,-0.333331,-1.66573,-0.093824,-0.10011,-0.382672,0.158324,-0.0533896,0.177371,-0.0526141,0.289104,-0.627847,0.0147565,0,0,0,0,0,0,0,0.00288359,-0.223668,-0.334726,-1.6645,-0.077896,1.4686,0.402546,0.00225772,-0.0135899,0.0245872,0.00434017,0.275484,-0.198661,0.000704763,2.03479,-23.7154,4.66249,25.3601,1.77215,1.59386,-0.00996382,1.40136,-0.854004,1.78916,1.22742,1.00123,-0.0687919,0.132669,0.516674,-0.442559,-0.302987,0.569043,-0.782664,-0.00976036,
0.00441285,-0.224298,-0.333061,-1.66505,-0.0741423,-0.108922,-0.382654,0.168912,-0.0601162,0.188913,-0.0604981,0.35848,-0.714137,0.0155875,0,0,0,0,0,0,0,0.00288359,-0.223668,-0.334726,-1.6645,-0.077896,1.4686,0.402546,0.00225772,-0.0135899,0.0245872,0.00434017,0.275484,-0.198661,0.000704763,2.03479,-23.7154,4.66249,25.3601,1.77215,1.59386,-0.00996382,1.98342,-0.425584,2.27097,0.824631,1.34709,0.212805,0.353903,0.674045,-0.060886,-0.255312,0.573926,-0.840104,-0.00628379,
0.0052125,-0.224542,-0.332156,-1.66533,-0.0724684,-0.112249,-0.382595,0.199913,-0.0610008,0.226079,-0.0704063,0.418473,-0.831896,0.0146955,0,0,0,0,0,0,0,0.00288359,-0.223668,-0.334726,-1.6645,-0.077896,1.4686,0.402546,0.00225772,-0.0135899,0.0245872,0.00434017,0.275484,-0.198661,0.000704763,2.03479,-23.7154,4.66249,25.3601,1.77215,1.59386,-0.00996382,1.98342,-0.425584,2.27097,0.824631,1.34709,0.212805,0.353903,0.674045,-0.060886,-0.255312,0.573926,-0.840104,-0.00628379,
0.00611487,-0.224779,-0.331131,-1.66565,-0.0705431,-0.115961,-0.382539,0.225591,-0.0593325,0.256354,-0.0790783,0.481327,-0.927888,0.0139708,0,0,0,0,0,0,0,0.00288359,-0.223668,-0.334726,-1.6645,-0.077896,1.4686,0.402546,0.00225772,-0.0135899,0.0245872,0.00434017,0.275484,-0.198661,0.000704763,2.03479,-23.7154,4.66249,25.3601,1.77215,1.59386,-0.00996382,1.20393,0.787842,2.60633,-0.0215857,0.685556,0.595741,0.717132,0.274467,0.4272,-0.133198,0.712525,-0.956744,-0.000572693,
0.00710324,-0.225003,-0.330006,-1.666,-0.0683687,-0.119985,-0.382486,0.247093,-0.056056,0.281315,-0.0868564,0.543597,-1.00602,0.0133636,0,0,0,0,0,0,0,0.00288359,-0.223668,-0.334726,-1.6645,-0.077896,1.4686,0.402546,0.00225772,-0.0135899,0.0245872,0.00434017,0.275484,-0.198661,0.000704763,2.03479,-23.7154,4.66249,25.3601,1.77215,1.59386,-0.00996382,1.20393,0.787842,2.60633,-0.0215857,0.685556,0.595741,0.717132,0.274467,0.4272,-0.133198,0.712525,-0.956744,-0.000572693,
0.00816424,-0.22521,-0.328797,-1.66637,-0.0659558,-0.124263,-0.382434,0.265249,-0.0517755,0.302107,-0.093844,0.60322,-1.0696,0.0128432,0,0,0,0,0,0,0,0.00288359,-0.223668,-0.334726,-1.6645,-0.077896,1.4686,0.402546,0.00225772,-0.0135899,0.0245872,0.00434017,0.275484,-0.198661,0.000704763,2.03479,-23.7154,4.66249,25.3601,1.77215,1.59386,-0.00996382,0.79844,0.868661,1.87331,0.0599533,0.727744,0.55134,0.672497,0.451447,0.359856,-0.454852,0.70953,-1.06119,0.00556523,
0.00928693,-0.225398,-0.327519,-1.66677,-0.0633197,-0.128749,-0.382385,0.280673,-0.0468974,0.319573,-0.100068,0.659039,-1.12136,0.0123902,0,0,0,0,0,0,0,0.0033242,-0.224391,-0.333579,-1.66464,-0.0700896,1.46071,0.402552,0.0285332,-0.0327777,0.0634245,-0.0187141,0.179817,-0.238437,0.000788079,2.36408,-24.3382,5.03541,26.0544,0.990292,2.05804,-0.0163725,0.79844,0.868661,1.87331,0.0599533,0.727744,0.55134,0.672497,0.451447,0.359856,-0.454852,0.70953,-1.06119,0.00556523,
0.00510949,-0.224576,-0.332354,-1.66556,-0.0754041,-0.108676,-0.38266,0.245414,-0.0848923,0.270998,-0.108535,0.228153,-0.695438,0.0152694,0,0,0,0,0,0,0,0.0033242,-0.224391,-0.333579,-1.66464,-0.0700896,1.46071,0.402552,0.0285332,-0.0327777,0.0634245,-0.0187141,0.179817,-0.238437,0.000788079,2.36408,-24.3382,5.03541,26.0544,0.990292,2.05804,-0.0163725,0.311482,-1.00837,1.77427,1.23903,0.461411,-0.364893,-0.231653,0.344466,-0.666904,-0.421116,0.369214,-1.03532,0.0108803,
0.00571039,-0.225346,-0.330995,-1.66576,-0.0680107,-0.116957,-0.382632,0.254079,-0.0856101,0.281982,-0.111442,0.212547,-0.720504,0.0166063,0,0,0,0,0,0,0,0.0033242,-0.224391,-0.333579,-1.66464,-0.0700896,1.46071,0.402552,0.0285332,-0.0327777,0.0634245,-0.0187141,0.179817,-0.238437,0.000788079,2.36408,-24.3382,5.03541,26.0544,0.990292,2.05804,-0.0163725,-0.443102,-1.90021,1.98146,1.68185,-0.12415,-0.89253,-0.758231,0.00914661,-1.21457,-0.257452,0.119472,-1.03707,0.0125282,
0.00689006,-0.225678,-0.32967,-1.66625,-0.0669042,-0.1203,-0.38257,0.294917,-0.0831872,0.3311,-0.121952,0.276619,-0.835679,0.015502,0,0,0,0,0,0,0,0.0033242,-0.224391,-0.333579,-1.66464,-0.0700896,1.46071,0.402552,0.0285332,-0.0327777,0.0634245,-0.0187141,0.179817,-0.238437,0.000788079,2.36408,-24.3382,5.03541,26.0544,0.990292,2.05804,-0.0163725,-0.443102,-1.90021,1.98146,1.68185,-0.12415,-0.89253,-0.758231,0.00914661,-1.21457,-0.257452,0.119472,-1.03707,0.0125282,
0.00820426,-0.225991,-0.328187,-1.66677,-0.065514,-0.124017,-0.382512,0.328549,-0.0781013,0.370908,-0.130903,0.34756,-0.92936,0.0146229,0,0,0,0,0,0,0,0.0033242,-0.224391,-0.333579,-1.66464,-0.0700896,1.46071,0.402552,0.0285332,-0.0327777,0.0634245,-0.0187141,0.179817,-0.238437,0.000788079,2.36408,-24.3382,5.03541,26.0544,0.990292,2.05804,-0.0163725,0.0580652,0.00118533,1.61262,0.427859,0.392354,0.0305358,0.134584,0.362992,-0.152011,-0.492694,0.321888,-1.08829,0.0114646,
0.00963049,-0.226277,-0.326572,-1.66733,-0.0638334,-0.128038,-0.382456,0.356558,-0.0715474,0.403563,-0.138903,0.420147,-1.00523,0.0139293,0,0,0,0,0,0,0,0.00489582,-0.225752,-0.330605,-1.66521,-0.0620523,1.45031,0.402557,0.0619671,-0.0565996,0.0900465,-0.0288456,0.195378,-0.32635,0.000264007,2.0586,-23.763,5.03541,25.257,0.953671,2.59545,-0.0163725,0.0580652,0.00118533,1.61262,0.427859,0.392354,0.0305358,0.134584,0.362992,-0.152011,-0.492694,0.321888,-1.08829,0.0114646,
0.0111508,-0.226534,-0.32485,-1.66791,-0.0618688,-0.132305,-0.382403,0.380085,-0.0641542,0.430611,-0.145969,0.491154,-1.0667,0.0133185,0,0,0,0,0,0,0,0.00489582,-0.225752,-0.330605,-1.66521,-0.0620523,1.45031,0.402557,0.0619671,-0.0565996,0.0900465,-0.0288456,0.195378,-0.32635,0.000264007,2.0586,-23.763,5.03541,25.257,0.953671,2.59545,-0.0163725,-0.160864,1.61153,1.3048,-0.673012,0.294561,0.689683,0.75916,0.343551,0.645015,-0.566728,0.46638,-1.09247,0.0137517,
0.0173188,-0.22759,-0.317996,-1.67082,-0.0607168,-0.140456,-0.382339,0.524627,-0.0597387,0.592766,-0.21608,0.54063,-1.07709,0.0119481,0,0,0,0,0,0,0,0.00489582,-0.225752,-0.330605,-1.66521,-0.0620523,1.45031,0.402557,0.0619671,-0.0565996,0.0900465,-0.0288456,0.195378,-0.32635,0.000264007,2.0586,-23.763,5.03541,25.257,0.953671,2.59545,-0.0163725,-0.160864,1.61153,1.3048,-0.673012,0.294561,0.689683,0.75916,0.343551,0.645015,-0.566728,0.46638,-1.09247,0.0137517,
0.00632533,-0.225604,-0.330378,-1.66623,-0.0691099,-0.116717,-0.382652,0.321424,-0.108742,0.353586,-0.155996,0.0992522,-0.701933,0.015311,0,0,0,0,0,0,0,0.00489582,-0.225752,-0.330605,-1.66521,-0.0620523,1.45031,0.402557,0.0619671,-0.0565996,0.0900465,-0.0288456,0.195378,-0.32635,0.000264007,2.0586,-23.763,5.03541,25.257,0.953671,2.59545,-0.0163725,-1.07312,-0.175738,0.806717,0.459079,-0.222815,-0.255768,-0.171464,0.125531,-0.408698,-0.558427,0.110269,-1.00093,0.0167094,
0.00807416,-0.227096,-0.327199,-1.66683,-0.0606122,-0.127813,-0.382615,0.332141,-0.116056,0.365558,-0.156948,0.141448,-0.746295,0.0172696,0,0,0,0,0,0,0,0.00489582,-0.225752,-0.330605,-1.66521,-0.0620523,1.45031,0.402557,0.0619671,-0.0565996,0.0900465,-0.0288456,0.195378,-0.32635,0.000264007,2.0586,-23.763,5.03541,25.257,0.953671,2.59545,-0.0163725,-1.43206,-1.26814,0.771131,1.0914,-0.515662,-0.792313,-0.688988,-0.0515856,-1.00749,-0.439514,-0.114272,-0.904637,0.0173358,
0.00959967,-0.227535,-0.325498,-1.66751,-0.0598117,-0.131231,-0.382551,0.381378,-0.109841,0.425095,-0.168231,0.20014,-0.854368,0.015971,0,0,0,0,0,0,0,0.00489582,-0.225752,-0.330605,-1.66521,-0.0620523,1.45031,0.402557,0.0619671,-0.0565996,0.0900465,-0.0288456,0.195378,-0.32635,0.000264007,2.0586,-23.763,5.03541,25.257,0.953671,2.59545,-0.0163725,-1.43206,-1.26814,0.771131,1.0914,-0.515662,-0.792313,-0.688988,-0.0515856,-1.00749,-0.439514,-0.114272,-0.904637,0.0173358,
0.011286,-0.22794,-0.323606,-1.66822,-0.0587275,-0.134976,-0.382491,0.421579,-0.101185,0.473034,-0.178466,0.271038,-0.936324,0.0150033,0,0,0,0,0,0,0,0.00799343,-0.227696,-0.32607,-1.66663,-0.0568034,1.43906,0.40256,0.131892,-0.072328,0.172874,-0.0506174,0.209007,-0.420716,-0.000259899,5.71247,-23.0171,8.76069,23.8644,1.94976,1.9262,-0.0026396,-0.954287,-1.09037,0.203955,1.11191,-0.0103523,-0.630261,-0.512345,0.291529,-0.880839,-0.66522,-0.0171925,-0.860245,0.0197387,
0.013105,-0.228306,-0.321558,-1.66898,-0.0573393,-0.138926,-0.382434,0.454746,-0.0916,0.51203,-0.189326,0.347054,-0.987377,0.0141372,0,0,0,0,0,0,0,0.00799343,-0.227696,-0.32607,-1.66663,-0.0568034,1.43906,0.40256,0.131892,-0.072328,0.172874,-0.0506174,0.209007,-0.420716,-0.000259899,5.71247,-23.0171,8.76069,23.8644,1.94976,1.9262,-0.0026396,-0.954287,-1.09037,0.203955,1.11191,-0.0103523,-0.630261,-0.512345,0.291529,-0.880839,-0.66522,-0.0171925,-0.860245,0.0197387,
0.015034,-0.228634,-0.319382,-1.66978,-0.0556447,-0.142937,-0.38238,0.482264,-0.0819121,0.544032,-0.201664,0.423643,-1.0028,0.0134989,0,0,0,0,0,0,0,0.00799343,-0.227696,-0.32607,-1.66663,-0.0568034,1.43906,0.40256,0.131892,-0.072328,0.172874,-0.0506174,0.209007,-0.420716,-0.000259899,5.71247,-23.0171,8.76069,23.8644,1.94976,1.9262,-0.0026396,-0.391648,2.22703,0.0203148,-1.10579,0.442015,0.914055,0.977462,0.57168,0.919209,-0.839521,0.390673,-0.922537,0.0176189,
0.0170556,-0.228919,-0.317101,-1.67063,-0.0536543,-0.146936,-0.382328,0.505396,-0.0712031,0.570325,-0.211485,0.497616,-0.999853,0.0129387,0,0,0,0,0,0,0,0.00799343,-0.227696,-0.32607,-1.66663,-0.0568034,1.43906,0.40256,0.131892,-0.072328,0.172874,-0.0506174,0.209007,-0.420716,-0.000259899,5.71247,-23.0171,8.76069,23.8644,1.94976,1.9262,-0.0026396,-0.391648,2.22703,0.0203148,-1.10579,0.442015,0.914055,0.977462,0.57168,0.919209,-0.839521,0.390673,-0.922537,0.0176189,
0.00892362,-0.227292,-0.327218,-1.66723,-0.0613311,-0.127574,-0.382655,0.410403,-0.133023,0.378715,-0.196414,0.0693665,-0.725809,0.0145525,0,0,0,0,0,0,0,0.00799343,-0.227696,-0.32607,-1.66663,-0.0568034,1.43906,0.40256,0.131892,-0.072328,0.172874,-0.0506174,0.209007,-0.420716,-0.000259899,5.71247,-23.0171,8.76069,23.8644,1.94976,1.9262,-0.0026396,-1.65583,-0.112683,0.449214,0.384247,-0.732346,-0.337179,-0.30271,-0.188014,-0.435014,-0.416368,0.107731,-0.803769,0.02337,
0.0124847,-0.229233,-0.321976,-1.66873,-0.0553346,-0.139607,-0.382625,0.441025,-0.129311,0.426359,-0.200933,0.142681,-0.774563,0.0160853,0,0,0,0,0,0,0,0.0132034,-0.230483,-0.319716,-1.66901,-0.0546269,1.42589,0.402564,0.181129,-0.0933345,0.233938,-0.082071,0.0644671,-0.432807,0.000702447,6.29566,-22.791,8.68532,23.9398,1.39404,2.44988,-0.0301054,-2.28406,-1.47469,-0.3806,1.31692,-0.953504,-1.02013,-0.904261,-0.213973,-1.27623,-0.552674,-0.154833,-0.704142,0.0223961,
0.0144405,-0.229717,-0.320015,-1.6696,-0.054533,-0.142986,-0.382566,0.488948,-0.12106,0.490091,-0.217563,0.200406,-0.844993,0.0148796,0,0,0,0,0,0,0,0.0132034,-0.230483,-0.319716,-1.66901,-0.0546269,1.42589,0.402564,0.181129,-0.0933345,0.233938,-0.082071,0.0644671,-0.432807,0.000702447,6.29566,-22.791,8.68532,23.9398,1.39404,2.44988,-0.0301054,-2.28406,-1.47469,-0.3806,1.31692,-0.953504,-1.02013,-0.904261,-0.213973,-1.27623,-0.552674,-0.154833,-0.704142,0.0223961,
0.0165523,-0.230159,-0.317847,-1.67054,-0.0534514,-0.14648,-0.38251,0.527936,-0.110426,0.542062,-0.23325,0.2704,-0.873296,0.0140393,0,0,0,0,0,0,0,0.0132034,-0.230483,-0.319716,-1.66901,-0.0546269,1.42589,0.402564,0.181129,-0.0933345,0.233938,-0.082071,0.0644671,-0.432807,0.000702447,6.29566,-22.791,8.68532,23.9398,1.39404,2.44988,-0.0301054,-0.946117,0.19464,-0.916878,0.324533,0.240837,-0.0673532,0.0173979,0.542592,-0.22692,-0.941079,0.123208,-0.731634,0.0192324,
0.0187927,-0.230549,-0.315507,-1.67152,-0.052071,-0.149997,-0.382456,0.560123,-0.0975792,0.584912,-0.245026,0.345104,-0.879365,0.0133556,0,0,0,0,0,0,0,0.0132034,-0.230483,-0.319716,-1.66901,-0.0546269,1.42589,0.402564,0.181129,-0.0933345,0.233938,-0.082071,0.0644671,-0.432807,0.000702447,6.29566,-22.791,8.68532,23.9398,1.39404,2.44988,-0.0301054,-0.946117,0.19464,-0.916878,0.324533,0.240837,-0.0673532,0.0173979,0.542592,-0.22692,-0.941079,0.123208,-0.731634,0.0192324,
0.0211402,-0.230884,-0.313024,-1.67253,-0.050392,-0.153488,-0.382405,0.58686,-0.083655,0.62083,-0.253293,0.41976,-0.872644,0.0127839,0,0,0,0,0,0,0,0.0132034,-0.230483,-0.319716,-1.66901,-0.0546269,1.42589,0.402564,0.181129,-0.0933345,0.233938,-0.082071,0.0644671,-0.432807,0.000702447,6.29566,-22.791,8.68532,23.9398,1.39404,2.44988,-0.0301054,0.295012,2.3589,-0.386352,-1.15198,0.978251,1.07213,1.07889,0.88681,1.11805,-0.933677,0.46644,-0.772043,0.016156,
0.0235769,-0.231162,-0.310419,-1.67356,-0.0484258,-0.15692,-0.382356,0.609177,-0.0695978,0.651361,-0.258937,0.491533,-0.858196,0.0122959,0,0,0,0,0,0,0,0.0132034,-0.230483,-0.319716,-1.66901,-0.0546269,1.42589,0.402564,0.181129,-0.0933345,0.233938,-0.082071,0.0644671,-0.432807,0.000702447,6.29566,-22.791,8.68532,23.9398,1.39404,2.44988,-0.0301054,0.295012,2.3589,-0.386352,-1.15198,0.978251,1.07213,1.07889,0.88681,1.11805,-0.933677,0.46644,-0.772043,0.016156,
0.0129603,-0.229355,-0.322178,-1.66908,-0.0555536,-0.139376,-0.382679,0.487203,-0.139396,0.409992,-0.235267,0.120943,-0.756451,0.012404,0,0,0,0,0,0,0,0.0206032,-0.234003,-0.311768,-1.67213,-0.0528648,1.41166,0.402573,0.235713,-0.114804,0.245157,-0.110197,0.0125697,-0.382579,0.00140033,3.96289,-24.1121,6.18593,24.761,1.43066,2.44988,-0.0365141,-1.61245,0.398485,-0.515491,0.20167,-0.453437,-0.0829119,0.00501354,0.0692717,-0.230734,-0.7019,0.229326,-0.731073,0.0192183,
0.0261263,-0.235712,-0.307208,-1.67472,-0.052393,-0.166303,-0.382643,0.522701,-0.138334,0.453213,-0.246125,0.0956058,-0.668218,0.01391,0,0,0,0,0,0,0,0.0206032,-0.234003,-0.311768,-1.67213,-0.0528648,1.41166,0.402573,0.235713,-0.114804,0.245157,-0.110197,0.0125697,-0.382579,0.00140033,3.96289,-24.1121,6.18593,24.761,1.43066,2.44988,-0.0365141,-3.41888,-0.703501,-1.34258,1.03627,-1.55206,-0.830381,-0.661812,-0.446809,-1.12983,-0.759565,0.0623011,-0.71493,0.0191315,
0.0284044,-0.236214,-0.305173,-1.67578,-0.0517019,-0.16909,-0.382591,0.569537,-0.125634,0.508925,-0.263535,0.17279,-0.696786,0.0131108,0,0,0,0,0,0,0,0.0206032,-0.234003,-0.311768,-1.67213,-0.0528648,1.41166,0.402573,0.235713,-0.114804,0.245157,-0.110197,0.0125697,-0.382579,0.00140033,3.96289,-24.1121,6.18593,24.761,1.43066,2.44988,-0.0365141,-3.41888,-0.703501,-1.34258,1.03627,-1.55206,-0.830381,-0.661812,-0.446809,-1.12983,-0.759565,0.0623011,-0.71493,0.0191315,
0.0308399,-0.236656,-0.302953,-1.67688,-0.0506845,-0.171923,-0.382541,0.608865,-0.110424,0.554976,-0.275194,0.254337,-0.708131,0.0124846,0,0,0,0,0,0,0,0.0206032,-0.234003,-0.311768,-1.67213,-0.0528648,1.41166,0.402573,0.235713,-0.114804,0.245157,-0.110197,0.0125697,-0.382579,0.00140033,3.96289,-24.1121,6.18593,24.761,1.43066,2.44988,-0.0365141,-2.61758,1.08542,-1.28592,-0.165467,-0.980348,0.079471,0.18982,-0.122537,-0.0580093,-0.856912,0.314483,-0.736866,0.0142298,
0.033409,-0.237034,-0.300578,-1.67801,-0.0493429,-0.174755,-0.382493,0.642286,-0.0944524,0.593615,-0.283096,0.335413,-0.708158,0.0119724,0,0,0,0,0,0,0,0.0206032,-0.234003,-0.311768,-1.67213,-0.0528648,1.41166,0.402573,0.235713,-0.114804,0.245157,-0.110197,0.0125697,-0.382579,0.00140033,3.96289,-24.1121,6.18593,24.761,1.43066,2.44988,-0.0365141,-2.61758,1.08542,-1.28592,-0.165467,-0.980348,0.079471,0.18982,-0.122537,-0.0580093,-0.856912,0.314483,-0.736866,0.0142298,
0.0360928,-0.237349,-0.298073,-1.67916,-0.0476902,-0.177558,-0.382447,0.670956,-0.0787161,0.626436,-0.288471,0.413172,-0.70058,0.0115429,0,0,0,0,0,0,0,0.0333663,-0.238843,-0.299445,-1.67751,-0.0515141,1.39572,0.402575,0.327404,-0.131244,0.284758,-0.160866,0.0110233,-0.325457,0.000239133,3.17737,-22.9894,5.3885,24.0152,1.21643,2.28417,-0.00996382,-0.0178167,3.01096,-0.436732,-1.53958,0.700421,1.30502,1.28883,0.724901,1.40246,-0.886503,0.625994,-0.74436,0.00794543,
0.0240355,-0.235158,-0.309021,-1.67374,-0.0527755,-0.16363,-0.382699,0.465931,-0.145636,0.384743,-0.219937,0.0307222,-0.612484,0.0150147,0,0,0,0,0,0,0,0.0333663,-0.238843,-0.299445,-1.67751,-0.0515141,1.39572,0.402575,0.327404,-0.131244,0.284758,-0.160866,0.0110233,-0.325457,0.000239133,3.17737,-22.9894,5.3885,24.0152,1.21643,2.28417,-0.00996382,-0.0178167,3.01096,-0.436732,-1.53958,0.700421,1.30502,1.28883,0.724901,1.40246,-0.886503,0.625994,-0.74436,0.00794543,
0.0393561,-0.240469,-0.294364,-1.68031,-0.0505199,-0.180822,-0.382634,0.554442,-0.125942,0.488975,-0.253091,0.147493,-0.533311,0.0146952,0,0,0,0,0,0,0,0.0333663,-0.238843,-0.299445,-1.67751,-0.0515141,1.39572,0.402575,0.327404,-0.131244,0.284758,-0.160866,0.0110233,-0.325457,0.000239133,3.17737,-22.9894,5.3885,24.0152,1.21643,2.28417,-0.00996382,-0.841062,0.82633,-0.657466,-0.00837398,0.164171,0.229412,0.277772,0.430694,0.116148,-0.838277,0.382117,-0.713535,0.0129553,
0.0417432,-0.240915,-0.292207,-1.68137,-0.0496175,-0.18308,-0.382579,0.596775,-0.111397,0.539248,-0.263555,0.225601,-0.564321,0.0137854,0,0,0,0,0,0,0,0.0333663,-0.238843,-0.299445,-1.67751,-0.0515141,1.39572,0.402575,0.327404,-0.131244,0.284758,-0.160866,0.0110233,-0.325457,0.000239133,3.17737,-22.9894,5.3885,24.0152,1.21643,2.28417,-0.00996382,-3.83854,-0.897106,-1.77041,1.28318,-1.72227,-0.934596,-0.759855,-0.496579,-1.28026,-0.874579,0.133515,-0.728025,0.0158464,
0.0442732,-0.241299,-0.289882,-1.68245,-0.0483956,-0.18541,-0.382527,0.632493,-0.0960788,0.581145,-0.270891,0.305476,-0.582502,0.0130583,0,0,0,0,0,0,0,0.0333663,-0.238843,-0.299445,-1.67751,-0.0515141,1.39572,0.402575,0.327404,-0.131244,0.284758,-0.160866,0.0110233,-0.325457,0.000239133,3.17737,-22.9894,5.3885,24.0152,1.21643,2.28417,-0.00996382,-3.83854,-0.897106,-1.77041,1.28318,-1.72227,-0.934596,-0.759855,-0.496579,-1.28026,-0.874579,0.133515,-0.728025,0.0158464,
0.046925,-0.241623,-0.287416,-1.68356,-0.0468615,-0.187773,-0.382477,0.662941,-0.0809556,0.616481,-0.276216,0.38353,-0.59093,0.0124613,0,0,0,0,0,0,0,0.0452794,-0.24265,-0.28899,-1.68279,-0.0510095,1.38634,0.40258,0.381154,-0.119455,0.322793,-0.174626,0.0217385,-0.248244,0.000253731,0.94379,-23.1163,3.38899,24.8364,1.1615,2.46911,-0.0026396,-3.25184,0.734821,-1.29799,0.162419,-1.47007,-0.13538,-0.0300441,-0.412602,-0.310529,-0.78854,0.393701,-0.742955,0.0125178,
0.0496814,-0.241889,-0.28483,-1.68468,-0.0450309,-0.190141,-0.382429,0.689105,-0.0665192,0.646582,-0.280101,0.457649,-0.591949,0.0119611,0,0,0,0,0,0,0,0.0452794,-0.24265,-0.28899,-1.68279,-0.0510095,1.38634,0.40258,0.381154,-0.119455,0.322793,-0.174626,0.0217385,-0.248244,0.000253731,0.94379,-23.1163,3.38899,24.8364,1.1615,2.46911,-0.0026396,-3.25184,0.734821,-1.29799,0.162419,-1.47007,-0.13538,-0.0300441,-0.412602,-0.310529,-0.78854,0.393701,-0.742955,0.0125178,
0.0525283,-0.242101,-0.28214,-1.68581,-0.0429242,-0.19249,-0.382383,0.711731,-0.0530104,0.672439,-0.282874,0.526677,-0.587317,0.0115346,0,0,0,0,0,0,0,0.0452794,-0.24265,-0.28899,-1.68279,-0.0510095,1.38634,0.40258,0.381154,-0.119455,0.322793,-0.174626,0.0217385,-0.248244,0.000253731,0.94379,-23.1163,3.38899,24.8364,1.1615,2.46911,-0.0026396,-1.36104,0.592144,-0.883467,0.238766,-0.153078,0.0592941,0.118795,0.274364,-0.0993786,-0.864194,0.431353,-0.722085,0.0128387,
0.0371383,-0.239965,-0.296319,-1.6793,-0.0511099,-0.178689,-0.382693,0.503513,-0.137769,0.42786,-0.237115,0.0770263,-0.48567,0.0158488,0,0,0,0,0,0,0,0.0452794,-0.24265,-0.28899,-1.68279,-0.0510095,1.38634,0.40258,0.381154,-0.119455,0.322793,-0.174626,0.0217385,-0.248244,0.000253731,0.94379,-23.1163,3.38899,24.8364,1.1615,2.46911,-0.0026396,-1.36104,0.592144,-0.883467,0.238766,-0.153078,0.0592941,0.118795,0.274364,-0.0993786,-0.864194,0.431353,-0.722085,0.0128387,
0.051616,-0.244085,-0.283515,-1.68563,-0.0496031,-0.189005,-0.382624,0.578527,-0.109485,0.516222,-0.251685,0.186392,-0.43317,0.0152055,0,0,0,0,0,0,0,0.0452794,-0.24265,-0.28899,-1.68279,-0.0510095,1.38634,0.40258,0.381154,-0.119455,0.322793,-0.174626,0.0217385,-0.248244,0.000253731,0.94379,-23.1163,3.38899,24.8364,1.1615,2.46911,-0.0026396,-1.88821,0.232851,-1.72475,0.50495,-0.2575,-0.140154,0.0202847,0.32853,-0.412217,-1.08554,0.310533,-0.699863,0.0108793,
0.054086,-0.244468,-0.281265,-1.68667,-0.0485438,-0.19088,-0.382567,0.6175,-0.0958147,0.562547,-0.259522,0.264817,-0.468625,0.0142365,0,0,0,0,0,0,0,0.0452794,-0.24265,-0.28899,-1.68279,-0.0510095,1.38634,0.40258,0.381154,-0.119455,0.322793,-0.174626,0.0217385,-0.248244,0.000253731,0.94379,-23.1163,3.38899,24.8364,1.1615,2.46911,-0.0026396,-1.78953,-0.90382,-2.16046,1.34538,0.0127897,-0.62691,-0.490406,0.537621,-0.981682,-1.26711,0.211895,-0.707095,0.00964535,
0.0566879,-0.244795,-0.27886,-1.68773,-0.0471701,-0.192849,-0.382513,0.650465,-0.08183,0.601303,-0.265199,0.343431,-0.492223,0.0134557,0,0,0,0,0,0,0,0.0585736,-0.246551,-0.276825,-1.68863,-0.049076,1.3787,0.402588,0.399323,-0.109093,0.371486,-0.164243,0.088532,-0.217436,-0.000500582,1.65393,-22.4657,4.56331,25.3323,1.26495,2.4096,-0.00996382,-1.78953,-0.90382,-2.16046,1.34538,0.0127897,-0.62691,-0.490406,0.537621,-0.981682,-1.26711,0.211895,-0.707095,0.00964535,
0.0594023,-0.245068,-0.276323,-1.68881,-0.0454927,-0.194873,-0.382462,0.678612,-0.0682194,0.634071,-0.269485,0.419346,-0.506188,0.0128105,0,0,0,0,0,0,0,0.0585736,-0.246551,-0.276825,-1.68863,-0.049076,1.3787,0.402588,0.399323,-0.109093,0.371486,-0.164243,0.088532,-0.217436,-0.000500582,1.65393,-22.4657,4.56331,25.3323,1.26495,2.4096,-0.00996382,-0.0796038,3.05467,-0.421395,-1.60809,0.637103,1.32978,1.33894,0.698706,1.41625,-0.840788,0.638832,-0.693973,5.97021e-05,
0.0622043,-0.245289,-0.27367,-1.6899,-0.0435252,-0.196923,-0.382413,0.700483,-0.0551778,0.663319,-0.272752,0.491869,-0.512392,0.0121936,0,0,0,0,0,0,0,0.0585736,-0.246551,-0.276825,-1.68863,-0.049076,1.3787,0.402588,0.399323,-0.109093,0.371486,-0.164243,0.088532,-0.217436,-0.000500582,1.65393,-22.4657,4.56331,25.3323,1.26495,2.4096,-0.00996382,-0.0796038,3.05467,-0.421395,-1.60809,0.637103,1.32978,1.33894,0.698706,1.41625,-0.840788,0.638832,-0.693973,5.97021e-05,
0.0493019,-0.243647,-0.28558,-1.68463,-0.0503486,-0.187272,-0.382685,0.531818,-0.121325,0.460191,-0.239737,0.112912,-0.383798,0.0164058,0,0,0,0,0,0,0,0.0585736,-0.246551,-0.276825,-1.68863,-0.049076,1.3787,0.402588,0.399323,-0.109093,0.371486,-0.164243,0.088532,-0.217436,-0.000500582,1.65393,-22.4657,4.56331,25.3323,1.26495,2.4096,-0.00996382,0.395002,1.49086,0.727652,-0.675668,0.56145,0.690609,0.671537,0.44218,0.721881,-0.40203,0.468421,-0.620116,0.000852455,
0.0651978,-0.247889,-0.271014,-1.69138,-0.0469351,-0.196003,-0.38261,0.599496,-0.101813,0.54004,-0.244733,0.244438,-0.374716,0.0155462,0,0,0,0,0,0,0,0.0585736,-0.246551,-0.276825,-1.68863,-0.049076,1.3787,0.402588,0.399323,-0.109093,0.371486,-0.164243,0.088532,-0.217436,-0.000500582,1.65393,-22.4657,4.56331,25.3323,1.26495,2.4096,-0.00996382,0.395002,1.49086,0.727652,-0.675668,0.56145,0.690609,0.671537,0.44218,0.721881,-0.40203,0.468421,-0.620116,0.000852455,
0.0677412,-0.248243,-0.26868,-1.69239,-0.0456609,-0.19764,-0.382552,0.635863,-0.0885347,0.583366,-0.252028,0.31854,-0.409291,0.0145304,0,0,0,0,0,0,0,0.0717617,-0.249637,-0.264905,-1.69425,-0.0466443,1.37306,0.402593,0.441217,-0.0715291,0.429711,-0.156574,0.134452,-0.175431,0.00109963,2.97107,-22.5173,4.86085,24.5865,1.96167,2.37664,-0.0429228,-1.85499,-1.693,0.00247157,1.57441,-0.927641,-0.95767,-0.817182,-0.390469,-1.28534,-0.313834,0.0909042,-0.56589,0.00651835,
0.0703983,-0.248543,-0.266197,-1.69342,-0.0440868,-0.199372,-0.382497,0.664262,-0.0749482,0.620911,-0.257322,0.393529,-0.433027,0.0136374,0,0,0,0,0,0,0,0.0717617,-0.249637,-0.264905,-1.69425,-0.0466443,1.37306,0.402593,0.441217,-0.0715291,0.429711,-0.156574,0.134452,-0.175431,0.00109963,2.97107,-22.5173,4.86085,24.5865,1.96167,2.37664,-0.0429228,-2.19591,-0.606314,-1.10121,0.974594,-0.754784,-0.498855,-0.309918,-0.0943938,-0.826905,-0.746852,0.235838,-0.630746,0.00398948,
0.0731446,-0.24879,-0.263583,-1.69447,-0.0422203,-0.201163,-0.382446,0.68658,-0.0617241,0.653377,-0.26137,0.466622,-0.447646,0.012884,0,0,0,0,0,0,0,0.0717617,-0.249637,-0.264905,-1.69425,-0.0466443,1.37306,0.402593,0.441217,-0.0715291,0.429711,-0.156574,0.134452,-0.175431,0.00109963,2.97107,-22.5173,4.86085,24.5865,1.96167,2.37664,-0.0429228,-2.19591,-0.606314,-1.10121,0.974594,-0.754784,-0.498855,-0.309918,-0.0943938,-0.826905,-0.746852,0.235838,-0.630746,0.00398948,
0.0759641,-0.248987,-0.260859,-1.69552,-0.0400773,-0.202982,-0.382397,0.704872,-0.0492179,0.68106,-0.264463,0.535758,-0.454868,0.0122467,0,0,0,0,0,0,0,0.0717617,-0.249637,-0.264905,-1.69425,-0.0466443,1.37306,0.402593,0.441217,-0.0715291,0.429711,-0.156574,0.134452,-0.175431,0.00109963,2.97107,-22.5173,4.86085,24.5865,1.96167,2.37664,-0.0429228,-0.404136,1.27703,-0.0798972,-0.357508,0.260478,0.510027,0.570181,0.384491,0.420555,-0.631043,0.526641,-0.652093,0.00337788,
0.0627998,-0.247482,-0.273174,-1.69041,-0.0479128,-0.194504,-0.382672,0.55583,-0.113397,0.487717,-0.233261,0.174542,-0.328408,0.0168233,0,0,0,0,0,0,0,0.0717617,-0.249637,-0.264905,-1.69425,-0.0466443,1.37306,0.402593,0.441217,-0.0715291,0.429711,-0.156574,0.134452,-0.175431,0.00109963,2.97107,-22.5173,4.86085,24.5865,1.96167,2.37664,-0.0429228,-0.404136,1.27703,-0.0798972,-0.357508,0.260478,0.510027,0.570181,0.384491,0.420555,-0.631043,0.526641,-0.652093,0.00337788,
0.0787764,-0.25064,-0.258619,-1.69699,-0.0438263,-0.200977,-0.382608,0.625491,-0.0770946,0.574154,-0.243937,0.302902,-0.31803,0.0151987,0,0,0,0,0,0,0,0.0717617,-0.249637,-0.264905,-1.69425,-0.0466443,1.37306,0.402593,0.441217,-0.0715291,0.429711,-0.156574,0.134452,-0.175431,0.00109963,2.97107,-22.5173,4.86085,24.5865,1.96167,2.37664,-0.0429228,-1.16879,-0.225736,-0.13845,0.602981,-0.286801,-0.2306,-0.165092,0.0529755,-0.409381,-0.534559,0.291974,-0.63941,0.00664162,
0.0813925,-0.250905,-0.256161,-1.698,-0.0423183,-0.202388,-0.382552,0.654026,-0.0662209,0.614618,-0.250668,0.377017,-0.352877,0.0141594,0,0,0,0,0,0,0,0.0856953,-0.251975,-0.251971,-1.69925,-0.0440593,1.36964,0.402595,0.450671,-0.0591836,0.435164,-0.152109,0.132102,-0.0977361,0.000841726,3.32813,-23.2631,5.13856,24.6619,1.90033,2.42333,-0.00996382,-2.69831,-0.16803,-1.01316,0.54648,-1.16181,-0.330649,-0.202373,-0.314183,-0.540141,-0.652585,0.202899,-0.628265,0.0066141,
0.0841014,-0.251125,-0.253566,-1.69902,-0.0405181,-0.203898,-0.382498,0.677239,-0.0549105,0.648598,-0.255275,0.450044,-0.377457,0.0133163,0,0,0,0,0,0,0,0.0856953,-0.251975,-0.251971,-1.69925,-0.0440593,1.36964,0.402595,0.450671,-0.0591836,0.435164,-0.152109,0.132102,-0.0977361,0.000841726,3.32813,-23.2631,5.13856,24.6619,1.90033,2.42333,-0.00996382,-2.69831,-0.16803,-1.01316,0.54648,-1.16181,-0.330649,-0.202373,-0.314183,-0.540141,-0.652585,0.202899,-0.628265,0.0066141,
0.0868864,-0.2513,-0.250857,-1.70005,-0.038439,-0.205471,-0.382448,0.696236,-0.0438587,0.677378,-0.258663,0.519756,-0.393176,0.0126029,0,0,0,0,0,0,0,0.0856953,-0.251975,-0.251971,-1.69925,-0.0440593,1.36964,0.402595,0.450671,-0.0591836,0.435164,-0.152109,0.132102,-0.0977361,0.000841726,3.32813,-23.2631,5.13856,24.6619,1.90033,2.42333,-0.00996382,-2.10718,0.955408,-1.27736,-0.173378,-0.577101,0.228209,0.309553,0.105493,0.116158,-0.878093,0.366411,-0.670636,0.00398389,
0.0897335,-0.251434,-0.248049,-1.7011,-0.0360994,-0.207077,-0.3824,0.711783,-0.0333642,0.701959,-0.261174,0.584904,-0.401579,0.0119862,0,0,0,0,0,0,0,0.0856953,-0.251975,-0.251971,-1.69925,-0.0440593,1.36964,0.402595,0.450671,-0.0591836,0.435164,-0.152109,0.132102,-0.0977361,0.000841726,3.32813,-23.2631,5.13856,24.6619,1.90033,2.42333,-0.00996382,-2.10718,0.955408,-1.27736,-0.173378,-0.577101,0.228209,0.309553,0.105493,0.116158,-0.878093,0.366411,-0.670636,0.00398389,
0.0926314,-0.251528,-0.245156,-1.70215,-0.0335199,-0.208693,-0.382354,0.724464,-0.0235575,0.723107,-0.26296,0.644871,-0.404055,0.0114451,0,0,0,0,0,0,0,0.0856953,-0.251975,-0.251971,-1.69925,-0.0440593,1.36964,0.402595,0.450671,-0.0591836,0.435164,-0.152109,0.132102,-0.0977361,0.000841726,3.32813,-23.2631,5.13856,24.6619,1.90033,2.42333,-0.00996382,-1.81783,0.627984,-0.380706,0.0248527,-0.655278,0.103965,0.12341,-0.0740952,0.0281342,-0.601428,0.392229,-0.690718,0.00411973,
0.0762744,-0.250332,-0.260916,-1.69602,-0.0450379,-0.199705,-0.382669,0.588892,-0.0858063,0.526356,-0.232605,0.231721,-0.272566,0.016503,0,0,0,0,0,0,0,0.100157,-0.253571,-0.238526,-1.70382,-0.03977,1.36793,0.402601,0.452797,-0.0517329,0.446196,-0.161413,0.140074,-0.0112574,0.000714818,4.06208,-22.7672,5.48768,24.0866,1.74743,2.15783,-0.0227812,-1.16572,0.553002,-0.858303,0.0613133,0.0111327,0.152025,0.251999,0.36575,-0.00562967,-0.83169,0.333422,-0.659603,0.00288526,
0.107223,-0.25433,-0.232072,-1.70649,-0.0368108,-0.204621,-0.382599,0.62585,-0.0584413,0.587684,-0.236139,0.316443,-0.208589,0.0153317,0,0,0,0,0,0,0,0.100157,-0.253571,-0.238526,-1.70382,-0.03977,1.36793,0.402601,0.452797,-0.0517329,0.446196,-0.161413,0.140074,-0.0112574,0.000714818,4.06208,-22.7672,5.48768,24.0866,1.74743,2.15783,-0.0227812,-1.16572,0.553002,-0.858303,0.0613133,0.0111327,0.152025,0.251999,0.36575,-0.00562967,-0.83169,0.333422,-0.659603,0.00288526,
0.109834,-0.254529,-0.229565,-1.70746,-0.0352485,-0.205637,-0.382542,0.652835,-0.0497349,0.626729,-0.24268,0.39056,-0.254016,0.0142806,0,0,0,0,0,0,0,0.100157,-0.253571,-0.238526,-1.70382,-0.03977,1.36793,0.402601,0.452797,-0.0517329,0.446196,-0.161413,0.140074,-0.0112574,0.000714818,4.06208,-22.7672,5.48768,24.0866,1.74743,2.15783,-0.0227812,-1.96506,-1.04191,-1.66434,1.23824,-0.296105,-0.611768,-0.440102,0.248731,-0.963909,-1.01548,0.188024,-0.659574,0.00554594,
0.112533,-0.254691,-0.226927,-1.70845,-0.0333963,-0.206787,-0.382489,0.674802,-0.0404745,0.659482,-0.247324,0.463065,-0.287474,0.0134078,0,0,0,0,0,0,0,0.100157,-0.253571,-0.238526,-1.70382,-0.03977,1.36793,0.402601,0.452797,-0.0517329,0.446196,-0.161413,0.140074,-0.0112574,0.000714818,4.06208,-22.7672,5.48768,24.0866,1.74743,2.15783,-0.0227812,-1.96506,-1.04191,-1.66434,1.23824,-0.296105,-0.611768,-0.440102,0.248731,-0.963909,-1.01548,0.188024,-0.659574,0.00554594,
0.115304,-0.254816,-0.224178,-1.70945,-0.0312684,-0.20803,-0.382438,0.69273,-0.0312739,0.687217,-0.250806,0.531972,-0.310736,0.0126642,0,0,0,0,0,0,0,0.100157,-0.253571,-0.238526,-1.70382,-0.03977,1.36793,0.402601,0.452797,-0.0517329,0.446196,-0.161413,0.140074,-0.0112574,0.000714818,4.06208,-22.7672,5.48768,24.0866,1.74743,2.15783,-0.0227812,-1.9324,0.561904,-1.24015,0.201009,-0.36691,0.100697,0.193112,0.225111,-0.0825481,-0.963066,0.466638,-0.743935,0.00376028,
0.118134,-0.254906,-0.221335,-1.71046,-0.0288837,-0.209332,-0.38239,0.707345,-0.0224211,0.710895,-0.253415,0.596169,-0.325583,0.0120206,0,0,0,0,0,0,0,0.100157,-0.253571,-0.238526,-1.70382,-0.03977,1.36793,0.402601,0.452797,-0.0517329,0.446196,-0.161413,0.140074,-0.0112574,0.000714818,4.06208,-22.7672,5.48768,24.0866,1.74743,2.15783,-0.0227812,-1.9324,0.561904,-1.24015,0.201009,-0.36691,0.100697,0.193112,0.225111,-0.0825481,-0.963066,0.466638,-0.743935,0.00376028,
0.12101,-0.254962,-0.21841,-1.71149,-0.0262632,-0.210666,-0.382344,0.719209,-0.0140594,0.731253,-0.255288,0.655121,-0.333589,0.0114506,0,0,0,0,0,0,0,0.115217,-0.25499,-0.223408,-1.70875,-0.0337381,1.36755,0.402603,0.468127,-0.0398062,0.455848,-0.161074,0.152396,-0.00138768,0.00194084,-0.0202602,-23.8384,2.1393,25.1855,0.990292,1.84655,-0.0301054,-1.15347,0.876535,-0.721014,-0.109623,0.0820817,0.295171,0.312631,0.44009,0.211925,-0.895812,0.460699,-0.765894,0.00579392,
0.104719,-0.254096,-0.234423,-1.70554,-0.0380765,-0.203786,-0.382661,0.59236,-0.0651668,0.540721,-0.225668,0.244054,-0.150213,0.0166269,0,0,0,0,0,0,0,0.115217,-0.25499,-0.223408,-1.70875,-0.0337381,1.36755,0.402603,0.468127,-0.0398062,0.455848,-0.161074,0.152396,-0.00138768,0.00194084,-0.0202602,-23.8384,2.1393,25.1855,0.990292,1.84655,-0.0301054,-1.40294,-0.886465,-1.57138,1.06464,0.208668,-0.491797,-0.403452,0.569962,-0.76133,-1.13921,0.193747,-0.743141,0.00836408,
0.12228,-0.255613,-0.216798,-1.71139,-0.0305543,-0.204747,-0.382596,0.623734,-0.0478398,0.598812,-0.233124,0.335367,-0.183038,0.0154287,0,0,0,0,0,0,0,0.115217,-0.25499,-0.223408,-1.70875,-0.0337381,1.36755,0.402603,0.468127,-0.0398062,0.455848,-0.161074,0.152396,-0.00138768,0.00194084,-0.0202602,-23.8384,2.1393,25.1855,0.990292,1.84655,-0.0301054,-1.40294,-0.886465,-1.57138,1.06464,0.208668,-0.491797,-0.403452,0.569962,-0.76133,-1.13921,0.193747,-0.743141,0.00836408,
0.124878,-0.255773,-0.214253,-1.71235,-0.0289202,-0.205648,-0.382539,0.649465,-0.0400475,0.636434,-0.239143,0.408536,-0.225358,0.0143567,0,0,0,0,0,0,0,0.115217,-0.25499,-0.223408,-1.70875,-0.0337381,1.36755,0.402603,0.468127,-0.0398062,0.455848,-0.161074,0.152396,-0.00138768,0.00194084,-0.0202602,-23.8384,2.1393,25.1855,0.990292,1.84655,-0.0301054,-1.99532,-0.225218,-1.47342,0.629668,-0.284554,-0.21324,-0.0926124,0.298526,-0.455672,-1.04906,0.293908,-0.754649,0.0046559,
0.127559,-0.2559,-0.211581,-1.71332,-0.0270014,-0.206674,-0.382485,0.670392,-0.0316913,0.668035,-0.243338,0.479708,-0.256442,0.0134604,0,0,0,0,0,0,0,0.115217,-0.25499,-0.223408,-1.70875,-0.0337381,1.36755,0.402603,0.468127,-0.0398062,0.455848,-0.161074,0.152396,-0.00138768,0.00194084,-0.0202602,-23.8384,2.1393,25.1855,0.990292,1.84655,-0.0301054,-1.99532,-0.225218,-1.47342,0.629668,-0.284554,-0.21324,-0.0926124,0.298526,-0.455672,-1.04906,0.293908,-0.754649,0.0046559,
0.130309,-0.255994,-0.208801,-1.71431,-0.024813,-0.207786,-0.382434,0.687444,-0.0233564,0.694819,-0.246425,0.547094,-0.27792,0.0126888,0,0,0,0,0,0,0,0.1359,-0.256303,-0.202878,-1.71519,-0.0250629,1.36778,0.402604,0.513169,-0.0217819,0.480465,-0.144168,0.147619,0.00803853,0.000515314,-2.15069,-24.2629,-0.110155,25.3839,1.01501,1.85296,-0.00996382,-1.70086,2.4536,-0.769072,-1.17895,-0.271017,1.01536,1.10413,0.33711,0.990889,-0.925977,0.650202,-0.820633,0.00095258,
0.133114,-0.256055,-0.20593,-1.7153,-0.0223742,-0.208951,-0.382386,0.701312,-0.0153177,0.7177,-0.248686,0.609708,-0.291462,0.0120297,0,0,0,0,0,0,0,0.1359,-0.256303,-0.202878,-1.71519,-0.0250629,1.36778,0.402604,0.513169,-0.0217819,0.480465,-0.144168,0.147619,0.00803853,0.000515314,-2.15069,-24.2629,-0.110155,25.3839,1.01501,1.85296,-0.00996382,-1.70086,2.4536,-0.769072,-1.17895,-0.271017,1.01536,1.10413,0.33711,0.990889,-0.925977,0.650202,-0.820633,0.00095258,
0.135965,-0.256086,-0.202981,-1.7163,-0.0197058,-0.210146,-0.38234,0.712533,-0.00771301,0.73738,-0.250257,0.667091,-0.298549,0.0114283,0,0,0,0,0,0,0,0.1359,-0.256303,-0.202878,-1.71519,-0.0250629,1.36778,0.402604,0.513169,-0.0217819,0.480465,-0.144168,0.147619,0.00803853,0.000515314,-2.15069,-24.2629,-0.110155,25.3839,1.01501,1.85296,-0.00996382,-1.43144,0.468692,-0.702974,0.180101,-0.0408411,0.127647,0.157053,0.38295,0.000163337,-0.931372,0.465013,-0.841904,0.00345949,
0.119785,-0.255422,-0.219194,-1.71046,-0.0318958,-0.204015,-0.382658,0.591824,-0.0537062,0.553623,-0.223305,0.263218,-0.128655,0.0167247,0,0,0,0,0,0,0,0.1359,-0.256303,-0.202878,-1.71519,-0.0250629,1.36778,0.402604,0.513169,-0.0217819,0.480465,-0.144168,0.147619,0.00803853,0.000515314,-2.15069,-24.2629,-0.110155,25.3839,1.01501,1.85296,-0.00996382,-2.68822,-0.439125,-0.506333,0.677999,-1.16932,-0.299288,-0.187661,-0.354187,-0.503223,-0.60356,0.256872,-0.752929,0.00293613,
0.143103,-0.256765,-0.195927,-1.71776,-0.0216219,-0.204161,-0.382603,0.63094,-0.0357522,0.62241,-0.228099,0.362165,-0.148227,0.0149812,0,0,0,0,0,0,0,0.1359,-0.256303,-0.202878,-1.71519,-0.0250629,1.36778,0.402604,0.513169,-0.0217819,0.480465,-0.144168,0.147619,0.00803853,0.000515314,-2.15069,-24.2629,-0.110155,25.3839,1.01501,1.85296,-0.00996382,-2.68822,-0.439125,-0.506333,0.677999,-1.16932,-0.299288,-0.187661,-0.354187,-0.503223,-0.60356,0.256872,-0.752929,0.00293613,
0.145718,-0.256881,-0.193302,-1.7187,-0.0198751,-0.204913,-0.382547,0.653765,-0.0289189,0.656343,-0.234361,0.436708,-0.188089,0.0139736,0,0,0,0,0,0,0,0.152495,-0.25644,-0.185578,-1.7199,-0.0170033,1.3679,0.402608,0.500513,-0.00125385,0.526681,-0.138106,0.275678,0.00321058,0.000653783,1.1977,-24.2629,2.76216,25.2847,1.94336,1.6607,-0.0026396,-2.27733,-1.47283,-0.613104,1.42368,-0.8205,-0.740865,-0.617329,-0.208566,-1.04825,-0.658497,0.193914,-0.731846,0.00389605,
0.148408,-0.256967,-0.190562,-1.71965,-0.0178446,-0.205784,-0.382495,0.672355,-0.0214701,0.685038,-0.238547,0.507623,-0.217637,0.0131303,0,0,0,0,0,0,0,0.152495,-0.25644,-0.185578,-1.7199,-0.0170033,1.3679,0.402608,0.500513,-0.00125385,0.526681,-0.138106,0.275678,0.00321058,0.000653783,1.1977,-24.2629,2.76216,25.2847,1.94336,1.6607,-0.0026396,-2.27733,-1.47283,-0.613104,1.42368,-0.8205,-0.740865,-0.617329,-0.208566,-1.04825,-0.658497,0.193914,-0.731846,0.00389605,
0.151158,-0.257023,-0.187724,-1.72062,-0.0155496,-0.206737,-0.382445,0.687498,-0.0140132,0.709501,-0.241523,0.573749,-0.238202,0.0123809,0,0,0,0,0,0,0,0.152495,-0.25644,-0.185578,-1.7199,-0.0170033,1.3679,0.402608,0.500513,-0.00125385,0.526681,-0.138106,0.275678,0.00321058,0.000653783,1.1977,-24.2629,2.76216,25.2847,1.94336,1.6607,-0.0026396,-1.22079,2.51854,-0.40921,-1.2845,-0.0316366,1.09906,1.1496,0.43776,1.11888,-0.829137,0.658515,-0.786081,-0.00270497,
0.153957,-0.25705,-0.184802,-1.72159,-0.0130116,-0.207742,-0.382398,0.699789,-0.0068194,0.730502,-0.243636,0.634519,-0.251279,0.0117509,0,0,0,0,0,0,0,0.152495,-0.25644,-0.185578,-1.7199,-0.0170033,1.3679,0.402608,0.500513,-0.00125385,0.526681,-0.138106,0.275678,0.00321058,0.000653783,1.1977,-24.2629,2.76216,25.2847,1.94336,1.6607,-0.0026396,-1.22079,2.51854,-0.40921,-1.2845,-0.0316366,1.09906,1.1496,0.43776,1.11888,-0.829137,0.658515,-0.786081,-0.00270497,
0.156796,-0.25705,-0.181807,-1.72257,-0.0102525,-0.208775,-0.382354,0.709677,-1.68115e-05,0.748647,-0.245049,0.689763,-0.258233,0.0111759,0,0,0,0,0,0,0,0.152495,-0.25644,-0.185578,-1.7199,-0.0170033,1.3679,0.402608,0.500513,-0.00125385,0.526681,-0.138106,0.275678,0.00321058,0.000653783,1.1977,-24.2629,2.76216,25.2847,1.94336,1.6607,-0.0026396,-1.57529,1.27646,-0.467963,-0.469488,-0.289145,0.530689,0.556697,0.23841,0.493961,-0.774901,0.508544,-0.770443,0.000220461,
0.140579,-0.256622,-0.198417,-1.71685,-0.0230706,-0.203568,-0.382663,0.602756,-0.0404957,0.581924,-0.217393,0.286071,-0.0978263,0.0161392,0,0,0,0,0,0,0,0.152495,-0.25644,-0.185578,-1.7199,-0.0170033,1.3679,0.402608,0.500513,-0.00125385,0.526681,-0.138106,0.275678,0.00321058,0.000653783,1.1977,-24.2629,2.76216,25.2847,1.94336,1.6607,-0.0026396,-1.2781,-0.944773,-1.37059,0.978591,0.187597,-0.446199,-0.341828,0.489604,-0.707977,-1.00854,0.189835,-0.666934,0.001778,
0.159783,-0.256728,-0.178357,-1.72244,-0.0124477,-0.203863,-0.382603,0.636487,-0.0228928,0.642276,-0.225981,0.442141,-0.126693,0.0145322,0,0,0,0,0,0,0,0.167995,-0.256343,-0.169418,-1.72406,-0.00926529,1.36812,0.402609,0.490699,0.00855424,0.555863,-0.137895,0.321537,0.0175658,-0.000561932,2.01099,-25.2626,3.18666,25.011,1.93145,1.89965,-0.0026396,-1.2781,-0.944773,-1.37059,0.978591,0.187597,-0.446199,-0.341828,0.489604,-0.707977,-1.00854,0.189835,-0.666934,0.001778,
0.162413,-0.256797,-0.17566,-1.72337,-0.0104234,-0.204512,-0.382549,0.657511,-0.01727,0.674286,-0.231843,0.506091,-0.162344,0.0135335,0,0,0,0,0,0,0,0.167995,-0.256343,-0.169418,-1.72406,-0.00926529,1.36812,0.402609,0.490699,0.00855424,0.555863,-0.137895,0.321537,0.0175658,-0.000561932,2.01099,-25.2626,3.18666,25.011,1.93145,1.89965,-0.0026396,-2.12313,-1.56079,-1.34642,1.41768,-0.49308,-0.725809,-0.593819,0.0510333,-1.04276,-0.870482,0.153836,-0.649008,0.00118092,
0.165111,-0.25684,-0.172855,-1.72431,-0.00815219,-0.205267,-0.382498,0.674468,-0.0108926,0.701243,-0.235555,0.567796,-0.188754,0.0127172,0,0,0,0,0,0,0,0.167995,-0.256343,-0.169418,-1.72406,-0.00926529,1.36812,0.402609,0.490699,0.00855424,0.555863,-0.137895,0.321537,0.0175658,-0.000561932,2.01099,-25.2626,3.18666,25.011,1.93145,1.89965,-0.0026396,-2.12313,-1.56079,-1.34642,1.41768,-0.49308,-0.725809,-0.593819,0.0510333,-1.04276,-0.870482,0.153836,-0.649008,0.00118092,
0.167864,-0.256858,-0.169959,-1.72526,-0.00564856,-0.206095,-0.38245,0.688124,-0.00441319,0.724141,-0.238074,0.625907,-0.20699,0.0119969,0,0,0,0,0,0,0,0.167995,-0.256343,-0.169418,-1.72406,-0.00926529,1.36812,0.402609,0.490699,0.00855424,0.555863,-0.137895,0.321537,0.0175658,-0.000561932,2.01099,-25.2626,3.18666,25.011,1.93145,1.89965,-0.0026396,-2.21761,0.956192,-1.19736,-0.266853,-0.587874,0.411869,0.462982,0.137101,0.3375,-0.880473,0.477774,-0.679347,-0.00202885,
0.17066,-0.256851,-0.166984,-1.72622,-0.0029298,-0.206969,-0.382405,0.699067,0.0018796,0.743734,-0.239776,0.679691,-0.218371,0.0113722,0,0,0,0,0,0,0,0.167995,-0.256343,-0.169418,-1.72406,-0.00926529,1.36812,0.402609,0.490699,0.00855424,0.555863,-0.137895,0.321537,0.0175658,-0.000561932,2.01099,-25.2626,3.18666,25.011,1.93145,1.89965,-0.0026396,-2.17262,2.32807,-1.21882,-1.28057,-0.562088,1.04917,1.05304,0.251076,1.1305,-0.900011,0.563198,-0.657407,-0.00666547,
0.173491,-0.256819,-0.163941,-1.72718,-1.44875e-05,-0.207865,-0.382362,0.707757,0.0078477,0.7606,-0.240829,0.728828,-0.224144,0.0108208,0,0,0,0,0,0,0,0.18447,-0.256056,-0.152349,-1.72823,-0.000203912,1.36836,0.402616,0.507956,0.00671514,0.538232,-0.135936,0.278302,0.00244952,0.000575126,2.61798,-25.211,3.41279,24.4873,1.18621,2.17156,-0.0301054,-2.17262,2.32807,-1.21882,-1.28057,-0.562088,1.04917,1.05304,0.251076,1.1305,-0.900011,0.563198,-0.657407,-0.00666547,
0.157237,-0.256636,-0.180927,-1.72154,-0.0142163,-0.203356,-0.382662,0.610208,-0.0261543,0.603972,-0.215343,0.37825,-0.082052,0.0157048,0,0,0,0,0,0,0,0.18447,-0.256056,-0.152349,-1.72823,-0.000203912,1.36836,0.402616,0.507956,0.00671514,0.538232,-0.135936,0.278302,0.00244952,0.000575126,2.61798,-25.211,3.41279,24.4873,1.18621,2.17156,-0.0301054,-2.39175,-0.817389,-1.28617,0.787051,-0.829718,-0.346505,-0.258473,-0.132861,-0.533162,-0.721483,0.156639,-0.536702,-0.00357035,
0.191717,-0.256232,-0.144987,-1.73072,0.00448319,-0.203224,-0.382598,0.631567,-0.0136449,0.652441,-0.222497,0.454097,-0.105942,0.0143846,0,0,0,0,0,0,0,0.18447,-0.256056,-0.152349,-1.72823,-0.000203912,1.36836,0.402616,0.507956,0.00671514,0.538232,-0.135936,0.278302,0.00244952,0.000575126,2.61798,-25.211,3.41279,24.4873,1.18621,2.17156,-0.0301054,-2.39175,-0.817389,-1.28617,0.787051,-0.829718,-0.346505,-0.258473,-0.132861,-0.533162,-0.721483,0.156639,-0.536702,-0.00357035,
0.194323,-0.256266,-0.142254,-1.73164,0.00655353,-0.203774,-0.382545,0.651669,-0.00837058,0.683319,-0.228145,0.517584,-0.137411,0.0134068,0,0,0,0,0,0,0,0.18447,-0.256056,-0.152349,-1.72823,-0.000203912,1.36836,0.402616,0.507956,0.00671514,0.538232,-0.135936,0.278302,0.00244952,0.000575126,2.61798,-25.211,3.41279,24.4873,1.18621,2.17156,-0.0301054,-1.61771,-0.802583,-1.72181,0.762263,-0.0903618,-0.332006,-0.234956,0.340591,-0.544901,-0.948051,0.156813,-0.507619,-0.00648399,
0.196995,-0.256276,-0.139416,-1.73256,0.00886695,-0.204416,-0.382494,0.667879,-0.0024411,0.709405,-0.231646,0.578355,-0.160682,0.0125769,0,0,0,0,0,0,0,0.18447,-0.256056,-0.152349,-1.72823,-0.000203912,1.36836,0.402616,0.507956,0.00671514,0.538232,-0.135936,0.278302,0.00244952,0.000575126,2.61798,-25.211,3.41279,24.4873,1.18621,2.17156,-0.0301054,-1.61771,-0.802583,-1.72181,0.762263,-0.0903618,-0.332006,-0.234956,0.340591,-0.544901,-0.948051,0.156813,-0.507619,-0.00648399,
0.199718,-0.256262,-0.13649,-1.7335,0.0114081,-0.205123,-0.382447,0.680934,0.00353584,0.731602,-0.233957,0.635285,-0.176611,0.0118583,0,0,0,0,0,0,0,0.18447,-0.256056,-0.152349,-1.72823,-0.000203912,1.36836,0.402616,0.507956,0.00671514,0.538232,-0.135936,0.278302,0.00244952,0.000575126,2.61798,-25.211,3.41279,24.4873,1.18621,2.17156,-0.0301054,-1.88315,1.0885,-1.49885,-0.426315,-0.28761,0.523186,0.574728,0.343773,0.462995,-0.948208,0.473399,-0.582757,-0.00805908,
0.202484,-0.256224,-0.133487,-1.73444,0.0141592,-0.205868,-0.382402,0.691385,0.00929983,0.750616,-0.235457,0.687785,-0.186349,0.0112282,0,0,0,0,0,0,0,0.200808,-0.255956,-0.134384,-1.73281,0.01082,1.36865,0.402614,0.527894,0.00545696,0.534111,-0.139609,0.286982,0.0232229,0.000147504,-1.38897,-25.3856,-0.33629,25.0348,0.752255,2.00493,-0.0163725,-1.88315,1.0885,-1.49885,-0.426315,-0.28761,0.523186,0.574728,0.343773,0.462995,-0.948208,0.473399,-0.582757,-0.00805908,
0.18919,-0.256178,-0.147597,-1.72983,0.0026668,-0.2028,-0.382656,0.6065,-0.0167453,0.615642,-0.212109,0.389786,-0.0667733,0.0155034,0,0,0,0,0,0,0,0.200808,-0.255956,-0.134384,-1.73281,0.01082,1.36865,0.402614,0.527894,0.00545696,0.534111,-0.139609,0.286982,0.0232229,0.000147504,-1.38897,-25.3856,-0.33629,25.0348,0.752255,2.00493,-0.0163725,-1.46059,0.593221,-1.80495,-0.120135,0.173819,0.294567,0.324895,0.629594,0.20736,-1.11936,0.415917,-0.598271,-0.00572338,
0.208004,-0.256092,-0.126917,-1.73527,0.0156823,-0.202658,-0.382604,0.625714,-0.00963105,0.660304,-0.217606,0.468118,-0.0798736,0.0142089,0,0,0,0,0,0,0,0.200808,-0.255956,-0.134384,-1.73281,0.01082,1.36865,0.402614,0.527894,0.00545696,0.534111,-0.139609,0.286982,0.0232229,0.000147504,-1.38897,-25.3856,-0.33629,25.0348,0.752255,2.00493,-0.0163725,-0.964224,-0.762509,-2.17182,0.689813,0.595344,-0.301986,-0.171717,0.800505,-0.555027,-1.19794,0.164654,-0.509073,-0.00401015,
0.210584,-0.25611,-0.124156,-1.73616,0.0178035,-0.203094,-0.382551,0.645043,-0.00437022,0.690267,-0.222889,0.530313,-0.109039,0.0132489,0,0,0,0,0,0,0,0.200808,-0.255956,-0.134384,-1.73281,0.01082,1.36865,0.402614,0.527894,0.00545696,0.534111,-0.139609,0.286982,0.0232229,0.000147504,-1.38897,-25.3856,-0.33629,25.0348,0.752255,2.00493,-0.0163725,-0.964224,-0.762509,-2.17182,0.689813,0.595344,-0.301986,-0.171717,0.800505,-0.555027,-1.19794,0.164654,-0.509073,-0.00401015,
0.213226,-0.256104,-0.121293,-1.73706,0.0201621,-0.203616,-0.382501,0.660639,0.00139545,0.715605,-0.226201,0.589627,-0.130538,0.0124208,0,0,0,0,0,0,0,0.200808,-0.255956,-0.134384,-1.73281,0.01082,1.36865,0.402614,0.527894,0.00545696,0.534111,-0.139609,0.286982,0.0232229,0.000147504,-1.38897,-25.3856,-0.33629,25.0348,0.752255,2.00493,-0.0163725,-1.66292,-0.188911,-2.12777,0.286827,0.0795722,-0.0166841,0.0713276,0.567882,-0.177783,-1.15158,0.237267,-0.545889,-0.00550487,
0.215919,-0.256075,-0.118345,-1.73798,0.0227423,-0.204197,-0.382454,0.673185,0.00713991,0.737186,-0.228388,0.645061,-0.145199,0.0117004,0,0,0,0,0,0,0,0.217374,-0.255934,-0.116154,-1.73753,0.0218254,1.36912,0.402619,0.527439,0.00281733,0.550572,-0.144148,0.340525,0.0197455,0.000423696,-1.5675,-25.1119,-0.237108,25.733,0.923458,2.09191,-0.0227812,-1.496,1.3822,-1.74501,-0.762237,0.138457,0.679503,0.661396,0.688202,0.711826,-1.11803,0.446247,-0.601195,-0.00780742,
0.218652,-0.256025,-0.115322,-1.7389,0.0255267,-0.204813,-0.38241,0.683205,0.0126394,0.755683,-0.229795,0.696098,-0.154094,0.0110678,0,0,0,0,0,0,0,0.217374,-0.255934,-0.116154,-1.73753,0.0218254,1.36912,0.402619,0.527439,0.00281733,0.550572,-0.144148,0.340525,0.0197455,0.000423696,-1.5675,-25.1119,-0.237108,25.733,0.923458,2.09191,-0.0227812,-1.496,1.3822,-1.74501,-0.762237,0.138457,0.679503,0.661396,0.688202,0.711826,-1.11803,0.446247,-0.601195,-0.00780742,
0.205501,-0.256054,-0.129558,-1.7344,0.0138098,-0.202338,-0.382661,0.601711,-0.0130692,0.624602,-0.208075,0.404716,-0.0433833,0.0152758,0,0,0,0,0,0,0,0.217374,-0.255934,-0.116154,-1.73753,0.0218254,1.36912,0.402619,0.527439,0.00281733,0.550572,-0.144148,0.340525,0.0197455,0.000423696,-1.5675,-25.1119,-0.237108,25.733,0.923458,2.09191,-0.0227812,-0.905315,0.613155,-1.93034,-0.264265,0.652545,0.317519,0.340448,0.942523,0.249302,-1.2292,0.356151,-0.59118,-0.00564387,
0.224547,-0.256047,-0.108542,-1.73996,0.0271906,-0.202108,-0.382603,0.622647,-0.00693266,0.671087,-0.213465,0.504657,-0.0674256,0.0139086,0,0,0,0,0,0,0,0.217374,-0.255934,-0.116154,-1.73753,0.0218254,1.36912,0.402619,0.527439,0.00281733,0.550572,-0.144148,0.340525,0.0197455,0.000423696,-1.5675,-25.1119,-0.237108,25.733,0.923458,2.09191,-0.0227812,-0.905315,0.613155,-1.93034,-0.264265,0.652545,0.317519,0.340448,0.942523,0.249302,-1.2292,0.356151,-0.59118,-0.00564387,
0.227111,-0.256053,-0.105742,-1.74083,0.0294389,-0.202476,-0.382551,0.641055,-0.00147216,0.700004,-0.218311,0.562091,-0.0919648,0.0129619,0,0,0,0,0,0,0,0.217374,-0.255934,-0.116154,-1.73753,0.0218254,1.36912,0.402619,0.527439,0.00281733,0.550572,-0.144148,0.340525,0.0197455,0.000423696,-1.5675,-25.1119,-0.237108,25.733,0.923458,2.09191,-0.0227812,-1.72178,-0.372821,-1.52571,0.423772,-0.225992,-0.062297,0.0564964,0.265831,-0.251453,-0.874354,0.247296,-0.50059,-0.00537452,
0.229734,-0.256036,-0.102844,-1.74171,0.0319074,-0.202915,-0.382503,0.655846,0.00431841,0.724427,-0.221356,0.617118,-0.109796,0.0121432,0,0,0,0,0,0,0,0.217374,-0.255934,-0.116154,-1.73753,0.0218254,1.36912,0.402619,0.527439,0.00281733,0.550572,-0.144148,0.340525,0.0197455,0.000423696,-1.5675,-25.1119,-0.237108,25.733,0.923458,2.09191,-0.0227812,-1.72178,-0.372821,-1.52571,0.423772,-0.225992,-0.062297,0.0564964,0.265831,-0.251453,-0.874354,0.247296,-0.50059,-0.00537452,
0.232405,-0.255996,-0.0998631,-1.74261,0.0345823,-0.203402,-0.382457,0.667684,0.00998952,0.7452,-0.223352,0.668718,-0.121634,0.0114305,0,0,0,0,0,0,0,0.233807,-0.255726,-0.097551,-1.74201,0.0329844,1.36981,0.402618,0.502421,0.0100643,0.596692,-0.135758,0.389024,0.0103516,0.000315791,0.868412,-25.5126,1.38948,25.134,1.67419,1.9262,-0.00996382,-1.68578,0.79193,-1.34155,-0.313254,-0.246854,0.458354,0.54184,0.315454,0.368569,-0.833922,0.429864,-0.496718,-0.00645522,
0.235113,-0.255934,-0.0968112,-1.74351,0.0374476,-0.203915,-0.382414,0.677077,0.0153553,0.762981,-0.224609,0.716341,-0.128414,0.0108047,0,0,0,0,0,0,0,0.233807,-0.255726,-0.097551,-1.74201,0.0329844,1.36981,0.402618,0.502421,0.0100643,0.596692,-0.135758,0.389024,0.0103516,0.000315791,0.868412,-25.5126,1.38948,25.134,1.67419,1.9262,-0.00996382,-1.40732,-0.340611,-0.761768,0.51724,-0.252772,-0.0790267,-0.0659717,0.111569,-0.19882,-0.617528,0.37183,-0.492095,-0.00216933,
0.237851,-0.255853,-0.093698,-1.74441,0.0404867,-0.204439,-0.382373,0.684427,0.0203376,0.778285,-0.22528,0.759764,-0.131035,0.0102509,0,0,0,0,0,0,0,0.233807,-0.255726,-0.097551,-1.74201,0.0329844,1.36981,0.402618,0.502421,0.0100643,0.596692,-0.135758,0.389024,0.0103516,0.000315791,0.868412,-25.5126,1.38948,25.134,1.67419,1.9262,-0.00996382,-1.40732,-0.340611,-0.761768,0.51724,-0.252772,-0.0790267,-0.0659717,0.111569,-0.19882,-0.617528,0.37183,-0.492095,-0.00216933,
0.222056,-0.256019,-0.111226,-1.7391,0.0251719,-0.201838,-0.382659,0.599722,-0.0109232,0.636601,-0.204815,0.446485,-0.036492,0.0149562,0,0,0,0,0,0,0,0.233807,-0.255726,-0.097551,-1.74201,0.0329844,1.36981,0.402618,0.502421,0.0100643,0.596692,-0.135758,0.389024,0.0103516,0.000315791,0.868412,-25.5126,1.38948,25.134,1.67419,1.9262,-0.00996382,-1.15447,-1.03078,-0.849662,0.89297,-0.147135,-0.38431,-0.328871,0.0930125,-0.566163,-0.560491,0.200493,-0.389753,-0.00188519,
0.240986,-0.255777,-0.0897378,-1.74438,0.0387988,-0.201301,-0.382607,0.621999,-0.00222413,0.68505,-0.209232,0.538979,-0.0517157,0.0134586,0,0,0,0,0,0,0,0.233807,-0.255726,-0.097551,-1.74201,0.0329844,1.36981,0.402618,0.502421,0.0100643,0.596692,-0.135758,0.389024,0.0103516,0.000315791,0.868412,-25.5126,1.38948,25.134,1.67419,1.9262,-0.00996382,-1.15447,-1.03078,-0.849662,0.89297,-0.147135,-0.38431,-0.328871,0.0930125,-0.566163,-0.560491,0.200493,-0.389753,-0.00188519,
0.243542,-0.255765,-0.0868888,-1.74523,0.0411708,-0.20159,-0.382557,0.639015,0.00299496,0.712249,-0.214035,0.593001,-0.0722203,0.0125461,0,0,0,0,0,0,0,0.255549,-0.254985,-0.0726528,-1.74759,0.0481603,1.37054,0.402618,0.508418,0.0246276,0.605916,-0.128022,0.422258,0.00695928,0.000386697,0.892215,-25.4372,1.16334,25.1578,2.12005,1.93902,-0.00996382,-1.81974,-0.886988,-1.26802,0.774188,-0.508614,-0.255852,-0.156811,-0.0283175,-0.451586,-0.640252,0.220378,-0.380336,-0.00244294,
0.246153,-0.255731,-0.0839478,-1.7461,0.0437493,-0.201938,-0.38251,0.652632,0.00853021,0.735249,-0.216937,0.644617,-0.0870639,0.0117578,0,0,0,0,0,0,0,0.255549,-0.254985,-0.0726528,-1.74759,0.0481603,1.37054,0.402618,0.508418,0.0246276,0.605916,-0.128022,0.422258,0.00695928,0.000386697,0.892215,-25.4372,1.16334,25.1578,2.12005,1.93902,-0.00996382,-1.81974,-0.886988,-1.26802,0.774188,-0.508614,-0.255852,-0.156811,-0.0283175,-0.451586,-0.640252,0.220378,-0.380336,-0.00244294,
0.248806,-0.255676,-0.0809285,-1.74698,0.046521,-0.202325,-0.382466,0.663471,0.0139201,0.754823,-0.21877,0.692935,-0.0967028,0.0110702,0,0,0,0,0,0,0,0.255549,-0.254985,-0.0726528,-1.74759,0.0481603,1.37054,0.402618,0.508418,0.0246276,0.605916,-0.128022,0.422258,0.00695928,0.000386697,0.892215,-25.4372,1.16334,25.1578,2.12005,1.93902,-0.00996382,-1.42054,2.01897,-1.86353,-1.18885,0.121153,1.00724,1.06426,0.706473,1.01521,-1.02581,0.584474,-0.425661,-0.00792485,
0.251502,-0.2556,-0.0778523,-1.74786,0.0494732,-0.202732,-0.382424,0.673919,0.0190004,0.769041,-0.219859,0.738052,-0.101939,0.0104282,0,0,0,0,0,0,0,0.255549,-0.254985,-0.0726528,-1.74759,0.0481603,1.37054,0.402618,0.508418,0.0246276,0.605916,-0.128022,0.422258,0.00695928,0.000386697,0.892215,-25.4372,1.16334,25.1578,2.12005,1.93902,-0.00996382,-1.38262,1.59909,-1.48063,-0.86839,-0.0166486,0.809448,0.806042,0.516655,0.838924,-0.848578,0.570813,-0.397023,-0.00700699,
0.254232,-0.255505,-0.0747324,-1.74874,0.052593,-0.203147,-0.382385,0.682465,0.0236937,0.779967,-0.220404,0.77995,-0.103532,0.0098407,0,0,0,0,0,0,0,0.255549,-0.254985,-0.0726528,-1.74759,0.0481603,1.37054,0.402618,0.508418,0.0246276,0.605916,-0.128022,0.422258,0.00695928,0.000386697,0.892215,-25.4372,1.16334,25.1578,2.12005,1.93902,-0.00996382,-1.38262,1.59909,-1.48063,-0.86839,-0.0166486,0.809448,0.806042,0.516655,0.838924,-0.848578,0.570813,-0.397023,-0.00700699,
0.238498,-0.255768,-0.092478,-1.74354,0.0366429,-0.201094,-0.382661,0.600654,-0.0059171,0.65274,-0.200316,0.484012,-0.0263042,0.0145107,0,0,0,0,0,0,0,0.271882,-0.254296,-0.0536797,-1.75139,0.0600146,1.37087,0.402621,0.495261,0.0259857,0.62046,-0.11343,0.42415,0.00132585,0.000588494,1.14612,-25.8101,1.11177,25.134,1.43615,2.4096,-0.0227812,-1.47605,-1.3803,-1.98564,1.07805,0.0189673,-0.493552,-0.43843,0.325556,-0.706591,-0.924849,0.237009,-0.365029,-0.00175537,
0.279025,-0.254239,-0.0457019,-1.75366,0.0661918,-0.200007,-0.38261,0.618085,0.00568636,0.697195,-0.204288,0.56591,-0.025548,0.0130574,0,0,0,0,0,0,0,0.271882,-0.254296,-0.0536797,-1.75139,0.0600146,1.37087,0.402621,0.495261,0.0259857,0.62046,-0.11343,0.42415,0.00132585,0.000588494,1.14612,-25.8101,1.11177,25.134,1.43615,2.4096,-0.0227812,-1.47605,-1.3803,-1.98564,1.07805,0.0189673,-0.493552,-0.43843,0.325556,-0.706591,-0.924849,0.237009,-0.365029,-0.00175537,
0.281562,-0.254197,-0.0428085,-1.7545,0.0686569,-0.200178,-0.382561,0.634255,0.0103694,0.72336,-0.20959,0.616289,-0.0426833,0.0121781,0,0,0,0,0,0,0,0.271882,-0.254296,-0.0536797,-1.75139,0.0600146,1.37087,0.402621,0.495261,0.0259857,0.62046,-0.11343,0.42415,0.00132585,0.000588494,1.14612,-25.8101,1.11177,25.134,1.43615,2.4096,-0.0227812,-1.87265,-1.6134,-1.95439,1.22978,-0.36463,-0.541316,-0.448083,0.0592599,-0.785149,-0.802541,0.199759,-0.30154,-0.00287798,
0.284158,-0.254135,-0.0398367,-1.75535,0.0713168,-0.2004,-0.382516,0.649066,0.0154537,0.742952,-0.212641,0.664978,-0.0554448,0.0113743,0,0,0,0,0,0,0,0.271882,-0.254296,-0.0536797,-1.75139,0.0600146,1.37087,0.402621,0.495261,0.0259857,0.62046,-0.11343,0.42415,0.00132585,0.000588494,1.14612,-25.8101,1.11177,25.134,1.43615,2.4096,-0.0227812,-1.53375,0.615474,-2.21168,-0.247022,0.0932294,0.407689,0.466311,0.591379,0.314814,-1.03774,0.505452,-0.345297,-0.00751922,
0.286803,-0.254054,-0.0368035,-1.75621,0.0741623,-0.200655,-0.382473,0.661218,0.0203934,0.758287,-0.214512,0.711361,-0.063871,0.0106513,0,0,0,0,0,0,0,0.271882,-0.254296,-0.0536797,-1.75139,0.0600146,1.37087,0.402621,0.495261,0.0259857,0.62046,-0.11343,0.42415,0.00132585,0.000588494,1.14612,-25.8101,1.11177,25.134,1.43615,2.4096,-0.0227812,-1.53375,0.615474,-2.21168,-0.247022,0.0932294,0.407689,0.466311,0.591379,0.314814,-1.03774,0.505452,-0.345297,-0.00751922,
0.289486,-0.253954,-0.0337218,-1.75707,0.0771812,-0.200929,-0.382433,0.670824,0.0249876,0.770439,-0.215615,0.754728,-0.0684856,0.0100087,0,0,0,0,0,0,0,0.271882,-0.254296,-0.0536797,-1.75139,0.0600146,1.37087,0.402621,0.495261,0.0259857,0.62046,-0.11343,0.42415,0.00132585,0.000588494,1.14612,-25.8101,1.11177,25.134,1.43615,2.4096,-0.0227812,-1.1573,1.76586,-2.16541,-1.03519,0.419801,0.871215,0.866166,0.899031,0.898534,-1.11883,0.639048,-0.373229,-0.00995858,
0.2922,-0.253837,-0.0306018,-1.75794,0.0803598,-0.201209,-0.382395,0.678297,0.0291661,0.779997,-0.216138,0.794647,-0.0698977,0.00943605,0,0,0,0,0,0,0,0.287571,-0.253564,-0.0350877,-1.75494,0.0723204,1.37149,0.402624,0.49519,0.0159466,0.607014,-0.118738,0.384014,0.0268583,-0.000483497,3.25275,-25.6593,2.76216,24.2612,1.38763,2.37023,-0.0163725,-1.1573,1.76586,-2.16541,-1.03519,0.419801,0.871215,0.866166,0.899031,0.898534,-1.11883,0.639048,-0.373229,-0.00995858,
0.276553,-0.254261,-0.0484907,-1.75285,0.0639281,-0.199905,-0.382662,0.59775,0.00286253,0.666197,-0.193895,0.514474,-0.00565323,0.0140621,0,0,0,0,0,0,0,0.287571,-0.253564,-0.0350877,-1.75494,0.0723204,1.37149,0.402624,0.49519,0.0159466,0.607014,-0.118738,0.384014,0.0268583,-0.000483497,3.25275,-25.6593,2.76216,24.2612,1.38763,2.37023,-0.0163725,-1.16415,-0.520032,-2.48684,0.436939,0.412442,-0.11803,-0.05162,0.689818,-0.289407,-1.11227,0.35469,-0.303032,-0.0067799,
0.294552,-0.25354,-0.0271461,-1.75716,0.0781831,-0.199118,-0.382608,0.605771,0.00435581,0.692921,-0.198421,0.544147,-0.00214825,0.0130591,0,0,0,0,0,0,0,0.287571,-0.253564,-0.0350877,-1.75494,0.0723204,1.37149,0.402624,0.49519,0.0159466,0.607014,-0.118738,0.384014,0.0268583,-0.000483497,3.25275,-25.6593,2.76216,24.2612,1.38763,2.37023,-0.0163725,-1.13756,-1.66332,-2.53783,1.20108,0.410344,-0.615699,-0.537711,0.564277,-0.872545,-1.08316,0.24971,-0.279659,-0.00537335,
0.297049,-0.253501,-0.0242827,-1.75798,0.080578,-0.19919,-0.382559,0.624182,0.00963523,0.715853,-0.203555,0.59872,-0.0179367,0.012108,0,0,0,0,0,0,0,0.287571,-0.253564,-0.0350877,-1.75494,0.0723204,1.37149,0.402624,0.49519,0.0159466,0.607014,-0.118738,0.384014,0.0268583,-0.000483497,3.25275,-25.6593,2.76216,24.2612,1.38763,2.37023,-0.0163725,-1.13756,-1.66332,-2.53783,1.20108,0.410344,-0.615699,-0.537711,0.564277,-0.872545,-1.08316,0.24971,-0.279659,-0.00537335,
0.299605,-0.253441,-0.0213455,-1.7588,0.0831817,-0.199309,-0.382514,0.639,0.0150548,0.734303,-0.206648,0.650929,-0.0296829,0.0112675,0,0,0,0,0,0,0,0.287571,-0.253564,-0.0350877,-1.75494,0.0723204,1.37149,0.402624,0.49519,0.0159466,0.607014,-0.118738,0.384014,0.0268583,-0.000483497,3.25275,-25.6593,2.76216,24.2612,1.38763,2.37023,-0.0163725,-1.42806,0.590101,-2.34788,-0.29453,0.201356,0.405763,0.435443,0.675368,0.341893,-1.06899,0.512053,-0.307902,-0.0082423,
0.302208,-0.25336,-0.0183491,-1.75964,0.0859812,-0.199459,-0.382472,0.650849,0.0201813,0.74911,-0.208601,0.699879,-0.0374405,0.0105261,0,0,0,0,0,0,0,0.303596,-0.252974,-0.0158004,-1.75885,0.0854117,1.37265,0.402625,0.517336,0.0125804,0.587208,-0.12968,0.380352,0.0544005,0.000375985,-0.95654,-25.7863,-0.911547,25.3839,1.61377,2.15783,-0.0227812,-1.42806,0.590101,-2.34788,-0.29453,0.201356,0.405763,0.435443,0.675368,0.341893,-1.06899,0.512053,-0.307902,-0.0082423,
0.304849,-0.253261,-0.0153054,-1.76048,0.0889615,-0.199625,-0.382433,0.660237,0.0248665,0.760925,-0.209787,0.745063,-0.0416807,0.00986943,0,0,0,0,0,0,0,0.303596,-0.252974,-0.0158004,-1.75885,0.0854117,1.37265,0.402625,0.517336,0.0125804,0.587208,-0.12968,0.380352,0.0544005,0.000375985,-0.95654,-25.7863,-0.911547,25.3839,1.61377,2.15783,-0.0227812,-1.99336,2.56404,-2.27736,-1.60843,-0.194513,1.33636,1.30818,0.676572,1.46198,-1.04642,0.747671,-0.317289,-0.0112186,
0.307519,-0.253145,-0.0122243,-1.76132,0.0921065,-0.199797,-0.382396,0.667572,0.0290703,0.770266,-0.210387,0.786262,-0.0429543,0.0092846,0,0,0,0,0,0,0,0.303596,-0.252974,-0.0158004,-1.75885,0.0854117,1.37265,0.402625,0.517336,0.0125804,0.587208,-0.12968,0.380352,0.0544005,0.000375985,-0.95654,-25.7863,-0.911547,25.3839,1.61377,2.15783,-0.0227812,-1.79666,0.232638,-2.31258,-0.0624346,-0.116797,0.312506,0.34442,0.453452,0.236194,-0.987224,0.489684,-0.283337,-0.00543272,
0.292129,-0.253557,-0.0299178,-1.75637,0.0760065,-0.19911,-0.38266,0.583295,0.000427561,0.664203,-0.188857,0.488476,0.0163337,0.0140872,0,0,0,0,0,0,0,0.303596,-0.252974,-0.0158004,-1.75885,0.0854117,1.37265,0.402625,0.517336,0.0125804,0.587208,-0.12968,0.380352,0.0544005,0.000375985,-0.95654,-25.7863,-0.911547,25.3839,1.61377,2.15783,-0.0227812,-1.79666,0.232638,-2.31258,-0.0624346,-0.116797,0.312506,0.34442,0.453452,0.236194,-0.987224,0.489684,-0.283337,-0.00543272,
0.310509,-0.252919,-0.00788576,-1.76106,0.0913235,-0.1977,-0.382612,0.599684,0.00774196,0.688776,-0.195237,0.549069,0.0200011,0.0127744,0,0,0,0,0,0,0,0.303596,-0.252974,-0.0158004,-1.75885,0.0854117,1.37265,0.402625,0.517336,0.0125804,0.587208,-0.12968,0.380352,0.0544005,0.000375985,-0.95654,-25.7863,-0.911547,25.3839,1.61377,2.15783,-0.0227812,-1.30428,-1.56524,-2.64946,1.08955,0.348147,-0.517211,-0.417793,0.564707,-0.778201,-1.1261,0.301971,-0.288846,-0.0015993,
0.312979,-0.252867,-0.00504302,-1.76186,0.0937385,-0.197678,-0.382565,0.617319,0.0129589,0.710684,-0.199821,0.603748,0.00538348,0.0118294,0,0,0,0,0,0,0,0.303596,-0.252974,-0.0158004,-1.75885,0.0854117,1.37265,0.402625,0.517336,0.0125804,0.587208,-0.12968,0.380352,0.0544005,0.000375985,-0.95654,-25.7863,-0.911547,25.3839,1.61377,2.15783,-0.0227812,-1.30428,-1.56524,-2.64946,1.08955,0.348147,-0.517211,-0.417793,0.564707,-0.778201,-1.1261,0.301971,-0.288846,-0.0015993,
0.315505,-0.252795,-0.00212963,-1.76267,0.096361,-0.1977,-0.382521,0.63151,0.0181375,0.728348,-0.202639,0.655636,-0.00540721,0.0109923,0,0,0,0,0,0,0,0.320014,-0.252409,0.00412499,-1.76302,0.0983122,1.37423,0.40262,0.518007,0.0136138,0.651123,-0.13534,0.436441,0.0514613,-0.00114037,0.412174,-25.2864,0.139784,25.3323,2.64557,1.86577,0.017502,-0.811291,0.084897,-2.67589,0.0080285,0.818501,0.111635,0.175819,1.02056,-0.0396595,-1.25462,0.531209,-0.310786,-0.00395775,
0.318076,-0.252703,0.000840516,-1.76349,0.099177,-0.19775,-0.38248,0.642857,0.0229524,0.742537,-0.204421,0.704,-0.0125003,0.010254,0,0,0,0,0,0,0,0.320014,-0.252409,0.00412499,-1.76302,0.0983122,1.37423,0.40262,0.518007,0.0136138,0.651123,-0.13534,0.436441,0.0514613,-0.00114037,0.412174,-25.2864,0.139784,25.3323,2.64557,1.86577,0.017502,-0.811291,0.084897,-2.67589,0.0080285,0.818501,0.111635,0.175819,1.02056,-0.0396595,-1.25462,0.531209,-0.310786,-0.00395775,
0.320684,-0.252594,0.00385596,-1.76431,0.102171,-0.197815,-0.382441,0.651843,0.0273004,0.753862,-0.205482,0.748448,-0.0163479,0.00960031,0,0,0,0,0,0,0,0.320014,-0.252409,0.00412499,-1.76302,0.0983122,1.37423,0.40262,0.518007,0.0136138,0.651123,-0.13534,0.436441,0.0514613,-0.00114037,0.412174,-25.2864,0.139784,25.3323,2.64557,1.86577,0.017502,-1.62943,1.85642,-2.67347,-1.21564,0.272904,0.997175,0.989744,0.965182,1.04775,-1.25752,0.717436,-0.350374,-0.00801228,
0.308111,-0.25295,-0.0106409,-1.76028,0.0891272,-0.19778,-0.382663,0.577841,0.00341797,0.661672,-0.186992,0.492728,0.0374794,0.0137664,0,0,0,0,0,0,0,0.320014,-0.252409,0.00412499,-1.76302,0.0983122,1.37423,0.40262,0.518007,0.0136138,0.651123,-0.13534,0.436441,0.0514613,-0.00114037,0.412174,-25.2864,0.139784,25.3323,2.64557,1.86577,0.017502,-1.5838,-0.561235,-2.24338,0.437357,0.010209,-0.0230864,0.00561674,0.425551,-0.148191,-0.961897,0.433842,-0.276986,-0.00590741,
0.327137,-0.252307,0.0123456,-1.76522,0.104889,-0.196069,-0.38263,0.612978,0.0119709,0.707716,-0.193487,0.604084,0.0287095,0.0116736,0,0,0,0,0,0,0,0.320014,-0.252409,0.00412499,-1.76302,0.0983122,1.37423,0.40262,0.518007,0.0136138,0.651123,-0.13534,0.436441,0.0514613,-0.00114037,0.412174,-25.2864,0.139784,25.3323,2.64557,1.86577,0.017502,-1.5838,-0.561235,-2.24338,0.437357,0.010209,-0.0230864,0.00561674,0.425551,-0.148191,-0.961897,0.433842,-0.276986,-0.00590741,
0.329645,-0.252239,0.0152461,-1.76601,0.107513,-0.195998,-0.382586,0.626994,0.0169847,0.725122,-0.197485,0.655997,0.0175923,0.0108517,0,0,0,0,0,0,0,0.341431,-0.251544,0.0301966,-1.76816,0.11558,1.37627,0.402628,0.505345,0.0222672,0.615912,-0.117536,0.417399,0.0344303,2.85201e-05,0.00751081,-25.5126,-0.685411,25.4077,1.61926,2.20452,-0.0227812,-0.993606,-0.550066,-2.16852,0.422109,0.385534,-0.0980173,-0.0127117,0.59602,-0.280771,-0.947245,0.405229,-0.229243,-0.00896698,
0.332198,-0.252152,0.0182026,-1.76681,0.110329,-0.19596,-0.382546,0.63821,0.0218348,0.739135,-0.19987,0.704156,0.00963883,0.0101194,0,0,0,0,0,0,0,0.341431,-0.251544,0.0301966,-1.76816,0.11558,1.37627,0.402628,0.505345,0.0222672,0.615912,-0.117536,0.417399,0.0344303,2.85201e-05,0.00751081,-25.5126,-0.685411,25.4077,1.61926,2.20452,-0.0227812,-0.993606,-0.550066,-2.16852,0.422109,0.385534,-0.0980173,-0.0127117,0.59602,-0.280771,-0.947245,0.405229,-0.229243,-0.00896698,
0.334787,-0.252047,0.0212039,-1.76762,0.113322,-0.195941,-0.382508,0.647095,0.0262608,0.750334,-0.201302,0.748298,0.00477049,0.00946871,0,0,0,0,0,0,0,0.341431,-0.251544,0.0301966,-1.76816,0.11558,1.37627,0.402628,0.505345,0.0222672,0.615912,-0.117536,0.417399,0.0344303,2.85201e-05,0.00751081,-25.5126,-0.685411,25.4077,1.61926,2.20452,-0.0227812,-0.395796,0.260352,-2.02008,-0.0809262,0.82619,0.13175,0.181564,0.899703,0.00473298,-0.971483,0.526543,-0.226282,-0.00988804,
0.337403,-0.251926,0.0242407,-1.76842,0.116476,-0.19593,-0.382472,0.654028,0.0301941,0.759189,-0.202069,0.788348,0.00261647,0.00888924,0,0,0,0,0,0,0,0.341431,-0.251544,0.0301966,-1.76816,0.11558,1.37627,0.402628,0.505345,0.0222672,0.615912,-0.117536,0.417399,0.0344303,2.85201e-05,0.00751081,-25.5126,-0.685411,25.4077,1.61926,2.20452,-0.0227812,-0.395796,0.260352,-2.02008,-0.0809262,0.82619,0.13175,0.181564,0.899703,0.00473298,-0.971483,0.526543,-0.226282,-0.00988804,
0.34004,-0.251791,0.027305,-1.76923,0.119773,-0.195919,-0.382439,0.659316,0.0336354,0.766077,-0.202318,0.82438,0.00275249,0.00837201,0,0,0,0,0,0,0,0.341431,-0.251544,0.0301966,-1.76816,0.11558,1.37627,0.402628,0.505345,0.0222672,0.615912,-0.117536,0.417399,0.0344303,2.85201e-05,0.00751081,-25.5126,-0.685411,25.4077,1.61926,2.20452,-0.0227812,-1.14773,0.78623,-2.01587,-0.441228,0.304342,0.48376,0.476018,0.706435,0.459042,-0.942698,0.608506,-0.259769,-0.0123955,
0.327137,-0.252307,0.0123456,-1.76522,0.104888,-0.196068,-0.38263,0.612985,0.0119692,0.707722,-0.193488,0.603987,0.0287429,0.0116731,0,0,0,0,0,0,0,0.341431,-0.251544,0.0301966,-1.76816,0.11558,1.37627,0.402628,0.505345,0.0222672,0.615912,-0.117536,0.417399,0.0344303,2.85201e-05,0.00751081,-25.5126,-0.685411,25.4077,1.61926,2.20452,-0.0227812,-1.47956,-1.3367,-1.89201,0.984823,-0.115616,-0.323608,-0.273057,0.165942,-0.512676,-0.751814,0.363529,-0.20559,-0.00949108,
0.348313,-0.251404,0.0381618,-1.77029,0.121946,-0.193954,-0.38262,0.594284,0.0142134,0.688767,-0.189299,0.585877,0.0413257,0.0118233,0,0,0,0,0,0,0,0.356759,-0.250742,0.0488386,-1.77158,0.12749,1.37765,0.402629,0.519583,0.0381241,0.629936,-0.104386,0.450711,0.0400493,0.00102098,0.336795,-25.9847,-0.812364,25.3323,2.17498,2.17156,-0.050247,-1.47956,-1.3367,-1.89201,0.984823,-0.115616,-0.323608,-0.273057,0.165942,-0.512676,-0.751814,0.363529,-0.20559,-0.00949108,
0.350751,-0.251328,0.0409931,-1.77106,0.124496,-0.193821,-0.382576,0.609602,0.0189654,0.707826,-0.19364,0.637645,0.033434,0.0109471,0,0,0,0,0,0,0,0.356759,-0.250742,0.0488386,-1.77158,0.12749,1.37765,0.402629,0.519583,0.0381241,0.629936,-0.104386,0.450711,0.0400493,0.00102098,0.336795,-25.9847,-0.812364,25.3323,2.17498,2.17156,-0.050247,-1.99268,-0.927656,-1.75088,0.768001,-0.548696,-0.0447639,0.0206139,-0.0541106,-0.213317,-0.635181,0.444242,-0.179803,-0.0123744,
0.353239,-0.251234,0.0438858,-1.77185,0.12724,-0.19371,-0.382536,0.621893,0.0236214,0.723188,-0.196097,0.686022,0.0276633,0.0101642,0,0,0,0,0,0,0,0.356759,-0.250742,0.0488386,-1.77158,0.12749,1.37765,0.402629,0.519583,0.0381241,0.629936,-0.104386,0.450711,0.0400493,0.00102098,0.336795,-25.9847,-0.812364,25.3323,2.17498,2.17156,-0.050247,-1.99268,-0.927656,-1.75088,0.768001,-0.548696,-0.0447639,0.0206139,-0.0541106,-0.213317,-0.635181,0.444242,-0.179803,-0.0123744,
0.355765,-0.251122,0.0468278,-1.77264,0.130163,-0.193613,-0.382498,0.63167,0.0278539,0.735486,-0.197506,0.730641,0.0242857,0.00947166,0,0,0,0,0,0,0,0.356759,-0.250742,0.0488386,-1.77158,0.12749,1.37765,0.402629,0.519583,0.0381241,0.629936,-0.104386,0.450711,0.0400493,0.00102098,0.336795,-25.9847,-0.812364,25.3323,2.17498,2.17156,-0.050247,-1.86878,2.39977,-2.3323,-1.57487,-0.0714713,1.30305,1.33012,0.79331,1.37074,-1.02859,0.803315,-0.246386,-0.0161011,
0.358323,-0.250996,0.0498089,-1.77343,0.133245,-0.19352,-0.382462,0.63946,0.0315789,0.745281,-0.198177,0.770419,0.023118,0.0088603,0,0,0,0,0,0,0,0.356759,-0.250742,0.0488386,-1.77158,0.12749,1.37765,0.402629,0.519583,0.0381241,0.629936,-0.104386,0.450711,0.0400493,0.00102098,0.336795,-25.9847,-0.812364,25.3323,2.17498,2.17156,-0.050247,-1.20696,1.09005,-2.31181,-0.723765,0.341034,0.625175,0.618169,0.823279,0.628726,-1.01582,0.64812,-0.211541,-0.0111308,
0.348314,-0.251404,0.0381623,-1.77029,0.121936,-0.193951,-0.38262,0.59436,0.0141957,0.688832,-0.189308,0.584809,0.0416567,0.011818,0,0,0,0,0,0,0,0.372877,-0.249769,0.0682948,-1.77497,0.141122,1.37911,0.402626,0.499215,0.031615,0.621079,-0.105983,0.406317,0.0446035,-0.000574638,0.182071,-25.6355,-1.23686,24.8364,1.79687,2.20452,0.00376909,-1.20696,1.09005,-2.31181,-0.723765,0.341034,0.625175,0.618169,0.823279,0.628726,-1.01582,0.64812,-0.211541,-0.0111308,
0.37969,-0.249561,0.0762388,-1.77705,0.147448,-0.190839,-0.382628,0.587631,0.01905,0.685607,-0.185886,0.584283,0.0667771,0.0114095,0,0,0,0,0,0,0,0.372877,-0.249769,0.0682948,-1.77497,0.141122,1.37911,0.402626,0.499215,0.031615,0.621079,-0.105983,0.406317,0.0446035,-0.000574638,0.182071,-25.6355,-1.23686,24.8364,1.79687,2.20452,0.00376909,-0.85342,-0.77442,-2.39512,0.487979,0.509846,-0.203335,-0.181202,0.654257,-0.33941,-0.975028,0.423322,-0.154728,-0.00793757,
0.382099,-0.249468,0.079054,-1.77781,0.149993,-0.190598,-0.382586,0.60228,0.0232773,0.703791,-0.190394,0.636265,0.0600303,0.0105729,0,0,0,0,0,0,0,0.372877,-0.249769,0.0682948,-1.77497,0.141122,1.37911,0.402626,0.499215,0.031615,0.621079,-0.105983,0.406317,0.0446035,-0.000574638,0.182071,-25.6355,-1.23686,24.8364,1.79687,2.20452,0.00376909,-0.85342,-0.77442,-2.39512,0.487979,0.509846,-0.203335,-0.181202,0.654257,-0.33941,-0.975028,0.423322,-0.154728,-0.00793757,
0.384556,-0.249358,0.081928,-1.77858,0.152727,-0.190379,-0.382546,0.614171,0.0274432,0.718517,-0.192801,0.683447,0.0547959,0.00981853,0,0,0,0,0,0,0,0.372877,-0.249769,0.0682948,-1.77497,0.141122,1.37911,0.402626,0.499215,0.031615,0.621079,-0.105983,0.406317,0.0446035,-0.000574638,0.182071,-25.6355,-1.23686,24.8364,1.79687,2.20452,0.00376909,-1.16007,-0.59039,-2.74966,0.322765,0.450927,-0.0570944,0.000422054,0.730392,-0.208439,-1.11211,0.494875,-0.177838,-0.00831051,
0.387053,-0.249233,0.0848506,-1.77935,0.15561,-0.190173,-0.38251,0.624291,0.0311988,0.730645,-0.193822,0.720654,0.0515082,0.00915849,0,0,0,0,0,0,0,0.372877,-0.249769,0.0682948,-1.77497,0.141122,1.37911,0.402626,0.499215,0.031615,0.621079,-0.105983,0.406317,0.0446035,-0.000574638,0.182071,-25.6355,-1.23686,24.8364,1.79687,2.20452,0.00376909,-1.16007,-0.59039,-2.74966,0.322765,0.450927,-0.0570944,0.000422054,0.730392,-0.208439,-1.11211,0.494875,-0.177838,-0.00831051,
0.389586,-0.249095,0.0878144,-1.78013,0.158584,-0.189973,-0.382476,0.633273,0.0344127,0.740951,-0.193754,0.74347,0.0501073,0.00855551,0,0,0,0,0,0,0,0.389848,-0.248596,0.0893856,-1.77819,0.155722,1.38063,0.402625,0.48637,0.0290801,0.604918,-0.0888088,0.370453,0.0595976,0.000760256,0.919986,-25.5126,-0.360094,24.9832,1.84539,2.12487,-0.0227812,-0.93885,0.430745,-2.64123,-0.305213,0.67154,0.299611,0.34555,0.973046,0.197836,-1.14356,0.668178,-0.197615,-0.00842777,
0.392148,-0.248947,0.0908129,-1.7809,0.161611,-0.189771,-0.382443,0.6405,0.0369965,0.749612,-0.193211,0.756928,0.0504809,0.00801379,0,0,0,0,0,0,0,0.389848,-0.248596,0.0893856,-1.77819,0.155722,1.38063,0.402625,0.48637,0.0290801,0.604918,-0.0888088,0.370453,0.0595976,0.000760256,0.919986,-25.5126,-0.360094,24.9832,1.84539,2.12487,-0.0227812,-0.93885,0.430745,-2.64123,-0.305213,0.67154,0.299611,0.34555,0.973046,0.197836,-1.14356,0.668178,-0.197615,-0.00842777,
0.379699,-0.249562,0.0762448,-1.77705,0.147343,-0.190813,-0.382629,0.588476,0.0188733,0.686319,-0.185873,0.572147,0.0697256,0.0113498,0,0,0,0,0,0,0,0.389848,-0.248596,0.0893856,-1.77819,0.155722,1.38063,0.402625,0.48637,0.0290801,0.604918,-0.0888088,0.370453,0.0595976,0.000760256,0.919986,-25.5126,-0.360094,24.9832,1.84539,2.12487,-0.0227812,-1.91579,1.19263,-2.74655,-0.889909,-0.00485909,0.836287,0.879642,0.774932,0.827271,-1.13363,0.71023,-0.22091,-0.00881765,
0.396498,-0.248435,0.0971672,-1.78016,0.161647,-0.188998,-0.38263,0.574481,0.0153187,0.672785,-0.178169,0.550373,0.0964649,0.0112842,0,0,0,0,0,0,0,0.389848,-0.248596,0.0893856,-1.77819,0.155722,1.38063,0.402625,0.48637,0.0290801,0.604918,-0.0888088,0.370453,0.0595976,0.000760256,0.919986,-25.5126,-0.360094,24.9832,1.84539,2.12487,-0.0227812,-0.758524,-1.77366,-2.71649,1.04906,0.651291,-0.599156,-0.54001,0.655692,-0.818969,-1.07631,0.343193,-0.145195,-0.00237025,
0.398859,-0.248355,0.0999346,-1.78089,0.164029,-0.188635,-0.382588,0.59031,0.0199852,0.691873,-0.182957,0.595458,0.0906842,0.0104522,0,0,0,0,0,0,0,0.389848,-0.248596,0.0893856,-1.77819,0.155722,1.38063,0.402625,0.48637,0.0290801,0.604918,-0.0888088,0.370453,0.0595976,0.000760256,0.919986,-25.5126,-0.360094,24.9832,1.84539,2.12487,-0.0227812,-0.758524,-1.77366,-2.71649,1.04906,0.651291,-0.599156,-0.54001,0.655692,-0.818969,-1.07631,0.343193,-0.145195,-0.00237025,
0.401275,-0.248257,0.102767,-1.78163,0.166534,-0.188292,-0.38255,0.604079,0.0245053,0.707981,-0.185099,0.626355,0.0857675,0.00967919,0,0,0,0,0,0,0,0.389848,-0.248596,0.0893856,-1.77819,0.155722,1.38063,0.402625,0.48637,0.0290801,0.604918,-0.0888088,0.370453,0.0595976,0.000760256,0.919986,-25.5126,-0.360094,24.9832,1.84539,2.12487,-0.0227812,-1.69727,-0.214429,-2.76089,0.00417619,0.0624648,0.239317,0.262624,0.604161,0.16812,-1.08346,0.545674,-0.181023,-0.00625281,
0.403736,-0.248144,0.105653,-1.78237,0.169126,-0.187962,-0.382514,0.615333,0.0283921,0.721485,-0.186091,0.647889,0.0825218,0.00898524,0,0,0,0,0,0,0,0.405416,-0.247507,0.108684,-1.78114,0.169211,1.38265,0.402629,0.490535,0.0287731,0.600572,-0.100058,0.408947,0.0781366,0.000965049,0.134464,-25.5602,-1.28844,25.3839,2.03491,1.90606,-0.0365141,-1.69727,-0.214429,-2.76089,0.00417619,0.0624648,0.239317,0.262624,0.604161,0.16812,-1.08346,0.545674,-0.181023,-0.00625281,
0.406233,-0.248017,0.108582,-1.78312,0.171781,-0.187638,-0.38248,0.624189,0.0315868,0.732485,-0.186517,0.663735,0.0809812,0.00837053,0,0,0,0,0,0,0,0.405416,-0.247507,0.108684,-1.78114,0.169211,1.38265,0.402629,0.490535,0.0287731,0.600572,-0.100058,0.408947,0.0781366,0.000965049,0.134464,-25.5602,-1.28844,25.3839,2.03491,1.90606,-0.0365141,-2.06727,1.61048,-2.76862,-1.21968,-0.066079,1.04514,1.04644,0.843435,1.10566,-1.16508,0.777501,-0.242032,-0.00751872,
0.408757,-0.247881,0.111547,-1.78387,0.174484,-0.187314,-0.382449,0.630883,0.034164,0.74119,-0.186582,0.675952,0.080959,0.0078821,0,0,0,0,0,0,0,0.405416,-0.247507,0.108684,-1.78114,0.169211,1.38265,0.402629,0.490535,0.0287731,0.600572,-0.100058,0.408947,0.0781366,0.000965049,0.134464,-25.5602,-1.28844,25.3839,2.03491,1.90606,-0.0365141,-1.72622,1.11584,-2.93975,-1.00014,0.156158,0.785951,0.810352,0.92327,0.811129,-1.2159,0.639981,-0.209332,-0.00808118,
0.396565,-0.248445,0.0972122,-1.78015,0.160828,-0.188854,-0.382635,0.580912,0.0141302,0.678154,-0.17737,0.4561,0.113111,0.0108087,0,0,0,0,0,0,0,0.405416,-0.247507,0.108684,-1.78114,0.169211,1.38265,0.402629,0.490535,0.0287731,0.600572,-0.100058,0.408947,0.0781366,0.000965049,0.134464,-25.5602,-1.28844,25.3839,2.03491,1.90606,-0.0365141,-1.72622,1.11584,-2.93975,-1.00014,0.156158,0.785951,0.810352,0.92327,0.811129,-1.2159,0.639981,-0.209332,-0.00808118,
0.412106,-0.247313,0.116496,-1.78309,0.174527,-0.186661,-0.382636,0.578901,0.0179222,0.676816,-0.174474,0.456016,0.128191,0.0104219,0,0,0,0,0,0,0,0.405416,-0.247507,0.108684,-1.78114,0.169211,1.38265,0.402629,0.490535,0.0287731,0.600572,-0.100058,0.408947,0.0781366,0.000965049,0.134464,-25.5602,-1.28844,25.3839,2.03491,1.90606,-0.0365141,-1.25126,-0.895056,-2.84729,0.345457,0.368848,-0.0899725,-0.00644023,0.700359,-0.245045,-1.1412,0.420258,-0.178965,-0.00607169,
0.414485,-0.247226,0.119282,-1.7838,0.176379,-0.186153,-0.382598,0.594881,0.0217479,0.696691,-0.178304,0.463002,0.126962,0.00959998,0,0,0,0,0,0,0,0.421346,-0.246684,0.128365,-1.78444,0.181877,1.38571,0.402632,0.514882,0.0298812,0.624156,-0.103911,0.43099,0.118038,0.00121195,0.0828892,-25.6117,-1.51061,25.1102,2.14477,1.9793,-0.0429228,-1.25126,-0.895056,-2.84729,0.345457,0.368848,-0.0899725,-0.00644023,0.700359,-0.245045,-1.1412,0.420258,-0.178965,-0.00607169,
0.416915,-0.247125,0.122133,-1.78453,0.178254,-0.18565,-0.382562,0.607399,0.0253327,0.712598,-0.180371,0.468804,0.125641,0.00886645,0,0,0,0,0,0,0,0.421346,-0.246684,0.128365,-1.78444,0.181877,1.38571,0.402632,0.514882,0.0298812,0.624156,-0.103911,0.43099,0.118038,0.00121195,0.0828892,-25.6117,-1.51061,25.1102,2.14477,1.9793,-0.0429228,-1.33155,-1.12975,-2.63958,0.581158,0.296514,-0.156001,-0.079946,0.591796,-0.334125,-1.07997,0.478311,-0.208405,-0.00550179,
0.419383,-0.247011,0.125033,-1.78525,0.180152,-0.18515,-0.382529,0.616939,0.0284179,0.725087,-0.181561,0.474343,0.125001,0.00828296,0,0,0,0,0,0,0,0.421346,-0.246684,0.128365,-1.78444,0.181877,1.38571,0.402632,0.514882,0.0298812,0.624156,-0.103911,0.43099,0.118038,0.00121195,0.0828892,-25.6117,-1.51061,25.1102,2.14477,1.9793,-0.0429228,-1.33155,-1.12975,-2.63958,0.581158,0.296514,-0.156001,-0.079946,0.591796,-0.334125,-1.07997,0.478311,-0.208405,-0.00550179,
0.421881,-0.246887,0.127973,-1.78598,0.18205,-0.18465,-0.382498,0.624686,0.0310298,0.734876,-0.181893,0.474575,0.125167,0.0077034,0,0,0,0,0,0,0,0.421346,-0.246684,0.128365,-1.78444,0.181877,1.38571,0.402632,0.514882,0.0298812,0.624156,-0.103911,0.43099,0.118038,0.00121195,0.0828892,-25.6117,-1.51061,25.1102,2.14477,1.9793,-0.0429228,-1.52588,0.474094,-2.78166,-0.532221,0.295172,0.501498,0.538051,0.887682,0.457542,-1.18705,0.663862,-0.233335,-0.00745399,
0.412342,-0.247336,0.116648,-1.78304,0.171554,-0.186309,-0.382654,0.600602,0.0146371,0.694811,-0.169704,0.117165,0.168347,0.00896887,0,0,0,0,0,0,0,0.421346,-0.246684,0.128365,-1.78444,0.181877,1.38571,0.402632,0.514882,0.0298812,0.624156,-0.103911,0.43099,0.118038,0.00121195,0.0828892,-25.6117,-1.51061,25.1102,2.14477,1.9793,-0.0429228,-1.13082,0.503559,-2.68714,-0.608729,0.461984,0.419105,0.444827,0.94753,0.396501,-1.13621,0.562579,-0.182667,-0.00791947,
0.428418,-0.246482,0.13653,-1.78629,0.18431,-0.182909,-0.382658,0.609162,0.0167653,0.707524,-0.165026,0.117122,0.193627,0.00842903,0,0,0,0,0,0,0,0.421346,-0.246684,0.128365,-1.78444,0.181877,1.38571,0.402632,0.514882,0.0298812,0.624156,-0.103911,0.43099,0.118038,0.00121195,0.0828892,-25.6117,-1.51061,25.1102,2.14477,1.9793,-0.0429228,-1.13082,0.503559,-2.68714,-0.608729,0.461984,0.419105,0.444827,0.94753,0.396501,-1.13621,0.562579,-0.182667,-0.00791947,
0.430903,-0.246407,0.139432,-1.78697,0.184547,-0.18212,-0.382627,0.621373,0.0188795,0.725466,-0.169405,0.0593054,0.197303,0.0078785,0,0,0,0,0,0,0,0.436817,-0.246017,0.147516,-1.78776,0.192424,1.38965,0.402627,0.513753,0.0196564,0.612978,-0.112174,0.310096,0.12284,-0.000782683,0.638309,-24.9373,-1.31224,24.6619,1.10016,2.23107,-0.0026396,-0.195781,-0.725865,-2.88377,0.0625267,1.06605,-0.273559,-0.211017,1.10178,-0.395439,-1.22248,0.308347,-0.142493,-0.00601498,
0.433425,-0.246322,0.142386,-1.78766,0.184593,-0.181325,-0.382597,0.630338,0.0212286,0.738412,-0.171896,0.0113736,0.198666,0.00733824,0,0,0,0,0,0,0,0.436817,-0.246017,0.147516,-1.78776,0.192424,1.38965,0.402627,0.513753,0.0196564,0.612978,-0.112174,0.310096,0.12284,-0.000782683,0.638309,-24.9373,-1.31224,24.6619,1.10016,2.23107,-0.0026396,-0.195781,-0.725865,-2.88377,0.0625267,1.06605,-0.273559,-0.211017,1.10178,-0.395439,-1.22248,0.308347,-0.142493,-0.00601498,
0.435968,-0.246228,0.145375,-1.78835,0.184492,-0.180529,-0.38257,0.635935,0.0233854,0.747469,-0.173647,-0.0251967,0.199167,0.0069271,0,0,0,0,0,0,0,0.436817,-0.246017,0.147516,-1.78776,0.192424,1.38965,0.402627,0.513753,0.0196564,0.612978,-0.112174,0.310096,0.12284,-0.000782683,0.638309,-24.9373,-1.31224,24.6619,1.10016,2.23107,-0.0026396,-1.00178,0.8817,-3.09373,-1.09019,0.652803,0.547118,0.599578,1.23639,0.557672,-1.33537,0.487875,-0.204203,-0.00679911,
0.438527,-0.246127,0.14839,-1.78905,0.184263,-0.179731,-0.382543,0.639577,0.0253504,0.753558,-0.174611,-0.0572285,0.199353,0.0066013,0,0,0,0,0,0,0,0.436817,-0.246017,0.147516,-1.78776,0.192424,1.38965,0.402627,0.513753,0.0196564,0.612978,-0.112174,0.310096,0.12284,-0.000782683,0.638309,-24.9373,-1.31224,24.6619,1.10016,2.23107,-0.0026396,-1.00178,0.8817,-3.09373,-1.09019,0.652803,0.547118,0.599578,1.23639,0.557672,-1.33537,0.487875,-0.204203,-0.00679911,
0.441093,-0.246019,0.151419,-1.78975,0.183918,-0.178933,-0.382518,0.641536,0.0270501,0.757432,-0.175054,-0.0862553,0.199633,0.00631796,0,0,0,0,0,0,0,0.436817,-0.246017,0.147516,-1.78776,0.192424,1.38965,0.402627,0.513753,0.0196564,0.612978,-0.112174,0.310096,0.12284,-0.000782683,0.638309,-24.9373,-1.31224,24.6619,1.10016,2.23107,-0.0026396,-0.696855,-0.124001,-2.51635,-0.308125,0.656635,0.100796,0.147617,0.954177,0.0402848,-1.12081,0.388805,-0.210892,-0.00103897,
0.428629,-0.246605,0.136601,-1.78634,0.179214,-0.181555,-0.382667,0.622441,0.00380087,0.715167,-0.168172,-0.458283,0.336031,0.00809975,0,0,0,0,0,0,0,0.458752,-0.245025,0.174584,-1.79165,0.197929,1.39567,0.402626,0.5229,0.0306136,0.638548,-0.0835387,-0.00399002,0.154574,-0.000729446,0.0828892,-25.0881,-1.83592,25.2094,0.971981,2.05804,0.0101778,-1.69897,-0.211958,-2.51365,-0.343125,-0.179342,0.384189,0.426576,0.531737,0.385656,-1.0179,0.274278,-0.20849,-0.00301769,
0.465804,-0.244963,0.182742,-1.79348,0.192681,-0.171546,-0.382663,0.596726,0.00218686,0.699139,-0.167281,-0.577971,0.332573,0.00891269,0,0,0,0,0,0,0,0.458752,-0.245025,0.174584,-1.79165,0.197929,1.39567,0.402626,0.5229,0.0306136,0.638548,-0.0835387,-0.00399002,0.154574,-0.000729446,0.0828892,-25.0881,-1.83592,25.2094,0.971981,2.05804,0.0101778,-1.69897,-0.211958,-2.51365,-0.343125,-0.179342,0.384189,0.426576,0.531737,0.385656,-1.0179,0.274278,-0.20849,-0.00301769,
0.468198,-0.24495,0.185573,-1.79417,0.190047,-0.170159,-0.382629,0.598699,0.00333847,0.707694,-0.173509,-0.658332,0.346858,0.0085524,0,0,0,0,0,0,0,0.458752,-0.245025,0.174584,-1.79165,0.197929,1.39567,0.402626,0.5229,0.0306136,0.638548,-0.0835387,-0.00399002,0.154574,-0.000729446,0.0828892,-25.0881,-1.83592,25.2094,0.971981,2.05804,0.0101778,-0.451927,-1.32674,-2.42229,0.295425,0.532125,-0.355127,-0.313309,0.678129,-0.4221,-1.01582,-0.00513239,-0.163312,-0.000703405,
0.470591,-0.244928,0.188418,-1.79488,0.18719,-0.168741,-0.382596,0.598208,0.00540428,0.711349,-0.17719,-0.714295,0.354364,0.00826593,0,0,0,0,0,0,0,0.458752,-0.245025,0.174584,-1.79165,0.197929,1.39567,0.402626,0.5229,0.0306136,0.638548,-0.0835387,-0.00399002,0.154574,-0.000729446,0.0828892,-25.0881,-1.83592,25.2094,0.971981,2.05804,0.0101778,-0.451927,-1.32674,-2.42229,0.295425,0.532125,-0.355127,-0.313309,0.678129,-0.4221,-1.01582,-0.00513239,-0.163312,-0.000703405,
0.472975,-0.244897,0.191265,-1.7956,0.184173,-0.167309,-0.382564,0.596001,0.00774126,0.711875,-0.17945,-0.754241,0.358045,0.00802129,0,0,0,0,0,0,0,0.458752,-0.245025,0.174584,-1.79165,0.197929,1.39567,0.402626,0.5229,0.0306136,0.638548,-0.0835387,-0.00399002,0.154574,-0.000729446,0.0828892,-25.0881,-1.83592,25.2094,0.971981,2.05804,0.0101778,-1.39806,0.654919,-2.87521,-1.25507,0.0159568,0.652911,0.669385,0.900028,0.790071,-1.20114,0.0898665,-0.207983,-0.00751253,
0.475345,-0.244857,0.194107,-1.79632,0.181043,-0.165871,-0.382532,0.592526,0.0100518,0.710308,-0.180884,-0.782473,0.359533,0.00781138,0,0,0,0,0,0,0,0.458752,-0.245025,0.174584,-1.79165,0.197929,1.39567,0.402626,0.5229,0.0306136,0.638548,-0.0835387,-0.00399002,0.154574,-0.000729446,0.0828892,-25.0881,-1.83592,25.2094,0.971981,2.05804,0.0101778,-0.810999,0.21379,-2.46631,-0.923273,0.228424,0.340789,0.384958,0.835801,0.420679,-1.05467,-0.0443698,-0.178854,-0.00503838,
