PerkyPenguin/Analysis-on-Approximated-Derivatives/Code_and_Data/PaperData/Real_Robot/Scene_2/contact_change/17/trajectory.csv
Commanded Joint 0 Position,Commanded Joint 1 Position,Commanded Joint 2 Position,Commanded Joint 3 Position,Commanded Joint 4 Position,Commanded Joint 5 Position,Commanded Joint 6 Position,Commanded Joint 0 Velocity,Commanded Joint 1 Velocity,Commanded Joint 2 Velocity,Commanded Joint 3 Velocity,Commanded Joint 4 Velocity,Commanded Joint 5 Velocity,Commanded Joint 6 Velocity,Commanded Joint 0 Torque,Commanded Joint 1 Torque,Commanded Joint 2 Torque,Commanded Joint 3 Torque,Commanded Joint 4 Torque,Commanded Joint 5 Torque,Commanded Joint 6 Torque,Actual Joint 0 Position,Actual Joint 1 Position,Actual Joint 2 Position,Actual Joint 3 Position,Actual Joint 4 Position,Actual Joint 5 Position,Actual Joint 6 Position,Actual Joint 0 Velocity,Actual Joint 1 Velocity,Actual Joint 2 Velocity,Actual Joint 3 Velocity,Actual Joint 4 Velocity,Actual Joint 5 Velocity,Actual Joint 6 Velocity,Actual Joint 0 Torque,Actual Joint 1 Torque,Actual Joint 2 Torque,Actual Joint 3 Torque,Actual Joint 4 Torque,Actual Joint 5 Torque,Actual Joint 6 Torque,EE ext force 0,EE ext force 1,EE ext force 2,EE ext force 3,EE ext force 4,EE ext force 5,joint ext torque 0,joint ext torque 1,joint ext torque 2,joint ext torque 3,joint ext torque 4,joint ext torque 5,joint ext torque 6,
0.0189902,-0.0521304,0.513078,-1.56061,0.0404895,-0.011321,0.532083,0.0112703,0.0302323,0.0154564,-0.143814,-0.0769367,0.199611,-0.00127536,0,0,0,0,0,0,0,0.0189012,-0.0522543,0.512961,-1.55918,0.0411823,1.5575,1.3175,-0.000333664,0.000824917,3.85505e-05,0.000550773,0.00416833,-0.000128746,0.000664237,0.209842,-27.5081,-0.736986,26.951,0.690914,3.05962,0.0706026,2.22693,1.88541,2.08445,-0.938107,1.28496,0.163901,0.153933,0.548315,0.188859,0.154672,0.195044,-0.337973,0.0863584,
0.0190487,-0.0519281,0.513156,-1.56123,0.0401119,-0.0104897,0.532078,0.0146397,0.0505629,0.0195723,-0.1546,-0.0944139,0.207821,-0.00135696,0,0,0,0,0,0,0,0.0189012,-0.0522543,0.512961,-1.55918,0.0411823,1.5575,1.3175,-0.000333664,0.000824917,3.85505e-05,0.000550773,0.00416833,-0.000128746,0.000664237,0.209842,-27.5081,-0.736986,26.951,0.690914,3.05962,0.0706026,2.11234,1.9376,2.09332,-0.967652,1.19491,0.22136,0.212316,0.496688,0.246042,0.17081,0.202356,-0.334146,0.0850976,
0.0189006,-0.0522485,0.512961,-1.55918,0.0412188,-0.0132931,0.532098,1.23617e-05,0.000216296,6.14793e-05,-2.29726e-05,0.00144188,0.000152144,2.25887e-06,0,0,0,0,0,0,0,0.0189012,-0.0522543,0.512961,-1.55918,0.0411823,1.5575,1.3175,-0.000333664,0.000824917,3.85505e-05,0.000550773,0.00416833,-0.000128746,0.000664237,0.209842,-27.5081,-0.736986,26.951,0.690914,3.05962,0.0706026,2.11234,1.9376,2.09332,-0.967652,1.19491,0.22136,0.212316,0.496688,0.246042,0.17081,0.202356,-0.334146,0.0850976,
0.0189007,-0.0522479,0.512961,-1.55918,0.0412232,-0.0132927,0.532098,2.66405e-05,0.000151175,8.39768e-05,-2.72304e-05,0.00108545,9.75818e-05,1.07432e-06,0,0,0,0,0,0,0,0.0189012,-0.0522543,0.512961,-1.55918,0.0411823,1.5575,1.3175,-0.000333664,0.000824917,3.85505e-05,0.000550773,0.00416833,-0.000128746,0.000664237,0.209842,-27.5081,-0.736986,26.951,0.690914,3.05962,0.0706026,2.14092,1.85558,2.15696,-0.887665,1.17808,0.175489,0.167243,0.469472,0.196782,0.209443,0.197113,-0.320311,0.0852961,
0.0189008,-0.0522475,0.512961,-1.55918,0.0412264,-0.0132925,0.532098,3.40262e-05,9.5042e-05,9.79832e-05,-2.57062e-05,0.000811105,4.52794e-05,2.78097e-07,0,0,0,0,0,0,0,0.0189012,-0.0522543,0.512961,-1.55918,0.0411823,1.5575,1.3175,-0.000333664,0.000824917,3.85505e-05,0.000550773,0.00416833,-0.000128746,0.000664237,0.209842,-27.5081,-0.736986,26.951,0.690914,3.05962,0.0706026,2.14092,1.85558,2.15696,-0.887665,1.17808,0.175489,0.167243,0.469472,0.196782,0.209443,0.197113,-0.320311,0.0852961,
0.018901,-0.0522474,0.512962,-1.55918,0.0412288,-0.0132925,0.532098,3.67968e-05,4.62968e-05,0.000106157,-2.11824e-05,0.000598821,-2.54698e-06,-2.02769e-07,0,0,0,0,0,0,0,0.0189138,-0.0523737,0.512967,-1.55964,0.0410829,1.55804,1.31749,0.00160398,-0.00702936,0.00160591,-0.030423,-0.00877888,0.0376558,-0.000655138,0.0313145,-26.5361,-0.788561,26.4035,1.27136,3.20519,0.104477,1.69376,1.29512,1.86374,-0.546975,0.918499,0.0427681,0.0347487,0.355903,0.0561203,0.186071,0.166855,-0.299341,0.0861273,
0.0189011,-0.0522473,0.512962,-1.55918,0.0412306,-0.0132927,0.532098,3.66098e-05,3.87604e-06,0.000110436,-1.50985e-05,0.000433492,-4.52384e-05,-4.54704e-07,0,0,0,0,0,0,0,0.0189138,-0.0523737,0.512967,-1.55964,0.0410829,1.55804,1.31749,0.00160398,-0.00702936,0.00160591,-0.030423,-0.00877888,0.0376558,-0.000655138,0.0313145,-26.5361,-0.788561,26.4035,1.27136,3.20519,0.104477,0.985041,1.33398,1.32602,-0.66405,0.574839,0.258114,0.240852,0.249993,0.285582,0.0785527,0.19697,-0.270093,0.0869973,
0.0189013,-0.0522475,0.512963,-1.55918,0.0412318,-0.013293,0.532098,3.46239e-05,-3.30669e-05,0.000112185,-8.29312e-06,0.000303818,-8.28012e-05,-5.50597e-07,0,0,0,0,0,0,0,0.0189138,-0.0523737,0.512967,-1.55964,0.0410829,1.55804,1.31749,0.00160398,-0.00702936,0.00160591,-0.030423,-0.00877888,0.0376558,-0.000655138,0.0313145,-26.5361,-0.788561,26.4035,1.27136,3.20519,0.104477,0.985041,1.33398,1.32602,-0.66405,0.574839,0.258114,0.240852,0.249993,0.285582,0.0785527,0.19697,-0.270093,0.0869973,
0.0194234,-0.0523442,0.513474,-1.55873,0.0273818,-0.0216998,0.532055,0.00583734,-0.00581607,0.00597312,0.00212836,-0.370832,-0.233469,-0.00105029,0,0,0,0,0,0,0,0.0189138,-0.0523737,0.512967,-1.55964,0.0410829,1.55804,1.31749,0.00160398,-0.00702936,0.00160591,-0.030423,-0.00877888,0.0376558,-0.000655138,0.0313145,-26.5361,-0.788561,26.4035,1.27136,3.20519,0.104477,2.26876,2.04689,0.963151,-1.29211,1.66355,0.220896,0.199593,0.918349,0.271878,-0.196445,0.183911,-0.254402,0.0873721,
0.0194517,-0.0523738,0.513507,-1.55935,0.0277811,-0.0206532,0.532053,0.00551161,-0.00473436,0.00570171,0.00139895,-0.351627,-0.222997,-0.000959573,0,0,0,0,0,0,0,0.0189138,-0.0523737,0.512967,-1.55964,0.0410829,1.55804,1.31749,0.00160398,-0.00702936,0.00160591,-0.030423,-0.00877888,0.0376558,-0.000655138,0.0313145,-26.5361,-0.788561,26.4035,1.27136,3.20519,0.104477,2.26876,2.04689,0.963151,-1.29211,1.66355,0.220896,0.199593,0.918349,0.271878,-0.196445,0.183911,-0.254402,0.0873721,
0.0194697,-0.0523923,0.513526,-1.55935,0.0263611,-0.0215578,0.532049,0.0044802,-0.00461658,0.00466503,0.000878161,-0.35501,-0.226153,-0.000937183,0,0,0,0,0,0,0,0.0189222,-0.0523481,0.512976,-1.55975,0.0410547,1.5582,1.3175,0.00718308,0.000330619,0.00344881,-0.000499789,-0.0139435,0.00108711,0.000892294,-0.0956386,-27.5835,-0.963121,27.1771,1.10016,3.21892,0.0641939,2.7084,1.98251,1.46233,-1.12233,1.76297,0.0683622,0.043908,0.868444,0.11488,-0.00751046,0.163525,-0.214733,0.086229,
0.0194838,-0.05241,0.513541,-1.55935,0.0249311,-0.0224719,0.532046,0.00352843,-0.00441843,0.00370742,0.000422949,-0.357505,-0.228525,-0.000915512,0,0,0,0,0,0,0,0.0189222,-0.0523481,0.512976,-1.55975,0.0410547,1.5582,1.3175,0.00718308,0.000330619,0.00344881,-0.000499789,-0.0139435,0.00108711,0.000892294,-0.0956386,-27.5835,-0.963121,27.1771,1.10016,3.21892,0.0641939,2.7084,1.98251,1.46233,-1.12233,1.76297,0.0683622,0.043908,0.868444,0.11488,-0.00751046,0.163525,-0.214733,0.086229,
0.0194944,-0.0524266,0.513552,-1.55935,0.023494,-0.0233929,0.532042,0.00265457,-0.00416455,0.00282753,2.376e-05,-0.359269,-0.230248,-0.00089474,0,0,0,0,0,0,0,0.0189222,-0.0523481,0.512976,-1.55975,0.0410547,1.5582,1.3175,0.00718308,0.000330619,0.00344881,-0.000499789,-0.0139435,0.00108711,0.000892294,-0.0956386,-27.5835,-0.963121,27.1771,1.10016,3.21892,0.0641939,2.48886,2.41844,1.58991,-1.36735,1.57776,0.32893,0.296597,0.758029,0.388033,0.045735,0.228313,-0.212755,0.087922,
0.0195018,-0.0524421,0.51356,-1.55935,0.0220523,-0.0243187,0.532039,0.00185535,-0.00387415,0.00202229,-0.000327031,-0.36043,-0.231435,-0.000874945,0,0,0,0,0,0,0,0.0189222,-0.0523481,0.512976,-1.55975,0.0410547,1.5582,1.3175,0.00718308,0.000330619,0.00344881,-0.000499789,-0.0139435,0.00108711,0.000892294,-0.0956386,-27.5835,-0.963121,27.1771,1.10016,3.21892,0.0641939,2.11054,2.4787,1.6485,-1.46445,1.23937,0.456698,0.416589,0.546958,0.527193,0.0941782,0.158231,-0.220379,0.0895895,
0.0195063,-0.0524564,0.513565,-1.55935,0.0206079,-0.0252474,0.532035,0.00112663,-0.0035621,0.0012877,-0.000635605,-0.361088,-0.232177,-0.000856136,0,0,0,0,0,0,0,0.0189222,-0.0523481,0.512976,-1.55975,0.0410547,1.5582,1.3175,0.00718308,0.000330619,0.00344881,-0.000499789,-0.0139435,0.00108711,0.000892294,-0.0956386,-27.5835,-0.963121,27.1771,1.10016,3.21892,0.0641939,2.11054,2.4787,1.6485,-1.46445,1.23937,0.456698,0.416589,0.546958,0.527193,0.0941782,0.158231,-0.220379,0.0895895,
0.0199333,-0.052408,0.513909,-1.55798,-0.000511855,-0.0550364,0.531568,0.00261392,-0.00940679,0.0016876,0.000963462,-1.13656,-1.16226,-0.0108573,0,0,0,0,0,0,0,0.0190203,-0.0523534,0.513067,-1.55972,0.0364117,1.5579,1.31749,0.00397155,-0.00088696,0.00310684,-0.000589957,-0.188416,-0.0198593,-0.00166771,-0.781979,-27.5081,-1.58599,27.0779,0.379635,2.98638,0.11821,1.82695,2.30469,1.93077,-1.3525,0.878838,0.452196,0.406983,0.279699,0.524945,0.225297,0.0643347,-0.230746,0.0896878,
0.0198399,-0.0524842,0.513815,-1.55816,-0.00775779,-0.0517726,0.53162,0.000447974,-0.00857396,-0.000380795,0.000677564,-1.15322,-1.05856,-0.00961304,0,0,0,0,0,0,0,0.0190203,-0.0523534,0.513067,-1.55972,0.0364117,1.5579,1.31749,0.00397155,-0.00088696,0.00310684,-0.000589957,-0.188416,-0.0198593,-0.00166771,-0.781979,-27.5081,-1.58599,27.0779,0.379635,2.98638,0.11821,1.82695,2.30469,1.93077,-1.3525,0.878838,0.452196,0.406983,0.279699,0.524945,0.225297,0.0643347,-0.230746,0.0896878,
0.0198304,-0.052511,0.513802,-1.55817,-0.0124301,-0.0560513,0.531582,-0.00237518,-0.00670971,-0.00317115,-0.00259582,-1.16808,-1.06966,-0.00947841,0,0,0,0,0,0,0,0.0190203,-0.0523534,0.513067,-1.55972,0.0364117,1.5579,1.31749,0.00397155,-0.00088696,0.00310684,-0.000589957,-0.188416,-0.0198593,-0.00166771,-0.781979,-27.5081,-1.58599,27.0779,0.379635,2.98638,0.11821,2.01081,2.41553,1.96317,-1.51895,1.01835,0.447909,0.401911,0.360642,0.528175,0.158267,-0.0069376,-0.287497,0.0892358,
0.0198104,-0.05253,0.513779,-1.55819,-0.0171519,-0.0603598,0.531545,-0.00499835,-0.00472861,-0.0057685,-0.00545331,-1.18044,-1.07714,-0.0093451,0,0,0,0,0,0,0,0.0190203,-0.0523534,0.513067,-1.55972,0.0364117,1.5579,1.31749,0.00397155,-0.00088696,0.00310684,-0.000589957,-0.188416,-0.0198593,-0.00166771,-0.781979,-27.5081,-1.58599,27.0779,0.379635,2.98638,0.11821,2.01081,2.41553,1.96317,-1.51895,1.01835,0.447909,0.401911,0.360642,0.528175,0.158267,-0.0069376,-0.287497,0.0892358,
0.0197807,-0.0525408,0.513746,-1.55822,-0.0219149,-0.0646862,0.531508,-0.00742577,-0.00270415,-0.00817609,-0.00794454,-1.19076,-1.0816,-0.00921347,0,0,0,0,0,0,0,0.0190203,-0.0523534,0.513067,-1.55972,0.0364117,1.5579,1.31749,0.00397155,-0.00088696,0.00310684,-0.000589957,-0.188416,-0.0198593,-0.00166771,-0.781979,-27.5081,-1.58599,27.0779,0.379635,2.98638,0.11821,3.08647,3.25674,2.24848,-2.09579,1.66735,0.520284,0.476492,0.65779,0.613746,0.171431,-0.0420646,-0.242407,0.0938832,
0.0197421,-0.0525435,0.513705,-1.55826,-0.0267125,-0.0690204,0.531471,-0.0096647,-0.000690807,-0.0104004,-0.0101122,-1.19939,-1.08355,-0.00908367,0,0,0,0,0,0,0,0.0190203,-0.0523534,0.513067,-1.55972,0.0364117,1.5579,1.31749,0.00397155,-0.00088696,0.00310684,-0.000589957,-0.188416,-0.0198593,-0.00166771,-0.781979,-27.5081,-1.58599,27.0779,0.379635,2.98638,0.11821,3.44906,3.8141,2.72341,-2.48566,1.78374,0.659866,0.609997,0.657843,0.770035,0.231869,-0.0987514,-0.301674,0.099612,
0.0196952,-0.0525385,0.513655,-1.55831,-0.0315388,-0.0733541,0.531436,-0.0117242,0.00127191,-0.0124498,-0.0119932,-1.20659,-1.08343,-0.00895573,0,0,0,0,0,0,0,0.0193936,-0.0523723,0.513443,-1.55914,0.0227372,1.55236,1.31749,0.0194946,0.00269376,0.0243346,0.0331611,-0.651169,-0.314119,-0.000683147,-1.44055,-27.6827,-2.23662,25.3601,-2.44202,0.719534,0.0706026,3.44906,3.8141,2.72341,-2.48566,1.78374,0.659866,0.609997,0.657843,0.770035,0.231869,-0.0987514,-0.301674,0.099612,
0.0140795,-0.0512156,0.507672,-1.56171,-0.000643975,-0.0558046,0.527466,-0.165565,0.0562192,-0.175269,-0.0846168,-1.04772,-1.2261,-0.0909544,0,0,0,0,0,0,0,0.0193936,-0.0523723,0.513443,-1.55914,0.0227372,1.55236,1.31749,0.0194946,0.00269376,0.0243346,0.0331611,-0.651169,-0.314119,-0.000683147,-1.44055,-27.6827,-2.23662,25.3601,-2.44202,0.719534,0.0706026,3.48409,2.84222,2.94665,-2.29963,1.82458,0.183498,0.130987,0.689536,0.303432,-0.0367622,-0.571712,-0.693199,0.0980078,
0.0143455,-0.0515605,0.507993,-1.56123,-0.0207502,-0.0655979,0.527954,-0.165124,0.053809,-0.17409,-0.0801968,-1.0846,-1.25058,-0.0803647,0,0,0,0,0,0,0,0.0193936,-0.0523723,0.513443,-1.55914,0.0227372,1.55236,1.31749,0.0194946,0.00269376,0.0243346,0.0331611,-0.651169,-0.314119,-0.000683147,-1.44055,-27.6827,-2.23662,25.3601,-2.44202,0.719534,0.0706026,3.48409,2.84222,2.94665,-2.29963,1.82458,0.183498,0.130987,0.689536,0.303432,-0.0367622,-0.571712,-0.693199,0.0980078,
0.0136609,-0.0513205,0.507273,-1.56156,-0.0251707,-0.0706753,0.527637,-0.171135,0.0600101,-0.180095,-0.0841609,-1.10513,-1.26936,-0.079323,0,0,0,0,0,0,0,0.0193936,-0.0523723,0.513443,-1.55914,0.0227372,1.55236,1.31749,0.0194946,0.00269376,0.0243346,0.0331611,-0.651169,-0.314119,-0.000683147,-1.44055,-27.6827,-2.23662,25.3601,-2.44202,0.719534,0.0706026,3.04455,2.12882,2.84215,-2.20407,1.59613,-0.0365244,-0.0907706,0.610569,0.0924421,-0.273084,-0.902561,-0.96307,0.0949904,
0.0129549,-0.0510573,0.506531,-1.56191,-0.0296646,-0.075815,0.527324,-0.176495,0.0657919,-0.185449,-0.087633,-1.12346,-1.28492,-0.0782911,0,0,0,0,0,0,0,0.0193936,-0.0523723,0.513443,-1.55914,0.0227372,1.55236,1.31749,0.0194946,0.00269376,0.0243346,0.0331611,-0.651169,-0.314119,-0.000683147,-1.44055,-27.6827,-2.23662,25.3601,-2.44202,0.719534,0.0706026,2.31292,2.73407,3.71769,-2.37229,0.726403,0.448063,0.397825,-0.0151498,0.572547,0.130819,-0.818844,-0.932562,0.0862365,
0.0122299,-0.0507727,0.50577,-1.56228,-0.0342238,-0.0810061,0.527015,-0.181272,0.0711469,-0.190222,-0.0906529,-1.1398,-1.29777,-0.0772668,0,0,0,0,0,0,0,0.0200455,-0.052494,0.514086,-1.55832,-0.000777768,1.54,1.31739,0.00331765,-0.00564146,0.00419846,0.00353044,-0.800995,-0.462479,-0.0133778,-3.54321,-25.9371,-4.71221,24.8364,-0.695194,0.911795,-0.0227812,2.31292,2.73407,3.71769,-2.37229,0.726403,0.448063,0.397825,-0.0151498,0.572547,0.130819,-0.818844,-0.932562,0.0862365,
0.0114878,-0.0504684,0.504992,-1.56265,-0.0388411,-0.0862395,0.52671,-0.185526,0.076077,-0.194474,-0.0932591,-1.15433,-1.30836,-0.0762486,0,0,0,0,0,0,0,0.0200455,-0.052494,0.514086,-1.55832,-0.000777768,1.54,1.31739,0.00331765,-0.00564146,0.00419846,0.00353044,-0.800995,-0.462479,-0.0133778,-3.54321,-25.9371,-4.71221,24.8364,-0.695194,0.911795,-0.0227812,1.67572,2.7426,3.9927,-2.3466,0.313106,0.647615,0.618177,-0.216106,0.750877,0.130553,-0.757505,-1.09626,0.0594487,
0.00896922,-0.0505203,0.502456,-1.56455,-0.0143229,-0.0636682,0.524054,-0.318967,0.110179,-0.332201,-0.156714,-0.991104,-1.21536,-0.156487,0,0,0,0,0,0,0,0.0200455,-0.052494,0.514086,-1.55832,-0.000777768,1.54,1.31739,0.00331765,-0.00564146,0.00419846,0.00353044,-0.800995,-0.462479,-0.0133778,-3.54321,-25.9371,-4.71221,24.8364,-0.695194,0.911795,-0.0227812,1.67572,2.7426,3.9927,-2.3466,0.313106,0.647615,0.618177,-0.216106,0.750877,0.130553,-0.757505,-1.09626,0.0594487,
0.00956794,-0.0506001,0.503098,-1.56353,-0.0411495,-0.0787821,0.524905,-0.311434,0.106163,-0.323632,-0.144331,-1.01724,-1.23094,-0.13645,0,0,0,0,0,0,0,0.0200455,-0.052494,0.514086,-1.55832,-0.000777768,1.54,1.31739,0.00331765,-0.00564146,0.00419846,0.00353044,-0.800995,-0.462479,-0.0133778,-3.54321,-25.9371,-4.71221,24.8364,-0.695194,0.911795,-0.0227812,2.32531,0.745159,4.03065,-1.17775,0.883461,-0.444147,-0.452195,0.12768,-0.386646,-0.0904214,-1.0247,-1.36182,0.0384153,
0.00828769,-0.0501388,0.501768,-1.56412,-0.0453271,-0.0837708,0.524367,-0.320063,0.115322,-0.332303,-0.148278,-1.0444,-1.24716,-0.134509,0,0,0,0,0,0,0,0.0200455,-0.052494,0.514086,-1.55832,-0.000777768,1.54,1.31739,0.00331765,-0.00564146,0.00419846,0.00353044,-0.800995,-0.462479,-0.0133778,-3.54321,-25.9371,-4.71221,24.8364,-0.695194,0.911795,-0.0227812,2.32531,0.745159,4.03065,-1.17775,0.883461,-0.444147,-0.452195,0.12768,-0.386646,-0.0904214,-1.0247,-1.36182,0.0384153,
0.00697702,-0.049644,0.500409,-1.56473,-0.0496039,-0.0888132,0.523837,-0.327667,0.123691,-0.339943,-0.151701,-1.0692,-1.26061,-0.132583,0,0,0,0,0,0,0,0.0200455,-0.052494,0.514086,-1.55832,-0.000777768,1.54,1.31739,0.00331765,-0.00564146,0.00419846,0.00353044,-0.800995,-0.462479,-0.0133778,-3.54321,-25.9371,-4.71221,24.8364,-0.695194,0.911795,-0.0227812,3.63854,-0.564739,3.90528,-0.433914,1.93022,-1.40435,-1.40445,0.730914,-1.36968,-0.322813,-1.21898,-1.48458,0.0197029,
0.00563957,-0.0491188,0.499022,-1.56535,-0.0539709,-0.0939002,0.523314,-0.334363,0.131308,-0.346674,-0.154635,-1.09175,-1.27174,-0.130671,0,0,0,0,0,0,0,0.0200127,-0.0528224,0.513978,-1.55851,-0.0244992,1.52363,1.31623,-0.0177668,-0.00871332,-0.0172201,-0.0160668,-0.690194,-0.527428,-0.0512579,-5.54669,-24.6874,-6.63634,24.2374,-0.658573,1.26244,-0.0630644,1.36569,-0.616736,3.58418,-0.367614,0.497507,-0.768185,-0.769209,0.0539735,-0.735674,-0.312679,-1.03891,-1.56944,-0.00962348,
0.00427856,-0.048566,0.497611,-1.56598,-0.0584195,-0.0990239,0.522799,-0.340253,0.138212,-0.352596,-0.157113,-1.11216,-1.28091,-0.128769,0,0,0,0,0,0,0,0.0200127,-0.0528224,0.513978,-1.55851,-0.0244992,1.52363,1.31623,-0.0177668,-0.00871332,-0.0172201,-0.0160668,-0.690194,-0.527428,-0.0512579,-5.54669,-24.6874,-6.63634,24.2374,-0.658573,1.26244,-0.0630644,1.36569,-0.616736,3.58418,-0.367614,0.497507,-0.768185,-0.769209,0.0539735,-0.735674,-0.312679,-1.03891,-1.56944,-0.00962348,
0.00289687,-0.0479882,0.49618,-1.56661,-0.0629419,-0.104178,0.522291,-0.345421,0.144445,-0.357798,-0.159172,-1.13058,-1.28843,-0.126875,0,0,0,0,0,0,0,0.0200127,-0.0528224,0.513978,-1.55851,-0.0244992,1.52363,1.31623,-0.0177668,-0.00871332,-0.0172201,-0.0160668,-0.690194,-0.527428,-0.0512579,-5.54669,-24.6874,-6.63634,24.2374,-0.658573,1.26244,-0.0630644,0.666515,-0.509048,3.02254,-0.462433,0.316202,-0.500818,-0.506858,0.106161,-0.4611,-0.516717,-0.864095,-1.62096,-0.0396793,
0.00458643,-0.0496868,0.498041,-1.56654,-0.0353178,-0.0769045,0.52117,-0.453197,0.157081,-0.467745,-0.212777,-0.933485,-1.19647,-0.209138,0,0,0,0,0,0,0,0.0200127,-0.0528224,0.513978,-1.55851,-0.0244992,1.52363,1.31623,-0.0177668,-0.00871332,-0.0172201,-0.0160668,-0.690194,-0.527428,-0.0512579,-5.54669,-24.6874,-6.63634,24.2374,-0.658573,1.26244,-0.0630644,0.666515,-0.509048,3.02254,-0.462433,0.316202,-0.500818,-0.506858,0.106161,-0.4611,-0.516717,-0.864095,-1.62096,-0.0396793,
0.00504207,-0.0500629,0.498482,-1.56592,-0.0588045,-0.0946699,0.521418,-0.433783,0.145749,-0.446889,-0.19018,-0.939518,-1.20434,-0.179699,0,0,0,0,0,0,0,0.0200127,-0.0528224,0.513978,-1.55851,-0.0244992,1.52363,1.31623,-0.0177668,-0.00871332,-0.0172201,-0.0160668,-0.690194,-0.527428,-0.0512579,-5.54669,-24.6874,-6.63634,24.2374,-0.658573,1.26244,-0.0630644,1.52382,-0.485358,2.77875,-0.537459,1.0823,-0.708479,-0.711858,0.587784,-0.667968,-0.712146,-0.852613,-1.6422,-0.0685335,
0.0032624,-0.049434,0.49665,-1.5667,-0.0627059,-0.0995475,0.520711,-0.444918,0.157226,-0.458102,-0.194087,-0.975355,-1.21941,-0.176865,0,0,0,0,0,0,0,0.0186161,-0.0531122,0.512131,-1.5596,-0.046392,1.5059,1.31465,-0.0568543,-0.00955207,-0.0715356,-0.0459423,-0.707311,-0.594341,-0.0454334,-5.97912,-23.6638,-6.91008,24.6381,-0.823368,1.57464,-0.143631,2.27367,-0.036077,2.97118,-0.695149,1.507,-0.686631,-0.696823,0.762399,-0.639021,-0.599447,-0.768154,-1.51038,-0.093798,
0.00144366,-0.0487634,0.494778,-1.56749,-0.0667388,-0.104475,0.520015,-0.454686,0.167647,-0.467938,-0.197442,-1.00821,-1.23187,-0.174054,0,0,0,0,0,0,0,0.0186161,-0.0531122,0.512131,-1.5596,-0.046392,1.5059,1.31465,-0.0568543,-0.00955207,-0.0715356,-0.0459423,-0.707311,-0.594341,-0.0454334,-5.97912,-23.6638,-6.91008,24.6381,-0.823368,1.57464,-0.143631,2.27367,-0.036077,2.97118,-0.695149,1.507,-0.686631,-0.696823,0.762399,-0.639021,-0.599447,-0.768154,-1.51038,-0.093798,
-0.000409324,-0.0480551,0.492872,-1.56829,-0.0708915,-0.109444,0.51933,-0.463245,0.177072,-0.47656,-0.200276,-1.03817,-1.24215,-0.171262,0,0,0,0,0,0,0,0.0186161,-0.0531122,0.512131,-1.5596,-0.046392,1.5059,1.31465,-0.0568543,-0.00955207,-0.0715356,-0.0459423,-0.707311,-0.594341,-0.0454334,-5.97912,-23.6638,-6.91008,24.6381,-0.823368,1.57464,-0.143631,1.57658,0.774229,2.43012,-1.17676,1.15335,-0.0840736,-0.10778,0.643655,-0.0129661,-0.611348,-0.554089,-1.34142,-0.124264,
-0.00229224,-0.0473129,0.490935,-1.5691,-0.0751531,-0.114446,0.518656,-0.47073,0.185564,-0.484104,-0.202623,-1.0654,-1.25058,-0.168485,0,0,0,0,0,0,0,0.0186161,-0.0531122,0.512131,-1.5596,-0.046392,1.5059,1.31465,-0.0568543,-0.00955207,-0.0715356,-0.0459423,-0.707311,-0.594341,-0.0454334,-5.97912,-23.6638,-6.91008,24.6381,-0.823368,1.57464,-0.143631,1.57658,0.774229,2.43012,-1.17676,1.15335,-0.0840736,-0.10778,0.643655,-0.0129661,-0.611348,-0.554089,-1.34142,-0.124264,
-0.00420127,-0.0465401,0.488972,-1.56992,-0.0795133,-0.119476,0.517993,-0.477256,0.193185,-0.490686,-0.204519,-1.09006,-1.25746,-0.165722,0,0,0,0,0,0,0,0.0186161,-0.0531122,0.512131,-1.5596,-0.046392,1.5059,1.31465,-0.0568543,-0.00955207,-0.0715356,-0.0459423,-0.707311,-0.594341,-0.0454334,-5.97912,-23.6638,-6.91008,24.6381,-0.823368,1.57464,-0.143631,0.635248,0.0591611,1.89417,-0.530882,0.606814,-0.112532,-0.147142,0.402393,-0.052659,-0.543051,-0.373769,-1.18994,-0.154392,
-0.00192075,-0.0484475,0.491435,-1.56978,-0.057101,-0.0975799,0.516848,-0.57935,0.206689,-0.593853,-0.258022,-0.90875,-1.18624,-0.245658,0,0,0,0,0,0,0,0.0186161,-0.0531122,0.512131,-1.5596,-0.046392,1.5059,1.31465,-0.0568543,-0.00955207,-0.0715356,-0.0459423,-0.707311,-0.594341,-0.0454334,-5.97912,-23.6638,-6.91008,24.6381,-0.823368,1.57464,-0.143631,0.635248,0.0591611,1.89417,-0.530882,0.606814,-0.112532,-0.147142,0.402393,-0.052659,-0.543051,-0.373769,-1.18994,-0.154392,
-0.0031416,-0.0486752,0.48984,-1.56961,-0.0821318,-0.117092,0.517481,-0.557662,0.191972,-0.570417,-0.226577,-0.943251,-1.19492,-0.203458,0,0,0,0,0,0,0,0.0156633,-0.0534581,0.508168,-1.56163,-0.0685822,1.48487,1.31246,-0.111301,0.00262859,-0.148332,-0.0777769,-0.69193,-0.69964,-0.0846692,-5.77679,-23.8384,-6.88628,25.134,-0.194401,2.31713,-0.197647,0.266858,0.402683,2.30872,-0.400248,0.065782,0.177789,0.142998,-0.0201077,0.225076,-0.126423,-0.16769,-0.94589,-0.179295,
-0.00541514,-0.0478612,0.487515,-1.57053,-0.0860526,-0.121916,0.516682,-0.568385,0.203489,-0.581226,-0.229708,-0.980209,-1.20607,-0.199822,0,0,0,0,0,0,0,0.0156633,-0.0534581,0.508168,-1.56163,-0.0685822,1.48487,1.31246,-0.111301,0.00262859,-0.148332,-0.0777769,-0.69193,-0.69964,-0.0846692,-5.77679,-23.8384,-6.88628,25.134,-0.194401,2.31713,-0.197647,0.266858,0.402683,2.30872,-0.400248,0.065782,0.177789,0.142998,-0.0201077,0.225076,-0.126423,-0.16769,-0.94589,-0.179295,
-0.007726,-0.0470059,0.485152,-1.57146,-0.0901087,-0.126777,0.515897,-0.577714,0.213823,-0.590631,-0.232308,-1.01403,-1.21523,-0.196212,0,0,0,0,0,0,0,0.0156633,-0.0534581,0.508168,-1.56163,-0.0685822,1.48487,1.31246,-0.111301,0.00262859,-0.148332,-0.0777769,-0.69193,-0.69964,-0.0846692,-5.77679,-23.8384,-6.88628,25.134,-0.194401,2.31713,-0.197647,0.71011,1.22686,1.80484,-1.03358,0.540318,0.466075,0.431693,0.311331,0.531378,-0.293444,-0.0986471,-0.838583,-0.203156,
-0.0100692,-0.0461137,0.482757,-1.57239,-0.0942881,-0.131668,0.515126,-0.585804,0.223055,-0.598791,-0.234408,-1.04484,-1.22271,-0.192627,0,0,0,0,0,0,0,0.0156633,-0.0534581,0.508168,-1.56163,-0.0685822,1.48487,1.31246,-0.111301,0.00262859,-0.148332,-0.0777769,-0.69193,-0.69964,-0.0846692,-5.77679,-23.8384,-6.88628,25.134,-0.194401,2.31713,-0.197647,-0.150001,0.641282,1.11808,-0.739313,0.126605,0.458426,0.413326,0.181259,0.528479,-0.417928,-0.103695,-0.80638,-0.224208,
-0.0124404,-0.0451886,0.480334,-1.57334,-0.0985793,-0.136583,0.51437,-0.592788,0.231263,-0.605841,-0.236043,-1.0728,-1.22877,-0.189063,0,0,0,0,0,0,0,0.0156633,-0.0534581,0.508168,-1.56163,-0.0685822,1.48487,1.31246,-0.111301,0.00262859,-0.148332,-0.0777769,-0.69193,-0.69964,-0.0846692,-5.77679,-23.8384,-6.88628,25.134,-0.194401,2.31713,-0.197647,-0.150001,0.641282,1.11808,-0.739313,0.126605,0.458426,0.413326,0.181259,0.528479,-0.417928,-0.103695,-0.80638,-0.224208,
-0.0148355,-0.0442346,0.477886,-1.57429,-0.102972,-0.141518,0.513628,-0.598781,0.238522,-0.611898,-0.237246,-1.0981,-1.23363,-0.18552,0,0,0,0,0,0,0,0.0085382,-0.0534419,0.499499,-1.56583,-0.0974195,1.45254,1.30901,-0.224455,0.000542191,-0.238925,-0.117162,-0.655858,-0.802351,-0.0856425,-6.38379,-23.5408,-7.48534,24.7372,-0.945133,2.07177,-0.298355,0.229168,0.298416,1.22444,-0.340921,0.226204,0.226536,0.176456,0.150732,0.286759,-0.215437,-0.0761569,-0.624169,-0.23747,
-0.00536514,-0.0485963,0.488094,-1.57136,-0.0734883,-0.11048,0.514786,-0.668533,0.224749,-0.682406,-0.282951,-0.828883,-1.14796,-0.275214,0,0,0,0,0,0,0,0.0085382,-0.0534419,0.499499,-1.56583,-0.0974195,1.45254,1.30901,-0.224455,0.000542191,-0.238925,-0.117162,-0.655858,-0.802351,-0.0856425,-6.38379,-23.5408,-7.48534,24.7372,-0.945133,2.07177,-0.298355,0.229168,0.298416,1.22444,-0.340921,0.226204,0.226536,0.176456,0.150732,0.286759,-0.215437,-0.0761569,-0.624169,-0.23747,
-0.0175076,-0.0474069,0.472957,-1.57689,-0.130423,-0.167717,0.511502,-0.670049,0.2323,-0.682637,-0.257993,-0.925227,-1.15645,-0.227552,0,0,0,0,0,0,0,0.0085382,-0.0534419,0.499499,-1.56583,-0.0974195,1.45254,1.30901,-0.224455,0.000542191,-0.238925,-0.117162,-0.655858,-0.802351,-0.0856425,-6.38379,-23.5408,-7.48534,24.7372,-0.945133,2.07177,-0.298355,0.64216,1.39232,0.854426,-1.11415,0.7075,0.64138,0.601995,0.497117,0.712336,-0.395134,0.0575263,-0.571066,-0.257515,
-0.0202314,-0.0464296,0.470183,-1.57793,-0.134278,-0.17238,0.51061,-0.680952,0.244335,-0.69364,-0.260639,-0.963819,-1.16563,-0.223168,0,0,0,0,0,0,0,0.0085382,-0.0534419,0.499499,-1.56583,-0.0974195,1.45254,1.30901,-0.224455,0.000542191,-0.238925,-0.117162,-0.655858,-0.802351,-0.0856425,-6.38379,-23.5408,-7.48534,24.7372,-0.945133,2.07177,-0.298355,0.856799,1.60412,0.775518,-1.35548,0.905028,0.695784,0.660954,0.622025,0.77136,-0.488046,0.00200542,-0.60206,-0.268979,
-0.0229926,-0.0454096,0.46737,-1.57898,-0.138275,-0.177073,0.509734,-0.6903,0.254983,-0.703075,-0.262734,-0.999273,-1.17319,-0.218825,0,0,0,0,0,0,0,0.0085382,-0.0534419,0.499499,-1.56583,-0.0974195,1.45254,1.30901,-0.224455,0.000542191,-0.238925,-0.117162,-0.655858,-0.802351,-0.0856425,-6.38379,-23.5408,-7.48534,24.7372,-0.945133,2.07177,-0.298355,0.856799,1.60412,0.775518,-1.35548,0.905028,0.695784,0.660954,0.622025,0.77136,-0.488046,0.00200542,-0.60206,-0.268979,
-0.0257857,-0.0443522,0.464526,-1.58004,-0.142402,-0.18179,0.508876,-0.698265,0.264353,-0.711119,-0.264302,-1.03168,-1.1794,-0.21452,0,0,0,0,0,0,0,0.0085382,-0.0534419,0.499499,-1.56583,-0.0974195,1.45254,1.30901,-0.224455,0.000542191,-0.238925,-0.117162,-0.655858,-0.802351,-0.0856425,-6.38379,-23.5408,-7.48534,24.7372,-0.945133,2.07177,-0.298355,1.78319,1.33148,0.163473,-1.43816,1.85376,0.344412,0.311408,1.26016,0.427859,-0.879911,-0.132381,-0.689118,-0.276116,
-0.0286057,-0.0432621,0.461654,-1.5811,-0.146647,-0.186528,0.508035,-0.704993,0.272543,-0.71792,-0.26537,-1.06118,-1.18445,-0.210251,0,0,0,0,0,0,0,-3.33227e-05,-0.0532506,0.490322,-1.56992,-0.118008,1.42745,1.30658,-0.297134,0.00297287,-0.333817,-0.13574,-0.588253,-0.74392,-0.0943652,-7.16931,-23.4892,-8.18755,24.0628,-1.01288,1.68084,-0.270889,1.78319,1.33148,0.163473,-1.43816,1.85376,0.344412,0.311408,1.26016,0.427859,-0.879911,-0.132381,-0.689118,-0.276116,
-0.0314481,-0.0421435,0.45876,-1.58216,-0.150998,-0.191282,0.507211,-0.710608,0.279649,-0.723605,-0.265965,-1.08794,-1.18852,-0.206015,0,0,0,0,0,0,0,-3.33227e-05,-0.0532506,0.490322,-1.56992,-0.118008,1.42745,1.30658,-0.297134,0.00297287,-0.333817,-0.13574,-0.588253,-0.74392,-0.0943652,-7.16931,-23.4892,-8.18755,24.0628,-1.01288,1.68084,-0.270889,0.539078,1.0649,-0.110462,-1.28612,1.10614,0.540661,0.499003,0.923681,0.628372,-0.923106,-0.0881198,-0.750578,-0.282759,
-0.019209,-0.0462165,0.472295,-1.57943,-0.128902,-0.166201,0.508173,-0.72653,0.275712,-0.718039,-0.319774,-0.882858,-1.13093,-0.292804,0,0,0,0,0,0,0,-3.33227e-05,-0.0532506,0.490322,-1.56992,-0.118008,1.42745,1.30658,-0.297134,0.00297287,-0.333817,-0.13574,-0.588253,-0.74392,-0.0943652,-7.16931,-23.4892,-8.18755,24.0628,-1.01288,1.68084,-0.270889,0.291995,-0.581795,0.234551,-0.12324,0.759613,-0.165679,-0.206809,0.659295,-0.109887,-0.754833,-0.244554,-0.810493,-0.284609,
-0.0294561,-0.046314,0.461413,-1.58195,-0.151022,-0.18983,0.508419,-0.746488,0.244349,-0.738708,-0.296789,-0.909331,-0.968497,-0.237869,0,0,0,0,0,0,0,-3.33227e-05,-0.0532506,0.490322,-1.56992,-0.118008,1.42745,1.30658,-0.297134,0.00297287,-0.333817,-0.13574,-0.588253,-0.74392,-0.0943652,-7.16931,-23.4892,-8.18755,24.0628,-1.01288,1.68084,-0.270889,0.291995,-0.581795,0.234551,-0.12324,0.759613,-0.165679,-0.206809,0.659295,-0.109887,-0.754833,-0.244554,-0.810493,-0.284609,
-0.0324844,-0.0452929,0.458392,-1.58316,-0.154798,-0.193454,0.507487,-0.757081,0.255263,-0.755272,-0.303204,-0.943942,-0.906037,-0.232879,0,0,0,0,0,0,0,-3.33227e-05,-0.0532506,0.490322,-1.56992,-0.118008,1.42745,1.30658,-0.297134,0.00297287,-0.333817,-0.13574,-0.588253,-0.74392,-0.0943652,-7.16931,-23.4892,-8.18755,24.0628,-1.01288,1.68084,-0.270889,1.22635,-1.48491,0.136955,0.245078,1.49786,-0.810771,-0.838977,1.08603,-0.769487,-0.974377,-0.513804,-0.946979,-0.289716,
-0.0355472,-0.0442324,0.455311,-1.58439,-0.158702,-0.196794,0.506575,-0.765689,0.265115,-0.770174,-0.308229,-0.976086,-0.834994,-0.227997,0,0,0,0,0,0,0,-0.0105182,-0.0523711,0.478884,-1.5746,-0.137642,1.40402,1.30288,-0.352309,0.0321501,-0.377624,-0.161025,-0.595153,-0.678428,-0.127779,-6.2846,-23.4139,-7.16002,23.6899,-1.04309,1.52154,-0.26448,1.22635,-1.48491,0.136955,0.245078,1.49786,-0.810771,-0.838977,1.08603,-0.769487,-0.974377,-0.513804,-0.946979,-0.289716,
-0.0386376,-0.0431373,0.452177,-1.58564,-0.162724,-0.19982,0.505682,-0.772603,0.27379,-0.783625,-0.312163,-1.0055,-0.756397,-0.223214,0,0,0,0,0,0,0,-0.0105182,-0.0523711,0.478884,-1.5746,-0.137642,1.40402,1.30288,-0.352309,0.0321501,-0.377624,-0.161025,-0.595153,-0.678428,-0.127779,-6.2846,-23.4139,-7.16002,23.6899,-1.04309,1.52154,-0.26448,1.02169,-0.671631,-0.0841209,-0.416035,1.5005,-0.376885,-0.405354,1.15069,-0.315706,-1.12766,-0.490721,-0.993835,-0.293764,
-0.0417591,-0.0420113,0.449007,-1.5869,-0.166857,-0.202505,0.504808,-0.780376,0.281501,-0.792381,-0.314974,-1.03322,-0.671162,-0.218475,0,0,0,0,0,0,0,-0.0105182,-0.0523711,0.478884,-1.5746,-0.137642,1.40402,1.30288,-0.352309,0.0321501,-0.377624,-0.161025,-0.595153,-0.678428,-0.127779,-6.2846,-23.4139,-7.16002,23.6899,-1.04309,1.52154,-0.26448,1.02169,-0.671631,-0.0841209,-0.416035,1.5005,-0.376885,-0.405354,1.15069,-0.315706,-1.12766,-0.490721,-0.993835,-0.293764,
-0.026263,-0.0457467,0.464537,-1.58275,-0.147525,-0.18536,0.506382,-0.724662,0.292375,-0.716468,-0.332566,-0.876802,-1.0944,-0.307322,0,0,0,0,0,0,0,-0.0105182,-0.0523711,0.478884,-1.5746,-0.137642,1.40402,1.30288,-0.352309,0.0321501,-0.377624,-0.161025,-0.595153,-0.678428,-0.127779,-6.2846,-23.4139,-7.16002,23.6899,-1.04309,1.52154,-0.26448,1.21137,-0.345869,-0.34441,-0.675781,1.79026,-0.26848,-0.299912,1.37166,-0.196771,-1.27405,-0.446301,-1.00849,-0.295967,
-0.0380264,-0.0451175,0.451818,-1.58706,-0.168295,-0.197467,0.505146,-0.747783,0.255702,-0.739808,-0.338835,-0.883164,-0.361756,-0.254045,0,0,0,0,0,0,0,-0.0105182,-0.0523711,0.478884,-1.5746,-0.137642,1.40402,1.30288,-0.352309,0.0321501,-0.377624,-0.161025,-0.595153,-0.678428,-0.127779,-6.2846,-23.4139,-7.16002,23.6899,-1.04309,1.52154,-0.26448,-1.39913,0.756151,-0.228353,-1.39284,-0.110817,0.862153,0.824666,0.328088,0.954651,-1.07608,-0.332645,-1.02818,-0.298853,
-0.0410732,-0.0440424,0.448803,-1.58841,-0.171958,-0.198513,0.504157,-0.761685,0.268766,-0.753905,-0.338833,-0.915736,-0.261467,-0.247313,0,0,0,0,0,0,0,-0.0105182,-0.0523711,0.478884,-1.5746,-0.137642,1.40402,1.30288,-0.352309,0.0321501,-0.377624,-0.161025,-0.595153,-0.678428,-0.127779,-6.2846,-23.4139,-7.16002,23.6899,-1.04309,1.52154,-0.26448,-1.39913,0.756151,-0.228353,-1.39284,-0.110817,0.862153,0.824666,0.328088,0.954651,-1.07608,-0.332645,-1.02818,-0.298853,
-0.0441685,-0.0429213,0.445738,-1.58975,-0.17574,-0.199222,0.503188,-0.773827,0.280284,-0.766274,-0.33598,-0.945483,-0.177136,-0.242141,0,0,0,0,0,0,0,-0.0235935,-0.0514128,0.465199,-1.58078,-0.155832,1.38548,1.29902,-0.446364,0.0397787,-0.457029,-0.212035,-0.568993,-0.494784,-0.115274,-6.00293,-24.2153,-6.8109,24.5627,-1.62995,2.08459,-0.204056,-0.470452,-0.652999,0.00733288,-0.45671,0.347528,-0.0105325,-0.0516204,0.484036,0.0628875,-0.963444,-0.557834,-0.982894,-0.290221,
-0.0473069,-0.0417627,0.442628,-1.59108,-0.179628,-0.199642,0.50224,-0.784607,0.289634,-0.777301,-0.33214,-0.972125,-0.10499,-0.237174,0,0,0,0,0,0,0,-0.0235935,-0.0514128,0.465199,-1.58078,-0.155832,1.38548,1.29902,-0.446364,0.0397787,-0.457029,-0.212035,-0.568993,-0.494784,-0.115274,-6.00293,-24.2153,-6.8109,24.5627,-1.62995,2.08459,-0.204056,-0.470452,-0.652999,0.00733288,-0.45671,0.347528,-0.0105325,-0.0516204,0.484036,0.0628875,-0.963444,-0.557834,-0.982894,-0.290221,
-0.0504839,-0.0405755,0.43948,-1.5924,-0.183611,-0.199813,0.501311,-0.794234,0.296815,-0.787184,-0.327952,-0.995814,-0.042799,-0.232293,0,0,0,0,0,0,0,-0.0235935,-0.0514128,0.465199,-1.58078,-0.155832,1.38548,1.29902,-0.446364,0.0397787,-0.457029,-0.212035,-0.568993,-0.494784,-0.115274,-6.00293,-24.2153,-6.8109,24.5627,-1.62995,2.08459,-0.204056,2.89691,-1.5504,-0.0833532,0.0763008,2.75433,-1.17632,-1.20837,1.77313,-1.1197,-1.18677,-0.741222,-0.921487,-0.286899,
-0.0536952,-0.0393676,0.436295,-1.59369,-0.187679,-0.199769,0.500401,-0.802849,0.301972,-0.79606,-0.323685,-1.0168,0.011056,-0.227481,0,0,0,0,0,0,0,-0.0235935,-0.0514128,0.465199,-1.58078,-0.155832,1.38548,1.29902,-0.446364,0.0397787,-0.457029,-0.212035,-0.568993,-0.494784,-0.115274,-6.00293,-24.2153,-6.8109,24.5627,-1.62995,2.08459,-0.204056,2.89691,-1.5504,-0.0833532,0.0763008,2.75433,-1.17632,-1.20837,1.77313,-1.1197,-1.18677,-0.741222,-0.921487,-0.286899,
-0.0408156,-0.0424801,0.449025,-1.59016,-0.172299,-0.206597,0.501025,-0.757186,0.315353,-0.7498,-0.390398,-0.923819,-0.612687,-0.308476,0,0,0,0,0,0,0,-0.0235935,-0.0514128,0.465199,-1.58078,-0.155832,1.38548,1.29902,-0.446364,0.0397787,-0.457029,-0.212035,-0.568993,-0.494784,-0.115274,-6.00293,-24.2153,-6.8109,24.5627,-1.62995,2.08459,-0.204056,1.22212,0.496425,0.545869,-1.02812,1.22608,0.184667,0.153546,0.784995,0.258275,-0.707489,-0.474414,-0.738653,-0.287862,
-0.055873,-0.0425013,0.433351,-1.59549,-0.191863,-0.1921,0.500283,-0.77385,0.268029,-0.766445,-0.311873,-0.941061,0.0376464,-0.245767,0,0,0,0,0,0,0,-0.0384005,-0.0500105,0.449992,-1.58842,-0.173709,1.37395,1.29441,-0.488145,0.0560732,-0.496286,-0.253876,-0.56511,-0.23414,-0.15565,-4.48346,-25.5879,-5.23589,25.4831,-1.45874,2.96715,-0.250748,-0.0387168,0.118354,1.19163,-0.537744,-0.116327,0.290476,0.257846,-0.125544,0.34537,-0.171612,-0.450995,-0.569669,-0.282007,
-0.0590105,-0.0414056,0.430242,-1.59672,-0.195727,-0.191846,0.499321,-0.784373,0.273922,-0.777307,-0.309687,-0.96579,0.0636415,-0.240489,0,0,0,0,0,0,0,-0.0384005,-0.0500105,0.449992,-1.58842,-0.173709,1.37395,1.29441,-0.488145,0.0560732,-0.496286,-0.253876,-0.56511,-0.23414,-0.15565,-4.48346,-25.5879,-5.23589,25.4831,-1.45874,2.96715,-0.250748,-0.0387168,0.118354,1.19163,-0.537744,-0.116327,0.290476,0.257846,-0.125544,0.34537,-0.171612,-0.450995,-0.569669,-0.282007,
-0.0621867,-0.040295,0.427093,-1.59796,-0.199677,-0.191456,0.498378,-0.79406,0.27764,-0.787293,-0.309466,-0.987706,0.0975274,-0.235674,0,0,0,0,0,0,0,-0.0384005,-0.0500105,0.449992,-1.58842,-0.173709,1.37395,1.29441,-0.488145,0.0560732,-0.496286,-0.253876,-0.56511,-0.23414,-0.15565,-4.48346,-25.5879,-5.23589,25.4831,-1.45874,2.96715,-0.250748,-0.25655,-0.0802705,1.77408,-0.271202,-0.633701,0.249191,0.21701,-0.563042,0.292883,0.191597,-0.482718,-0.45372,-0.275809,
-0.0653751,-0.0391707,0.423894,-1.59919,-0.203716,-0.190942,0.497455,-0.797095,0.281096,-0.799766,-0.307778,-1.00968,0.128471,-0.230893,0,0,0,0,0,0,0,-0.0384005,-0.0500105,0.449992,-1.58842,-0.173709,1.37395,1.29441,-0.488145,0.0560732,-0.496286,-0.253876,-0.56511,-0.23414,-0.15565,-4.48346,-25.5879,-5.23589,25.4831,-1.45874,2.96715,-0.250748,-0.25655,-0.0802705,1.77408,-0.271202,-0.633701,0.249191,0.21701,-0.563042,0.292883,0.191597,-0.482718,-0.45372,-0.275809,
-0.0685756,-0.038035,0.420662,-1.60041,-0.207844,-0.190311,0.49655,-0.800106,0.283912,-0.807979,-0.305446,-1.03184,0.157636,-0.226201,0,0,0,0,0,0,0,-0.0384005,-0.0500105,0.449992,-1.58842,-0.173709,1.37395,1.29441,-0.488145,0.0560732,-0.496286,-0.253876,-0.56511,-0.23414,-0.15565,-4.48346,-25.5879,-5.23589,25.4831,-1.45874,2.96715,-0.250748,2.13504,1.25125,0.194528,-1.41726,1.777,0.436549,0.413221,1.01008,0.507965,-0.584615,-0.378495,-0.376919,-0.271993,
-0.0525194,-0.0421749,0.436642,-1.59557,-0.188598,-0.206245,0.498439,-0.760094,0.30192,-0.752885,-0.381205,-0.922068,-0.327706,-0.317933,0,0,0,0,0,0,0,-0.0542965,-0.0473847,0.433785,-1.59648,-0.192952,1.3707,1.28974,-0.514703,0.0864089,-0.539562,-0.251974,-0.623324,-0.0305628,-0.133971,-4.61041,-26.5837,-5.21208,26.6772,-1.34888,3.11913,-0.163772,2.13504,1.25125,0.194528,-1.41726,1.777,0.436549,0.413221,1.01008,0.507965,-0.584615,-0.378495,-0.376919,-0.271993,
-0.0849862,-0.0383781,0.403424,-1.60989,-0.227793,-0.198556,0.491838,-0.781767,0.262894,-0.775711,-0.325857,-0.942191,0.175246,-0.260043,0,0,0,0,0,0,0,-0.0542965,-0.0473847,0.433785,-1.59648,-0.192952,1.3707,1.28974,-0.514703,0.0864089,-0.539562,-0.251974,-0.623324,-0.0305628,-0.133971,-4.61041,-26.5837,-5.21208,26.6772,-1.34888,3.11913,-0.163772,3.62735,0.107646,-0.243162,-0.642461,2.88686,-0.372623,-0.40529,1.63894,-0.308334,-0.680139,-0.446272,-0.230309,-0.265015,
-0.0881526,-0.0373064,0.400281,-1.61119,-0.231654,-0.197728,0.490809,-0.79161,0.267906,-0.785777,-0.325089,-0.9651,0.206965,-0.257168,0,0,0,0,0,0,0,-0.0542965,-0.0473847,0.433785,-1.59648,-0.192952,1.3707,1.28974,-0.514703,0.0864089,-0.539562,-0.251974,-0.623324,-0.0305628,-0.133971,-4.61041,-26.5837,-5.21208,26.6772,-1.34888,3.11913,-0.163772,2.64884,0.835692,-1.03657,-1.18235,2.4178,0.233174,0.199358,1.47315,0.310377,-0.79286,-0.356076,-0.0842379,-0.263673,
-0.0913062,-0.0361823,0.397095,-1.61241,-0.235636,-0.197042,0.489829,-0.788406,0.281045,-0.79642,-0.304389,-0.995585,0.171652,-0.245036,0,0,0,0,0,0,0,-0.0542965,-0.0473847,0.433785,-1.59648,-0.192952,1.3707,1.28974,-0.514703,0.0864089,-0.539562,-0.251974,-0.623324,-0.0305628,-0.133971,-4.61041,-26.5837,-5.21208,26.6772,-1.34888,3.11913,-0.163772,2.64884,0.835692,-1.03657,-1.18235,2.4178,0.233174,0.199358,1.47315,0.310377,-0.79286,-0.356076,-0.0842379,-0.263673,
-0.0944754,-0.0350407,0.393892,-1.61361,-0.239718,-0.196383,0.488869,-0.792287,0.285378,-0.800778,-0.299111,-1.02047,0.164773,-0.239875,0,0,0,0,0,0,0,-0.0542965,-0.0473847,0.433785,-1.59648,-0.192952,1.3707,1.28974,-0.514703,0.0864089,-0.539562,-0.251974,-0.623324,-0.0305628,-0.133971,-4.61041,-26.5837,-5.21208,26.6772,-1.34888,3.11913,-0.163772,2.79605,-0.0629588,-0.801427,-0.541084,2.40862,-0.229244,-0.255472,1.43379,-0.174778,-0.694631,-0.426658,-0.101004,-0.259097,
-0.097657,-0.0338935,0.390676,-1.6148,-0.243889,-0.195688,0.487929,-0.795418,0.2868,-0.804035,-0.298549,-1.04293,0.173609,-0.2352,0,0,0,0,0,0,0,-0.0542965,-0.0473847,0.433785,-1.59648,-0.192952,1.3707,1.28974,-0.514703,0.0864089,-0.539562,-0.251974,-0.623324,-0.0305628,-0.133971,-4.61041,-26.5837,-5.21208,26.6772,-1.34888,3.11913,-0.163772,2.79605,-0.0629588,-0.801427,-0.541084,2.40862,-0.229244,-0.255472,1.43379,-0.174778,-0.694631,-0.426658,-0.101004,-0.259097,
-0.100846,-0.0327451,0.387452,-1.616,-0.248145,-0.194914,0.487006,-0.797337,0.287103,-0.806051,-0.299289,-1.06378,0.19345,-0.230648,0,0,0,0,0,0,0,-0.0767579,-0.0429562,0.410681,-1.60642,-0.220529,1.37175,1.28465,-0.576048,0.117639,-0.590499,-0.23876,-0.709847,0.0698217,-0.14119,-4.48346,-27.4843,-4.93834,25.1102,-1.09253,2.52953,-0.183914,1.28162,1.84104,-1.54794,-1.86652,1.79638,0.985956,0.963447,1.27024,1.06385,-1.00243,-0.19111,-0.16938,-0.26182,
-0.087981,-0.0360607,0.400428,-1.61297,-0.23198,-0.202458,0.487967,-0.789612,0.308205,-0.784009,-0.377535,-0.969991,0.126298,-0.312443,0,0,0,0,0,0,0,-0.0767579,-0.0429562,0.410681,-1.60642,-0.220529,1.37175,1.28465,-0.576048,0.117639,-0.590499,-0.23876,-0.709847,0.0698217,-0.14119,-4.48346,-27.4843,-4.93834,25.1102,-1.09253,2.52953,-0.183914,0.344879,0.993723,-2.19533,-1.32214,1.3663,0.744605,0.704784,1.16548,0.826046,-1.1304,-0.195338,-0.14819,-0.254485,
-0.111891,-0.0329147,0.375713,-1.6211,-0.261795,-0.18573,0.48592,-0.789992,0.258883,-0.800069,-0.314303,-1.00194,0.446734,-0.255539,0,0,0,0,0,0,0,-0.0767579,-0.0429562,0.410681,-1.60642,-0.220529,1.37175,1.28465,-0.576048,0.117639,-0.590499,-0.23876,-0.709847,0.0698217,-0.14119,-4.48346,-27.4843,-4.93834,25.1102,-1.09253,2.52953,-0.183914,0.344879,0.993723,-2.19533,-1.32214,1.3663,0.744605,0.704784,1.16548,0.826046,-1.1304,-0.195338,-0.14819,-0.254485,
-0.115038,-0.0318363,0.372526,-1.62229,-0.265942,-0.184007,0.484949,-0.786804,0.269601,-0.796738,-0.29853,-1.03659,0.43066,-0.242697,0,0,0,0,0,0,0,-0.0767579,-0.0429562,0.410681,-1.60642,-0.220529,1.37175,1.28465,-0.576048,0.117639,-0.590499,-0.23876,-0.709847,0.0698217,-0.14119,-4.48346,-27.4843,-4.93834,25.1102,-1.09253,2.52953,-0.183914,0.275916,-0.649986,-1.44519,-0.158272,1.00629,-0.0941096,-0.130395,0.877354,-0.0419353,-0.862542,-0.350585,-0.235459,-0.247967,
-0.118177,-0.0307435,0.369347,-1.62347,-0.270193,-0.182278,0.483998,-0.784813,0.273187,-0.79466,-0.294071,-1.06294,0.432383,-0.237749,0,0,0,0,0,0,0,-0.0767579,-0.0429562,0.410681,-1.60642,-0.220529,1.37175,1.28465,-0.576048,0.117639,-0.590499,-0.23876,-0.709847,0.0698217,-0.14119,-4.48346,-27.4843,-4.93834,25.1102,-1.09253,2.52953,-0.183914,0.275916,-0.649986,-1.44519,-0.158272,1.00629,-0.0941096,-0.130395,0.877354,-0.0419353,-0.862542,-0.350585,-0.235459,-0.247967,
-0.121309,-0.029647,0.366177,-1.62464,-0.274531,-0.180505,0.483065,-0.782887,0.274128,-0.792673,-0.292997,-1.08436,0.443143,-0.233382,0,0,0,0,0,0,0,-0.0951232,-0.0379599,0.391497,-1.61372,-0.24414,1.37664,1.28025,-0.567839,0.169814,-0.603619,-0.247142,-0.752254,0.239072,-0.156955,-3.39245,-28.857,-3.83544,25.4315,-1.31226,2.16424,-0.170181,-0.749083,-1.26651,-0.0491247,0.407387,-0.21759,-0.311787,-0.333698,0.029968,-0.290558,-0.380701,-0.399867,-0.395963,-0.242866,
-0.124431,-0.0285515,0.363015,-1.62581,-0.27894,-0.178664,0.482148,-0.780618,0.273867,-0.790363,-0.292872,-1.10239,0.460289,-0.229134,0,0,0,0,0,0,0,-0.0951232,-0.0379599,0.391497,-1.61372,-0.24414,1.37664,1.28025,-0.567839,0.169814,-0.603619,-0.247142,-0.752254,0.239072,-0.156955,-3.39245,-28.857,-3.83544,25.4315,-1.31226,2.16424,-0.170181,-1.10011,0.55255,-0.00791744,-0.765298,-0.444703,0.650597,0.634184,-0.136404,0.68575,-0.366445,-0.250205,-0.357545,-0.240991,
-0.131566,-0.0243561,0.356176,-1.63097,-0.28702,-0.179324,0.476416,-0.828966,0.307571,-0.838044,-0.33831,-1.06787,0.481044,-0.270345,0,0,0,0,0,0,0,-0.0951232,-0.0379599,0.391497,-1.61372,-0.24414,1.37664,1.28025,-0.567839,0.169814,-0.603619,-0.247142,-0.752254,0.239072,-0.156955,-3.39245,-28.857,-3.83544,25.4315,-1.31226,2.16424,-0.170181,-1.10011,0.55255,-0.00791744,-0.765298,-0.444703,0.650597,0.634184,-0.136404,0.68575,-0.366445,-0.250205,-0.357545,-0.240991,
-0.111834,-0.0317304,0.375874,-1.62274,-0.262048,-0.189431,0.4832,-0.803152,0.294552,-0.7986,-0.362905,-0.991742,0.376854,-0.308925,0,0,0,0,0,0,0,-0.0951232,-0.0379599,0.391497,-1.61372,-0.24414,1.37664,1.28025,-0.567839,0.169814,-0.603619,-0.247142,-0.752254,0.239072,-0.156955,-3.39245,-28.857,-3.83544,25.4315,-1.31226,2.16424,-0.170181,-0.502603,0.543288,-0.786404,-0.915448,0.343193,0.572838,0.555844,0.429525,0.614695,-0.733283,-0.310757,-0.374126,-0.240931,
-0.130215,-0.0275684,0.3563,-1.62843,-0.284922,-0.171975,0.481638,-0.781717,0.248655,-0.792485,-0.301353,-0.87529,0.551934,-0.254225,0,0,0,0,0,0,0,-0.0951232,-0.0379599,0.391497,-1.61372,-0.24414,1.37664,1.28025,-0.567839,0.169814,-0.603619,-0.247142,-0.752254,0.239072,-0.156955,-3.39245,-28.857,-3.83544,25.4315,-1.31226,2.16424,-0.170181,-0.502603,0.543288,-0.786404,-0.915448,0.343193,0.572838,0.555844,0.429525,0.614695,-0.733283,-0.310757,-0.374126,-0.240931,
-0.133341,-0.0265546,0.353132,-1.6296,-0.288243,-0.169775,0.480672,-0.781403,0.253452,-0.792057,-0.291516,-0.830382,0.549972,-0.241507,0,0,0,0,0,0,0,-0.0951232,-0.0379599,0.391497,-1.61372,-0.24414,1.37664,1.28025,-0.567839,0.169814,-0.603619,-0.247142,-0.752254,0.239072,-0.156955,-3.39245,-28.857,-3.83544,25.4315,-1.31226,2.16424,-0.170181,-0.585726,-2.2312,-1.52208,0.711254,0.673807,-0.854148,-0.873847,0.859492,-0.832331,-1.10652,-0.592312,-0.559472,-0.233717,
-0.136465,-0.0255366,0.349965,-1.63075,-0.291362,-0.167557,0.479726,-0.781195,0.254506,-0.79177,-0.287196,-0.779631,0.554558,-0.236665,0,0,0,0,0,0,0,-0.11394,-0.0322653,0.372,-1.62079,-0.267791,1.38792,1.2749,-0.613198,0.197748,-0.627983,-0.210699,-0.755978,0.459013,-0.176302,-3.06317,-29.1545,-3.46251,24.5865,-1.66016,1.76049,-0.183914,0.0454835,-1.11826,-1.52626,-0.0575181,1.08679,-0.345512,-0.352732,1.01268,-0.323134,-1.10685,-0.582908,-0.469743,-0.233929,
-0.139588,-0.0245207,0.346801,-1.63188,-0.294263,-0.165307,0.478796,-0.780567,0.253976,-0.791077,-0.284707,-0.725368,0.562419,-0.232447,0,0,0,0,0,0,0,-0.11394,-0.0322653,0.372,-1.62079,-0.267791,1.38792,1.2749,-0.613198,0.197748,-0.627983,-0.210699,-0.755978,0.459013,-0.176302,-3.06317,-29.1545,-3.46251,24.5865,-1.66016,1.76049,-0.183914,0.0454835,-1.11826,-1.52626,-0.0575181,1.08679,-0.345512,-0.352732,1.01268,-0.323134,-1.10685,-0.582908,-0.469743,-0.233929,
-0.142705,-0.0235103,0.343642,-1.63302,-0.296938,-0.163014,0.477882,-0.779349,0.252585,-0.789803,-0.282926,-0.66875,0.57314,-0.228356,0,0,0,0,0,0,0,-0.11394,-0.0322653,0.372,-1.62079,-0.267791,1.38792,1.2749,-0.613198,0.197748,-0.627983,-0.210699,-0.755978,0.459013,-0.176302,-3.06317,-29.1545,-3.46251,24.5865,-1.66016,1.76049,-0.183914,1.67613,-0.615374,-2.30533,-0.450451,2.53387,-0.245483,-0.246134,1.87722,-0.220911,-1.42986,-0.565449,-0.356106,-0.236319,
-0.145815,-0.022508,0.34049,-1.63414,-0.29938,-0.160665,0.476985,-0.777499,0.250587,-0.787904,-0.281549,-0.610338,0.587293,-0.224381,0,0,0,0,0,0,0,-0.11394,-0.0322653,0.372,-1.62079,-0.267791,1.38792,1.2749,-0.613198,0.197748,-0.627983,-0.210699,-0.755978,0.459013,-0.176302,-3.06317,-29.1545,-3.46251,24.5865,-1.66016,1.76049,-0.183914,1.67613,-0.615374,-2.30533,-0.450451,2.53387,-0.245483,-0.246134,1.87722,-0.220911,-1.42986,-0.565449,-0.356106,-0.236319,
-0.130493,-0.0266854,0.356359,-1.63008,-0.28574,-0.174742,0.479026,-0.805627,0.276724,-0.801989,-0.348345,-0.98492,0.501959,-0.305875,0,0,0,0,0,0,0,-0.11394,-0.0322653,0.372,-1.62079,-0.267791,1.38792,1.2749,-0.613198,0.197748,-0.627983,-0.210699,-0.755978,0.459013,-0.176302,-3.06317,-29.1545,-3.46251,24.5865,-1.66016,1.76049,-0.183914,0.527978,-0.397102,-1.83472,-0.495386,1.43965,0.0218603,0.01531,1.16966,0.0475788,-1.09562,-0.535405,-0.271449,-0.233298,
-0.14947,-0.0223354,0.336007,-1.63495,-0.297706,-0.153019,0.476438,-0.778868,0.227385,-0.790303,-0.288927,-0.380476,0.663716,-0.250816,0,0,0,0,0,0,0,-0.133444,-0.0264739,0.351769,-1.62764,-0.28846,1.40296,1.26927,-0.608911,0.202588,-0.649694,-0.210788,-0.56168,0.524745,-0.149576,-2.93621,-31.3008,-3.11339,24.5111,-1.51368,1.42174,-0.163772,-0.921987,-3.03191,-1.58652,1.20638,0.248535,-1.19477,-1.21253,0.577664,-1.1814,-0.875542,-0.765767,-0.32479,-0.226244,
-0.152568,-0.0214207,0.332862,-1.63609,-0.299057,-0.15041,0.475438,-0.77458,0.228693,-0.786331,-0.284589,-0.337724,0.652169,-0.249823,0,0,0,0,0,0,0,-0.133444,-0.0264739,0.351769,-1.62764,-0.28846,1.40296,1.26927,-0.608911,0.202588,-0.649694,-0.210788,-0.56168,0.524745,-0.149576,-2.93621,-31.3008,-3.11339,24.5111,-1.51368,1.42174,-0.163772,-0.921987,-3.03191,-1.58652,1.20638,0.248535,-1.19477,-1.21253,0.577664,-1.1814,-0.875542,-0.765767,-0.32479,-0.226244,
-0.155637,-0.0204919,0.329747,-1.63719,-0.300263,-0.147879,0.474489,-0.767119,0.232184,-0.778678,-0.275403,-0.301539,0.632923,-0.237352,0,0,0,0,0,0,0,-0.133444,-0.0264739,0.351769,-1.62764,-0.28846,1.40296,1.26927,-0.608911,0.202588,-0.649694,-0.210788,-0.56168,0.524745,-0.149576,-2.93621,-31.3008,-3.11339,24.5111,-1.51368,1.42174,-0.163772,-1.23164,-1.19602,-1.91631,0.113855,0.175387,-0.204873,-0.211886,0.538117,-0.191394,-0.940509,-0.533423,-0.217949,-0.224478,
-0.158678,-0.0195628,0.32666,-1.63828,-0.301314,-0.14541,0.473557,-0.76042,0.232281,-0.771823,-0.270966,-0.262626,0.617092,-0.232882,0,0,0,0,0,0,0,-0.133444,-0.0264739,0.351769,-1.62764,-0.28846,1.40296,1.26927,-0.608911,0.202588,-0.649694,-0.210788,-0.56168,0.524745,-0.149576,-2.93621,-31.3008,-3.11339,24.5111,-1.51368,1.42174,-0.163772,-1.23164,-1.19602,-1.91631,0.113855,0.175387,-0.204873,-0.211886,0.538117,-0.191394,-0.940509,-0.533423,-0.217949,-0.224478,
-0.161694,-0.0186391,0.323599,-1.63935,-0.302203,-0.143004,0.472641,-0.753989,0.230923,-0.765257,-0.267972,-0.222169,0.601474,-0.22903,0,0,0,0,0,0,0,-0.133444,-0.0264739,0.351769,-1.62764,-0.28846,1.40296,1.26927,-0.608911,0.202588,-0.649694,-0.210788,-0.56168,0.524745,-0.149576,-2.93621,-31.3008,-3.11339,24.5111,-1.51368,1.42174,-0.163772,-0.941579,0.11911,-2.2929,-0.660325,0.559653,0.457976,0.454568,0.768819,0.474726,-1.0784,-0.357266,-0.14576,-0.227026,
-0.14693,-0.022484,0.339095,-1.63518,-0.303368,-0.15779,0.475124,-0.814027,0.25066,-0.826309,-0.334701,-0.703384,0.633955,-0.302721,0,0,0,0,0,0,0,-0.133444,-0.0264739,0.351769,-1.62764,-0.28846,1.40296,1.26927,-0.608911,0.202588,-0.649694,-0.210788,-0.56168,0.524745,-0.149576,-2.93621,-31.3008,-3.11339,24.5111,-1.51368,1.42174,-0.163772,-0.941579,0.11911,-2.2929,-0.660325,0.559653,0.457976,0.454568,0.768819,0.474726,-1.0784,-0.357266,-0.14576,-0.227026,
-0.165557,-0.017815,0.319133,-1.64033,-0.30052,-0.141066,0.47166,-0.753539,0.212567,-0.765367,-0.281282,-0.0785679,0.552013,-0.254813,0,0,0,0,0,0,0,-0.160146,-0.0178159,0.323883,-1.63649,-0.306822,1.42683,1.26369,-0.639819,0.214408,-0.675093,-0.207834,-0.307217,0.626218,-0.137896,-1.23822,-32.8996,-1.41142,26.0306,-0.121158,1.78612,-0.217789,-2.04604,-0.674157,-1.58072,0.0153071,-0.516567,0.086792,0.080418,0.12996,0.0960804,-0.749772,-0.313766,-0.191659,-0.228837,
-0.16856,-0.0169655,0.316082,-1.64145,-0.300699,-0.138916,0.470653,-0.750847,0.212381,-0.762753,-0.280157,-0.044837,0.537436,-0.251641,0,0,0,0,0,0,0,-0.160146,-0.0178159,0.323883,-1.63649,-0.306822,1.42683,1.26369,-0.639819,0.214408,-0.675093,-0.207834,-0.307217,0.626218,-0.137896,-1.23822,-32.8996,-1.41142,26.0306,-0.121158,1.78612,-0.217789,-0.814249,-1.25189,-1.31977,0.566477,0.211954,-0.363688,-0.370602,0.50156,-0.35857,-0.668793,-0.208527,-0.1621,-0.229035,
-0.171545,-0.0161187,0.313049,-1.64257,-0.300768,-0.136823,0.469656,-0.746169,0.211706,-0.758234,-0.279204,-0.0173385,0.52328,-0.249428,0,0,0,0,0,0,0,-0.160146,-0.0178159,0.323883,-1.63649,-0.306822,1.42683,1.26369,-0.639819,0.214408,-0.675093,-0.207834,-0.307217,0.626218,-0.137896,-1.23822,-32.8996,-1.41142,26.0306,-0.121158,1.78612,-0.217789,-0.814249,-1.25189,-1.31977,0.566477,0.211954,-0.363688,-0.370602,0.50156,-0.35857,-0.668793,-0.208527,-0.1621,-0.229035,
-0.174502,-0.0152737,0.310042,-1.64368,-0.300749,-0.134786,0.468663,-0.739356,0.211227,-0.751698,-0.277274,0.00484617,0.509139,-0.248105,0,0,0,0,0,0,0,-0.160146,-0.0178159,0.323883,-1.63649,-0.306822,1.42683,1.26369,-0.639819,0.214408,-0.675093,-0.207834,-0.307217,0.626218,-0.137896,-1.23822,-32.8996,-1.41142,26.0306,-0.121158,1.78612,-0.217789,0.388741,-0.309038,-0.641858,0.163652,0.72391,0.0169005,0.0217148,0.596119,0.0127042,-0.421363,-0.00414574,-0.0865411,-0.233577,
-0.177423,-0.0144205,0.307073,-1.64476,-0.300662,-0.132817,0.467715,-0.730126,0.213304,-0.742266,-0.270218,0.0218321,0.492324,-0.237175,0,0,0,0,0,0,0,-0.160146,-0.0178159,0.323883,-1.63649,-0.306822,1.42683,1.26369,-0.639819,0.214408,-0.675093,-0.207834,-0.307217,0.626218,-0.137896,-1.23822,-32.8996,-1.41142,26.0306,-0.121158,1.78612,-0.217789,0.388741,-0.309038,-0.641858,0.163652,0.72391,0.0169005,0.0217148,0.596119,0.0127042,-0.421363,-0.00414574,-0.0865411,-0.233577,
-0.166521,-0.0173065,0.318427,-1.64173,-0.310521,-0.141446,0.469449,-0.802997,0.231662,-0.816327,-0.31818,-0.315296,0.560747,-0.301841,0,0,0,0,0,0,0,-0.180972,-0.0112258,0.302289,-1.64306,-0.314966,1.4461,1.25958,-0.674891,0.224136,-0.699629,-0.194758,-0.167739,0.609277,-0.12871,0.741459,-34.796,0.588087,26.106,0.093075,1.22307,-0.190323,0.407029,1.23115,-0.742295,-0.708575,0.886334,0.80303,0.811666,0.684932,0.799242,-0.545107,0.219488,-0.131076,-0.234124,
-0.212968,-0.00240816,0.269675,-1.65565,-0.314945,-0.0983306,0.461925,-0.727175,0.204221,-0.740564,-0.290621,0.125456,0.594517,-0.257287,0,0,0,0,0,0,0,-0.180972,-0.0112258,0.302289,-1.64306,-0.314966,1.4461,1.25958,-0.674891,0.224136,-0.699629,-0.194758,-0.167739,0.609277,-0.12871,0.741459,-34.796,0.588087,26.106,0.093075,1.22307,-0.190323,-0.154822,0.220318,-1.07691,-0.040569,0.776995,0.25006,0.254345,0.820352,0.246958,-0.775032,0.20105,-0.29831,-0.231949,
-0.215861,-0.00159453,0.266728,-1.6568,-0.314319,-0.0959323,0.460908,-0.723414,0.203405,-0.736706,-0.288607,0.156704,0.599568,-0.254269,0,0,0,0,0,0,0,-0.180972,-0.0112258,0.302289,-1.64306,-0.314966,1.4461,1.25958,-0.674891,0.224136,-0.699629,-0.194758,-0.167739,0.609277,-0.12871,0.741459,-34.796,0.588087,26.106,0.093075,1.22307,-0.190323,-0.154822,0.220318,-1.07691,-0.040569,0.776995,0.25006,0.254345,0.820352,0.246958,-0.775032,0.20105,-0.29831,-0.231949,
-0.218733,-0.000785638,0.263804,-1.65795,-0.313597,-0.0935271,0.4599,-0.717916,0.202224,-0.731145,-0.286348,0.180286,0.601297,-0.252013,0,0,0,0,0,0,0,-0.180972,-0.0112258,0.302289,-1.64306,-0.314966,1.4461,1.25958,-0.674891,0.224136,-0.699629,-0.194758,-0.167739,0.609277,-0.12871,0.741459,-34.796,0.588087,26.106,0.093075,1.22307,-0.190323,-0.629566,0.448291,-2.05193,-0.100206,1.00658,0.373192,0.379591,1.20315,0.367997,-1.22618,0.339723,-0.387938,-0.232953,
-0.221576,1.70008e-05,0.260907,-1.65908,-0.312806,-0.0911289,0.458896,-0.710757,0.20066,-0.72401,-0.283835,0.197881,0.59957,-0.25099,0,0,0,0,0,0,0,-0.180972,-0.0112258,0.302289,-1.64306,-0.314966,1.4461,1.25958,-0.674891,0.224136,-0.699629,-0.194758,-0.167739,0.609277,-0.12871,0.741459,-34.796,0.588087,26.106,0.093075,1.22307,-0.190323,-0.629566,0.448291,-2.05193,-0.100206,1.00658,0.373192,0.379591,1.20315,0.367997,-1.22618,0.339723,-0.387938,-0.232953,
-0.224383,0.000814538,0.258047,-1.6602,-0.311965,-0.0887656,0.457892,-0.701679,0.199384,-0.715063,-0.279675,0.210331,0.590818,-0.250993,0,0,0,0,0,0,0,-0.180972,-0.0112258,0.302289,-1.64306,-0.314966,1.4461,1.25958,-0.674891,0.224136,-0.699629,-0.194758,-0.167739,0.609277,-0.12871,0.741459,-34.796,0.588087,26.106,0.093075,1.22307,-0.190323,-1.05108,2.0111,-2.07484,-0.982006,0.742163,1.22466,1.2352,1.00792,1.21638,-1.22559,0.528553,-0.355507,-0.234849,
-0.227145,0.00161441,0.255233,-1.66129,-0.311092,-0.0864689,0.456937,-0.690552,0.199967,-0.70356,-0.271243,0.218052,0.574179,-0.238957,0,0,0,0,0,0,0,-0.201986,-0.00445088,0.280257,-1.64857,-0.317853,1.46563,1.25495,-0.686123,0.209731,-0.715675,-0.182107,-0.0210146,0.669707,-0.169694,-0.325741,-33.7724,-0.411669,24.7849,-0.475467,1.46844,-0.217789,-1.12742,1.98964,-2.21245,-0.96665,0.77944,1.21365,1.22625,1.06729,1.20247,-1.30603,0.509201,-0.383793,-0.238938,
-0.217651,-0.00125852,0.264975,-1.65774,-0.310701,-0.0967165,0.458685,-0.776077,0.218688,-0.790371,-0.312405,0.27417,0.581267,-0.297195,0,0,0,0,0,0,0,-0.201986,-0.00445088,0.280257,-1.64857,-0.317853,1.46563,1.25495,-0.686123,0.209731,-0.715675,-0.182107,-0.0210146,0.669707,-0.169694,-0.325741,-33.7724,-0.411669,24.7849,-0.475467,1.46844,-0.217789,-1.12742,1.98964,-2.21245,-0.96665,0.77944,1.21365,1.22625,1.06729,1.20247,-1.30603,0.509201,-0.383793,-0.238938,
-0.235839,0.00398702,0.245739,-1.66132,-0.300847,-0.0750178,0.456355,-0.67461,0.17262,-0.687745,-0.262154,0.508534,0.505077,-0.254644,0,0,0,0,0,0,0,-0.201986,-0.00445088,0.280257,-1.64857,-0.317853,1.46563,1.25495,-0.686123,0.209731,-0.715675,-0.182107,-0.0210146,0.669707,-0.169694,-0.325741,-33.7724,-0.411669,24.7849,-0.475467,1.46844,-0.217789,-0.831347,-1.41384,-2.64646,1.17742,1.14807,-0.647608,-0.647998,1.54392,-0.647072,-1.45479,0.271664,-0.439483,-0.231347,
-0.238502,0.00466753,0.243024,-1.66236,-0.298773,-0.0730748,0.455342,-0.665728,0.170128,-0.678887,-0.261536,0.518312,0.485757,-0.253306,0,0,0,0,0,0,0,-0.201986,-0.00445088,0.280257,-1.64857,-0.317853,1.46563,1.25495,-0.686123,0.209731,-0.715675,-0.182107,-0.0210146,0.669707,-0.169694,-0.325741,-33.7724,-0.411669,24.7849,-0.475467,1.46844,-0.217789,-0.831347,-1.41384,-2.64646,1.17742,1.14807,-0.647608,-0.647998,1.54392,-0.647072,-1.45479,0.271664,-0.439483,-0.231347,
-0.241124,0.00533937,0.240348,-1.6634,-0.296682,-0.0712057,0.45433,-0.655593,0.167959,-0.668879,-0.259974,0.522892,0.467284,-0.25291,0,0,0,0,0,0,0,-0.201986,-0.00445088,0.280257,-1.64857,-0.317853,1.46563,1.25495,-0.686123,0.209731,-0.715675,-0.182107,-0.0210146,0.669707,-0.169694,-0.325741,-33.7724,-0.411669,24.7849,-0.475467,1.46844,-0.217789,-1.43805,-0.386303,-2.15962,0.496954,0.451076,-0.0680386,-0.0575493,0.989005,-0.0780995,-1.19558,0.266888,-0.368317,-0.228919,
-0.2437,0.00601187,0.237721,-1.66442,-0.294591,-0.0694169,0.453363,-0.643947,0.168127,-0.656892,-0.253832,0.522605,0.447186,-0.241963,0,0,0,0,0,0,0,-0.223787,0.00221415,0.257557,-1.6547,-0.316636,1.48794,1.24959,-0.680209,0.205477,-0.718332,-0.197227,0.105226,0.685637,-0.144639,0.689884,-35.0935,0.711073,24.7095,-0.261234,1.27617,-0.224197,-1.43805,-0.386303,-2.15962,0.496954,0.451076,-0.0680386,-0.0575493,0.989005,-0.0780995,-1.19558,0.266888,-0.368317,-0.228919,
-0.246234,0.00667541,0.235135,-1.66543,-0.292491,-0.0676753,0.45241,-0.63362,0.165884,-0.646492,-0.251724,0.525095,0.435399,-0.238117,0,0,0,0,0,0,0,-0.223787,0.00221415,0.257557,-1.6547,-0.316636,1.48794,1.24959,-0.680209,0.205477,-0.718332,-0.197227,0.105226,0.685637,-0.144639,0.689884,-35.0935,0.711073,24.7095,-0.261234,1.27617,-0.224197,-1.61491,0.791686,-1.82439,-0.293138,0.136009,0.586771,0.598002,0.649713,0.574989,-1.02687,0.263136,-0.30341,-0.22874,
-0.248732,0.00732641,0.232586,-1.66643,-0.290372,-0.0659584,0.451471,-0.624285,0.162751,-0.637088,-0.25092,0.529637,0.429217,-0.234835,0,0,0,0,0,0,0,-0.223787,0.00221415,0.257557,-1.6547,-0.316636,1.48794,1.24959,-0.680209,0.205477,-0.718332,-0.197227,0.105226,0.685637,-0.144639,0.689884,-35.0935,0.711073,24.7095,-0.261234,1.27617,-0.224197,-0.636653,-0.504142,-1.8839,0.520868,0.721536,-0.108576,-0.0986413,0.99079,-0.117365,-0.974431,0.161887,-0.211572,-0.221389,
-0.237046,0.00402311,0.244469,-1.6624,-0.299616,-0.0763729,0.45425,-0.710613,0.178746,-0.724902,-0.289265,0.541798,0.474514,-0.295352,0,0,0,0,0,0,0,-0.223787,0.00221415,0.257557,-1.6547,-0.316636,1.48794,1.24959,-0.680209,0.205477,-0.718332,-0.197227,0.105226,0.685637,-0.144639,0.689884,-35.0935,0.711073,24.7095,-0.261234,1.27617,-0.224197,-0.636653,-0.504142,-1.8839,0.520868,0.721536,-0.108576,-0.0986413,0.99079,-0.117365,-0.974431,0.161887,-0.211572,-0.221389,
-0.255575,0.0096846,0.225103,-1.66715,-0.294651,-0.0570847,0.451126,-0.616871,0.1414,-0.630035,-0.259138,0.574951,0.459326,-0.254158,0,0,0,0,0,0,0,-0.223787,0.00221415,0.257557,-1.6547,-0.316636,1.48794,1.24959,-0.680209,0.205477,-0.718332,-0.197227,0.105226,0.685637,-0.144639,0.689884,-35.0935,0.711073,24.7095,-0.261234,1.27617,-0.224197,-1.52882,-1.211,-1.52491,0.973679,-0.0963637,-0.516353,-0.510721,0.539555,-0.517572,-0.766296,0.116399,-0.203522,-0.213996,
-0.258001,0.0102384,0.222624,-1.66818,-0.292355,-0.0552855,0.450112,-0.606701,0.138453,-0.619875,-0.257798,0.574231,0.449796,-0.253399,0,0,0,0,0,0,0,-0.245468,0.00864618,0.234857,-1.66111,-0.308528,1.50856,1.24513,-0.669474,0.21208,-0.691734,-0.18776,0.313545,0.588841,-0.129245,2.51484,-36.3194,2.48842,26.4035,0.239559,1.74035,-0.170181,-1.52882,-1.211,-1.52491,0.973679,-0.0963637,-0.516353,-0.510721,0.539555,-0.517572,-0.766296,0.116399,-0.203522,-0.213996,
-0.260384,0.0107815,0.220188,-1.66921,-0.290077,-0.0535228,0.449098,-0.595625,0.135778,-0.608891,-0.255661,0.569381,0.440672,-0.2536,0,0,0,0,0,0,0,-0.245468,0.00864618,0.234857,-1.66111,-0.308528,1.50856,1.24513,-0.669474,0.21208,-0.691734,-0.18776,0.313545,0.588841,-0.129245,2.51484,-36.3194,2.48842,26.4035,0.239559,1.74035,-0.170181,-0.465059,0.476313,-1.66258,-0.0396601,0.709311,0.417092,0.43436,0.866636,0.399035,-0.875615,0.23981,-0.168436,-0.214818,
-0.262717,0.011322,0.217803,-1.67021,-0.287835,-0.0518029,0.448128,-0.583363,0.135119,-0.596261,-0.249612,0.560441,0.429989,-0.242493,0,0,0,0,0,0,0,-0.245468,0.00864618,0.234857,-1.66111,-0.308528,1.50856,1.24513,-0.669474,0.21208,-0.691734,-0.18776,0.313545,0.588841,-0.129245,2.51484,-36.3194,2.48842,26.4035,0.239559,1.74035,-0.170181,-0.465059,0.476313,-1.66258,-0.0396601,0.709311,0.417092,0.43436,0.866636,0.399035,-0.875615,0.23981,-0.168436,-0.214818,
-0.265007,0.0118526,0.215462,-1.67119,-0.285618,-0.0501123,0.447172,-0.57233,0.132653,-0.585201,-0.246442,0.554221,0.422649,-0.23884,0,0,0,0,0,0,0,-0.245468,0.00864618,0.234857,-1.66111,-0.308528,1.50856,1.24513,-0.669474,0.21208,-0.691734,-0.18776,0.313545,0.588841,-0.129245,2.51484,-36.3194,2.48842,26.4035,0.239559,1.74035,-0.170181,0.71856,0.0408686,-1.72399,0.246865,1.55248,0.195931,0.215834,1.3361,0.175351,-0.948567,0.211712,-0.179868,-0.211539,
-0.257171,0.00991859,0.223443,-1.66792,-0.288852,-0.0586203,0.44907,-0.661434,0.153379,-0.675663,-0.280058,0.719818,0.417361,-0.293826,0,0,0,0,0,0,0,-0.245468,0.00864618,0.234857,-1.66111,-0.308528,1.50856,1.24513,-0.669474,0.21208,-0.691734,-0.18776,0.313545,0.588841,-0.129245,2.51484,-36.3194,2.48842,26.4035,0.239559,1.74035,-0.170181,0.71856,0.0408686,-1.72399,0.246865,1.55248,0.195931,0.215834,1.3361,0.175351,-0.948567,0.211712,-0.179868,-0.211539,
-0.27528,0.0155346,0.204382,-1.67318,-0.281124,-0.0401594,0.446661,-0.56773,0.120708,-0.581196,-0.245452,0.651649,0.341716,-0.256635,0,0,0,0,0,0,0,-0.245468,0.00864618,0.234857,-1.66111,-0.308528,1.50856,1.24513,-0.669474,0.21208,-0.691734,-0.18776,0.313545,0.588841,-0.129245,2.51484,-36.3194,2.48842,26.4035,0.239559,1.74035,-0.170181,-0.95404,-2.01703,-0.619273,1.48281,-0.0303768,-1.0476,-1.03782,0.491735,-1.04603,-0.53994,0.0682272,-0.334171,-0.206011,
-0.277509,0.0160046,0.202099,-1.67415,-0.278523,-0.0388614,0.445636,-0.557221,0.117498,-0.570754,-0.243109,0.650271,0.324519,-0.256147,0,0,0,0,0,0,0,-0.267174,0.0151092,0.212322,-1.66736,-0.297121,1.52669,1.24082,-0.624388,0.204379,-0.651387,-0.183858,0.335429,0.534986,-0.151692,2.79651,-37.466,2.81373,26.4789,0.507809,1.78612,-0.157364,-1.96572,-1.24374,-0.685291,1.0686,-0.616672,-0.698883,-0.685123,0.214142,-0.701379,-0.610897,0.168055,-0.403173,-0.201198,
-0.279691,0.0164703,0.199864,-1.6751,-0.275954,-0.0376384,0.444651,-0.545607,0.116449,-0.558814,-0.237055,0.642307,0.305747,-0.246354,0,0,0,0,0,0,0,-0.267174,0.0151092,0.212322,-1.66736,-0.297121,1.52669,1.24082,-0.624388,0.204379,-0.651387,-0.183858,0.335429,0.534986,-0.151692,2.79651,-37.466,2.81373,26.4789,0.507809,1.78612,-0.157364,-1.96572,-1.24374,-0.685291,1.0686,-0.616672,-0.698883,-0.685123,0.214142,-0.701379,-0.610897,0.168055,-0.403173,-0.201198,
-0.281832,0.0169248,0.19767,-1.67604,-0.273416,-0.0364638,0.44368,-0.535104,0.113606,-0.548293,-0.234527,0.634413,0.293654,-0.242833,0,0,0,0,0,0,0,-0.267174,0.0151092,0.212322,-1.66736,-0.297121,1.52669,1.24082,-0.624388,0.204379,-0.651387,-0.183858,0.335429,0.534986,-0.151692,2.79651,-37.466,2.81373,26.4789,0.507809,1.78612,-0.157364,-1.61086,1.65191,-1.07545,-0.636623,-0.184969,0.908652,0.928468,0.313626,0.885283,-0.798713,0.38812,-0.354407,-0.200969,
-0.283934,0.0173656,0.195516,-1.67697,-0.270911,-0.0353201,0.44272,-0.525527,0.110204,-0.538695,-0.233197,0.626367,0.285902,-0.23982,0,0,0,0,0,0,0,-0.267174,0.0151092,0.212322,-1.66736,-0.297121,1.52669,1.24082,-0.624388,0.204379,-0.651387,-0.183858,0.335429,0.534986,-0.151692,2.79651,-37.466,2.81373,26.4789,0.507809,1.78612,-0.157364,-1.61086,1.65191,-1.07545,-0.636623,-0.184969,0.908652,0.928468,0.313626,0.885283,-0.798713,0.38812,-0.354407,-0.200969,
-0.286001,0.0177921,0.193396,-1.6779,-0.268437,-0.0341917,0.441773,-0.516691,0.106638,-0.529835,-0.232357,0.618292,0.282112,-0.236917,0,0,0,0,0,0,0,-0.267174,0.0151092,0.212322,-1.66736,-0.297121,1.52669,1.24082,-0.624388,0.204379,-0.651387,-0.183858,0.335429,0.534986,-0.151692,2.79651,-37.466,2.81373,26.4789,0.507809,1.78612,-0.157364,-0.893377,0.260811,-1.79793,0.313175,0.73548,0.149287,0.168616,1.1043,0.132652,-1.19433,0.346711,-0.470818,-0.19949,
-0.276437,0.0154206,0.20316,-1.67407,-0.275052,-0.0413658,0.444705,-0.598125,0.122525,-0.612639,-0.268332,0.796871,0.312474,-0.29438,0,0,0,0,0,0,0,-0.287381,0.0213681,0.191269,-1.67284,-0.284671,1.54297,1.23509,-0.608533,0.179684,-0.636751,-0.162259,0.410868,0.478993,-0.176545,2.79651,-37.7159,2.91292,26.8042,0.672604,1.99853,-0.117081,-0.893377,0.260811,-1.79793,0.313175,0.73548,0.149287,0.168616,1.1043,0.132652,-1.19433,0.346711,-0.470818,-0.19949,
-0.314306,0.0266205,0.163667,-1.68437,-0.254955,-0.00996695,0.436645,-0.510673,0.089985,-0.524447,-0.24012,0.652096,0.318679,-0.257063,0,0,0,0,0,0,0,-0.287381,0.0213681,0.191269,-1.67284,-0.284671,1.54297,1.23509,-0.608533,0.179684,-0.636751,-0.162259,0.410868,0.478993,-0.176545,2.79651,-37.7159,2.91292,26.8042,0.672604,1.99853,-0.117081,-0.745039,-2.28373,-2.33259,1.95161,1.10576,-1.26004,-1.25214,1.64107,-1.24912,-1.41638,0.23235,-0.531543,-0.194212,
-0.316313,0.0269708,0.161604,-1.68532,-0.25234,-0.00872236,0.435618,-0.501706,0.087575,-0.515571,-0.237211,0.653843,0.311148,-0.256733,0,0,0,0,0,0,0,-0.287381,0.0213681,0.191269,-1.67284,-0.284671,1.54297,1.23509,-0.608533,0.179684,-0.636751,-0.162259,0.410868,0.478993,-0.176545,2.79651,-37.7159,2.91292,26.8042,0.672604,1.99853,-0.117081,-1.27544,-1.21751,-2.00471,1.28238,0.504259,-0.694738,-0.681004,1.1471,-0.693086,-1.1962,0.286005,-0.432669,-0.192043,
-0.318282,0.027318,0.159581,-1.68625,-0.249712,-0.00751779,0.434629,-0.4923,0.0868064,-0.505887,-0.231066,0.656954,0.301141,-0.247275,0,0,0,0,0,0,0,-0.287381,0.0213681,0.191269,-1.67284,-0.284671,1.54297,1.23509,-0.608533,0.179684,-0.636751,-0.162259,0.410868,0.478993,-0.176545,2.79651,-37.7159,2.91292,26.8042,0.672604,1.99853,-0.117081,-1.27544,-1.21751,-2.00471,1.28238,0.504259,-0.694738,-0.681004,1.1471,-0.693086,-1.1962,0.286005,-0.432669,-0.192043,
-0.320216,0.027656,0.157592,-1.68716,-0.247077,-0.00633537,0.433653,-0.483592,0.084485,-0.497153,-0.2281,0.658855,0.295605,-0.243877,0,0,0,0,0,0,0,-0.287381,0.0213681,0.191269,-1.67284,-0.284671,1.54297,1.23509,-0.608533,0.179684,-0.636751,-0.162259,0.410868,0.478993,-0.176545,2.79651,-37.7159,2.91292,26.8042,0.672604,1.99853,-0.117081,-1.39835,1.18524,-2.02494,-0.149341,0.418228,0.619532,0.642251,0.916841,0.596115,-1.21204,0.437567,-0.392807,-0.192802,
-0.322117,0.0279828,0.155637,-1.68806,-0.24445,-0.00516508,0.432689,-0.47528,0.081716,-0.488776,-0.226284,0.65678,0.292574,-0.240942,0,0,0,0,0,0,0,-0.287381,0.0213681,0.191269,-1.67284,-0.284671,1.54297,1.23509,-0.608533,0.179684,-0.636751,-0.162259,0.410868,0.478993,-0.176545,2.79651,-37.7159,2.91292,26.8042,0.672604,1.99853,-0.117081,-1.39835,1.18524,-2.02494,-0.149341,0.418228,0.619532,0.642251,0.916841,0.596115,-1.21204,0.437567,-0.392807,-0.192802,
-0.323987,0.0282981,0.153714,-1.68896,-0.241842,-0.00399737,0.431737,-0.467331,0.0788088,-0.480775,-0.225001,0.651963,0.291926,-0.238124,0,0,0,0,0,0,0,-0.306406,0.0270352,0.171399,-1.67777,-0.271289,1.55625,1.22968,-0.580387,0.165755,-0.628414,-0.162174,0.437838,0.396897,-0.166089,1.34845,-37.7159,1.56404,25.4315,0.245053,1.73394,-0.0969389,-1.83189,0.245906,-2.03526,0.437959,0.105089,0.0546525,0.0741334,0.840749,0.0436348,-1.1778,0.383301,-0.386833,-0.187202,
-0.315636,0.0264148,0.16227,-1.68488,-0.242967,-0.0118708,0.434814,-0.542787,0.0884391,-0.55741,-0.254382,0.959161,0.262218,-0.292204,0,0,0,0,0,0,0,-0.306406,0.0270352,0.171399,-1.67777,-0.271289,1.55625,1.22968,-0.580387,0.165755,-0.628414,-0.162174,0.437838,0.396897,-0.166089,1.34845,-37.7159,1.56404,25.4315,0.245053,1.73394,-0.0969389,-1.83189,0.245906,-2.03526,0.437959,0.105089,0.0546525,0.0741334,0.840749,0.0436348,-1.1778,0.383301,-0.386833,-0.187202,
-0.331896,0.0312941,0.145237,-1.68877,-0.235857,0.000266666,0.431311,-0.472796,0.0654361,-0.48645,-0.223742,0.801066,0.224393,-0.255579,0,0,0,0,0,0,0,-0.306406,0.0270352,0.171399,-1.67777,-0.271289,1.55625,1.22968,-0.580387,0.165755,-0.628414,-0.162174,0.437838,0.396897,-0.166089,1.34845,-37.7159,1.56404,25.4315,0.245053,1.73394,-0.0969389,-1.07213,-1.57251,-2.58921,1.59548,0.807454,-0.866995,-0.854989,1.44249,-0.857575,-1.33271,0.281609,-0.330365,-0.183561,
-0.333749,0.0315449,0.14333,-1.68966,-0.23265,0.00111158,0.430292,-0.463126,0.0626908,-0.476859,-0.22103,0.801736,0.211228,-0.254827,0,0,0,0,0,0,0,-0.306406,0.0270352,0.171399,-1.67777,-0.271289,1.55625,1.22968,-0.580387,0.165755,-0.628414,-0.162174,0.437838,0.396897,-0.166089,1.34845,-37.7159,1.56404,25.4315,0.245053,1.73394,-0.0969389,-1.78544,-1.57338,-2.23033,1.58151,0.123345,-0.947074,-0.93525,1.01829,-0.932784,-1.14569,0.289015,-0.305469,-0.179971,
-0.335559,0.0317927,0.141466,-1.69052,-0.229474,0.00189553,0.429307,-0.452635,0.0619596,-0.46601,-0.214938,0.794099,0.195989,-0.246336,0,0,0,0,0,0,0,-0.306406,0.0270352,0.171399,-1.67777,-0.271289,1.55625,1.22968,-0.580387,0.165755,-0.628414,-0.162174,0.437838,0.396897,-0.166089,1.34845,-37.7159,1.56404,25.4315,0.245053,1.73394,-0.0969389,-1.78544,-1.57338,-2.23033,1.58151,0.123345,-0.947074,-0.93525,1.01829,-0.932784,-1.14569,0.289015,-0.305469,-0.179971,
-0.337331,0.0320314,0.139641,-1.69137,-0.226337,0.00263992,0.428334,-0.442884,0.0596626,-0.456265,-0.212208,0.78412,0.186097,-0.243154,0,0,0,0,0,0,0,-0.330653,0.0331743,0.14602,-1.68569,-0.251212,1.57157,1.22265,-0.539789,0.133229,-0.580562,-0.182189,0.537617,0.308007,-0.157678,2.54261,-38.2396,2.63917,27.0264,0.752255,2.11846,-0.204056,-2.56663,0.917587,-1.75941,0.0357261,-0.671335,0.338212,0.357735,0.284523,0.327896,-0.923946,0.420745,-0.242538,-0.182388,
-0.339066,0.032259,0.137852,-1.69221,-0.223248,0.00335797,0.427372,-0.433861,0.0568919,-0.447251,-0.210687,0.772355,0.179513,-0.240417,0,0,0,0,0,0,0,-0.330653,0.0331743,0.14602,-1.68569,-0.251212,1.57157,1.22265,-0.539789,0.133229,-0.580562,-0.182189,0.537617,0.308007,-0.157678,2.54261,-38.2396,2.63917,27.0264,0.752255,2.11846,-0.204056,-2.56663,0.917587,-1.75941,0.0357261,-0.671335,0.338212,0.357735,0.284523,0.327896,-0.923946,0.420745,-0.242538,-0.182388,
-0.340768,0.032475,0.136096,-1.69305,-0.22021,0.00406178,0.426421,-0.425466,0.0540012,-0.438864,-0.209701,0.759453,0.175952,-0.237789,0,0,0,0,0,0,0,-0.330653,0.0331743,0.14602,-1.68569,-0.251212,1.57157,1.22265,-0.539789,0.133229,-0.580562,-0.182189,0.537617,0.308007,-0.157678,2.54261,-38.2396,2.63917,27.0264,0.752255,2.11846,-0.204056,-1.86332,-0.452628,-1.98666,0.935115,-0.127294,-0.352909,-0.333029,0.725074,-0.351605,-0.995026,0.387138,-0.226606,-0.181416,
-0.332329,0.0309072,0.144752,-1.68936,-0.229312,-0.0015264,0.429602,-0.484505,0.0569915,-0.498944,-0.238568,1.02242,0.180471,-0.288544,0,0,0,0,0,0,0,-0.330653,0.0331743,0.14602,-1.68569,-0.251212,1.57157,1.22265,-0.539789,0.133229,-0.580562,-0.182189,0.537617,0.308007,-0.157678,2.54261,-38.2396,2.63917,27.0264,0.752255,2.11846,-0.204056,-1.86332,-0.452628,-1.98666,0.935115,-0.127294,-0.352909,-0.333029,0.725074,-0.351605,-0.995026,0.387138,-0.226606,-0.181416,
-0.353318,0.0362074,0.122699,-1.69638,-0.213931,0.0110237,0.424403,-0.409508,0.0384569,-0.423148,-0.218551,0.796003,0.190775,-0.254664,0,0,0,0,0,0,0,-0.330653,0.0331743,0.14602,-1.68569,-0.251212,1.57157,1.22265,-0.539789,0.133229,-0.580562,-0.182189,0.537617,0.308007,-0.157678,2.54261,-38.2396,2.63917,27.0264,0.752255,2.11846,-0.204056,-0.688592,-0.939085,-2.3637,1.34673,0.794005,-0.495187,-0.476726,1.31152,-0.489674,-1.14223,0.43184,-0.200693,-0.178089,
-0.354917,0.0363518,0.121046,-1.69724,-0.210767,0.0117793,0.423386,-0.399697,0.0361048,-0.413451,-0.215184,0.791027,0.188881,-0.25427,0,0,0,0,0,0,0,-0.330653,0.0331743,0.14602,-1.68569,-0.251212,1.57157,1.22265,-0.539789,0.133229,-0.580562,-0.182189,0.537617,0.308007,-0.157678,2.54261,-38.2396,2.63917,27.0264,0.752255,2.11846,-0.204056,-0.554491,-1.81291,-1.47948,1.70585,0.428913,-0.958686,-0.944461,0.952742,-0.94058,-0.742119,0.311265,-0.161617,-0.177128,
-0.356477,0.0364932,0.119432,-1.69808,-0.207618,0.0125153,0.422402,-0.389816,0.035334,-0.403376,-0.208903,0.787076,0.184015,-0.246003,0,0,0,0,0,0,0,-0.347514,0.0369127,0.12828,-1.6913,-0.233541,1.57954,1.21754,-0.512702,0.111624,-0.539747,-0.176748,0.56536,0.205805,-0.165284,2.94727,-38.8625,3.0121,27.2287,0.905148,1.9793,-0.177505,-0.554491,-1.81291,-1.47948,1.70585,0.428913,-0.958686,-0.944461,0.952742,-0.94058,-0.742119,0.311265,-0.161617,-0.177128,
-0.358,0.0366258,0.117854,-1.6989,-0.204482,0.0132459,0.421429,-0.380853,0.0331435,-0.394499,-0.205678,0.784093,0.182636,-0.243045,0,0,0,0,0,0,0,-0.347514,0.0369127,0.12828,-1.6913,-0.233541,1.57954,1.21754,-0.512702,0.111624,-0.539747,-0.176748,0.56536,0.205805,-0.165284,2.94727,-38.8625,3.0121,27.2287,0.905148,1.9793,-0.177505,0.274766,0.693593,-1.30489,0.191293,0.876442,0.521581,0.553177,0.882388,0.494686,-0.705771,0.444087,-0.132538,-0.179842,
-0.359489,0.0367481,0.11631,-1.69971,-0.201375,0.0139773,0.420468,-0.372357,0.0305926,-0.385987,-0.203581,0.776853,0.182855,-0.240463,0,0,0,0,0,0,0,-0.347514,0.0369127,0.12828,-1.6913,-0.233541,1.57954,1.21754,-0.512702,0.111624,-0.539747,-0.176748,0.56536,0.205805,-0.165284,2.94727,-38.8625,3.0121,27.2287,0.905148,1.9793,-0.177505,0.274766,0.693593,-1.30489,0.191293,0.876442,0.521581,0.553177,0.882388,0.494686,-0.705771,0.444087,-0.132538,-0.179842,
-0.360946,0.03686,0.114799,-1.70052,-0.198308,0.014716,0.419516,-0.364269,0.0279636,-0.377898,-0.202054,0.76663,0.184668,-0.238001,0,0,0,0,0,0,0,-0.347514,0.0369127,0.12828,-1.6913,-0.233541,1.57954,1.21754,-0.512702,0.111624,-0.539747,-0.176748,0.56536,0.205805,-0.165284,2.94727,-38.8625,3.0121,27.2287,0.905148,1.9793,-0.177505,-0.1754,0.438289,-1.22457,0.357429,0.545151,0.312025,0.345636,0.741711,0.288573,-0.677774,0.444526,-0.153089,-0.177251,
-0.354151,0.0358686,0.121786,-1.69689,-0.208105,0.0108086,0.422738,-0.435975,0.0309083,-0.450854,-0.229755,1.03231,0.18278,-0.286778,0,0,0,0,0,0,0,-0.347514,0.0369127,0.12828,-1.6913,-0.233541,1.57954,1.21754,-0.512702,0.111624,-0.539747,-0.176748,0.56536,0.205805,-0.165284,2.94727,-38.8625,3.0121,27.2287,0.905148,1.9793,-0.177505,-0.802867,-0.427919,-1.10008,0.858607,0.0647857,-0.252019,-0.219807,0.56538,-0.261544,-0.604827,0.39324,-0.15729,-0.17729,
-0.368418,0.0388912,0.106709,-1.70155,-0.192726,0.0177052,0.419316,-0.369606,0.0171849,-0.383509,-0.200559,0.901866,0.132791,-0.255256,0,0,0,0,0,0,0,-0.363774,0.0400978,0.111305,-1.69678,-0.215206,1.58538,1.21162,-0.48787,0.0908423,-0.497803,-0.169726,0.543009,0.16277,-0.175946,3.73279,-38.3904,3.73811,26.9272,0.923458,2.36382,-0.137222,-0.802867,-0.427919,-1.10008,0.858607,0.0647857,-0.252019,-0.219807,0.56538,-0.261544,-0.604827,0.39324,-0.15729,-0.17729,
-0.369851,0.0389562,0.105221,-1.70232,-0.189187,0.0181768,0.418325,-0.358296,0.0162575,-0.371958,-0.194403,0.88481,0.117884,-0.247954,0,0,0,0,0,0,0,-0.363774,0.0400978,0.111305,-1.69678,-0.215206,1.58538,1.21162,-0.48787,0.0908423,-0.497803,-0.169726,0.543009,0.16277,-0.175946,3.73279,-38.3904,3.73811,26.9272,0.923458,2.36382,-0.137222,-0.752268,-0.769278,-1.78735,1.14041,0.455763,-0.427453,-0.397629,0.97795,-0.432809,-0.904736,0.349339,-0.190214,-0.175082,
-0.371242,0.0390122,0.103775,-1.70309,-0.185726,0.0186051,0.417344,-0.347884,0.0139937,-0.361635,-0.191364,0.865331,0.10708,-0.245131,0,0,0,0,0,0,0,-0.363774,0.0400978,0.111305,-1.69678,-0.215206,1.58538,1.21162,-0.48787,0.0908423,-0.497803,-0.169726,0.543009,0.16277,-0.175946,3.73279,-38.3904,3.73811,26.9272,0.923458,2.36382,-0.137222,-0.752268,-0.769278,-1.78735,1.14041,0.455763,-0.427453,-0.397629,0.97795,-0.432809,-0.904736,0.349339,-0.190214,-0.175082,
-0.372596,0.0390577,0.102366,-1.70385,-0.182351,0.0190001,0.416373,-0.338342,0.0113686,-0.352176,-0.189523,0.843717,0.0987467,-0.24269,0,0,0,0,0,0,0,-0.363774,0.0400978,0.111305,-1.69678,-0.215206,1.58538,1.21162,-0.48787,0.0908423,-0.497803,-0.169726,0.543009,0.16277,-0.175946,3.73279,-38.3904,3.73811,26.9272,0.923458,2.36382,-0.137222,-1.39196,-1.91242,-2.32317,1.84373,0.345142,-1.14362,-1.1169,1.19458,-1.13349,-1.13622,0.220731,-0.240623,-0.170777,
-0.373914,0.0390925,0.100992,-1.7046,-0.17907,0.0193717,0.415412,-0.329552,0.00870154,-0.34346,-0.188291,0.820357,0.0929056,-0.240355,0,0,0,0,0,0,0,-0.363774,0.0400978,0.111305,-1.69678,-0.215206,1.58538,1.21162,-0.48787,0.0908423,-0.497803,-0.169726,0.543009,0.16277,-0.175946,3.73279,-38.3904,3.73811,26.9272,0.923458,2.36382,-0.137222,-1.39196,-1.91242,-2.32317,1.84373,0.345142,-1.14362,-1.1169,1.19458,-1.13349,-1.13622,0.220731,-0.240623,-0.170777,
-0.375199,0.0391169,0.0996505,-1.70535,-0.175887,0.0197327,0.414459,-0.321419,0.00609819,-0.335395,-0.187524,0.795636,0.0902523,-0.238137,0,0,0,0,0,0,0,-0.363774,0.0400978,0.111305,-1.69678,-0.215206,1.58538,1.21162,-0.48787,0.0908423,-0.497803,-0.169726,0.543009,0.16277,-0.175946,3.73279,-38.3904,3.73811,26.9272,0.923458,2.36382,-0.137222,-1.15629,0.381222,-2.03861,0.477416,0.25333,0.139136,0.177697,0.816807,0.114759,-0.966924,0.387863,-0.144584,-0.173818,
-0.368335,0.0384589,0.106749,-1.70203,-0.191399,0.0172789,0.417771,-0.370515,0.00589515,-0.385431,-0.21112,1.00852,0.126766,-0.285362,0,0,0,0,0,0,0,-0.378885,0.0427556,0.0956881,-1.70158,-0.195439,1.58965,1.20704,-0.462615,0.0780197,-0.480812,-0.142448,0.628697,0.0914564,-0.136208,4.56989,-38.8387,4.48793,26.9034,0.813595,2.48284,-0.190323,-1.15629,0.381222,-2.03861,0.477416,0.25333,0.139136,0.177697,0.816807,0.114759,-0.966924,0.387863,-0.144584,-0.173818,
-0.3967,0.0432733,0.077222,-1.71113,-0.157084,0.0243113,0.408947,-0.303501,-0.00697141,-0.317487,-0.194966,0.758719,0.150452,-0.249654,0,0,0,0,0,0,0,-0.378885,0.0427556,0.0956881,-1.70158,-0.195439,1.58965,1.20704,-0.462615,0.0780197,-0.480812,-0.142448,0.628697,0.0914564,-0.136208,4.56989,-38.8387,4.48793,26.9034,0.813595,2.48284,-0.190323,-1.5104,-0.172421,-1.96227,0.788264,-0.0681196,-0.220863,-0.190262,0.677003,-0.228498,-0.874188,0.357514,-0.0960286,-0.17044,
-0.397875,0.0432416,0.0759899,-1.7119,-0.15414,0.0249469,0.407959,-0.293869,-0.00793084,-0.308025,-0.191635,0.735931,0.1589,-0.246958,0,0,0,0,0,0,0,-0.378885,0.0427556,0.0956881,-1.70158,-0.195439,1.58965,1.20704,-0.462615,0.0780197,-0.480812,-0.142448,0.628697,0.0914564,-0.136208,4.56989,-38.8387,4.48793,26.9034,0.813595,2.48284,-0.190323,-1.82254,-0.922862,-2.2623,1.21009,-0.0968383,-0.674706,-0.642263,0.814467,-0.677394,-0.993397,0.236674,-0.112313,-0.168317,
-0.399016,0.0432046,0.0747915,-1.71265,-0.151283,0.0256051,0.406981,-0.285267,-0.0092496,-0.299579,-0.188773,0.714319,0.164556,-0.244583,0,0,0,0,0,0,0,-0.378885,0.0427556,0.0956881,-1.70158,-0.195439,1.58965,1.20704,-0.462615,0.0780197,-0.480812,-0.142448,0.628697,0.0914564,-0.136208,4.56989,-38.8387,4.48793,26.9034,0.813595,2.48284,-0.190323,-1.82254,-0.922862,-2.2623,1.21009,-0.0968383,-0.674706,-0.642263,0.814467,-0.677394,-0.993397,0.236674,-0.112313,-0.168317,
-0.400127,0.0431615,0.0736234,-1.7134,-0.148505,0.0262772,0.406012,-0.277592,-0.0107738,-0.292045,-0.18624,0.69441,0.16803,-0.242254,0,0,0,0,0,0,0,-0.378885,0.0427556,0.0956881,-1.70158,-0.195439,1.58965,1.20704,-0.462615,0.0780197,-0.480812,-0.142448,0.628697,0.0914564,-0.136208,4.56989,-38.8387,4.48793,26.9034,0.813595,2.48284,-0.190323,-1.19769,0.527846,-2.49036,0.414837,0.384609,0.210949,0.255405,0.949909,0.177365,-1.09347,0.332562,-0.0929506,-0.170586,
-0.40121,0.0431118,0.072482,-1.71413,-0.145798,0.026957,0.405052,-0.27076,-0.0124113,-0.285346,-0.183989,0.6769,0.169949,-0.239958,0,0,0,0,0,0,0,-0.392707,0.0447203,0.0810631,-1.70621,-0.176,1.59151,1.20273,-0.421909,0.0411384,-0.435198,-0.159308,0.609339,0.052048,-0.140169,2.92347,-38.2396,2.88911,26.2805,0.667111,2.35009,-0.163772,-1.19769,0.527846,-2.49036,0.414837,0.384609,0.210949,0.255405,0.949909,0.177365,-1.09347,0.332562,-0.0929506,-0.170586,
-0.402268,0.0430554,0.0713643,-1.71486,-0.143147,0.0276407,0.404101,-0.264709,-0.0140978,-0.279424,-0.182004,0.662663,0.170915,-0.237702,0,0,0,0,0,0,0,-0.392707,0.0447203,0.0810631,-1.70621,-0.176,1.59151,1.20273,-0.421909,0.0411384,-0.435198,-0.159308,0.609339,0.052048,-0.140169,2.92347,-38.2396,2.88911,26.2805,0.667111,2.35009,-0.163772,-0.938845,-1.46581,-2.65038,1.6355,0.632053,-0.822783,-0.784188,1.31516,-0.828883,-1.13383,0.240291,-0.090772,-0.166013,
-0.396974,0.0427038,0.0768708,-1.71166,-0.152901,0.0257872,0.40749,-0.316906,-0.0218778,-0.332441,-0.204111,1.00382,0.185833,-0.277993,0,0,0,0,0,0,0,-0.392707,0.0447203,0.0810631,-1.70621,-0.176,1.59151,1.20273,-0.421909,0.0411384,-0.435198,-0.159308,0.609339,0.052048,-0.140169,2.92347,-38.2396,2.88911,26.2805,0.667111,2.35009,-0.163772,-0.865374,-1.41975,-2.92008,1.69214,0.797773,-0.792278,-0.755411,1.47614,-0.79606,-1.24969,0.273767,-0.0986928,-0.164249,
-0.408623,0.0441544,0.06445,-1.71552,-0.136774,0.0279003,0.404804,-0.27419,-0.026819,-0.289421,-0.176163,0.912015,0.120858,-0.246783,0,0,0,0,0,0,0,-0.392707,0.0447203,0.0810631,-1.70621,-0.176,1.59151,1.20273,-0.421909,0.0411384,-0.435198,-0.159308,0.609339,0.052048,-0.140169,2.92347,-38.2396,2.88911,26.2805,0.667111,2.35009,-0.163772,-0.865374,-1.41975,-2.92008,1.69214,0.797773,-0.792278,-0.755411,1.47614,-0.79606,-1.24969,0.273767,-0.0986928,-0.164249,
-0.409688,0.044041,0.0633246,-1.71621,-0.133104,0.0283343,0.403828,-0.266316,-0.0283342,-0.281362,-0.172956,0.917496,0.10849,-0.244158,0,0,0,0,0,0,0,-0.392707,0.0447203,0.0810631,-1.70621,-0.176,1.59151,1.20273,-0.421909,0.0411384,-0.435198,-0.159308,0.609339,0.052048,-0.140169,2.92347,-38.2396,2.88911,26.2805,0.667111,2.35009,-0.163772,-0.574841,-0.10184,-3.0917,0.977271,1.02591,-0.0415634,-0.00128094,1.49087,-0.0637565,-1.32044,0.36917,-0.0834269,-0.160173,
-0.410721,0.0439204,0.0622313,-1.71689,-0.129455,0.0287218,0.402861,-0.258379,-0.0301614,-0.273316,-0.17081,0.912257,0.0968836,-0.241764,0,0,0,0,0,0,0,-0.392707,0.0447203,0.0810631,-1.70621,-0.176,1.59151,1.20273,-0.421909,0.0411384,-0.435198,-0.159308,0.609339,0.052048,-0.140169,2.92347,-38.2396,2.88911,26.2805,0.667111,2.35009,-0.163772,-0.574841,-0.10184,-3.0917,0.977271,1.02591,-0.0415634,-0.00128094,1.49087,-0.0637565,-1.32044,0.36917,-0.0834269,-0.160173,
-0.411724,0.0437921,0.0611695,-1.71757,-0.125859,0.0290673,0.401903,-0.250571,-0.0320659,-0.265458,-0.169265,0.898925,0.0863702,-0.239479,0,0,0,0,0,0,0,-0.405036,0.0454873,0.0681009,-1.7113,-0.159233,1.59299,1.19732,-0.37285,0.0245784,-0.408166,-0.160568,0.516141,0.0453947,-0.176644,3.17737,-38.2912,3.0359,26.9788,0.624081,2.33727,-0.150955,-1.8031,-0.629557,-2.28016,1.06497,-0.112277,-0.562498,-0.520493,0.788382,-0.576491,-0.989659,0.244098,-0.0966529,-0.15628,
-0.412696,0.0436563,0.0601379,-1.71824,-0.122341,0.0293784,0.400953,-0.243017,-0.0339634,-0.257893,-0.1682,0.879522,0.0777714,-0.237304,0,0,0,0,0,0,0,-0.405036,0.0454873,0.0681009,-1.7113,-0.159233,1.59299,1.19732,-0.37285,0.0245784,-0.408166,-0.160568,0.516141,0.0453947,-0.176644,3.17737,-38.2912,3.0359,26.9788,0.624081,2.33727,-0.150955,-1.8031,-0.629557,-2.28016,1.06497,-0.112277,-0.562498,-0.520493,0.788382,-0.576491,-0.989659,0.244098,-0.0966529,-0.15628,
-0.407286,0.0438042,0.0658197,-1.71521,-0.138363,0.0286833,0.404527,-0.272876,-0.0393605,-0.288607,-0.188975,0.979107,0.168706,-0.278141,0,0,0,0,0,0,0,-0.405036,0.0454873,0.0681009,-1.7113,-0.159233,1.59299,1.19732,-0.37285,0.0245784,-0.408166,-0.160568,0.516141,0.0453947,-0.176644,3.17737,-38.2912,3.0359,26.9788,0.624081,2.33727,-0.150955,-1.05286,-1.14662,-2.6203,1.48562,0.504204,-0.701237,-0.656225,1.2264,-0.714344,-1.11319,0.27255,-0.0812757,-0.155206,
-0.418128,0.0443118,0.0543681,-1.71949,-0.124296,0.0257794,0.400397,-0.236478,-0.045295,-0.25132,-0.181833,0.840374,0.105254,-0.252295,0,0,0,0,0,0,0,-0.405036,0.0454873,0.0681009,-1.7113,-0.159233,1.59299,1.19732,-0.37285,0.0245784,-0.408166,-0.160568,0.516141,0.0453947,-0.176644,3.17737,-38.2912,3.0359,26.9788,0.624081,2.33727,-0.150955,-0.322555,-0.0975456,-2.39188,0.926363,0.779421,-0.0130429,0.0381179,1.17285,-0.0428632,-0.996879,0.433348,-0.0349217,-0.15961,
-0.419032,0.0441236,0.053404,-1.72022,-0.121028,0.0262927,0.399391,-0.226003,-0.0470626,-0.241021,-0.181789,0.816982,0.128325,-0.251419,0,0,0,0,0,0,0,-0.405036,0.0454873,0.0681009,-1.7113,-0.159233,1.59299,1.19732,-0.37285,0.0245784,-0.408166,-0.160568,0.516141,0.0453947,-0.176644,3.17737,-38.2912,3.0359,26.9788,0.624081,2.33727,-0.150955,-0.322555,-0.0975456,-2.39188,0.926363,0.779421,-0.0130429,0.0381179,1.17285,-0.0428632,-0.996879,0.433348,-0.0349217,-0.15961,
-0.419896,0.0439339,0.0524807,-1.72094,-0.117869,0.0268956,0.39841,-0.21585,-0.0474026,-0.230828,-0.179373,0.789761,0.150728,-0.245186,0,0,0,0,0,0,0,-0.416434,0.0458667,0.0560965,-1.71611,-0.14054,1.59387,1.19139,-0.360353,0.00874324,-0.382605,-0.150638,0.607128,0.00768753,-0.173411,3.32813,-38.3388,3.23823,27.5262,1.10016,2.54235,-0.210464,-0.789463,-1.03108,-1.63036,1.33507,0.101813,-0.603519,-0.557211,0.737937,-0.614125,-0.652283,0.38823,-0.00431702,-0.165715,
-0.420722,0.0437429,0.0515937,-1.72164,-0.114822,0.0275589,0.397439,-0.206595,-0.0477598,-0.221745,-0.176235,0.761744,0.165811,-0.242757,0,0,0,0,0,0,0,-0.416434,0.0458667,0.0560965,-1.71611,-0.14054,1.59387,1.19139,-0.360353,0.00874324,-0.382605,-0.150638,0.607128,0.00768753,-0.173411,3.32813,-38.3388,3.23823,27.5262,1.10016,2.54235,-0.210464,-0.789463,-1.03108,-1.63036,1.33507,0.101813,-0.603519,-0.557211,0.737937,-0.614125,-0.652283,0.38823,-0.00431702,-0.165715,
-0.421515,0.0435495,0.0507393,-1.72233,-0.111888,0.0282617,0.396477,-0.198288,-0.0483499,-0.2136,-0.173117,0.733623,0.175703,-0.240621,0,0,0,0,0,0,0,-0.416434,0.0458667,0.0560965,-1.71611,-0.14054,1.59387,1.19139,-0.360353,0.00874324,-0.382605,-0.150638,0.607128,0.00768753,-0.173411,3.32813,-38.3388,3.23823,27.5262,1.10016,2.54235,-0.210464,-0.816523,-1.63644,-1.66433,1.7186,0.097995,-0.92729,-0.885455,0.820049,-0.92559,-0.661436,0.37641,-0.00513405,-0.172235,
-0.422279,0.0433528,0.049914,-1.72302,-0.109064,0.0289888,0.395523,-0.190865,-0.04917,-0.206331,-0.17025,0.706095,0.181769,-0.238522,0,0,0,0,0,0,0,-0.416434,0.0458667,0.0560965,-1.71611,-0.14054,1.59387,1.19139,-0.360353,0.00874324,-0.382605,-0.150638,0.607128,0.00768753,-0.173411,3.32813,-38.3388,3.23823,27.5262,1.10016,2.54235,-0.210464,-0.820351,-0.900548,-1.72753,1.33453,0.117824,-0.540552,-0.49592,0.78465,-0.548408,-0.712963,0.440058,-0.0245816,-0.181797,
-0.419091,0.0435522,0.053281,-1.7208,-0.119098,0.0294103,0.398049,-0.233384,-0.0619747,-0.249985,-0.19064,0.982732,0.204437,-0.277728,0,0,0,0,0,0,0,-0.416434,0.0458667,0.0560965,-1.71611,-0.14054,1.59387,1.19139,-0.360353,0.00874324,-0.382605,-0.150638,0.607128,0.00768753,-0.173411,3.32813,-38.3388,3.23823,27.5262,1.10016,2.54235,-0.210464,-0.820351,-0.900548,-1.72753,1.33453,0.117824,-0.540552,-0.49592,0.78465,-0.548408,-0.712963,0.440058,-0.0245816,-0.181797,
-0.428881,0.0437443,0.0429288,-1.72499,-0.103717,0.0316648,0.393589,-0.195135,-0.0597337,-0.211354,-0.167792,0.795049,0.184623,-0.246407,0,0,0,0,0,0,0,-0.430267,0.0459104,0.0415912,-1.72215,-0.116088,1.59397,1.18549,-0.307544,-0.00151094,-0.321075,-0.126706,0.512154,0.0046176,-0.135406,3.76056,-37.8389,3.53578,26.8796,0.874935,2.73461,-0.210464,-0.897398,0.1169,-1.88742,0.810836,0.113988,-0.0276951,0.0224545,0.729937,-0.0501718,-0.794117,0.529489,-0.0349235,-0.18811,
-0.429633,0.0435044,0.0421112,-1.72564,-0.100498,0.0323502,0.392619,-0.188101,-0.0599616,-0.204397,-0.162282,0.80471,0.171353,-0.242599,0,0,0,0,0,0,0,-0.430267,0.0459104,0.0415912,-1.72215,-0.116088,1.59397,1.18549,-0.307544,-0.00151094,-0.321075,-0.126706,0.512154,0.0046176,-0.135406,3.76056,-37.8389,3.53578,26.8796,0.874935,2.73461,-0.210464,-0.897398,0.1169,-1.88742,0.810836,0.113988,-0.0276951,0.0224545,0.729937,-0.0501718,-0.794117,0.529489,-0.0349235,-0.18811,
-0.430358,0.04326,0.0413215,-1.72628,-0.0972804,0.0329834,0.391657,-0.181192,-0.0610978,-0.197409,-0.158937,0.804397,0.158319,-0.240268,0,0,0,0,0,0,0,-0.430267,0.0459104,0.0415912,-1.72215,-0.116088,1.59397,1.18549,-0.307544,-0.00151094,-0.321075,-0.126706,0.512154,0.0046176,-0.135406,3.76056,-37.8389,3.53578,26.8796,0.874935,2.73461,-0.210464,-1.13321,0.13455,-2.08381,0.812612,0.0311969,-0.0624569,-0.0089092,0.731157,-0.0880797,-0.847817,0.507398,-0.0132765,-0.192876,
-0.431056,0.04301,0.0405589,-1.7269,-0.0940939,0.0335628,0.390705,-0.174467,-0.0625174,-0.190656,-0.156536,0.796624,0.14483,-0.238104,0,0,0,0,0,0,0,-0.430267,0.0459104,0.0415912,-1.72215,-0.116088,1.59397,1.18549,-0.307544,-0.00151094,-0.321075,-0.126706,0.512154,0.0046176,-0.135406,3.76056,-37.8389,3.53578,26.8796,0.874935,2.73461,-0.210464,-1.63977,-0.268719,-2.11668,1.01422,-0.276017,-0.374709,-0.319257,0.635925,-0.396359,-0.842569,0.444562,-0.00192065,-0.200311,
-0.431728,0.042754,0.039822,-1.72752,-0.0909606,0.0340872,0.389761,-0.168042,-0.0639932,-0.184238,-0.15467,0.783331,0.131112,-0.236009,0,0,0,0,0,0,0,-0.430267,0.0459104,0.0415912,-1.72215,-0.116088,1.59397,1.18549,-0.307544,-0.00151094,-0.321075,-0.126706,0.512154,0.0046176,-0.135406,3.76056,-37.8389,3.53578,26.8796,0.874935,2.73461,-0.210464,-1.63977,-0.268719,-2.11668,1.01422,-0.276017,-0.374709,-0.319257,0.635925,-0.396359,-0.842569,0.444562,-0.00192065,-0.200311,
-0.432376,0.0424923,0.0391091,-1.72814,-0.0878968,0.0345584,0.388825,-0.161984,-0.0654356,-0.178212,-0.153222,0.765965,0.117799,-0.233978,0,0,0,0,0,0,0,-0.430267,0.0459104,0.0415912,-1.72215,-0.116088,1.59397,1.18549,-0.307544,-0.00151094,-0.321075,-0.126706,0.512154,0.0046176,-0.135406,3.76056,-37.8389,3.53578,26.8796,0.874935,2.73461,-0.210464,-1.01884,0.0914242,-2.62715,0.955633,0.299779,-0.0512518,0.0070824,0.998218,-0.0809298,-1.02628,0.519625,0.0227546,-0.206147,
-0.428592,0.0432255,0.0431884,-1.72545,-0.100163,0.034207,0.392331,-0.187652,-0.0732356,-0.204385,-0.174159,0.972515,0.24426,-0.270771,0,0,0,0,0,0,0,-0.439287,0.045825,0.0315662,-1.7259,-0.0995897,1.59411,1.18129,-0.287213,-0.00650985,-0.287829,-0.107014,0.50958,0.00166375,-0.127905,3.73279,-37.2914,3.58735,27.1771,1.06994,2.80785,-0.250748,-1.01884,0.0914242,-2.62715,0.955633,0.299779,-0.0512518,0.0070824,0.998218,-0.0809298,-1.02628,0.519625,0.0227546,-0.206147,
-0.448933,0.0426963,0.0211685,-1.73399,-0.0635955,0.028691,0.383669,-0.143646,-0.0782629,-0.159772,-0.163602,0.716949,0.126308,-0.243945,0,0,0,0,0,0,0,-0.439287,0.045825,0.0315662,-1.7259,-0.0995897,1.59411,1.18129,-0.287213,-0.00650985,-0.287829,-0.107014,0.50958,0.00166375,-0.127905,3.73279,-37.2914,3.58735,27.1771,1.06994,2.80785,-0.250748,-0.625093,-0.125207,-2.81956,1.11128,0.595267,-0.0666079,-0.00839367,1.18414,-0.0960209,-1.05517,0.508989,0.070695,-0.211644,
-0.449474,0.0423835,0.0205635,-1.73464,-0.0608835,0.0292649,0.382712,-0.135191,-0.0782081,-0.151241,-0.162316,0.678019,0.14349,-0.239464,0,0,0,0,0,0,0,-0.439287,0.045825,0.0315662,-1.7259,-0.0995897,1.59411,1.18129,-0.287213,-0.00650985,-0.287829,-0.107014,0.50958,0.00166375,-0.127905,3.73279,-37.2914,3.58735,27.1771,1.06994,2.80785,-0.250748,-0.625093,-0.125207,-2.81956,1.11128,0.595267,-0.0666079,-0.00839367,1.18414,-0.0960209,-1.05517,0.508989,0.070695,-0.211644,
-0.449984,0.0420716,0.0199889,-1.73528,-0.0583363,0.0298767,0.381763,-0.127473,-0.0779699,-0.143656,-0.159804,0.636796,0.152948,-0.237267,0,0,0,0,0,0,0,-0.439287,0.045825,0.0315662,-1.7259,-0.0995897,1.59411,1.18129,-0.287213,-0.00650985,-0.287829,-0.107014,0.50958,0.00166375,-0.127905,3.73279,-37.2914,3.58735,27.1771,1.06994,2.80785,-0.250748,-1.53176,-1.05379,-2.84044,1.61148,0.0399837,-0.748592,-0.694377,1.03959,-0.760355,-1.04253,0.414409,0.0792489,-0.215271,
-0.450466,0.0417599,0.0194413,-1.73591,-0.0559594,0.0305059,0.380822,-0.120579,-0.0779239,-0.136892,-0.157157,0.594228,0.157302,-0.235232,0,0,0,0,0,0,0,-0.439287,0.045825,0.0315662,-1.7259,-0.0995897,1.59411,1.18129,-0.287213,-0.00650985,-0.287829,-0.107014,0.50958,0.00166375,-0.127905,3.73279,-37.2914,3.58735,27.1771,1.06994,2.80785,-0.250748,-1.53176,-1.05379,-2.84044,1.61148,0.0399837,-0.748592,-0.694377,1.03959,-0.760355,-1.04253,0.414409,0.0792489,-0.215271,
-0.450924,0.0414474,0.0189176,-1.73653,-0.0537539,0.0311387,0.379889,-0.114491,-0.0781161,-0.130932,-0.154744,0.551377,0.158201,-0.233195,0,0,0,0,0,0,0,-0.447352,0.0456041,0.0228706,-1.72914,-0.0827974,1.5942,1.17725,-0.234808,-0.0150539,-0.256492,-0.101715,0.521503,0.00394728,-0.134975,2.87189,-36.9661,2.68678,25.9076,0.880428,2.37023,-0.270889,-1.55339,-0.971287,-2.76396,1.55497,-0.0323913,-0.714887,-0.657992,0.970491,-0.729915,-0.99789,0.42807,0.0940691,-0.218034,
-0.451361,0.0411335,0.0184145,-1.73714,-0.0517154,0.0317665,0.378964,-0.109208,-0.0784943,-0.125779,-0.152696,0.509609,0.156934,-0.231136,0,0,0,0,0,0,0,-0.447352,0.0456041,0.0228706,-1.72914,-0.0827974,1.5942,1.17725,-0.234808,-0.0150539,-0.256492,-0.101715,0.521503,0.00394728,-0.134975,2.87189,-36.9661,2.68678,25.9076,0.880428,2.37023,-0.270889,-1.8716,-0.57783,-2.7368,1.30293,-0.24896,-0.5839,-0.523489,0.820433,-0.605631,-0.993362,0.424776,0.08854,-0.223883,
-0.448684,0.0420882,0.0213745,-1.73458,-0.0600179,0.0336404,0.382501,-0.140825,-0.0937589,-0.157903,-0.171085,0.947279,0.246208,-0.266723,0,0,0,0,0,0,0,-0.447352,0.0456041,0.0228706,-1.72914,-0.0827974,1.5942,1.17725,-0.234808,-0.0150539,-0.256492,-0.101715,0.521503,0.00394728,-0.134975,2.87189,-36.9661,2.68678,25.9076,0.880428,2.37023,-0.270889,-1.8716,-0.57783,-2.7368,1.30293,-0.24896,-0.5839,-0.523489,0.820433,-0.605631,-0.993362,0.424776,0.08854,-0.223883,
-0.454864,0.0419625,0.0145766,-1.73722,-0.0545636,0.0327374,0.379883,-0.112309,-0.087808,-0.130048,-0.158549,0.586634,0.214437,-0.235963,0,0,0,0,0,0,0,-0.447352,0.0456041,0.0228706,-1.72914,-0.0827974,1.5942,1.17725,-0.234808,-0.0150539,-0.256492,-0.101715,0.521503,0.00394728,-0.134975,2.87189,-36.9661,2.68678,25.9076,0.880428,2.37023,-0.270889,-1.77829,0.304321,-2.4878,0.734188,-0.341518,-0.112602,-0.0475495,0.590961,-0.148964,-0.881693,0.471038,0.10733,-0.226934,
-0.455312,0.0416139,0.0140554,-1.73785,-0.0519828,0.0335907,0.378944,-0.11209,-0.0871473,-0.130294,-0.155518,0.645204,0.213317,-0.234917,0,0,0,0,0,0,0,-0.447352,0.0456041,0.0228706,-1.72914,-0.0827974,1.5942,1.17725,-0.234808,-0.0150539,-0.256492,-0.101715,0.521503,0.00394728,-0.134975,2.87189,-36.9661,2.68678,25.9076,0.880428,2.37023,-0.270889,-1.77829,0.304321,-2.4878,0.734188,-0.341518,-0.112602,-0.0475495,0.590961,-0.148964,-0.881693,0.471038,0.10733,-0.226934,
-0.455754,0.0412665,0.0135425,-1.73846,-0.0492612,0.0344213,0.378013,-0.110512,-0.0868331,-0.128237,-0.152602,0.680413,0.207648,-0.232719,0,0,0,0,0,0,0,-0.447352,0.0456041,0.0228706,-1.72914,-0.0827974,1.5942,1.17725,-0.234808,-0.0150539,-0.256492,-0.101715,0.521503,0.00394728,-0.134975,2.87189,-36.9661,2.68678,25.9076,0.880428,2.37023,-0.270889,-2.16124,0.302224,-2.57239,0.726501,-0.47484,-0.202919,-0.135088,0.583621,-0.242168,-0.975191,0.411337,0.0450095,-0.230612,
-0.456185,0.0409191,0.013042,-1.73906,-0.0464681,0.0352167,0.377091,-0.107733,-0.0868468,-0.125123,-0.150035,0.69827,0.198849,-0.230559,0,0,0,0,0,0,0,-0.454528,0.0449985,0.0152877,-1.7326,-0.0683544,1.59453,1.17245,-0.209799,-0.0191303,-0.232063,-0.10794,0.461412,0.0339675,-0.143206,2.34027,-37.3906,2.26228,26.2289,1.5158,2.33727,-0.23793,-2.16124,0.302224,-2.57239,0.726501,-0.47484,-0.202919,-0.135088,0.583621,-0.242168,-0.975191,0.411337,0.0450095,-0.230612,
-0.456602,0.0405707,0.0125563,-1.73965,-0.0436554,0.0359688,0.376177,-0.104243,-0.0871081,-0.121419,-0.14787,0.703167,0.188022,-0.228499,0,0,0,0,0,0,0,-0.454528,0.0449985,0.0152877,-1.7326,-0.0683544,1.59453,1.17245,-0.209799,-0.0191303,-0.232063,-0.10794,0.461412,0.0339675,-0.143206,2.34027,-37.3906,2.26228,26.2289,1.5158,2.33727,-0.23793,-2.91651,-0.0414753,-2.88775,1.00967,-0.731525,-0.563101,-0.49677,0.655082,-0.59355,-1.18152,0.371625,-0.0416722,-0.238548,
-0.454268,0.0418303,0.0152193,-1.73709,-0.0491159,0.0357113,0.379785,-0.104851,-0.100678,-0.12246,-0.166298,0.814121,0.310189,-0.260749,0,0,0,0,0,0,0,-0.454528,0.0449985,0.0152877,-1.7326,-0.0683544,1.59453,1.17245,-0.209799,-0.0191303,-0.232063,-0.10794,0.461412,0.0339675,-0.143206,2.34027,-37.3906,2.26228,26.2289,1.5158,2.33727,-0.23793,-3.2567,-0.521234,-2.72304,1.29224,-1.04734,-0.904457,-0.845248,0.529161,-0.918857,-1.10067,0.393517,-0.0283488,-0.2413,
-0.46083,0.0414991,0.00826762,-1.73996,-0.0373147,0.0318731,0.376156,-0.0938733,-0.093496,-0.110488,-0.155883,0.715323,0.174343,-0.238147,0,0,0,0,0,0,0,-0.454528,0.0449985,0.0152877,-1.7326,-0.0683544,1.59453,1.17245,-0.209799,-0.0191303,-0.232063,-0.10794,0.461412,0.0339675,-0.143206,2.34027,-37.3906,2.26228,26.2289,1.5158,2.33727,-0.23793,-3.2567,-0.521234,-2.72304,1.29224,-1.04734,-0.904457,-0.845248,0.529161,-0.918857,-1.10067,0.393517,-0.0283488,-0.2413,
-0.461174,0.0411184,0.00785681,-1.74058,-0.0345784,0.0325778,0.37521,-0.0859968,-0.0951784,-0.102701,-0.155254,0.684055,0.176184,-0.236462,0,0,0,0,0,0,0,-0.454528,0.0449985,0.0152877,-1.7326,-0.0683544,1.59453,1.17245,-0.209799,-0.0191303,-0.232063,-0.10794,0.461412,0.0339675,-0.143206,2.34027,-37.3906,2.26228,26.2289,1.5158,2.33727,-0.23793,-3.0433,-0.5191,-2.95521,1.36703,-0.818672,-0.85384,-0.795397,0.70583,-0.867615,-1.19558,0.414904,-0.0305151,-0.247919,
-0.461487,0.0407333,0.00747597,-1.7412,-0.0319965,0.0333066,0.374271,-0.0784385,-0.0962691,-0.09521,-0.154624,0.645488,0.18221,-0.23487,0,0,0,0,0,0,0,-0.460265,0.0441455,0.00842296,-1.73624,-0.0542541,1.59608,1.16892,-0.172226,-0.0275777,-0.204213,-0.113645,0.437416,0.0550133,-0.0999339,2.41565,-37.1684,2.33766,26.3281,1.56433,2.5158,-0.244339,-3.0433,-0.5191,-2.95521,1.36703,-0.818672,-0.85384,-0.795397,0.70583,-0.867615,-1.19558,0.414904,-0.0305151,-0.247919,
-0.461771,0.0403486,0.00712523,-1.74181,-0.0296069,0.034063,0.373347,-0.0709837,-0.0961748,-0.0876866,-0.152452,0.597384,0.189083,-0.231028,0,0,0,0,0,0,0,-0.460265,0.0441455,0.00842296,-1.73624,-0.0542541,1.59608,1.16892,-0.172226,-0.0275777,-0.204213,-0.113645,0.437416,0.0550133,-0.0999339,2.41565,-37.1684,2.33766,26.3281,1.56433,2.5158,-0.244339,-2.98565,-0.168427,-2.82713,1.15107,-0.83728,-0.664583,-0.605203,0.629383,-0.68303,-1.16429,0.437769,-0.0476208,-0.253341,
-0.462029,0.039964,0.00680038,-1.74241,-0.0274128,0.0348243,0.372431,-0.0643563,-0.096147,-0.0812115,-0.149908,0.548527,0.190333,-0.229042,0,0,0,0,0,0,0,-0.460265,0.0441455,0.00842296,-1.73624,-0.0542541,1.59608,1.16892,-0.172226,-0.0275777,-0.204213,-0.113645,0.437416,0.0550133,-0.0999339,2.41565,-37.1684,2.33766,26.3281,1.56433,2.5158,-0.244339,-2.92168,0.0475625,-2.51172,0.973799,-0.961843,-0.547486,-0.485747,0.453365,-0.570424,-1.03129,0.468751,-0.0375133,-0.256158,
-0.462263,0.0395788,0.00649808,-1.743,-0.025416,0.0355758,0.371522,-0.0585848,-0.0963168,-0.0755756,-0.147531,0.499209,0.187879,-0.227168,0,0,0,0,0,0,0,-0.460265,0.0441455,0.00842296,-1.73624,-0.0542541,1.59608,1.16892,-0.172226,-0.0275777,-0.204213,-0.113645,0.437416,0.0550133,-0.0999339,2.41565,-37.1684,2.33766,26.3281,1.56433,2.5158,-0.244339,-2.92168,0.0475625,-2.51172,0.973799,-0.961843,-0.547486,-0.485747,0.453365,-0.570424,-1.03129,0.468751,-0.0375133,-0.256158,
