PerkyPenguin/Analysis-on-Approximated-Derivatives/Code_and_Data/PaperData/Real_Robot/Scene_1/contact_change/15/trajectory.csv
Commanded Joint 0 Position,Commanded Joint 1 Position,Commanded Joint 2 Position,Commanded Joint 3 Position,Commanded Joint 4 Position,Commanded Joint 5 Position,Commanded Joint 6 Position,Commanded Joint 0 Velocity,Commanded Joint 1 Velocity,Commanded Joint 2 Velocity,Commanded Joint 3 Velocity,Commanded Joint 4 Velocity,Commanded Joint 5 Velocity,Commanded Joint 6 Velocity,Commanded Joint 0 Torque,Commanded Joint 1 Torque,Commanded Joint 2 Torque,Commanded Joint 3 Torque,Commanded Joint 4 Torque,Commanded Joint 5 Torque,Commanded Joint 6 Torque,Actual Joint 0 Position,Actual Joint 1 Position,Actual Joint 2 Position,Actual Joint 3 Position,Actual Joint 4 Position,Actual Joint 5 Position,Actual Joint 6 Position,Actual Joint 0 Velocity,Actual Joint 1 Velocity,Actual Joint 2 Velocity,Actual Joint 3 Velocity,Actual Joint 4 Velocity,Actual Joint 5 Velocity,Actual Joint 6 Velocity,Actual Joint 0 Torque,Actual Joint 1 Torque,Actual Joint 2 Torque,Actual Joint 3 Torque,Actual Joint 4 Torque,Actual Joint 5 Torque,Actual Joint 6 Torque,EE ext force 0,EE ext force 1,EE ext force 2,EE ext force 3,EE ext force 4,EE ext force 5,joint ext torque 0,joint ext torque 1,joint ext torque 2,joint ext torque 3,joint ext torque 4,joint ext torque 5,joint ext torque 6,
0.0108423,-0.196742,-0.333785,-1.66114,-0.0912802,-0.0923013,-0.383018,-0.00261413,0.0137212,-0.0125413,-0.149367,0.00632084,0.19915,-0.00213761,0,0,0,0,0,0,0,0.01086,-0.196699,-0.333677,-1.65965,-0.0913523,1.47652,0.402401,0.000855978,0.00382601,0.000444963,-0.000235695,-0.00352345,0.000314612,-0.000152787,-0.147213,-25.8101,1.83778,26.0068,0.562741,2.94701,-0.0365141,-1.57452,0.0999671,-0.411657,-0.0308883,-0.736603,-0.195805,-0.0990345,-0.218682,-0.274281,-0.275461,-0.137479,-0.314595,-0.03398,
0.0108269,-0.196612,-0.333846,-1.66177,-0.0912597,-0.0914751,-0.383026,-0.00384601,0.0326176,-0.0154279,-0.158639,0.00514112,0.206559,-0.00203442,0,0,0,0,0,0,0,0.01086,-0.196699,-0.333677,-1.65965,-0.0913523,1.47652,0.402401,0.000855978,0.00382601,0.000444963,-0.000235695,-0.00352345,0.000314612,-0.000152787,-0.147213,-25.8101,1.83778,26.0068,0.562741,2.94701,-0.0365141,-1.32681,0.0531992,-0.560675,0.0300645,-0.485754,-0.171624,-0.0773567,-0.0506429,-0.25765,-0.365924,-0.13569,-0.318386,-0.0350936,
0.010867,-0.196661,-0.33367,-1.65966,-0.091383,-0.0942723,-0.382998,0.00034028,0.00184347,0.000311352,-0.00085639,-0.0012344,0.000130633,-1.75818e-05,0,0,0,0,0,0,0,0.0108622,-0.196706,-0.33368,-1.65965,-0.0913427,1.47652,0.402397,0.00153134,0.00405966,0.00093502,-0.00121599,-0.00293504,0.000640672,-0.00118993,-0.147213,-25.7109,1.83778,25.983,0.507809,2.93328,-0.00996382,-1.6274,0.115327,-0.275508,-0.0624335,-0.839371,-0.197607,-0.102053,-0.303479,-0.269685,-0.207396,-0.132709,-0.303929,-0.0349027,
0.0108682,-0.196654,-0.333669,-1.65967,-0.0913868,-0.0942725,-0.382998,0.000295183,0.00158754,0.000261239,-0.0007677,-0.000945757,-3.30383e-05,-1.48779e-05,0,0,0,0,0,0,0,0.0108622,-0.196706,-0.33368,-1.65965,-0.0913427,1.47652,0.402397,0.00153134,0.00405966,0.00093502,-0.00121599,-0.00293504,0.000640672,-0.00118993,-0.147213,-25.7109,1.83778,25.983,0.507809,2.93328,-0.00996382,-1.6274,0.115327,-0.275508,-0.0624335,-0.839371,-0.197607,-0.102053,-0.303479,-0.269685,-0.207396,-0.132709,-0.303929,-0.0349027,
0.0108692,-0.196649,-0.333669,-1.65967,-0.0913897,-0.0942731,-0.382998,0.000258081,0.00136649,0.000221484,-0.000681704,-0.00072476,-0.000160369,-1.25783e-05,0,0,0,0,0,0,0,0.0108622,-0.196706,-0.33368,-1.65965,-0.0913427,1.47652,0.402397,0.00153134,0.00405966,0.00093502,-0.00121599,-0.00293504,0.000640672,-0.00118993,-0.147213,-25.7109,1.83778,25.983,0.507809,2.93328,-0.00996382,-2.00918,0.266295,-0.682392,-0.126825,-0.991045,-0.195304,-0.0988587,-0.327853,-0.265362,-0.304214,-0.138836,-0.296532,-0.0360847,
0.0108701,-0.196644,-0.333668,-1.65967,-0.0913919,-0.0942741,-0.382998,0.000227283,0.00117418,0.000189484,-0.000602071,-0.000555412,-0.000255436,-1.06699e-05,0,0,0,0,0,0,0,0.0108622,-0.196706,-0.33368,-1.65965,-0.0913427,1.47652,0.402397,0.00153134,0.00405966,0.00093502,-0.00121599,-0.00293504,0.000640672,-0.00118993,-0.147213,-25.7109,1.83778,25.983,0.507809,2.93328,-0.00996382,-2.00918,0.266295,-0.682392,-0.126825,-0.991045,-0.195304,-0.0988587,-0.327853,-0.265362,-0.304214,-0.138836,-0.296532,-0.0360847,
0.0108709,-0.19664,-0.333667,-1.65967,-0.0913936,-0.0942754,-0.382998,0.000201405,0.00100634,0.0001633,-0.000529641,-0.00042548,-0.000323802,-9.09161e-06,0,0,0,0,0,0,0,0.0108622,-0.196706,-0.33368,-1.65965,-0.0913427,1.47652,0.402397,0.00153134,0.00405966,0.00093502,-0.00121599,-0.00293504,0.000640672,-0.00118993,-0.147213,-25.7109,1.83778,25.983,0.507809,2.93328,-0.00996382,-2.69747,0.408067,-1.32356,-0.137002,-1.28587,-0.251182,-0.151457,-0.393938,-0.330076,-0.463055,-0.137908,-0.301474,-0.0374059,
0.0108716,-0.196637,-0.333667,-1.65968,-0.0913949,-0.0942769,-0.382998,0.000179387,0.000859638,0.000141519,-0.000464286,-0.000325701,-0.000370775,-7.77946e-06,0,0,0,0,0,0,0,0.0108549,-0.196697,-0.333684,-1.65997,-0.0913309,1.47707,0.402398,0.00013635,0.00628512,-0.000337961,-4.73814e-05,-0.000959801,0.0114206,-0.00059282,-0.0440639,-25.9371,1.88936,26.5543,0.416256,3.06603,-0.00996382,-2.69747,0.408067,-1.32356,-0.137002,-1.28587,-0.251182,-0.151457,-0.393938,-0.330076,-0.463055,-0.137908,-0.301474,-0.0374059,
0.0107419,-0.196612,-0.333766,-1.65953,-0.0898224,-0.0952553,-0.382997,-0.0113167,0.00611217,-0.0100933,0.00921628,0.175333,-0.110912,0.000362923,0,0,0,0,0,0,0,0.0108549,-0.196697,-0.333684,-1.65997,-0.0913309,1.47707,0.402398,0.00013635,0.00628512,-0.000337961,-4.73814e-05,-0.000959801,0.0114206,-0.00059282,-0.0440639,-25.9371,1.88936,26.5543,0.416256,3.06603,-0.00996382,-1.43843,0.0444499,-1.54621,0.169448,-0.253255,-0.188933,-0.0883019,0.217312,-0.307244,-0.674495,-0.137798,-0.271886,-0.0372093,
0.0107361,-0.196592,-0.333776,-1.65986,-0.0898124,-0.0945946,-0.383,-0.0112456,0.00727253,-0.0101612,0.00904865,0.173309,-0.103429,0.00035119,0,0,0,0,0,0,0,0.0108549,-0.196697,-0.333684,-1.65997,-0.0913309,1.47707,0.402398,0.00013635,0.00628512,-0.000337961,-4.73814e-05,-0.000959801,0.0114206,-0.00059282,-0.0440639,-25.9371,1.88936,26.5543,0.416256,3.06603,-0.00996382,-1.16669,-0.0893392,-1.23759,0.216599,-0.193228,-0.20225,-0.102605,0.186778,-0.319875,-0.554819,-0.135962,-0.233104,-0.035537,
0.0106914,-0.19657,-0.333819,-1.65983,-0.0889902,-0.0950988,-0.382998,-0.0111644,0.00538189,-0.0107975,0.00749627,0.205539,-0.126063,0.000483306,0,0,0,0,0,0,0,0.0108549,-0.196697,-0.333684,-1.65997,-0.0913309,1.47707,0.402398,0.00013635,0.00628512,-0.000337961,-4.73814e-05,-0.000959801,0.0114206,-0.00059282,-0.0440639,-25.9371,1.88936,26.5543,0.416256,3.06603,-0.00996382,-1.16669,-0.0893392,-1.23759,0.216599,-0.193228,-0.20225,-0.102605,0.186778,-0.319875,-0.554819,-0.135962,-0.233104,-0.035537,
0.0106491,-0.196555,-0.333862,-1.6598,-0.0880686,-0.0956773,-0.382996,-0.0105721,0.00372436,-0.0106657,0.00601256,0.230407,-0.144608,0.000557238,0,0,0,0,0,0,0,0.0108549,-0.196697,-0.333684,-1.65997,-0.0913309,1.47707,0.402398,0.00013635,0.00628512,-0.000337961,-4.73814e-05,-0.000959801,0.0114206,-0.00059282,-0.0440639,-25.9371,1.88936,26.5543,0.416256,3.06603,-0.00996382,-1.00583,0.220929,-1.08992,-0.0271226,-0.137641,-0.0330532,0.0663079,0.190362,-0.126288,-0.508459,-0.109665,-0.22434,-0.0359508,
0.0106104,-0.196546,-0.333902,-1.65978,-0.0870696,-0.0963166,-0.382993,-0.0096896,0.0023655,-0.010063,0.00472901,0.24974,-0.159833,0.000595482,0,0,0,0,0,0,0,0.0108549,-0.196697,-0.333684,-1.65997,-0.0913309,1.47707,0.402398,0.00013635,0.00628512,-0.000337961,-4.73814e-05,-0.000959801,0.0114206,-0.00059282,-0.0440639,-25.9371,1.88936,26.5543,0.416256,3.06603,-0.00996382,-1.00583,0.220929,-1.08992,-0.0271226,-0.137641,-0.0330532,0.0663079,0.190362,-0.126288,-0.508459,-0.109665,-0.22434,-0.0359508,
0.0105758,-0.196541,-0.333939,-1.65977,-0.0860102,-0.0970058,-0.382991,-0.0086573,0.00129203,-0.00918683,0.00365157,0.26486,-0.172293,0.000610913,0,0,0,0,0,0,0,0.0108383,-0.196703,-0.333695,-1.65991,-0.0911719,1.47706,0.402397,-0.00109827,-0.00553106,-0.00273637,0.000622474,0.0332268,-0.00293451,-0.00125007,0.106693,-25.6117,2.01234,25.9314,0.58746,3.12554,-0.0026396,-1.76089,0.00255068,-1.04819,0.132168,-0.717928,-0.265759,-0.156761,-0.140049,-0.37877,-0.421778,-0.125936,-0.244891,-0.0360788,
0.0105455,-0.196539,-0.333972,-1.65976,-0.0849033,-0.0977355,-0.382988,-0.00756554,0.000467389,-0.0081683,0.00275349,0.276737,-0.182433,0.000611579,0,0,0,0,0,0,0,0.0108383,-0.196703,-0.333695,-1.65991,-0.0911719,1.47706,0.402397,-0.00109827,-0.00553106,-0.00273637,0.000622474,0.0332268,-0.00293451,-0.00125007,0.106693,-25.6117,2.01234,25.9314,0.58746,3.12554,-0.0026396,-1.75601,0.116269,-1.02128,0.139587,-0.743783,-0.212899,-0.0970199,-0.16846,-0.34147,-0.423638,-0.0257026,-0.257943,-0.0356927,
0.0105654,-0.196494,-0.333888,-1.65953,-0.0867914,-0.0974367,-0.38297,-0.0264415,0.012378,-0.0219268,0.0341294,0.520092,-0.420566,0.00326903,0,0,0,0,0,0,0,0.0108383,-0.196703,-0.333695,-1.65991,-0.0911719,1.47706,0.402397,-0.00109827,-0.00553106,-0.00273637,0.000622474,0.0332268,-0.00293451,-0.00125007,0.106693,-25.6117,2.01234,25.9314,0.58746,3.12554,-0.0026396,-1.75601,0.116269,-1.02128,0.139587,-0.743783,-0.212899,-0.0970199,-0.16846,-0.34147,-0.423638,-0.0257026,-0.257943,-0.0356927,
0.0105398,-0.196605,-0.333911,-1.65948,-0.0863676,-0.0973491,-0.382973,-0.0269048,0.00526064,-0.0225432,0.0340374,0.537495,-0.404915,0.00317075,0,0,0,0,0,0,0,0.0108383,-0.196703,-0.333695,-1.65991,-0.0911719,1.47706,0.402397,-0.00109827,-0.00553106,-0.00273637,0.000622474,0.0332268,-0.00293451,-0.00125007,0.106693,-25.6117,2.01234,25.9314,0.58746,3.12554,-0.0026396,-1.58991,-0.0728619,-0.677452,0.316959,-0.752434,-0.269669,-0.145516,-0.234259,-0.426296,-0.332249,0.0527341,-0.274138,-0.0341206,
0.0104384,-0.196602,-0.334001,-1.65937,-0.0838278,-0.0992595,-0.382959,-0.0253532,0.000745046,-0.0227377,0.0274294,0.634946,-0.477593,0.00348883,0,0,0,0,0,0,0,0.0108383,-0.196703,-0.333695,-1.65991,-0.0911719,1.47706,0.402397,-0.00109827,-0.00553106,-0.00273637,0.000622474,0.0332268,-0.00293451,-0.00125007,0.106693,-25.6117,2.01234,25.9314,0.58746,3.12554,-0.0026396,-1.58991,-0.0728619,-0.677452,0.316959,-0.752434,-0.269669,-0.145516,-0.234259,-0.426296,-0.332249,0.0527341,-0.274138,-0.0341206,
0.0103479,-0.196614,-0.334086,-1.65929,-0.0809795,-0.1014,-0.382944,-0.0226222,-0.0030049,-0.0211514,0.0210684,0.712091,-0.535013,0.00365515,0,0,0,0,0,0,0,0.0107806,-0.196551,-0.333775,-1.65976,-0.0876873,1.4769,0.402398,0.000885809,0.0132636,-0.00120827,0.00576393,0.158885,-0.0150897,-0.000286189,0.309024,-25.8855,2.1393,26.2051,1.60736,2.5689,-0.00996382,-1.3717,-0.252593,-0.694588,0.484642,-0.586916,-0.309988,-0.1839,-0.142716,-0.488526,-0.365205,0.0789836,-0.272585,-0.0352677,
0.0102708,-0.196637,-0.33416,-1.65922,-0.0778843,-0.103721,-0.38293,-0.0192712,-0.00580195,-0.0185097,0.0154984,0.7738,-0.58041,0.0037317,0,0,0,0,0,0,0,0.0107806,-0.196551,-0.333775,-1.65976,-0.0876873,1.4769,0.402398,0.000885809,0.0132636,-0.00120827,0.00576393,0.158885,-0.0150897,-0.000286189,0.309024,-25.8855,2.1393,26.2051,1.60736,2.5689,-0.00996382,-1.3717,-0.252593,-0.694588,0.484642,-0.586916,-0.309988,-0.1839,-0.142716,-0.488526,-0.365205,0.0789836,-0.272585,-0.0352677,
0.0102082,-0.196668,-0.334221,-1.65918,-0.0745898,-0.106185,-0.382915,-0.0156445,-0.00772677,-0.0152888,0.0107682,0.823618,-0.61607,0.00375148,0,0,0,0,0,0,0,0.0107806,-0.196551,-0.333775,-1.65976,-0.0876873,1.4769,0.402398,0.000885809,0.0132636,-0.00120827,0.00576393,0.158885,-0.0150897,-0.000286189,0.309024,-25.8855,2.1393,26.2051,1.60736,2.5689,-0.00996382,-1.23417,-0.203179,-0.0934062,0.48605,-0.70447,-0.262242,-0.134254,-0.306429,-0.446369,-0.194898,0.203533,-0.311132,-0.0368872,
0.0101604,-0.196704,-0.334268,-1.65915,-0.0711331,-0.108761,-0.3829,-0.0119588,-0.00892795,-0.0118018,0.00678897,0.864166,-0.643763,0.00373431,0,0,0,0,0,0,0,0.0107806,-0.196551,-0.333775,-1.65976,-0.0876873,1.4769,0.402398,0.000885809,0.0132636,-0.00120827,0.00576393,0.158885,-0.0150897,-0.000286189,0.309024,-25.8855,2.1393,26.2051,1.60736,2.5689,-0.00996382,-1.23417,-0.203179,-0.0934062,0.48605,-0.70447,-0.262242,-0.134254,-0.306429,-0.446369,-0.194898,0.203533,-0.311132,-0.0368872,
0.0114274,-0.196859,-0.332991,-1.65978,-0.0880254,-0.0992482,-0.382857,0.0717633,-0.019232,0.0847094,0.0042293,0.364345,-0.634825,0.0120102,0,0,0,0,0,0,0,0.0107806,-0.196551,-0.333775,-1.65976,-0.0876873,1.4769,0.402398,0.000885809,0.0132636,-0.00120827,0.00576393,0.158885,-0.0150897,-0.000286189,0.309024,-25.8855,2.1393,26.2051,1.60736,2.5689,-0.00996382,-0.296348,-0.193036,0.274212,0.59218,-0.0965699,-0.0896672,0.0410642,-0.0121509,-0.301359,-0.239009,0.361021,-0.37843,-0.0373076,
0.0114372,-0.196593,-0.33302,-1.65968,-0.0835767,-0.0994454,-0.382853,0.0777307,-0.0117818,0.0897304,-0.000827814,0.428272,-0.636993,0.0122542,0,0,0,0,0,0,0,0.0107806,-0.196551,-0.333775,-1.65976,-0.0876873,1.4769,0.402398,0.000885809,0.0132636,-0.00120827,0.00576393,0.158885,-0.0150897,-0.000286189,0.309024,-25.8855,2.1393,26.2051,1.60736,2.5689,-0.00996382,-0.258419,-0.381809,0.487425,0.877632,-0.077361,-0.166524,-0.0221535,-0.00865498,-0.431556,-0.283998,0.496915,-0.498041,-0.0372639,
0.0118229,-0.196661,-0.332576,-1.65972,-0.0815565,-0.102518,-0.382805,0.0964388,-0.0169591,0.110936,-0.00997719,0.505048,-0.76816,0.0118531,0,0,0,0,0,0,0,0.0102792,-0.196407,-0.33404,-1.65939,-0.0773004,1.47448,0.402399,-0.0173184,0.00758692,-0.0112051,0.00830404,0.389735,-0.100586,-0.00051381,0.919986,-25.9093,2.51222,25.733,2.24823,1.91247,-0.0227812,-0.258419,-0.381809,0.487425,0.877632,-0.077361,-0.166524,-0.0221535,-0.00865498,-0.431556,-0.283998,0.496915,-0.498041,-0.0372639,
0.0122731,-0.196741,-0.33206,-1.6598,-0.0792573,-0.106019,-0.382759,0.11254,-0.0199256,0.128943,-0.0186125,0.574788,-0.875341,0.0114832,0,0,0,0,0,0,0,0.0102792,-0.196407,-0.33404,-1.65939,-0.0773004,1.47448,0.402399,-0.0173184,0.00758692,-0.0112051,0.00830404,0.389735,-0.100586,-0.00051381,0.919986,-25.9093,2.51222,25.733,2.24823,1.91247,-0.0227812,-0.626365,-0.24809,0.667813,0.937102,-0.324685,-0.173673,-0.0158028,-0.135311,-0.470053,-0.32923,0.640945,-0.658567,-0.0339356,
0.0127789,-0.196825,-0.331483,-1.6599,-0.076707,-0.109872,-0.382715,0.12646,-0.0211196,0.144345,-0.026447,0.637583,-0.963159,0.0111462,0,0,0,0,0,0,0,0.0102792,-0.196407,-0.33404,-1.65939,-0.0773004,1.47448,0.402399,-0.0173184,0.00758692,-0.0112051,0.00830404,0.389735,-0.100586,-0.00051381,0.919986,-25.9093,2.51222,25.733,2.24823,1.91247,-0.0227812,-0.626365,-0.24809,0.667813,0.937102,-0.324685,-0.173673,-0.0158028,-0.135311,-0.470053,-0.32923,0.640945,-0.658567,-0.0339356,
0.0133331,-0.196909,-0.330853,-1.66004,-0.073932,-0.114013,-0.382671,0.138543,-0.0209672,0.157599,-0.0334327,0.693742,-1.0352,0.0108363,0,0,0,0,0,0,0,0.0102792,-0.196407,-0.33404,-1.65939,-0.0773004,1.47448,0.402399,-0.0173184,0.00758692,-0.0112051,0.00830404,0.389735,-0.100586,-0.00051381,0.919986,-25.9093,2.51222,25.733,2.24823,1.91247,-0.0227812,-1.01144,0.0411825,1.22155,0.716245,-0.751139,-0.121006,0.0405736,-0.432632,-0.396804,-0.171846,0.699149,-0.758925,-0.0243942,
0.0139294,-0.196989,-0.330176,-1.6602,-0.0709572,-0.11839,-0.382629,0.149064,-0.0198299,0.16906,-0.0396031,0.743705,-1.09432,0.0105479,0,0,0,0,0,0,0,0.0102792,-0.196407,-0.33404,-1.65939,-0.0773004,1.47448,0.402399,-0.0173184,0.00758692,-0.0112051,0.00830404,0.389735,-0.100586,-0.00051381,0.919986,-25.9093,2.51222,25.733,2.24823,1.91247,-0.0227812,-1.01144,0.0411825,1.22155,0.716245,-0.751139,-0.121006,0.0405736,-0.432632,-0.396804,-0.171846,0.699149,-0.758925,-0.0243942,
0.012167,-0.196962,-0.332282,-1.66025,-0.0849184,-0.0991934,-0.382823,0.158342,-0.0464001,0.175362,-0.0543362,0.289171,-0.618913,0.0144234,0,0,0,0,0,0,0,0.0103112,-0.196557,-0.333762,-1.65921,-0.0682606,1.47033,0.402401,0.0120338,-0.00750771,0.0184569,0.00126132,0.271342,-0.188969,0.00142369,1.98322,-24.9373,4.41255,25.1102,1.6806,1.44829,-0.0227812,-0.574874,-0.11142,1.26584,0.758804,-0.330806,-0.122467,-0.00327571,-0.154732,-0.361387,-0.280169,0.609455,-0.828102,-0.0185805,
0.0118202,-0.197131,-0.332132,-1.65977,-0.0644713,-0.107083,-0.382804,0.166894,-0.0566252,0.184477,-0.0602048,0.362057,-0.705234,0.0152978,0,0,0,0,0,0,0,0.0103112,-0.196557,-0.333762,-1.65921,-0.0682606,1.47033,0.402401,0.0120338,-0.00750771,0.0184569,0.00126132,0.271342,-0.188969,0.00142369,1.98322,-24.9373,4.41255,25.1102,1.6806,1.44829,-0.0227812,-0.226751,0.18641,1.55227,0.484884,-0.0924088,0.0657494,0.142772,-0.0276603,-0.107339,-0.282269,0.597237,-0.89681,-0.0147995,
0.0126121,-0.197366,-0.331249,-1.66005,-0.0627847,-0.110376,-0.382746,0.197983,-0.0586811,0.220796,-0.0694688,0.421649,-0.82325,0.0144408,0,0,0,0,0,0,0,0.0103112,-0.196557,-0.333762,-1.65921,-0.0682606,1.47033,0.402401,0.0120338,-0.00750771,0.0184569,0.00126132,0.271342,-0.188969,0.00142369,1.98322,-24.9373,4.41255,25.1102,1.6806,1.44829,-0.0227812,-0.226751,0.18641,1.55227,0.484884,-0.0924088,0.0657494,0.142772,-0.0276603,-0.107339,-0.282269,0.597237,-0.89681,-0.0147995,
0.0135074,-0.197598,-0.330247,-1.66036,-0.0608493,-0.114054,-0.382691,0.223813,-0.0580867,0.250551,-0.0775721,0.483839,-0.919496,0.0137399,0,0,0,0,0,0,0,0.0103112,-0.196557,-0.333762,-1.65921,-0.0682606,1.47033,0.402401,0.0120338,-0.00750771,0.0184569,0.00126132,0.271342,-0.188969,0.00142369,1.98322,-24.9373,4.41255,25.1102,1.6806,1.44829,-0.0227812,-0.481591,1.11108,1.54084,-0.107664,-0.189914,0.436051,0.497573,-0.0365182,0.32468,-0.376512,0.693954,-1.02738,-0.0144487,
0.0144894,-0.197821,-0.329146,-1.6607,-0.0586679,-0.118046,-0.382639,0.245498,-0.0557739,0.275207,-0.0848325,0.54536,-0.997865,0.0131511,0,0,0,0,0,0,0,0.0103112,-0.196557,-0.333762,-1.65921,-0.0682606,1.47033,0.402401,0.0120338,-0.00750771,0.0184569,0.00126132,0.271342,-0.188969,0.00142369,1.98322,-24.9373,4.41255,25.1102,1.6806,1.44829,-0.0227812,-0.481591,1.11108,1.54084,-0.107664,-0.189914,0.436051,0.497573,-0.0365182,0.32468,-0.376512,0.693954,-1.02738,-0.0144487,
0.0155448,-0.19803,-0.327963,-1.66106,-0.0562509,-0.122292,-0.382588,0.26385,-0.0523492,0.295838,-0.091346,0.604246,-1.06166,0.012645,0,0,0,0,0,0,0,0.0103112,-0.196557,-0.333762,-1.65921,-0.0682606,1.47033,0.402401,0.0120338,-0.00750771,0.0184569,0.00126132,0.271342,-0.188969,0.00142369,1.98322,-24.9373,4.41255,25.1102,1.6806,1.44829,-0.0227812,-0.704484,1.57487,1.11651,-0.328846,-0.12126,0.601604,0.664823,0.106958,0.49834,-0.607369,0.741011,-1.13229,-0.0093202,
0.0166626,-0.198223,-0.32671,-1.66145,-0.0536133,-0.126747,-0.382539,0.279471,-0.0482254,0.313237,-0.0971337,0.65939,-1.1136,0.0122046,0,0,0,0,0,0,0,0.0107063,-0.196882,-0.332887,-1.65928,-0.0606735,1.46348,0.402405,0.0205048,-0.0188513,0.049425,-0.0111318,0.191596,-0.217181,0.000482715,2.26093,-25.4372,4.61091,25.7092,0.727535,2.33727,-0.0026396,-1.41824,0.260318,1.25655,0.393834,-0.69622,-0.11779,-0.0442994,-0.23418,-0.270976,-0.42244,0.454532,-1.07306,-0.00451333,
0.0125049,-0.197409,-0.331436,-1.66027,-0.0657186,-0.106832,-0.382809,0.242583,-0.0815392,0.265157,-0.107295,0.232778,-0.685959,0.0150248,0,0,0,0,0,0,0,0.0107063,-0.196882,-0.332887,-1.65928,-0.0606735,1.46348,0.402405,0.0205048,-0.0188513,0.049425,-0.0111318,0.191596,-0.217181,0.000482715,2.26093,-25.4372,4.61091,25.7092,0.727535,2.33727,-0.0026396,-1.41824,0.260318,1.25655,0.393834,-0.69622,-0.11779,-0.0442994,-0.23418,-0.270976,-0.42244,0.454532,-1.07306,-0.00451333,
0.0129845,-0.197764,-0.330446,-1.66038,-0.0585368,-0.11392,-0.38278,0.246414,-0.0821167,0.270075,-0.109233,0.213933,-0.700661,0.0165147,0,0,0,0,0,0,0,0.0107063,-0.196882,-0.332887,-1.65928,-0.0606735,1.46348,0.402405,0.0205048,-0.0188513,0.049425,-0.0111318,0.191596,-0.217181,0.000482715,2.26093,-25.4372,4.61091,25.7092,0.727535,2.33727,-0.0026396,-1.54536,-1.135,1.07996,1.23811,-0.649699,-0.763618,-0.675562,-0.15075,-0.991156,-0.479034,0.164102,-1.06383,-0.00248991,
0.0141382,-0.19809,-0.329168,-1.66085,-0.0574348,-0.117193,-0.382718,0.288426,-0.0814817,0.319375,-0.119189,0.275516,-0.818101,0.0154067,0,0,0,0,0,0,0,0.0107063,-0.196882,-0.332887,-1.65928,-0.0606735,1.46348,0.402405,0.0205048,-0.0188513,0.049425,-0.0111318,0.191596,-0.217181,0.000482715,2.26093,-25.4372,4.61091,25.7092,0.727535,2.33727,-0.0026396,-1.54536,-1.135,1.07996,1.23811,-0.649699,-0.763618,-0.675562,-0.15075,-0.991156,-0.479034,0.164102,-1.06383,-0.00248991,
0.0154305,-0.198401,-0.327731,-1.66136,-0.0560565,-0.120848,-0.38266,0.323066,-0.0778862,0.359483,-0.127545,0.344573,-0.913773,0.0145259,0,0,0,0,0,0,0,0.0107063,-0.196882,-0.332887,-1.65928,-0.0606735,1.46348,0.402405,0.0205048,-0.0188513,0.049425,-0.0111318,0.191596,-0.217181,0.000482715,2.26093,-25.4372,4.61091,25.7092,0.727535,2.33727,-0.0026396,-1.44696,-0.100765,0.843993,0.523137,-0.473989,-0.275434,-0.201362,-0.00314136,-0.428588,-0.597858,0.223915,-1.0925,-0.00469906,
0.0168383,-0.198692,-0.326161,-1.6619,-0.0543934,-0.124813,-0.382605,0.351945,-0.0725882,0.392503,-0.13496,0.415778,-0.99134,0.0138435,0,0,0,0,0,0,0,0.0124372,-0.197625,-0.330478,-1.65975,-0.0522707,1.45408,0.402407,0.065331,-0.0366874,0.0769251,-0.012781,0.250498,-0.337922,-0.000528129,2.97107,-25.0127,5.3885,24.5865,1.24115,2.42333,-0.0026396,-0.888476,1.81038,0.229422,-0.673789,0.142363,0.678292,0.726837,0.435843,0.636896,-0.896625,0.447446,-1.11315,-0.00260601,
0.0183432,-0.198957,-0.324481,-1.66247,-0.0524501,-0.12903,-0.382552,0.376237,-0.0662087,0.419923,-0.141374,0.485818,-1.0543,0.0131896,0,0,0,0,0,0,0,0.0124372,-0.197625,-0.330478,-1.65975,-0.0522707,1.45408,0.402407,0.065331,-0.0366874,0.0769251,-0.012781,0.250498,-0.337922,-0.000528129,2.97107,-25.0127,5.3885,24.5865,1.24115,2.42333,-0.0026396,-0.888476,1.81038,0.229422,-0.673789,0.142363,0.678292,0.726837,0.435843,0.636896,-0.896625,0.447446,-1.11315,-0.00260601,
0.01993,-0.199197,-0.322709,-1.66307,-0.0502387,-0.133398,-0.382501,0.396681,-0.0600249,0.442944,-0.149496,0.552857,-1.09195,0.0126625,0,0,0,0,0,0,0,0.0124372,-0.197625,-0.330478,-1.65975,-0.0522707,1.45408,0.402407,0.065331,-0.0366874,0.0769251,-0.012781,0.250498,-0.337922,-0.000528129,2.97107,-25.0127,5.3885,24.5865,1.24115,2.42333,-0.0026396,-2.23456,1.09682,0.110939,-0.290371,-0.868923,0.118381,0.167795,-0.12926,0.0600041,-0.71534,0.263586,-1.04502,0.00517889,
0.0135872,-0.198032,-0.329842,-1.66084,-0.0596207,-0.113675,-0.3828,0.312798,-0.106458,0.340102,-0.153214,0.10188,-0.681661,0.015198,0,0,0,0,0,0,0,0.0124372,-0.197625,-0.330478,-1.65975,-0.0522707,1.45408,0.402407,0.065331,-0.0366874,0.0769251,-0.012781,0.250498,-0.337922,-0.000528129,2.97107,-25.0127,5.3885,24.5865,1.24115,2.42333,-0.0026396,-2.23456,1.09682,0.110939,-0.290371,-0.868923,0.118381,0.167795,-0.12926,0.0600041,-0.71534,0.263586,-1.04502,0.00517889,
0.0155618,-0.198885,-0.327159,-1.66134,-0.0503837,-0.123976,-0.382769,0.328572,-0.112635,0.357481,-0.155238,0.170413,-0.738587,0.0169943,0,0,0,0,0,0,0,0.0124372,-0.197625,-0.330478,-1.65975,-0.0522707,1.45408,0.402407,0.065331,-0.0366874,0.0769251,-0.012781,0.250498,-0.337922,-0.000528129,2.97107,-25.0127,5.3885,24.5865,1.24115,2.42333,-0.0026396,-2.62911,-0.387268,0.0302751,0.535391,-1.17912,-0.610235,-0.533824,-0.31498,-0.741816,-0.575391,-0.0631845,-0.90719,0.00848761,
0.0170763,-0.19932,-0.325493,-1.662,-0.0494926,-0.127362,-0.382706,0.378614,-0.108636,0.416504,-0.165845,0.22277,-0.846482,0.0157624,0,0,0,0,0,0,0,0.0170602,-0.199691,-0.325017,-1.66171,-0.0451979,1.4395,0.402412,0.133762,-0.0628049,0.169873,-0.0632416,0.139839,-0.405741,-0.000992269,2.92347,-25.0881,5.31312,24.884,1.52221,2.36382,0.00376909,-2.62911,-0.387268,0.0302751,0.535391,-1.17912,-0.610235,-0.533824,-0.31498,-0.741816,-0.575391,-0.0631845,-0.90719,0.00848761,
0.0187544,-0.199726,-0.323636,-1.6627,-0.0483388,-0.131092,-0.382647,0.419527,-0.101473,0.464109,-0.174282,0.288456,-0.932641,0.0147258,0,0,0,0,0,0,0,0.0170602,-0.199691,-0.325017,-1.66171,-0.0451979,1.4395,0.402412,0.133762,-0.0628049,0.169873,-0.0632416,0.139839,-0.405741,-0.000992269,2.92347,-25.0881,5.31312,24.884,1.52221,2.36382,0.00376909,-2.33144,-0.320062,-0.175925,0.514388,-0.924965,-0.523992,-0.444368,-0.160798,-0.661014,-0.637996,-0.0418535,-0.856946,0.00820841,
0.0205673,-0.200101,-0.321624,-1.66344,-0.0468975,-0.135015,-0.382591,0.453223,-0.093767,0.503036,-0.185248,0.360313,-0.980721,0.013917,0,0,0,0,0,0,0,0.0170602,-0.199691,-0.325017,-1.66171,-0.0451979,1.4395,0.402412,0.133762,-0.0628049,0.169873,-0.0632416,0.139839,-0.405741,-0.000992269,2.92347,-25.0881,5.31312,24.884,1.52221,2.36382,0.00376909,-1.6541,1.88233,-0.150479,-0.883561,-0.489446,0.579599,0.638127,0.0621055,0.569291,-0.710322,0.310588,-0.877464,0.00702817,
0.0224924,-0.200442,-0.319484,-1.66423,-0.0451635,-0.138998,-0.382538,0.48127,-0.0853472,0.534988,-0.196809,0.433508,-0.995552,0.0132958,0,0,0,0,0,0,0,0.0170602,-0.199691,-0.325017,-1.66171,-0.0451979,1.4395,0.402412,0.133762,-0.0628049,0.169873,-0.0632416,0.139839,-0.405741,-0.000992269,2.92347,-25.0881,5.31312,24.884,1.52221,2.36382,0.00376909,-1.6541,1.88233,-0.150479,-0.883561,-0.489446,0.579599,0.638127,0.0621055,0.569291,-0.710322,0.310588,-0.877464,0.00702817,
0.016363,-0.199091,-0.327111,-1.66174,-0.0511276,-0.123735,-0.382808,0.403384,-0.130799,0.377141,-0.194317,0.0948324,-0.718252,0.014436,0,0,0,0,0,0,0,0.0170602,-0.199691,-0.325017,-1.66171,-0.0451979,1.4395,0.402412,0.133762,-0.0628049,0.169873,-0.0632416,0.139839,-0.405741,-0.000992269,2.92347,-25.0881,5.31312,24.884,1.52221,2.36382,0.00376909,-2.218,0.169888,-0.632646,0.386126,-0.722054,-0.286052,-0.216645,0.00311354,-0.427105,-0.821038,0.164807,-0.86145,0.00975671,
0.0214419,-0.201133,-0.320949,-1.66384,-0.0442309,-0.139072,-0.382778,0.432173,-0.123527,0.422714,-0.200466,0.108346,-0.770093,0.0159417,0,0,0,0,0,0,0,0.0170602,-0.199691,-0.325017,-1.66171,-0.0451979,1.4395,0.402412,0.133762,-0.0628049,0.169873,-0.0632416,0.139839,-0.405741,-0.000992269,2.92347,-25.0881,5.31312,24.884,1.52221,2.36382,0.00376909,-3.15387,-1.41704,-0.701742,1.3924,-1.41671,-1.14254,-1.01896,-0.394502,-1.40616,-0.681711,-0.0826984,-0.79688,0.0118801,
0.023366,-0.201604,-0.319005,-1.6647,-0.0435485,-0.142437,-0.382718,0.481017,-0.117873,0.485963,-0.215785,0.170608,-0.841085,0.0148354,0,0,0,0,0,0,0,0.0220492,-0.201932,-0.318582,-1.66412,-0.0437214,1.42735,0.40242,0.191069,-0.0733539,0.242036,-0.0853642,0.0852427,-0.423349,0.000651643,4.69684,-24.3382,7.31264,24.6103,1.71081,2.16424,-0.0365141,-3.15387,-1.41704,-0.701742,1.3924,-1.41671,-1.14254,-1.01896,-0.394502,-1.40616,-0.681711,-0.0826984,-0.79688,0.0118801,
0.02545,-0.202042,-0.316854,-1.66562,-0.0425725,-0.145919,-0.382662,0.520998,-0.109504,0.537882,-0.230111,0.243988,-0.870712,0.014041,0,0,0,0,0,0,0,0.0220492,-0.201932,-0.318582,-1.66412,-0.0437214,1.42735,0.40242,0.191069,-0.0733539,0.242036,-0.0853642,0.0852427,-0.423349,0.000651643,4.69684,-24.3382,7.31264,24.6103,1.71081,2.16424,-0.0365141,-2.5104,0.612054,-0.276671,-0.107403,-1.16852,-0.113491,-0.0130223,-0.341501,-0.213659,-0.537105,0.102606,-0.748912,0.00588937,
0.0276664,-0.202437,-0.31453,-1.66659,-0.0412871,-0.149432,-0.382609,0.554106,-0.0986818,0.580977,-0.240701,0.321374,-0.878072,0.0133834,0,0,0,0,0,0,0,0.0220492,-0.201932,-0.318582,-1.66412,-0.0437214,1.42735,0.40242,0.191069,-0.0733539,0.242036,-0.0853642,0.0852427,-0.423349,0.000651643,4.69684,-24.3382,7.31264,24.6103,1.71081,2.16424,-0.0365141,-2.5104,0.612054,-0.276671,-0.107403,-1.16852,-0.113491,-0.0130223,-0.341501,-0.213659,-0.537105,0.102606,-0.748912,0.00588937,
0.0299932,-0.202783,-0.312061,-1.66758,-0.039694,-0.152921,-0.382557,0.581688,-0.0865559,0.617294,-0.247955,0.398259,-0.872408,0.0128266,0,0,0,0,0,0,0,0.0220492,-0.201932,-0.318582,-1.66412,-0.0437214,1.42735,0.40242,0.191069,-0.0733539,0.242036,-0.0853642,0.0852427,-0.423349,0.000651643,4.69684,-24.3382,7.31264,24.6103,1.71081,2.16424,-0.0365141,-1.04793,2.08232,-0.0501734,-1.04255,-0.148385,0.775542,0.796235,0.20835,0.811548,-0.657296,0.372571,-0.785453,0.00295111,
0.0218839,-0.201266,-0.321142,-1.66419,-0.0444311,-0.13883,-0.382833,0.475312,-0.135091,0.407054,-0.235076,0.0882089,-0.748845,0.0121336,0,0,0,0,0,0,0,0.0220492,-0.201932,-0.318582,-1.66412,-0.0437214,1.42735,0.40242,0.191069,-0.0733539,0.242036,-0.0853642,0.0852427,-0.423349,0.000651643,4.69684,-24.3382,7.31264,24.6103,1.71081,2.16424,-0.0365141,-1.04793,2.08232,-0.0501734,-1.04255,-0.148385,0.775542,0.796235,0.20835,0.811548,-0.657296,0.372571,-0.785453,0.00295111,
0.0273358,-0.203478,-0.31416,-1.66672,-0.0428816,-0.150692,-0.382795,0.506379,-0.131747,0.4436,-0.248258,0.112704,-0.667448,0.0138531,0,0,0,0,0,0,0,0.0294747,-0.204906,-0.31138,-1.6678,-0.0433275,1.41518,0.402423,0.253123,-0.0968434,0.273526,-0.122284,0.0130304,-0.371136,0.00214171,5.40699,-24.1399,7.71333,24.0628,1.67419,2.33727,-0.0227812,-2.24979,0.458411,0.040791,0.0738227,-1.07886,-0.140337,-0.0608723,-0.341389,-0.248339,-0.483341,0.211769,-0.780518,0.0074827,
0.0295575,-0.203969,-0.312157,-1.66777,-0.0421557,-0.153468,-0.382743,0.555426,-0.122917,0.500667,-0.264063,0.181471,-0.69401,0.0129853,0,0,0,0,0,0,0,0.0294747,-0.204906,-0.31138,-1.6678,-0.0433275,1.41518,0.402423,0.253123,-0.0968434,0.273526,-0.122284,0.0130304,-0.371136,0.00214171,5.40699,-24.1399,7.71333,24.0628,1.67419,2.33727,-0.0227812,-3.01325,-1.02301,-0.971549,1.20515,-1.24476,-0.911647,-0.77645,-0.277753,-1.18094,-0.782367,0.0328075,-0.785226,0.00691828,
0.0319435,-0.204412,-0.309966,-1.66887,-0.0411276,-0.156285,-0.382694,0.596494,-0.110721,0.547854,-0.273866,0.257032,-0.70424,0.0123268,0,0,0,0,0,0,0,0.0294747,-0.204906,-0.31138,-1.6678,-0.0433275,1.41518,0.402423,0.253123,-0.0968434,0.273526,-0.122284,0.0130304,-0.371136,0.00214171,5.40699,-24.1399,7.71333,24.0628,1.67419,2.33727,-0.0227812,-3.01325,-1.02301,-0.971549,1.20515,-1.24476,-0.911647,-0.77645,-0.277753,-1.18094,-0.782367,0.0328075,-0.785226,0.00691828,
0.0344688,-0.204801,-0.307616,-1.66999,-0.0397921,-0.159099,-0.382647,0.631332,-0.0972312,0.587459,-0.280044,0.333874,-0.703491,0.011801,0,0,0,0,0,0,0,0.0294747,-0.204906,-0.31138,-1.6678,-0.0433275,1.41518,0.402423,0.253123,-0.0968434,0.273526,-0.122284,0.0130304,-0.371136,0.00214171,5.40699,-24.1399,7.71333,24.0628,1.67419,2.33727,-0.0227812,-1.52896,1.87429,-0.800963,-0.769073,-0.229624,0.621657,0.663299,0.281768,0.601142,-0.89378,0.390722,-0.795552,-0.00302856,
0.0371136,-0.205136,-0.305132,-1.67112,-0.0381574,-0.16188,-0.382601,0.661184,-0.083586,0.621109,-0.283908,0.408673,-0.695303,0.0113676,0,0,0,0,0,0,0,0.0294747,-0.204906,-0.31138,-1.6678,-0.0433275,1.41518,0.402423,0.253123,-0.0968434,0.273526,-0.122284,0.0130304,-0.371136,0.00214171,5.40699,-24.1399,7.71333,24.0628,1.67419,2.33727,-0.0227812,-1.52896,1.87429,-0.800963,-0.769073,-0.229624,0.621657,0.663299,0.281768,0.601142,-0.89378,0.390722,-0.795552,-0.00302856,
0.0398614,-0.205417,-0.302532,-1.67227,-0.0362394,-0.164609,-0.382557,0.686967,-0.0704008,0.649983,-0.286209,0.479512,-0.682031,0.0110024,0,0,0,0,0,0,0,0.0294747,-0.204906,-0.31138,-1.6678,-0.0433275,1.41518,0.402423,0.253123,-0.0968434,0.273526,-0.122284,0.0130304,-0.371136,0.00214171,5.40699,-24.1399,7.71333,24.0628,1.67419,2.33727,-0.0227812,-1.91357,1.93342,0.0846481,-0.919753,-0.904781,0.590829,0.609754,-0.258137,0.621402,-0.471854,0.419351,-0.750224,-0.0034195,
0.0273321,-0.203554,-0.31415,-1.667,-0.0428702,-0.150683,-0.382844,0.506085,-0.137947,0.444206,-0.275833,0.114303,-0.676102,0.0103787,0,0,0,0,0,0,0,0.0386764,-0.208295,-0.302705,-1.67231,-0.0431991,1.40459,0.402433,0.317555,-0.111787,0.276036,-0.157454,0.00422459,-0.298854,0.00160138,5.96637,-24.1637,7.78871,24.5627,2.02301,2.37664,-0.0703886,-1.91357,1.93342,0.0846481,-0.919753,-0.904781,0.590829,0.609754,-0.258137,0.621402,-0.471854,0.419351,-0.750224,-0.0034195,
0.0445036,-0.209909,-0.297674,-1.6754,-0.0422976,-0.171479,-0.382815,0.542089,-0.129406,0.484536,-0.281854,0.138998,-0.490201,0.0116228,0,0,0,0,0,0,0,0.0386764,-0.208295,-0.302705,-1.67231,-0.0431991,1.40459,0.402433,0.317555,-0.111787,0.276036,-0.157454,0.00422459,-0.298854,0.00160138,5.96637,-24.1637,7.78871,24.5627,2.02301,2.37664,-0.0703886,-2.62666,0.26831,-0.659811,0.316997,-1.17392,-0.250504,-0.140172,-0.323011,-0.419277,-0.635888,0.247674,-0.714865,-0.000839639,
0.0468456,-0.210377,-0.295535,-1.67657,-0.041431,-0.173547,-0.382772,0.58551,-0.116884,0.534709,-0.293297,0.216645,-0.51704,0.0109122,0,0,0,0,0,0,0,0.0386764,-0.208295,-0.302705,-1.67231,-0.0431991,1.40459,0.402433,0.317555,-0.111787,0.276036,-0.157454,0.00422459,-0.298854,0.00160138,5.96637,-24.1637,7.78871,24.5627,2.02301,2.37664,-0.0703886,-3.19617,-0.559501,-1.55046,1.06734,-1.26528,-0.701327,-0.561149,-0.249923,-0.985221,-0.916248,0.236437,-0.729325,0.000986915,
0.0493344,-0.210788,-0.293228,-1.67778,-0.0402464,-0.175671,-0.38273,0.622197,-0.102882,0.57668,-0.300536,0.296153,-0.531081,0.0103391,0,0,0,0,0,0,0,0.0386764,-0.208295,-0.302705,-1.67231,-0.0431991,1.40459,0.402433,0.317555,-0.111787,0.276036,-0.157454,0.00422459,-0.298854,0.00160138,5.96637,-24.1637,7.78871,24.5627,2.02301,2.37664,-0.0703886,-3.19617,-0.559501,-1.55046,1.06734,-1.26528,-0.701327,-0.561149,-0.249923,-0.985221,-0.916248,0.236437,-0.729325,0.000986915,
0.0519485,-0.211143,-0.290779,-1.679,-0.0387507,-0.177814,-0.382691,0.653528,-0.088699,0.612215,-0.305215,0.37391,-0.535668,0.0098543,0,0,0,0,0,0,0,0.0386764,-0.208295,-0.302705,-1.67231,-0.0431991,1.40459,0.402433,0.317555,-0.111787,0.276036,-0.157454,0.00422459,-0.298854,0.00160138,5.96637,-24.1637,7.78871,24.5627,2.02301,2.37664,-0.0703886,-1.2984,2.21142,-1.09647,-0.858149,-0.0409548,0.816848,0.875409,0.393341,0.77101,-0.960804,0.57674,-0.719589,-0.00569571,
0.0546705,-0.211443,-0.288209,-1.68023,-0.0369595,-0.179947,-0.382653,0.680506,-0.0749917,0.6426,-0.308174,0.447797,-0.533317,0.009418,0,0,0,0,0,0,0,0.0499758,-0.211697,-0.29297,-1.67731,-0.042798,1.39535,0.402428,0.354248,-0.115109,0.293558,-0.177942,0.00426112,-0.246385,-0.000663584,1.4516,-24.6874,3.66273,24.7849,1.5039,2.42974,0.0239107,-1.2984,2.21142,-1.09647,-0.858149,-0.0409548,0.816848,0.875409,0.393341,0.77101,-0.960804,0.57674,-0.719589,-0.00569571,
0.0423352,-0.209392,-0.299612,-1.67427,-0.0428536,-0.169518,-0.382862,0.489908,-0.137813,0.423707,-0.262672,0.0691875,-0.446527,0.0125344,0,0,0,0,0,0,0,0.0499758,-0.211697,-0.29297,-1.67731,-0.042798,1.39535,0.402428,0.354248,-0.115109,0.293558,-0.177942,0.00426112,-0.246385,-0.000663584,1.4516,-24.6874,3.66273,24.7849,1.5039,2.42974,0.0239107,-0.339297,1.48741,-0.60104,-0.423596,0.47159,0.616142,0.64474,0.57819,0.5566,-0.828428,0.52774,-0.65185,-0.00520961,
0.0560077,-0.213241,-0.28772,-1.68046,-0.0416869,-0.179597,-0.382804,0.556282,-0.121135,0.499755,-0.279997,0.159572,-0.391191,0.01289,0,0,0,0,0,0,0,0.0499758,-0.211697,-0.29297,-1.67731,-0.042798,1.39535,0.402428,0.354248,-0.115109,0.293558,-0.177942,0.00426112,-0.246385,-0.000663584,1.4516,-24.6874,3.66273,24.7849,1.5039,2.42974,0.0239107,-0.339297,1.48741,-0.60104,-0.423596,0.47159,0.616142,0.64474,0.57819,0.5566,-0.828428,0.52774,-0.65185,-0.00520961,
0.058399,-0.213674,-0.285528,-1.68161,-0.0407374,-0.181281,-0.382756,0.597813,-0.108235,0.547854,-0.287661,0.237387,-0.421035,0.0119684,0,0,0,0,0,0,0,0.0499758,-0.211697,-0.29297,-1.67731,-0.042798,1.39535,0.402428,0.354248,-0.115109,0.293558,-0.177942,0.00426112,-0.246385,-0.000663584,1.4516,-24.6874,3.66273,24.7849,1.5039,2.42974,0.0239107,-2.54405,-0.593419,-1.1445,1.0092,-1.00363,-0.601958,-0.474933,-0.210648,-0.864647,-0.738985,0.254365,-0.62303,-0.00105573,
0.0609309,-0.214053,-0.283175,-1.68278,-0.039473,-0.183041,-0.382712,0.632969,-0.094642,0.588215,-0.292554,0.316087,-0.440071,0.0112033,0,0,0,0,0,0,0,0.0499758,-0.211697,-0.29297,-1.67731,-0.042798,1.39535,0.402428,0.354248,-0.115109,0.293558,-0.177942,0.00426112,-0.246385,-0.000663584,1.4516,-24.6874,3.66273,24.7849,1.5039,2.42974,0.0239107,-3.70081,0.498109,-1.57497,0.317594,-1.69894,-0.241513,-0.109669,-0.503488,-0.443041,-0.822338,0.36593,-0.685658,-0.0048011,
0.063583,-0.214378,-0.280686,-1.68396,-0.0379028,-0.184842,-0.382669,0.66302,-0.0812676,0.622442,-0.295828,0.392551,-0.450298,0.010622,0,0,0,0,0,0,0,0.0499758,-0.211697,-0.29297,-1.67731,-0.042798,1.39535,0.402428,0.354248,-0.115109,0.293558,-0.177942,0.00426112,-0.246385,-0.000663584,1.4516,-24.6874,3.66273,24.7849,1.5039,2.42974,0.0239107,-3.70081,0.498109,-1.57497,0.317594,-1.69894,-0.241513,-0.109669,-0.503488,-0.443041,-0.822338,0.36593,-0.685658,-0.0048011,
0.0663386,-0.214652,-0.278079,-1.68515,-0.0360431,-0.186657,-0.382628,0.6889,-0.0685291,0.651723,-0.297974,0.464941,-0.45357,0.0101855,0,0,0,0,0,0,0,0.061797,-0.215251,-0.281953,-1.68351,-0.0421669,1.38915,0.402434,0.390052,-0.101236,0.350997,-0.207351,-0.00348328,-0.150303,-1.04786e-05,-1.18664,-24.489,1.36171,25.9552,1.57074,2.18438,-0.0026396,-1.7386,1.6613,-1.15875,-0.462082,-0.319424,0.525972,0.543484,0.252086,0.476103,-0.950225,0.567719,-0.729713,-0.00952569,
0.0537826,-0.212757,-0.289719,-1.67934,-0.0423252,-0.178032,-0.382856,0.506538,-0.131281,0.441721,-0.266632,0.0877621,-0.34911,0.0140284,0,0,0,0,0,0,0,0.061797,-0.215251,-0.281953,-1.68351,-0.0421669,1.38915,0.402434,0.390052,-0.101236,0.350997,-0.207351,-0.00348328,-0.150303,-1.04786e-05,-1.18664,-24.489,1.36171,25.9552,1.57074,2.18438,-0.0026396,-1.7386,1.6613,-1.15875,-0.462082,-0.319424,0.525972,0.543484,0.252086,0.476103,-0.950225,0.567719,-0.729713,-0.00952569,
0.0681877,-0.216537,-0.276293,-1.6867,-0.0408164,-0.184776,-0.382794,0.58119,-0.099651,0.527719,-0.278775,0.187269,-0.310797,0.0131663,0,0,0,0,0,0,0,0.061797,-0.215251,-0.281953,-1.68351,-0.0421669,1.38915,0.402434,0.390052,-0.101236,0.350997,-0.207351,-0.00348328,-0.150303,-1.04786e-05,-1.18664,-24.489,1.36171,25.9552,1.57074,2.18438,-0.0026396,-1.18465,0.56661,-0.951885,0.199209,0.0201013,0.110814,0.173342,0.382912,-0.0335542,-0.889119,0.402361,-0.678301,-0.00771571,
0.070664,-0.21689,-0.274007,-1.68784,-0.0397453,-0.186155,-0.382745,0.619068,-0.0884694,0.571607,-0.284192,0.267787,-0.344812,0.0122604,0,0,0,0,0,0,0,0.061797,-0.215251,-0.281953,-1.68351,-0.0421669,1.38915,0.402434,0.390052,-0.101236,0.350997,-0.207351,-0.00348328,-0.150303,-1.04786e-05,-1.18664,-24.489,1.36171,25.9552,1.57074,2.18438,-0.0026396,-2.27121,-0.621824,-1.45678,1.01701,-0.609115,-0.5328,-0.379327,0.077426,-0.825817,-0.9346,0.232684,-0.666581,-0.0081668,
0.0732691,-0.217198,-0.271573,-1.68899,-0.0383568,-0.187627,-0.382698,0.651267,-0.0768779,0.608615,-0.287702,0.347116,-0.368063,0.0115768,0,0,0,0,0,0,0,0.061797,-0.215251,-0.281953,-1.68351,-0.0421669,1.38915,0.402434,0.390052,-0.101236,0.350997,-0.207351,-0.00348328,-0.150303,-1.04786e-05,-1.18664,-24.489,1.36171,25.9552,1.57074,2.18438,-0.0026396,-2.27121,-0.621824,-1.45678,1.01701,-0.609115,-0.5328,-0.379327,0.077426,-0.825817,-0.9346,0.232684,-0.666581,-0.0081668,
0.0759846,-0.21746,-0.269012,-1.69015,-0.0366651,-0.189157,-0.382654,0.678875,-0.0655191,0.640115,-0.290052,0.422922,-0.382355,0.0110095,0,0,0,0,0,0,0,0.0748206,-0.218621,-0.269785,-1.69001,-0.0408146,1.38539,0.402439,0.42823,-0.0818555,0.3941,-0.190338,0.0528996,-0.106367,0.00269014,0.209842,-24.3898,2.31386,25.856,1.37573,2.29058,-0.0365141,-1.7641,0.6242,-0.57065,0.1257,-0.575783,0.0894492,0.182806,-0.0200372,-0.0632027,-0.670813,0.423026,-0.669736,-0.0114519,
0.0787954,-0.217679,-0.266343,-1.69132,-0.0346896,-0.190714,-0.382612,0.702703,-0.0546922,0.667141,-0.291546,0.493881,-0.389392,0.0105315,0,0,0,0,0,0,0,0.0748206,-0.218621,-0.269785,-1.69001,-0.0408146,1.38539,0.402439,0.42823,-0.0818555,0.3941,-0.190338,0.0528996,-0.106367,0.00269014,0.209842,-24.3898,2.31386,25.856,1.37573,2.29058,-0.0365141,-1.7641,0.6242,-0.57065,0.1257,-0.575783,0.0894492,0.182806,-0.0200372,-0.0632027,-0.670813,0.423026,-0.669736,-0.0114519,
0.065863,-0.216138,-0.278404,-1.68559,-0.0415655,-0.183533,-0.382846,0.536068,-0.108956,0.475121,-0.269451,0.109454,-0.26474,0.014342,0,0,0,0,0,0,0,0.0748206,-0.218621,-0.269785,-1.69001,-0.0408146,1.38539,0.402439,0.42823,-0.0818555,0.3941,-0.190338,0.0528996,-0.106367,0.00269014,0.209842,-24.3898,2.31386,25.856,1.37573,2.29058,-0.0365141,-0.846178,-0.273709,0.515982,0.621175,-0.286341,-0.223665,-0.186259,-0.050931,-0.364603,-0.337375,0.337816,-0.635365,-0.0105726,
0.0815458,-0.219744,-0.263744,-1.6931,-0.0387587,-0.18784,-0.382787,0.605066,-0.0876454,0.554763,-0.27054,0.2446,-0.250567,0.0133583,0,0,0,0,0,0,0,0.0748206,-0.218621,-0.269785,-1.69001,-0.0408146,1.38539,0.402439,0.42823,-0.0818555,0.3941,-0.190338,0.0528996,-0.106367,0.00269014,0.209842,-24.3898,2.31386,25.856,1.37573,2.29058,-0.0365141,-0.846178,-0.273709,0.515982,0.621175,-0.286341,-0.223665,-0.186259,-0.050931,-0.364603,-0.337375,0.337816,-0.635365,-0.0105726,
0.084105,-0.220055,-0.261364,-1.6942,-0.0374714,-0.188982,-0.382737,0.639809,-0.0776348,0.595048,-0.275852,0.321812,-0.285456,0.0124836,0,0,0,0,0,0,0,0.0748206,-0.218621,-0.269785,-1.69001,-0.0408146,1.38539,0.402439,0.42823,-0.0818555,0.3941,-0.190338,0.0528996,-0.106367,0.00269014,0.209842,-24.3898,2.31386,25.856,1.37573,2.29058,-0.0365141,-0.368892,-0.62954,0.135795,0.818286,0.196996,-0.320267,-0.22717,0.259919,-0.529359,-0.483489,0.226447,-0.583521,-0.0101639,
0.0867825,-0.220323,-0.258848,-1.69532,-0.0358826,-0.190222,-0.38269,0.669361,-0.0671503,0.629067,-0.279191,0.397204,-0.310153,0.011777,0,0,0,0,0,0,0,0.0748206,-0.218621,-0.269785,-1.69001,-0.0408146,1.38539,0.402439,0.42823,-0.0818555,0.3941,-0.190338,0.0528996,-0.106367,0.00269014,0.209842,-24.3898,2.31386,25.856,1.37573,2.29058,-0.0365141,-1.07988,0.307738,-0.678883,0.235546,0.00632988,0.0493211,0.157696,0.326931,-0.123938,-0.769847,0.301292,-0.64385,-0.0146072,
0.0895613,-0.220551,-0.256216,-1.69644,-0.0340074,-0.191527,-0.382645,0.694713,-0.0568441,0.658056,-0.281393,0.468813,-0.326104,0.0111904,0,0,0,0,0,0,0,0.0931123,-0.222045,-0.252692,-1.69817,-0.0382335,1.38302,0.402441,0.447517,-0.061503,0.402196,-0.172329,0.0497397,-0.0121063,-0.00051345,-1.03589,-25.1119,0.937208,25.7568,1.36932,1.93261,-0.00996382,-1.07988,0.307738,-0.678883,0.235546,0.00632988,0.0493211,0.157696,0.326931,-0.123938,-0.769847,0.301292,-0.64385,-0.0146072,
0.0924277,-0.220739,-0.253484,-1.69757,-0.0318652,-0.192866,-0.382602,0.716603,-0.0470049,0.682947,-0.282779,0.535549,-0.334847,0.0106941,0,0,0,0,0,0,0,0.0931123,-0.222045,-0.252692,-1.69817,-0.0382335,1.38302,0.402441,0.447517,-0.061503,0.402196,-0.172329,0.0497397,-0.0121063,-0.00051345,-1.03589,-25.1119,0.937208,25.7568,1.36932,1.93261,-0.00996382,-1.94608,1.29092,-0.311566,-0.41334,-0.743934,0.413485,0.45607,-0.0993245,0.366418,-0.61424,0.45698,-0.720969,-0.0168054,
0.0791255,-0.219394,-0.265963,-1.69201,-0.0397371,-0.186838,-0.38284,0.563686,-0.095607,0.506572,-0.26091,0.168905,-0.205033,0.0144549,0,0,0,0,0,0,0,0.0931123,-0.222045,-0.252692,-1.69817,-0.0382335,1.38302,0.402441,0.447517,-0.061503,0.402196,-0.172329,0.0497397,-0.0121063,-0.00051345,-1.03589,-25.1119,0.937208,25.7568,1.36932,1.93261,-0.00996382,-1.94608,1.29092,-0.311566,-0.41334,-0.743934,0.413485,0.45607,-0.0993245,0.366418,-0.61424,0.45698,-0.720969,-0.0168054,
0.0999474,-0.223002,-0.246528,-1.70112,-0.0361195,-0.189174,-0.382779,0.612851,-0.0760158,0.563748,-0.260353,0.251174,-0.170615,0.0139213,0,0,0,0,0,0,0,0.0931123,-0.222045,-0.252692,-1.69817,-0.0382335,1.38302,0.402441,0.447517,-0.061503,0.402196,-0.172329,0.0497397,-0.0121063,-0.00051345,-1.03589,-25.1119,0.937208,25.7568,1.36932,1.93261,-0.00996382,-1.41464,0.191056,-0.626467,0.310345,-0.219398,-0.0286874,0.0516521,0.207737,-0.182974,-0.755448,0.303953,-0.687225,-0.0137957,
0.102534,-0.223272,-0.244116,-1.70219,-0.0348037,-0.19002,-0.382727,0.646613,-0.0675975,0.603006,-0.265957,0.328961,-0.211383,0.0129863,0,0,0,0,0,0,0,0.0931123,-0.222045,-0.252692,-1.69817,-0.0382335,1.38302,0.402441,0.447517,-0.061503,0.402196,-0.172329,0.0497397,-0.0121063,-0.00051345,-1.03589,-25.1119,0.937208,25.7568,1.36932,1.93261,-0.00996382,-1.41464,0.191056,-0.626467,0.310345,-0.219398,-0.0286874,0.0516521,0.207737,-0.182974,-0.755448,0.303953,-0.687225,-0.0137957,
0.105235,-0.223506,-0.241572,-1.70327,-0.0331858,-0.190985,-0.382678,0.675331,-0.0584808,0.636171,-0.26946,0.404464,-0.241348,0.0122238,0,0,0,0,0,0,0,0.108395,-0.223764,-0.238478,-1.70367,-0.034695,1.3829,0.402448,0.480778,-0.0403546,0.441668,-0.153954,0.116793,0.00579777,0.00106591,-0.754208,-25.2864,1.08797,24.9832,1.57074,1.77331,-0.0429228,-2.03627,-0.334884,-1.56427,0.710393,-0.333063,-0.30718,-0.187876,0.272075,-0.539309,-1.02678,0.229751,-0.682314,-0.0143546,
0.108035,-0.223704,-0.238914,-1.70435,-0.0312823,-0.192033,-0.382632,0.699966,-0.0493669,0.664437,-0.271785,0.47589,-0.261924,0.0115868,0,0,0,0,0,0,0,0.108395,-0.223764,-0.238478,-1.70367,-0.034695,1.3829,0.402448,0.480778,-0.0403546,0.441668,-0.153954,0.116793,0.00579777,0.00106591,-0.754208,-25.2864,1.08797,24.9832,1.57074,1.77331,-0.0429228,-2.11397,0.335691,-1.35677,0.340465,-0.459364,-0.0129248,0.0553711,0.188652,-0.175428,-0.97528,0.413454,-0.71158,-0.015833,
0.11092,-0.223866,-0.236159,-1.70545,-0.0291132,-0.193132,-0.382588,0.721233,-0.0405699,0.688707,-0.273282,0.542263,-0.274698,0.011045,0,0,0,0,0,0,0,0.108395,-0.223764,-0.238478,-1.70367,-0.034695,1.3829,0.402448,0.480778,-0.0403546,0.441668,-0.153954,0.116793,0.00579777,0.00106591,-0.754208,-25.2864,1.08797,24.9832,1.57074,1.77331,-0.0429228,-2.11397,0.335691,-1.35677,0.340465,-0.459364,-0.0129248,0.0553711,0.188652,-0.175428,-0.97528,0.413454,-0.71158,-0.015833,
0.113879,-0.223995,-0.23332,-1.70654,-0.0267006,-0.194256,-0.382545,0.739685,-0.03224,0.709678,-0.274106,0.603143,-0.281114,0.0105782,0,0,0,0,0,0,0,0.108395,-0.223764,-0.238478,-1.70367,-0.034695,1.3829,0.402448,0.480778,-0.0403546,0.441668,-0.153954,0.116793,0.00579777,0.00106591,-0.754208,-25.2864,1.08797,24.9832,1.57074,1.77331,-0.0429228,-1.73738,-0.02203,-0.956856,0.557097,-0.308925,-0.144368,-0.0877917,0.200405,-0.316283,-0.86996,0.390906,-0.714329,-0.0136198,
0.097496,-0.222698,-0.248783,-1.70008,-0.0371242,-0.188492,-0.382835,0.572654,-0.082039,0.516811,-0.250054,0.174161,-0.118845,0.0150609,0,0,0,0,0,0,0,0.108395,-0.223764,-0.238478,-1.70367,-0.034695,1.3829,0.402448,0.480778,-0.0403546,0.441668,-0.153954,0.116793,0.00579777,0.00106591,-0.754208,-25.2864,1.08797,24.9832,1.57074,1.77331,-0.0429228,-1.73738,-0.02203,-0.956856,0.557097,-0.308925,-0.144368,-0.0877917,0.200405,-0.316283,-0.86996,0.390906,-0.714329,-0.0136198,
0.115528,-0.224552,-0.231966,-1.70652,-0.0318221,-0.188871,-0.382773,0.634126,-0.0637369,0.588498,-0.253444,0.310832,-0.131673,0.0137913,0,0,0,0,0,0,0,0.123078,-0.22506,-0.224179,-1.70895,-0.030881,1.38294,0.402447,0.484222,-0.0412373,0.467981,-0.176452,0.183897,0.00946614,-0.000770052,2.64179,-24.5644,4.21419,24.4873,2.29126,1.78612,-0.00996382,-1.79588,-0.595943,-1.27236,0.884912,-0.252254,-0.391972,-0.291578,0.254297,-0.626952,-0.940239,0.260578,-0.676949,-0.0131421,
0.118188,-0.224778,-0.229468,-1.70756,-0.0302861,-0.189555,-0.382722,0.665099,-0.0565173,0.624517,-0.259207,0.384015,-0.170905,0.0128819,0,0,0,0,0,0,0,0.123078,-0.22506,-0.224179,-1.70895,-0.030881,1.38294,0.402447,0.484222,-0.0412373,0.467981,-0.176452,0.183897,0.00946614,-0.000770052,2.64179,-24.5644,4.21419,24.4873,2.29126,1.78612,-0.00996382,-1.79588,-0.595943,-1.27236,0.884912,-0.252254,-0.391972,-0.291578,0.254297,-0.626952,-0.940239,0.260578,-0.676949,-0.0131421,
0.120954,-0.224972,-0.226848,-1.70861,-0.0284673,-0.190355,-0.382673,0.691451,-0.0484525,0.654979,-0.262649,0.454683,-0.200057,0.0121388,0,0,0,0,0,0,0,0.123078,-0.22506,-0.224179,-1.70895,-0.030881,1.38294,0.402447,0.484222,-0.0412373,0.467981,-0.176452,0.183897,0.00946614,-0.000770052,2.64179,-24.5644,4.21419,24.4873,2.29126,1.78612,-0.00996382,-1.73553,0.987876,-1.64575,-0.132812,-0.0247889,0.353021,0.453903,0.518695,0.200651,-1.1567,0.463497,-0.728756,-0.0168236,
0.12381,-0.225133,-0.224125,-1.70967,-0.0263822,-0.191236,-0.382627,0.714063,-0.0403002,0.680965,-0.264846,0.521291,-0.220273,0.0115158,0,0,0,0,0,0,0,0.123078,-0.22506,-0.224179,-1.70895,-0.030881,1.38294,0.402447,0.484222,-0.0412373,0.467981,-0.176452,0.183897,0.00946614,-0.000770052,2.64179,-24.5644,4.21419,24.4873,2.29126,1.78612,-0.00996382,-2.01176,2.21346,-1.19614,-0.907961,-0.316826,0.900593,0.957859,0.370085,0.857487,-1.07596,0.67629,-0.832697,-0.0167956,
0.126745,-0.225262,-0.221311,-1.71073,-0.0240501,-0.192168,-0.382583,0.73359,-0.0323911,0.703294,-0.266204,0.583017,-0.233,0.0109839,0,0,0,0,0,0,0,0.123078,-0.22506,-0.224179,-1.70895,-0.030881,1.38294,0.402447,0.484222,-0.0412373,0.467981,-0.176452,0.183897,0.00946614,-0.000770052,2.64179,-24.5644,4.21419,24.4873,2.29126,1.78612,-0.00996382,-2.01176,2.21346,-1.19614,-0.907961,-0.316826,0.900593,0.957859,0.370085,0.857487,-1.07596,0.67629,-0.832697,-0.0167956,
0.112991,-0.224297,-0.23432,-1.70551,-0.0330655,-0.188345,-0.382828,0.597239,-0.0682319,0.545491,-0.242333,0.237808,-0.0827675,0.014907,0,0,0,0,0,0,0,0.123078,-0.22506,-0.224179,-1.70895,-0.030881,1.38294,0.402447,0.484222,-0.0412373,0.467981,-0.176452,0.183897,0.00946614,-0.000770052,2.64179,-24.5644,4.21419,24.4873,2.29126,1.78612,-0.00996382,-1.95135,-0.537589,-1.32467,0.937198,-0.212631,-0.364144,-0.316385,0.326014,-0.576022,-1.07752,0.393884,-0.808937,-0.012777,
0.130348,-0.225757,-0.217509,-1.71181,-0.0273957,-0.188801,-0.382773,0.644393,-0.0552109,0.600204,-0.251169,0.355379,-0.12411,0.013959,0,0,0,0,0,0,0,0.139264,-0.226097,-0.208664,-1.71431,-0.0257136,1.38349,0.402454,0.483102,-0.0294852,0.494457,-0.160372,0.18321,0.00957424,0.000711223,3.73279,-24.8103,4.86085,24.4635,1.6687,1.94543,-0.0365141,-1.95135,-0.537589,-1.32467,0.937198,-0.212631,-0.364144,-0.316385,0.326014,-0.576022,-1.07752,0.393884,-0.808937,-0.012777,
0.133045,-0.22595,-0.214968,-1.71284,-0.0257038,-0.189434,-0.38272,0.674283,-0.0483211,0.635146,-0.255676,0.422979,-0.158199,0.0130336,0,0,0,0,0,0,0,0.139264,-0.226097,-0.208664,-1.71431,-0.0257136,1.38349,0.402454,0.483102,-0.0294852,0.494457,-0.160372,0.18321,0.00957424,0.000711223,3.73279,-24.8103,4.86085,24.4635,1.6687,1.94543,-0.0365141,-2.28523,-0.605267,-1.48271,0.901478,-0.470672,-0.38192,-0.263514,0.181748,-0.635502,-1.02838,0.306232,-0.737303,-0.0137871,
0.135844,-0.226113,-0.212309,-1.71387,-0.023749,-0.190165,-0.382671,0.699678,-0.0407911,0.664644,-0.258347,0.488711,-0.182936,0.0122694,0,0,0,0,0,0,0,0.139264,-0.226097,-0.208664,-1.71431,-0.0257136,1.38349,0.402454,0.483102,-0.0294852,0.494457,-0.160372,0.18321,0.00957424,0.000711223,3.73279,-24.8103,4.86085,24.4635,1.6687,1.94543,-0.0365141,-2.84202,0.638385,-0.866197,0.0689507,-1.14665,0.178894,0.28303,-0.244456,0.0316802,-0.74688,0.477294,-0.732393,-0.0151078,
0.138729,-0.226246,-0.20955,-1.71491,-0.0215451,-0.190963,-0.382625,0.721432,-0.0332303,0.689758,-0.259989,0.550971,-0.199538,0.0116247,0,0,0,0,0,0,0,0.139264,-0.226097,-0.208664,-1.71431,-0.0257136,1.38349,0.402454,0.483102,-0.0294852,0.494457,-0.160372,0.18321,0.00957424,0.000711223,3.73279,-24.8103,4.86085,24.4635,1.6687,1.94543,-0.0365141,-2.84202,0.638385,-0.866197,0.0689507,-1.14665,0.178894,0.28303,-0.244456,0.0316802,-0.74688,0.477294,-0.732393,-0.0151078,
0.14169,-0.22635,-0.206705,-1.71595,-0.0191096,-0.191801,-0.382581,0.740182,-0.0259139,0.711296,-0.260909,0.608868,-0.209381,0.011075,0,0,0,0,0,0,0,0.139264,-0.226097,-0.208664,-1.71431,-0.0257136,1.38349,0.402454,0.483102,-0.0294852,0.494457,-0.160372,0.18321,0.00957424,0.000711223,3.73279,-24.8103,4.86085,24.4635,1.6687,1.94543,-0.0365141,-2.21073,2.12138,-0.294267,-0.909378,-0.883505,0.888483,0.916687,-0.115667,0.892583,-0.625503,0.689913,-0.733139,-0.0164817,
0.12777,-0.225536,-0.219909,-1.71081,-0.0288173,-0.188304,-0.382828,0.608759,-0.0599927,0.558445,-0.242564,0.288613,-0.0805401,0.0150766,0,0,0,0,0,0,0,0.154269,-0.226361,-0.194249,-1.71891,-0.0206933,1.38392,0.402454,0.485309,-0.0103962,0.472717,-0.155638,0.160562,0.0189506,0.000657451,3.09803,-25.4372,4.18641,24.6619,1.20453,2.08459,-0.0365141,-2.21073,2.12138,-0.294267,-0.909378,-0.883505,0.888483,0.916687,-0.115667,0.892583,-0.625503,0.689913,-0.733139,-0.0164817,
0.161552,-0.226821,-0.187542,-1.72171,-0.0173755,-0.187464,-0.382761,0.645341,-0.0384152,0.60294,-0.247324,0.344476,-0.0902661,0.0143215,0,0,0,0,0,0,0,0.154269,-0.226361,-0.194249,-1.71891,-0.0206933,1.38392,0.402454,0.485309,-0.0103962,0.472717,-0.155638,0.160562,0.0189506,0.000657451,3.09803,-25.4372,4.18641,24.6619,1.20453,2.08459,-0.0365141,-2.02711,0.677853,-0.490472,-0.0227569,-0.73833,0.250967,0.333513,-0.0981961,0.133032,-0.613442,0.45527,-0.644408,-0.0148347,
0.164253,-0.226954,-0.184991,-1.72271,-0.0157197,-0.187957,-0.382707,0.675124,-0.0333173,0.637769,-0.251982,0.413945,-0.123165,0.0133531,0,0,0,0,0,0,0,0.154269,-0.226361,-0.194249,-1.71891,-0.0206933,1.38392,0.402454,0.485309,-0.0103962,0.472717,-0.155638,0.160562,0.0189506,0.000657451,3.09803,-25.4372,4.18641,24.6619,1.20453,2.08459,-0.0365141,-2.02711,0.677853,-0.490472,-0.0227569,-0.73833,0.250967,0.333513,-0.0981961,0.133032,-0.613442,0.45527,-0.644408,-0.0148347,
0.167055,-0.227064,-0.182323,-1.72373,-0.0137955,-0.188546,-0.382657,0.700441,-0.0272857,0.667218,-0.254464,0.481041,-0.147387,0.0125507,0,0,0,0,0,0,0,0.154269,-0.226361,-0.194249,-1.71891,-0.0206933,1.38392,0.402454,0.485309,-0.0103962,0.472717,-0.155638,0.160562,0.0189506,0.000657451,3.09803,-25.4372,4.18641,24.6619,1.20453,2.08459,-0.0365141,-2.36501,-1.64531,-1.07643,1.54406,-0.810982,-0.825594,-0.711028,-0.191199,-1.11974,-0.71036,0.214132,-0.590576,-0.0124344,
0.169943,-0.227148,-0.179553,-1.72475,-0.0116182,-0.189202,-0.38261,0.722134,-0.0210428,0.692317,-0.255814,0.544318,-0.163825,0.0118653,0,0,0,0,0,0,0,0.154269,-0.226361,-0.194249,-1.71891,-0.0206933,1.38392,0.402454,0.485309,-0.0103962,0.472717,-0.155638,0.160562,0.0189506,0.000657451,3.09803,-25.4372,4.18641,24.6619,1.20453,2.08459,-0.0365141,-1.63225,0.873722,-1.18626,-0.133348,-0.207805,0.362936,0.410641,0.302385,0.266362,-0.871087,0.506671,-0.589544,-0.0168844,
0.172907,-0.227207,-0.176698,-1.72578,-0.00920628,-0.189896,-0.382564,0.740834,-0.0149086,0.713855,-0.256428,0.602991,-0.173713,0.0112893,0,0,0,0,0,0,0,0.154269,-0.226361,-0.194249,-1.71891,-0.0206933,1.38392,0.402454,0.485309,-0.0103962,0.472717,-0.155638,0.160562,0.0189506,0.000657451,3.09803,-25.4372,4.18641,24.6619,1.20453,2.08459,-0.0365141,-1.63225,0.873722,-1.18626,-0.133348,-0.207805,0.362936,0.410641,0.302385,0.266362,-0.871087,0.506671,-0.589544,-0.0168844,
0.175935,-0.227243,-0.173768,-1.72681,-0.00657943,-0.190609,-0.382521,0.757029,-0.00903745,0.732448,-0.256474,0.656713,-0.178241,0.0107696,0,0,0,0,0,0,0,0.170692,-0.226317,-0.178283,-1.72359,-0.0135886,1.38412,0.402458,0.511653,-0.000377023,0.491129,-0.145441,0.195707,0.0109945,0.000814166,1.50318,-26.3616,2.68678,24.7095,1.00311,2.05804,-0.0365141,-1.57574,0.260078,-1.23954,0.227085,-0.161257,0.0871714,0.127276,0.301721,-0.0316646,-0.864886,0.404522,-0.565029,-0.0141656,
0.158971,-0.226667,-0.189954,-1.72072,-0.0187534,-0.187103,-0.382818,0.609862,-0.0408002,0.561417,-0.23758,0.275072,-0.0493535,0.0154874,0,0,0,0,0,0,0,0.170692,-0.226317,-0.178283,-1.72359,-0.0135886,1.38412,0.402458,0.511653,-0.000377023,0.491129,-0.145441,0.195707,0.0109945,0.000814166,1.50318,-26.3616,2.68678,24.7095,1.00311,2.05804,-0.0365141,-1.57574,0.260078,-1.23954,0.227085,-0.161257,0.0871714,0.127276,0.301721,-0.0316646,-0.864886,0.404522,-0.565029,-0.0141656,
0.178145,-0.226682,-0.171369,-1.72632,-0.0098388,-0.187127,-0.382758,0.65725,-0.0310388,0.617743,-0.241847,0.378636,-0.0726468,0.0141902,0,0,0,0,0,0,0,0.170692,-0.226317,-0.178283,-1.72359,-0.0135886,1.38412,0.402458,0.511653,-0.000377023,0.491129,-0.145441,0.195707,0.0109945,0.000814166,1.50318,-26.3616,2.68678,24.7095,1.00311,2.05804,-0.0365141,-1.8788,0.702637,-1.83933,-0.17342,-0.226728,0.316029,0.402373,0.37846,0.206439,-0.998981,0.343654,-0.496599,-0.0146973,
0.180886,-0.226787,-0.168766,-1.7273,-0.00805728,-0.187532,-0.382705,0.685429,-0.0263677,0.650663,-0.246429,0.445378,-0.101451,0.0132429,0,0,0,0,0,0,0,0.170692,-0.226317,-0.178283,-1.72359,-0.0135886,1.38412,0.402458,0.511653,-0.000377023,0.491129,-0.145441,0.195707,0.0109945,0.000814166,1.50318,-26.3616,2.68678,24.7095,1.00311,2.05804,-0.0365141,-2.44454,-0.519393,-1.8704,0.651846,-0.683978,-0.24731,-0.150598,0.0357162,-0.432734,-0.890637,0.236354,-0.456017,-0.0126053,
0.183724,-0.22687,-0.166052,-1.7283,-0.00601911,-0.188023,-0.382656,0.709404,-0.0207649,0.67854,-0.248747,0.509544,-0.122603,0.0124629,0,0,0,0,0,0,0,0.170692,-0.226317,-0.178283,-1.72359,-0.0135886,1.38412,0.402458,0.511653,-0.000377023,0.491129,-0.145441,0.195707,0.0109945,0.000814166,1.50318,-26.3616,2.68678,24.7095,1.00311,2.05804,-0.0365141,-2.44454,-0.519393,-1.8704,0.651846,-0.683978,-0.24731,-0.150598,0.0357162,-0.432734,-0.890637,0.236354,-0.456017,-0.0126053,
0.186644,-0.22693,-0.163243,-1.7293,-0.00373962,-0.18857,-0.382608,0.729958,-0.0149596,0.702326,-0.249915,0.569874,-0.13675,0.0117795,0,0,0,0,0,0,0,0.192564,-0.226239,-0.157466,-1.72969,-0.00313162,1.38453,0.402456,0.518934,0.00473268,0.518588,-0.148111,0.208093,0.0232011,-0.000176803,-1.00811,-26.7821,0.26277,25.257,0.733944,2.05804,-0.0026396,-2.42631,0.490926,-1.5747,0.0375754,-0.737215,0.220674,0.260293,0.0298035,0.134833,-0.839145,0.426354,-0.494453,-0.0131475,
0.189635,-0.226967,-0.160352,-1.7303,-0.00123685,-0.18915,-0.382564,0.747681,-0.00926562,0.722756,-0.250356,0.625691,-0.144958,0.0112078,0,0,0,0,0,0,0,0.192564,-0.226239,-0.157466,-1.72969,-0.00313162,1.38453,0.402456,0.518934,0.00473268,0.518588,-0.148111,0.208093,0.0232011,-0.000176803,-1.00811,-26.7821,0.26277,25.257,0.733944,2.05804,-0.0026396,-2.42631,0.490926,-1.5747,0.0375754,-0.737215,0.220674,0.260293,0.0298035,0.134833,-0.839145,0.426354,-0.494453,-0.0131475,
0.192673,-0.226982,-0.157382,-1.7313,0.00147559,-0.189743,-0.382521,0.759535,-0.00373276,0.742407,-0.250289,0.678109,-0.148262,0.0105938,0,0,0,0,0,0,0,0.192564,-0.226239,-0.157466,-1.72969,-0.00313162,1.38453,0.402456,0.518934,0.00473268,0.518588,-0.148111,0.208093,0.0232011,-0.000176803,-1.00811,-26.7821,0.26277,25.257,0.733944,2.05804,-0.0026396,-2.2884,0.912718,-1.61685,-0.315568,-0.606654,0.431091,0.436561,0.154654,0.411706,-0.884627,0.417104,-0.499459,-0.0138653,
0.175516,-0.226558,-0.17384,-1.72535,-0.0113533,-0.186836,-0.382815,0.623731,-0.0329474,0.578566,-0.231902,0.311444,-0.0372668,0.0153056,0,0,0,0,0,0,0,0.192564,-0.226239,-0.157466,-1.72969,-0.00313162,1.38453,0.402456,0.518934,0.00473268,0.518588,-0.148111,0.208093,0.0232011,-0.000176803,-1.00811,-26.7821,0.26277,25.257,0.733944,2.05804,-0.0026396,-2.15631,-0.797986,-2.02111,0.720709,-0.452195,-0.331953,-0.243565,0.165763,-0.509286,-0.92461,0.135685,-0.40193,-0.0127877,
0.200145,-0.226509,-0.15038,-1.73237,0.000819207,-0.186497,-0.382763,0.666216,-0.0229732,0.6297,-0.237209,0.396224,-0.0509292,0.014083,0,0,0,0,0,0,0,0.192564,-0.226239,-0.157466,-1.72969,-0.00313162,1.38453,0.402456,0.518934,0.00473268,0.518588,-0.148111,0.208093,0.0232011,-0.000176803,-1.00811,-26.7821,0.26277,25.257,0.733944,2.05804,-0.0026396,-2.15631,-0.797986,-2.02111,0.720709,-0.452195,-0.331953,-0.243565,0.165763,-0.509286,-0.92461,0.135685,-0.40193,-0.0127877,
0.202917,-0.226583,-0.147736,-1.73334,0.00266867,-0.186805,-0.38271,0.69308,-0.0186372,0.661025,-0.241423,0.462365,-0.0767911,0.0131536,0,0,0,0,0,0,0,0.192564,-0.226239,-0.157466,-1.72969,-0.00313162,1.38453,0.402456,0.518934,0.00473268,0.518588,-0.148111,0.208093,0.0232011,-0.000176803,-1.00811,-26.7821,0.26277,25.257,0.733944,2.05804,-0.0026396,-2.20265,-0.185442,-2.08154,0.323754,-0.423785,-0.0316711,0.0722534,0.24556,-0.189829,-0.989271,0.225078,-0.435311,-0.0150933,
0.205781,-0.226637,-0.144986,-1.73431,0.00477027,-0.187187,-0.38266,0.715989,-0.0134786,0.687629,-0.243491,0.5254,-0.095676,0.0123857,0,0,0,0,0,0,0,0.209256,-0.226269,-0.140971,-1.73463,0.0055461,1.38496,0.402463,0.540959,-0.00261102,0.531878,-0.160547,0.309365,0.0125827,0.000157972,1.60236,-26.1116,2.5876,24.9832,1.76025,1.90606,-0.0365141,-2.20265,-0.185442,-2.08154,0.323754,-0.423785,-0.0316711,0.0722534,0.24556,-0.189829,-0.989271,0.225078,-0.435311,-0.0150933,
0.20871,-0.22667,-0.142136,-1.73529,0.00711309,-0.18762,-0.382614,0.732164,-0.00807536,0.712388,-0.244498,0.585706,-0.108123,0.0116115,0,0,0,0,0,0,0,0.209256,-0.226269,-0.140971,-1.73463,0.0055461,1.38496,0.402463,0.540959,-0.00261102,0.531878,-0.160547,0.309365,0.0125827,0.000157972,1.60236,-26.1116,2.5876,24.9832,1.76025,1.90606,-0.0365141,-1.76517,0.783992,-1.91222,-0.22415,-0.0731529,0.401229,0.46293,0.493253,0.306671,-1.05529,0.445201,-0.499116,-0.0157712,
0.211688,-0.226681,-0.1392,-1.73627,0.00968135,-0.18808,-0.38257,0.744547,-0.00276244,0.734077,-0.244802,0.642063,-0.115137,0.0109226,0,0,0,0,0,0,0,0.209256,-0.226269,-0.140971,-1.73463,0.0055461,1.38496,0.402463,0.540959,-0.00261102,0.531878,-0.160547,0.309365,0.0125827,0.000157972,1.60236,-26.1116,2.5876,24.9832,1.76025,1.90606,-0.0365141,-1.92299,0.0593524,-2.38874,0.240644,0.0517765,0.0688985,0.0764497,0.618597,-0.0293285,-1.26517,0.39514,-0.557146,-0.0140944,
0.214705,-0.226671,-0.136189,-1.73725,0.0124569,-0.188551,-0.382529,0.754299,0.00229372,0.752797,-0.244587,0.693887,-0.117675,0.0103466,0,0,0,0,0,0,0,0.209256,-0.226269,-0.140971,-1.73463,0.0055461,1.38496,0.402463,0.540959,-0.00261102,0.531878,-0.160547,0.309365,0.0125827,0.000157972,1.60236,-26.1116,2.5876,24.9832,1.76025,1.90606,-0.0365141,-1.92299,0.0593524,-2.38874,0.240644,0.0517765,0.0688985,0.0764497,0.618597,-0.0293285,-1.26517,0.39514,-0.557146,-0.0140944,
0.19748,-0.226417,-0.152899,-1.73142,-0.000765689,-0.186294,-0.382819,0.634345,-0.0248149,0.59258,-0.227967,0.328704,-0.0191375,0.015149,0,0,0,0,0,0,0,0.209256,-0.226269,-0.140971,-1.73463,0.0055461,1.38496,0.402463,0.540959,-0.00261102,0.531878,-0.160547,0.309365,0.0125827,0.000157972,1.60236,-26.1116,2.5876,24.9832,1.76025,1.90606,-0.0365141,-1.60975,-0.900278,-2.54477,0.765936,0.272073,-0.355838,-0.272781,0.681182,-0.558634,-1.2727,0.187615,-0.491302,-0.0126235,
0.216996,-0.226527,-0.133703,-1.73729,0.0104097,-0.186098,-0.382759,0.678023,-0.0204542,0.643682,-0.232754,0.461025,-0.0473704,0.0138555,0,0,0,0,0,0,0,0.226328,-0.22621,-0.124156,-1.73937,0.0138713,1.3861,0.402466,0.561807,0.000510695,0.559607,-0.146874,0.32425,0.0220499,0.0010615,1.4516,-26.5083,2.1631,25.0586,1.44256,2.15142,-0.0566557,-1.60975,-0.900278,-2.54477,0.765936,0.272073,-0.355838,-0.272781,0.681182,-0.558634,-1.2727,0.187615,-0.491302,-0.0126235,
0.219797,-0.226589,-0.131,-1.73824,0.0124875,-0.186367,-0.382707,0.700257,-0.0156187,0.675873,-0.236258,0.519429,-0.0672879,0.0128412,0,0,0,0,0,0,0,0.226328,-0.22621,-0.124156,-1.73937,0.0138713,1.3861,0.402466,0.561807,0.000510695,0.559607,-0.146874,0.32425,0.0220499,0.0010615,1.4516,-26.5083,2.1631,25.0586,1.44256,2.15142,-0.0566557,-1.13206,-1.00049,-2.32758,0.807357,0.478433,-0.406927,-0.300686,0.721301,-0.632996,-1.16561,0.151169,-0.418721,-0.0144608,
0.222667,-0.22663,-0.128186,-1.73919,0.0147943,-0.186692,-0.382659,0.717519,-0.0101944,0.703514,-0.237959,0.576719,-0.0812892,0.0119612,0,0,0,0,0,0,0,0.226328,-0.22621,-0.124156,-1.73937,0.0138713,1.3861,0.402466,0.561807,0.000510695,0.559607,-0.146874,0.32425,0.0220499,0.0010615,1.4516,-26.5083,2.1631,25.0586,1.44256,2.15142,-0.0566557,-1.13206,-1.00049,-2.32758,0.807357,0.478433,-0.406927,-0.300686,0.721301,-0.632996,-1.16561,0.151169,-0.418721,-0.0144608,
0.225592,-0.226649,-0.125278,-1.74014,0.0173194,-0.187051,-0.382615,0.731254,-0.00475203,0.727046,-0.23871,0.631271,-0.0898793,0.0112313,0,0,0,0,0,0,0,0.226328,-0.22621,-0.124156,-1.73937,0.0138713,1.3861,0.402466,0.561807,0.000510695,0.559607,-0.146874,0.32425,0.0220499,0.0010615,1.4516,-26.5083,2.1631,25.0586,1.44256,2.15142,-0.0566557,-1.89261,2.88789,-1.8097,-1.70412,-0.208157,1.42574,1.45855,0.584454,1.50146,-1.02277,0.635371,-0.465855,-0.0219385,
0.228561,-0.226647,-0.122289,-1.7411,0.0200482,-0.187427,-0.382572,0.742155,0.000469177,0.747164,-0.238837,0.682187,-0.0939051,0.0105994,0,0,0,0,0,0,0,0.226328,-0.22621,-0.124156,-1.73937,0.0138713,1.3861,0.402466,0.561807,0.000510695,0.559607,-0.146874,0.32425,0.0220499,0.0010615,1.4516,-26.5083,2.1631,25.0586,1.44256,2.15142,-0.0566557,-2.23731,0.512459,-1.23423,-0.048596,-0.747561,0.339977,0.333592,-0.0316096,0.310976,-0.675885,0.461164,-0.419557,-0.0175537,
0.231564,-0.226626,-0.119231,-1.74205,0.0229643,-0.187804,-0.382532,0.750701,0.00536171,0.764459,-0.238488,0.729025,-0.094201,0.010042,0,0,0,0,0,0,0,0.244112,-0.225943,-0.106894,-1.74416,0.0233297,1.38713,0.402466,0.54254,0.0165898,0.556948,-0.143699,0.305051,0.0311977,0.000477304,1.88404,-27.282,2.11152,25.011,1.20453,2.16424,-0.0301054,-2.23731,0.512459,-1.23423,-0.048596,-0.747561,0.339977,0.333592,-0.0316096,0.310976,-0.675885,0.461164,-0.419557,-0.0175537,
0.214284,-0.226445,-0.136278,-1.73636,0.00856564,-0.185908,-0.382814,0.647415,-0.0233018,0.607752,-0.225172,0.404182,-0.0222585,0.014893,0,0,0,0,0,0,0,0.244112,-0.225943,-0.106894,-1.74416,0.0233297,1.38713,0.402466,0.54254,0.0165898,0.556948,-0.143699,0.305051,0.0311977,0.000477304,1.88404,-27.282,2.11152,25.011,1.20453,2.16424,-0.0301054,-2.36924,-0.963277,-1.40415,0.852509,-0.910812,-0.297928,-0.213733,-0.251077,-0.469436,-0.590762,0.222884,-0.313033,-0.0181081,
0.251894,-0.226042,-0.0994594,-1.74673,0.0282543,-0.183538,-0.382759,0.676113,-0.00869339,0.657753,-0.227463,0.4701,-0.0114176,0.0134712,0,0,0,0,0,0,0,0.244112,-0.225943,-0.106894,-1.74416,0.0233297,1.38713,0.402466,0.54254,0.0165898,0.556948,-0.143699,0.305051,0.0311977,0.000477304,1.88404,-27.282,2.11152,25.011,1.20453,2.16424,-0.0301054,-2.36924,-0.963277,-1.40415,0.852509,-0.910812,-0.297928,-0.213733,-0.251077,-0.469436,-0.590762,0.222884,-0.313033,-0.0181081,
0.254677,-0.226062,-0.0967053,-1.74766,0.030374,-0.18366,-0.382709,0.695909,-0.00483847,0.688508,-0.231292,0.529931,-0.0305998,0.0125202,0,0,0,0,0,0,0,0.244112,-0.225943,-0.106894,-1.74416,0.0233297,1.38713,0.402466,0.54254,0.0165898,0.556948,-0.143699,0.305051,0.0311977,0.000477304,1.88404,-27.282,2.11152,25.011,1.20453,2.16424,-0.0301054,-1.90388,-1.37763,-1.17888,1.18541,-0.691861,-0.509309,-0.39468,-0.242047,-0.746861,-0.488772,0.225478,-0.257477,-0.0170577,
0.257525,-0.226063,-0.0938471,-1.74859,0.0327236,-0.183838,-0.382662,0.711811,-0.000326028,0.71457,-0.233062,0.587404,-0.0444883,0.0117058,0,0,0,0,0,0,0,0.244112,-0.225943,-0.106894,-1.74416,0.0233297,1.38713,0.402466,0.54254,0.0165898,0.556948,-0.143699,0.305051,0.0311977,0.000477304,1.88404,-27.282,2.11152,25.011,1.20453,2.16424,-0.0301054,-1.90388,-1.37763,-1.17888,1.18541,-0.691861,-0.509309,-0.39468,-0.242047,-0.746861,-0.488772,0.225478,-0.257477,-0.0170577,
0.260423,-0.226046,-0.0908999,-1.74952,0.0352894,-0.184051,-0.382618,0.724531,0.00424834,0.736791,-0.233779,0.641446,-0.0533469,0.0109968,0,0,0,0,0,0,0,0.244112,-0.225943,-0.106894,-1.74416,0.0233297,1.38713,0.402466,0.54254,0.0165898,0.556948,-0.143699,0.305051,0.0311977,0.000477304,1.88404,-27.282,2.11152,25.011,1.20453,2.16424,-0.0301054,-1.41776,2.30488,-1.93154,-1.28945,0.0736146,1.14408,1.18735,0.661302,1.16007,-0.955638,0.637913,-0.307451,-0.0214808,
0.263361,-0.226012,-0.0878765,-1.75046,0.0380553,-0.184283,-0.382577,0.734612,0.00864063,0.755847,-0.233834,0.691459,-0.0578749,0.0103742,0,0,0,0,0,0,0,0.261558,-0.225429,-0.0889662,-1.74877,0.0345067,1.38758,0.402466,0.548373,0.0146471,0.524802,-0.130701,0.276611,0.0229715,0.000558392,-0.754208,-27.5319,-0.16173,25.6577,1.28967,2.11114,-0.0163725,-1.96117,0.836781,-2.02313,-0.329306,-0.293427,0.510433,0.518631,0.360327,0.480913,-0.929693,0.507557,-0.33046,-0.01642,
0.249189,-0.226008,-0.10209,-1.74582,0.0263739,-0.183492,-0.382813,0.651324,-0.0103575,0.62134,-0.218841,0.409642,0.0117379,0.0145944,0,0,0,0,0,0,0,0.261558,-0.225429,-0.0889662,-1.74877,0.0345067,1.38758,0.402466,0.548373,0.0146471,0.524802,-0.130701,0.276611,0.0229715,0.000558392,-0.754208,-27.5319,-0.16173,25.6577,1.28967,2.11114,-0.0163725,-1.96117,0.836781,-2.02313,-0.329306,-0.293427,0.510433,0.518631,0.360327,0.480913,-0.929693,0.507557,-0.33046,-0.01642,
0.26911,-0.22555,-0.0816168,-1.75124,0.0391999,-0.182981,-0.382757,0.657321,-0.0100391,0.652425,-0.220039,0.452217,0.00256998,0.013787,0,0,0,0,0,0,0,0.261558,-0.225429,-0.0889662,-1.74877,0.0345067,1.38758,0.402466,0.548373,0.0146471,0.524802,-0.130701,0.276611,0.0229715,0.000558392,-0.754208,-27.5319,-0.16173,25.6577,1.28967,2.11114,-0.0163725,-2.07294,-1.76549,-1.99481,1.30683,-0.520638,-0.64526,-0.576782,-0.0311478,-0.850857,-0.770954,0.144435,-0.251191,-0.0116199,
0.271822,-0.225573,-0.0788802,-1.75214,0.0412525,-0.183034,-0.382706,0.678018,-0.00577493,0.684153,-0.224106,0.513131,-0.0132463,0.0127816,0,0,0,0,0,0,0,0.261558,-0.225429,-0.0889662,-1.74877,0.0345067,1.38758,0.402466,0.548373,0.0146471,0.524802,-0.130701,0.276611,0.0229715,0.000558392,-0.754208,-27.5319,-0.16173,25.6577,1.28967,2.11114,-0.0163725,-2.07294,-1.76549,-1.99481,1.30683,-0.520638,-0.64526,-0.576782,-0.0311478,-0.850857,-0.770954,0.144435,-0.251191,-0.0116199,
0.274601,-0.225576,-0.076036,-1.75305,0.043539,-0.183132,-0.382658,0.694698,-0.000940976,0.711034,-0.226016,0.571644,-0.0246628,0.0119083,0,0,0,0,0,0,0,0.261558,-0.225429,-0.0889662,-1.74877,0.0345067,1.38758,0.402466,0.548373,0.0146471,0.524802,-0.130701,0.276611,0.0229715,0.000558392,-0.754208,-27.5319,-0.16173,25.6577,1.28967,2.11114,-0.0163725,-1.25761,-0.809816,-2.33886,0.598905,0.194,-0.262157,-0.169793,0.497095,-0.441525,-0.959532,0.192126,-0.207424,-0.0144444,
0.277433,-0.225561,-0.0731003,-1.75395,0.0460458,-0.183259,-0.382614,0.708081,0.00386828,0.733946,-0.226832,0.626686,-0.0317111,0.0111476,0,0,0,0,0,0,0,0.279498,-0.224821,-0.0705291,-1.75311,0.0456094,1.38829,0.402464,0.568549,0.00954382,0.560843,-0.140586,0.331494,0.0266842,0.000167051,-1.5675,-26.9606,-0.986925,25.6577,1.61377,1.89965,-0.0026396,-1.27974,1.9151,-2.25144,-1.15391,0.264075,0.971405,0.986347,0.807405,1.00186,-1.04765,0.549041,-0.265744,-0.0175974,
0.280308,-0.225527,-0.0700859,-1.75486,0.0487564,-0.183399,-0.382572,0.718733,0.00842129,0.753586,-0.226967,0.67765,-0.0349367,0.0104804,0,0,0,0,0,0,0,0.279498,-0.224821,-0.0705291,-1.75311,0.0456094,1.38829,0.402464,0.568549,0.00954382,0.560843,-0.140586,0.331494,0.0266842,0.000167051,-1.5675,-26.9606,-0.986925,25.6577,1.61377,1.89965,-0.0026396,-1.27974,1.9151,-2.25144,-1.15391,0.264075,0.971405,0.986347,0.807405,1.00186,-1.04765,0.549041,-0.265744,-0.0175974,
0.283217,-0.225477,-0.0670039,-1.75577,0.0516534,-0.183539,-0.382532,0.727098,0.0126274,0.770503,-0.226604,0.724267,-0.0349794,0.00989134,0,0,0,0,0,0,0,0.279498,-0.224821,-0.0705291,-1.75311,0.0456094,1.38829,0.402464,0.568549,0.00954382,0.560843,-0.140586,0.331494,0.0266842,0.000167051,-1.5675,-26.9606,-0.986925,25.6577,1.61377,1.89965,-0.0026396,-2.23724,1.50611,-2.21758,-0.906322,-0.448775,0.894761,0.90938,0.399602,0.927955,-0.967575,0.50412,-0.297449,-0.0179404,
0.266481,-0.225509,-0.0842265,-1.75036,0.0373911,-0.182991,-0.382812,0.631635,-0.0121616,0.614757,-0.210915,0.390563,0.0210728,0.0148925,0,0,0,0,0,0,0,0.279498,-0.224821,-0.0705291,-1.75311,0.0456094,1.38829,0.402464,0.568549,0.00954382,0.560843,-0.140586,0.331494,0.0266842,0.000167051,-1.5675,-26.9606,-0.986925,25.6577,1.61377,1.89965,-0.0026396,-2.23724,1.50611,-2.21758,-0.906322,-0.448775,0.894761,0.90938,0.399602,0.927955,-0.967575,0.50412,-0.297449,-0.0179404,
0.287163,-0.224916,-0.0628533,-1.75556,0.0509456,-0.182191,-0.382769,0.663272,-0.00675407,0.675505,-0.215787,0.503152,0.0133764,0.0130843,0,0,0,0,0,0,0,0.279498,-0.224821,-0.0705291,-1.75311,0.0456094,1.38829,0.402464,0.568549,0.00954382,0.560843,-0.140586,0.331494,0.0266842,0.000167051,-1.5675,-26.9606,-0.986925,25.6577,1.61377,1.89965,-0.0026396,-1.7375,-2.2252,-2.44351,1.52439,-0.11073,-0.833629,-0.741307,0.217977,-1.08736,-0.956095,0.105677,-0.239068,-0.0108502,
0.289889,-0.224925,-0.060037,-1.75644,0.0531864,-0.182185,-0.38272,0.681393,-0.00225989,0.70409,-0.21929,0.560215,0.00148079,0.0121562,0,0,0,0,0,0,0,0.279498,-0.224821,-0.0705291,-1.75311,0.0456094,1.38829,0.402464,0.568549,0.00954382,0.560843,-0.140586,0.331494,0.0266842,0.000167051,-1.5675,-26.9606,-0.986925,25.6577,1.61377,1.89965,-0.0026396,-1.7375,-2.2252,-2.44351,1.52439,-0.11073,-0.833629,-0.741307,0.217977,-1.08736,-0.956095,0.105677,-0.239068,-0.0108502,
0.292672,-0.224915,-0.0571235,-1.75732,0.0556445,-0.182212,-0.382675,0.695935,0.00255267,0.728371,-0.220907,0.614524,-0.00673969,0.0113444,0,0,0,0,0,0,0,0.302184,-0.224186,-0.0465547,-1.75866,0.0597733,1.39008,0.402468,0.549242,0.012584,0.590661,-0.136983,0.364253,0.0520749,0.000311456,0.106693,-26.909,0.238966,25.3601,1.52221,2.03881,-0.0365141,-1.61071,-1.46292,-2.5517,0.984124,0.0467825,-0.488064,-0.39984,0.408459,-0.694163,-1.0369,0.174506,-0.247456,-0.0142144,
0.295502,-0.224886,-0.054127,-1.75821,0.0583056,-0.182257,-0.382632,0.707529,0.00721211,0.749111,-0.221535,0.665276,-0.0113113,0.010634,0,0,0,0,0,0,0,0.302184,-0.224186,-0.0465547,-1.75866,0.0597733,1.39008,0.402468,0.549242,0.012584,0.590661,-0.136983,0.364253,0.0520749,0.000311456,0.106693,-26.909,0.238966,25.3601,1.52221,2.03881,-0.0365141,-1.48511,1.03475,-2.82572,-0.697645,0.351753,0.623309,0.655628,0.913396,0.598787,-1.26465,0.455401,-0.297717,-0.019199,
0.298369,-0.22484,-0.0510594,-1.7591,0.0611538,-0.182308,-0.382592,0.716669,0.0115443,0.766917,-0.221531,0.712035,-0.012691,0.010009,0,0,0,0,0,0,0,0.302184,-0.224186,-0.0465547,-1.75866,0.0597733,1.39008,0.402468,0.549242,0.012584,0.590661,-0.136983,0.364253,0.0520749,0.000311456,0.106693,-26.909,0.238966,25.3601,1.52221,2.03881,-0.0365141,-1.48511,1.03475,-2.82572,-0.697645,0.351753,0.623309,0.655628,0.913396,0.598787,-1.26465,0.455401,-0.297717,-0.019199,
0.301264,-0.224778,-0.0479303,-1.75998,0.0641723,-0.182353,-0.382554,0.723751,0.0154892,0.782274,-0.221055,0.754643,-0.0114168,0.00945617,0,0,0,0,0,0,0,0.302184,-0.224186,-0.0465547,-1.75866,0.0597733,1.39008,0.402468,0.549242,0.012584,0.590661,-0.136983,0.364253,0.0520749,0.000311456,0.106693,-26.909,0.238966,25.3601,1.52221,2.03881,-0.0365141,-1.82767,2.04229,-2.50724,-1.37349,-0.0388692,1.12993,1.12765,0.755839,1.21173,-1.11077,0.528805,-0.271196,-0.0230152,
0.28451,-0.224889,-0.0655553,-1.7547,0.048933,-0.182244,-0.382821,0.640741,-0.00965359,0.641677,-0.207976,0.444596,0.0275202,0.0140881,0,0,0,0,0,0,0,0.302184,-0.224186,-0.0465547,-1.75866,0.0597733,1.39008,0.402468,0.549242,0.012584,0.590661,-0.136983,0.364253,0.0520749,0.000311456,0.106693,-26.909,0.238966,25.3601,1.52221,2.03881,-0.0365141,-1.82767,2.04229,-2.50724,-1.37349,-0.0388692,1.12993,1.12765,0.755839,1.21173,-1.11077,0.528805,-0.271196,-0.0230152,
0.309793,-0.224232,-0.038739,-1.76105,0.0654123,-0.180074,-0.382768,0.657727,-0.00266621,0.685464,-0.209752,0.525809,0.0421725,0.0127528,0,0,0,0,0,0,0,0.319292,-0.223876,-0.0284462,-1.76307,0.0710608,1.39205,0.40247,0.551752,0.00987666,0.637803,-0.138324,0.415804,0.0579792,4.43597e-05,0.0313145,-26.8852,-0.0387439,25.5823,2.17498,1.98571,-0.0301054,-1.11595,-1.22047,-2.8996,0.716456,0.537118,-0.41138,-0.335524,0.765618,-0.593242,-1.21265,0.178386,-0.235584,-0.0169351,
0.312493,-0.224226,-0.0358872,-1.7619,0.067733,-0.17995,-0.38272,0.674972,0.00158426,0.712949,-0.213249,0.580183,0.0309707,0.0118452,0,0,0,0,0,0,0,0.319292,-0.223876,-0.0284462,-1.76307,0.0710608,1.39205,0.40247,0.551752,0.00987666,0.637803,-0.138324,0.415804,0.0579792,4.43597e-05,0.0313145,-26.8852,-0.0387439,25.5823,2.17498,1.98571,-0.0301054,-0.526777,-1.55248,-2.97609,0.990719,1.04234,-0.644501,-0.556625,1.00282,-0.888207,-1.30247,0.236092,-0.248219,-0.0172633,
0.315248,-0.224201,-0.032942,-1.76276,0.0702606,-0.179857,-0.382676,0.688782,0.00609578,0.736306,-0.214885,0.631885,0.0230838,0.0110499,0,0,0,0,0,0,0,0.319292,-0.223876,-0.0284462,-1.76307,0.0710608,1.39205,0.40247,0.551752,0.00987666,0.637803,-0.138324,0.415804,0.0579792,4.43597e-05,0.0313145,-26.8852,-0.0387439,25.5823,2.17498,1.98571,-0.0301054,-0.526777,-1.55248,-2.97609,0.990719,1.04234,-0.644501,-0.556625,1.00282,-0.888207,-1.30247,0.236092,-0.248219,-0.0172633,
0.318047,-0.224159,-0.029917,-1.76362,0.0729813,-0.179783,-0.382635,0.699757,0.0104279,0.756257,-0.215535,0.68018,0.0185472,0.0103532,0,0,0,0,0,0,0,0.319292,-0.223876,-0.0284462,-1.76307,0.0710608,1.39205,0.40247,0.551752,0.00987666,0.637803,-0.138324,0.415804,0.0579792,4.43597e-05,0.0313145,-26.8852,-0.0387439,25.5823,2.17498,1.98571,-0.0301054,-1.04063,1.53318,-2.75544,-0.990192,0.710129,0.791265,0.816809,1.15537,0.774762,-1.29455,0.614833,-0.293472,-0.0204626,
0.32088,-0.224102,-0.0268234,-1.76448,0.07588,-0.179715,-0.382596,0.708367,0.0144234,0.773386,-0.215552,0.72467,0.0169668,0.009741,0,0,0,0,0,0,0,0.319292,-0.223876,-0.0284462,-1.76307,0.0710608,1.39205,0.40247,0.551752,0.00987666,0.637803,-0.138324,0.415804,0.0579792,4.43597e-05,0.0313145,-26.8852,-0.0387439,25.5823,2.17498,1.98571,-0.0301054,-1.04063,1.53318,-2.75544,-0.990192,0.710129,0.791265,0.816809,1.15537,0.774762,-1.29455,0.614833,-0.293472,-0.0204626,
0.307162,-0.224221,-0.0414809,-1.76021,0.0633091,-0.180242,-0.382819,0.636226,-0.0054462,0.653001,-0.20205,0.469891,0.0552341,0.0137499,0,0,0,0,0,0,0,0.319292,-0.223876,-0.0284462,-1.76307,0.0710608,1.39205,0.40247,0.551752,0.00987666,0.637803,-0.138324,0.415804,0.0579792,4.43597e-05,0.0313145,-26.8852,-0.0387439,25.5823,2.17498,1.98571,-0.0301054,-1.69851,0.978182,-2.37919,-0.640772,0.00938498,0.658689,0.672163,0.64693,0.655452,-1.0438,0.503386,-0.259113,-0.0205819,
0.326998,-0.223909,-0.0203192,-1.7654,0.0772752,-0.177966,-0.382774,0.662869,-0.000976892,0.707254,-0.204643,0.571587,0.0567065,0.0120047,0,0,0,0,0,0,0,0.33726,-0.223377,-0.00866839,-1.7674,0.0828342,1.3941,0.402468,0.536015,0.0222954,0.609504,-0.132766,0.372797,0.0574834,-9.38397e-05,1.90784,-27.2344,1.08797,25.5347,1.90673,2.11114,0.00376909,-1.69851,0.978182,-2.37919,-0.640772,0.00938498,0.658689,0.672163,0.64693,0.655452,-1.0438,0.503386,-0.259113,-0.0205819,
0.329709,-0.223896,-0.0173922,-1.76624,0.0797657,-0.177773,-0.38273,0.677665,0.0034089,0.73174,-0.207876,0.622624,0.0482478,0.0111787,0,0,0,0,0,0,0,0.33726,-0.223377,-0.00866839,-1.7674,0.0828342,1.3941,0.402468,0.536015,0.0222954,0.609504,-0.132766,0.372797,0.0574834,-9.38397e-05,1.90784,-27.2344,1.08797,25.5347,1.90673,2.11114,0.00376909,-1.24305,-1.37284,-1.99007,0.961209,0.0871019,-0.432677,-0.34538,0.302578,-0.637901,-0.815084,0.258638,-0.194516,-0.0147154,
0.332467,-0.223864,-0.0143817,-1.76707,0.0824482,-0.177603,-0.382688,0.689438,0.00790073,0.752618,-0.20937,0.670615,0.0424909,0.0104522,0,0,0,0,0,0,0,0.33726,-0.223377,-0.00866839,-1.7674,0.0828342,1.3941,0.402468,0.536015,0.0222954,0.609504,-0.132766,0.372797,0.0574834,-9.38397e-05,1.90784,-27.2344,1.08797,25.5347,1.90673,2.11114,0.00376909,-1.24305,-1.37284,-1.99007,0.961209,0.0871019,-0.432677,-0.34538,0.302578,-0.637901,-0.815084,0.258638,-0.194516,-0.0147154,
0.335261,-0.223816,-0.0112997,-1.76791,0.0853085,-0.177445,-0.382649,0.698693,0.012126,0.770508,-0.209931,0.715088,0.0395305,0.00981453,0,0,0,0,0,0,0,0.33726,-0.223377,-0.00866839,-1.7674,0.0828342,1.3941,0.402468,0.536015,0.0222954,0.609504,-0.132766,0.372797,0.0574834,-9.38397e-05,1.90784,-27.2344,1.08797,25.5347,1.90673,2.11114,0.00376909,-1.02808,0.218698,-1.45174,0.0646523,0.125588,0.220021,0.271784,0.392852,0.107118,-0.665903,0.517798,-0.189829,-0.0157218,
0.338085,-0.223752,-0.00815591,-1.76875,0.0883319,-0.177288,-0.382612,0.70577,0.0159634,0.785946,-0.209895,0.75584,0.0390862,0.00926841,0,0,0,0,0,0,0,0.33726,-0.223377,-0.00866839,-1.7674,0.0828342,1.3941,0.402468,0.536015,0.0222954,0.609504,-0.132766,0.372797,0.0574834,-9.38397e-05,1.90784,-27.2344,1.08797,25.5347,1.90673,2.11114,0.00376909,-1.11256,1.15413,-1.92059,-0.622044,0.348849,0.639448,0.648794,0.757262,0.610552,-0.939365,0.652221,-0.266961,-0.0186166,
0.324347,-0.223906,-0.0231482,-1.76459,0.0749889,-0.178193,-0.382822,0.644323,-0.00419432,0.678483,-0.197534,0.518247,0.0664781,0.0129213,0,0,0,0,0,0,0,0.354667,-0.222692,0.0107949,-1.77141,0.0941816,1.39589,0.402468,0.522328,0.0296371,0.606335,-0.114844,0.339747,0.0664472,-0.00046627,2.36408,-27.5081,1.63942,25.3323,1.57074,2.05163,0.00376909,-1.11256,1.15413,-1.92059,-0.622044,0.348849,0.639448,0.648794,0.757262,0.610552,-0.939365,0.652221,-0.266961,-0.0186166,
0.361998,-0.222601,0.0186984,-1.77365,0.0996643,-0.173796,-0.382772,0.634186,0.007454,0.69178,-0.200196,0.515728,0.0865891,0.0124573,0,0,0,0,0,0,0,0.354667,-0.222692,0.0107949,-1.77141,0.0941816,1.39589,0.402468,0.522328,0.0296371,0.606335,-0.114844,0.339747,0.0664472,-0.00046627,2.36408,-27.5081,1.63942,25.3323,1.57074,2.05163,0.00376909,-1.79514,0.105853,-1.85624,0.0185284,-0.265602,0.326438,0.380593,0.292242,0.236015,-0.799786,0.483944,-0.237757,-0.017722,
0.364603,-0.222558,0.0215735,-1.77447,0.101949,-0.173483,-0.382725,0.651188,0.0108277,0.71877,-0.203981,0.571208,0.0782771,0.0115632,0,0,0,0,0,0,0,0.354667,-0.222692,0.0107949,-1.77141,0.0941816,1.39589,0.402468,0.522328,0.0296371,0.606335,-0.114844,0.339747,0.0664472,-0.00046627,2.36408,-27.5081,1.63942,25.3323,1.57074,2.05163,0.00376909,-1.79514,0.105853,-1.85624,0.0185284,-0.265602,0.326438,0.380593,0.292242,0.236015,-0.799786,0.483944,-0.237757,-0.017722,
0.367262,-0.2225,0.0245408,-1.77529,0.104443,-0.173195,-0.382682,0.66478,0.014508,0.741826,-0.205647,0.623412,0.0720872,0.0107849,0,0,0,0,0,0,0,0.354667,-0.222692,0.0107949,-1.77141,0.0941816,1.39589,0.402468,0.522328,0.0296371,0.606335,-0.114844,0.339747,0.0664472,-0.00046627,2.36408,-27.5081,1.63942,25.3323,1.57074,2.05163,0.00376909,-1.6909,-0.884323,-1.88521,0.654263,-0.235418,-0.106523,-0.0415789,0.177376,-0.258354,-0.766279,0.378612,-0.207494,-0.0179365,
0.369967,-0.222428,0.0275884,-1.77612,0.107109,-0.172921,-0.382642,0.676114,0.01801,0.761903,-0.206026,0.666548,0.0684032,0.01013,0,0,0,0,0,0,0,0.354667,-0.222692,0.0107949,-1.77141,0.0941816,1.39589,0.402468,0.522328,0.0296371,0.606335,-0.114844,0.339747,0.0664472,-0.00046627,2.36408,-27.5081,1.63942,25.3323,1.57074,2.05163,0.00376909,-1.6909,-0.884323,-1.88521,0.654263,-0.235418,-0.106523,-0.0415789,0.177376,-0.258354,-0.766279,0.378612,-0.207494,-0.0179365,
0.372714,-0.222343,0.0307074,-1.77694,0.109874,-0.172653,-0.382604,0.686743,0.0211295,0.779765,-0.205252,0.691196,0.0669699,0.00953014,0,0,0,0,0,0,0,0.354667,-0.222692,0.0107949,-1.77141,0.0941816,1.39589,0.402468,0.522328,0.0296371,0.606335,-0.114844,0.339747,0.0664472,-0.00046627,2.36408,-27.5081,1.63942,25.3323,1.57074,2.05163,0.00376909,-1.72016,0.388108,-2.07104,-0.178747,-0.0742417,0.440975,0.461512,0.482753,0.383752,-0.919279,0.581286,-0.257747,-0.0203208,
0.375504,-0.222248,0.0338787,-1.77775,0.112695,-0.172383,-0.382568,0.697616,0.0237313,0.792824,-0.204111,0.705314,0.0675956,0.00894718,0,0,0,0,0,0,0,0.372491,-0.22167,0.0309008,-1.77511,0.107165,1.39787,0.402473,0.53068,0.0252295,0.616447,-0.115473,0.354358,0.085202,0.000568389,0.511356,-27.1352,-0.0863513,25.2332,1.60736,2.12487,-0.0429228,-1.43005,0.142915,-2.22934,-0.0575084,0.173745,0.286422,0.310519,0.608222,0.209061,-0.979989,0.550457,-0.237469,-0.0197244,
0.361998,-0.222601,0.0186984,-1.77365,0.0996634,-0.173796,-0.382772,0.634193,0.00745243,0.691785,-0.200197,0.515631,0.0866167,0.0124568,0,0,0,0,0,0,0,0.372491,-0.22167,0.0309008,-1.77511,0.107165,1.39787,0.402473,0.53068,0.0252295,0.616447,-0.115473,0.354358,0.085202,0.000568389,0.511356,-27.1352,-0.0863513,25.2332,1.60736,2.12487,-0.0429228,-1.43005,0.142915,-2.22934,-0.0575084,0.173745,0.286422,0.310519,0.608222,0.209061,-0.979989,0.550457,-0.237469,-0.0197244,
0.379785,-0.221586,0.0389481,-1.77729,0.112854,-0.171593,-0.382772,0.629371,0.00762112,0.702143,-0.194492,0.532383,0.106553,0.0120639,0,0,0,0,0,0,0,0.372491,-0.22167,0.0309008,-1.77511,0.107165,1.39787,0.402473,0.53068,0.0252295,0.616447,-0.115473,0.354358,0.085202,0.000568389,0.511356,-27.1352,-0.0863513,25.2332,1.60736,2.12487,-0.0429228,-1.16358,-0.715578,-2.59032,0.369366,0.384647,-0.111967,-0.0583103,0.667661,-0.244132,-1.0628,0.37107,-0.180713,-0.0196937,
0.382368,-0.221541,0.0418608,-1.77809,0.115179,-0.171195,-0.382727,0.645756,0.0112128,0.728175,-0.197931,0.581342,0.099463,0.0112531,0,0,0,0,0,0,0,0.372491,-0.22167,0.0309008,-1.77511,0.107165,1.39787,0.402473,0.53068,0.0252295,0.616447,-0.115473,0.354358,0.085202,0.000568389,0.511356,-27.1352,-0.0863513,25.2332,1.60736,2.12487,-0.0429228,-1.16358,-0.715578,-2.59032,0.369366,0.384647,-0.111967,-0.0583103,0.667661,-0.244132,-1.0628,0.37107,-0.180713,-0.0196937,
0.38501,-0.221481,0.0448648,-1.77888,0.117628,-0.170819,-0.382685,0.660617,0.0149252,0.751008,-0.198853,0.612281,0.0940219,0.0105061,0,0,0,0,0,0,0,0.372491,-0.22167,0.0309008,-1.77511,0.107165,1.39787,0.402473,0.53068,0.0252295,0.616447,-0.115473,0.354358,0.085202,0.000568389,0.511356,-27.1352,-0.0863513,25.2332,1.60736,2.12487,-0.0429228,-0.893003,-0.697551,-2.57364,0.374673,0.61021,-0.160517,-0.110637,0.786505,-0.302722,-1.09421,0.413874,-0.19302,-0.0179091,
0.38771,-0.221408,0.0479377,-1.77968,0.12016,-0.170456,-0.382646,0.675055,0.0182253,0.768223,-0.198859,0.632879,0.0908057,0.00979289,0,0,0,0,0,0,0,0.389549,-0.220787,0.0510563,-1.77849,0.119693,1.40035,0.402472,0.530248,0.0216474,0.61315,-0.106488,0.357971,0.086259,0.00324666,-0.528073,-27.4565,-1.13768,25.4831,1.52221,2.10473,-0.0301054,-1.92687,1.72552,-2.6823,-1.23861,0.0133008,1.07442,1.08547,0.86013,1.11871,-1.15553,0.689715,-0.23805,-0.0221367,
0.390457,-0.221324,0.0510664,-1.78047,0.122749,-0.170097,-0.382609,0.686696,0.0210172,0.782188,-0.198413,0.647169,0.0895955,0.00912956,0,0,0,0,0,0,0,0.389549,-0.220787,0.0510563,-1.77849,0.119693,1.40035,0.402472,0.530248,0.0216474,0.61315,-0.106488,0.357971,0.086259,0.00324666,-0.528073,-27.4565,-1.13768,25.4831,1.52221,2.10473,-0.0301054,-1.92687,1.72552,-2.6823,-1.23861,0.0133008,1.07442,1.08547,0.86013,1.11871,-1.15553,0.689715,-0.23805,-0.0221367,
0.393239,-0.221231,0.0542393,-1.78126,0.125385,-0.169737,-0.382575,0.695486,0.0233367,0.793222,-0.197771,0.659115,0.0901198,0.00857676,0,0,0,0,0,0,0,0.389549,-0.220787,0.0510563,-1.77849,0.119693,1.40035,0.402472,0.530248,0.0216474,0.61315,-0.106488,0.357971,0.086259,0.00324666,-0.528073,-27.4565,-1.13768,25.4831,1.52221,2.10473,-0.0301054,-1.21397,0.290821,-2.77773,-0.34493,0.484925,0.329008,0.349406,0.916045,0.278705,-1.18162,0.519608,-0.202618,-0.0204417,
0.379785,-0.221586,0.0389486,-1.77729,0.112845,-0.171591,-0.382772,0.629442,0.0076052,0.702204,-0.194495,0.531341,0.106816,0.0120587,0,0,0,0,0,0,0,0.389549,-0.220787,0.0510563,-1.77849,0.119693,1.40035,0.402472,0.530248,0.0216474,0.61315,-0.106488,0.357971,0.086259,0.00324666,-0.528073,-27.4565,-1.13768,25.4831,1.52221,2.10473,-0.0301054,-1.21397,0.290821,-2.77773,-0.34493,0.484925,0.329008,0.349406,0.916045,0.278705,-1.18162,0.519608,-0.202618,-0.0204417,
0.396731,-0.220733,0.0591512,-1.78059,0.125317,-0.168977,-0.382775,0.62131,0.00553899,0.706697,-0.186879,0.511161,0.121118,0.0119493,0,0,0,0,0,0,0,0.389549,-0.220787,0.0510563,-1.77849,0.119693,1.40035,0.402472,0.530248,0.0216474,0.61315,-0.106488,0.357971,0.086259,0.00324666,-0.528073,-27.4565,-1.13768,25.4831,1.52221,2.10473,-0.0301054,-1.29499,-0.803173,-2.57288,0.403074,0.292415,-0.0918338,-0.0334676,0.612606,-0.228214,-1.04895,0.407647,-0.18195,-0.0195627,
0.399297,-0.220696,0.0620735,-1.78135,0.127469,-0.168513,-0.382731,0.641393,0.00934402,0.730587,-0.19014,0.538106,0.116166,0.0110589,0,0,0,0,0,0,0,0.389549,-0.220787,0.0510563,-1.77849,0.119693,1.40035,0.402472,0.530248,0.0216474,0.61315,-0.106488,0.357971,0.086259,0.00324666,-0.528073,-27.4565,-1.13768,25.4831,1.52221,2.10473,-0.0301054,-1.29499,-0.803173,-2.57288,0.403074,0.292415,-0.0918338,-0.0334676,0.612606,-0.228214,-1.04895,0.407647,-0.18195,-0.0195627,
0.401928,-0.220644,0.065074,-1.78212,0.129706,-0.168064,-0.38269,0.657766,0.0130657,0.75012,-0.19155,0.559261,0.112233,0.0102265,0,0,0,0,0,0,0,0.411514,-0.219861,0.0770293,-1.78288,0.13438,1.40442,0.402473,0.545959,0.0163186,0.634304,-0.111307,0.335644,0.128783,0.000861304,-0.932736,-26.9328,-1.9113,25.4315,1.90673,1.9262,-0.0365141,-0.872722,-1.33321,-2.39753,0.803904,0.569326,-0.401611,-0.33819,0.645722,-0.592264,-1.02577,0.408949,-0.202238,-0.0185005,
0.40461,-0.220578,0.0681373,-1.78289,0.13202,-0.167624,-0.382652,0.670538,0.0163639,0.765811,-0.192171,0.578287,0.109906,0.00952463,0,0,0,0,0,0,0,0.411514,-0.219861,0.0770293,-1.78288,0.13438,1.40442,0.402473,0.545959,0.0163186,0.634304,-0.111307,0.335644,0.128783,0.000861304,-0.932736,-26.9328,-1.9113,25.4315,1.90673,1.9262,-0.0365141,-2.10873,1.60662,-2.72364,-1.20479,-0.0491642,1.08999,1.10879,0.8689,1.12418,-1.19536,0.737044,-0.27384,-0.0231211,
0.407333,-0.220501,0.0712505,-1.78366,0.134389,-0.167188,-0.382616,0.680737,0.0192116,0.778298,-0.19214,0.592291,0.109102,0.00885623,0,0,0,0,0,0,0,0.411514,-0.219861,0.0770293,-1.78288,0.13438,1.40442,0.402473,0.545959,0.0163186,0.634304,-0.111307,0.335644,0.128783,0.000861304,-0.932736,-26.9328,-1.9113,25.4315,1.90673,1.9262,-0.0365141,-2.10873,1.60662,-2.72364,-1.20479,-0.0491642,1.08999,1.10879,0.8689,1.12418,-1.19536,0.737044,-0.27384,-0.0231211,
0.410087,-0.220415,0.074403,-1.78442,0.136798,-0.166749,-0.382583,0.688506,0.0215956,0.788141,-0.191707,0.602206,0.109727,0.00832577,0,0,0,0,0,0,0,0.411514,-0.219861,0.0770293,-1.78288,0.13438,1.40442,0.402473,0.545959,0.0163186,0.634304,-0.111307,0.335644,0.128783,0.000861304,-0.932736,-26.9328,-1.9113,25.4315,1.90673,1.9262,-0.0365141,-2.19461,0.56524,-2.501,-0.542279,-0.276643,0.709409,0.733916,0.56011,0.701924,-1.05979,0.573556,-0.257759,-0.0217455,
0.396739,-0.220735,0.0591564,-1.78059,0.125224,-0.168957,-0.382775,0.622038,0.00538687,0.707319,-0.18687,0.500457,0.123469,0.0118965,0,0,0,0,0,0,0,0.411514,-0.219861,0.0770293,-1.78288,0.13438,1.40442,0.402473,0.545959,0.0163186,0.634304,-0.111307,0.335644,0.128783,0.000861304,-0.932736,-26.9328,-1.9113,25.4315,1.90673,1.9262,-0.0365141,-2.19461,0.56524,-2.501,-0.542279,-0.276643,0.709409,0.733916,0.56011,0.701924,-1.05979,0.573556,-0.257759,-0.0217455,
0.418788,-0.219815,0.0853335,-1.78492,0.139407,-0.164519,-0.382784,0.628653,0.00553981,0.71839,-0.180586,0.450547,0.151743,0.0112058,0,0,0,0,0,0,0,0.429035,-0.219235,0.0979338,-1.78654,0.145559,1.40899,0.402476,0.526439,0.0169963,0.656895,-0.115382,0.361485,0.14066,0.00106857,0.00751081,-26.3338,-1.23686,25.3323,2.31598,1.85937,-0.0365141,-0.698383,-1.34209,-2.5189,0.654489,0.700543,-0.408179,-0.342406,0.764093,-0.579242,-1.09868,0.325556,-0.213543,-0.0173544,
0.421369,-0.219778,0.088288,-1.78565,0.141315,-0.163935,-0.382742,0.645335,0.00922192,0.73862,-0.184104,0.477024,0.145936,0.0104037,0,0,0,0,0,0,0,0.429035,-0.219235,0.0979338,-1.78654,0.145559,1.40899,0.402476,0.526439,0.0169963,0.656895,-0.115382,0.361485,0.14066,0.00106857,0.00751081,-26.3338,-1.23686,25.3323,2.31598,1.85937,-0.0365141,-0.698383,-1.34209,-2.5189,0.654489,0.700543,-0.408179,-0.342406,0.764093,-0.579242,-1.09868,0.325556,-0.213543,-0.0173544,
0.424005,-0.219727,0.0913079,-1.7864,0.143308,-0.16337,-0.382704,0.658869,0.0127952,0.754967,-0.18577,0.498138,0.141158,0.00962871,0,0,0,0,0,0,0,0.429035,-0.219235,0.0979338,-1.78654,0.145559,1.40899,0.402476,0.526439,0.0169963,0.656895,-0.115382,0.361485,0.14066,0.00106857,0.00751081,-26.3338,-1.23686,25.3323,2.31598,1.85937,-0.0365141,-0.24468,-0.801951,-2.69688,0.279371,1.18492,-0.312478,-0.258872,1.14498,-0.468527,-1.25827,0.444756,-0.251371,-0.0162765,
0.426682,-0.219663,0.0943802,-1.78714,0.145367,-0.162818,-0.382668,0.669487,0.0159398,0.768091,-0.186511,0.514818,0.137969,0.00900042,0,0,0,0,0,0,0,0.429035,-0.219235,0.0979338,-1.78654,0.145559,1.40899,0.402476,0.526439,0.0169963,0.656895,-0.115382,0.361485,0.14066,0.00106857,0.00751081,-26.3338,-1.23686,25.3323,2.31598,1.85937,-0.0365141,-1.25542,0.750806,-2.8504,-0.7807,0.584068,0.561071,0.589572,1.13366,0.535568,-1.30504,0.622805,-0.281719,-0.0185283,
0.429394,-0.219589,0.0974945,-1.78789,0.147466,-0.162273,-0.382634,0.678008,0.0186173,0.778568,-0.186526,0.52457,0.136328,0.00843586,0,0,0,0,0,0,0,0.429035,-0.219235,0.0979338,-1.78654,0.145559,1.40899,0.402476,0.526439,0.0169963,0.656895,-0.115382,0.361485,0.14066,0.00106857,0.00751081,-26.3338,-1.23686,25.3323,2.31598,1.85937,-0.0365141,-1.25542,0.750806,-2.8504,-0.7807,0.584068,0.561071,0.589572,1.13366,0.535568,-1.30504,0.622805,-0.281719,-0.0185283,
0.435065,-0.21946,0.103973,-1.78935,0.147871,-0.16071,-0.382586,0.692704,0.0208984,0.796999,-0.185071,0.383641,0.154727,0.00717808,0,0,0,0,0,0,0,0.445425,-0.218712,0.117521,-1.78983,0.154966,1.41394,0.402473,0.517454,0.0253419,0.627133,-0.10058,0.291707,0.161563,0.000289749,1.55078,-27.032,0.112013,25.4077,1.44897,2.03881,-0.0365141,-2.04376,1.19241,-2.96037,-1.15568,0.0247083,0.956059,0.984027,0.964082,0.992603,-1.29807,0.613324,-0.286121,-0.019973,
0.418847,-0.219823,0.0853743,-1.78491,0.138661,-0.164425,-0.382789,0.634342,0.00452504,0.723207,-0.179654,0.364619,0.162585,0.0107808,0,0,0,0,0,0,0,0.445425,-0.218712,0.117521,-1.78983,0.154966,1.41394,0.402473,0.517454,0.0253419,0.627133,-0.10058,0.291707,0.161563,0.000289749,1.55078,-27.032,0.112013,25.4077,1.44897,2.03881,-0.0365141,-2.04376,1.19241,-2.96037,-1.15568,0.0247083,0.956059,0.984027,0.964082,0.992603,-1.29807,0.613324,-0.286121,-0.019973,
0.452569,-0.218601,0.125697,-1.79178,0.158503,-0.154492,-0.382787,0.618919,0.00943528,0.709756,-0.174166,0.299803,0.196233,0.0108434,0,0,0,0,0,0,0,0.445425,-0.218712,0.117521,-1.78983,0.154966,1.41394,0.402473,0.517454,0.0253419,0.627133,-0.10058,0.291707,0.161563,0.000289749,1.55078,-27.032,0.112013,25.4077,1.44897,2.03881,-0.0365141,-0.582273,-0.803753,-2.5004,0.200205,0.775142,-0.194407,-0.127987,0.903557,-0.324608,-1.12659,0.339219,-0.223417,-0.01391,
0.455113,-0.218553,0.128622,-1.7925,0.159728,-0.153728,-0.382747,0.636052,0.0120548,0.731014,-0.178192,0.306255,0.190909,0.01003,0,0,0,0,0,0,0,0.445425,-0.218712,0.117521,-1.78983,0.154966,1.41394,0.402473,0.517454,0.0253419,0.627133,-0.10058,0.291707,0.161563,0.000289749,1.55078,-27.032,0.112013,25.4077,1.44897,2.03881,-0.0365141,0.171344,-1.22572,-2.3924,0.502859,1.27898,-0.565202,-0.512203,1.05686,-0.731676,-1.1261,0.31894,-0.213468,-0.0125923,
0.457712,-0.218494,0.131613,-1.79322,0.160967,-0.152985,-0.38271,0.649807,0.0147331,0.747971,-0.180162,0.309956,0.185913,0.00929894,0,0,0,0,0,0,0,0.445425,-0.218712,0.117521,-1.78983,0.154966,1.41394,0.402473,0.517454,0.0253419,0.627133,-0.10058,0.291707,0.161563,0.000289749,1.55078,-27.032,0.112013,25.4077,1.44897,2.03881,-0.0365141,0.171344,-1.22572,-2.3924,0.502859,1.27898,-0.565202,-0.512203,1.05686,-0.731676,-1.1261,0.31894,-0.213468,-0.0125923,
0.460354,-0.218426,0.134659,-1.79394,0.162217,-0.152256,-0.382675,0.660411,0.017082,0.761342,-0.181169,0.312384,0.18208,0.00864872,0,0,0,0,0,0,0,0.445425,-0.218712,0.117521,-1.78983,0.154966,1.41394,0.402473,0.517454,0.0253419,0.627133,-0.10058,0.291707,0.161563,0.000289749,1.55078,-27.032,0.112013,25.4077,1.44897,2.03881,-0.0365141,-0.794786,0.494476,-2.87335,-0.765048,0.862572,0.361767,0.388404,1.27785,0.338208,-1.34558,0.516254,-0.281359,-0.0162211,
0.463027,-0.21835,0.137745,-1.79467,0.163472,-0.151538,-0.382643,0.668389,0.0190352,0.771663,-0.181588,0.313729,0.179571,0.00806708,0,0,0,0,0,0,0,0.462802,-0.218101,0.138176,-1.79293,0.162488,1.4191,0.402474,0.545713,0.0183083,0.632437,-0.0913537,0.185466,0.178539,-0.000717582,-0.274166,-26.9328,-1.76055,25.4593,1.04522,2.29699,-0.0163725,-0.794786,0.494476,-2.87335,-0.765048,0.862572,0.361767,0.388404,1.27785,0.338208,-1.34558,0.516254,-0.281359,-0.0162211,
0.452793,-0.218615,0.125848,-1.79169,0.155502,-0.15445,-0.382805,0.639696,0.00666559,0.727212,-0.166553,-0.0418628,0.201942,0.00936203,0,0,0,0,0,0,0,0.462802,-0.218101,0.138176,-1.79293,0.162488,1.4191,0.402474,0.545713,0.0183083,0.632437,-0.0913537,0.185466,0.178539,-0.000717582,-0.274166,-26.9328,-1.76055,25.4593,1.04522,2.29699,-0.0163725,-1.63897,0.360675,-2.40157,-0.589702,0.0281191,0.567882,0.597431,0.72514,0.564255,-1.0621,0.469,-0.252005,-0.0194981,
0.4702,-0.218072,0.146584,-1.7947,0.162214,-0.149088,-0.382806,0.638881,0.00181341,0.729983,-0.15997,-0.100265,0.2194,0.00929966,0,0,0,0,0,0,0,0.462802,-0.218101,0.138176,-1.79293,0.162488,1.4191,0.402474,0.545713,0.0183083,0.632437,-0.0913537,0.185466,0.178539,-0.000717582,-0.274166,-26.9328,-1.76055,25.4593,1.04522,2.29699,-0.0163725,-1.63897,0.360675,-2.40157,-0.589702,0.0281191,0.567882,0.597431,0.72514,0.564255,-1.0621,0.469,-0.252005,-0.0194981,
0.472815,-0.218058,0.149583,-1.79536,0.1616,-0.148229,-0.382772,0.653542,0.00370129,0.74989,-0.165212,-0.153601,0.214649,0.0086147,0,0,0,0,0,0,0,0.462802,-0.218101,0.138176,-1.79293,0.162488,1.4191,0.402474,0.545713,0.0183083,0.632437,-0.0913537,0.185466,0.178539,-0.000717582,-0.274166,-26.9328,-1.76055,25.4593,1.04522,2.29699,-0.0163725,-1.48811,-0.0606837,-2.18358,-0.31808,0.00218376,0.388698,0.439679,0.599158,0.352051,-0.966781,0.366813,-0.240098,-0.0194413,
0.475471,-0.218034,0.152641,-1.79604,0.160824,-0.147393,-0.38274,0.664016,0.00586134,0.764472,-0.16862,-0.194015,0.209137,0.00800663,0,0,0,0,0,0,0,0.462802,-0.218101,0.138176,-1.79293,0.162488,1.4191,0.402474,0.545713,0.0183083,0.632437,-0.0913537,0.185466,0.178539,-0.000717582,-0.274166,-26.9328,-1.76055,25.4593,1.04522,2.29699,-0.0163725,-1.48811,-0.0606837,-2.18358,-0.31808,0.00218376,0.388698,0.439679,0.599158,0.352051,-0.966781,0.366813,-0.240098,-0.0194413,
0.478156,-0.218002,0.155741,-1.79672,0.159924,-0.146577,-0.38271,0.671227,0.00795927,0.774891,-0.170943,-0.225075,0.203903,0.00755665,0,0,0,0,0,0,0,0.480177,-0.217307,0.159002,-1.79578,0.166917,1.42511,0.402478,0.541361,0.0235977,0.653748,-0.0802604,0.0279778,0.19546,0.00072481,-0.627255,-27.2066,-2.06206,25.6339,0.642391,2.26403,-0.0566557,-0.0204366,-0.411506,-2.26241,-0.132434,1.07184,-0.177619,-0.140745,1.08279,-0.260902,-1.08865,0.320008,-0.222912,-0.0153802,
0.480859,-0.217963,0.158869,-1.79741,0.158925,-0.14578,-0.382681,0.675892,0.00987542,0.782065,-0.172508,-0.249532,0.199392,0.00710042,0,0,0,0,0,0,0,0.480177,-0.217307,0.159002,-1.79578,0.166917,1.42511,0.402478,0.541361,0.0235977,0.653748,-0.0802604,0.0279778,0.19546,0.00072481,-0.627255,-27.2066,-2.06206,25.6339,0.642391,2.26403,-0.0566557,-0.727429,-0.447537,-2.08097,-0.0949541,0.465983,0.0308445,0.0557355,0.741423,-0.0159123,-0.959877,0.292852,-0.222094,-0.0153925,
0.483573,-0.217916,0.162016,-1.79811,0.157848,-0.144996,-0.382655,0.678559,0.0115697,0.786704,-0.173488,-0.269413,0.195778,0.00668741,0,0,0,0,0,0,0,0.480177,-0.217307,0.159002,-1.79578,0.166917,1.42511,0.402478,0.541361,0.0235977,0.653748,-0.0802604,0.0279778,0.19546,0.00072481,-0.627255,-27.2066,-2.06206,25.6339,0.642391,2.26403,-0.0566557,-0.727429,-0.447537,-2.08097,-0.0949541,0.465983,0.0308445,0.0557355,0.741423,-0.0159123,-0.959877,0.292852,-0.222094,-0.0153925,
0.470276,-0.218199,0.146551,-1.79472,0.157846,-0.148419,-0.38282,0.639112,-0.0125868,0.725153,-0.161573,-0.594595,0.290797,0.00865525,0,0,0,0,0,0,0,0.480177,-0.217307,0.159002,-1.79578,0.166917,1.42511,0.402478,0.541361,0.0235977,0.653748,-0.0802604,0.0279778,0.19546,0.00072481,-0.627255,-27.2066,-2.06206,25.6339,0.642391,2.26403,-0.0566557,-1.54149,-0.190462,-1.8313,-0.277492,-0.335136,0.402651,0.439756,0.319796,0.407699,-0.745672,0.18255,-0.164019,-0.018091,
0.487529,-0.217378,0.167348,-1.79754,0.161706,-0.142293,-0.382807,0.623837,-0.0110337,0.71583,-0.161881,-0.587134,0.29845,0.0090326,0,0,0,0,0,0,0,0.480177,-0.217307,0.159002,-1.79578,0.166917,1.42511,0.402478,0.541361,0.0235977,0.653748,-0.0802604,0.0279778,0.19546,0.00072481,-0.627255,-27.2066,-2.06206,25.6339,0.642391,2.26403,-0.0566557,-1.54149,-0.190462,-1.8313,-0.277492,-0.335136,0.402651,0.439756,0.319796,0.407699,-0.745672,0.18255,-0.164019,-0.018091,
