PerkyPenguin/Analysis-on-Approximated-Derivatives/Code_and_Data/PaperData/Real_Robot/Scene_2/set_interval/15/trajectory.csv
Commanded Joint 0 Position,Commanded Joint 1 Position,Commanded Joint 2 Position,Commanded Joint 3 Position,Commanded Joint 4 Position,Commanded Joint 5 Position,Commanded Joint 6 Position,Commanded Joint 0 Velocity,Commanded Joint 1 Velocity,Commanded Joint 2 Velocity,Commanded Joint 3 Velocity,Commanded Joint 4 Velocity,Commanded Joint 5 Velocity,Commanded Joint 6 Velocity,Commanded Joint 0 Torque,Commanded Joint 1 Torque,Commanded Joint 2 Torque,Commanded Joint 3 Torque,Commanded Joint 4 Torque,Commanded Joint 5 Torque,Commanded Joint 6 Torque,Actual Joint 0 Position,Actual Joint 1 Position,Actual Joint 2 Position,Actual Joint 3 Position,Actual Joint 4 Position,Actual Joint 5 Position,Actual Joint 6 Position,Actual Joint 0 Velocity,Actual Joint 1 Velocity,Actual Joint 2 Velocity,Actual Joint 3 Velocity,Actual Joint 4 Velocity,Actual Joint 5 Velocity,Actual Joint 6 Velocity,Actual Joint 0 Torque,Actual Joint 1 Torque,Actual Joint 2 Torque,Actual Joint 3 Torque,Actual Joint 4 Torque,Actual Joint 5 Torque,Actual Joint 6 Torque,EE ext force 0,EE ext force 1,EE ext force 2,EE ext force 3,EE ext force 4,EE ext force 5,joint ext torque 0,joint ext torque 1,joint ext torque 2,joint ext torque 3,joint ext torque 4,joint ext torque 5,joint ext torque 6,
-0.00141079,-0.143185,0.51293,-1.823,0.0897666,0.163804,0.513796,0.00813492,0.030101,0.0203416,-0.153982,-0.0648227,0.235006,-0.00110806,0,0,0,0,0,0,0,-0.00146506,-0.143329,0.512774,-1.82147,0.0902244,1.73227,1.29921,0.0001095,0.00260019,-0.000747865,0.000622238,0.0128552,-9.1586e-05,-0.000283683,0.158268,-25.461,-2.81188,27.6492,0.520626,3.10631,-0.050247,0.359557,-0.126462,0.450549,0.24723,0.381263,-0.0872779,0.0299924,0.271111,-0.221824,-0.0715186,0.165866,-0.235643,-0.041183,
-0.00136661,-0.142988,0.513031,-1.82366,0.0894198,0.164779,0.513791,0.0110455,0.0492032,0.0254464,-0.165878,-0.0866844,0.243639,-0.00123525,0,0,0,0,0,0,0,-0.00146506,-0.143329,0.512774,-1.82147,0.0902244,1.73227,1.29921,0.0001095,0.00260019,-0.000747865,0.000622238,0.0128552,-9.1586e-05,-0.000283683,0.158268,-25.461,-2.81188,27.6492,0.520626,3.10631,-0.050247,0.267172,-0.232545,0.524347,0.32641,0.285829,-0.10945,0.00394483,0.206196,-0.246526,-0.0412415,0.155164,-0.236824,-0.0415812,
-0.00146483,-0.143306,0.512774,-1.82148,0.0903388,0.161475,0.513813,0.000112205,0.000968248,0.000156191,-0.000241712,0.00469034,0.000147052,2.32946e-05,0,0,0,0,0,0,0,-0.00146506,-0.143329,0.512774,-1.82147,0.0902244,1.73227,1.29921,0.0001095,0.00260019,-0.000747865,0.000622238,0.0128552,-9.1586e-05,-0.000283683,0.158268,-25.461,-2.81188,27.6492,0.520626,3.10631,-0.050247,0.107844,0.00828947,0.452424,0.177484,0.219597,0.0426043,0.150776,0.192491,-0.0814893,-0.0574227,0.190382,-0.236483,-0.0422343,
-0.00146428,-0.143303,0.512775,-1.82148,0.0903534,0.161475,0.513813,0.000138168,0.000770803,0.000200349,-0.000240612,0.00365061,3.4501e-05,1.63512e-05,0,0,0,0,0,0,0,-0.00146506,-0.143329,0.512774,-1.82147,0.0902244,1.73227,1.29921,0.0001095,0.00260019,-0.000747865,0.000622238,0.0128552,-9.1586e-05,-0.000283683,0.158268,-25.461,-2.81188,27.6492,0.520626,3.10631,-0.050247,0.107844,0.00828947,0.452424,0.177484,0.219597,0.0426043,0.150776,0.192491,-0.0814893,-0.0574227,0.190382,-0.236483,-0.0422343,
-0.00146368,-0.143301,0.512776,-1.82148,0.0903648,0.161475,0.513813,0.000149436,0.000607512,0.000224034,-0.000228124,0.00285057,-6.38015e-05,1.12818e-05,0,0,0,0,0,0,0,-0.0014626,-0.143336,0.512779,-1.8215,0.0902214,1.73231,1.29921,-0.00144839,0.00256183,-0.000547584,-0.00639296,0.0095326,0.00930739,-1.85364e-05,0.182071,-25.2626,-2.7603,26.6534,0.465695,3.23907,-0.0365141,0.295996,-0.344175,0.332893,0.367067,0.357543,-0.167576,-0.0552313,0.268282,-0.303651,-0.0987521,0.155042,-0.216543,-0.0418275,
-0.00146307,-0.143299,0.512777,-1.82148,0.0903738,0.161474,0.513813,0.000150972,0.000471795,0.000233977,-0.000210272,0.00223216,-0.000144995,7.68916e-06,0,0,0,0,0,0,0,-0.0014626,-0.143336,0.512779,-1.8215,0.0902214,1.73231,1.29921,-0.00144839,0.00256183,-0.000547584,-0.00639296,0.0095326,0.00930739,-1.85364e-05,0.182071,-25.2626,-2.7603,26.6534,0.465695,3.23907,-0.0365141,0.295996,-0.344175,0.332893,0.367067,0.357543,-0.167576,-0.0552313,0.268282,-0.303651,-0.0987521,0.155042,-0.216543,-0.0418275,
-0.00146249,-0.143297,0.512778,-1.82148,0.0903808,0.161474,0.513813,0.000146341,0.000358788,0.000234982,-0.000190189,0.00175157,-0.000209555,5.18817e-06,0,0,0,0,0,0,0,-0.0014626,-0.143336,0.512779,-1.8215,0.0902214,1.73231,1.29921,-0.00144839,0.00256183,-0.000547584,-0.00639296,0.0095326,0.00930739,-1.85364e-05,0.182071,-25.2626,-2.7603,26.6534,0.465695,3.23907,-0.0365141,-1.08739,-0.553834,-0.0574665,0.439907,-0.430454,0.116064,0.20001,-0.061229,0.00249158,-0.201462,0.181969,-0.228538,-0.0419604,
-0.00146194,-0.143296,0.512779,-1.82148,0.0903863,0.161472,0.513813,0.000138023,0.000264615,0.000230402,-0.000169623,0.00137588,-0.000259249,3.47224e-06,0,0,0,0,0,0,0,-0.0014626,-0.143336,0.512779,-1.8215,0.0902214,1.73231,1.29921,-0.00144839,0.00256183,-0.000547584,-0.00639296,0.0095326,0.00930739,-1.85364e-05,0.182071,-25.2626,-2.7603,26.6534,0.465695,3.23907,-0.0365141,-1.08739,-0.553834,-0.0574665,0.439907,-0.430454,0.116064,0.20001,-0.061229,0.00249158,-0.201462,0.181969,-0.228538,-0.0419604,
-0.00146143,-0.143295,0.512779,-1.82148,0.0903906,0.161471,0.513813,0.000127712,0.000186089,0.000222535,-0.000149587,0.00108039,-0.000296263,2.31269e-06,0,0,0,0,0,0,0,-0.0014626,-0.143336,0.512779,-1.8215,0.0902214,1.73231,1.29921,-0.00144839,0.00256183,-0.000547584,-0.00639296,0.0095326,0.00930739,-1.85364e-05,0.182071,-25.2626,-2.7603,26.6534,0.465695,3.23907,-0.0365141,0.0544528,-0.0628879,-0.569884,-0.0211342,0.512276,0.0195439,0.0999496,0.50059,-0.0473509,-0.420311,0.165472,-0.201242,-0.0429745,
-0.00146096,-0.143295,0.51278,-1.82148,0.090394,0.16147,0.513813,0.000116537,0.00012056,0.000212936,-0.000130654,0.000846552,-0.000322796,1.54374e-06,0,0,0,0,0,0,0,-0.00142573,-0.14334,0.5128,-1.82191,0.090088,1.73308,1.29921,0.00489114,0.000129922,0.00312146,0.000410075,-0.0193915,-0.00123056,-0.000541023,-0.222592,-25.4848,-2.96263,27.923,1.35742,3.39745,-0.0227812,0.669813,-0.0819888,-0.0736736,0.106623,0.701641,-0.158741,-0.069356,0.485849,-0.249276,-0.209298,0.141905,-0.154476,-0.0419522,
-0.00146054,-0.143295,0.512781,-1.82148,0.0903966,0.161469,0.513813,0.000105236,6.58259e-05,0.000202633,-0.000113129,0.000660352,-0.000340883,1.04684e-06,0,0,0,0,0,0,0,-0.00142573,-0.14334,0.5128,-1.82191,0.090088,1.73308,1.29921,0.00489114,0.000129922,0.00312146,0.000410075,-0.0193915,-0.00123056,-0.000541023,-0.222592,-25.4848,-2.96263,27.923,1.35742,3.39745,-0.0227812,0.669813,-0.0819888,-0.0736736,0.106623,0.701641,-0.158741,-0.069356,0.485849,-0.249276,-0.209298,0.141905,-0.154476,-0.0419522,
-0.00146016,-0.143295,0.512782,-1.82148,0.0903987,0.161467,0.513813,9.42727e-05,2.00524e-05,0.00019229,-9.71419e-05,0.000511179,-0.000352314,7.37881e-07,0,0,0,0,0,0,0,-0.00142573,-0.14334,0.5128,-1.82191,0.090088,1.73308,1.29921,0.00489114,0.000129922,0.00312146,0.000410075,-0.0193915,-0.00123056,-0.000541023,-0.222592,-25.4848,-2.96263,27.923,1.35742,3.39745,-0.0227812,0.436769,0.0327144,0.246556,0.155325,0.416732,-0.04435,0.0360634,0.277873,-0.140304,-0.0405149,0.184383,-0.123717,-0.0409379,
-0.00145983,-0.143295,0.512783,-1.82148,0.0904002,0.161466,0.513813,8.39224e-05,-1.82829e-05,0.000182321,-8.27145e-05,0.000390958,-0.000358615,5.57471e-07,0,0,0,0,0,0,0,-0.00142573,-0.14334,0.5128,-1.82191,0.090088,1.73308,1.29921,0.00489114,0.000129922,0.00312146,0.000410075,-0.0193915,-0.00123056,-0.000541023,-0.222592,-25.4848,-2.96263,27.923,1.35742,3.39745,-0.0227812,0.436769,0.0327144,0.246556,0.155325,0.416732,-0.04435,0.0360634,0.277873,-0.140304,-0.0405149,0.184383,-0.123717,-0.0409379,
-0.00145953,-0.143295,0.512783,-1.82148,0.0904014,0.161464,0.513813,7.43347e-05,-5.04423e-05,0.000172966,-6.98005e-05,0.000293506,-0.000361053,4.63892e-07,0,0,0,0,0,0,0,-0.00142573,-0.14334,0.5128,-1.82191,0.090088,1.73308,1.29921,0.00489114,0.000129922,0.00312146,0.000410075,-0.0193915,-0.00123056,-0.000541023,-0.222592,-25.4848,-2.96263,27.923,1.35742,3.39745,-0.0227812,0.435772,0.00541444,-0.130931,0.051423,0.56897,-0.0560214,0.0289672,0.430724,-0.139922,-0.21766,0.160225,-0.15287,-0.0415141,
-0.00145927,-0.143295,0.512784,-1.82148,0.0904023,0.161463,0.513813,6.55746e-05,-7.74714e-05,0.000164353,-5.83139e-05,0.000214073,-0.000360663,4.27963e-07,0,0,0,0,0,0,0,-0.00142573,-0.14334,0.5128,-1.82191,0.090088,1.73308,1.29921,0.00489114,0.000129922,0.00312146,0.000410075,-0.0193915,-0.00123056,-0.000541023,-0.222592,-25.4848,-2.96263,27.923,1.35742,3.39745,-0.0227812,0.435772,0.00541444,-0.130931,0.051423,0.56897,-0.0560214,0.0289672,0.430724,-0.139922,-0.21766,0.160225,-0.15287,-0.0415141,
-0.00145904,-0.143296,0.512785,-1.82148,0.0904029,0.161461,0.513813,5.76521e-05,-0.000100235,0.000156532,-4.81469e-05,0.000148984,-0.000358269,4.29393e-07,0,0,0,0,0,0,0,-0.00144035,-0.143317,0.512798,-1.82185,0.0901526,1.73311,1.29921,0.00565192,-0.00366492,0.00107456,-0.00254506,-0.0168213,-0.00557605,-0.000802505,-0.0202602,-25.6593,-2.88725,27.6254,0.971981,3.23907,-0.0163725,-0.318549,-0.313636,0.306809,0.373162,-0.107859,0.0102065,0.100775,0.00579033,-0.110212,-0.0200012,0.160215,-0.15647,-0.0410554,
-0.00145883,-0.143296,0.512785,-1.82148,0.0904033,0.16146,0.513813,5.05427e-05,-0.00011945,0.000149504,-3.91829e-05,9.538e-05,-0.000354521,4.54167e-07,0,0,0,0,0,0,0,-0.00144035,-0.143317,0.512798,-1.82185,0.0901526,1.73311,1.29921,0.00565192,-0.00366492,0.00107456,-0.00254506,-0.0168213,-0.00557605,-0.000802505,-0.0202602,-25.6593,-2.88725,27.6254,0.971981,3.23907,-0.0163725,-0.154721,-0.449892,0.407425,0.492964,-0.0218827,-0.0952747,-0.000534337,0.0376501,-0.228982,0.00252993,0.168594,-0.163655,-0.0400245,
-0.00145866,-0.143297,0.512786,-1.82148,0.0904035,0.161459,0.513813,4.42013e-05,-0.000135707,0.00014324,-3.13039e-05,5.10284e-05,-0.000349922,4.92695e-07,0,0,0,0,0,0,0,-0.00144035,-0.143317,0.512798,-1.82185,0.0901526,1.73311,1.29921,0.00565192,-0.00366492,0.00107456,-0.00254506,-0.0168213,-0.00557605,-0.000802505,-0.0202602,-25.6593,-2.88725,27.6254,0.971981,3.23907,-0.0163725,-0.154721,-0.449892,0.407425,0.492964,-0.0218827,-0.0952747,-0.000534337,0.0376501,-0.228982,0.00252993,0.168594,-0.163655,-0.0400245,
-0.0014585,-0.143297,0.512786,-1.82148,0.0904035,0.161457,0.513813,3.85714e-05,-0.000149497,0.000137694,-2.43956e-05,1.4172e-05,-0.000344853,5.3849e-07,0,0,0,0,0,0,0,-0.00144035,-0.143317,0.512798,-1.82185,0.0901526,1.73311,1.29921,0.00565192,-0.00366492,0.00107456,-0.00254506,-0.0168213,-0.00557605,-0.000802505,-0.0202602,-25.6593,-2.88725,27.6254,0.971981,3.23907,-0.0163725,-0.0139018,-0.341331,0.217381,0.368141,0.161014,-0.0834396,0.0141772,0.173781,-0.207234,-0.0932944,0.1701,-0.180558,-0.0417928,
-0.00145837,-0.143298,0.512787,-1.82148,0.0904034,0.161456,0.513813,3.3592e-05,-0.000161225,0.000132809,-1.83505e-05,-1.65789e-05,-0.000339596,5.87242e-07,0,0,0,0,0,0,0,-0.00144035,-0.143317,0.512798,-1.82185,0.0901526,1.73311,1.29921,0.00565192,-0.00366492,0.00107456,-0.00254506,-0.0168213,-0.00557605,-0.000802505,-0.0202602,-25.6593,-2.88725,27.6254,0.971981,3.23907,-0.0163725,-0.0139018,-0.341331,0.217381,0.368141,0.161014,-0.0834396,0.0141772,0.173781,-0.207234,-0.0932944,0.1701,-0.180558,-0.0417928,
-0.00145825,-0.143299,0.512787,-1.82148,0.0904033,0.161455,0.513813,2.9201e-05,-0.000171226,0.000128525,-1.30691e-05,-4.23296e-05,-0.000334358,6.36146e-07,0,0,0,0,0,0,0,-0.00145572,-0.143313,0.512789,-1.82186,0.0901905,1.73313,1.29921,0.000832007,0.000921779,-0.00125463,0.00195225,-0.00162278,-0.00105429,-0.00644958,0.158268,-25.7109,-2.7603,27.6492,0.63049,3.07976,-0.0630644,-0.379425,-0.302974,0.420893,0.405608,-0.163307,0.0355056,0.131542,-0.0289149,-0.095253,0.00935698,0.183478,-0.175212,-0.0427721,
-0.00145815,-0.143299,0.512788,-1.82148,0.090403,0.161453,0.513813,2.53382e-05,-0.000179781,0.000124783,-8.46067e-06,-6.39646e-05,-0.000329282,6.83446e-07,0,0,0,0,0,0,0,-0.00145572,-0.143313,0.512789,-1.82186,0.0901905,1.73313,1.29921,0.000832007,0.000921779,-0.00125463,0.00195225,-0.00162278,-0.00105429,-0.00644958,0.158268,-25.7109,-2.7603,27.6492,0.63049,3.07976,-0.0630644,0.172842,-0.238735,0.205249,0.274383,0.307724,-0.0872285,0.0231755,0.259243,-0.214103,-0.126661,0.156614,-0.201902,-0.0421052,
-0.00145806,-0.1433,0.512788,-1.82148,0.0904027,0.161452,0.513813,2.19468e-05,-0.000187119,0.000121525,-4.4436e-06,-8.21952e-05,-0.000324465,7.28097e-07,0,0,0,0,0,0,0,-0.00145572,-0.143313,0.512789,-1.82186,0.0901905,1.73313,1.29921,0.000832007,0.000921779,-0.00125463,0.00195225,-0.00162278,-0.00105429,-0.00644958,0.158268,-25.7109,-2.7603,27.6492,0.63049,3.07976,-0.0630644,0.172842,-0.238735,0.205249,0.274383,0.307724,-0.0872285,0.0231755,0.259243,-0.214103,-0.126661,0.156614,-0.201902,-0.0421052,
-0.00145799,-0.143301,0.512789,-1.82148,0.0904023,0.161451,0.513813,1.89739e-05,-0.000193434,0.000118697,-9.44734e-07,-9.75968e-05,-0.000319967,7.69541e-07,0,0,0,0,0,0,0,-0.00145572,-0.143313,0.512789,-1.82186,0.0901905,1.73313,1.29921,0.000832007,0.000921779,-0.00125463,0.00195225,-0.00162278,-0.00105429,-0.00644958,0.158268,-25.7109,-2.7603,27.6492,0.63049,3.07976,-0.0630644,-0.0872446,-0.207399,0.00186542,0.194982,0.227149,0.00140224,0.126813,0.266401,-0.130163,-0.219722,0.154414,-0.228239,-0.0433945,
-0.00145792,-0.143302,0.512789,-1.82148,0.0904019,0.161449,0.513813,1.63714e-05,-0.000198886,0.000116249,2.10093e-06,-0.000110637,-0.000315821,8.07541e-07,0,0,0,0,0,0,0,-0.00145572,-0.143313,0.512789,-1.82186,0.0901905,1.73313,1.29921,0.000832007,0.000921779,-0.00125463,0.00195225,-0.00162278,-0.00105429,-0.00644958,0.158268,-25.7109,-2.7603,27.6492,0.63049,3.07976,-0.0630644,-0.0872446,-0.207399,0.00186542,0.194982,0.227149,0.00140224,0.126813,0.266401,-0.130163,-0.219722,0.154414,-0.228239,-0.0433945,
-0.00145786,-0.143302,0.51279,-1.82148,0.0904014,0.161448,0.513813,1.40956e-05,-0.000203608,0.000114137,4.75093e-06,-0.0001217,-0.000312039,8.42072e-07,0,0,0,0,0,0,0,-0.00145572,-0.143313,0.512789,-1.82186,0.0901905,1.73313,1.29921,0.000832007,0.000921779,-0.00125463,0.00195225,-0.00162278,-0.00105429,-0.00644958,0.158268,-25.7109,-2.7603,27.6492,0.63049,3.07976,-0.0630644,-0.17987,-0.278381,0.269456,0.347376,0.0507403,-0.00548768,0.134813,0.122178,-0.168869,-0.0796105,0.181523,-0.195798,-0.0399263,
-0.00145782,-0.143303,0.51279,-1.82148,0.0904008,0.161447,0.513813,1.21074e-05,-0.000207713,0.000112319,7.05598e-06,-0.000131097,-0.000308621,8.7324e-07,0,0,0,0,0,0,0,-0.00148372,-0.143348,0.512774,-1.82182,0.0901829,1.73312,1.29922,0.00051893,0.00242257,-0.00012701,-0.000442267,0.0106058,-0.000444786,-0.00136663,0.412174,-25.3102,-2.63732,27.7246,0.60577,3.11913,-0.0227812,0.205567,-0.33772,0.558417,0.444851,0.185853,-0.138176,0.00977463,0.129616,-0.318241,0.0311014,0.162059,-0.178664,-0.0390653,
-0.00145777,-0.143304,0.512791,-1.82148,0.0904003,0.161446,0.513813,1.03716e-05,-0.000211294,0.00011076,9.06064e-06,-0.00013909,-0.000305555,9.01228e-07,0,0,0,0,0,0,0,-0.00148372,-0.143348,0.512774,-1.82182,0.0901829,1.73312,1.29922,0.00051893,0.00242257,-0.00012701,-0.000442267,0.0106058,-0.000444786,-0.00136663,0.412174,-25.3102,-2.63732,27.7246,0.60577,3.11913,-0.0227812,0.205567,-0.33772,0.558417,0.444851,0.185853,-0.138176,0.00977463,0.129616,-0.318241,0.0311014,0.162059,-0.178664,-0.0390653,
-0.00139822,-0.143577,0.51282,-1.82119,0.0342361,0.131774,0.513699,-0.00510885,0.000264028,-0.00510979,-0.00220808,-0.331563,-0.17885,-0.000605715,0,0,0,0,0,0,0,-0.00148372,-0.143348,0.512774,-1.82182,0.0901829,1.73312,1.29922,0.00051893,0.00242257,-0.00012701,-0.000442267,0.0106058,-0.000444786,-0.00136663,0.412174,-25.3102,-2.63732,27.7246,0.60577,3.11913,-0.0227812,0.257067,-0.158213,0.400316,0.291362,0.291251,-0.0740517,0.0515537,0.21594,-0.221097,-0.037569,0.176074,-0.186236,-0.0398926,
-0.00140631,-0.143579,0.512851,-1.8216,0.0444014,0.137534,0.513762,-0.00424205,-0.000132312,-0.00412859,-0.00208568,-0.255952,-0.142925,-0.000289081,0,0,0,0,0,0,0,-0.00148372,-0.143348,0.512774,-1.82182,0.0901829,1.73312,1.29922,0.00051893,0.00242257,-0.00012701,-0.000442267,0.0106058,-0.000444786,-0.00136663,0.412174,-25.3102,-2.63732,27.7246,0.60577,3.11913,-0.0227812,0.257067,-0.158213,0.400316,0.291362,0.291251,-0.0740517,0.0515537,0.21594,-0.221097,-0.037569,0.176074,-0.186236,-0.0398926,
-0.00142342,-0.143579,0.512834,-1.8216,0.0433919,0.13697,0.513761,-0.00427702,-0.000127295,-0.00416647,-0.00210125,-0.252387,-0.141121,-0.000287046,0,0,0,0,0,0,0,-0.00148372,-0.143348,0.512774,-1.82182,0.0901829,1.73312,1.29922,0.00051893,0.00242257,-0.00012701,-0.000442267,0.0106058,-0.000444786,-0.00136663,0.412174,-25.3102,-2.63732,27.7246,0.60577,3.11913,-0.0227812,0.755782,-0.10066,0.0454189,0.141503,0.756198,-0.189756,-0.0849876,0.513031,-0.29805,-0.203714,0.153502,-0.19114,-0.0395336,
-0.00144067,-0.14358,0.512817,-1.82161,0.0423975,0.136413,0.51376,-0.00431301,-0.000127211,-0.00420441,-0.00212264,-0.248598,-0.139185,-0.000285587,0,0,0,0,0,0,0,-0.00141392,-0.143382,0.51281,-1.82177,0.0901104,1.73311,1.29922,0.000564576,-0.00121179,-0.00168901,0.00162437,0.00386452,-0.000642649,0.00119503,-0.29797,-24.9611,-3.01024,27.3993,0.795284,3.08617,-0.0703886,0.121912,0.140641,0.140922,0.0127083,0.311054,0.0901674,0.179337,0.27761,2.18432e-05,-0.15049,0.176698,-0.208569,-0.0388754,
-0.00145807,-0.14358,0.5128,-1.82162,0.0414193,0.135865,0.513759,-0.00435163,-0.000131664,-0.00424379,-0.00215186,-0.244549,-0.137096,-0.000284896,0,0,0,0,0,0,0,-0.00141392,-0.143382,0.51281,-1.82177,0.0901104,1.73311,1.29922,0.000564576,-0.00121179,-0.00168901,0.00162437,0.00386452,-0.000642649,0.00119503,-0.29797,-24.9611,-3.01024,27.3993,0.795284,3.08617,-0.0703886,0.121912,0.140641,0.140922,0.0127083,0.311054,0.0901674,0.179337,0.27761,2.18432e-05,-0.15049,0.176698,-0.208569,-0.0388754,
-0.00147565,-0.143581,0.512783,-1.82163,0.0404585,0.135325,0.513758,-0.00439478,-0.000140223,-0.0042863,-0.00219128,-0.240197,-0.134825,-0.000284901,0,0,0,0,0,0,0,-0.00141392,-0.143382,0.51281,-1.82177,0.0901104,1.73311,1.29922,0.000564576,-0.00121179,-0.00168901,0.00162437,0.00386452,-0.000642649,0.00119503,-0.29797,-24.9611,-3.01024,27.3993,0.795284,3.08617,-0.0703886,0.12354,0.340249,0.286097,-0.151085,0.272317,0.174389,0.251875,0.237245,0.107794,-0.132258,0.13128,-0.249076,-0.0374276,
-0.00149343,-0.143582,0.512766,-1.82164,0.0395165,0.134796,0.513757,-0.00444481,-0.000152413,-0.00433396,-0.00224372,-0.235489,-0.132337,-0.000285526,0,0,0,0,0,0,0,-0.00141392,-0.143382,0.51281,-1.82177,0.0901104,1.73311,1.29922,0.000564576,-0.00121179,-0.00168901,0.00162437,0.00386452,-0.000642649,0.00119503,-0.29797,-24.9611,-3.01024,27.3993,0.795284,3.08617,-0.0703886,0.12354,0.340249,0.286097,-0.151085,0.272317,0.174389,0.251875,0.237245,0.107794,-0.132258,0.13128,-0.249076,-0.0374276,
-0.00151145,-0.143582,0.512748,-1.82165,0.0385951,0.134278,0.513755,-0.00450462,-0.000167693,-0.00438931,-0.00231259,-0.230359,-0.12959,-0.000286627,0,0,0,0,0,0,0,-0.00141392,-0.143382,0.51281,-1.82177,0.0901104,1.73311,1.29922,0.000564576,-0.00121179,-0.00168901,0.00162437,0.00386452,-0.000642649,0.00119503,-0.29797,-24.9611,-3.01024,27.3993,0.795284,3.08617,-0.0703886,0.403341,0.0556012,0.496656,-0.0483727,0.332097,-0.0359708,0.0269,0.202674,-0.0883887,-0.0872812,-0.0120372,-0.267225,-0.0376649,
-0.00152976,-0.143583,0.512731,-1.82166,0.0376962,0.133772,0.513754,-0.0045779,-0.00018544,-0.00445558,-0.00240203,-0.224726,-0.126535,-0.000288018,0,0,0,0,0,0,0,-0.00141392,-0.143382,0.51281,-1.82177,0.0901104,1.73311,1.29922,0.000564576,-0.00121179,-0.00168901,0.00162437,0.00386452,-0.000642649,0.00119503,-0.29797,-24.9611,-3.01024,27.3993,0.795284,3.08617,-0.0703886,0.403341,0.0556012,0.496656,-0.0483727,0.332097,-0.0359708,0.0269,0.202674,-0.0883887,-0.0872812,-0.0120372,-0.267225,-0.0376649,
-0.00154844,-0.143584,0.512712,-1.82167,0.0368222,0.133279,0.513753,-0.00466938,-0.000204924,-0.00453691,-0.002517,-0.218488,-0.12311,-0.000289069,0,0,0,0,0,0,0,-0.00119576,-0.143327,0.51295,-1.82172,0.0839948,1.73276,1.29921,0.00390536,0.00176262,0.00430994,-0.000622647,-0.178096,-0.02689,-0.000988549,-0.246395,-25.6593,-3.06182,27.677,0.331112,3.09258,-0.0163725,-0.0939896,-0.0229562,0.784682,0.0397909,-0.146517,0.0628817,0.108604,-0.111672,0.0161164,0.0568018,-0.0538027,-0.256949,-0.038923,
-0.00156758,-0.143585,0.512694,-1.82168,0.0359762,0.132802,0.513752,-0.0047852,-0.000225298,-0.00463868,-0.00266354,-0.211517,-0.119242,-0.000289442,0,0,0,0,0,0,0,-0.00119576,-0.143327,0.51295,-1.82172,0.0839948,1.73276,1.29921,0.00390536,0.00176262,0.00430994,-0.000622647,-0.178096,-0.02689,-0.000988549,-0.246395,-25.6593,-3.06182,27.677,0.331112,3.09258,-0.0163725,0.782415,-0.14294,0.558932,-0.00388191,0.516811,-0.23544,-0.184891,0.260149,-0.271645,-0.0881857,-0.123978,-0.27052,-0.0375211,
-0.00158731,-0.143586,0.512675,-1.82169,0.0351616,0.132343,0.513751,-0.00493335,-0.0002456,-0.00476795,-0.002849,-0.203651,-0.114842,-0.000288003,0,0,0,0,0,0,0,-0.00119576,-0.143327,0.51295,-1.82172,0.0839948,1.73276,1.29921,0.00390536,0.00176262,0.00430994,-0.000622647,-0.178096,-0.02689,-0.000988549,-0.246395,-25.6593,-3.06182,27.677,0.331112,3.09258,-0.0163725,0.782415,-0.14294,0.558932,-0.00388191,0.516811,-0.23544,-0.184891,0.260149,-0.271645,-0.0881857,-0.123978,-0.27052,-0.0375211,
-0.00160781,-0.143587,0.512655,-1.8217,0.0343828,0.131904,0.51375,-0.0051244,-0.000264786,-0.00493408,-0.00308231,-0.194685,-0.109804,-0.000283088,0,0,0,0,0,0,0,-0.00119576,-0.143327,0.51295,-1.82172,0.0839948,1.73276,1.29921,0.00390536,0.00176262,0.00430994,-0.000622647,-0.178096,-0.02689,-0.000988549,-0.246395,-25.6593,-3.06182,27.677,0.331112,3.09258,-0.0163725,0.680119,-0.304608,0.644891,0.0310428,0.443064,-0.279695,-0.229842,0.220416,-0.31221,-0.123639,-0.193478,-0.34148,-0.039525,
-0.0016293,-0.143588,0.512634,-1.82172,0.0336454,0.131488,0.513749,-0.00537235,-0.000281879,-0.00514953,-0.00337459,-0.184353,-0.104001,-0.000272367,0,0,0,0,0,0,0,-0.00119576,-0.143327,0.51295,-1.82172,0.0839948,1.73276,1.29921,0.00390536,0.00176262,0.00430994,-0.000622647,-0.178096,-0.02689,-0.000988549,-0.246395,-25.6593,-3.06182,27.677,0.331112,3.09258,-0.0163725,0.680119,-0.304608,0.644891,0.0310428,0.443064,-0.279695,-0.229842,0.220416,-0.31221,-0.123639,-0.193478,-0.34148,-0.039525,
-0.00165209,-0.143589,0.512613,-1.82173,0.0329562,0.131099,0.513748,-0.00569605,-0.000296377,-0.00543115,-0.00374022,-0.172313,-0.097277,-0.00025155,0,0,0,0,0,0,0,-0.00104683,-0.143344,0.513037,-1.82172,0.0782836,1.73217,1.29922,0.00133671,0.002438,0.000841039,-0.000144598,-0.176977,-0.0123494,0.000146933,-0.349545,-25.4094,-3.03801,27.6492,0.0381434,2.79412,-0.050247,0.688958,-0.422332,0.785581,0.0977599,0.409705,-0.334563,-0.293722,0.183383,-0.362282,-0.104119,-0.226209,-0.374824,-0.0421029,
-0.00167657,-0.14359,0.512589,-1.82175,0.0323237,0.130741,0.513747,-0.00612134,-0.000309442,-0.00580205,-0.00419968,-0.158115,-0.0894419,-0.00021265,0,0,0,0,0,0,0,-0.00104683,-0.143344,0.513037,-1.82172,0.0782836,1.73217,1.29922,0.00133671,0.002438,0.000841039,-0.000144598,-0.176977,-0.0123494,0.000146933,-0.349545,-25.4094,-3.03801,27.6492,0.0381434,2.79412,-0.050247,0.860797,-0.4503,0.863532,0.076326,0.505123,-0.394544,-0.355858,0.221398,-0.41535,-0.115304,-0.273335,-0.407872,-0.0443847,
-0.00170331,-0.143592,0.512564,-1.82177,0.0317591,0.13042,0.513746,-0.00668482,-0.000327276,-0.00629505,-0.00478725,-0.141151,-0.080243,-0.000140932,0,0,0,0,0,0,0,-0.00104683,-0.143344,0.513037,-1.82172,0.0782836,1.73217,1.29922,0.00133671,0.002438,0.000841039,-0.000144598,-0.176977,-0.0123494,0.000146933,-0.349545,-25.4094,-3.03801,27.6492,0.0381434,2.79412,-0.050247,0.860797,-0.4503,0.863532,0.076326,0.505123,-0.394544,-0.355858,0.221398,-0.41535,-0.115304,-0.273335,-0.407872,-0.0443847,
-0.00173308,-0.143593,0.512536,-1.82179,0.0312768,0.130143,0.513746,-0.00744173,-0.000370901,-0.00695958,-0.00557321,-0.120571,-0.0693015,-2.61744e-05,0,0,0,0,0,0,0,-0.00104683,-0.143344,0.513037,-1.82172,0.0782836,1.73217,1.29922,0.00133671,0.002438,0.000841039,-0.000144598,-0.176977,-0.0123494,0.000146933,-0.349545,-25.4094,-3.03801,27.6492,0.0381434,2.79412,-0.050247,0.5874,-0.315003,0.933962,-0.00362261,0.336802,-0.259202,-0.224447,0.14374,-0.272849,-0.115169,-0.256269,-0.450044,-0.0449736,
-0.00176701,-0.143595,0.512505,-1.82182,0.0308964,0.129919,0.513745,-0.00848412,-0.000505084,-0.00787888,-0.00672961,-0.0950907,-0.0559219,-0.000184786,0,0,0,0,0,0,0,-0.00104683,-0.143344,0.513037,-1.82172,0.0782836,1.73217,1.29922,0.00133671,0.002438,0.000841039,-0.000144598,-0.176977,-0.0123494,0.000146933,-0.349545,-25.4094,-3.03801,27.6492,0.0381434,2.79412,-0.050247,0.5874,-0.315003,0.933962,-0.00362261,0.336802,-0.259202,-0.224447,0.14374,-0.272849,-0.115169,-0.256269,-0.450044,-0.0449736,
-0.00180137,-0.143595,0.512472,-1.82184,0.0305912,0.129734,0.513745,-0.00859008,0.000141391,-0.00825893,-0.00626748,-0.0763065,-0.0462805,-2.6293e-05,0,0,0,0,0,0,0,-0.00104683,-0.143344,0.513037,-1.82172,0.0782836,1.73217,1.29922,0.00133671,0.002438,0.000841039,-0.000144598,-0.176977,-0.0123494,0.000146933,-0.349545,-25.4094,-3.03801,27.6492,0.0381434,2.79412,-0.050247,0.835757,-0.189761,0.872112,-0.0987081,0.562965,-0.272568,-0.234154,0.287445,-0.281759,-0.174404,-0.236429,-0.475647,-0.0439319,
-0.0018348,-0.143591,0.512439,-1.82186,0.0303434,0.129579,0.513745,-0.00835726,0.000860186,-0.00822806,-0.00541767,-0.0619594,-0.0386719,7.47716e-05,0,0,0,0,0,0,0,-0.000988302,-0.143368,0.513108,-1.82172,0.0728797,1.73197,1.29921,-0.00412341,-0.000463432,0.00122311,-0.000427788,-0.166782,0.000873557,-0.000221466,-0.171017,-25.1119,-3.06182,27.6492,0.593868,2.89391,-0.0429228,0.63748,-0.0564793,1.00277,-0.114904,0.403486,-0.156124,-0.111648,0.194484,-0.175983,-0.112421,-0.188645,-0.476106,-0.0449261,
-0.00186661,-0.143585,0.512407,-1.82188,0.0301403,0.129449,0.513746,-0.00795182,0.00145306,-0.00796225,-0.00456147,-0.0507764,-0.032415,0.000134058,0,0,0,0,0,0,0,-0.000988302,-0.143368,0.513108,-1.82172,0.0728797,1.73197,1.29921,-0.00412341,-0.000463432,0.00122311,-0.000427788,-0.166782,0.000873557,-0.000221466,-0.171017,-25.1119,-3.06182,27.6492,0.593868,2.89391,-0.0429228,0.63748,-0.0564793,1.00277,-0.114904,0.403486,-0.156124,-0.111648,0.194484,-0.175983,-0.112421,-0.188645,-0.476106,-0.0449261,
-0.00189644,-0.143578,0.512377,-1.8219,0.0299725,0.129341,0.513747,-0.00745816,0.00188481,-0.00756454,-0.00379937,-0.0419382,-0.027186,0.000169975,0,0,0,0,0,0,0,-0.000988302,-0.143368,0.513108,-1.82172,0.0728797,1.73197,1.29921,-0.00412341,-0.000463432,0.00122311,-0.000427788,-0.166782,0.000873557,-0.000221466,-0.171017,-25.1119,-3.06182,27.6492,0.593868,2.89391,-0.0429228,0.491887,0.0695585,0.98246,-0.131776,0.341805,-0.0560907,0.00143872,0.18233,-0.0923287,-0.102796,-0.113207,-0.46766,-0.0453242,
-0.00192415,-0.143569,0.512349,-1.82191,0.029833,0.12925,0.513747,-0.00692562,0.00216982,-0.00709767,-0.00314411,-0.0348766,-0.0227916,0.00019205,0,0,0,0,0,0,0,-0.000988302,-0.143368,0.513108,-1.82172,0.0728797,1.73197,1.29921,-0.00412341,-0.000463432,0.00122311,-0.000427788,-0.166782,0.000873557,-0.000221466,-0.171017,-25.1119,-3.06182,27.6492,0.593868,2.89391,-0.0429228,0.491887,0.0695585,0.98246,-0.131776,0.341805,-0.0560907,0.00143872,0.18233,-0.0923287,-0.102796,-0.113207,-0.46766,-0.0453242,
-0.00194968,-0.14356,0.512322,-1.82192,0.0297163,0.129173,0.513748,-0.00638454,0.00233443,-0.00660136,-0.00258421,-0.0291801,-0.0190923,0.000205404,0,0,0,0,0,0,0,-0.000988302,-0.143368,0.513108,-1.82172,0.0728797,1.73197,1.29921,-0.00412341,-0.000463432,0.00122311,-0.000427788,-0.166782,0.000873557,-0.000221466,-0.171017,-25.1119,-3.06182,27.6492,0.593868,2.89391,-0.0429228,0.519104,-0.0286341,1.08216,-6.06356e-05,0.327162,-0.104124,-0.0184873,0.160972,-0.179469,-0.0492258,-0.079887,-0.450628,-0.0443876,
-0.0019731,-0.14355,0.512298,-1.82193,0.0296181,0.129109,0.513749,-0.00585389,0.00240492,-0.00610108,-0.002104,-0.0245441,-0.0159767,0.00021307,0,0,0,0,0,0,0,-0.00105129,-0.143359,0.513073,-1.82174,0.0684799,1.73196,1.29922,-0.00289505,0.00767953,-0.00263132,-0.00212941,-0.113442,0.00125589,0.00119179,0.384403,-25.2864,-2.66112,27.8238,1.10016,3.01293,-0.0566557,0.519104,-0.0286341,1.08216,-6.06356e-05,0.327162,-0.104124,-0.0184873,0.160972,-0.179469,-0.0492258,-0.079887,-0.450628,-0.0443876,
-0.00347616,-0.143015,0.510481,-1.82116,-0.0997322,-0.000284084,0.51251,-0.0295923,0.0131258,-0.0310526,-0.0161902,-1.22443,-0.942402,-0.00621093,0,0,0,0,0,0,0,-0.00105129,-0.143359,0.513073,-1.82174,0.0684799,1.73196,1.29922,-0.00289505,0.00767953,-0.00263132,-0.00212941,-0.113442,0.00125589,0.00119179,0.384403,-25.2864,-2.66112,27.8238,1.10016,3.01293,-0.0566557,0.547459,-0.00146381,1.09201,0.0550149,0.365987,-0.0951458,0.0168947,0.192529,-0.203615,-0.031323,-0.0115776,-0.4362,-0.0438628,
-0.00308756,-0.142996,0.510825,-1.82124,-0.0761197,0.0389799,0.513192,-0.0249934,0.00782887,-0.0261162,-0.00936176,-0.701657,-0.71618,-0.0021515,0,0,0,0,0,0,0,-0.00105129,-0.143359,0.513073,-1.82174,0.0684799,1.73196,1.29922,-0.00289505,0.00767953,-0.00263132,-0.00212941,-0.113442,0.00125589,0.00119179,0.384403,-25.2864,-2.66112,27.8238,1.10016,3.01293,-0.0566557,0.641364,0.282858,0.999881,-0.0809016,0.499092,0.00924718,0.138094,0.295657,-0.109568,-0.0582034,0.0705082,-0.427204,-0.0430423,
-0.00318725,-0.142966,0.510721,-1.82128,-0.0788818,0.0361352,0.513184,-0.0249206,0.00757561,-0.0260565,-0.00928206,-0.690536,-0.711169,-0.00209491,0,0,0,0,0,0,0,-0.00105129,-0.143359,0.513073,-1.82174,0.0684799,1.73196,1.29922,-0.00289505,0.00767953,-0.00263132,-0.00212941,-0.113442,0.00125589,0.00119179,0.384403,-25.2864,-2.66112,27.8238,1.10016,3.01293,-0.0566557,0.641364,0.282858,0.999881,-0.0809016,0.499092,0.00924718,0.138094,0.295657,-0.109568,-0.0582034,0.0705082,-0.427204,-0.0430423,
-0.0032867,-0.142937,0.510617,-1.82131,-0.0815967,0.0333131,0.513175,-0.0248635,0.00729287,-0.0260092,-0.0092333,-0.678721,-0.705515,-0.00204234,0,0,0,0,0,0,0,-0.00105129,-0.143359,0.513073,-1.82174,0.0684799,1.73196,1.29922,-0.00289505,0.00767953,-0.00263132,-0.00212941,-0.113442,0.00125589,0.00119179,0.384403,-25.2864,-2.66112,27.8238,1.10016,3.01293,-0.0566557,0.527952,1.33287,1.07561,-0.677879,0.444178,0.509541,0.656144,0.27988,0.404764,-0.00137632,0.176376,-0.418589,-0.0409674,
-0.00338601,-0.142909,0.510513,-1.82135,-0.084261,0.0305169,0.513167,-0.0248276,0.0069798,-0.025979,-0.00922341,-0.666072,-0.699074,-0.00199593,0,0,0,0,0,0,0,-0.00120137,-0.143311,0.513021,-1.82154,0.0633639,1.73074,1.29922,0.00236403,0.00517585,0.00226659,0.0306024,-0.398515,-0.196025,-0.000868654,-0.373349,-25.8101,-3.21257,25.5347,-0.621952,1.83282,-0.050247,0.527952,1.33287,1.07561,-0.677879,0.444178,0.509541,0.656144,0.27988,0.404764,-0.00137632,0.176376,-0.418589,-0.0409674,
-0.00348529,-0.142882,0.510409,-1.82139,-0.0868707,0.0277502,0.51316,-0.024819,0.00663535,-0.0259715,-0.00926196,-0.65242,-0.691669,-0.00195469,0,0,0,0,0,0,0,-0.00120137,-0.143311,0.513021,-1.82154,0.0633639,1.73074,1.29922,0.00236403,0.00517585,0.00226659,0.0306024,-0.398515,-0.196025,-0.000868654,-0.373349,-25.8101,-3.21257,25.5347,-0.621952,1.83282,-0.050247,1.54343,2.77958,1.22871,-1.5731,1.06858,0.861785,1.01749,0.566738,0.804375,0.0792934,0.216952,-0.366903,-0.0308026,
-0.00358467,-0.142857,0.510305,-1.82143,-0.089421,0.0250178,0.513152,-0.0248453,0.00625836,-0.0259933,-0.00936055,-0.637571,-0.683088,-0.00192043,0,0,0,0,0,0,0,-0.00120137,-0.143311,0.513021,-1.82154,0.0633639,1.73074,1.29922,0.00236403,0.00517585,0.00226659,0.0306024,-0.398515,-0.196025,-0.000868654,-0.373349,-25.8101,-3.21257,25.5347,-0.621952,1.83282,-0.050247,0.89688,2.55496,1.46475,-1.50869,0.555401,0.925826,1.043,0.265768,0.90408,0.109899,0.106337,-0.452253,-0.031833,
-0.00368433,-0.142834,0.510201,-1.82146,-0.0919062,0.0223255,0.513144,-0.0249152,0.00584778,-0.0260523,-0.00953319,-0.621295,-0.673077,-0.00189478,0,0,0,0,0,0,0,-0.00120137,-0.143311,0.513021,-1.82154,0.0633639,1.73074,1.29922,0.00236403,0.00517585,0.00226659,0.0306024,-0.398515,-0.196025,-0.000868654,-0.373349,-25.8101,-3.21257,25.5347,-0.621952,1.83282,-0.050247,0.89688,2.55496,1.46475,-1.50869,0.555401,0.925826,1.043,0.265768,0.90408,0.109899,0.106337,-0.452253,-0.031833,
-0.00378449,-0.142812,0.510096,-1.8215,-0.0943194,0.0196802,0.513137,-0.0250393,0.00540278,-0.0261578,-0.00979692,-0.603323,-0.661329,-0.00187836,0,0,0,0,0,0,0,-0.00120137,-0.143311,0.513021,-1.82154,0.0633639,1.73074,1.29922,0.00236403,0.00517585,0.00226659,0.0306024,-0.398515,-0.196025,-0.000868654,-0.373349,-25.8101,-3.21257,25.5347,-0.621952,1.83282,-0.050247,0.549783,1.55845,1.69249,-1.11093,0.255065,0.564463,0.64802,0.0783103,0.567379,0.0152111,-0.166568,-0.637703,-0.0396373,
-0.00388541,-0.142793,0.509991,-1.82154,-0.0966528,0.0170903,0.513129,-0.0252298,0.00492304,-0.0263206,-0.0101723,-0.583343,-0.647472,-0.00187297,0,0,0,0,0,0,0,-0.00120137,-0.143311,0.513021,-1.82154,0.0633639,1.73074,1.29922,0.00236403,0.00517585,0.00226659,0.0306024,-0.398515,-0.196025,-0.000868654,-0.373349,-25.8101,-3.21257,25.5347,-0.621952,1.83282,-0.050247,0.549783,1.55845,1.69249,-1.11093,0.255065,0.564463,0.64802,0.0783103,0.567379,0.0152111,-0.166568,-0.637703,-0.0396373,
-0.00398741,-0.142775,0.509885,-1.82159,-0.0988968,0.0145661,0.513122,-0.0255005,0.00440915,-0.0265533,-0.0106844,-0.560995,-0.631062,-0.00188041,0,0,0,0,0,0,0,-0.000730194,-0.143357,0.513303,-1.8201,0.035347,1.71414,1.29923,0.0123456,-0.000626445,0.00458139,0.0310667,-0.663784,-0.472257,0.000824864,-1.28582,-25.1357,-3.98619,26.3281,-0.871891,1.43548,-0.0969389,1.09921,-0.0407755,1.94589,-0.363706,0.534022,-0.31151,-0.236317,0.173604,-0.322715,-0.127555,-0.510784,-0.836609,-0.0454041,
-0.00409088,-0.142759,0.509777,-1.82163,-0.10104,0.0121198,0.513114,-0.0258676,0.00386299,-0.0268701,-0.0113633,-0.535866,-0.611562,-0.00190411,0,0,0,0,0,0,0,-0.000730194,-0.143357,0.513303,-1.8201,0.035347,1.71414,1.29923,0.0123456,-0.000626445,0.00458139,0.0310667,-0.663784,-0.472257,0.000824864,-1.28582,-25.1357,-3.98619,26.3281,-0.871891,1.43548,-0.0969389,1.09921,-0.0407755,1.94589,-0.363706,0.534022,-0.31151,-0.236317,0.173604,-0.322715,-0.127555,-0.510784,-0.836609,-0.0454041,
-0.00419627,-0.142746,0.509668,-1.82168,-0.10307,0.0097665,0.513106,-0.0263484,0.00328849,-0.0272868,-0.0122458,-0.507491,-0.58833,-0.00194632,0,0,0,0,0,0,0,-0.000730194,-0.143357,0.513303,-1.8201,0.035347,1.71414,1.29923,0.0123456,-0.000626445,0.00458139,0.0310667,-0.663784,-0.472257,0.000824864,-1.28582,-25.1357,-3.98619,26.3281,-0.871891,1.43548,-0.0969389,1.01125,-0.715055,2.77638,0.0632969,0.157595,-0.597894,-0.532132,-0.174221,-0.626322,0.0884952,-0.709514,-0.942063,-0.0501839,
-0.00430412,-0.142735,0.509557,-1.82173,-0.104972,0.00752413,0.513098,-0.0269613,0.00269225,-0.0278198,-0.0133765,-0.475354,-0.560592,-0.00201124,0,0,0,0,0,0,0,-0.000730194,-0.143357,0.513303,-1.8201,0.035347,1.71414,1.29923,0.0123456,-0.000626445,0.00458139,0.0310667,-0.663784,-0.472257,0.000824864,-1.28582,-25.1357,-3.98619,26.3281,-0.871891,1.43548,-0.0969389,0.851152,-1.27155,2.84155,0.302606,0.108174,-0.812474,-0.757139,-0.171273,-0.837,-0.0382233,-0.801141,-1.0972,-0.0519849,
-0.00441502,-0.142727,0.509443,-1.82179,-0.106727,0.00541446,0.51309,-0.0277251,0.00208421,-0.0284858,-0.0148114,-0.438897,-0.527417,-0.00210307,0,0,0,0,0,0,0,-0.000730194,-0.143357,0.513303,-1.8201,0.035347,1.71414,1.29923,0.0123456,-0.000626445,0.00458139,0.0310667,-0.663784,-0.472257,0.000824864,-1.28582,-25.1357,-3.98619,26.3281,-0.871891,1.43548,-0.0969389,0.851152,-1.27155,2.84155,0.302606,0.108174,-0.812474,-0.757139,-0.171273,-0.837,-0.0382233,-0.801141,-1.0972,-0.0519849,
-0.00452965,-0.142721,0.509326,-1.82186,-0.108317,0.00346378,0.513081,-0.0286577,0.00147731,-0.0293006,-0.0166237,-0.397532,-0.487672,-0.00222435,0,0,0,0,0,0,0,-0.00029175,-0.143428,0.51352,-1.81952,0.015381,1.6983,1.29923,0.00946658,-0.00267119,0.00394346,0.010096,-0.575656,-0.469005,0.00115559,-1.26202,-24.612,-3.86321,26.7764,-0.52399,1.63415,-0.0703886,0.733511,-1.83095,2.33382,0.321354,0.391852,-1.04297,-0.993679,0.151051,-1.03633,-0.515825,-0.925744,-1.37837,-0.0557134,
-0.00464876,-0.142718,0.509204,-1.82194,-0.10972,0.001704,0.513072,-0.0297768,0.000883796,-0.0302797,-0.0189195,-0.350644,-0.439944,-0.00236591,0,0,0,0,0,0,0,-0.00029175,-0.143428,0.51352,-1.81952,0.015381,1.6983,1.29923,0.00946658,-0.00267119,0.00394346,0.010096,-0.575656,-0.469005,0.00115559,-1.26202,-24.612,-3.86321,26.7764,-0.52399,1.63415,-0.0703886,0.733511,-1.83095,2.33382,0.321354,0.391852,-1.04297,-0.993679,0.151051,-1.03633,-0.515825,-0.925744,-1.37837,-0.0557134,
-0.00477317,-0.142717,0.509079,-1.82202,-0.11091,0.000174472,0.513062,-0.0311034,0.000301197,-0.0314445,-0.0218761,-0.297563,-0.382382,-0.00242924,0,0,0,0,0,0,0,-0.00029175,-0.143428,0.51352,-1.81952,0.015381,1.6983,1.29923,0.00946658,-0.00267119,0.00394346,0.010096,-0.575656,-0.469005,0.00115559,-1.26202,-24.612,-3.86321,26.7764,-0.52399,1.63415,-0.0703886,0.554686,-1.40193,2.34442,-0.0368812,0.359096,-0.813674,-0.7703,0.17755,-0.773207,-0.612677,-0.939734,-1.49187,-0.0579811,
-0.00490362,-0.142718,0.508947,-1.82213,-0.11186,-0.00107472,0.513057,-0.0326124,-0.000328189,-0.0329028,-0.0258518,-0.237447,-0.312297,-0.00130068,0,0,0,0,0,0,0,-0.00029175,-0.143428,0.51352,-1.81952,0.015381,1.6983,1.29923,0.00946658,-0.00267119,0.00394346,0.010096,-0.575656,-0.469005,0.00115559,-1.26202,-24.612,-3.86321,26.7764,-0.52399,1.63415,-0.0703886,0.554686,-1.40193,2.34442,-0.0368812,0.359096,-0.813674,-0.7703,0.17755,-0.773207,-0.612677,-0.939734,-1.49187,-0.0579811,
-0.0050315,-0.142711,0.508816,-1.82222,-0.112629,-0.00211352,0.513053,-0.0319705,0.00165526,-0.0327529,-0.0241622,-0.192221,-0.259702,-0.000980571,0,0,0,0,0,0,0,-0.00029175,-0.143428,0.51352,-1.81952,0.015381,1.6983,1.29923,0.00946658,-0.00267119,0.00394346,0.010096,-0.575656,-0.469005,0.00115559,-1.26202,-24.612,-3.86321,26.7764,-0.52399,1.63415,-0.0703886,1.31898,-0.980862,1.74146,-0.445048,1.16876,-0.840118,-0.78602,0.733625,-0.770929,-0.920287,-0.892079,-1.53481,-0.0590994,
-0.00515363,-0.142696,0.508689,-1.82231,-0.113256,-0.00298468,0.513049,-0.0305334,0.00390132,-0.0316697,-0.0209849,-0.156856,-0.217789,-0.000876803,0,0,0,0,0,0,0,-0.00029175,-0.143428,0.51352,-1.81952,0.015381,1.6983,1.29923,0.00946658,-0.00267119,0.00394346,0.010096,-0.575656,-0.469005,0.00115559,-1.26202,-24.612,-3.86321,26.7764,-0.52399,1.63415,-0.0703886,1.21492,-1.20561,1.66787,-0.266119,1.1989,-0.914548,-0.827926,0.801059,-0.889002,-0.992668,-0.823827,-1.58237,-0.0601559,
-0.00526859,-0.142673,0.508569,-1.82238,-0.113771,-0.00371837,0.513046,-0.0287382,0.00573573,-0.0301177,-0.0176826,-0.128588,-0.183423,-0.000850748,0,0,0,0,0,0,0,-0.000221456,-0.143757,0.513481,-1.81945,-0.00155457,1.68401,1.29922,-0.00613739,-0.0078992,-0.00125917,-0.00739009,-0.462663,-0.374989,-0.000757909,-0.424923,-24.6874,-3.36333,26.9788,0.1535,1.9793,-0.0301054,1.21492,-1.20561,1.66787,-0.266119,1.1989,-0.914548,-0.827926,0.801059,-0.889002,-0.992668,-0.823827,-1.58237,-0.0601559,
-0.00537577,-0.142645,0.508455,-1.82244,-0.114193,-0.00433788,0.513042,-0.0267957,0.00703667,-0.0283422,-0.0146552,-0.105669,-0.154877,-0.000856631,0,0,0,0,0,0,0,-0.000221456,-0.143757,0.513481,-1.81945,-0.00155457,1.68401,1.29922,-0.00613739,-0.0078992,-0.00125917,-0.00739009,-0.462663,-0.374989,-0.000757909,-0.424923,-24.6874,-3.36333,26.9788,0.1535,1.9793,-0.0301054,0.169643,-1.38176,2.01416,0.0312873,0.405001,-0.708074,-0.602124,0.356757,-0.736279,-0.812779,-0.721206,-1.58261,-0.0620253,
-0.00547505,-0.142613,0.50835,-1.82248,-0.114541,-0.00486196,0.513039,-0.0248213,0.00785266,-0.0264825,-0.0119841,-0.0868901,-0.13102,-0.000876345,0,0,0,0,0,0,0,-0.000221456,-0.143757,0.513481,-1.81945,-0.00155457,1.68401,1.29922,-0.00613739,-0.0078992,-0.00125917,-0.00739009,-0.462663,-0.374989,-0.000757909,-0.424923,-24.6874,-3.36333,26.9788,0.1535,1.9793,-0.0301054,0.169643,-1.38176,2.01416,0.0312873,0.405001,-0.708074,-0.602124,0.356757,-0.736279,-0.812779,-0.721206,-1.58261,-0.0620253,
-0.00556659,-0.14258,0.508251,-1.82252,-0.114826,-0.00530602,0.513035,-0.0228829,0.00827341,-0.0246226,-0.00965289,-0.0713692,-0.111016,-0.000901874,0,0,0,0,0,0,0,-0.000221456,-0.143757,0.513481,-1.81945,-0.00155457,1.68401,1.29922,-0.00613739,-0.0078992,-0.00125917,-0.00739009,-0.462663,-0.374989,-0.000757909,-0.424923,-24.6874,-3.36333,26.9788,0.1535,1.9793,-0.0301054,0.23137,-1.71216,1.9356,0.273511,0.497335,-0.87153,-0.744108,0.430316,-0.93638,-0.852881,-0.682831,-1.58784,-0.0642302,
-0.00565067,-0.142546,0.50816,-1.82255,-0.11506,-0.00568284,0.513032,-0.0210211,0.00838814,-0.0228144,-0.00762043,-0.0584425,-0.0942041,-0.000929327,0,0,0,0,0,0,0,-0.000221456,-0.143757,0.513481,-1.81945,-0.00155457,1.68401,1.29922,-0.00613739,-0.0078992,-0.00125917,-0.00739009,-0.462663,-0.374989,-0.000757909,-0.424923,-24.6874,-3.36333,26.9788,0.1535,1.9793,-0.0301054,0.23137,-1.71216,1.9356,0.273511,0.497335,-0.87153,-0.744108,0.430316,-0.93638,-0.852881,-0.682831,-1.58784,-0.0642302,
-0.0296073,-0.138281,0.482036,-1.83055,-0.115945,-0.04242,0.502569,-0.201113,0.0566062,-0.216927,-0.0704243,-1.23924,-1.32739,-0.050343,0,0,0,0,0,0,0,-0.000365116,-0.143695,0.513414,-1.81965,-0.0130228,1.67421,1.29924,-0.00502489,-0.00248445,-0.00295675,-0.0142175,-0.32235,-0.311636,0.00305993,-0.198788,-25.5602,-3.01024,28.0222,1.02142,2.97356,-0.177505,0.124961,-1.76706,2.00229,0.433122,0.366006,-0.861786,-0.719949,0.335676,-0.959994,-0.741616,-0.608998,-1.50719,-0.0659818,
-0.0228048,-0.140443,0.488887,-1.82738,-0.194937,-0.00803022,0.508117,-0.163079,0.0286133,-0.175342,-0.055094,-1.02413,0.0754133,-0.0184267,0,0,0,0,0,0,0,-0.000365116,-0.143695,0.513414,-1.81965,-0.0130228,1.67421,1.29924,-0.00502489,-0.00248445,-0.00295675,-0.0142175,-0.32235,-0.311636,0.00305993,-0.198788,-25.5602,-3.01024,28.0222,1.02142,2.97356,-0.177505,-0.401185,-0.611734,2.57073,0.250282,-0.360684,-0.18296,-0.0396332,-0.215749,-0.317938,-0.109731,-0.278941,-1.12647,-0.0716125,
-0.0234647,-0.140335,0.488178,-1.8276,-0.198791,-0.00754945,0.508046,-0.164994,0.0271144,-0.177238,-0.0543218,-0.963373,0.120194,-0.0178049,0,0,0,0,0,0,0,-0.000365116,-0.143695,0.513414,-1.81965,-0.0130228,1.67421,1.29924,-0.00502489,-0.00248445,-0.00295675,-0.0142175,-0.32235,-0.311636,0.00305993,-0.198788,-25.5602,-3.01024,28.0222,1.02142,2.97356,-0.177505,-0.401185,-0.611734,2.57073,0.250282,-0.360684,-0.18296,-0.0396332,-0.215749,-0.317938,-0.109731,-0.278941,-1.12647,-0.0716125,
-0.0241321,-0.140232,0.487462,-1.82781,-0.202375,-0.00688413,0.507977,-0.166835,0.0256179,-0.179074,-0.0535357,-0.895996,0.166329,-0.0172095,0,0,0,0,0,0,0,-0.000365116,-0.143695,0.513414,-1.81965,-0.0130228,1.67421,1.29924,-0.00502489,-0.00248445,-0.00295675,-0.0142175,-0.32235,-0.311636,0.00305993,-0.198788,-25.5602,-3.01024,28.0222,1.02142,2.97356,-0.177505,-1.02058,2.22624,2.38242,-1.17654,-0.789144,1.25794,1.41145,-0.436895,1.16812,0.222262,0.157468,-0.761654,-0.0683374,
-0.0248064,-0.140136,0.486738,-1.82802,-0.205663,-0.00602839,0.507911,-0.16859,0.0241031,-0.180821,-0.0527695,-0.822006,0.213935,-0.0166564,0,0,0,0,0,0,0,-0.000365116,-0.143695,0.513414,-1.81965,-0.0130228,1.67421,1.29924,-0.00502489,-0.00248445,-0.00295675,-0.0142175,-0.32235,-0.311636,0.00305993,-0.198788,-25.5602,-3.01024,28.0222,1.02142,2.97356,-0.177505,-1.02058,2.22624,2.38242,-1.17654,-0.789144,1.25794,1.41145,-0.436895,1.16812,0.222262,0.157468,-0.761654,-0.0683374,
-0.0254875,-0.140046,0.486009,-1.82823,-0.208627,-0.00497598,0.507846,-0.170256,0.0225486,-0.182465,-0.0520462,-0.741181,0.263103,-0.0161517,0,0,0,0,0,0,0,-0.000365116,-0.143695,0.513414,-1.81965,-0.0130228,1.67421,1.29924,-0.00502489,-0.00248445,-0.00295675,-0.0142175,-0.32235,-0.311636,0.00305993,-0.198788,-25.5602,-3.01024,28.0222,1.02142,2.97356,-0.177505,-2.18124,4.35034,0.840122,-2.48322,-0.903654,2.5195,2.6809,-0.164218,2.49508,-0.154509,0.640083,-0.59006,-0.0668962,
-0.0261748,-0.139962,0.485273,-1.82844,-0.21124,-0.0037204,0.507783,-0.171841,0.0209344,-0.184005,-0.0513811,-0.653118,0.313895,-0.0157118,0,0,0,0,0,0,0,-0.00117647,-0.143766,0.512577,-1.81982,-0.0323795,1.6601,1.29925,-0.0256575,-0.000332727,-0.0204592,-0.0123402,-0.962885,-0.450938,0.00348383,-4.05102,-23.7392,-7.2116,26.2051,-1.7453,2.86736,-0.291031,-2.18124,4.35034,0.840122,-2.48322,-0.903654,2.5195,2.6809,-0.164218,2.49508,-0.154509,0.640083,-0.59006,-0.0668962,
-0.0268682,-0.139885,0.484531,-1.82864,-0.213469,-0.00225513,0.507722,-0.173351,0.019244,-0.185439,-0.0507808,-0.557279,0.366317,-0.0153486,0,0,0,0,0,0,0,-0.00117647,-0.143766,0.512577,-1.81982,-0.0323795,1.6601,1.29925,-0.0256575,-0.000332727,-0.0204592,-0.0123402,-0.962885,-0.450938,0.00348383,-4.05102,-23.7392,-7.2116,26.2051,-1.7453,2.86736,-0.291031,-2.94841,1.58846,1.5042,-0.650509,-1.73641,1.51429,1.70383,-0.739132,1.34419,0.0475216,0.428601,-0.663436,-0.0877413,
-0.0275674,-0.139815,0.483784,-1.82884,-0.215281,-0.000573973,0.507661,-0.174786,0.0174663,-0.186762,-0.0502448,-0.453058,0.420289,-0.0150862,0,0,0,0,0,0,0,-0.00117647,-0.143766,0.512577,-1.81982,-0.0323795,1.6601,1.29925,-0.0256575,-0.000332727,-0.0204592,-0.0123402,-0.962885,-0.450938,0.00348383,-4.05102,-23.7392,-7.2116,26.2051,-1.7453,2.86736,-0.291031,0.476876,-0.932874,1.64884,0.556266,-0.000758847,-0.480547,-0.24051,-0.140194,-0.728638,0.147157,-0.312272,-0.472277,-0.0992385,
-0.0282719,-0.139753,0.483032,-1.82904,-0.216641,0.00132841,0.507602,-0.176123,0.0156,-0.187953,-0.0497618,-0.339895,0.475595,-0.0149512,0,0,0,0,0,0,0,-0.00117647,-0.143766,0.512577,-1.81982,-0.0323795,1.6601,1.29925,-0.0256575,-0.000332727,-0.0204592,-0.0123402,-0.962885,-0.450938,0.00348383,-4.05102,-23.7392,-7.2116,26.2051,-1.7453,2.86736,-0.291031,0.476876,-0.932874,1.64884,0.556266,-0.000758847,-0.480547,-0.24051,-0.140194,-0.728638,0.147157,-0.312272,-0.472277,-0.0992385,
-0.0289811,-0.139698,0.482276,-1.82924,-0.217511,0.00345553,0.507542,-0.177304,0.0136623,-0.188954,-0.0493003,-0.217477,0.53178,-0.0149684,0,0,0,0,0,0,0,-0.00117647,-0.143766,0.512577,-1.81982,-0.0323795,1.6601,1.29925,-0.0256575,-0.000332727,-0.0204592,-0.0123402,-0.962885,-0.450938,0.00348383,-4.05102,-23.7392,-7.2116,26.2051,-1.7453,2.86736,-0.291031,1.74312,-0.290544,1.419,0.214528,0.578925,-0.486126,-0.26304,0.0163582,-0.700131,0.416784,-0.359341,-0.0632886,-0.10389,
-0.0296939,-0.139651,0.481518,-1.82943,-0.217855,0.0058075,0.507481,-0.178195,0.0117021,-0.189644,-0.0487951,-0.0860983,0.587993,-0.0151876,0,0,0,0,0,0,0,-0.00217547,-0.143897,0.511525,-1.82149,-0.0621915,1.65,1.29922,-0.0491344,-0.00628602,-0.0582211,-0.0698044,-0.862098,-0.285576,0.000370049,-2.24987,-24.0883,-5.43822,28.0222,0.569149,3.74261,-0.0969389,1.74312,-0.290544,1.419,0.214528,0.578925,-0.486126,-0.26304,0.0163582,-0.700131,0.416784,-0.359341,-0.0632886,-0.10389,
-0.030408,-0.139612,0.480758,-1.82962,-0.217644,0.00837837,0.507418,-0.178532,0.00982571,-0.189789,-0.0481148,0.0526953,0.642719,-0.0156703,0,0,0,0,0,0,0,-0.00217547,-0.143897,0.511525,-1.82149,-0.0621915,1.65,1.29922,-0.0491344,-0.00628602,-0.0582211,-0.0698044,-0.862098,-0.285576,0.000370049,-2.24987,-24.0883,-5.43822,28.0222,0.569149,3.74261,-0.0969389,1.0827,0.887344,1.0419,-0.434364,0.255134,0.234118,0.445609,-0.0889534,0.0602056,0.443315,-0.157588,0.0829452,-0.108458,
-0.0311193,-0.139579,0.480003,-1.82981,-0.216864,0.0111518,0.507352,-0.177831,0.00824088,-0.188954,-0.0470064,0.195052,0.693345,-0.0165175,0,0,0,0,0,0,0,-0.00217547,-0.143897,0.511525,-1.82149,-0.0621915,1.65,1.29922,-0.0491344,-0.00628602,-0.0582211,-0.0698044,-0.862098,-0.285576,0.000370049,-2.24987,-24.0883,-5.43822,28.0222,0.569149,3.74261,-0.0969389,1.77783,-0.469535,0.937321,0.198472,0.550819,-0.521179,-0.297836,-0.0233402,-0.72467,0.416494,-0.494154,0.125724,-0.115903,
-0.0318203,-0.13955,0.479257,-1.82999,-0.215531,0.0140939,0.507281,-0.175251,0.00732416,-0.18639,-0.045,0.333257,0.735542,-0.0179062,0,0,0,0,0,0,0,-0.00217547,-0.143897,0.511525,-1.82149,-0.0621915,1.65,1.29922,-0.0491344,-0.00628602,-0.0582211,-0.0698044,-0.862098,-0.285576,0.000370049,-2.24987,-24.0883,-5.43822,28.0222,0.569149,3.74261,-0.0969389,1.77783,-0.469535,0.937321,0.198472,0.550819,-0.521179,-0.297836,-0.0233402,-0.72467,0.416494,-0.494154,0.125724,-0.115903,
-0.0324981,-0.139519,0.478534,-1.83016,-0.213716,0.0171436,0.5072,-0.16945,0.00773089,-0.180874,-0.0412273,0.45387,0.76242,-0.020198,0,0,0,0,0,0,0,-0.00217547,-0.143897,0.511525,-1.82149,-0.0621915,1.65,1.29922,-0.0491344,-0.00628602,-0.0582211,-0.0698044,-0.862098,-0.285576,0.000370049,-2.24987,-24.0883,-5.43822,28.0222,0.569149,3.74261,-0.0969389,3.26408,-1.82895,0.812823,0.873346,1.36971,-1.49083,-1.27056,0.30154,-1.71368,0.39446,-0.797657,0.210951,-0.120147,
-0.0331319,-0.139477,0.477851,-1.83029,-0.211571,0.0201965,0.507104,-0.158453,0.0106076,-0.170562,-0.0340004,0.536135,0.763228,-0.0240912,0,0,0,0,0,0,0,-0.00217547,-0.143897,0.511525,-1.82149,-0.0621915,1.65,1.29922,-0.0491344,-0.00628602,-0.0582211,-0.0698044,-0.862098,-0.285576,0.000370049,-2.24987,-24.0883,-5.43822,28.0222,0.569149,3.74261,-0.0969389,3.26408,-1.82895,0.812823,0.873346,1.36971,-1.49083,-1.27056,0.30154,-1.71368,0.39446,-0.797657,0.210951,-0.120147,
-0.0336897,-0.139404,0.47724,-1.83037,-0.209368,0.0230759,0.506985,-0.139447,0.0182242,-0.152766,-0.0194968,0.550687,0.719858,-0.0297489,0,0,0,0,0,0,0,-0.00450396,-0.14415,0.508972,-1.82396,-0.0801725,1.6458,1.29922,-0.090143,-0.0109354,-0.0936,-0.0858682,-0.306498,-0.0186995,-0.000607262,-1.44055,-24.0367,-4.61302,28.7204,0.135189,3.80211,-0.083206,3.24606,-1.23088,0.439136,0.483297,1.55102,-1.2158,-0.995921,0.488224,-1.41349,0.261265,-0.681704,0.222426,-0.121955,
-0.0341201,-0.139259,0.476747,-1.83032,-0.20755,0.0254536,0.50692,-0.107597,0.0361321,-0.123299,0.0125382,0.454551,0.594421,-0.0160827,0,0,0,0,0,0,0,-0.00450396,-0.14415,0.508972,-1.82396,-0.0801725,1.6458,1.29922,-0.090143,-0.0109354,-0.0936,-0.0858682,-0.306498,-0.0186995,-0.000607262,-1.44055,-24.0367,-4.61302,28.7204,0.135189,3.80211,-0.083206,3.24606,-1.23088,0.439136,0.483297,1.55102,-1.2158,-0.995921,0.488224,-1.41349,0.261265,-0.681704,0.222426,-0.121955,
-0.0344738,-0.139109,0.476341,-1.83025,-0.205965,0.0275234,0.506855,-0.0884268,0.0376337,-0.101502,0.0185578,0.396187,0.517433,-0.0163904,0,0,0,0,0,0,0,-0.00450396,-0.14415,0.508972,-1.82396,-0.0801725,1.6458,1.29922,-0.090143,-0.0109354,-0.0936,-0.0858682,-0.306498,-0.0186995,-0.000607262,-1.44055,-24.0367,-4.61302,28.7204,0.135189,3.80211,-0.083206,2.42568,-1.63063,-0.634084,0.619611,1.54316,-1.17175,-0.941712,0.754781,-1.37918,-0.215806,-0.514542,0.135462,-0.12618,
-0.0347722,-0.138972,0.475998,-1.83018,-0.204527,0.029376,0.506786,-0.0745851,0.0341357,-0.0856774,0.0167114,0.359461,0.463169,-0.0170993,0,0,0,0,0,0,0,-0.00450396,-0.14415,0.508972,-1.82396,-0.0801725,1.6458,1.29922,-0.090143,-0.0109354,-0.0936,-0.0858682,-0.306498,-0.0186995,-0.000607262,-1.44055,-24.0367,-4.61302,28.7204,0.135189,3.80211,-0.083206,1.3428,-2.44317,-0.235682,1.34835,0.737797,-1.25485,-1.02406,0.31382,-1.5281,-0.0628719,-0.400978,0.0936078,-0.130379,
-0.0350284,-0.138854,0.475703,-1.83013,-0.203182,0.0310626,0.506716,-0.0640549,0.0295146,-0.073723,0.0130623,0.336295,0.421629,-0.0175612,0,0,0,0,0,0,0,-0.00450396,-0.14415,0.508972,-1.82396,-0.0801725,1.6458,1.29922,-0.090143,-0.0109354,-0.0936,-0.0858682,-0.306498,-0.0186995,-0.000607262,-1.44055,-24.0367,-4.61302,28.7204,0.135189,3.80211,-0.083206,1.3428,-2.44317,-0.235682,1.34835,0.737797,-1.25485,-1.02406,0.31382,-1.5281,-0.0628719,-0.400978,0.0936078,-0.130379,
-0.0352516,-0.138754,0.475446,-1.83009,-0.201894,0.0326165,0.506645,-0.0558102,0.0250496,-0.0644427,0.00949119,0.322019,0.388494,-0.0178619,0,0,0,0,0,0,0,-0.00811633,-0.144088,0.505651,-1.82571,-0.0830053,1.64718,1.29923,-0.126263,0.0182705,-0.114196,-0.0423007,0.0108266,0.0869194,0.000522853,-0.171017,-26.31,-3.23638,28.8196,0.148007,3.35808,-0.137222,-0.112228,-1.64823,0.0431762,1.07417,-0.273342,-0.522692,-0.308602,-0.213699,-0.787332,0.137621,-0.184182,0.129667,-0.131645,
-0.0354486,-0.138669,0.475217,-1.83006,-0.200639,0.0340628,0.506572,-0.0492312,0.0211131,-0.0571016,0.00647603,0.313691,0.361568,-0.0180676,0,0,0,0,0,0,0,-0.00811633,-0.144088,0.505651,-1.82571,-0.0830053,1.64718,1.29923,-0.126263,0.0182705,-0.114196,-0.0423007,0.0108266,0.0869194,0.000522853,-0.171017,-26.31,-3.23638,28.8196,0.148007,3.35808,-0.137222,-0.112228,-1.64823,0.0431762,1.07417,-0.273342,-0.522692,-0.308602,-0.213699,-0.787332,0.137621,-0.184182,0.129667,-0.131645,
-0.0356242,-0.138598,0.475012,-1.83005,-0.199402,0.0354209,0.506499,-0.0439061,0.017765,-0.0512095,0.00405145,0.309353,0.339515,-0.0182133,0,0,0,0,0,0,0,-0.00811633,-0.144088,0.505651,-1.82571,-0.0830053,1.64718,1.29923,-0.126263,0.0182705,-0.114196,-0.0423007,0.0108266,0.0869194,0.000522853,-0.171017,-26.31,-3.23638,28.8196,0.148007,3.35808,-0.137222,-1.09896,-0.601029,-0.218836,0.491419,-0.815335,0.206396,0.397508,-0.431006,-0.0115221,0.150547,-0.00399477,0.206914,-0.12929,
-0.0357824,-0.138538,0.474827,-1.83004,-0.198171,0.0367064,0.506426,-0.0395454,0.0149631,-0.0464221,0.00213197,0.307668,0.321394,-0.0183191,0,0,0,0,0,0,0,-0.00811633,-0.144088,0.505651,-1.82571,-0.0830053,1.64718,1.29923,-0.126263,0.0182705,-0.114196,-0.0423007,0.0108266,0.0869194,0.000522853,-0.171017,-26.31,-3.23638,28.8196,0.148007,3.35808,-0.137222,-0.961726,-0.309605,-0.574212,0.293812,-0.523115,0.292393,0.478989,-0.185827,0.0925013,-0.0102272,0.0981938,0.190342,-0.126765,
-0.0496894,-0.13179,0.459803,-1.83355,-0.19087,-0.0945693,0.497676,-0.331186,0.100137,-0.359248,-0.102029,-1.22359,-1.05462,-0.0649321,0,0,0,0,0,0,0,-0.00811633,-0.144088,0.505651,-1.82571,-0.0830053,1.64718,1.29923,-0.126263,0.0182705,-0.114196,-0.0423007,0.0108266,0.0869194,0.000522853,-0.171017,-26.31,-3.23638,28.8196,0.148007,3.35808,-0.137222,-0.961726,-0.309605,-0.574212,0.293812,-0.523115,0.292393,0.478989,-0.185827,0.0925013,-0.0102272,0.0981938,0.190342,-0.126765,
-0.0411743,-0.136521,0.469625,-1.83328,-0.208935,0.0192695,0.505513,-0.193517,0.0426774,-0.20816,-0.0451157,-0.149914,-0.261722,-0.0350085,0,0,0,0,0,0,0,-0.012979,-0.142764,0.499922,-1.82588,-0.0838103,1.64912,1.29922,-0.114942,0.0257471,-0.135495,0.00214942,-0.0489339,0.0937251,0.000345568,1.55078,-26.4607,-1.26067,27.1017,0.880428,2.28417,-0.110672,-1.85157,0.00346771,-0.541194,0.130952,-0.840865,0.619091,0.801723,-0.20819,0.427904,-0.20817,0.275591,-0.0539359,-0.127222,
-0.0419485,-0.136355,0.468792,-1.83346,-0.209244,0.0183002,0.505375,-0.193561,0.0415901,-0.208134,-0.044799,-0.0772374,-0.242336,-0.0344223,0,0,0,0,0,0,0,-0.012979,-0.142764,0.499922,-1.82588,-0.0838103,1.64912,1.29922,-0.114942,0.0257471,-0.135495,0.00214942,-0.0489339,0.0937251,0.000345568,1.55078,-26.4607,-1.26067,27.1017,0.880428,2.28417,-0.110672,-1.85157,0.00346771,-0.541194,0.130952,-0.840865,0.619091,0.801723,-0.20819,0.427904,-0.20817,0.275591,-0.0539359,-0.127222,
-0.0427232,-0.136193,0.46796,-1.83363,-0.209242,0.0174122,0.505239,-0.193672,0.0403766,-0.208157,-0.0444955,0.000467678,-0.221983,-0.0338698,0,0,0,0,0,0,0,-0.012979,-0.142764,0.499922,-1.82588,-0.0838103,1.64912,1.29922,-0.114942,0.0257471,-0.135495,0.00214942,-0.0489339,0.0937251,0.000345568,1.55078,-26.4607,-1.26067,27.1017,0.880428,2.28417,-0.110672,-2.22281,1.83724,-1.21791,-1.13722,-0.514634,1.50445,1.69549,0.233372,1.39008,-0.659363,0.533124,-0.255878,-0.128662,
-0.0434987,-0.136037,0.467127,-1.83381,-0.208907,0.01661,0.505106,-0.193864,0.0390268,-0.208242,-0.0442177,0.0838896,-0.200554,-0.0333596,0,0,0,0,0,0,0,-0.012979,-0.142764,0.499922,-1.82588,-0.0838103,1.64912,1.29922,-0.114942,0.0257471,-0.135495,0.00214942,-0.0489339,0.0937251,0.000345568,1.55078,-26.4607,-1.26067,27.1017,0.880428,2.28417,-0.110672,-2.22281,1.83724,-1.21791,-1.13722,-0.514634,1.50445,1.69549,0.233372,1.39008,-0.659363,0.533124,-0.255878,-0.128662,
-0.0442753,-0.135887,0.466293,-1.83399,-0.208211,0.0158984,0.504974,-0.194149,0.0375307,-0.2084,-0.0439814,0.173779,-0.177909,-0.0329016,0,0,0,0,0,0,0,-0.012979,-0.142764,0.499922,-1.82588,-0.0838103,1.64912,1.29922,-0.114942,0.0257471,-0.135495,0.00214942,-0.0489339,0.0937251,0.000345568,1.55078,-26.4607,-1.26067,27.1017,0.880428,2.28417,-0.110672,-3.37876,3.37006,-1.74513,-2.07136,-0.898757,2.47961,2.63532,0.224274,2.4476,-0.878586,0.822111,-0.309215,-0.136841,
-0.0450534,-0.135744,0.465459,-1.83416,-0.207128,0.0152829,0.504844,-0.194537,0.0358793,-0.208638,-0.0438074,0.270928,-0.153874,-0.0325048,0,0,0,0,0,0,0,-0.012979,-0.142764,0.499922,-1.82588,-0.0838103,1.64912,1.29922,-0.114942,0.0257471,-0.135495,0.00214942,-0.0489339,0.0937251,0.000345568,1.55078,-26.4607,-1.26067,27.1017,0.880428,2.28417,-0.110672,-1.69825,1.14257,-0.811946,-0.638337,-0.25436,1.03642,1.20578,0.319886,0.909257,-0.614976,0.504902,-0.346805,-0.136673,
-0.0458336,-0.135607,0.464623,-1.83434,-0.205623,0.01477,0.504716,-0.19503,0.0340658,-0.208958,-0.043723,0.376131,-0.128224,-0.0321889,0,0,0,0,0,0,0,-0.0173169,-0.142227,0.495129,-1.8258,-0.0936282,1.64804,1.29922,-0.146659,0.0076368,-0.13727,-0.0158549,-0.257907,-0.0503062,0.00259542,-0.198788,-25.5602,-3.38713,27.7762,-0.242924,2.02508,-0.278213,-1.69825,1.14257,-0.811946,-0.638337,-0.25436,1.03642,1.20578,0.319886,0.909257,-0.614976,0.504902,-0.346805,-0.136673,
-0.046616,-0.135479,0.463785,-1.83451,-0.203663,0.0143673,0.504588,-0.195615,0.0320882,-0.209347,-0.0437645,0.490111,-0.100679,-0.0319776,0,0,0,0,0,0,0,-0.0173169,-0.142227,0.495129,-1.8258,-0.0936282,1.64804,1.29922,-0.146659,0.0076368,-0.13727,-0.0158549,-0.257907,-0.0503062,0.00259542,-0.198788,-25.5602,-3.38713,27.7762,-0.242924,2.02508,-0.278213,-0.229951,0.0551464,0.0743034,-0.0541084,0.295993,0.179293,0.396353,0.388532,-0.0138659,-0.396699,0.138639,-0.42185,-0.150598,
-0.047401,-0.135359,0.462946,-1.83469,-0.201209,0.0140837,0.50446,-0.196252,0.0299547,-0.209771,-0.0439773,0.613368,-0.0708899,-0.0319038,0,0,0,0,0,0,0,-0.0173169,-0.142227,0.495129,-1.8258,-0.0936282,1.64804,1.29922,-0.146659,0.0076368,-0.13727,-0.0158549,-0.257907,-0.0503062,0.00259542,-0.198788,-25.5602,-3.38713,27.7762,-0.242924,2.02508,-0.278213,-0.229951,0.0551464,0.0743034,-0.0541084,0.295993,0.179293,0.396353,0.388532,-0.0138659,-0.396699,0.138639,-0.42185,-0.150598,
-0.0481769,-0.135243,0.462113,-1.83486,-0.198334,0.0139242,0.504334,-0.19397,0.0290486,-0.208359,-0.0437553,0.71885,-0.0398846,-0.0316232,0,0,0,0,0,0,0,-0.0173169,-0.142227,0.495129,-1.8258,-0.0936282,1.64804,1.29922,-0.146659,0.0076368,-0.13727,-0.0158549,-0.257907,-0.0503062,0.00259542,-0.198788,-25.5602,-3.38713,27.7762,-0.242924,2.02508,-0.278213,0.242532,-1.11772,-0.186387,0.385128,0.806917,-0.487323,-0.27492,0.742685,-0.675389,-0.754863,-0.084966,-0.660606,-0.159117,
-0.0489329,-0.135127,0.461295,-1.83504,-0.195135,0.0138993,0.504207,-0.18901,0.0290431,-0.204429,-0.0437196,0.799798,-0.00623252,-0.031538,0,0,0,0,0,0,0,-0.0173169,-0.142227,0.495129,-1.8258,-0.0936282,1.64804,1.29922,-0.146659,0.0076368,-0.13727,-0.0158549,-0.257907,-0.0503062,0.00259542,-0.198788,-25.5602,-3.38713,27.7762,-0.242924,2.02508,-0.278213,0.242532,-1.11772,-0.186387,0.385128,0.806917,-0.487323,-0.27492,0.742685,-0.675389,-0.754863,-0.084966,-0.660606,-0.159117,
-0.0496631,-0.13501,0.460501,-1.83522,-0.191685,0.0140267,0.504079,-0.182547,0.0291508,-0.198562,-0.0444748,0.862478,0.0318695,-0.0319751,0,0,0,0,0,0,0,-0.0227471,-0.142016,0.489755,-1.82597,-0.0951571,1.64736,1.2992,-0.172202,0.0114289,-0.178519,4.4555e-05,0.0789546,-0.00137747,-0.000592768,-1.05969,-26.06,-3.71245,26.6058,-0.169681,1.87951,-0.110672,-1.52197,-0.89277,0.0893152,0.257981,-0.338631,0.0313414,0.220895,0.181731,-0.135436,-0.738506,-0.0445241,-0.817316,-0.16172,
-0.0503633,-0.134894,0.459736,-1.8354,-0.18804,0.0143275,0.503947,-0.17504,0.0290767,-0.191286,-0.0460614,0.911217,0.075181,-0.0330946,0,0,0,0,0,0,0,-0.0227471,-0.142016,0.489755,-1.82597,-0.0951571,1.64736,1.2992,-0.172202,0.0114289,-0.178519,4.4555e-05,0.0789546,-0.00137747,-0.000592768,-1.05969,-26.06,-3.71245,26.6058,-0.169681,1.87951,-0.110672,-1.52197,-0.89277,0.0893152,0.257981,-0.338631,0.0313414,0.220895,0.181731,-0.135436,-0.738506,-0.0445241,-0.817316,-0.16172,
-0.0510301,-0.134779,0.459004,-1.83559,-0.184244,0.0148211,0.503806,-0.166714,0.0287421,-0.18285,-0.0482697,0.949029,0.123406,-0.035192,0,0,0,0,0,0,0,-0.0227471,-0.142016,0.489755,-1.82597,-0.0951571,1.64736,1.2992,-0.172202,0.0114289,-0.178519,4.4555e-05,0.0789546,-0.00137747,-0.000592768,-1.05969,-26.06,-3.71245,26.6058,-0.169681,1.87951,-0.110672,-1.47899,-1.59926,0.0283443,0.583709,-0.303337,-0.307553,-0.148512,0.202547,-0.455737,-0.824377,-0.174666,-0.877552,-0.161664,
-0.0516605,-0.134666,0.458312,-1.8358,-0.180332,0.0155188,0.503651,-0.15759,0.0282415,-0.173224,-0.0505923,0.977893,0.174418,-0.0387977,0,0,0,0,0,0,0,-0.0227471,-0.142016,0.489755,-1.82597,-0.0951571,1.64736,1.2992,-0.172202,0.0114289,-0.178519,4.4555e-05,0.0789546,-0.00137747,-0.000592768,-1.05969,-26.06,-3.71245,26.6058,-0.169681,1.87951,-0.110672,-0.903804,-1.86387,-0.243052,0.632692,0.168974,-0.568499,-0.428062,0.480941,-0.690369,-0.967495,-0.250121,-0.892833,-0.163267,
-0.0522503,-0.134554,0.457663,-1.836,-0.176337,0.0164103,0.503472,-0.147441,0.0279686,-0.162054,-0.0518988,0.998836,0.22288,-0.0447292,0,0,0,0,0,0,0,-0.0227471,-0.142016,0.489755,-1.82597,-0.0951571,1.64736,1.2992,-0.172202,0.0114289,-0.178519,4.4555e-05,0.0789546,-0.00137747,-0.000592768,-1.05969,-26.06,-3.71245,26.6058,-0.169681,1.87951,-0.110672,-0.903804,-1.86387,-0.243052,0.632692,0.168974,-0.568499,-0.428062,0.480941,-0.690369,-0.967495,-0.250121,-0.892833,-0.163267,
-0.0527928,-0.134438,0.457069,-1.8362,-0.17229,0.0174408,0.503261,-0.135629,0.0290554,-0.148566,-0.0495345,1.0118,0.25763,-0.0527811,0,0,0,0,0,0,0,-0.0227471,-0.142016,0.489755,-1.82597,-0.0951571,1.64736,1.2992,-0.172202,0.0114289,-0.178519,4.4555e-05,0.0789546,-0.00137747,-0.000592768,-1.05969,-26.06,-3.71245,26.6058,-0.169681,1.87951,-0.110672,0.161175,-2.33281,-0.50805,0.89104,1.00394,-1.04405,-0.894283,0.964764,-1.18184,-1.12714,-0.253449,-0.90791,-0.163724,
-0.0532356,-0.134282,0.456566,-1.83634,-0.168585,0.0184376,0.503112,-0.110702,0.0390781,-0.125873,-0.0339989,0.926083,0.24921,-0.0371774,0,0,0,0,0,0,0,-0.0281461,-0.142023,0.483383,-1.82596,-0.0856696,1.64743,1.29921,-0.170066,-0.000846668,-0.193685,0.00361124,0.406893,0.0106458,0.000463042,-0.119442,-25.1634,-2.88725,26.4035,0.764157,1.87951,-0.177505,0.161175,-2.33281,-0.50805,0.89104,1.00394,-1.04405,-0.894283,0.964764,-1.18184,-1.12714,-0.253449,-0.90791,-0.163724,
-0.0536154,-0.13412,0.456134,-1.83646,-0.165105,0.0194559,0.502964,-0.0949432,0.0404437,-0.107902,-0.0297933,0.870006,0.254567,-0.0370386,0,0,0,0,0,0,0,-0.0281461,-0.142023,0.483383,-1.82596,-0.0856696,1.64743,1.29921,-0.170066,-0.000846668,-0.193685,0.00361124,0.406893,0.0106458,0.000463042,-0.119442,-25.1634,-2.88725,26.4035,0.764157,1.87951,-0.177505,0.200219,-3.3017,-0.334942,1.64317,1.04596,-1.50991,-1.3564,1.00708,-1.7066,-1.12686,-0.168622,-0.970258,-0.164397,
-0.053948,-0.133965,0.455756,-1.83657,-0.161776,0.0205097,0.502814,-0.0831645,0.0387593,-0.0944491,-0.0288421,0.832452,0.263441,-0.0376344,0,0,0,0,0,0,0,-0.0281461,-0.142023,0.483383,-1.82596,-0.0856696,1.64743,1.29921,-0.170066,-0.000846668,-0.193685,0.00361124,0.406893,0.0106458,0.000463042,-0.119442,-25.1634,-2.88725,26.4035,0.764157,1.87951,-0.177505,-0.803526,-3.34831,-0.18149,1.85211,0.406398,-1.29445,-1.15057,0.708196,-1.51291,-1.06167,0.00144199,-1.00009,-0.170235,
-0.0542441,-0.133821,0.45542,-1.83669,-0.158547,0.0215996,0.502661,-0.074029,0.0360454,-0.0841223,-0.0285391,0.807223,0.272489,-0.0380807,0,0,0,0,0,0,0,-0.0281461,-0.142023,0.483383,-1.82596,-0.0856696,1.64743,1.29921,-0.170066,-0.000846668,-0.193685,0.00361124,0.406893,0.0106458,0.000463042,-0.119442,-25.1634,-2.88725,26.4035,0.764157,1.87951,-0.177505,-0.803526,-3.34831,-0.18149,1.85211,0.406398,-1.29445,-1.15057,0.708196,-1.51291,-1.06167,0.00144199,-1.00009,-0.170235,
-0.0545113,-0.133688,0.455116,-1.8368,-0.155385,0.0227226,0.502508,-0.066788,0.0330673,-0.0760318,-0.0281461,0.790406,0.280734,-0.038395,0,0,0,0,0,0,0,-0.0281461,-0.142023,0.483383,-1.82596,-0.0856696,1.64743,1.29921,-0.170066,-0.000846668,-0.193685,0.00361124,0.406893,0.0106458,0.000463042,-0.119442,-25.1634,-2.88725,26.4035,0.764157,1.87951,-0.177505,-1.96893,-2.52984,-0.188732,1.44636,-0.355989,-0.630848,-0.496884,0.329936,-0.829609,-0.968745,0.143336,-0.948797,-0.176158,
-0.0547551,-0.133568,0.454837,-1.83691,-0.152267,0.0238745,0.502353,-0.060953,0.0301256,-0.0695889,-0.0275277,0.779387,0.287987,-0.038621,0,0,0,0,0,0,0,-0.0334336,-0.141855,0.477749,-1.82596,-0.0723251,1.64873,1.29921,-0.173488,0.00863032,-0.180685,-0.00113523,0.41496,0.0513776,0.000631214,1.63013,-26.1354,-0.887743,26.5781,0.843807,2.42333,-0.183914,-1.96893,-2.52984,-0.188732,1.44636,-0.355989,-0.630848,-0.496884,0.329936,-0.829609,-0.968745,0.143336,-0.948797,-0.176158,
-0.0549798,-0.133459,0.45458,-1.83702,-0.149178,0.0250517,0.502198,-0.0561848,0.0273412,-0.0643845,-0.0267221,0.772366,0.294301,-0.0387867,0,0,0,0,0,0,0,-0.0334336,-0.141855,0.477749,-1.82596,-0.0723251,1.64873,1.29921,-0.173488,0.00863032,-0.180685,-0.00113523,0.41496,0.0513776,0.000631214,1.63013,-26.1354,-0.887743,26.5781,0.843807,2.42333,-0.183914,-2.40322,-1.41282,-0.435105,0.844595,-0.572383,-0.00522698,0.118545,0.25016,-0.16871,-0.928156,0.318187,-0.831035,-0.176118,
-0.0551888,-0.133359,0.454339,-1.83712,-0.146106,0.0262509,0.502043,-0.0522398,0.0247608,-0.0601253,-0.0258007,0.768082,0.299786,-0.0389101,0,0,0,0,0,0,0,-0.0334336,-0.141855,0.477749,-1.82596,-0.0723251,1.64873,1.29921,-0.173488,0.00863032,-0.180685,-0.00113523,0.41496,0.0513776,0.000631214,1.63013,-26.1354,-0.887743,26.5781,0.843807,2.42333,-0.183914,-2.40322,-1.41282,-0.435105,0.844595,-0.572383,-0.00522698,0.118545,0.25016,-0.16871,-0.928156,0.318187,-0.831035,-0.176118,
-0.0623286,-0.133108,0.446701,-1.84032,-0.251384,-0.101961,0.495664,-0.328699,0.0844241,-0.356258,-0.106241,-1.20055,-0.910295,-0.0812424,0,0,0,0,0,0,0,-0.0334336,-0.141855,0.477749,-1.82596,-0.0723251,1.64873,1.29921,-0.173488,0.00863032,-0.180685,-0.00113523,0.41496,0.0513776,0.000631214,1.63013,-26.1354,-0.887743,26.5781,0.843807,2.42333,-0.183914,-2.23589,-0.363455,-0.690733,0.415526,-0.479063,0.456828,0.565173,0.284189,0.314304,-0.767082,0.566681,-0.566509,-0.174427,
-0.0658918,-0.138238,0.442151,-1.83554,-0.163762,0.0748883,0.502661,-0.178393,0.014692,-0.193611,-0.0588541,-0.202098,0.434949,-0.0556147,0,0,0,0,0,0,0,-0.0334336,-0.141855,0.477749,-1.82596,-0.0723251,1.64873,1.29921,-0.173488,0.00863032,-0.180685,-0.00113523,0.41496,0.0513776,0.000631214,1.63013,-26.1354,-0.887743,26.5781,0.843807,2.42333,-0.183914,-1.99678,0.201424,-0.94084,0.131403,-0.346365,0.681669,0.782246,0.333246,0.558005,-0.686671,0.645828,-0.38134,-0.176082,
-0.0666041,-0.138182,0.441379,-1.83577,-0.16439,0.0767486,0.50244,-0.178088,0.0140175,-0.193242,-0.0588186,-0.1569,0.465097,-0.0550202,0,0,0,0,0,0,0,-0.0334336,-0.141855,0.477749,-1.82596,-0.0723251,1.64873,1.29921,-0.173488,0.00863032,-0.180685,-0.00113523,0.41496,0.0513776,0.000631214,1.63013,-26.1354,-0.887743,26.5781,0.843807,2.42333,-0.183914,-1.99678,0.201424,-0.94084,0.131403,-0.346365,0.681669,0.782246,0.333246,0.558005,-0.686671,0.645828,-0.38134,-0.176082,
-0.0673155,-0.138128,0.440607,-1.83601,-0.164825,0.078735,0.502223,-0.177841,0.0133391,-0.192915,-0.0588404,-0.108654,0.496597,-0.0544538,0,0,0,0,0,0,0,-0.038446,-0.141574,0.471973,-1.82602,-0.0627633,1.64899,1.2992,-0.146838,0.00513218,-0.175087,-0.00562365,0.242871,-0.000400742,0.00103104,2.2887,-26.1354,-0.213304,27.2525,1.1679,3.15941,-0.210464,-2.43432,1.64883,-0.868164,-0.664792,-0.740967,1.46981,1.56902,0.0722892,1.38146,-0.484765,0.76682,-0.229675,-0.181374,
-0.0680261,-0.138078,0.439836,-1.83624,-0.165052,0.080853,0.502007,-0.177658,0.0126506,-0.192636,-0.0589194,-0.0568958,0.529496,-0.0539176,0,0,0,0,0,0,0,-0.038446,-0.141574,0.471973,-1.82602,-0.0627633,1.64899,1.2992,-0.146838,0.00513218,-0.175087,-0.00562365,0.242871,-0.000400742,0.00103104,2.2887,-26.1354,-0.213304,27.2525,1.1679,3.15941,-0.210464,-2.43432,1.64883,-0.868164,-0.664792,-0.740967,1.46981,1.56902,0.0722892,1.38146,-0.484765,0.76682,-0.229675,-0.181374,
-0.0687363,-0.13803,0.439067,-1.83648,-0.165057,0.0831083,0.501793,-0.177549,0.0119459,-0.19241,-0.0590562,-0.00109743,0.563829,-0.0534201,0,0,0,0,0,0,0,-0.038446,-0.141574,0.471973,-1.82602,-0.0627633,1.64899,1.2992,-0.146838,0.00513218,-0.175087,-0.00562365,0.242871,-0.000400742,0.00103104,2.2887,-26.1354,-0.213304,27.2525,1.1679,3.15941,-0.210464,-1.93935,2.27781,-1.75528,-1.25461,-0.0163824,1.65498,1.74529,0.615171,1.63001,-0.87486,0.794625,-0.255552,-0.189689,
-0.0694464,-0.137985,0.438298,-1.83672,-0.164819,0.0855068,0.501581,-0.177519,0.0112195,-0.192243,-0.0592519,0.0593358,0.599611,-0.0529684,0,0,0,0,0,0,0,-0.038446,-0.141574,0.471973,-1.82602,-0.0627633,1.64899,1.2992,-0.146838,0.00513218,-0.175087,-0.00562365,0.242871,-0.000400742,0.00103104,2.2887,-26.1354,-0.213304,27.2525,1.1679,3.15941,-0.210464,-2.19946,-0.365279,-1.41476,0.299127,-0.329745,0.483318,0.567457,0.416473,0.379504,-0.905286,0.513228,-0.41759,-0.198047,
-0.0701567,-0.137943,0.437529,-1.83696,-0.164319,0.0880541,0.501371,-0.177576,0.0104664,-0.192139,-0.0595074,0.125068,0.636838,-0.0525713,0,0,0,0,0,0,0,-0.038446,-0.141574,0.471973,-1.82602,-0.0627633,1.64899,1.2992,-0.146838,0.00513218,-0.175087,-0.00562365,0.242871,-0.000400742,0.00103104,2.2887,-26.1354,-0.213304,27.2525,1.1679,3.15941,-0.210464,-2.19946,-0.365279,-1.41476,0.299127,-0.329745,0.483318,0.567457,0.416473,0.379504,-0.905286,0.513228,-0.41759,-0.198047,
-0.0708676,-0.137904,0.436761,-1.83719,-0.163532,0.090756,0.501162,-0.177723,0.00968254,-0.192098,-0.0598232,0.196827,0.675467,-0.0522409,0,0,0,0,0,0,0,-0.0444475,-0.141368,0.465093,-1.82659,-0.0651793,1.65034,1.29918,-0.141535,0.00302879,-0.162302,-0.0304953,-0.0609553,0.119056,5.19601e-05,-1.97216,-26.3854,-4.50987,27.2009,-1.05591,3.77556,-0.170181,-1.33718,-1.16224,-1.14018,0.593023,-0.145019,-0.0479065,0.0705204,0.317987,-0.182654,-0.693033,0.111443,-0.278469,-0.202155,
-0.0715794,-0.137869,0.435992,-1.83744,-0.16243,0.0936176,0.500954,-0.177958,0.0088661,-0.192117,-0.0601986,0.275383,0.715405,-0.0519951,0,0,0,0,0,0,0,-0.0444475,-0.141368,0.465093,-1.82659,-0.0651793,1.65034,1.29918,-0.141535,0.00302879,-0.162302,-0.0304953,-0.0609553,0.119056,5.19601e-05,-1.97216,-26.3854,-4.50987,27.2009,-1.05591,3.77556,-0.170181,-1.33718,-1.16224,-1.14018,0.593023,-0.145019,-0.0479065,0.0705204,0.317987,-0.182654,-0.693033,0.111443,-0.278469,-0.202155,
-0.0722925,-0.137837,0.435224,-1.83768,-0.160984,0.0966435,0.500747,-0.178271,0.00801871,-0.192182,-0.0606293,0.361511,0.756481,-0.0518518,0,0,0,0,0,0,0,-0.0444475,-0.141368,0.465093,-1.82659,-0.0651793,1.65034,1.29918,-0.141535,0.00302879,-0.162302,-0.0304953,-0.0609553,0.119056,5.19601e-05,-1.97216,-26.3854,-4.50987,27.2009,-1.05591,3.77556,-0.170181,-0.0570903,-2.49587,-0.86417,1.30024,0.187369,-0.916726,-0.797747,0.23663,-1.08104,-0.35779,-0.291984,0.000703117,-0.199827,
-0.073007,-0.137808,0.434454,-1.83792,-0.15916,0.0998371,0.500539,-0.178631,0.00714881,-0.192265,-0.0611023,0.455899,0.798398,-0.0518373,0,0,0,0,0,0,0,-0.0444475,-0.141368,0.465093,-1.82659,-0.0651793,1.65034,1.29918,-0.141535,0.00302879,-0.162302,-0.0304953,-0.0609553,0.119056,5.19601e-05,-1.97216,-26.3854,-4.50987,27.2009,-1.05591,3.77556,-0.170181,-0.749454,-1.84269,-0.886721,1.0322,-0.498319,-0.42414,-0.313665,-0.22029,-0.58146,-0.0521278,-0.220604,0.288016,-0.199284,
-0.0737222,-0.137782,0.433686,-1.83816,-0.156926,0.103171,0.500331,-0.178801,0.00666003,-0.192125,-0.0601127,0.558601,0.833486,-0.051991,0,0,0,0,0,0,0,-0.0444475,-0.141368,0.465093,-1.82659,-0.0651793,1.65034,1.29918,-0.141535,0.00302879,-0.162302,-0.0304953,-0.0609553,0.119056,5.19601e-05,-1.97216,-26.3854,-4.50987,27.2009,-1.05591,3.77556,-0.170181,-0.749454,-1.84269,-0.886721,1.0322,-0.498319,-0.42414,-0.313665,-0.22029,-0.58146,-0.0521278,-0.220604,0.288016,-0.199284,
-0.0744372,-0.137757,0.432919,-1.8384,-0.154247,0.106614,0.500122,-0.178731,0.00623208,-0.191741,-0.0582043,0.669762,0.86082,-0.0523694,0,0,0,0,0,0,0,-0.0444475,-0.141368,0.465093,-1.82659,-0.0651793,1.65034,1.29918,-0.141535,0.00302879,-0.162302,-0.0304953,-0.0609553,0.119056,5.19601e-05,-1.97216,-26.3854,-4.50987,27.2009,-1.05591,3.77556,-0.170181,-0.337639,-2.08422,-1.3596,1.07578,-0.111549,-0.617388,-0.503616,0.0282023,-0.769083,-0.194646,-0.279126,0.346884,-0.199783,
-0.0751409,-0.13773,0.432161,-1.83862,-0.151183,0.11014,0.499912,-0.175939,0.00662655,-0.189609,-0.0556062,0.765884,0.881391,-0.0525534,0,0,0,0,0,0,0,-0.049236,-0.141404,0.460081,-1.82805,-0.0653149,1.65594,1.29918,-0.15536,-0.000419309,-0.165423,-0.0501575,0.038302,0.254736,0.00142508,-1.23822,-25.9609,-3.61327,27.3993,-0.597233,3.70965,-0.23793,-0.337639,-2.08422,-1.3596,1.07578,-0.111549,-0.617388,-0.503616,0.0282023,-0.769083,-0.194646,-0.279126,0.346884,-0.199783,
-0.0758224,-0.1377,0.431421,-1.83883,-0.14783,0.113728,0.4997,-0.17036,0.00763173,-0.184938,-0.0530647,0.838266,0.896989,-0.0529624,0,0,0,0,0,0,0,-0.049236,-0.141404,0.460081,-1.82805,-0.0653149,1.65594,1.29918,-0.15536,-0.000419309,-0.165423,-0.0501575,0.038302,0.254736,0.00142508,-1.23822,-25.9609,-3.61327,27.3993,-0.597233,3.70965,-0.23793,0.126116,-3.12939,-2.01655,1.43725,0.379554,-1.19853,-1.09458,0.36555,-1.33527,-0.49836,-0.512361,0.32162,-0.20374,
-0.076475,-0.137665,0.430708,-1.83904,-0.144258,0.117366,0.499483,-0.16317,0.00855164,-0.178182,-0.0513539,0.89301,0.909492,-0.0541565,0,0,0,0,0,0,0,-0.049236,-0.141404,0.460081,-1.82805,-0.0653149,1.65594,1.29918,-0.15536,-0.000419309,-0.165423,-0.0501575,0.038302,0.254736,0.00142508,-1.23822,-25.9609,-3.61327,27.3993,-0.597233,3.70965,-0.23793,0.126116,-3.12939,-2.01655,1.43725,0.379554,-1.19853,-1.09458,0.36555,-1.33527,-0.49836,-0.512361,0.32162,-0.20374,
-0.0770941,-0.137628,0.430029,-1.83924,-0.140522,0.121045,0.499257,-0.154759,0.00924322,-0.169768,-0.0505241,0.934198,0.919698,-0.0565368,0,0,0,0,0,0,0,-0.049236,-0.141404,0.460081,-1.82805,-0.0653149,1.65594,1.29918,-0.15536,-0.000419309,-0.165423,-0.0501575,0.038302,0.254736,0.00142508,-1.23822,-25.9609,-3.61327,27.3993,-0.597233,3.70965,-0.23793,1.02108,-2.40961,-2.72323,0.917585,1.20068,-1.04233,-0.945807,0.87325,-1.13031,-0.690009,-0.445972,0.436552,-0.20859,
-0.077675,-0.137589,0.42939,-1.83944,-0.136664,0.124755,0.499014,-0.145231,0.00997951,-0.15979,-0.0500621,0.964482,0.927682,-0.0608604,0,0,0,0,0,0,0,-0.049236,-0.141404,0.460081,-1.82805,-0.0653149,1.65594,1.29918,-0.15536,-0.000419309,-0.165423,-0.0501575,0.038302,0.254736,0.00142508,-1.23822,-25.9609,-3.61327,27.3993,-0.597233,3.70965,-0.23793,1.41201,-3.02176,-2.90511,1.46286,1.51341,-1.4094,-1.30913,1.07461,-1.54317,-0.698167,-0.306826,0.518403,-0.213006,
-0.0782104,-0.137536,0.4288,-1.83961,-0.132728,0.12839,0.498744,-0.133845,0.0130541,-0.147413,-0.0432825,0.983939,0.908614,-0.067374,0,0,0,0,0,0,0,-0.0542102,-0.141485,0.454206,-1.82962,-0.059115,1.66728,1.29917,-0.156767,-0.00118053,-0.167957,-0.044537,0.287283,0.405232,0.000789871,-0.119442,-25.9609,-2.91106,28.1253,1.15509,4.12713,-0.23793,1.41201,-3.02176,-2.90511,1.46286,1.51341,-1.4094,-1.30913,1.07461,-1.54317,-0.698167,-0.306826,0.518403,-0.213006,
-0.0786726,-0.137439,0.428283,-1.83968,-0.128889,0.131624,0.498524,-0.115553,0.0242929,-0.12922,-0.0159847,0.959775,0.808665,-0.0550385,0,0,0,0,0,0,0,-0.0542102,-0.141485,0.454206,-1.82962,-0.059115,1.66728,1.29917,-0.156767,-0.00118053,-0.167957,-0.044537,0.287283,0.405232,0.000789871,-0.119442,-25.9609,-2.91106,28.1253,1.15509,4.12713,-0.23793,0.459916,-3.31484,-2.0531,2.002,0.556418,-1.34579,-1.24009,0.461307,-1.55175,-0.291489,-0.133731,0.560574,-0.219066,
-0.0790858,-0.137341,0.42782,-1.83971,-0.12508,0.13461,0.498304,-0.103306,0.0246034,-0.11585,-0.00956727,0.952086,0.746464,-0.0549256,0,0,0,0,0,0,0,-0.0542102,-0.141485,0.454206,-1.82962,-0.059115,1.66728,1.29917,-0.156767,-0.00118053,-0.167957,-0.044537,0.287283,0.405232,0.000789871,-0.119442,-25.9609,-2.91106,28.1253,1.15509,4.12713,-0.23793,0.459916,-3.31484,-2.0531,2.002,0.556418,-1.34579,-1.24009,0.461307,-1.55175,-0.291489,-0.133731,0.560574,-0.219066,
-0.0794611,-0.137253,0.427398,-1.83975,-0.121273,0.137419,0.498083,-0.0938316,0.021865,-0.105528,-0.00983408,0.951749,0.702132,-0.0552871,0,0,0,0,0,0,0,-0.0542102,-0.141485,0.454206,-1.82962,-0.059115,1.66728,1.29917,-0.156767,-0.00118053,-0.167957,-0.044537,0.287283,0.405232,0.000789871,-0.119442,-25.9609,-2.91106,28.1253,1.15509,4.12713,-0.23793,0.846265,-2.65884,-2.21596,1.6746,0.994221,-1.12568,-1.0126,0.765504,-1.32226,-0.402221,0.040891,0.524847,-0.225431,
-0.0798056,-0.137179,0.427009,-1.8398,-0.117454,0.140091,0.497861,-0.0861086,0.0186513,-0.0971572,-0.0119787,0.95494,0.66793,-0.055515,0,0,0,0,0,0,0,-0.0542102,-0.141485,0.454206,-1.82962,-0.059115,1.66728,1.29917,-0.156767,-0.00118053,-0.167957,-0.044537,0.287283,0.405232,0.000789871,-0.119442,-25.9609,-2.91106,28.1253,1.15509,4.12713,-0.23793,-0.298091,-2.053,-2.29287,1.44554,0.384094,-0.597673,-0.492681,0.535857,-0.789479,-0.437482,0.268762,0.47573,-0.233607,
-0.0801241,-0.137116,0.426648,-1.83986,-0.113614,0.142652,0.497638,-0.0796442,0.0157406,-0.0901817,-0.0144245,0.959843,0.640472,-0.0556576,0,0,0,0,0,0,0,-0.0593377,-0.141316,0.448794,-1.83098,-0.0466926,1.68205,1.29917,-0.163892,0.0120349,-0.178615,-0.0280327,0.415037,0.499378,7.80164e-05,1.12232,-27.1352,-1.463,28.399,1.60095,4.00078,-0.250748,-0.298091,-2.053,-2.29287,1.44554,0.384094,-0.597673,-0.492681,0.535857,-0.789479,-0.437482,0.268762,0.47573,-0.233607,
-0.0804208,-0.137062,0.426311,-1.83993,-0.109752,0.145124,0.497415,-0.0741528,0.0133104,-0.0842771,-0.0166941,0.965494,0.618008,-0.0557552,0,0,0,0,0,0,0,-0.0593377,-0.141316,0.448794,-1.83098,-0.0466926,1.68205,1.29917,-0.163892,0.0120349,-0.178615,-0.0280327,0.415037,0.499378,7.80164e-05,1.12232,-27.1352,-1.463,28.399,1.60095,4.00078,-0.250748,-1.18146,-1.26923,-2.18921,1.19195,-0.17211,-0.0420833,0.0576298,0.275446,-0.23729,-0.336997,0.534395,0.499089,-0.235743,
-0.0698248,-0.135719,0.438065,-1.83771,-0.241476,-0.0561246,0.495888,-0.1978,0.0380379,-0.214487,-0.0830693,-1.19263,-0.341941,-0.086282,0,0,0,0,0,0,0,-0.0593377,-0.141316,0.448794,-1.83098,-0.0466926,1.68205,1.29917,-0.163892,0.0120349,-0.178615,-0.0280327,0.415037,0.499378,7.80164e-05,1.12232,-27.1352,-1.463,28.399,1.60095,4.00078,-0.250748,-1.18146,-1.26923,-2.18921,1.19195,-0.17211,-0.0420833,0.0576298,0.275446,-0.23729,-0.336997,0.534395,0.499089,-0.235743,
-0.0759122,-0.139831,0.43042,-1.83718,-0.136988,0.12054,0.501458,-0.0542789,0.00678041,-0.0611503,-0.040978,-0.6411,-0.0618921,-0.0663364,0,0,0,0,0,0,0,-0.0593377,-0.141316,0.448794,-1.83098,-0.0466926,1.68205,1.29917,-0.163892,0.0120349,-0.178615,-0.0280327,0.415037,0.499378,7.80164e-05,1.12232,-27.1352,-1.463,28.399,1.60095,4.00078,-0.250748,-1.18296,-0.830718,-2.01148,1.08238,-0.204437,0.159587,0.260022,0.247008,-0.0433064,-0.239924,0.689845,0.52311,-0.232693,
-0.0761244,-0.139804,0.43018,-1.83734,-0.139645,0.120311,0.501195,-0.0530555,0.00664966,-0.0599027,-0.0410411,-0.664258,-0.0573766,-0.0658554,0,0,0,0,0,0,0,-0.0593377,-0.141316,0.448794,-1.83098,-0.0466926,1.68205,1.29917,-0.163892,0.0120349,-0.178615,-0.0280327,0.415037,0.499378,7.80164e-05,1.12232,-27.1352,-1.463,28.399,1.60095,4.00078,-0.250748,-1.18296,-0.830718,-2.01148,1.08238,-0.204437,0.159587,0.260022,0.247008,-0.0433064,-0.239924,0.689845,0.52311,-0.232693,
-0.0763318,-0.139778,0.429946,-1.83751,-0.142402,0.1201,0.500933,-0.0518521,0.00650393,-0.0586753,-0.0410862,-0.689146,-0.0527092,-0.0653776,0,0,0,0,0,0,0,-0.0593377,-0.141316,0.448794,-1.83098,-0.0466926,1.68205,1.29917,-0.163892,0.0120349,-0.178615,-0.0280327,0.415037,0.499378,7.80164e-05,1.12232,-27.1352,-1.463,28.399,1.60095,4.00078,-0.250748,-1.46327,1.24567,-2.38083,-0.143255,-0.135426,1.20483,1.3077,0.375754,1.06466,-0.353761,0.952444,0.527893,-0.230104,
-0.0765345,-0.139753,0.429716,-1.83767,-0.145265,0.119909,0.500673,-0.0506649,0.00634073,-0.0574628,-0.0411229,-0.715754,-0.0478906,-0.0649039,0,0,0,0,0,0,0,-0.0645246,-0.140789,0.443092,-1.83124,-0.0356489,1.69646,1.29915,-0.150882,0.0150267,-0.191214,0.0314941,0.125232,0.272747,0.0025829,0.360599,-26.7821,-2.03826,24.6619,-0.139469,1.95916,-0.399063,-1.46327,1.24567,-2.38083,-0.143255,-0.135426,1.20483,1.3077,0.375754,1.06466,-0.353761,0.952444,0.527893,-0.230104,
-0.0767324,-0.139728,0.429491,-1.83784,-0.148241,0.119737,0.500416,-0.0494929,0.00615701,-0.0562622,-0.0411626,-0.744036,-0.0428947,-0.0644342,0,0,0,0,0,0,0,-0.0645246,-0.140789,0.443092,-1.83124,-0.0356489,1.69646,1.29915,-0.150882,0.0150267,-0.191214,0.0314941,0.125232,0.272747,0.0025829,0.360599,-26.7821,-2.03826,24.6619,-0.139469,1.95916,-0.399063,0.0175294,2.67762,-2.94008,-1.09085,1.17003,1.57997,1.6972,1.15714,1.49613,-0.624392,1.08828,0.521195,-0.224748,
-0.0769258,-0.139705,0.42927,-1.838,-0.151336,0.119586,0.50016,-0.0483395,0.00594877,-0.055074,-0.0412197,-0.773886,-0.0376594,-0.063969,0,0,0,0,0,0,0,-0.0645246,-0.140789,0.443092,-1.83124,-0.0356489,1.69646,1.29915,-0.150882,0.0150267,-0.191214,0.0314941,0.125232,0.272747,0.0025829,0.360599,-26.7821,-2.03826,24.6619,-0.139469,1.95916,-0.399063,-0.216504,1.61444,-1.90438,-0.456316,0.651504,1.08966,1.21849,0.736741,0.956655,-0.381,0.859577,0.35986,-0.210246,
-0.0771147,-0.139682,0.429055,-1.83817,-0.154557,0.119458,0.499906,-0.0472143,0.00571044,-0.0539042,-0.0413124,-0.805109,-0.032073,-0.0635085,0,0,0,0,0,0,0,-0.0645246,-0.140789,0.443092,-1.83124,-0.0356489,1.69646,1.29915,-0.150882,0.0150267,-0.191214,0.0314941,0.125232,0.272747,0.0025829,0.360599,-26.7821,-2.03826,24.6619,-0.139469,1.95916,-0.399063,-0.216504,1.61444,-1.90438,-0.456316,0.651504,1.08966,1.21849,0.736741,0.956655,-0.381,0.859577,0.35986,-0.210246,
-0.0772992,-0.13966,0.428844,-1.83833,-0.157906,0.119354,0.499654,-0.0461367,0.00543407,-0.0527668,-0.0414649,-0.837367,-0.0259565,-0.0630505,0,0,0,0,0,0,0,-0.0645246,-0.140789,0.443092,-1.83124,-0.0356489,1.69646,1.29915,-0.150882,0.0150267,-0.191214,0.0314941,0.125232,0.272747,0.0025829,0.360599,-26.7821,-2.03826,24.6619,-0.139469,1.95916,-0.399063,-2.21818,0.813871,-1.2038,-0.411806,-0.827476,1.07604,1.19146,-0.0898223,0.978349,-0.43386,0.344045,-0.0342366,-0.209636,
-0.0774798,-0.13964,0.428637,-1.8385,-0.161387,0.119278,0.499403,-0.0451405,0.0051082,-0.0516882,-0.0417085,-0.870104,-0.01904,-0.0625936,0,0,0,0,0,0,0,-0.0677818,-0.140262,0.438749,-1.83063,-0.0492524,1.70099,1.29913,-0.0804168,0.0278889,-0.123752,0.012084,-0.545954,0.151642,-0.00152404,0.309024,-27.8056,-1.43523,25.8322,-1.57502,2.48925,-0.197647,-2.21818,0.813871,-1.2038,-0.411806,-0.827476,1.07604,1.19146,-0.0898223,0.978349,-0.43386,0.344045,-0.0342366,-0.209636,
-0.0776569,-0.139621,0.428434,-1.83867,-0.164997,0.119234,0.499155,-0.0442819,0.0047162,-0.0507139,-0.0420835,-0.902435,-0.0109345,-0.0621323,0,0,0,0,0,0,0,-0.0677818,-0.140262,0.438749,-1.83063,-0.0492524,1.70099,1.29913,-0.0804168,0.0278889,-0.123752,0.012084,-0.545954,0.151642,-0.00152404,0.309024,-27.8056,-1.43523,25.8322,-1.57502,2.48925,-0.197647,-2.1723,-1.18096,-0.60263,0.318184,-1.03428,0.0711828,0.161715,-0.309078,-0.00586172,-0.500432,-0.319277,-0.325421,-0.210223,
-0.0778315,-0.139604,0.428235,-1.83884,-0.168728,0.11923,0.498908,-0.0436503,0.00423396,-0.0499181,-0.0426401,-0.932982,-0.00110176,-0.0616593,0,0,0,0,0,0,0,-0.0677818,-0.140262,0.438749,-1.83063,-0.0492524,1.70099,1.29913,-0.0804168,0.0278889,-0.123752,0.012084,-0.545954,0.151642,-0.00152404,0.309024,-27.8056,-1.43523,25.8322,-1.57502,2.48925,-0.197647,-1.51059,-1.29498,-0.182682,0.177229,-0.785601,-0.136233,-0.0421768,-0.29324,-0.189675,-0.431304,-0.599959,-0.398421,-0.210572,
-0.078005,-0.139589,0.428037,-1.83901,-0.172567,0.119275,0.498663,-0.043384,0.00362707,-0.0494172,-0.0434358,-0.959631,0.0111668,-0.0611597,0,0,0,0,0,0,0,-0.0677818,-0.140262,0.438749,-1.83063,-0.0492524,1.70099,1.29913,-0.0804168,0.0278889,-0.123752,0.012084,-0.545954,0.151642,-0.00152404,0.309024,-27.8056,-1.43523,25.8322,-1.57502,2.48925,-0.197647,-1.51059,-1.29498,-0.182682,0.177229,-0.785601,-0.136233,-0.0421768,-0.29324,-0.189675,-0.431304,-0.599959,-0.398421,-0.210572,
-0.0781798,-0.139578,0.427839,-1.83919,-0.176484,0.119382,0.498421,-0.0436907,0.00284713,-0.0493895,-0.0445277,-0.979204,0.026744,-0.0606098,0,0,0,0,0,0,0,-0.0677818,-0.140262,0.438749,-1.83063,-0.0492524,1.70099,1.29913,-0.0804168,0.0278889,-0.123752,0.012084,-0.545954,0.151642,-0.00152404,0.309024,-27.8056,-1.43523,25.8322,-1.57502,2.48925,-0.197647,-0.229676,-2.32047,-0.502653,0.437464,0.239638,-0.910057,-0.804794,0.298498,-0.94972,-0.775614,-0.939133,-0.571693,-0.21222,
-0.0783593,-0.139571,0.427639,-1.83937,-0.180432,0.119568,0.498181,-0.0448735,0.00182833,-0.0500983,-0.0459528,-0.987026,0.0465973,-0.0599726,0,0,0,0,0,0,0,-0.0677818,-0.140262,0.438749,-1.83063,-0.0492524,1.70099,1.29913,-0.0804168,0.0278889,-0.123752,0.012084,-0.545954,0.151642,-0.00152404,0.309024,-27.8056,-1.43523,25.8322,-1.57502,2.48925,-0.197647,-0.229676,-2.32047,-0.502653,0.437464,0.239638,-0.910057,-0.804794,0.298498,-0.94972,-0.775614,-0.939133,-0.571693,-0.21222,
-0.0785487,-0.139569,0.427431,-1.83957,-0.184338,0.119854,0.497944,-0.0473563,0.000484816,-0.0519194,-0.0476943,-0.976428,0.0716199,-0.0591879,0,0,0,0,0,0,0,-0.0707068,-0.139634,0.434985,-1.83055,-0.0773576,1.70763,1.29912,-0.0509612,0.000461912,-0.0573928,0.00255523,-0.705567,0.16903,-0.00143004,0.233646,-27.3573,-2.01048,25.733,-1.34888,2.00493,-0.190323,0.124748,-3.16689,-0.977515,0.516671,0.793739,-1.41981,-1.29624,0.720165,-1.43964,-1.25003,-1.27769,-0.849636,-0.216259,
-0.0787555,-0.139574,0.42721,-1.83976,-0.188091,0.120264,0.497712,-0.0517002,-0.00129093,-0.0553624,-0.0496396,-0.938291,0.102368,-0.0581631,0,0,0,0,0,0,0,-0.0707068,-0.139634,0.434985,-1.83055,-0.0773576,1.70763,1.29912,-0.0509612,0.000461912,-0.0573928,0.00255523,-0.705567,0.16903,-0.00143004,0.233646,-27.3573,-2.01048,25.733,-1.34888,2.00493,-0.190323,0.124748,-3.16689,-0.977515,0.516671,0.793739,-1.41981,-1.29624,0.720165,-1.43964,-1.25003,-1.27769,-0.849636,-0.216259,
-0.0789899,-0.139588,0.426965,-1.83997,-0.191534,0.120819,0.497485,-0.0585925,-0.00363046,-0.0610756,-0.0515651,-0.860901,0.138852,-0.0567577,0,0,0,0,0,0,0,-0.0707068,-0.139634,0.434985,-1.83055,-0.0773576,1.70763,1.29912,-0.0509612,0.000461912,-0.0573928,0.00255523,-0.705567,0.16903,-0.00143004,0.233646,-27.3573,-2.01048,25.733,-1.34888,2.00493,-0.190323,0.120523,-4.15811,-1.15169,0.902554,0.906065,-1.91952,-1.77041,0.83887,-1.96518,-1.46894,-1.4999,-1.00287,-0.2166,
-0.0792651,-0.139615,0.426686,-1.84018,-0.194456,0.121542,0.497266,-0.0687981,-0.00670107,-0.0698209,-0.0532157,-0.730375,0.180714,-0.0547808,0,0,0,0,0,0,0,-0.0707068,-0.139634,0.434985,-1.83055,-0.0773576,1.70763,1.29912,-0.0509612,0.000461912,-0.0573928,0.00255523,-0.705567,0.16903,-0.00143004,0.233646,-27.3573,-2.01048,25.733,-1.34888,2.00493,-0.190323,0.0875377,-5.51972,-0.854491,1.72776,0.69346,-2.57797,-2.41485,0.664717,-2.68368,-1.3614,-1.66126,-1.01485,-0.217215,
-0.0795975,-0.139658,0.426356,-1.8404,-0.196582,0.122455,0.497056,-0.0831112,-0.0107509,-0.0824337,-0.0545444,-0.531505,0.228103,-0.0523892,0,0,0,0,0,0,0,-0.0707068,-0.139634,0.434985,-1.83055,-0.0773576,1.70763,1.29912,-0.0509612,0.000461912,-0.0573928,0.00255523,-0.705567,0.16903,-0.00143004,0.233646,-27.3573,-2.01048,25.733,-1.34888,2.00493,-0.190323,0.0875377,-5.51972,-0.854491,1.72776,0.69346,-2.57797,-2.41485,0.664717,-2.68368,-1.3614,-1.66126,-1.01485,-0.217215,
-0.0800076,-0.139723,0.425957,-1.84063,-0.197571,0.123587,0.49683,-0.102514,-0.0162756,-0.0998484,-0.0561537,-0.247394,0.283196,-0.0565546,0,0,0,0,0,0,0,-0.0717633,-0.139506,0.433902,-1.83066,-0.10159,1.71302,1.29913,-0.0252458,-0.00236709,-0.0300731,-0.00658832,-0.744533,0.160557,0.000907053,-0.551876,-27.6827,-2.78807,27.2763,-0.786747,2.5158,-0.250748,0.0210791,-5.61112,-0.810943,1.69322,0.587616,-2.61784,-2.45859,0.576658,-2.71146,-1.33975,-1.77152,-1.01802,-0.219795,
-0.0804448,-0.139783,0.425514,-1.84083,-0.197723,0.124863,0.49661,-0.109306,-0.014953,-0.110831,-0.0507541,-0.0377961,0.318834,-0.054886,0,0,0,0,0,0,0,-0.0717633,-0.139506,0.433902,-1.83066,-0.10159,1.71302,1.29913,-0.0252458,-0.00236709,-0.0300731,-0.00658832,-0.744533,0.160557,0.000907053,-0.551876,-27.6827,-2.78807,27.2763,-0.786747,2.5158,-0.250748,0.0210791,-5.61112,-0.810943,1.69322,0.587616,-2.61784,-2.45859,0.576658,-2.71146,-1.33975,-1.77152,-1.01802,-0.219795,
-0.0808889,-0.13983,0.425052,-1.84101,-0.197243,0.126244,0.496396,-0.11103,-0.0117057,-0.115533,-0.0448478,0.119909,0.345279,-0.0535407,0,0,0,0,0,0,0,-0.0717633,-0.139506,0.433902,-1.83066,-0.10159,1.71302,1.29913,-0.0252458,-0.00236709,-0.0300731,-0.00658832,-0.744533,0.160557,0.000907053,-0.551876,-27.6827,-2.78807,27.2763,-0.786747,2.5158,-0.250748,-0.0100071,-4.15437,-0.9595,0.846009,0.619091,-1.90119,-1.76019,0.591376,-1.9338,-1.30413,-1.62276,-0.928178,-0.227026,
-0.0813279,-0.139863,0.424587,-1.84117,-0.196282,0.127709,0.496186,-0.109739,-0.00819497,-0.116207,-0.0401152,0.240187,0.366341,-0.0526487,0,0,0,0,0,0,0,-0.0717633,-0.139506,0.433902,-1.83066,-0.10159,1.71302,1.29913,-0.0252458,-0.00236709,-0.0300731,-0.00658832,-0.744533,0.160557,0.000907053,-0.551876,-27.6827,-2.78807,27.2763,-0.786747,2.5158,-0.250748,-0.0100071,-4.15437,-0.9595,0.846009,0.619091,-1.90119,-1.76019,0.591376,-1.9338,-1.30413,-1.62276,-0.928178,-0.227026,
-0.0817544,-0.139883,0.424129,-1.84132,-0.19495,0.129244,0.495977,-0.106633,-0.00497852,-0.114366,-0.0367137,0.333012,0.383618,-0.0520644,0,0,0,0,0,0,0,-0.0717633,-0.139506,0.433902,-1.83066,-0.10159,1.71302,1.29913,-0.0252458,-0.00236709,-0.0300731,-0.00658832,-0.744533,0.160557,0.000907053,-0.551876,-27.6827,-2.78807,27.2763,-0.786747,2.5158,-0.250748,-0.162383,-4.1188,-1.13813,0.945259,0.566,-1.83325,-1.69176,0.597114,-1.88163,-1.29315,-1.49086,-0.850288,-0.236658,
-0.0821644,-0.139891,0.423685,-1.84145,-0.193328,0.130835,0.495771,-0.102492,-0.00221832,-0.11101,-0.0344002,0.405459,0.397938,-0.0516848,0,0,0,0,0,0,0,-0.0717633,-0.139506,0.433902,-1.83066,-0.10159,1.71302,1.29913,-0.0252458,-0.00236709,-0.0300731,-0.00658832,-0.744533,0.160557,0.000907053,-0.551876,-27.6827,-2.78807,27.2763,-0.786747,2.5158,-0.250748,-0.995105,-4.86278,-1.2548,1.59538,0.123501,-2.01597,-1.86074,0.463193,-2.1324,-1.33925,-1.31472,-0.873971,-0.246994,
-0.0877156,-0.133568,0.417663,-1.83898,-0.219728,-0.0293603,0.494694,-0.154198,0.0612883,-0.167219,-0.0701299,-1.19601,-0.715783,-0.0973858,0,0,0,0,0,0,0,-0.0734092,-0.139647,0.432724,-1.83072,-0.117279,1.71879,1.2991,-0.0706196,-0.00213622,-0.0366817,-0.00189859,-0.219943,0.1672,-0.00155685,-0.627255,-26.6829,-3.5855,26.7288,1.30157,4.432,-0.0703886,-0.995105,-4.86278,-1.2548,1.59538,0.123501,-2.01597,-1.86074,0.463193,-2.1324,-1.33925,-1.31472,-0.873971,-0.246994,
-0.0925861,-0.134992,0.411728,-1.83679,-0.198878,0.105188,0.501157,-0.127538,0.0398242,-0.139987,-0.0392176,0.186788,-0.181852,-0.0623976,0,0,0,0,0,0,0,-0.0734092,-0.139647,0.432724,-1.83072,-0.117279,1.71879,1.2991,-0.0706196,-0.00213622,-0.0366817,-0.00189859,-0.219943,0.1672,-0.00155685,-0.627255,-26.6829,-3.5855,26.7288,1.30157,4.432,-0.0703886,-1.10128,-4.73737,-0.184405,2.16043,-0.509341,-1.89743,-1.71643,-0.0864321,-2.12809,-0.624048,-0.933626,-0.574795,-0.24457,
-0.0930921,-0.134836,0.411172,-1.83695,-0.198043,0.104432,0.500909,-0.126494,0.0390999,-0.138872,-0.0387777,0.208856,-0.188889,-0.061998,0,0,0,0,0,0,0,-0.0734092,-0.139647,0.432724,-1.83072,-0.117279,1.71879,1.2991,-0.0706196,-0.00213622,-0.0366817,-0.00189859,-0.219943,0.1672,-0.00155685,-0.627255,-26.6829,-3.5855,26.7288,1.30157,4.432,-0.0703886,-1.10128,-4.73737,-0.184405,2.16043,-0.509341,-1.89743,-1.71643,-0.0864321,-2.12809,-0.624048,-0.933626,-0.574795,-0.24457,
-0.0935943,-0.134683,0.410621,-1.8371,-0.197113,0.103647,0.500663,-0.125558,0.0383154,-0.137863,-0.0383286,0.232346,-0.196391,-0.0616111,0,0,0,0,0,0,0,-0.0734092,-0.139647,0.432724,-1.83072,-0.117279,1.71879,1.2991,-0.0706196,-0.00213622,-0.0366817,-0.00189859,-0.219943,0.1672,-0.00155685,-0.627255,-26.6829,-3.5855,26.7288,1.30157,4.432,-0.0703886,-0.0154213,-2.51099,0.547099,1.41299,-0.289909,-0.958482,-0.743239,-0.226993,-1.22914,0.108125,-0.434966,-0.0841233,-0.249755,
-0.0940932,-0.134533,0.410073,-1.83725,-0.196083,0.10283,0.500418,-0.124726,0.0374676,-0.136954,-0.0378724,0.257554,-0.204323,-0.0612385,0,0,0,0,0,0,0,-0.0734092,-0.139647,0.432724,-1.83072,-0.117279,1.71879,1.2991,-0.0706196,-0.00213622,-0.0366817,-0.00189859,-0.219943,0.1672,-0.00155685,-0.627255,-26.6829,-3.5855,26.7288,1.30157,4.432,-0.0703886,-0.0154213,-2.51099,0.547099,1.41299,-0.289909,-0.958482,-0.743239,-0.226993,-1.22914,0.108125,-0.434966,-0.0841233,-0.249755,
-0.0945892,-0.134387,0.409528,-1.8374,-0.194944,0.101979,0.500174,-0.123994,0.0365515,-0.136142,-0.0374127,0.2848,-0.212636,-0.0608833,0,0,0,0,0,0,0,-0.0755962,-0.139808,0.430947,-1.83111,-0.124168,1.7198,1.29906,-0.072627,-0.00378967,-0.0567059,-0.00576455,-0.342275,-0.0910147,-0.00301988,-1.13507,-25.2864,-3.98619,26.6772,1.5039,2.32354,-0.170181,1.21451,-0.972349,0.169283,0.845502,0.633113,-0.399632,-0.168569,0.282404,-0.676875,0.199755,0.0348,0.206414,-0.250244,
-0.0950826,-0.134244,0.408987,-1.83755,-0.193686,0.101094,0.499932,-0.123362,0.0355609,-0.135422,-0.0369558,0.314436,-0.221255,-0.0605506,0,0,0,0,0,0,0,-0.0755962,-0.139808,0.430947,-1.83111,-0.124168,1.7198,1.29906,-0.072627,-0.00378967,-0.0567059,-0.00576455,-0.342275,-0.0910147,-0.00301988,-1.13507,-25.2864,-3.98619,26.6772,1.5039,2.32354,-0.170181,0.00917751,-0.703304,-0.0350072,0.814829,0.169263,-0.0601717,0.153076,0.223828,-0.333027,-0.0319743,0.304024,0.0193322,-0.249843,
-0.0955739,-0.134106,0.408447,-1.8377,-0.192299,0.100174,0.499691,-0.122828,0.0344884,-0.134793,-0.0365116,0.34685,-0.230072,-0.0602451,0,0,0,0,0,0,0,-0.0755962,-0.139808,0.430947,-1.83111,-0.124168,1.7198,1.29906,-0.072627,-0.00378967,-0.0567059,-0.00576455,-0.342275,-0.0910147,-0.00301988,-1.13507,-25.2864,-3.98619,26.6772,1.5039,2.32354,-0.170181,0.00917751,-0.703304,-0.0350072,0.814829,0.169263,-0.0601717,0.153076,0.223828,-0.333027,-0.0319743,0.304024,0.0193322,-0.249843,
-0.0960635,-0.133973,0.40791,-1.83784,-0.190769,0.099218,0.499451,-0.122394,0.0333253,-0.134254,-0.036096,0.382461,-0.238921,-0.059975,0,0,0,0,0,0,0,-0.0755962,-0.139808,0.430947,-1.83111,-0.124168,1.7198,1.29906,-0.072627,-0.00378967,-0.0567059,-0.00576455,-0.342275,-0.0910147,-0.00301988,-1.13507,-25.2864,-3.98619,26.6772,1.5039,2.32354,-0.170181,0.41732,1.59629,-1.55317,-0.624761,1.36755,0.969845,1.18176,1.23132,0.793682,-0.762874,0.751634,-0.0944758,-0.249064,
-0.0965518,-0.133845,0.407375,-1.83798,-0.189082,0.0982278,0.499212,-0.122059,0.0320627,-0.133805,-0.0357332,0.421718,-0.247554,-0.0597488,0,0,0,0,0,0,0,-0.0755962,-0.139808,0.430947,-1.83111,-0.124168,1.7198,1.29906,-0.072627,-0.00378967,-0.0567059,-0.00576455,-0.342275,-0.0910147,-0.00301988,-1.13507,-25.2864,-3.98619,26.6772,1.5039,2.32354,-0.170181,0.41732,1.59629,-1.55317,-0.624761,1.36755,0.969845,1.18176,1.23132,0.793682,-0.762874,0.751634,-0.0944758,-0.249064,
-0.097039,-0.133722,0.406841,-1.83812,-0.187222,0.0972054,0.498974,-0.121823,0.0306915,-0.133444,-0.0354594,0.46508,-0.255603,-0.0595798,0,0,0,0,0,0,0,-0.0755962,-0.139808,0.430947,-1.83111,-0.124168,1.7198,1.29906,-0.072627,-0.00378967,-0.0567059,-0.00576455,-0.342275,-0.0910147,-0.00301988,-1.13507,-25.2864,-3.98619,26.6772,1.5039,2.32354,-0.170181,0.624337,3.15029,-1.79186,-1.32446,1.67785,1.69841,1.90637,1.4572,1.54683,-0.771011,1.1376,0.00616244,-0.245564,
-0.0975258,-0.133605,0.406309,-1.83827,-0.18517,0.0961553,0.498736,-0.121682,0.0292043,-0.133166,-0.0353285,0.512982,-0.262523,-0.0594877,0,0,0,0,0,0,0,-0.0785909,-0.140275,0.427731,-1.83108,-0.130375,1.71672,1.29906,-0.114408,-0.025172,-0.12546,0.00198396,-0.125891,-0.132149,-0.000279705,0.106693,-25.2348,-2.58574,26.3559,1.03332,2.4096,-0.197647,0.675567,2.80487,-1.41884,-1.0417,1.66388,1.4942,1.7068,1.43923,1.31718,-0.737087,1.16033,-0.105705,-0.242688,
-0.0980123,-0.133495,0.405777,-1.83841,-0.182907,0.0950852,0.498498,-0.12162,0.0275979,-0.132957,-0.0354179,0.565751,-0.267524,-0.0594957,0,0,0,0,0,0,0,-0.0785909,-0.140275,0.427731,-1.83108,-0.130375,1.71672,1.29906,-0.114408,-0.025172,-0.12546,0.00198396,-0.125891,-0.132149,-0.000279705,0.106693,-25.2348,-2.58574,26.3559,1.03332,2.4096,-0.197647,0.675567,2.80487,-1.41884,-1.0417,1.66388,1.4942,1.7068,1.43923,1.31718,-0.737087,1.16033,-0.105705,-0.242688,
-0.0984987,-0.133391,0.405246,-1.83855,-0.180413,0.0940073,0.498259,-0.121599,0.0258788,-0.132783,-0.0358362,0.623449,-0.269478,-0.0596398,0,0,0,0,0,0,0,-0.0785909,-0.140275,0.427731,-1.83108,-0.130375,1.71672,1.29906,-0.114408,-0.025172,-0.12546,0.00198396,-0.125891,-0.132149,-0.000279705,0.106693,-25.2348,-2.58574,26.3559,1.03332,2.4096,-0.197647,-0.577125,2.30155,-0.787525,-0.633112,0.656887,1.4601,1.66096,0.869722,1.25415,-0.570279,1.16162,-0.229567,-0.242138,
-0.0989848,-0.133295,0.404715,-1.8387,-0.177671,0.09294,0.49802,-0.121532,0.0240721,-0.13257,-0.0367293,0.685573,-0.266822,-0.0599698,0,0,0,0,0,0,0,-0.0785909,-0.140275,0.427731,-1.83108,-0.130375,1.71672,1.29906,-0.114408,-0.025172,-0.12546,0.00198396,-0.125891,-0.132149,-0.000279705,0.106693,-25.2348,-2.58574,26.3559,1.03332,2.4096,-0.197647,-0.577125,2.30155,-0.787525,-0.633112,0.656887,1.4601,1.66096,0.869722,1.25415,-0.570279,1.16162,-0.229567,-0.242138,
-0.0994698,-0.133206,0.404187,-1.83885,-0.174669,0.0919102,0.497777,-0.121245,0.0222375,-0.13217,-0.0382829,0.750534,-0.257455,-0.0605579,0,0,0,0,0,0,0,-0.0785909,-0.140275,0.427731,-1.83108,-0.130375,1.71672,1.29906,-0.114408,-0.025172,-0.12546,0.00198396,-0.125891,-0.132149,-0.000279705,0.106693,-25.2348,-2.58574,26.3559,1.03332,2.4096,-0.197647,-1.38291,2.11198,-0.0742603,-0.353667,-0.150715,1.50261,1.68987,0.349178,1.2724,-0.288189,1.20526,-0.254409,-0.239694,
-0.0999514,-0.133124,0.403662,-1.83901,-0.171409,0.0909554,0.497531,-0.120412,0.0204931,-0.1313,-0.040715,0.814833,-0.238694,-0.0615039,0,0,0,0,0,0,0,-0.0825365,-0.14054,0.423423,-1.8311,-0.130646,1.71238,1.29906,-0.141337,9.56307e-05,-0.145331,-0.00525284,0.0368136,-0.136183,-0.000384307,0.360599,-25.8339,-2.16124,26.9034,1.10016,2.38305,-0.217789,-1.24605,1.96222,-0.0993411,-0.320757,0.0424258,1.38037,1.55946,0.494612,1.16304,-0.416107,1.17701,-0.370251,-0.239879,
-0.100425,-0.133048,0.403144,-1.83919,-0.167921,0.0901261,0.49728,-0.11848,0.0190412,-0.129471,-0.0442496,0.872075,-0.207331,-0.0629462,0,0,0,0,0,0,0,-0.0825365,-0.14054,0.423423,-1.8311,-0.130646,1.71238,1.29906,-0.141337,9.56307e-05,-0.145331,-0.00525284,0.0368136,-0.136183,-0.000384307,0.360599,-25.8339,-2.16124,26.9034,1.10016,2.38305,-0.217789,-1.24605,1.96222,-0.0993411,-0.320757,0.0424258,1.38037,1.55946,0.494612,1.16304,-0.416107,1.17701,-0.370251,-0.239879,
-0.100884,-0.132975,0.40264,-1.83939,-0.164272,0.0894865,0.497019,-0.114645,0.0181822,-0.125942,-0.0490651,0.912322,-0.159901,-0.0650375,0,0,0,0,0,0,0,-0.0825365,-0.14054,0.423423,-1.8311,-0.130646,1.71238,1.29906,-0.141337,9.56307e-05,-0.145331,-0.00525284,0.0368136,-0.136183,-0.000384307,0.360599,-25.8339,-2.16124,26.9034,1.10016,2.38305,-0.217789,-0.443974,1.9211,-0.628492,-0.461841,0.952764,1.18478,1.34966,1.12193,1.01182,-0.825223,1.15043,-0.547687,-0.242771,
-0.101315,-0.132902,0.402161,-1.83961,-0.160582,0.0891138,0.49675,-0.107897,0.0182999,-0.119754,-0.0552133,0.922502,-0.0931764,-0.0673157,0,0,0,0,0,0,0,-0.0825365,-0.14054,0.423423,-1.8311,-0.130646,1.71238,1.29906,-0.141337,9.56307e-05,-0.145331,-0.00525284,0.0368136,-0.136183,-0.000384307,0.360599,-25.8339,-2.16124,26.9034,1.10016,2.38305,-0.217789,-0.443974,1.9211,-0.628492,-0.461841,0.952764,1.18478,1.34966,1.12193,1.01182,-0.825223,1.15043,-0.547687,-0.242771,
