PerkyPenguin/Analysis-on-Approximated-Derivatives/Code_and_Data/PaperData/Real_Robot/Scene_1/contact_change/14/trajectory.csv
Commanded Joint 0 Position,Commanded Joint 1 Position,Commanded Joint 2 Position,Commanded Joint 3 Position,Commanded Joint 4 Position,Commanded Joint 5 Position,Commanded Joint 6 Position,Commanded Joint 0 Velocity,Commanded Joint 1 Velocity,Commanded Joint 2 Velocity,Commanded Joint 3 Velocity,Commanded Joint 4 Velocity,Commanded Joint 5 Velocity,Commanded Joint 6 Velocity,Commanded Joint 0 Torque,Commanded Joint 1 Torque,Commanded Joint 2 Torque,Commanded Joint 3 Torque,Commanded Joint 4 Torque,Commanded Joint 5 Torque,Commanded Joint 6 Torque,Actual Joint 0 Position,Actual Joint 1 Position,Actual Joint 2 Position,Actual Joint 3 Position,Actual Joint 4 Position,Actual Joint 5 Position,Actual Joint 6 Position,Actual Joint 0 Velocity,Actual Joint 1 Velocity,Actual Joint 2 Velocity,Actual Joint 3 Velocity,Actual Joint 4 Velocity,Actual Joint 5 Velocity,Actual Joint 6 Velocity,Actual Joint 0 Torque,Actual Joint 1 Torque,Actual Joint 2 Torque,Actual Joint 3 Torque,Actual Joint 4 Torque,Actual Joint 5 Torque,Actual Joint 6 Torque,EE ext force 0,EE ext force 1,EE ext force 2,EE ext force 3,EE ext force 4,EE ext force 5,joint ext torque 0,joint ext torque 1,joint ext torque 2,joint ext torque 3,joint ext torque 4,joint ext torque 5,joint ext torque 6,
0.0109268,-0.196404,-0.333165,-1.66065,-0.0930394,-0.0935673,-0.38344,-0.00280575,0.0163857,-0.012852,-0.15066,0.00443192,0.199796,-0.00213335,0,0,0,0,0,0,0,0.0109581,-0.196419,-0.333049,-1.65913,-0.0930788,1.47523,0.401979,0.0011952,0.00115452,0.000993912,-0.00134613,-0.0011908,0.000802023,0.000105507,-0.147213,-25.6355,1.81398,25.9076,0.429074,2.93328,-0.0301054,-1.52056,0.0859038,-0.748772,0.00540727,-0.550308,-0.192125,-0.0995313,-0.0503605,-0.273702,-0.419441,-0.16661,-0.325735,-0.0343683,
0.0109108,-0.196264,-0.333227,-1.66129,-0.0930252,-0.0927397,-0.383448,-0.00399717,0.0349386,-0.0156692,-0.159772,0.00356163,0.206915,-0.00203209,0,0,0,0,0,0,0,0.0109581,-0.196419,-0.333049,-1.65913,-0.0930788,1.47523,0.401979,0.0011952,0.00115452,0.000993912,-0.00134613,-0.0011908,0.000802023,0.000105507,-0.147213,-25.6355,1.81398,25.9076,0.429074,2.93328,-0.0301054,-1.52056,0.0859038,-0.748772,0.00540727,-0.550308,-0.192125,-0.0995313,-0.0503605,-0.273702,-0.419441,-0.16661,-0.325735,-0.0343683,
0.0109684,-0.196402,-0.333038,-1.65914,-0.09308,-0.0955628,-0.38342,0.00049712,0.00087603,0.000512747,-0.000427259,0.000255331,-0.000181332,-2.02244e-05,0,0,0,0,0,0,0,0.0109487,-0.196421,-0.333056,-1.65913,-0.0930768,1.47523,0.40198,-0.000267984,0.000479843,0.00131161,-0.00122279,-0.00061855,0.000490106,0.000297198,-0.0440639,-25.5879,1.86159,25.4831,0.410763,3.00652,-0.0429228,-1.42299,0.109616,-0.667909,-0.021754,-0.515181,-0.164925,-0.0749958,-0.0473518,-0.241018,-0.391652,-0.15908,-0.316319,-0.033767,
0.0109702,-0.196399,-0.333037,-1.65914,-0.0930786,-0.0955637,-0.38342,0.000431882,0.000752445,0.000435478,-0.000373532,0.000337699,-0.000227716,-1.67648e-05,0,0,0,0,0,0,0,0.0109487,-0.196421,-0.333056,-1.65913,-0.0930768,1.47523,0.40198,-0.000267984,0.000479843,0.00131161,-0.00122279,-0.00061855,0.000490106,0.000297198,-0.0440639,-25.5879,1.86159,25.4831,0.410763,3.00652,-0.0429228,-1.42299,0.109616,-0.667909,-0.021754,-0.515181,-0.164925,-0.0749958,-0.0473518,-0.241018,-0.391652,-0.15908,-0.316319,-0.033767,
0.0109717,-0.196397,-0.333035,-1.65914,-0.0930771,-0.0955647,-0.38342,0.000378172,0.000640133,0.000372722,-0.00032714,0.000377563,-0.000262083,-1.40789e-05,0,0,0,0,0,0,0,0.0109487,-0.196421,-0.333056,-1.65913,-0.0930768,1.47523,0.40198,-0.000267984,0.000479843,0.00131161,-0.00122279,-0.00061855,0.000490106,0.000297198,-0.0440639,-25.5879,1.86159,25.4831,0.410763,3.00652,-0.0429228,-1.74083,0.196201,-0.616821,-0.10528,-0.797116,-0.183322,-0.0941048,-0.222783,-0.247409,-0.314901,-0.162176,-0.298369,-0.0327315,
0.010973,-0.196395,-0.333034,-1.65914,-0.0930756,-0.0955659,-0.38342,0.000333187,0.000539357,0.000320918,-0.000285522,0.000389028,-0.000288092,-1.19215e-05,0,0,0,0,0,0,0,0.0109487,-0.196421,-0.333056,-1.65913,-0.0930768,1.47523,0.40198,-0.000267984,0.000479843,0.00131161,-0.00122279,-0.00061855,0.000490106,0.000297198,-0.0440639,-25.5879,1.86159,25.4831,0.410763,3.00652,-0.0429228,-3.04194,0.606098,-1.52559,-0.282273,-1.46069,-0.227731,-0.131535,-0.452788,-0.288573,-0.504985,-0.16281,-0.312145,-0.0324686,
0.0109742,-0.196393,-0.333033,-1.65915,-0.093074,-0.0955671,-0.38342,0.000294985,0.000449429,0.000277528,-0.000247775,0.000381804,-0.000307615,-1.01488e-05,0,0,0,0,0,0,0,0.0109487,-0.196421,-0.333056,-1.65913,-0.0930768,1.47523,0.40198,-0.000267984,0.000479843,0.00131161,-0.00122279,-0.00061855,0.000490106,0.000297198,-0.0440639,-25.5879,1.86159,25.4831,0.410763,3.00652,-0.0429228,-3.04194,0.606098,-1.52559,-0.282273,-1.46069,-0.227731,-0.131535,-0.452788,-0.288573,-0.504985,-0.16281,-0.312145,-0.0324686,
0.0109752,-0.196391,-0.333032,-1.65915,-0.0930726,-0.0955684,-0.38342,0.000262171,0.000369391,0.000240715,-0.000213503,0.000362621,-0.0003219,-8.66806e-06,0,0,0,0,0,0,0,0.0109487,-0.196421,-0.333056,-1.65913,-0.0930768,1.47523,0.40198,-0.000267984,0.000479843,0.00131161,-0.00122279,-0.00061855,0.000490106,0.000297198,-0.0440639,-25.5879,1.86159,25.4831,0.410763,3.00652,-0.0429228,-2.26785,0.336767,-1.85236,-0.0313845,-0.767305,-0.208126,-0.107729,-0.0192777,-0.305235,-0.695002,-0.161443,-0.2826,-0.0332608,
0.0108422,-0.196349,-0.333136,-1.65901,-0.0915183,-0.0965464,-0.383419,-0.0111846,0.00498309,-0.00990845,0.009691,0.177865,-0.111581,0.000364363,0,0,0,0,0,0,0,0.0109559,-0.196415,-0.333055,-1.65952,-0.0930726,1.47597,0.40198,0.00231929,-0.0045982,0.000614953,0.00607299,0.0025864,0.000123666,-0.000981442,-0.147213,-25.7109,1.86159,26.2051,0.373226,3.25188,-0.0163725,-2.26785,0.336767,-1.85236,-0.0313845,-0.767305,-0.208126,-0.107729,-0.0192777,-0.305235,-0.695002,-0.161443,-0.2826,-0.0332608,
0.0108425,-0.19641,-0.333136,-1.65936,-0.0914968,-0.0957653,-0.383418,-0.0110065,8.41283e-05,-0.00949935,0.0125227,0.178231,-0.107116,0.000355472,0,0,0,0,0,0,0,0.0109559,-0.196415,-0.333055,-1.65952,-0.0930726,1.47597,0.40198,0.00231929,-0.0045982,0.000614953,0.00607299,0.0025864,0.000123666,-0.000981442,-0.147213,-25.7109,1.86159,26.2051,0.373226,3.25188,-0.0163725,-1.18521,-0.00705486,-1.64341,0.185585,-0.0560767,-0.168213,-0.0728641,0.330501,-0.282469,-0.696577,-0.161136,-0.225898,-0.034917,
0.0107984,-0.196414,-0.333177,-1.65932,-0.0906554,-0.0962794,-0.383416,-0.0110452,-0.000840944,-0.0103483,0.010536,0.21034,-0.128531,0.000491475,0,0,0,0,0,0,0,0.0109559,-0.196415,-0.333055,-1.65952,-0.0930726,1.47597,0.40198,0.00231929,-0.0045982,0.000614953,0.00607299,0.0025864,0.000123666,-0.000981442,-0.147213,-25.7109,1.86159,26.2051,0.373226,3.25188,-0.0163725,-1.18521,-0.00705486,-1.64341,0.185585,-0.0560767,-0.168213,-0.0728641,0.330501,-0.282469,-0.696577,-0.161136,-0.225898,-0.034917,
0.0107562,-0.19642,-0.333218,-1.65928,-0.0897155,-0.0968641,-0.383414,-0.0105336,-0.00167079,-0.0103678,0.00868692,0.234986,-0.146188,0.000567548,0,0,0,0,0,0,0,0.0109559,-0.196415,-0.333055,-1.65952,-0.0930726,1.47597,0.40198,0.00231929,-0.0045982,0.000614953,0.00607299,0.0025864,0.000123666,-0.000981442,-0.147213,-25.7109,1.86159,26.2051,0.373226,3.25188,-0.0163725,-1.31461,0.132788,-1.28752,0.0221732,-0.310074,-0.126922,-0.0341899,0.121028,-0.21648,-0.525086,-0.153892,-0.20407,-0.0367983,
0.0107174,-0.19643,-0.333258,-1.65925,-0.0886993,-0.0975072,-0.383411,-0.00970407,-0.00232133,-0.00987231,0.00708846,0.254048,-0.16077,0.000606811,0,0,0,0,0,0,0,0.0109559,-0.196415,-0.333055,-1.65952,-0.0930726,1.47597,0.40198,0.00231929,-0.0045982,0.000614953,0.00607299,0.0025864,0.000123666,-0.000981442,-0.147213,-25.7109,1.86159,26.2051,0.373226,3.25188,-0.0163725,-1.34742,0.0989722,-1.34587,0.0876824,-0.306999,-0.147945,-0.0549499,0.134431,-0.247872,-0.559331,-0.127808,-0.220642,-0.0371326,
0.0106826,-0.196441,-0.333294,-1.65923,-0.0876238,-0.0981983,-0.383409,-0.00870552,-0.00278809,-0.00907219,0.00573641,0.26888,-0.172772,0.000622518,0,0,0,0,0,0,0,0.0109151,-0.196385,-0.333082,-1.65942,-0.0926092,1.47599,0.401976,-0.0018301,0.00214738,-0.00245105,0.010625,0.0416111,-0.00506111,-0.000451113,0.25745,-25.9609,2.11152,25.6061,0.764157,3.03307,-0.00996382,-1.34742,0.0989722,-1.34587,0.0876824,-0.306999,-0.147945,-0.0549499,0.134431,-0.247872,-0.559331,-0.127808,-0.220642,-0.0371326,
0.0106521,-0.196453,-0.333327,-1.65921,-0.0865019,-0.0989287,-0.383406,-0.00763427,-0.0030921,-0.00810759,0.00459745,0.280472,-0.182595,0.000622994,0,0,0,0,0,0,0,0.0109151,-0.196385,-0.333082,-1.65942,-0.0926092,1.47599,0.401976,-0.0018301,0.00214738,-0.00245105,0.010625,0.0416111,-0.00506111,-0.000451113,0.25745,-25.9609,2.11152,25.6061,0.764157,3.03307,-0.00996382,-2.09312,0.0619793,-1.24106,0.158268,-0.918145,-0.297689,-0.195176,-0.229609,-0.413245,-0.453624,-0.0796677,-0.246498,-0.0365882,
0.0106719,-0.196313,-0.333247,-1.65904,-0.0884789,-0.0985838,-0.383388,-0.0262098,0.00509405,-0.0212964,0.037378,0.524668,-0.421685,0.00329156,0,0,0,0,0,0,0,0.0109151,-0.196385,-0.333082,-1.65942,-0.0926092,1.47599,0.401976,-0.0018301,0.00214738,-0.00245105,0.010625,0.0416111,-0.00506111,-0.000451113,0.25745,-25.9609,2.11152,25.6061,0.764157,3.03307,-0.00996382,-2.09312,0.0619793,-1.24106,0.158268,-0.918145,-0.297689,-0.195176,-0.229609,-0.413245,-0.453624,-0.0796677,-0.246498,-0.0365882,
0.0106226,-0.196258,-0.333291,-1.65898,-0.0877483,-0.0983559,-0.383393,-0.0263035,0.00668743,-0.0219665,0.0340982,0.541287,-0.398676,0.00318407,0,0,0,0,0,0,0,0.0109151,-0.196385,-0.333082,-1.65942,-0.0926092,1.47599,0.401976,-0.0018301,0.00214738,-0.00245105,0.010625,0.0416111,-0.00506111,-0.000451113,0.25745,-25.9609,2.11152,25.6061,0.764157,3.03307,-0.00996382,-1.68038,0.00467229,-0.853892,0.249805,-0.762971,-0.249577,-0.145991,-0.21282,-0.381089,-0.371041,0.0274028,-0.258136,-0.0376356,
0.0105235,-0.196251,-0.33338,-1.65887,-0.0851953,-0.100242,-0.383379,-0.0247803,0.00183575,-0.0221831,0.0272806,0.638235,-0.471632,0.00349038,0,0,0,0,0,0,0,0.0109151,-0.196385,-0.333082,-1.65942,-0.0926092,1.47599,0.401976,-0.0018301,0.00214738,-0.00245105,0.010625,0.0416111,-0.00506111,-0.000451113,0.25745,-25.9609,2.11152,25.6061,0.764157,3.03307,-0.00996382,-1.26536,-0.125497,-0.811177,0.396945,-0.454445,-0.234258,-0.130323,-0.0436747,-0.386806,-0.425035,0.0763335,-0.276437,-0.0378781,
0.0104351,-0.196259,-0.333462,-1.65878,-0.0823353,-0.10236,-0.383364,-0.0220999,-0.00212539,-0.020639,0.0208774,0.715013,-0.529417,0.00365271,0,0,0,0,0,0,0,0.0108697,-0.196323,-0.333137,-1.65934,-0.0897608,1.47592,0.401983,-0.00533203,0.000276825,-0.00110783,0.00998546,0.139641,-0.0114465,0.00184249,0.435978,-25.5126,2.28609,25.9314,1.43066,2.70806,-0.0630644,-1.26536,-0.125497,-0.811177,0.396945,-0.454445,-0.234258,-0.130323,-0.0436747,-0.386806,-0.425035,0.0763335,-0.276437,-0.0378781,
0.0103599,-0.196279,-0.333534,-1.65872,-0.0792295,-0.104661,-0.383349,-0.0188061,-0.00507691,-0.0180482,0.0153163,0.77644,-0.575158,0.00372831,0,0,0,0,0,0,0,0.0108697,-0.196323,-0.333137,-1.65934,-0.0897608,1.47592,0.401983,-0.00533203,0.000276825,-0.00110783,0.00998546,0.139641,-0.0114465,0.00184249,0.435978,-25.5126,2.28609,25.9314,1.43066,2.70806,-0.0630644,-1.2843,-0.139126,-0.33706,0.404293,-0.670867,-0.242858,-0.136288,-0.254046,-0.397477,-0.241356,0.148555,-0.272573,-0.0388154,
0.0102989,-0.196308,-0.333594,-1.65868,-0.0759254,-0.107105,-0.383334,-0.0152369,-0.00712487,-0.014881,0.010608,0.82603,-0.611111,0.00374845,0,0,0,0,0,0,0,0.0108697,-0.196323,-0.333137,-1.65934,-0.0897608,1.47592,0.401983,-0.00533203,0.000276825,-0.00110783,0.00998546,0.139641,-0.0114465,0.00184249,0.435978,-25.5126,2.28609,25.9314,1.43066,2.70806,-0.0630644,-1.2843,-0.139126,-0.33706,0.404293,-0.670867,-0.242858,-0.136288,-0.254046,-0.397477,-0.241356,0.148555,-0.272573,-0.0388154,
0.0102525,-0.196342,-0.33364,-1.65865,-0.0724598,-0.109661,-0.383319,-0.0116064,-0.0084284,-0.0114474,0.00665186,0.866389,-0.639045,0.0037322,0,0,0,0,0,0,0,0.0108697,-0.196323,-0.333137,-1.65934,-0.0897608,1.47592,0.401983,-0.00533203,0.000276825,-0.00110783,0.00998546,0.139641,-0.0114465,0.00184249,0.435978,-25.5126,2.28609,25.9314,1.43066,2.70806,-0.0630644,-0.483883,-0.324942,0.0291718,0.649511,-0.155349,-0.184622,-0.0784182,-0.00701318,-0.376186,-0.27978,0.287403,-0.348944,-0.0396251,
0.0115125,-0.196509,-0.332374,-1.65927,-0.0894059,-0.100276,-0.383277,0.0725493,-0.0175833,0.0850971,0.00479555,0.368145,-0.630837,0.0120343,0,0,0,0,0,0,0,0.0108697,-0.196323,-0.333137,-1.65934,-0.0897608,1.47592,0.401983,-0.00533203,0.000276825,-0.00110783,0.00998546,0.139641,-0.0114465,0.00184249,0.435978,-25.5126,2.28609,25.9314,1.43066,2.70806,-0.0630644,-0.483883,-0.324942,0.0291718,0.649511,-0.155349,-0.184622,-0.0784182,-0.00701318,-0.376186,-0.27978,0.287403,-0.348944,-0.0396251,
0.0114915,-0.196477,-0.332417,-1.6592,-0.0858058,-0.100392,-0.383265,0.075009,-0.0197264,0.0867714,0.00374882,0.417818,-0.63414,0.0123714,0,0,0,0,0,0,0,0.0108697,-0.196323,-0.333137,-1.65934,-0.0897608,1.47592,0.401983,-0.00533203,0.000276825,-0.00110783,0.00998546,0.139641,-0.0114465,0.00184249,0.435978,-25.5126,2.28609,25.9314,1.43066,2.70806,-0.0630644,-0.0741048,-0.29618,0.131906,0.809193,0.168463,-0.0978515,0.0167819,0.178081,-0.331401,-0.393874,0.460005,-0.452675,-0.0398076,
0.0118671,-0.196573,-0.331985,-1.65923,-0.0838204,-0.103453,-0.383217,0.0939001,-0.0239211,0.1081,-0.00584702,0.496348,-0.765245,0.0119679,0,0,0,0,0,0,0,0.0105165,-0.19621,-0.333433,-1.659,-0.0813062,1.47404,0.401979,-0.0190287,0.000222267,-0.00750399,0.0160044,0.343606,-0.0876946,-0.000737178,0.995365,-25.8339,2.5638,25.6577,2.30957,1.97198,-0.0026396,0.0570229,-0.263156,0.204892,0.95821,0.321012,-0.0599408,0.065615,0.284728,-0.334832,-0.51377,0.609227,-0.585418,-0.0381842,
0.0123079,-0.196677,-0.33148,-1.65929,-0.0815505,-0.106943,-0.383171,0.110196,-0.0260572,0.126262,-0.0149024,0.567473,-0.872443,0.0115934,0,0,0,0,0,0,0,0.0105165,-0.19621,-0.333433,-1.659,-0.0813062,1.47404,0.401979,-0.0190287,0.000222267,-0.00750399,0.0160044,0.343606,-0.0876946,-0.000737178,0.995365,-25.8339,2.5638,25.6577,2.30957,1.97198,-0.0026396,0.0570229,-0.263156,0.204892,0.95821,0.321012,-0.0599408,0.065615,0.284728,-0.334832,-0.51377,0.609227,-0.585418,-0.0381842,
0.0128052,-0.196783,-0.330912,-1.65938,-0.079025,-0.110784,-0.383126,0.124311,-0.0265376,0.141832,-0.0231154,0.631388,-0.960344,0.0112504,0,0,0,0,0,0,0,0.0105165,-0.19621,-0.333433,-1.659,-0.0813062,1.47404,0.401979,-0.0190287,0.000222267,-0.00750399,0.0160044,0.343606,-0.0876946,-0.000737178,0.995365,-25.8339,2.5638,25.6577,2.30957,1.97198,-0.0026396,-0.800379,-0.0639751,0.614906,0.852161,-0.415587,-0.129728,0.0155588,-0.167306,-0.411435,-0.364195,0.683151,-0.697642,-0.0293161,
0.0133515,-0.196886,-0.330291,-1.6595,-0.0762711,-0.114914,-0.383082,0.136583,-0.0257668,0.155259,-0.0304379,0.688468,-1.03251,0.0109341,0,0,0,0,0,0,0,0.0105165,-0.19621,-0.333433,-1.659,-0.0813062,1.47404,0.401979,-0.0190287,0.000222267,-0.00750399,0.0160044,0.343606,-0.0876946,-0.000737178,0.995365,-25.8339,2.5638,25.6577,2.30957,1.97198,-0.0026396,-0.800379,-0.0639751,0.614906,0.852161,-0.415587,-0.129728,0.0155588,-0.167306,-0.411435,-0.364195,0.683151,-0.697642,-0.0293161,
0.0139406,-0.196982,-0.329624,-1.65965,-0.0733143,-0.119281,-0.383039,0.147282,-0.0240904,0.16689,-0.0369071,0.739203,-1.09179,0.0106392,0,0,0,0,0,0,0,0.0105165,-0.19621,-0.333433,-1.659,-0.0813062,1.47404,0.401979,-0.0190287,0.000222267,-0.00750399,0.0160044,0.343606,-0.0876946,-0.000737178,0.995365,-25.8339,2.5638,25.6577,2.30957,1.97198,-0.0026396,-0.653471,-0.134713,0.866803,0.839282,-0.316022,-0.145437,-0.0174761,-0.115183,-0.405357,-0.352856,0.63226,-0.761658,-0.0213082,
0.0122195,-0.196846,-0.331679,-1.65977,-0.0871464,-0.100142,-0.383236,0.155464,-0.0544369,0.172404,-0.0499056,0.278817,-0.616324,0.0144764,0,0,0,0,0,0,0,0.0104345,-0.196322,-0.333334,-1.65869,-0.0717657,1.47029,0.401984,0.00686712,-0.00722906,0.0105461,0.00524922,0.248971,-0.163312,-1.27841e-05,1.55078,-24.9611,3.93648,25.1578,1.60095,1.69366,-0.0026396,-0.653471,-0.134713,0.866803,0.839282,-0.316022,-0.145437,-0.0174761,-0.115183,-0.405357,-0.352856,0.63226,-0.761658,-0.0213082,
0.011887,-0.196906,-0.33177,-1.65922,-0.0681902,-0.106919,-0.383221,0.162748,-0.0577629,0.179679,-0.0580676,0.34634,-0.691271,0.0153871,0,0,0,0,0,0,0,0.0104345,-0.196322,-0.333334,-1.65869,-0.0717657,1.47029,0.401984,0.00686712,-0.00722906,0.0105461,0.00524922,0.248971,-0.163312,-1.27841e-05,1.55078,-24.9611,3.93648,25.1578,1.60095,1.69366,-0.0026396,-0.576207,0.0349016,0.874625,0.673268,-0.176378,-0.0642087,0.0267134,0.00235736,-0.273236,-0.425197,0.582492,-0.828542,-0.0166962,
0.0126642,-0.197146,-0.330903,-1.65949,-0.0665589,-0.110168,-0.383162,0.194291,-0.0599768,0.216514,-0.067553,0.407826,-0.812026,0.0145193,0,0,0,0,0,0,0,0.0104345,-0.196322,-0.333334,-1.65869,-0.0717657,1.47029,0.401984,0.00686712,-0.00722906,0.0105461,0.00524922,0.248971,-0.163312,-1.27841e-05,1.55078,-24.9611,3.93648,25.1578,1.60095,1.69366,-0.0026396,-0.809433,1.26232,1.13699,-0.180867,-0.378379,0.442491,0.504996,-0.115621,0.334865,-0.402042,0.704512,-0.94407,-0.014325,
0.0135462,-0.197384,-0.329917,-1.65979,-0.0646719,-0.11381,-0.383107,0.22051,-0.0594793,0.246706,-0.0758406,0.471739,-0.910503,0.0138103,0,0,0,0,0,0,0,0.0104345,-0.196322,-0.333334,-1.65869,-0.0717657,1.47029,0.401984,0.00686712,-0.00722906,0.0105461,0.00524922,0.248971,-0.163312,-1.27841e-05,1.55078,-24.9611,3.93648,25.1578,1.60095,1.69366,-0.0026396,-0.809433,1.26232,1.13699,-0.180867,-0.378379,0.442491,0.504996,-0.115621,0.334865,-0.402042,0.704512,-0.94407,-0.014325,
0.0145163,-0.197613,-0.32883,-1.66012,-0.0625327,-0.117772,-0.383054,0.242532,-0.0572201,0.271738,-0.0832627,0.534814,-0.990683,0.0132155,0,0,0,0,0,0,0,0.0104345,-0.196322,-0.333334,-1.65869,-0.0717657,1.47029,0.401984,0.00686712,-0.00722906,0.0105461,0.00524922,0.248971,-0.163312,-1.27841e-05,1.55078,-24.9611,3.93648,25.1578,1.60095,1.69366,-0.0026396,-0.993211,2.03583,0.719371,-0.621186,-0.276092,0.755706,0.819747,0.049701,0.676068,-0.644776,0.774253,-1.06157,-0.010438,
0.015561,-0.197828,-0.327659,-1.66048,-0.0601523,-0.121996,-0.383004,0.261177,-0.0538164,0.292693,-0.0899206,0.595094,-1.05594,0.0127048,0,0,0,0,0,0,0,0.0104345,-0.196322,-0.333334,-1.65869,-0.0717657,1.47029,0.401984,0.00686712,-0.00722906,0.0105461,0.00524922,0.248971,-0.163312,-1.27841e-05,1.55078,-24.9611,3.93648,25.1578,1.60095,1.69366,-0.0026396,-0.993211,2.03583,0.719371,-0.621186,-0.276092,0.755706,0.819747,0.049701,0.676068,-0.644776,0.774253,-1.06157,-0.010438,
0.0166693,-0.198027,-0.326417,-1.66087,-0.0575464,-0.126432,-0.382954,0.277056,-0.0496885,0.310376,-0.0958365,0.651483,-1.10907,0.0122611,0,0,0,0,0,0,0,0.0108068,-0.196559,-0.332534,-1.65853,-0.0636774,1.46293,0.401984,0.0260446,-0.00967054,0.0388247,-0.0112392,0.171148,-0.206336,-0.00226084,2.01099,-25.5364,4.33717,25.5823,0.91705,2.19079,0.0440523,-2.64286,0.93829,0.864929,-0.0583678,-1.54093,-0.0343621,0.0451806,-0.669088,-0.148993,-0.381564,0.482202,-1.04398,-0.0020381,
0.0125724,-0.197183,-0.331074,-1.65971,-0.0694396,-0.106673,-0.383226,0.238506,-0.0826402,0.260353,-0.105171,0.216836,-0.672524,0.0151189,0,0,0,0,0,0,0,0.0108068,-0.196559,-0.332534,-1.65853,-0.0636774,1.46293,0.401984,0.0260446,-0.00967054,0.0388247,-0.0112392,0.171148,-0.206336,-0.00226084,2.01099,-25.5364,4.33717,25.5823,0.91705,2.19079,0.0440523,-2.64286,0.93829,0.864929,-0.0583678,-1.54093,-0.0343621,0.0451806,-0.669088,-0.148993,-0.381564,0.482202,-1.04398,-0.0020381,
0.0130619,-0.197368,-0.330128,-1.65965,-0.0617145,-0.114393,-0.383202,0.244621,-0.0771145,0.2676,-0.111039,0.201486,-0.695868,0.0165456,0,0,0,0,0,0,0,0.0108068,-0.196559,-0.332534,-1.65853,-0.0636774,1.46293,0.401984,0.0260446,-0.00967054,0.0388247,-0.0112392,0.171148,-0.206336,-0.00226084,2.01099,-25.5364,4.33717,25.5823,0.91705,2.19079,0.0440523,-2.28587,-1.10358,0.801163,1.16615,-1.17204,-0.888163,-0.79642,-0.426103,-1.10346,-0.417156,0.0920968,-0.989763,0.002974,
0.0142092,-0.197677,-0.32886,-1.66014,-0.0606553,-0.117653,-0.38314,0.286832,-0.077297,0.317149,-0.120832,0.264802,-0.814917,0.0154392,0,0,0,0,0,0,0,0.0108068,-0.196559,-0.332534,-1.65853,-0.0636774,1.46293,0.401984,0.0260446,-0.00967054,0.0388247,-0.0112392,0.171148,-0.206336,-0.00226084,2.01099,-25.5364,4.33717,25.5823,0.91705,2.19079,0.0440523,-1.76397,-0.075804,0.295557,0.55092,-0.55367,-0.331815,-0.256232,0.022192,-0.492063,-0.718557,0.200669,-1.04856,0.00349493,
0.0154958,-0.197975,-0.32743,-1.66065,-0.0593138,-0.1213,-0.383082,0.321642,-0.074381,0.357467,-0.129014,0.335389,-0.91183,0.0145593,0,0,0,0,0,0,0,0.0108068,-0.196559,-0.332534,-1.65853,-0.0636774,1.46293,0.401984,0.0260446,-0.00967054,0.0388247,-0.0112392,0.171148,-0.206336,-0.00226084,2.01099,-25.5364,4.33717,25.5823,0.91705,2.19079,0.0440523,-1.76397,-0.075804,0.295557,0.55092,-0.55367,-0.331815,-0.256232,0.022192,-0.492063,-0.718557,0.200669,-1.04856,0.00349493,
0.0168984,-0.198253,-0.325867,-1.6612,-0.057682,-0.125261,-0.383026,0.350666,-0.0696529,0.390668,-0.136262,0.407937,-0.990335,0.0138818,0,0,0,0,0,0,0,0.0125333,-0.197214,-0.330022,-1.65898,-0.0553047,1.45306,0.401999,0.0678002,-0.0235455,0.0786668,-0.0147877,0.243699,-0.337971,-0.00039839,2.97107,-25.211,5.36073,24.6857,1.26495,2.42974,-0.0026396,-2.10161,2.22205,-0.163843,-0.933029,-0.672771,0.638876,0.692509,0.0260396,0.618861,-0.874422,0.454002,-1.098,0.00748217,
0.0183988,-0.198508,-0.324194,-1.66177,-0.0557654,-0.129478,-0.382973,0.375087,-0.0637457,0.418243,-0.142506,0.479154,-1.054,0.0132224,0,0,0,0,0,0,0,0.0125333,-0.197214,-0.330022,-1.65898,-0.0553047,1.45306,0.401999,0.0678002,-0.0235455,0.0786668,-0.0147877,0.243699,-0.337971,-0.00039839,2.97107,-25.211,5.36073,24.6857,1.26495,2.42974,-0.0026396,-2.10161,2.22205,-0.163843,-0.933029,-0.672771,0.638876,0.692509,0.0260396,0.618861,-0.874422,0.454002,-1.098,0.00748217,
0.0199814,-0.19874,-0.322429,-1.66237,-0.0535766,-0.133853,-0.382923,0.395654,-0.0578557,0.44139,-0.150125,0.547202,-1.09394,0.0126898,0,0,0,0,0,0,0,0.0125333,-0.197214,-0.330022,-1.65898,-0.0553047,1.45306,0.401999,0.0678002,-0.0235455,0.0786668,-0.0147877,0.243699,-0.337971,-0.00039839,2.97107,-25.211,5.36073,24.6857,1.26495,2.42974,-0.0026396,-2.77259,1.42091,-0.360807,-0.514856,-1.14455,0.162979,0.216221,-0.224372,0.123784,-0.779402,0.233882,-1.00281,0.0110875,
0.0136642,-0.197635,-0.329526,-1.66012,-0.0627973,-0.114152,-0.383222,0.31095,-0.101385,0.337408,-0.154908,0.0895528,-0.677322,0.0152372,0,0,0,0,0,0,0,0.0125333,-0.197214,-0.330022,-1.65898,-0.0553047,1.45306,0.401999,0.0678002,-0.0235455,0.0786668,-0.0147877,0.243699,-0.337971,-0.00039839,2.97107,-25.211,5.36073,24.6857,1.26495,2.42974,-0.0026396,-2.77259,1.42091,-0.360807,-0.514856,-1.14455,0.162979,0.216221,-0.224372,0.123784,-0.779402,0.233882,-1.00281,0.0110875,
0.0156792,-0.198365,-0.326688,-1.66061,-0.0534625,-0.125003,-0.383177,0.33008,-0.104864,0.358497,-0.158674,0.167952,-0.740165,0.0169276,0,0,0,0,0,0,0,0.0125333,-0.197214,-0.330022,-1.65898,-0.0553047,1.45306,0.401999,0.0678002,-0.0235455,0.0786668,-0.0147877,0.243699,-0.337971,-0.00039839,2.97107,-25.211,5.36073,24.6857,1.26495,2.42974,-0.0026396,-3.41659,-0.584802,-0.297171,0.649536,-1.68442,-0.842029,-0.759713,-0.559224,-0.982623,-0.562779,-0.146609,-0.867751,0.0152682,
0.0171988,-0.198773,-0.325019,-1.66128,-0.0525775,-0.128398,-0.383114,0.379899,-0.101899,0.417283,-0.168977,0.221243,-0.848614,0.0157152,0,0,0,0,0,0,0,0.0125333,-0.197214,-0.330022,-1.65898,-0.0553047,1.45306,0.401999,0.0678002,-0.0235455,0.0786668,-0.0147877,0.243699,-0.337971,-0.00039839,2.97107,-25.211,5.36073,24.6857,1.26495,2.42974,-0.0026396,-3.27713,-0.379732,-0.13265,0.490172,-1.70883,-0.722284,-0.636168,-0.629417,-0.850356,-0.45542,-0.0979716,-0.806744,0.0174166,
0.0188812,-0.199155,-0.32316,-1.66199,-0.0514268,-0.132133,-0.383056,0.42061,-0.0956924,0.464694,-0.177343,0.287673,-0.933874,0.0146932,0,0,0,0,0,0,0,0.0171386,-0.198911,-0.32469,-1.66076,-0.0481576,1.43836,0.402012,0.129916,-0.0495591,0.166053,-0.0480922,0.147921,-0.419482,0.000169481,3.25275,-25.3618,5.51149,24.2889,1.94976,2.2503,0.0101778,-3.27713,-0.379732,-0.13265,0.490172,-1.70883,-0.722284,-0.636168,-0.629417,-0.850356,-0.45542,-0.0979716,-0.806744,0.0174166,
0.0206978,-0.19951,-0.321146,-1.66274,-0.0499865,-0.136065,-0.383,0.454148,-0.0886343,0.503429,-0.187709,0.360085,-0.98299,0.0138846,0,0,0,0,0,0,0,0.0171386,-0.198911,-0.32469,-1.66076,-0.0481576,1.43836,0.402012,0.129916,-0.0495591,0.166053,-0.0480922,0.147921,-0.419482,0.000169481,3.25275,-25.3618,5.51149,24.2889,1.94976,2.2503,0.0101778,-2.22048,2.12679,-0.960468,-0.933463,-0.636805,0.579548,0.640636,0.102683,0.560555,-0.940854,0.33493,-0.878398,0.0184018,
0.0226259,-0.199833,-0.319005,-1.66354,-0.0482517,-0.140058,-0.382947,0.482039,-0.0808801,0.53524,-0.198965,0.433711,-0.998111,0.0132723,0,0,0,0,0,0,0,0.0171386,-0.198911,-0.32469,-1.66076,-0.0481576,1.43836,0.402012,0.129916,-0.0495591,0.166053,-0.0480922,0.147921,-0.419482,0.000169481,3.25275,-25.3618,5.51149,24.2889,1.94976,2.2503,0.0101778,-2.22048,2.12679,-0.960468,-0.933463,-0.636805,0.579548,0.640636,0.102683,0.560555,-0.940854,0.33493,-0.878398,0.0184018,
0.0164752,-0.198572,-0.326632,-1.66101,-0.0542099,-0.124766,-0.383215,0.404526,-0.123149,0.378871,-0.197663,0.09198,-0.720226,0.014433,0,0,0,0,0,0,0,0.0171386,-0.198911,-0.32469,-1.66076,-0.0481576,1.43836,0.402012,0.129916,-0.0495591,0.166053,-0.0480922,0.147921,-0.419482,0.000169481,3.25275,-25.3618,5.51149,24.2889,1.94976,2.2503,0.0101778,-3.2127,0.704941,-0.929461,0.0344124,-1.40275,-0.227752,-0.159628,-0.342854,-0.332786,-0.794581,0.192206,-0.852241,0.0240574,
0.0214977,-0.2003,-0.320641,-1.66288,-0.0471654,-0.14023,-0.383175,0.430853,-0.120779,0.421751,-0.20088,0.108971,-0.770774,0.0160586,0,0,0,0,0,0,0,0.0171386,-0.198911,-0.32469,-1.66076,-0.0481576,1.43836,0.402012,0.129916,-0.0495591,0.166053,-0.0480922,0.147921,-0.419482,0.000169481,3.25275,-25.3618,5.51149,24.2889,1.94976,2.2503,0.0101778,-3.2127,0.704941,-0.929461,0.0344124,-1.40275,-0.227752,-0.159628,-0.342854,-0.332786,-0.794581,0.192206,-0.852241,0.0240574,
0.0234176,-0.200764,-0.318699,-1.66375,-0.0464828,-0.14359,-0.383115,0.479954,-0.115894,0.485282,-0.216792,0.170652,-0.840081,0.0149321,0,0,0,0,0,0,0,0.0225101,-0.201041,-0.31795,-1.66331,-0.0465083,1.42544,0.402025,0.194294,-0.0635271,0.238437,-0.0901077,0.082,-0.427884,-0.000340488,4.62146,-24.9135,7.01112,24.8602,2.29766,2.09832,0.0239107,-4.30439,-1.57244,-1.05943,1.45875,-2.20246,-1.41328,-1.28356,-0.798137,-1.67698,-0.621883,-0.180313,-0.744087,0.0247102,
0.025498,-0.201195,-0.31655,-1.66467,-0.0455077,-0.147065,-0.383059,0.52011,-0.107941,0.537359,-0.231138,0.243754,-0.868778,0.0141215,0,0,0,0,0,0,0,0.0225101,-0.201041,-0.31795,-1.66331,-0.0465083,1.42544,0.402025,0.194294,-0.0635271,0.238437,-0.0901077,0.082,-0.427884,-0.000340488,4.62146,-24.9135,7.01112,24.8602,2.29766,2.09832,0.0239107,-2.57974,1.24804,-0.84841,-0.481727,-1.04743,0.146618,0.242518,-0.193077,0.076891,-0.712986,0.157556,-0.725784,0.0177848,
0.0277114,-0.201585,-0.314228,-1.66564,-0.0442236,-0.150567,-0.383005,0.553338,-0.0973996,0.580557,-0.241582,0.321028,-0.875533,0.0134537,0,0,0,0,0,0,0,0.0225101,-0.201041,-0.31795,-1.66331,-0.0465083,1.42544,0.402025,0.194294,-0.0635271,0.238437,-0.0901077,0.082,-0.427884,-0.000340488,4.62146,-24.9135,7.01112,24.8602,2.29766,2.09832,0.0239107,-2.57974,1.24804,-0.84841,-0.481727,-1.04743,0.146618,0.242518,-0.193077,0.076891,-0.712986,0.157556,-0.725784,0.0177848,
0.0300354,-0.201927,-0.31176,-1.66663,-0.042632,-0.154045,-0.382953,0.581008,-0.0854935,0.616945,-0.248655,0.397898,-0.86944,0.0128899,0,0,0,0,0,0,0,0.0225101,-0.201041,-0.31795,-1.66331,-0.0465083,1.42544,0.402025,0.194294,-0.0635271,0.238437,-0.0901077,0.082,-0.427884,-0.000340488,4.62146,-24.9135,7.01112,24.8602,2.29766,2.09832,0.0239107,-2.23957,2.2844,0.177948,-1.20888,-1.20729,0.657001,0.684432,-0.451328,0.713069,-0.383288,0.402627,-0.745174,0.0190973,
0.0219441,-0.200434,-0.320835,-1.66323,-0.0473684,-0.13999,-0.383231,0.474359,-0.132405,0.405976,-0.235296,0.088562,-0.749875,0.012211,0,0,0,0,0,0,0,0.0225101,-0.201041,-0.31795,-1.66331,-0.0465083,1.42544,0.402025,0.194294,-0.0635271,0.238437,-0.0901077,0.082,-0.427884,-0.000340488,4.62146,-24.9135,7.01112,24.8602,2.29766,2.09832,0.0239107,-2.23957,2.2844,0.177948,-1.20888,-1.20729,0.657001,0.684432,-0.451328,0.713069,-0.383288,0.402627,-0.745174,0.0190973,
0.0277972,-0.202499,-0.31353,-1.66595,-0.045699,-0.152649,-0.38319,0.506455,-0.125442,0.443614,-0.251947,0.110372,-0.669991,0.0138886,0,0,0,0,0,0,0,0.0225101,-0.201041,-0.31795,-1.66331,-0.0465083,1.42544,0.402025,0.194294,-0.0635271,0.238437,-0.0901077,0.082,-0.427884,-0.000340488,4.62146,-24.9135,7.01112,24.8602,2.29766,2.09832,0.0239107,-3.07018,0.258899,-0.51144,0.272122,-1.51852,-0.372667,-0.265967,-0.513515,-0.52419,-0.573687,0.175753,-0.764692,0.0224074,
0.0300194,-0.202969,-0.311527,-1.66702,-0.0449812,-0.155432,-0.383138,0.555542,-0.117424,0.500753,-0.267217,0.179461,-0.695816,0.0130213,0,0,0,0,0,0,0,0.0299128,-0.203754,-0.310684,-1.66699,-0.046268,1.41325,0.402051,0.255372,-0.0845795,0.289448,-0.131239,0.0108019,-0.38999,0.00252296,4.87537,-24.4374,7.23726,24.761,1.97357,2.15783,0.00376909,-3.07018,0.258899,-0.51144,0.272122,-1.51852,-0.372667,-0.265967,-0.513515,-0.52419,-0.573687,0.175753,-0.764692,0.0224074,
0.0324059,-0.203393,-0.309335,-1.66813,-0.0439597,-0.158254,-0.383089,0.596627,-0.105937,0.547984,-0.276528,0.255362,-0.705443,0.0123624,0,0,0,0,0,0,0,0.0299128,-0.203754,-0.310684,-1.66699,-0.046268,1.41325,0.402051,0.255372,-0.0845795,0.289448,-0.131239,0.0108019,-0.38999,0.00252296,4.87537,-24.4374,7.23726,24.761,1.97357,2.15783,0.00376909,-4.0119,-0.298852,-0.727078,0.668781,-2.16864,-0.760088,-0.616877,-0.859927,-0.974868,-0.524999,0.10553,-0.747059,0.0254298,
0.0349318,-0.203765,-0.306985,-1.66925,-0.0426296,-0.161071,-0.383042,0.631467,-0.093072,0.587614,-0.282271,0.332539,-0.704185,0.011836,0,0,0,0,0,0,0,0.0299128,-0.203754,-0.310684,-1.66699,-0.046268,1.41325,0.402051,0.255372,-0.0845795,0.289448,-0.131239,0.0108019,-0.38999,0.00252296,4.87537,-24.4374,7.23726,24.761,1.97357,2.15783,0.00376909,-3.0634,1.93403,-0.605162,-0.867085,-1.50087,0.390694,0.443529,-0.476125,0.387045,-0.618033,0.359203,-0.781872,0.0226693,
0.037577,-0.204085,-0.304499,-1.6704,-0.040999,-0.163853,-0.382996,0.661314,-0.0799792,0.621276,-0.285757,0.407654,-0.695562,0.0114018,0,0,0,0,0,0,0,0.0299128,-0.203754,-0.310684,-1.66699,-0.046268,1.41325,0.402051,0.255372,-0.0845795,0.289448,-0.131239,0.0108019,-0.38999,0.00252296,4.87537,-24.4374,7.23726,24.761,1.97357,2.15783,0.00376909,-3.0634,1.93403,-0.605162,-0.867085,-1.50087,0.390694,0.443529,-0.476125,0.387045,-0.618033,0.359203,-0.781872,0.0226693,
0.0403254,-0.204354,-0.301899,-1.67155,-0.0390838,-0.166581,-0.382952,0.687087,-0.0672822,0.650155,-0.287731,0.478784,-0.681917,0.0110361,0,0,0,0,0,0,0,0.0299128,-0.203754,-0.310684,-1.66699,-0.046268,1.41325,0.402051,0.255372,-0.0845795,0.289448,-0.131239,0.0108019,-0.38999,0.00252296,4.87537,-24.4374,7.23726,24.761,1.97357,2.15783,0.00376909,-1.81421,2.43514,-0.440155,-1.21211,-0.628732,0.804496,0.822837,-0.0105457,0.854448,-0.687102,0.449432,-0.76071,0.0226433,
0.0277938,-0.202579,-0.31352,-1.66624,-0.0456885,-0.152606,-0.383239,0.506182,-0.131973,0.444226,-0.280059,0.111906,-0.673378,0.0104039,0,0,0,0,0,0,0,0.0385154,-0.206622,-0.302687,-1.67135,-0.0461594,1.40332,0.402063,0.317064,-0.106428,0.276479,-0.162734,0.00391997,-0.297228,-0.00152293,5.96637,-24.0883,7.73713,24.4119,1.75384,2.42333,0.0303194,-1.81421,2.43514,-0.440155,-1.21211,-0.628732,0.804496,0.822837,-0.0105457,0.854448,-0.687102,0.449432,-0.76071,0.0226433,
0.0443416,-0.208184,-0.297654,-1.67447,-0.0452633,-0.172701,-0.383187,0.542032,-0.125532,0.484701,-0.284336,0.13856,-0.484315,0.0116386,0,0,0,0,0,0,0,0.0385154,-0.206622,-0.302687,-1.67135,-0.0461594,1.40332,0.402063,0.317064,-0.106428,0.276479,-0.162734,0.00391997,-0.297228,-0.00152293,5.96637,-24.0883,7.73713,24.4119,1.75384,2.42333,0.0303194,-2.82181,0.527849,-0.829553,0.154556,-1.2701,-0.189449,-0.0661193,-0.351817,-0.354118,-0.669444,0.264772,-0.710746,0.026629,
0.0466834,-0.208638,-0.295514,-1.67565,-0.0443982,-0.174742,-0.383143,0.585461,-0.113506,0.534866,-0.295205,0.216276,-0.510441,0.0109309,0,0,0,0,0,0,0,0.0385154,-0.206622,-0.302687,-1.67135,-0.0461594,1.40332,0.402063,0.317064,-0.106428,0.276479,-0.162734,0.00391997,-0.297228,-0.00152293,5.96637,-24.0883,7.73713,24.4119,1.75384,2.42333,0.0303194,-2.42147,-0.985287,-1.88643,1.39453,-0.559056,-0.813956,-0.661962,0.188924,-1.14686,-1.1034,0.193304,-0.695627,0.0287418,
0.049172,-0.209038,-0.293207,-1.67686,-0.0432147,-0.176838,-0.383102,0.622148,-0.0999675,0.576826,-0.301978,0.295872,-0.523978,0.0103591,0,0,0,0,0,0,0,0.0385154,-0.206622,-0.302687,-1.67135,-0.0461594,1.40332,0.402063,0.317064,-0.106428,0.276479,-0.162734,0.00391997,-0.297228,-0.00152293,5.96637,-24.0883,7.73713,24.4119,1.75384,2.42333,0.0303194,-2.42147,-0.985287,-1.88643,1.39453,-0.559056,-0.813956,-0.661962,0.188924,-1.14686,-1.1034,0.193304,-0.695627,0.0287418,
0.0517859,-0.209383,-0.290758,-1.67809,-0.0417198,-0.178951,-0.383062,0.653475,-0.0862085,0.612349,-0.306275,0.373725,-0.528219,0.0098715,0,0,0,0,0,0,0,0.0385154,-0.206622,-0.302687,-1.67135,-0.0461594,1.40332,0.402063,0.317064,-0.106428,0.276479,-0.162734,0.00391997,-0.297228,-0.00152293,5.96637,-24.0883,7.73713,24.4119,1.75384,2.42333,0.0303194,-2.16123,1.84242,-1.17875,-0.602805,-0.672004,0.501515,0.589262,0.0416849,0.414047,-0.882965,0.521374,-0.716176,0.0247031,
0.0545077,-0.209674,-0.288187,-1.67932,-0.039929,-0.181054,-0.383024,0.680446,-0.0728851,0.642721,-0.30892,0.447712,-0.525633,0.00944127,0,0,0,0,0,0,0,0.0385154,-0.206622,-0.302687,-1.67135,-0.0461594,1.40332,0.402063,0.317064,-0.106428,0.276479,-0.162734,0.00391997,-0.297228,-0.00152293,5.96637,-24.0883,7.73713,24.4119,1.75384,2.42333,0.0303194,-2.16123,1.84242,-1.17875,-0.602805,-0.672004,0.501515,0.589262,0.0416849,0.414047,-0.882965,0.521374,-0.716176,0.0247031,
0.0421734,-0.207682,-0.299593,-1.67334,-0.0458176,-0.170763,-0.383233,0.489832,-0.133424,0.423876,-0.265871,0.0687118,-0.44164,0.012532,0,0,0,0,0,0,0,0.0494709,-0.209851,-0.293226,-1.67632,-0.0459544,1.39416,0.402087,0.35012,-0.101303,0.294008,-0.169603,0.0204895,-0.252971,0.000385147,1.12232,-24.5882,3.4366,24.6381,1.03973,2.61559,-0.0026396,-2.22284,1.74922,-0.574594,-0.668352,-0.965287,0.456623,0.493964,-0.222548,0.435787,-0.613599,0.476215,-0.676889,0.0226467,
0.0554992,-0.21132,-0.287977,-1.67947,-0.0447403,-0.180723,-0.383144,0.55635,-0.116453,0.499957,-0.281754,0.165913,-0.384352,0.0129193,0,0,0,0,0,0,0,0.0494709,-0.209851,-0.293226,-1.67632,-0.0459544,1.39416,0.402087,0.35012,-0.101303,0.294008,-0.169603,0.0204895,-0.252971,0.000385147,1.12232,-24.5882,3.4366,24.6381,1.03973,2.61559,-0.0026396,-3.05974,0.204549,-1.18841,0.412902,-1.37652,-0.333379,-0.223093,-0.391217,-0.514968,-0.706237,0.275277,-0.637214,0.022709,
0.0578911,-0.211737,-0.285784,-1.68063,-0.0437708,-0.182378,-0.383096,0.597997,-0.104371,0.548193,-0.289253,0.242386,-0.413723,0.0119809,0,0,0,0,0,0,0,0.0494709,-0.209851,-0.293226,-1.67632,-0.0459544,1.39416,0.402087,0.35012,-0.101303,0.294008,-0.169603,0.0204895,-0.252971,0.000385147,1.12232,-24.5882,3.4366,24.6381,1.03973,2.61559,-0.0026396,-3.05974,0.204549,-1.18841,0.412902,-1.37652,-0.333379,-0.223093,-0.391217,-0.514968,-0.706237,0.275277,-0.637214,0.022709,
0.060424,-0.212103,-0.28343,-1.6818,-0.0424902,-0.184108,-0.383051,0.633203,-0.0913998,0.588622,-0.293845,0.320126,-0.432546,0.0112164,0,0,0,0,0,0,0,0.0494709,-0.209851,-0.293226,-1.67632,-0.0459544,1.39416,0.402087,0.35012,-0.101303,0.294008,-0.169603,0.0204895,-0.252971,0.000385147,1.12232,-24.5882,3.4366,24.6381,1.03973,2.61559,-0.0026396,-2.6941,1.15593,-1.63652,-0.155077,-0.93966,0.157879,0.281644,-0.0639535,0.00259833,-0.927834,0.411862,-0.646371,0.0201037,
0.063077,-0.212417,-0.280938,-1.68299,-0.0409067,-0.185879,-0.383009,0.663267,-0.0785348,0.622873,-0.296813,0.395892,-0.442671,0.0106359,0,0,0,0,0,0,0,0.0494709,-0.209851,-0.293226,-1.67632,-0.0459544,1.39416,0.402087,0.35012,-0.101303,0.294008,-0.169603,0.0204895,-0.252971,0.000385147,1.12232,-24.5882,3.4366,24.6381,1.03973,2.61559,-0.0026396,-2.6941,1.15593,-1.63652,-0.155077,-0.93966,0.157879,0.281644,-0.0639535,0.00259833,-0.927834,0.411862,-0.646371,0.0201037,
0.0658336,-0.212682,-0.27833,-1.68419,-0.0390356,-0.187662,-0.382968,0.689138,-0.0662293,0.652153,-0.298684,0.467768,-0.445891,0.0101989,0,0,0,0,0,0,0,0.0616314,-0.21328,-0.282092,-1.68269,-0.0452454,1.38767,0.402096,0.38629,-0.107156,0.339208,-0.207986,0.0100704,-0.15929,-0.00112474,-1.08349,-24.9889,1.3141,25.9314,1.39953,2.41692,0.0303194,-2.22325,1.73332,-1.07148,-0.558955,-0.763778,0.474766,0.507632,-0.0264829,0.433063,-0.815735,0.538217,-0.686343,0.0166323,
0.0686797,-0.212901,-0.27562,-1.68538,-0.0368968,-0.189437,-0.382929,0.711537,-0.0546927,0.67737,-0.299716,0.534701,-0.443691,0.0098271,0,0,0,0,0,0,0,0.0616314,-0.21328,-0.282092,-1.68269,-0.0452454,1.38767,0.402096,0.38629,-0.107156,0.339208,-0.207986,0.0100704,-0.15929,-0.00112474,-1.08349,-24.9889,1.3141,25.9314,1.39953,2.41692,0.0303194,-2.22325,1.73332,-1.07148,-0.558955,-0.763778,0.474766,0.507632,-0.0264829,0.433063,-0.815735,0.538217,-0.686343,0.0166323,
0.0532738,-0.210854,-0.289977,-1.67834,-0.045404,-0.179186,-0.383196,0.506357,-0.125342,0.441673,-0.268004,0.0960294,-0.343466,0.0140976,0,0,0,0,0,0,0,0.0616314,-0.21328,-0.282092,-1.68269,-0.0452454,1.38767,0.402096,0.38629,-0.107156,0.339208,-0.207986,0.0100704,-0.15929,-0.00112474,-1.08349,-24.9889,1.3141,25.9314,1.39953,2.41692,0.0303194,-2.72983,0.259335,-1.23973,0.401927,-1.06819,-0.232294,-0.138516,-0.198403,-0.406958,-0.796982,0.327785,-0.664313,0.0161051,
0.0679624,-0.214619,-0.2765,-1.68588,-0.0438295,-0.186308,-0.38313,0.577118,-0.103603,0.523349,-0.277973,0.189757,-0.31236,0.0133626,0,0,0,0,0,0,0,0.0616314,-0.21328,-0.282092,-1.68269,-0.0452454,1.38767,0.402096,0.38629,-0.107156,0.339208,-0.207986,0.0100704,-0.15929,-0.00112474,-1.08349,-24.9889,1.3141,25.9314,1.39953,2.41692,0.0303194,-2.72983,0.259335,-1.23973,0.401927,-1.06819,-0.232294,-0.138516,-0.198403,-0.406958,-0.796982,0.327785,-0.664313,0.0161051,
0.0704252,-0.214987,-0.274227,-1.68702,-0.0427552,-0.187687,-0.38308,0.615694,-0.0920077,0.568056,-0.283209,0.268584,-0.344621,0.0124313,0,0,0,0,0,0,0,0.0616314,-0.21328,-0.282092,-1.68269,-0.0452454,1.38767,0.402096,0.38629,-0.107156,0.339208,-0.207986,0.0100704,-0.15929,-0.00112474,-1.08349,-24.9889,1.3141,25.9314,1.39953,2.41692,0.0303194,-3.14208,-1.36981,-1.35718,1.49032,-1.36472,-0.998254,-0.834541,-0.404148,-1.32799,-0.728134,0.138216,-0.60247,0.0157332,
0.0730189,-0.215308,-0.271805,-1.68816,-0.0413678,-0.189152,-0.383033,0.648441,-0.080058,0.605698,-0.286605,0.346833,-0.36643,0.0117244,0,0,0,0,0,0,0,0.0799249,-0.217326,-0.265195,-1.6917,-0.0428299,1.38266,0.402113,0.443302,-0.0839887,0.36885,-0.209287,0.0347125,-0.0728584,-0.00100625,-1.03589,-24.9889,1.3379,26.8518,0.984799,2.24389,0.050461,-1.43036,0.890638,-0.815169,-0.0231331,-0.276713,0.223656,0.333377,0.17092,0.0643939,-0.755589,0.465218,-0.622375,0.011177,
0.0757249,-0.215581,-0.269254,-1.68932,-0.0396799,-0.190671,-0.382989,0.676485,-0.068387,0.637695,-0.288884,0.421985,-0.379547,0.0111384,0,0,0,0,0,0,0,0.0799249,-0.217326,-0.265195,-1.6917,-0.0428299,1.38266,0.402113,0.443302,-0.0839887,0.36885,-0.209287,0.0347125,-0.0728584,-0.00100625,-1.03589,-24.9889,1.3379,26.8518,0.984799,2.24389,0.050461,-1.43036,0.890638,-0.815169,-0.0231331,-0.276713,0.223656,0.333377,0.17092,0.0643939,-0.755589,0.465218,-0.622375,0.011177,
0.0785275,-0.21581,-0.266593,-1.69048,-0.0377096,-0.192213,-0.382946,0.700664,-0.0572874,0.665113,-0.290337,0.492583,-0.385632,0.0106452,0,0,0,0,0,0,0,0.0799249,-0.217326,-0.265195,-1.6917,-0.0428299,1.38266,0.402113,0.443302,-0.0839887,0.36885,-0.209287,0.0347125,-0.0728584,-0.00100625,-1.03589,-24.9889,1.3379,26.8518,0.984799,2.24389,0.050461,-0.50744,2.18325,0.749948,-1.05689,-0.195889,0.903076,0.909643,0.000527742,0.947873,-0.261548,0.613774,-0.59842,0.0111047,
0.081414,-0.215998,-0.263838,-1.69164,-0.0354781,-0.193758,-0.382905,0.721625,-0.0468951,0.688769,-0.291105,0.557871,-0.386094,0.0102244,0,0,0,0,0,0,0,0.0799249,-0.217326,-0.265195,-1.6917,-0.0428299,1.38266,0.402113,0.443302,-0.0839887,0.36885,-0.209287,0.0347125,-0.0728584,-0.00100625,-1.03589,-24.9889,1.3379,26.8518,0.984799,2.24389,0.050461,-0.50744,2.18325,0.749948,-1.05689,-0.195889,0.903076,0.909643,0.000527742,0.947873,-0.261548,0.613774,-0.59842,0.0111047,
0.0656539,-0.214205,-0.278593,-1.68477,-0.0445885,-0.185059,-0.383183,0.531112,-0.113393,0.469678,-0.268934,0.114504,-0.268407,0.014556,0,0,0,0,0,0,0,0.0799249,-0.217326,-0.265195,-1.6917,-0.0428299,1.38266,0.402113,0.443302,-0.0839887,0.36885,-0.209287,0.0347125,-0.0728584,-0.00100625,-1.03589,-24.9889,1.3379,26.8518,0.984799,2.24389,0.050461,-1.61396,0.0180232,0.0288407,0.338345,-0.720863,-0.174142,-0.114556,-0.216506,-0.290528,-0.386228,0.245576,-0.590325,0.0100949,
0.0865947,-0.218403,-0.259226,-1.69485,-0.0409262,-0.190365,-0.383113,0.600817,-0.0834559,0.550126,-0.272738,0.232543,-0.237594,0.0135329,0,0,0,0,0,0,0,0.0799249,-0.217326,-0.265195,-1.6917,-0.0428299,1.38266,0.402113,0.443302,-0.0839887,0.36885,-0.209287,0.0347125,-0.0728584,-0.00100625,-1.03589,-24.9889,1.3379,26.8518,0.984799,2.24389,0.050461,-2.78619,-1.04186,-0.788606,1.11029,-1.26743,-0.749161,-0.599547,-0.417401,-1.01469,-0.576898,0.106734,-0.616896,0.00877554,
0.0891395,-0.218698,-0.256861,-1.69595,-0.039684,-0.191461,-0.383063,0.636204,-0.0738754,0.591231,-0.277274,0.310548,-0.273908,0.012648,0,0,0,0,0,0,0,0.0936512,-0.219287,-0.25231,-1.69766,-0.0398193,1.3806,0.402122,0.46401,-0.0514651,0.430864,-0.175967,0.150881,-0.0584311,-0.00173758,2.82032,-24.0883,4.91243,25.0348,2.29766,1.85937,0.0440523,-2.78619,-1.04186,-0.788606,1.11029,-1.26743,-0.749161,-0.599547,-0.417401,-1.01469,-0.576898,0.106734,-0.616896,0.00877554,
0.0918047,-0.218954,-0.254358,-1.69707,-0.0381365,-0.192659,-0.383015,0.666298,-0.0638852,0.625916,-0.280188,0.38686,-0.299522,0.0119241,0,0,0,0,0,0,0,0.0936512,-0.219287,-0.25231,-1.69766,-0.0398193,1.3806,0.402122,0.46401,-0.0514651,0.430864,-0.175967,0.150881,-0.0584311,-0.00173758,2.82032,-24.0883,4.91243,25.0348,2.29766,1.85937,0.0440523,-2.07867,0.927004,-0.902207,-0.0617803,-0.633359,0.212385,0.326094,0.0281823,0.0572624,-0.806235,0.465077,-0.709152,0.00824693,
0.0945731,-0.21917,-0.251736,-1.6982,-0.0362987,-0.193923,-0.38297,0.692098,-0.0540465,0.655447,-0.282109,0.45945,-0.316124,0.0113208,0,0,0,0,0,0,0,0.0936512,-0.219287,-0.25231,-1.69766,-0.0398193,1.3806,0.402122,0.46401,-0.0514651,0.430864,-0.175967,0.150881,-0.0584311,-0.00173758,2.82032,-24.0883,4.91243,25.0348,2.29766,1.85937,0.0440523,-2.07867,0.927004,-0.902207,-0.0617803,-0.633359,0.212385,0.326094,0.0281823,0.0572624,-0.806235,0.465077,-0.709152,0.00824693,
0.0974305,-0.219348,-0.249013,-1.69934,-0.03419,-0.195225,-0.382926,0.71436,-0.0446242,0.680783,-0.283284,0.527176,-0.325356,0.0108097,0,0,0,0,0,0,0,0.0936512,-0.219287,-0.25231,-1.69766,-0.0398193,1.3806,0.402122,0.46401,-0.0514651,0.430864,-0.175967,0.150881,-0.0584311,-0.00173758,2.82032,-24.0883,4.91243,25.0348,2.29766,1.85937,0.0440523,-0.385863,2.85896,-0.946026,-1.3601,0.713539,1.2445,1.26849,0.878315,1.26422,-1.07938,0.689333,-0.753462,0.00658269,
0.0841914,-0.218069,-0.261427,-1.69375,-0.0418563,-0.189415,-0.383167,0.558747,-0.0913404,0.500895,-0.264824,0.156236,-0.189481,0.0145773,0,0,0,0,0,0,0,0.0936512,-0.219287,-0.25231,-1.69766,-0.0398193,1.3806,0.402122,0.46401,-0.0514651,0.430864,-0.175967,0.150881,-0.0584311,-0.00173758,2.82032,-24.0883,4.91243,25.0348,2.29766,1.85937,0.0440523,-0.385863,2.85896,-0.946026,-1.3601,0.713539,1.2445,1.26849,0.878315,1.26422,-1.07938,0.689333,-0.753462,0.00658269,
0.10069,-0.220154,-0.245911,-1.70067,-0.0367651,-0.191909,-0.383105,0.627913,-0.0690779,0.580987,-0.264876,0.319988,-0.189508,0.0134006,0,0,0,0,0,0,0,0.108,-0.220813,-0.239131,-1.70295,-0.0371104,1.3803,0.402133,0.478657,-0.0351488,0.459568,-0.164428,0.153797,-0.00170902,-0.00126972,3.1258,-25.1119,4.56331,24.2136,1.30157,2.23748,0.00376909,-2.09629,-0.0617302,-1.24222,0.527568,-0.46898,-0.227129,-0.151941,0.169508,-0.400041,-0.938438,0.282067,-0.718862,0.013404,
0.10333,-0.220398,-0.243438,-1.70175,-0.0352062,-0.192808,-0.383055,0.65998,-0.0611308,0.618299,-0.269908,0.389726,-0.224762,0.0125235,0,0,0,0,0,0,0,0.108,-0.220813,-0.239131,-1.70295,-0.0371104,1.3803,0.402133,0.478657,-0.0351488,0.459568,-0.164428,0.153797,-0.00170902,-0.00126972,3.1258,-25.1119,4.56331,24.2136,1.30157,2.23748,0.00376909,-4.56637,-2.13164,-1.30012,1.88138,-2.35969,-1.34842,-1.20163,-0.97329,-1.67268,-0.618463,0.0241118,-0.677285,0.0148848,
0.106078,-0.220608,-0.240839,-1.70284,-0.0333738,-0.193809,-0.383008,0.687189,-0.0524602,0.649746,-0.272852,0.458106,-0.250245,0.0118133,0,0,0,0,0,0,0,0.108,-0.220813,-0.239131,-1.70295,-0.0371104,1.3803,0.402133,0.478657,-0.0351488,0.459568,-0.164428,0.153797,-0.00170902,-0.00126972,3.1258,-25.1119,4.56331,24.2136,1.30157,2.23748,0.00376909,-4.56637,-2.13164,-1.30012,1.88138,-2.35969,-1.34842,-1.20163,-0.97329,-1.67268,-0.618463,0.0241118,-0.677285,0.0148848,
0.10892,-0.220783,-0.238133,-1.70394,-0.0312808,-0.194878,-0.382963,0.710481,-0.0437815,0.676493,-0.274666,0.523228,-0.267171,0.0112228,0,0,0,0,0,0,0,0.108,-0.220813,-0.239131,-1.70295,-0.0371104,1.3803,0.402133,0.478657,-0.0351488,0.459568,-0.164428,0.153797,-0.00170902,-0.00126972,3.1258,-25.1119,4.56331,24.2136,1.30157,2.23748,0.00376909,-2.60154,1.49484,-1.29099,-0.487009,-0.864224,0.473657,0.539425,-0.00246533,0.404716,-0.905184,0.502481,-0.708245,0.00714936,
0.111842,-0.220925,-0.235335,-1.70504,-0.0289448,-0.195986,-0.38292,0.730555,-0.0354096,0.699419,-0.275708,0.584022,-0.27698,0.0107223,0,0,0,0,0,0,0,0.108,-0.220813,-0.239131,-1.70295,-0.0371104,1.3803,0.402133,0.478657,-0.0351488,0.459568,-0.164428,0.153797,-0.00170902,-0.00126972,3.1258,-25.1119,4.56331,24.2136,1.30157,2.23748,0.00376909,-2.60154,1.49484,-1.29099,-0.487009,-0.864224,0.473657,0.539425,-0.00246533,0.404716,-0.905184,0.502481,-0.708245,0.00714936,
0.098178,-0.219877,-0.248235,-1.69961,-0.038045,-0.191151,-0.383159,0.589605,-0.0745467,0.53626,-0.255039,0.25209,-0.144596,0.0144822,0,0,0,0,0,0,0,0.108,-0.220813,-0.239131,-1.70295,-0.0371104,1.3803,0.402133,0.478657,-0.0351488,0.459568,-0.164428,0.153797,-0.00170902,-0.00126972,3.1258,-25.1119,4.56331,24.2136,1.30157,2.23748,0.00376909,-2.13206,1.14566,-1.08882,-0.234905,-0.533198,0.344792,0.3642,0.156721,0.283776,-0.921029,0.509265,-0.747205,0.00867902,
0.115205,-0.221532,-0.232528,-1.70586,-0.0339044,-0.191547,-0.383091,0.639581,-0.0582919,0.594997,-0.256811,0.335352,-0.135543,0.0136068,0,0,0,0,0,0,0,0.122753,-0.221794,-0.225004,-1.70821,-0.0333018,1.38039,0.402144,0.475948,-0.0296314,0.454045,-0.16621,0.137736,-0.00527667,0.00118071,4.03827,-25.0881,5.03541,24.2136,1.5158,2.01867,-0.0566557,-2.13206,1.14566,-1.08882,-0.234905,-0.533198,0.344792,0.3642,0.156721,0.283776,-0.921029,0.509265,-0.747205,0.00867902,
0.117885,-0.221738,-0.230007,-1.70691,-0.0322813,-0.192238,-0.38304,0.669918,-0.0515614,0.63026,-0.261946,0.405786,-0.172763,0.0127228,0,0,0,0,0,0,0,0.122753,-0.221794,-0.225004,-1.70821,-0.0333018,1.38039,0.402144,0.475948,-0.0296314,0.454045,-0.16621,0.137736,-0.00527667,0.00118071,4.03827,-25.0881,5.03541,24.2136,1.5158,2.01867,-0.0566557,-2.92021,0.372132,-1.5288,0.204628,-0.990748,-0.0185693,0.102982,-0.065921,-0.190848,-0.949438,0.324746,-0.704336,0.00435735,
0.120668,-0.221914,-0.227367,-1.70797,-0.0303853,-0.193038,-0.382992,0.695709,-0.0439823,0.66006,-0.264908,0.474007,-0.200162,0.012001,0,0,0,0,0,0,0,0.122753,-0.221794,-0.225004,-1.70821,-0.0333018,1.38039,0.402144,0.475948,-0.0296314,0.454045,-0.16621,0.137736,-0.00527667,0.00118071,4.03827,-25.0881,5.03541,24.2136,1.5158,2.01867,-0.0566557,-2.62489,0.203707,-2.46894,0.42999,-0.335091,-0.0694894,0.0619784,0.461688,-0.302472,-1.39939,0.379866,-0.767195,0.00302436,
0.123539,-0.222059,-0.224625,-1.70903,-0.0282315,-0.193914,-0.382947,0.717824,-0.0362862,0.685464,-0.26671,0.53844,-0.218893,0.0113962,0,0,0,0,0,0,0,0.122753,-0.221794,-0.225004,-1.70821,-0.0333018,1.38039,0.402144,0.475948,-0.0296314,0.454045,-0.16621,0.137736,-0.00527667,0.00118071,4.03827,-25.0881,5.03541,24.2136,1.5158,2.01867,-0.0566557,-2.62489,0.203707,-2.46894,0.42999,-0.335091,-0.0694894,0.0619784,0.461688,-0.302472,-1.39939,0.379866,-0.767195,0.00302436,
0.126486,-0.222174,-0.221796,-1.7101,-0.0258386,-0.194835,-0.382903,0.736911,-0.0287967,0.707279,-0.267731,0.598234,-0.23038,0.01088,0,0,0,0,0,0,0,0.122753,-0.221794,-0.225004,-1.70821,-0.0333018,1.38039,0.402144,0.475948,-0.0296314,0.454045,-0.16621,0.137736,-0.00527667,0.00118071,4.03827,-25.0881,5.03541,24.2136,1.5158,2.01867,-0.0566557,-2.62396,-0.353063,-1.71559,0.837404,-0.531832,-0.337926,-0.28697,0.236773,-0.539443,-1.19821,0.41497,-0.853816,0.00776628,
0.1295,-0.222261,-0.218892,-1.71118,-0.0232265,-0.195779,-0.382862,0.753465,-0.0216681,0.726131,-0.268136,0.653012,-0.235954,0.010434,0,0,0,0,0,0,0,0.139425,-0.222482,-0.208984,-1.71371,-0.0273255,1.38081,0.402153,0.480448,-0.0126136,0.482043,-0.159493,0.164764,0.0208607,0.00247036,2.84412,-25.4372,4.16261,24.5627,1.43066,1.89232,-0.050247,-2.62396,-0.353063,-1.71559,0.837404,-0.531832,-0.337926,-0.28697,0.236773,-0.539443,-1.19821,0.41497,-0.853816,0.00776628,
0.112647,-0.221299,-0.234908,-1.70483,-0.0352458,-0.191004,-0.383146,0.603403,-0.0623739,0.552873,-0.246647,0.265415,-0.0887921,0.0146942,0,0,0,0,0,0,0,0.139425,-0.222482,-0.208984,-1.71371,-0.0273255,1.38081,0.402153,0.480448,-0.0126136,0.482043,-0.159493,0.164764,0.0208607,0.00247036,2.84412,-25.4372,4.16261,24.5627,1.43066,1.89232,-0.050247,-2.35822,0.240411,-1.19608,0.314097,-0.614949,-0.022902,0.0481217,0.109045,-0.172886,-0.948664,0.391836,-0.760393,0.00594055,
0.146727,-0.22298,-0.202251,-1.71657,-0.0239651,-0.190657,-0.383066,0.646619,-0.041613,0.604407,-0.253208,0.348444,-0.101512,0.0138548,0,0,0,0,0,0,0,0.139425,-0.222482,-0.208984,-1.71371,-0.0273255,1.38081,0.402153,0.480448,-0.0126136,0.482043,-0.159493,0.164764,0.0208607,0.00247036,2.84412,-25.4372,4.16261,24.5627,1.43066,1.89232,-0.050247,-2.35822,0.240411,-1.19608,0.314097,-0.614949,-0.022902,0.0481217,0.109045,-0.172886,-0.948664,0.391836,-0.760393,0.00594055,
0.149431,-0.223125,-0.199696,-1.7176,-0.0222923,-0.191206,-0.383015,0.676107,-0.0363802,0.638746,-0.258067,0.418183,-0.13728,0.0129469,0,0,0,0,0,0,0,0.139425,-0.222482,-0.208984,-1.71371,-0.0273255,1.38081,0.402153,0.480448,-0.0126136,0.482043,-0.159493,0.164764,0.0208607,0.00247036,2.84412,-25.4372,4.16261,24.5627,1.43066,1.89232,-0.050247,-2.68813,-0.144932,-1.26734,0.528459,-0.910165,-0.1923,-0.0847393,-0.0910109,-0.38178,-0.856888,0.317226,-0.680893,0.00479525,
0.152236,-0.223246,-0.197025,-1.71864,-0.0203507,-0.191861,-0.382966,0.701188,-0.0301756,0.6678,-0.260698,0.485423,-0.163757,0.0121992,0,0,0,0,0,0,0,0.139425,-0.222482,-0.208984,-1.71371,-0.0273255,1.38081,0.402153,0.480448,-0.0126136,0.482043,-0.159493,0.164764,0.0208607,0.00247036,2.84412,-25.4372,4.16261,24.5627,1.43066,1.89232,-0.050247,-2.26459,2.67427,-1.18011,-1.33166,-0.606109,1.14793,1.23923,0.210333,1.13417,-0.934489,0.655115,-0.704247,-0.00283943,
0.155127,-0.223341,-0.194255,-1.71969,-0.0181557,-0.192588,-0.382919,0.722695,-0.0237427,0.69258,-0.262165,0.548749,-0.181938,0.0115684,0,0,0,0,0,0,0,0.139425,-0.222482,-0.208984,-1.71371,-0.0273255,1.38081,0.402153,0.480448,-0.0126136,0.482043,-0.159493,0.164764,0.0208607,0.00247036,2.84412,-25.4372,4.16261,24.5627,1.43066,1.89232,-0.050247,-2.26459,2.67427,-1.18011,-1.33166,-0.606109,1.14793,1.23923,0.210333,1.13417,-0.934489,0.655115,-0.704247,-0.00283943,
0.158092,-0.223411,-0.191399,-1.72074,-0.015726,-0.193361,-0.382875,0.74125,-0.0174115,0.713864,-0.26287,0.607404,-0.193152,0.0110272,0,0,0,0,0,0,0,0.154842,-0.22257,-0.194122,-1.71853,-0.0205909,1.38106,0.402152,0.494847,0.00170052,0.454509,-0.154543,0.160936,0.0204681,-0.00144051,-1.28582,-26.31,0.238966,25.9314,1.38122,1.74676,0.0440523,-1.99505,1.64663,-0.556478,-0.604457,-0.629453,0.671161,0.710851,0.041819,0.632556,-0.717473,0.623933,-0.703955,0.00174569,
0.161121,-0.223456,-0.18847,-1.7218,-0.0130818,-0.194156,-0.382833,0.757335,-0.0113425,0.732254,-0.262986,0.661063,-0.198662,0.0105598,0,0,0,0,0,0,0,0.154842,-0.22257,-0.194122,-1.71853,-0.0205909,1.38106,0.402152,0.494847,0.00170052,0.454509,-0.154543,0.160936,0.0204681,-0.00144051,-1.28582,-26.31,0.238966,25.9314,1.38122,1.74676,0.0440523,-1.99505,1.64663,-0.556478,-0.604457,-0.629453,0.671161,0.710851,0.041819,0.632556,-0.717473,0.623933,-0.703955,0.00174569,
0.144141,-0.222813,-0.204669,-1.71556,-0.0253588,-0.190251,-0.383122,0.611473,-0.0440458,0.563489,-0.243148,0.278631,-0.0570148,0.0149814,0,0,0,0,0,0,0,0.154842,-0.22257,-0.194122,-1.71853,-0.0205909,1.38106,0.402152,0.494847,0.00170052,0.454509,-0.154543,0.160936,0.0204681,-0.00144051,-1.28582,-26.31,0.238966,25.9314,1.38122,1.74676,0.0440523,-2.04967,-2.00522,-0.878065,1.7624,-0.631812,-1.01265,-0.931634,-0.133699,-1.29529,-0.675081,0.168287,-0.597448,0.00837275,
0.162084,-0.222938,-0.187463,-1.72136,-0.0172854,-0.190248,-0.383063,0.642355,-0.0320581,0.599993,-0.249941,0.342031,-0.0838996,0.014437,0,0,0,0,0,0,0,0.154842,-0.22257,-0.194122,-1.71853,-0.0205909,1.38106,0.402152,0.494847,0.00170052,0.454509,-0.154543,0.160936,0.0204681,-0.00144051,-1.28582,-26.31,0.238966,25.9314,1.38122,1.74676,0.0440523,-2.63245,-0.987836,-1.3675,1.04015,-0.917551,-0.524123,-0.404625,-0.165922,-0.764212,-0.782928,0.228681,-0.566804,0.00385344,
0.164775,-0.223049,-0.184921,-1.72238,-0.0156423,-0.190715,-0.383009,0.672639,-0.0278396,0.635385,-0.254279,0.41079,-0.116732,0.0134551,0,0,0,0,0,0,0,0.154842,-0.22257,-0.194122,-1.71853,-0.0205909,1.38106,0.402152,0.494847,0.00170052,0.454509,-0.154543,0.160936,0.0204681,-0.00144051,-1.28582,-26.31,0.238966,25.9314,1.38122,1.74676,0.0440523,-2.63245,-0.987836,-1.3675,1.04015,-0.917551,-0.524123,-0.404625,-0.165922,-0.764212,-0.782928,0.228681,-0.566804,0.00385344,
0.167568,-0.223139,-0.18226,-1.7234,-0.0137322,-0.191279,-0.382958,0.698351,-0.0225231,0.665271,-0.256412,0.477527,-0.140919,0.0126377,0,0,0,0,0,0,0,0.171503,-0.222461,-0.177926,-1.7236,-0.013089,1.38133,0.402163,0.529585,0.0128065,0.51368,-0.159939,0.286133,0.00678019,0.000681393,2.18555,-26.8099,3.66273,25.3085,2.40112,1.54809,-0.00996382,-3.17591,0.315141,-1.02174,0.249343,-1.43322,0.0743675,0.163029,-0.435139,-0.0642568,-0.648552,0.463113,-0.599167,0.00282738,
0.170449,-0.223207,-0.179497,-1.72443,-0.0115694,-0.191908,-0.38291,0.720359,-0.0168806,0.690713,-0.257437,0.540684,-0.15731,0.0119476,0,0,0,0,0,0,0,0.171503,-0.222461,-0.177926,-1.7236,-0.013089,1.38133,0.402163,0.529585,0.0128065,0.51368,-0.159939,0.286133,0.00678019,0.000681393,2.18555,-26.8099,3.66273,25.3085,2.40112,1.54809,-0.00996382,-3.17591,0.315141,-1.02174,0.249343,-1.43322,0.0743675,0.163029,-0.435139,-0.0642568,-0.648552,0.463113,-0.599167,0.00282738,
0.173407,-0.223252,-0.176647,-1.72546,-0.00917188,-0.192577,-0.382865,0.739311,-0.0112579,0.712524,-0.257761,0.599391,-0.167133,0.0113508,0,0,0,0,0,0,0,0.171503,-0.222461,-0.177926,-1.7236,-0.013089,1.38133,0.402163,0.529585,0.0128065,0.51368,-0.159939,0.286133,0.00678019,0.000681393,2.18555,-26.8099,3.66273,25.3085,2.40112,1.54809,-0.00996382,-2.22606,3.68482,-1.11596,-2.09283,-0.667235,1.67366,1.6679,0.230325,1.82227,-0.840167,0.745397,-0.594942,-0.00364159,
0.176429,-0.223275,-0.173722,-1.72649,-0.0065589,-0.193263,-0.382822,0.755714,-0.00582586,0.731336,-0.257553,0.653246,-0.171579,0.0108442,0,0,0,0,0,0,0,0.171503,-0.222461,-0.177926,-1.7236,-0.013089,1.38133,0.402163,0.529585,0.0128065,0.51368,-0.159939,0.286133,0.00678019,0.000681393,2.18555,-26.8099,3.66273,25.3085,2.40112,1.54809,-0.00996382,-2.22606,3.68482,-1.11596,-2.09283,-0.667235,1.67366,1.6679,0.230325,1.82227,-0.840167,0.745397,-0.594942,-0.00364159,
0.159515,-0.22281,-0.189863,-1.72036,-0.0186536,-0.189913,-0.38312,0.606262,-0.0332883,0.557706,-0.240327,0.273843,-0.0432388,0.0155911,0,0,0,0,0,0,0,0.171503,-0.222461,-0.177926,-1.7236,-0.013089,1.38133,0.402163,0.529585,0.0128065,0.51368,-0.159939,0.286133,0.00678019,0.000681393,2.18555,-26.8099,3.66273,25.3085,2.40112,1.54809,-0.00996382,-2.15047,-0.368396,-1.8403,0.512173,-0.393097,-0.187438,-0.12502,0.242254,-0.332581,-0.987706,0.226951,-0.525663,0.000735591,
0.179135,-0.222676,-0.170806,-1.72641,-0.00850694,-0.189954,-0.383061,0.670449,-0.019564,0.632938,-0.24757,0.438946,-0.0741385,0.0136808,0,0,0,0,0,0,0,0.171503,-0.222461,-0.177926,-1.7236,-0.013089,1.38133,0.402163,0.529585,0.0128065,0.51368,-0.159939,0.286133,0.00678019,0.000681393,2.18555,-26.8099,3.66273,25.3085,2.40112,1.54809,-0.00996382,-2.15047,-0.368396,-1.8403,0.512173,-0.393097,-0.187438,-0.12502,0.242254,-0.332581,-0.987706,0.226951,-0.525663,0.000735591,
0.181923,-0.22274,-0.16815,-1.72742,-0.0065142,-0.190359,-0.383009,0.69713,-0.0160198,0.664167,-0.251223,0.498183,-0.101017,0.0127996,0,0,0,0,0,0,0,0.188964,-0.222307,-0.161431,-1.72863,-0.00523683,1.38166,0.402166,0.550238,0.00372818,0.539734,-0.154594,0.281404,0.00561034,-0.000913251,1.30085,-26.6075,2.1869,24.9832,1.46728,2.03148,0.0101778,-2.60385,-2.59628,-1.69469,2.02071,-0.836929,-1.21146,-1.09714,-0.196787,-1.52875,-0.806268,0.0266535,-0.483773,0.00406211,
0.184803,-0.222786,-0.165387,-1.72843,-0.00429103,-0.19084,-0.382961,0.71977,-0.0114681,0.690535,-0.252814,0.555794,-0.120483,0.01206,0,0,0,0,0,0,0,0.188964,-0.222307,-0.161431,-1.72863,-0.00523683,1.38166,0.402166,0.550238,0.00372818,0.539734,-0.154594,0.281404,0.00561034,-0.000913251,1.30085,-26.6075,2.1869,24.9832,1.46728,2.03148,0.0101778,-2.02697,0.469623,-1.72115,0.0308617,-0.312665,0.219016,0.296652,0.315316,0.092052,-0.990544,0.418611,-0.541599,-0.000565353,
0.187759,-0.222812,-0.162536,-1.72944,-0.00184948,-0.191373,-0.382915,0.739135,-0.00661782,0.712976,-0.253377,0.610386,-0.133209,0.0114431,0,0,0,0,0,0,0,0.188964,-0.222307,-0.161431,-1.72863,-0.00523683,1.38166,0.402166,0.550238,0.00372818,0.539734,-0.154594,0.281404,0.00561034,-0.000913251,1.30085,-26.6075,2.1869,24.9832,1.46728,2.03148,0.0101778,-2.02697,0.469623,-1.72115,0.0308617,-0.312665,0.219016,0.296652,0.315316,0.092052,-0.990544,0.418611,-0.541599,-0.000565353,
0.190782,-0.22282,-0.159607,-1.73046,0.00079521,-0.191934,-0.382872,0.755799,-0.00178328,0.732209,-0.253298,0.661173,-0.140247,0.0108931,0,0,0,0,0,0,0,0.188964,-0.222307,-0.161431,-1.72863,-0.00523683,1.38166,0.402166,0.550238,0.00372818,0.539734,-0.154594,0.281404,0.00561034,-0.000913251,1.30085,-26.6075,2.1869,24.9832,1.46728,2.03148,0.0101778,-2.20492,1.97387,-1.84308,-1.05342,-0.361944,0.935301,0.942348,0.445423,0.975416,-1.08042,0.519234,-0.573632,-0.00317432,
0.193849,-0.222808,-0.156603,-1.73147,0.00363191,-0.192505,-0.38283,0.766682,0.00297755,0.750823,-0.25278,0.709174,-0.142604,0.0103231,0,0,0,0,0,0,0,0.188964,-0.222307,-0.161431,-1.72863,-0.00523683,1.38166,0.402166,0.550238,0.00372818,0.539734,-0.154594,0.281404,0.00561034,-0.000913251,1.30085,-26.6075,2.1869,24.9832,1.46728,2.03148,0.0101778,-2.20492,1.97387,-1.84308,-1.05342,-0.361944,0.935301,0.942348,0.445423,0.975416,-1.08042,0.519234,-0.573632,-0.00317432,
0.176453,-0.222598,-0.173338,-1.72542,-0.0102627,-0.189658,-0.383115,0.638615,-0.0203539,0.595654,-0.238972,0.380367,-0.0407552,0.0147308,0,0,0,0,0,0,0,0.212606,-0.222206,-0.138273,-1.73563,0.007048,1.3823,0.402174,0.561104,-0.00110154,0.539007,-0.158473,0.351464,0.00330838,-0.000349331,0.94379,-26.31,1.7624,24.5111,1.64398,1.79986,-0.0227812,-1.69674,-0.189968,-2.01508,0.240974,-0.021524,-0.0500654,0.0175236,0.491946,-0.168954,-1.06012,0.155589,-0.474158,-0.000176912,
0.220449,-0.222464,-0.130877,-1.73834,0.0123513,-0.188857,-0.383055,0.685409,-0.0205916,0.652995,-0.237701,0.494,-0.0564321,0.0133635,0,0,0,0,0,0,0,0.212606,-0.222206,-0.138273,-1.73563,0.007048,1.3823,0.402174,0.561104,-0.00110154,0.539007,-0.158473,0.351464,0.00330838,-0.000349331,0.94379,-26.31,1.7624,24.5111,1.64398,1.79986,-0.0227812,-1.69674,-0.189968,-2.01508,0.240974,-0.021524,-0.0500654,0.0175236,0.491946,-0.168954,-1.06012,0.155589,-0.474158,-0.000176912,
0.22329,-0.222527,-0.128149,-1.73931,0.0145417,-0.189167,-0.383005,0.710223,-0.0156701,0.682016,-0.241595,0.547597,-0.0775219,0.0125362,0,0,0,0,0,0,0,0.212606,-0.222206,-0.138273,-1.73563,0.007048,1.3823,0.402174,0.561104,-0.00110154,0.539007,-0.158473,0.351464,0.00330838,-0.000349331,0.94379,-26.31,1.7624,24.5111,1.64398,1.79986,-0.0227812,-1.45266,-2.86687,-2.22026,2.07188,0.233703,-1.30215,-1.21204,0.456887,-1.61993,-1.10853,-0.0492562,-0.469688,0.00301619,
0.226215,-0.222567,-0.125323,-1.74028,0.0169404,-0.189537,-0.382958,0.731295,-0.0101743,0.706553,-0.243528,0.599671,-0.0925561,0.0118167,0,0,0,0,0,0,0,0.212606,-0.222206,-0.138273,-1.73563,0.007048,1.3823,0.402174,0.561104,-0.00110154,0.539007,-0.158473,0.351464,0.00330838,-0.000349331,0.94379,-26.31,1.7624,24.5111,1.64398,1.79986,-0.0227812,-1.45266,-2.86687,-2.22026,2.07188,0.233703,-1.30215,-1.21204,0.456887,-1.61993,-1.10853,-0.0492562,-0.469688,0.00301619,
0.229199,-0.222586,-0.122405,-1.74126,0.019542,-0.189945,-0.382913,0.745793,-0.00460169,0.729484,-0.244464,0.650391,-0.102009,0.0111093,0,0,0,0,0,0,0,0.212606,-0.222206,-0.138273,-1.73563,0.007048,1.3823,0.402174,0.561104,-0.00110154,0.539007,-0.158473,0.351464,0.00330838,-0.000349331,0.94379,-26.31,1.7624,24.5111,1.64398,1.79986,-0.0227812,-1.66928,1.14511,-2.20193,-0.519084,0.192211,0.568252,0.607389,0.759159,0.514594,-1.25284,0.467528,-0.563274,-0.00310586,
0.232226,-0.222583,-0.119407,-1.74224,0.0223353,-0.190372,-0.382871,0.756715,0.000769924,0.749503,-0.244718,0.698341,-0.106748,0.0104779,0,0,0,0,0,0,0,0.228534,-0.222137,-0.122604,-1.74012,0.0163901,1.38293,0.402174,0.556763,0.00195412,0.539972,-0.153588,0.302671,0.0238465,-0.000829186,1.90784,-26.8852,2.5876,24.9118,1.19812,1.99212,0.0239107,-1.61266,0.943485,-2.0882,-0.399019,0.193142,0.477786,0.497805,0.730068,0.431521,-1.21327,0.446107,-0.563578,-0.00332676,
0.235286,-0.22256,-0.11634,-1.74322,0.0253065,-0.190803,-0.382832,0.765154,0.00580958,0.766727,-0.244462,0.742799,-0.107595,0.00994865,0,0,0,0,0,0,0,0.228534,-0.222137,-0.122604,-1.74012,0.0163901,1.38293,0.402174,0.556763,0.00195412,0.539972,-0.153588,0.302671,0.0238465,-0.000829186,1.90784,-26.8852,2.5876,24.9118,1.19812,1.99212,0.0239107,-1.61266,0.943485,-2.0882,-0.399019,0.193142,0.477786,0.497805,0.730068,0.431521,-1.21327,0.446107,-0.563578,-0.00332676,
0.217708,-0.222382,-0.133489,-1.73739,0.0103753,-0.188631,-0.383109,0.655887,-0.0234969,0.618423,-0.229325,0.44081,-0.0302068,0.0143198,0,0,0,0,0,0,0,0.228534,-0.222137,-0.122604,-1.74012,0.0163901,1.38293,0.402174,0.556763,0.00195412,0.539972,-0.153588,0.302671,0.0238465,-0.000829186,1.90784,-26.8852,2.5876,24.9118,1.19812,1.99212,0.0239107,-1.5315,0.492945,-1.90682,-0.242461,0.0405513,0.302372,0.380228,0.551804,0.218082,-1.01801,0.247498,-0.436195,-0.00420612,
0.236343,-0.222351,-0.115228,-1.74276,0.0212942,-0.187935,-0.383052,0.682539,-0.0168781,0.651257,-0.23142,0.466535,-0.0300282,0.0136451,0,0,0,0,0,0,0,0.228534,-0.222137,-0.122604,-1.74012,0.0163901,1.38293,0.402174,0.556763,0.00195412,0.539972,-0.153588,0.302671,0.0238465,-0.000829186,1.90784,-26.8852,2.5876,24.9118,1.19812,1.99212,0.0239107,-1.5315,0.492945,-1.90682,-0.242461,0.0405513,0.302372,0.380228,0.551804,0.218082,-1.01801,0.247498,-0.436195,-0.00420612,
0.239159,-0.222399,-0.112498,-1.7437,0.0233964,-0.188135,-0.383001,0.703984,-0.0120813,0.6824,-0.235287,0.525565,-0.0499744,0.0126804,0,0,0,0,0,0,0,0.228534,-0.222137,-0.122604,-1.74012,0.0163901,1.38293,0.402174,0.556763,0.00195412,0.539972,-0.153588,0.302671,0.0238465,-0.000829186,1.90784,-26.8852,2.5876,24.9118,1.19812,1.99212,0.0239107,-1.66329,-1.27296,-1.2535,1.03704,-0.361938,-0.512444,-0.416565,0.0379016,-0.721705,-0.675692,0.156237,-0.389096,0.000179305,
0.242042,-0.222426,-0.109662,-1.74465,0.0257279,-0.188392,-0.382954,0.720677,-0.00673232,0.709209,-0.237209,0.582874,-0.0642577,0.0118344,0,0,0,0,0,0,0,0.228534,-0.222137,-0.122604,-1.74012,0.0163901,1.38293,0.402174,0.556763,0.00195412,0.539972,-0.153588,0.302671,0.0238465,-0.000829186,1.90784,-26.8852,2.5876,24.9118,1.19812,1.99212,0.0239107,-1.79354,0.121217,-1.10231,0.240832,-0.449704,0.126566,0.16976,0.0735348,0.01951,-0.669113,0.442457,-0.421717,-0.00173484,
0.244978,-0.222432,-0.106733,-1.7456,0.0282763,-0.188685,-0.38291,0.73396,-0.00139898,0.732092,-0.238104,0.637091,-0.0732661,0.011126,0,0,0,0,0,0,0,0.247037,-0.221822,-0.104264,-1.74533,0.0284432,1.38348,0.40218,0.549633,0.0138389,0.54053,-0.155231,0.320736,0.0345751,0.000377281,-0.373349,-27.3811,0.43733,26.106,1.26495,1.99212,0.00376909,-1.79354,0.121217,-1.10231,0.240832,-0.449704,0.126566,0.16976,0.0735348,0.01951,-0.669113,0.442457,-0.421717,-0.00173484,
0.247956,-0.222417,-0.103726,-1.74655,0.0310262,-0.188996,-0.382868,0.744496,0.00368776,0.751693,-0.238331,0.687473,-0.0777815,0.0105118,0,0,0,0,0,0,0,0.247037,-0.221822,-0.104264,-1.74533,0.0284432,1.38348,0.40218,0.549633,0.0138389,0.54053,-0.155231,0.320736,0.0345751,0.000377281,-0.373349,-27.3811,0.43733,26.106,1.26495,1.99212,0.00376909,-2.23121,2.61628,-0.828015,-1.43291,-0.87245,1.31749,1.30714,0.0154377,1.42106,-0.563745,0.675273,-0.408363,-0.0051406,
0.233613,-0.222283,-0.117833,-1.74183,0.019428,-0.187815,-0.383107,0.652949,-0.0196921,0.616741,-0.223169,0.408101,-0.00538324,0.0146265,0,0,0,0,0,0,0,0.247037,-0.221822,-0.104264,-1.74533,0.0284432,1.38348,0.40218,0.549633,0.0138389,0.54053,-0.155231,0.320736,0.0345751,0.000377281,-0.373349,-27.3811,0.43733,26.106,1.26495,1.99212,0.00376909,-2.23121,2.61628,-0.828015,-1.43291,-0.87245,1.31749,1.30714,0.0154377,1.42106,-0.563745,0.675273,-0.408363,-0.0051406,
0.254779,-0.221907,-0.0968748,-1.74794,0.0334705,-0.187179,-0.383044,0.673346,-0.00699549,0.65515,-0.228953,0.475209,-0.0100741,0.0136032,0,0,0,0,0,0,0,0.247037,-0.221822,-0.104264,-1.74533,0.0284432,1.38348,0.40218,0.549633,0.0138389,0.54053,-0.155231,0.320736,0.0345751,0.000377281,-0.373349,-27.3811,0.43733,26.106,1.26495,1.99212,0.00376909,-1.86589,1.28976,-1.14582,-0.686228,-0.600235,0.710308,0.74752,0.0852183,0.715109,-0.594592,0.411813,-0.30996,-0.00574773,
0.257554,-0.22192,-0.0941286,-1.74887,0.0356017,-0.18729,-0.382993,0.693731,-0.00310979,0.686568,-0.232279,0.532796,-0.0279215,0.0126329,0,0,0,0,0,0,0,0.247037,-0.221822,-0.104264,-1.74533,0.0284432,1.38348,0.40218,0.549633,0.0138389,0.54053,-0.155231,0.320736,0.0345751,0.000377281,-0.373349,-27.3811,0.43733,26.106,1.26495,1.99212,0.00376909,-1.56951,0.494417,-1.80435,-0.194257,-0.138809,0.333177,0.427269,0.376584,0.229725,-0.843843,0.336329,-0.295321,-0.00437617,
0.260394,-0.221914,-0.091276,-1.74981,0.0379563,-0.187453,-0.382946,0.710092,0.0013484,0.713133,-0.23376,0.588648,-0.0406119,0.011802,0,0,0,0,0,0,0,0.264402,-0.221336,-0.0868566,-1.74994,0.0391985,1.38397,0.402181,0.575603,0.012917,0.565626,-0.140863,0.33086,0.0178163,-0.000499969,-0.603451,-27.3335,-0.0387439,25.6339,1.57074,1.90606,-0.0026396,-1.56951,0.494417,-1.80435,-0.194257,-0.138809,0.333177,0.427269,0.376584,0.229725,-0.843843,0.336329,-0.295321,-0.00437617,
0.263287,-0.221891,-0.0883331,-1.75074,0.0405224,-0.187647,-0.382902,0.72317,0.0058416,0.735736,-0.23428,0.641522,-0.0484694,0.0110795,0,0,0,0,0,0,0,0.264402,-0.221336,-0.0868566,-1.74994,0.0391985,1.38397,0.402181,0.575603,0.012917,0.565626,-0.140863,0.33086,0.0178163,-0.000499969,-0.603451,-27.3335,-0.0387439,25.6339,1.57074,1.90606,-0.0026396,-1.22735,-0.391006,-2.3205,0.475507,0.430645,-0.12499,-0.0746677,0.715935,-0.286285,-1.14693,0.407448,-0.386053,0.000987123,
0.266221,-0.22185,-0.0853127,-1.75168,0.0432852,-0.187855,-0.38286,0.733532,0.0101461,0.755085,-0.234183,0.690697,-0.0521852,0.0104461,0,0,0,0,0,0,0,0.264402,-0.221336,-0.0868566,-1.74994,0.0391985,1.38397,0.402181,0.575603,0.012917,0.565626,-0.140863,0.33086,0.0178163,-0.000499969,-0.603451,-27.3335,-0.0387439,25.6339,1.57074,1.90606,-0.0026396,-1.22735,-0.391006,-2.3205,0.475507,0.430645,-0.12499,-0.0746677,0.715935,-0.286285,-1.14693,0.407448,-0.386053,0.000987123,
0.269187,-0.221794,-0.0822258,-1.75262,0.0462285,-0.188065,-0.38282,0.741627,0.0141643,0.771735,-0.233625,0.735823,-0.0524825,0.0098867,0,0,0,0,0,0,0,0.264402,-0.221336,-0.0868566,-1.74994,0.0391985,1.38397,0.402181,0.575603,0.012917,0.565626,-0.140863,0.33086,0.0178163,-0.000499969,-0.603451,-27.3335,-0.0387439,25.6339,1.57074,1.90606,-0.0026396,-2.1147,-0.377311,-2.01339,0.430984,-0.371717,-0.0243486,0.000615124,0.236367,-0.128354,-0.940918,0.372448,-0.379722,-0.000940254,
0.252085,-0.221879,-0.0994954,-1.74703,0.0315697,-0.187138,-0.383098,0.647839,-0.00894292,0.617832,-0.221389,0.417848,0.0118853,0.0147237,0,0,0,0,0,0,0,0.264402,-0.221336,-0.0868566,-1.74994,0.0391985,1.38397,0.402181,0.575603,0.012917,0.565626,-0.140863,0.33086,0.0178163,-0.000499969,-0.603451,-27.3335,-0.0387439,25.6339,1.57074,1.90606,-0.0026396,-2.1147,-0.377311,-2.01339,0.430984,-0.371717,-0.0243486,0.000615124,0.236367,-0.128354,-0.940918,0.372448,-0.379722,-0.000940254,
0.272221,-0.22143,-0.0791848,-1.75245,0.0445274,-0.186631,-0.383051,0.67603,-0.00718074,0.674893,-0.221606,0.503091,0.00149375,0.0130802,0,0,0,0,0,0,0,0.264402,-0.221336,-0.0868566,-1.74994,0.0391985,1.38397,0.402181,0.575603,0.012917,0.565626,-0.140863,0.33086,0.0178163,-0.000499969,-0.603451,-27.3335,-0.0387439,25.6339,1.57074,1.90606,-0.0026396,-1.68951,-1.04122,-2.15209,0.753309,-0.107371,-0.333382,-0.242867,0.322933,-0.514895,-0.939662,0.186807,-0.299602,-0.00188746,
0.274997,-0.221441,-0.0763714,-1.75336,0.0467698,-0.186679,-0.383002,0.694063,-0.00282307,0.70333,-0.225224,0.560607,-0.0118813,0.0121812,0,0,0,0,0,0,0,0.282578,-0.220664,-0.068167,-1.75424,0.049705,1.38501,0.402185,0.557122,0.0143974,0.581699,-0.141317,0.411924,0.032581,7.59304e-05,0.840641,-26.909,1.26253,25.0864,1.57074,2.03881,-0.0026396,-1.21614,0.625646,-2.27834,-0.396626,0.293109,0.391838,0.466365,0.721936,0.315373,-1.04194,0.324643,-0.270374,-0.00592481,
0.277831,-0.221434,-0.0734614,-1.75426,0.0492309,-0.186764,-0.382957,0.70853,0.00196723,0.727501,-0.22685,0.615287,-0.0212408,0.0113957,0,0,0,0,0,0,0,0.282578,-0.220664,-0.068167,-1.75424,0.049705,1.38501,0.402185,0.557122,0.0143974,0.581699,-0.141317,0.411924,0.032581,7.59304e-05,0.840641,-26.909,1.26253,25.0864,1.57074,2.03881,-0.0026396,-1.21614,0.625646,-2.27834,-0.396626,0.293109,0.391838,0.466365,0.721936,0.315373,-1.04194,0.324643,-0.270374,-0.00592481,
0.280711,-0.221407,-0.0704688,-1.75517,0.0518963,-0.18687,-0.382914,0.720059,0.00666559,0.748162,-0.227454,0.666341,-0.0266267,0.010708,0,0,0,0,0,0,0,0.282578,-0.220664,-0.068167,-1.75424,0.049705,1.38501,0.402185,0.557122,0.0143974,0.581699,-0.141317,0.411924,0.032581,7.59304e-05,0.840641,-26.909,1.26253,25.0864,1.57074,2.03881,-0.0026396,-1.26215,1.23827,-2.63664,-0.784132,0.511208,0.660914,0.675816,0.999434,0.651358,-1.2743,0.481396,-0.353971,-0.00457562,
0.283628,-0.221363,-0.0674051,-1.75608,0.0547497,-0.186984,-0.382874,0.729143,0.0110733,0.765914,-0.227416,0.71335,-0.0285412,0.0101021,0,0,0,0,0,0,0,0.282578,-0.220664,-0.068167,-1.75424,0.049705,1.38501,0.402185,0.557122,0.0143974,0.581699,-0.141317,0.411924,0.032581,7.59304e-05,0.840641,-26.909,1.26253,25.0864,1.57074,2.03881,-0.0026396,-1.26215,1.23827,-2.63664,-0.784132,0.511208,0.660914,0.675816,0.999434,0.651358,-1.2743,0.481396,-0.353971,-0.00457562,
0.269517,-0.221401,-0.0818843,-1.75157,0.042515,-0.186637,-0.383103,0.653579,-0.0097008,0.641266,-0.213367,0.443994,0.0173568,0.0140599,0,0,0,0,0,0,0,0.282578,-0.220664,-0.068167,-1.75424,0.049705,1.38501,0.402185,0.557122,0.0143974,0.581699,-0.141317,0.411924,0.032581,7.59304e-05,0.840641,-26.909,1.26253,25.0864,1.57074,2.03881,-0.0026396,-1.5315,0.241693,-2.48712,-0.1868,0.180338,0.253366,0.254529,0.691093,0.2245,-1.13295,0.319147,-0.316771,-0.00394159,
0.290309,-0.220717,-0.0604087,-1.7567,0.0556817,-0.185375,-0.383049,0.668797,-0.0036596,0.681929,-0.216022,0.547034,0.0225955,0.0128884,0,0,0,0,0,0,0,0.301119,-0.220261,-0.0490011,-1.75887,0.0619071,1.38671,0.402191,0.548739,0.0126551,0.595039,-0.143154,0.397475,0.0548522,0.000623959,3.1258,-27.3097,2.6114,24.5627,1.25946,2.19811,-0.0429228,-1.5315,0.241693,-2.48712,-0.1868,0.180338,0.253366,0.254529,0.691093,0.2245,-1.13295,0.319147,-0.316771,-0.00394159,
0.293055,-0.220715,-0.0575681,-1.75757,0.0580695,-0.18533,-0.383001,0.686567,0.000482027,0.710154,-0.219398,0.59695,0.0112418,0.0119742,0,0,0,0,0,0,0,0.301119,-0.220261,-0.0490011,-1.75887,0.0619071,1.38671,0.402191,0.548739,0.0126551,0.595039,-0.143154,0.397475,0.0548522,0.000623959,3.1258,-27.3097,2.6114,24.5627,1.25946,2.19811,-0.0429228,-1.51562,-1.72685,-2.41592,1.05661,0.0297054,-0.606912,-0.519148,0.363813,-0.801676,-0.981651,0.0439165,-0.236102,-0.00519108,
0.295858,-0.220695,-0.0546321,-1.75846,0.0606511,-0.185316,-0.382956,0.700723,0.00500065,0.73402,-0.220901,0.645386,0.00338487,0.0111789,0,0,0,0,0,0,0,0.301119,-0.220261,-0.0490011,-1.75887,0.0619071,1.38671,0.402191,0.548739,0.0126551,0.595039,-0.143154,0.397475,0.0548522,0.000623959,3.1258,-27.3097,2.6114,24.5627,1.25946,2.19811,-0.0429228,-1.68621,0.717318,-2.6677,-0.517411,0.107254,0.514168,0.588052,0.721602,0.452159,-1.15795,0.379223,-0.271996,-0.00972881,
0.298706,-0.220657,-0.0516148,-1.75934,0.0634162,-0.18532,-0.382914,0.711919,0.00940989,0.754321,-0.221432,0.691274,-0.000959452,0.0104851,0,0,0,0,0,0,0,0.301119,-0.220261,-0.0490011,-1.75887,0.0619071,1.38671,0.402191,0.548739,0.0126551,0.595039,-0.143154,0.397475,0.0548522,0.000623959,3.1258,-27.3097,2.6114,24.5627,1.25946,2.19811,-0.0429228,-1.68621,0.717318,-2.6677,-0.517411,0.107254,0.514168,0.588052,0.721602,0.452159,-1.15795,0.379223,-0.271996,-0.00972881,
0.301588,-0.220603,-0.048528,-1.76023,0.0663521,-0.185329,-0.382875,0.720667,0.0135263,0.771687,-0.221348,0.733977,-0.00221652,0.00987632,0,0,0,0,0,0,0,0.301119,-0.220261,-0.0490011,-1.75887,0.0619071,1.38671,0.402191,0.548739,0.0126551,0.595039,-0.143154,0.397475,0.0548522,0.000623959,3.1258,-27.3097,2.6114,24.5627,1.25946,2.19811,-0.0429228,-1.26048,0.8873,-2.81949,-0.594514,0.574888,0.517782,0.531007,1.03844,0.488763,-1.32117,0.494438,-0.332081,-0.00609806,
0.304498,-0.220534,-0.0453816,-1.76111,0.0694448,-0.185332,-0.382837,0.727372,0.0172834,0.786616,-0.220808,0.773178,-0.000899542,0.00933879,0,0,0,0,0,0,0,0.301119,-0.220261,-0.0490011,-1.75887,0.0619071,1.38671,0.402191,0.548739,0.0126551,0.595039,-0.143154,0.397475,0.0548522,0.000623959,3.1258,-27.3097,2.6114,24.5627,1.25946,2.19811,-0.0429228,-1.26048,0.8873,-2.81949,-0.594514,0.574888,0.517782,0.531007,1.03844,0.488763,-1.32117,0.494438,-0.332081,-0.00609806,
0.287634,-0.220702,-0.0631365,-1.75583,0.0534936,-0.185465,-0.3831,0.64651,-0.00612205,0.648391,-0.208338,0.497242,0.0359585,0.0139037,0,0,0,0,0,0,0,0.31855,-0.219904,-0.0307135,-1.76332,0.0736984,1.38886,0.40219,0.570064,0.00967224,0.589655,-0.131028,0.34288,0.082485,0.00156385,0.487552,-27.282,0.314344,25.0864,1.11297,2.04522,-0.0365141,-1.13687,-1.19751,-2.79659,0.721535,0.552762,-0.419569,-0.384175,0.780254,-0.570037,-1.22949,0.232525,-0.286478,-0.000733327,
0.326208,-0.21997,-0.0228196,-1.76565,0.0792481,-0.180969,-0.383048,0.660605,-0.00372964,0.690851,-0.206415,0.521683,0.067479,0.0126125,0,0,0,0,0,0,0,0.31855,-0.219904,-0.0307135,-1.76332,0.0736984,1.38886,0.40219,0.570064,0.00967224,0.589655,-0.131028,0.34288,0.082485,0.00156385,0.487552,-27.282,0.314344,25.0864,1.11297,2.04522,-0.0365141,-0.950496,-1.15966,-2.50147,0.686629,0.504973,-0.410275,-0.332804,0.67997,-0.585644,-1.07046,0.180838,-0.221826,-0.000695212,
0.328917,-0.219966,-0.0199497,-1.7665,0.0815589,-0.18075,-0.383001,0.677257,0.000901441,0.717456,-0.210378,0.577689,0.0546067,0.0117429,0,0,0,0,0,0,0,0.31855,-0.219904,-0.0307135,-1.76332,0.0736984,1.38886,0.40219,0.570064,0.00967224,0.589655,-0.131028,0.34288,0.082485,0.00156385,0.487552,-27.282,0.314344,25.0864,1.11297,2.04522,-0.0365141,-0.950496,-1.15966,-2.50147,0.686629,0.504973,-0.410275,-0.332804,0.67997,-0.585644,-1.07046,0.180838,-0.221826,-0.000695212,
0.331679,-0.219943,-0.0169891,-1.76735,0.0840801,-0.18057,-0.382957,0.690629,0.00570451,0.740154,-0.2124,0.630316,0.0451532,0.0109733,0,0,0,0,0,0,0,0.31855,-0.219904,-0.0307135,-1.76332,0.0736984,1.38886,0.40219,0.570064,0.00967224,0.589655,-0.131028,0.34288,0.082485,0.00156385,0.487552,-27.282,0.314344,25.0864,1.11297,2.04522,-0.0365141,-1.03528,1.35209,-2.18695,-0.880427,0.424082,0.713196,0.750215,0.867726,0.698328,-1.02129,0.504315,-0.238623,-0.00688018,
0.334485,-0.219902,-0.0139507,-1.7682,0.0867964,-0.180413,-0.382916,0.701273,0.0102578,0.759607,-0.213372,0.679069,0.0391656,0.0102955,0,0,0,0,0,0,0,0.31855,-0.219904,-0.0307135,-1.76332,0.0736984,1.38886,0.40219,0.570064,0.00967224,0.589655,-0.131028,0.34288,0.082485,0.00156385,0.487552,-27.282,0.314344,25.0864,1.11297,2.04522,-0.0365141,-1.03528,1.35209,-2.18695,-0.880427,0.424082,0.713196,0.750215,0.867726,0.698328,-1.02129,0.504315,-0.238623,-0.00688018,
0.337323,-0.219844,-0.0108453,-1.76905,0.0896913,-0.180268,-0.382877,0.709631,0.0144189,0.776352,-0.213661,0.723712,0.0362526,0.0096975,0,0,0,0,0,0,0,0.342261,-0.219268,-0.0048995,-1.76904,0.0901499,1.39165,0.402192,0.556855,0.0140973,0.60653,-0.127829,0.343221,0.0698299,0.000405226,1.85627,-27.4843,1.21095,25.3323,1.47277,2.08459,-0.0163725,-1.10222,2.11366,-2.11551,-1.32175,0.421351,1.04771,1.04046,0.950007,1.0986,-1.03542,0.664301,-0.265488,-0.00876592,
0.340187,-0.219772,-0.00768197,-1.76991,0.0927481,-0.180124,-0.382841,0.716054,0.0181503,0.790829,-0.213438,0.764208,0.0359311,0.00916918,0,0,0,0,0,0,0,0.342261,-0.219268,-0.0048995,-1.76904,0.0901499,1.39165,0.402192,0.556855,0.0140973,0.60653,-0.127829,0.343221,0.0698299,0.000405226,1.85627,-27.4843,1.21095,25.3323,1.47277,2.08459,-0.0163725,-1.10222,2.11366,-2.11551,-1.32175,0.421351,1.04771,1.04046,0.950007,1.0986,-1.03542,0.664301,-0.265488,-0.00876592,
0.323565,-0.219955,-0.025583,-1.76483,0.0771614,-0.181239,-0.383099,0.639951,-0.00700122,0.659556,-0.198137,0.463051,0.0822902,0.0135391,0,0,0,0,0,0,0,0.342261,-0.219268,-0.0048995,-1.76904,0.0901499,1.39165,0.402192,0.556855,0.0140973,0.60653,-0.127829,0.343221,0.0698299,0.000405226,1.85627,-27.4843,1.21095,25.3323,1.47277,2.08459,-0.0163725,-0.636675,-1.30321,-1.76201,0.968178,0.493297,-0.521915,-0.468518,0.481602,-0.715627,-0.800388,0.313353,-0.205877,-0.00212569,
0.349824,-0.21928,0.00308706,-1.77134,0.0957394,-0.178147,-0.383049,0.652038,0.00063731,0.697417,-0.203251,0.525755,0.0748796,0.01239,0,0,0,0,0,0,0,0.342261,-0.219268,-0.0048995,-1.76904,0.0901499,1.39165,0.402192,0.556855,0.0140973,0.60653,-0.127829,0.343221,0.0698299,0.000405226,1.85627,-27.4843,1.21095,25.3323,1.47277,2.08459,-0.0163725,-1.1679,-1.73214,-1.59627,1.26944,0.011847,-0.604335,-0.515833,0.136755,-0.835886,-0.668758,0.272973,-0.193137,-0.00364002,
0.352496,-0.21926,0.00598022,-1.77216,0.098066,-0.177883,-0.383003,0.668158,0.00507027,0.723291,-0.206981,0.581629,0.0658029,0.0115321,0,0,0,0,0,0,0,0.342261,-0.219268,-0.0048995,-1.76904,0.0901499,1.39165,0.402192,0.556855,0.0140973,0.60653,-0.127829,0.343221,0.0698299,0.000405226,1.85627,-27.4843,1.21095,25.3323,1.47277,2.08459,-0.0163725,-1.1679,-1.73214,-1.59627,1.26944,0.011847,-0.604335,-0.515833,0.136755,-0.835886,-0.668758,0.272973,-0.193137,-0.00364002,
0.355221,-0.219221,0.00896184,-1.773,0.100601,-0.177646,-0.38296,0.681108,0.00960996,0.745404,-0.208768,0.633799,0.0592441,0.0107693,0,0,0,0,0,0,0,0.342261,-0.219268,-0.0048995,-1.76904,0.0901499,1.39165,0.402192,0.556855,0.0140973,0.60653,-0.127829,0.343221,0.0698299,0.000405226,1.85627,-27.4843,1.21095,25.3323,1.47277,2.08459,-0.0163725,-1.46947,1.33139,-1.91351,-0.766661,0.0652359,0.777386,0.801221,0.633083,0.762416,-0.896263,0.639297,-0.249407,-0.00970095,
0.357986,-0.219166,0.0120194,-1.77384,0.103329,-0.177425,-0.382919,0.691403,0.0138544,0.764382,-0.209522,0.681921,0.0554371,0.0100978,0,0,0,0,0,0,0,0.359856,-0.218423,0.0149479,-1.77297,0.102446,1.39405,0.402189,0.552247,0.0219771,0.580299,-0.115292,0.34281,0.0779706,-0.000936093,-1.23822,-27.4565,-1.43523,25.6815,1.15509,2.14501,0.017502,-1.46947,1.33139,-1.91351,-0.766661,0.0652359,0.777386,0.801221,0.633083,0.762416,-0.896263,0.639297,-0.249407,-0.00970095,
0.360784,-0.219095,0.0151424,-1.77468,0.106232,-0.177208,-0.382881,0.69943,0.017679,0.780756,-0.209619,0.725865,0.0541504,0.00950753,0,0,0,0,0,0,0,0.359856,-0.218423,0.0149479,-1.77297,0.102446,1.39405,0.402189,0.552247,0.0219771,0.580299,-0.115292,0.34281,0.0779706,-0.000936093,-1.23822,-27.4565,-1.43523,25.6815,1.15509,2.14501,0.017502,-1.73468,2.17003,-2.00461,-1.34901,-0.0755356,1.18535,1.16436,0.692544,1.26378,-0.928973,0.721648,-0.248537,-0.00907141,
0.363606,-0.219011,0.0183224,-1.77551,0.109294,-0.176988,-0.382845,0.705493,0.0210597,0.794999,-0.209233,0.765379,0.055053,0.00902573,0,0,0,0,0,0,0,0.359856,-0.218423,0.0149479,-1.77297,0.102446,1.39405,0.402189,0.552247,0.0219771,0.580299,-0.115292,0.34281,0.0779706,-0.000936093,-1.23822,-27.4565,-1.43523,25.6815,1.15509,2.14501,0.017502,-1.73468,2.17003,-2.00461,-1.34901,-0.0755356,1.18535,1.16436,0.692544,1.26378,-0.928973,0.721648,-0.248537,-0.00907141,
0.349824,-0.21928,0.00308711,-1.77134,0.0957386,-0.178146,-0.383049,0.652045,0.000635655,0.697423,-0.203252,0.525659,0.0749083,0.0123895,0,0,0,0,0,0,0,0.359856,-0.218423,0.0149479,-1.77297,0.102446,1.39405,0.402189,0.552247,0.0219771,0.580299,-0.115292,0.34281,0.0779706,-0.000936093,-1.23822,-27.4565,-1.43523,25.6815,1.15509,2.14501,0.017502,-1.6018,-0.57047,-2.02762,0.392536,-0.114347,-0.00135606,0.0228831,0.317471,-0.0947599,-0.836862,0.389682,-0.202223,-0.00568089,
0.367187,-0.218385,0.0228452,-1.77519,0.107995,-0.175515,-0.383053,0.633778,0.00402401,0.691891,-0.197769,0.519735,0.0968,0.0124969,0,0,0,0,0,0,0,0.359856,-0.218423,0.0149479,-1.77297,0.102446,1.39405,0.402189,0.552247,0.0219771,0.580299,-0.115292,0.34281,0.0779706,-0.000936093,-1.23822,-27.4565,-1.43523,25.6815,1.15509,2.14501,0.017502,-0.735236,-1.54997,-2.24582,1.01678,0.587205,-0.579773,-0.504255,0.590673,-0.796371,-0.961995,0.318006,-0.191409,-0.00442602,
0.369791,-0.218353,0.0257212,-1.776,0.110291,-0.17516,-0.383006,0.650938,0.00802879,0.718995,-0.201698,0.573997,0.0888418,0.0116031,0,0,0,0,0,0,0,0.376798,-0.217476,0.0343387,-1.77645,0.114595,1.39644,0.402193,0.538767,0.0250747,0.645529,-0.109864,0.418789,0.0770943,0.00068829,0.793033,-26.8575,0.461134,25.3601,2.19329,1.93261,-0.0227812,-0.735236,-1.54997,-2.24582,1.01678,0.587205,-0.579773,-0.504255,0.590673,-0.796371,-0.961995,0.318006,-0.191409,-0.00442602,
0.372449,-0.218304,0.0286896,-1.77681,0.112791,-0.174829,-0.382963,0.66469,0.0122096,0.742109,-0.203554,0.625175,0.0828635,0.010808,0,0,0,0,0,0,0,0.376798,-0.217476,0.0343387,-1.77645,0.114595,1.39644,0.402193,0.538767,0.0250747,0.645529,-0.109864,0.418789,0.0770943,0.00068829,0.793033,-26.8575,0.461134,25.3601,2.19329,1.93261,-0.0227812,-0.911138,0.45687,-2.67667,-0.344949,0.746984,0.304461,0.355643,1.04723,0.208412,-1.2116,0.581672,-0.239706,-0.00797723,
0.375152,-0.218239,0.0317375,-1.77763,0.115481,-0.174511,-0.382922,0.675554,0.0161256,0.761966,-0.204333,0.672493,0.0793305,0.0101491,0,0,0,0,0,0,0,0.376798,-0.217476,0.0343387,-1.77645,0.114595,1.39644,0.402193,0.538767,0.0250747,0.645529,-0.109864,0.418789,0.0770943,0.00068829,0.793033,-26.8575,0.461134,25.3601,2.19329,1.93261,-0.0227812,-0.911138,0.45687,-2.67667,-0.344949,0.746984,0.304461,0.355643,1.04723,0.208412,-1.2116,0.581672,-0.239706,-0.00797723,
0.377896,-0.218161,0.0348546,-1.77845,0.118283,-0.1742,-0.382884,0.686245,0.0196331,0.77928,-0.203789,0.700557,0.0778819,0.00954596,0,0,0,0,0,0,0,0.376798,-0.217476,0.0343387,-1.77645,0.114595,1.39644,0.402193,0.538767,0.0250747,0.645529,-0.109864,0.418789,0.0770943,0.00068829,0.793033,-26.8575,0.461134,25.3601,2.19329,1.93261,-0.0227812,-1.58511,1.3621,-2.63507,-0.953682,0.284065,0.824489,0.8243,0.940988,0.839614,-1.18746,0.684283,-0.265321,-0.00850077,
0.380685,-0.218071,0.0380233,-1.77926,0.121148,-0.173886,-0.382848,0.697185,0.0225635,0.792169,-0.202746,0.716098,0.0783961,0.00896274,0,0,0,0,0,0,0,0.376798,-0.217476,0.0343387,-1.77645,0.114595,1.39644,0.402193,0.538767,0.0250747,0.645529,-0.109864,0.418789,0.0770943,0.00068829,0.793033,-26.8575,0.461134,25.3601,2.19329,1.93261,-0.0227812,-1.58511,1.3621,-2.63507,-0.953682,0.284065,0.824489,0.8243,0.940988,0.839614,-1.18746,0.684283,-0.265321,-0.00850077,
0.367188,-0.218385,0.0228457,-1.77519,0.107986,-0.175513,-0.383053,0.633848,0.00400728,0.691951,-0.197775,0.518712,0.0970785,0.0124916,0,0,0,0,0,0,0,0.376798,-0.217476,0.0343387,-1.77645,0.114595,1.39644,0.402193,0.538767,0.0250747,0.645529,-0.109864,0.418789,0.0770943,0.00068829,0.793033,-26.8575,0.461134,25.3601,2.19329,1.93261,-0.0227812,-1.80916,-0.125205,-2.4842,-0.0407813,-0.0794519,0.271471,0.296792,0.515098,0.217639,-1.02243,0.435309,-0.214097,-0.00803354,
0.384253,-0.217405,0.042578,-1.77861,0.120889,-0.173014,-0.383058,0.641223,0.00652137,0.715883,-0.193179,0.576779,0.110438,0.011623,0,0,0,0,0,0,0,0.394239,-0.216468,0.0542319,-1.77965,0.126493,1.3993,0.402194,0.538417,0.0351159,0.633617,-0.103503,0.421347,0.0888855,-0.000304053,2.26093,-27.282,1.13954,25.134,2.15667,1.91887,-0.0026396,-0.653736,-1.09235,-2.40136,0.605365,0.697087,-0.370098,-0.293424,0.749813,-0.550538,-1.03604,0.340052,-0.184759,-0.00674821,
0.386876,-0.217364,0.0455377,-1.7794,0.12339,-0.172594,-0.383014,0.655614,0.010291,0.739938,-0.196979,0.625273,0.105038,0.0108691,0,0,0,0,0,0,0,0.394239,-0.216468,0.0542319,-1.77965,0.126493,1.3993,0.402194,0.538417,0.0351159,0.633617,-0.103503,0.421347,0.0888855,-0.000304053,2.26093,-27.282,1.13954,25.134,2.15667,1.91887,-0.0026396,-0.653736,-1.09235,-2.40136,0.605365,0.697087,-0.370098,-0.293424,0.749813,-0.550538,-1.03604,0.340052,-0.184759,-0.00674821,
0.389552,-0.217307,0.0485806,-1.78019,0.126011,-0.172191,-0.382973,0.669223,0.0142255,0.760719,-0.19802,0.65533,0.100789,0.0101711,0,0,0,0,0,0,0,0.394239,-0.216468,0.0542319,-1.77965,0.126493,1.3993,0.402194,0.538417,0.0351159,0.633617,-0.103503,0.421347,0.0888855,-0.000304053,2.26093,-27.282,1.13954,25.134,2.15667,1.91887,-0.0026396,-1.04727,1.83162,-2.81821,-1.36301,0.786072,0.921279,0.958544,1.34062,0.920733,-1.33564,0.722516,-0.282662,-0.00968553,
0.392283,-0.217236,0.0516865,-1.78099,0.128705,-0.171797,-0.382935,0.682592,0.017724,0.77647,-0.197999,0.67342,0.0984344,0.00950227,0,0,0,0,0,0,0,0.394239,-0.216468,0.0542319,-1.77965,0.126493,1.3993,0.402194,0.538417,0.0351159,0.633617,-0.103503,0.421347,0.0888855,-0.000304053,2.26093,-27.282,1.13954,25.134,2.15667,1.91887,-0.0026396,-1.04727,1.83162,-2.81821,-1.36301,0.786072,0.921279,0.958544,1.34062,0.920733,-1.33564,0.722516,-0.282662,-0.00968553,
0.395056,-0.217154,0.0548438,-1.78177,0.131442,-0.171406,-0.3829,0.693369,0.0206632,0.789327,-0.197495,0.684224,0.0978721,0.00888071,0,0,0,0,0,0,0,0.394239,-0.216468,0.0542319,-1.77965,0.126493,1.3993,0.402194,0.538417,0.0351159,0.633617,-0.103503,0.421347,0.0888855,-0.000304053,2.26093,-27.282,1.13954,25.134,2.15667,1.91887,-0.0026396,-1.4034,0.231131,-2.58841,-0.281746,0.389369,0.341752,0.353078,0.867457,0.29184,-1.18377,0.586061,-0.286969,-0.0060807,
0.397863,-0.217061,0.0580419,-1.78256,0.134206,-0.171011,-0.382866,0.701637,0.0230845,0.799537,-0.196739,0.690993,0.0988436,0.00835668,0,0,0,0,0,0,0,0.412093,-0.215733,0.0750586,-1.78311,0.138723,1.40287,0.402196,0.547869,0.0320121,0.624224,-0.100693,0.370787,0.12049,0.000654568,0.360599,-27.8334,-1.01073,25.134,1.48559,1.99212,-0.0026396,-1.4034,0.231131,-2.58841,-0.281746,0.389369,0.341752,0.353078,0.867457,0.29184,-1.18377,0.586061,-0.286969,-0.0060807,
0.384261,-0.217407,0.0425833,-1.77861,0.120796,-0.172993,-0.383058,0.641952,0.00635941,0.716507,-0.19319,0.566091,0.112952,0.0115715,0,0,0,0,0,0,0,0.412093,-0.215733,0.0750586,-1.78311,0.138723,1.40287,0.402196,0.547869,0.0320121,0.624224,-0.100693,0.370787,0.12049,0.000654568,0.360599,-27.8334,-1.01073,25.134,1.48559,1.99212,-0.0026396,-2.28644,-1.08296,-2.51475,0.527562,-0.388603,0.0419114,0.0939761,0.274229,-0.0676217,-1.03828,0.392146,-0.274846,-0.00693577,
0.419372,-0.215601,0.0832876,-1.7852,0.144504,-0.166071,-0.383058,0.627772,0.0110954,0.715887,-0.186723,0.524929,0.152049,0.0115589,0,0,0,0,0,0,0,0.412093,-0.215733,0.0750586,-1.78311,0.138723,1.40287,0.402196,0.547869,0.0320121,0.624224,-0.100693,0.370787,0.12049,0.000654568,0.360599,-27.8334,-1.01073,25.134,1.48559,1.99212,-0.0026396,-1.32988,-1.09482,-2.4483,0.555143,0.301751,-0.182589,-0.103078,0.602532,-0.348175,-1.0812,0.410594,-0.262632,-0.00472342,
0.421959,-0.215544,0.0862411,-1.78596,0.146705,-0.165491,-0.383015,0.646893,0.0142602,0.738366,-0.190105,0.550183,0.144984,0.0107391,0,0,0,0,0,0,0,0.412093,-0.215733,0.0750586,-1.78311,0.138723,1.40287,0.402196,0.547869,0.0320121,0.624224,-0.100693,0.370787,0.12049,0.000654568,0.360599,-27.8334,-1.01073,25.134,1.48559,1.99212,-0.0026396,-1.32988,-1.09482,-2.4483,0.555143,0.301751,-0.182589,-0.103078,0.602532,-0.348175,-1.0812,0.410594,-0.262632,-0.00472342,
0.424609,-0.215475,0.0892686,-1.78672,0.148979,-0.164935,-0.382975,0.662528,0.0174077,0.756872,-0.191506,0.568466,0.139089,0.0099624,0,0,0,0,0,0,0,0.412093,-0.215733,0.0750586,-1.78311,0.138723,1.40287,0.402196,0.547869,0.0320121,0.624224,-0.100693,0.370787,0.12049,0.000654568,0.360599,-27.8334,-1.01073,25.134,1.48559,1.99212,-0.0026396,-1.14166,0.749066,-2.729,-0.692474,0.686469,0.509325,0.547403,1.15523,0.457052,-1.29947,0.661942,-0.310489,-0.00819825,
0.427309,-0.215394,0.0923559,-1.78749,0.15131,-0.164395,-0.382938,0.674909,0.0201682,0.771834,-0.192027,0.582809,0.134952,0.00929816,0,0,0,0,0,0,0,0.429097,-0.214966,0.0953545,-1.78666,0.1514,1.40719,0.402194,0.522714,0.0137318,0.623144,-0.106157,0.343958,0.151242,-0.000259948,-1.08349,-26.8099,-2.13744,25.2847,1.57074,2.00493,0.0101778,-1.14166,0.749066,-2.729,-0.692474,0.686469,0.509325,0.547403,1.15523,0.457052,-1.29947,0.661942,-0.310489,-0.00819825,
0.430047,-0.215304,0.0954906,-1.78826,0.153687,-0.163865,-0.382903,0.684489,0.0224857,0.783668,-0.19204,0.594397,0.132555,0.00867467,0,0,0,0,0,0,0,0.429097,-0.214966,0.0953545,-1.78666,0.1514,1.40719,0.402194,0.522714,0.0137318,0.623144,-0.106157,0.343958,0.151242,-0.000259948,-1.08349,-26.8099,-2.13744,25.2847,1.57074,2.00493,0.0101778,-1.01087,0.440384,-2.88024,-0.562494,0.805889,0.353684,0.360019,1.21184,0.318887,-1.35908,0.612,-0.308761,-0.00735566,
0.432814,-0.215207,0.0986621,-1.78903,0.156097,-0.163338,-0.382871,0.691795,0.0243956,0.792889,-0.191626,0.602403,0.131706,0.00814236,0,0,0,0,0,0,0,0.429097,-0.214966,0.0953545,-1.78666,0.1514,1.40719,0.402194,0.522714,0.0137318,0.623144,-0.106157,0.343958,0.151242,-0.000259948,-1.08349,-26.8099,-2.13744,25.2847,1.57074,2.00493,0.0101778,-1.01087,0.440384,-2.88024,-0.562494,0.805889,0.353684,0.360019,1.21184,0.318887,-1.35908,0.612,-0.308761,-0.00735566,
0.419435,-0.21561,0.0833314,-1.78518,0.143703,-0.165978,-0.383063,0.633852,0.00998466,0.721048,-0.185591,0.432682,0.162889,0.0111027,0,0,0,0,0,0,0,0.429097,-0.214966,0.0953545,-1.78666,0.1514,1.40719,0.402194,0.522714,0.0137318,0.623144,-0.106157,0.343958,0.151242,-0.000259948,-1.08349,-26.8099,-2.13744,25.2847,1.57074,2.00493,0.0101778,-1.14132,-0.647229,-2.86253,0.0624174,0.546852,-0.0227103,0.0170419,0.905111,-0.109965,-1.26063,0.388461,-0.254967,-0.00393956,
0.436297,-0.214944,0.103556,-1.78865,0.155671,-0.161387,-0.383062,0.625404,0.00354238,0.713481,-0.176335,0.359941,0.184595,0.0111293,0,0,0,0,0,0,0,0.429097,-0.214966,0.0953545,-1.78666,0.1514,1.40719,0.402194,0.522714,0.0137318,0.623144,-0.106157,0.343958,0.151242,-0.000259948,-1.08349,-26.8099,-2.13744,25.2847,1.57074,2.00493,0.0101778,-1.14487,0.0295406,-2.53211,-0.310641,0.432186,0.255053,0.326098,0.865551,0.172077,-1.12009,0.446237,-0.223903,-0.00281462,
0.438872,-0.214915,0.106501,-1.78937,0.15713,-0.160667,-0.383021,0.643928,0.00722405,0.736102,-0.180272,0.36492,0.179943,0.0102814,0,0,0,0,0,0,0,0.429097,-0.214966,0.0953545,-1.78666,0.1514,1.40719,0.402194,0.522714,0.0137318,0.623144,-0.106157,0.343958,0.151242,-0.000259948,-1.08349,-26.8099,-2.13744,25.2847,1.57074,2.00493,0.0101778,-1.14487,0.0295406,-2.53211,-0.310641,0.432186,0.255053,0.326098,0.865551,0.172077,-1.12009,0.446237,-0.223903,-0.00281462,
0.441506,-0.214872,0.109517,-1.7901,0.158614,-0.159965,-0.382983,0.658426,0.0107675,0.754026,-0.182475,0.371036,0.175659,0.00949244,0,0,0,0,0,0,0,0.451121,-0.214135,0.121569,-1.7911,0.165225,1.41392,0.402199,0.543719,0.0192053,0.626621,-0.0988132,0.283537,0.164005,0.000782849,-1.64288,-26.9844,-2.81188,25.5069,1.23474,2.11846,-0.0365141,-0.881257,1.45333,-2.73887,-1.27759,0.811747,0.730392,0.768947,1.34179,0.730505,-1.28824,0.639522,-0.254549,-0.00329154,
0.444185,-0.214816,0.112589,-1.79083,0.16012,-0.159275,-0.382948,0.669689,0.0139103,0.76811,-0.183677,0.37639,0.172429,0.00882206,0,0,0,0,0,0,0,0.451121,-0.214135,0.121569,-1.7911,0.165225,1.41392,0.402199,0.543719,0.0192053,0.626621,-0.0988132,0.283537,0.164005,0.000782849,-1.64288,-26.9844,-2.81188,25.5069,1.23474,2.11846,-0.0365141,-0.881257,1.45333,-2.73887,-1.27759,0.811747,0.730392,0.768947,1.34179,0.730505,-1.28824,0.639522,-0.254549,-0.00329154,
0.446899,-0.21475,0.115706,-1.79157,0.161634,-0.158593,-0.382915,0.678451,0.0165997,0.779129,-0.184131,0.378444,0.170417,0.0082662,0,0,0,0,0,0,0,0.451121,-0.214135,0.121569,-1.7911,0.165225,1.41392,0.402199,0.543719,0.0192053,0.626621,-0.0988132,0.283537,0.164005,0.000782849,-1.64288,-26.9844,-2.81188,25.5069,1.23474,2.11846,-0.0365141,-0.753675,0.707371,-2.69933,-0.768101,0.879282,0.3982,0.407606,1.24982,0.377603,-1.26745,0.609731,-0.25619,-0.00334021,
0.436513,-0.214964,0.103703,-1.78858,0.152796,-0.161233,-0.383081,0.64557,0.000377098,0.730505,-0.170296,0.0323252,0.202714,0.00963465,0,0,0,0,0,0,0,0.451121,-0.214135,0.121569,-1.7911,0.165225,1.41392,0.402199,0.543719,0.0192053,0.626621,-0.0988132,0.283537,0.164005,0.000782849,-1.64288,-26.9844,-2.81188,25.5069,1.23474,2.11846,-0.0365141,-1.0601,-0.674663,-2.52129,0.0967946,0.472338,-0.0261214,-0.00149574,0.796887,-0.0997935,-1.12987,0.39637,-0.246729,-0.000662886,
0.458558,-0.214094,0.12998,-1.79295,0.166015,-0.154311,-0.383076,0.644075,0.00296774,0.732543,-0.166082,-0.0133807,0.219714,0.00960269,0,0,0,0,0,0,0,0.451121,-0.214135,0.121569,-1.7911,0.165225,1.41392,0.402199,0.543719,0.0192053,0.626621,-0.0988132,0.283537,0.164005,0.000782849,-1.64288,-26.9844,-2.81188,25.5069,1.23474,2.11846,-0.0365141,-1.0601,-0.674663,-2.52129,0.0967946,0.472338,-0.0261214,-0.00149574,0.796887,-0.0997935,-1.12987,0.39637,-0.246729,-0.000662886,
0.461199,-0.214074,0.132996,-1.79363,0.165753,-0.153439,-0.383041,0.660121,0.00503503,0.753989,-0.170956,-0.0656417,0.217976,0.00886932,0,0,0,0,0,0,0,0.467893,-0.213246,0.141701,-1.79406,0.172579,1.4193,0.402199,0.534335,0.0282196,0.641079,-0.0959832,0.197964,0.181455,0.00144636,-0.222592,-26.7107,-1.56218,25.6061,1.66229,1.9262,-0.0365141,-0.953643,-0.889196,-1.8545,0.361382,0.234126,-0.113504,-0.0429526,0.465357,-0.236343,-0.814116,0.304179,-0.185281,0.000643908,
0.463887,-0.214044,0.136076,-1.79433,0.165326,-0.152579,-0.383008,0.671942,0.00739549,0.769914,-0.173896,-0.106639,0.214841,0.00827835,0,0,0,0,0,0,0,0.467893,-0.213246,0.141701,-1.79406,0.172579,1.4193,0.402199,0.534335,0.0282196,0.641079,-0.0959832,0.197964,0.181455,0.00144636,-0.222592,-26.7107,-1.56218,25.6061,1.66229,1.9262,-0.0365141,-0.953643,-0.889196,-1.8545,0.361382,0.234126,-0.113504,-0.0429526,0.465357,-0.236343,-0.814116,0.304179,-0.185281,0.000643908,
0.466608,-0.214006,0.139202,-1.79503,0.164765,-0.151733,-0.382977,0.680422,0.00966684,0.781579,-0.175731,-0.140277,0.211532,0.00777731,0,0,0,0,0,0,0,0.467893,-0.213246,0.141701,-1.79406,0.172579,1.4193,0.402199,0.534335,0.0282196,0.641079,-0.0959832,0.197964,0.181455,0.00144636,-0.222592,-26.7107,-1.56218,25.6061,1.66229,1.9262,-0.0365141,-1.13919,1.09442,-2.28713,-1.094,0.370191,0.691127,0.730239,1.00136,0.706774,-1.07479,0.488806,-0.244662,0.000234885,
0.469353,-0.213959,0.142361,-1.79574,0.164094,-0.150899,-0.382947,0.686089,0.0116977,0.789845,-0.17692,-0.167704,0.208626,0.00733828,0,0,0,0,0,0,0,0.467893,-0.213246,0.141701,-1.79406,0.172579,1.4193,0.402199,0.534335,0.0282196,0.641079,-0.0959832,0.197964,0.181455,0.00144636,-0.222592,-26.7107,-1.56218,25.6061,1.66229,1.9262,-0.0365141,-0.25643,-0.641251,-2.38805,-0.055113,0.979703,-0.211995,-0.198026,1.06977,-0.272625,-1.18049,0.294606,-0.286211,0.00604838,
0.458689,-0.214229,0.129998,-1.79296,0.161255,-0.15348,-0.383093,0.649178,-0.0122101,0.733323,-0.167199,-0.546284,0.307652,0.00873968,0,0,0,0,0,0,0,0.467893,-0.213246,0.141701,-1.79406,0.172579,1.4193,0.402199,0.534335,0.0282196,0.641079,-0.0959832,0.197964,0.181455,0.00144636,-0.222592,-26.7107,-1.56218,25.6061,1.66229,1.9262,-0.0365141,-0.25643,-0.641251,-2.38805,-0.055113,0.979703,-0.211995,-0.198026,1.06977,-0.272625,-1.18049,0.294606,-0.286211,0.00604838,
0.475302,-0.213253,0.15005,-1.79592,0.168781,-0.148078,-0.383081,0.632568,-0.00603886,0.721099,-0.16808,-0.488176,0.307538,0.00932118,0,0,0,0,0,0,0,0.467893,-0.213246,0.141701,-1.79406,0.172579,1.4193,0.402199,0.534335,0.0282196,0.641079,-0.0959832,0.197964,0.181455,0.00144636,-0.222592,-26.7107,-1.56218,25.6061,1.66229,1.9262,-0.0365141,-1.37822,-1.13164,-2.00832,0.293189,-0.107187,-0.0248672,0.0081006,0.351648,-0.071671,-0.883825,0.135103,-0.239028,0.00200123,
0.477858,-0.213281,0.152986,-1.79661,0.166404,-0.146819,-0.383045,0.639021,-0.00702337,0.733989,-0.17383,-0.594184,0.314937,0.00885202,0,0,0,0,0,0,0,0.485194,-0.212379,0.16204,-1.79661,0.173299,1.42545,0.402196,0.554748,0.0318684,0.672917,-0.0833495,-0.0242573,0.210186,-0.008487,0.919986,-26.8575,-0.713182,25.4831,1.1615,1.9262,-0.0026396,-1.37822,-1.13164,-2.00832,0.293189,-0.107187,-0.0248672,0.0081006,0.351648,-0.071671,-0.883825,0.135103,-0.239028,0.00200123,
0.480424,-0.213309,0.15595,-1.79732,0.163727,-0.145548,-0.383012,0.641544,-0.00678378,0.740987,-0.177454,-0.669404,0.317576,0.00844874,0,0,0,0,0,0,0,0.485194,-0.212379,0.16204,-1.79661,0.173299,1.42545,0.402196,0.554748,0.0318684,0.672917,-0.0833495,-0.0242573,0.210186,-0.008487,0.919986,-26.8575,-0.713182,25.4831,1.1615,1.9262,-0.0026396,-0.753302,-0.719881,-2.07117,-0.134477,0.24725,-0.0284258,0.0230536,0.617928,-0.0527421,-0.930806,-0.0152374,-0.206173,0.00187785,
0.48299,-0.213332,0.158926,-1.79804,0.160834,-0.144277,-0.382979,0.641351,-0.00593045,0.743912,-0.179813,-0.723065,0.317694,0.00810557,0,0,0,0,0,0,0,0.485194,-0.212379,0.16204,-1.79661,0.173299,1.42545,0.402196,0.554748,0.0318684,0.672917,-0.0833495,-0.0242573,0.210186,-0.008487,0.919986,-26.8575,-0.713182,25.4831,1.1615,1.9262,-0.0026396,-0.753302,-0.719881,-2.07117,-0.134477,0.24725,-0.0284258,0.0230536,0.617928,-0.0527421,-0.930806,-0.0152374,-0.206173,0.00187785,
0.485547,-0.213351,0.161902,-1.79877,0.157788,-0.143011,-0.382947,0.639291,-0.00477612,0.74403,-0.181312,-0.761585,0.316499,0.00802381,0,0,0,0,0,0,0,0.485194,-0.212379,0.16204,-1.79661,0.173299,1.42545,0.402196,0.554748,0.0318684,0.672917,-0.0833495,-0.0242573,0.210186,-0.008487,0.919986,-26.8575,-0.713182,25.4831,1.1615,1.9262,-0.0026396,-1.02526,1.27293,-2.60076,-1.69348,0.249495,0.79072,0.803729,1.12617,0.936223,-1.18752,0.0612618,-0.23063,-0.000648413,
0.475008,-0.213313,0.149744,-1.79598,0.168494,-0.147899,-0.383094,0.600478,-0.0115637,0.685612,-0.171346,-0.546379,0.322666,0.00861471,0,0,0,0,0,0,0,0.485194,-0.212379,0.16204,-1.79661,0.173299,1.42545,0.402196,0.554748,0.0318684,0.672917,-0.0833495,-0.0242573,0.210186,-0.008487,0.919986,-26.8575,-0.713182,25.4831,1.1615,1.9262,-0.0026396,-0.53256,-0.643074,-2.25978,-0.39362,0.317424,-0.0367455,-0.0131981,0.727819,0.00451426,-1.00071,-0.194611,-0.18842,0.00192583,
