PerkyPenguin/Analysis-on-Approximated-Derivatives/Code_and_Data/PaperData/Real_Robot/Scene_2/set_interval/9/trajectory.csv
Commanded Joint 0 Position,Commanded Joint 1 Position,Commanded Joint 2 Position,Commanded Joint 3 Position,Commanded Joint 4 Position,Commanded Joint 5 Position,Commanded Joint 6 Position,Commanded Joint 0 Velocity,Commanded Joint 1 Velocity,Commanded Joint 2 Velocity,Commanded Joint 3 Velocity,Commanded Joint 4 Velocity,Commanded Joint 5 Velocity,Commanded Joint 6 Velocity,Commanded Joint 0 Torque,Commanded Joint 1 Torque,Commanded Joint 2 Torque,Commanded Joint 3 Torque,Commanded Joint 4 Torque,Commanded Joint 5 Torque,Commanded Joint 6 Torque,Actual Joint 0 Position,Actual Joint 1 Position,Actual Joint 2 Position,Actual Joint 3 Position,Actual Joint 4 Position,Actual Joint 5 Position,Actual Joint 6 Position,Actual Joint 0 Velocity,Actual Joint 1 Velocity,Actual Joint 2 Velocity,Actual Joint 3 Velocity,Actual Joint 4 Velocity,Actual Joint 5 Velocity,Actual Joint 6 Velocity,Actual Joint 0 Torque,Actual Joint 1 Torque,Actual Joint 2 Torque,Actual Joint 3 Torque,Actual Joint 4 Torque,Actual Joint 5 Torque,Actual Joint 6 Torque,EE ext force 0,EE ext force 1,EE ext force 2,EE ext force 3,EE ext force 4,EE ext force 5,joint ext torque 0,joint ext torque 1,joint ext torque 2,joint ext torque 3,joint ext torque 4,joint ext torque 5,joint ext torque 6,
0.0203585,-0.0546593,0.511937,-1.5673,0.0398276,-0.0126854,0.531206,0.0108851,0.0300652,0.0152456,-0.144068,-0.0727857,0.201561,-0.00127604,0,0,0,0,0,0,0,0.0202802,-0.0547854,0.511823,-1.56586,0.0404585,1.55612,1.31662,0.00070359,-0.00049215,-0.000254487,0.000541163,-0.00523673,-0.000394035,0.000408614,0.182071,-27.5081,-0.788561,26.951,0.740353,3.05321,0.0706026,1.97337,1.83527,2.06651,-0.935397,1.06415,0.203005,0.20484,0.413034,0.21824,0.191333,0.147721,-0.326534,0.0904418,
0.0204157,-0.0544575,0.512014,-1.56792,0.0394651,-0.0118444,0.531201,0.0143142,0.0504306,0.019467,-0.154898,-0.0906208,0.210271,-0.0013626,0,0,0,0,0,0,0,0.0202802,-0.0547854,0.511823,-1.56586,0.0404585,1.55612,1.31662,0.00070359,-0.00049215,-0.000254487,0.000541163,-0.00523673,-0.000394035,0.000408614,0.182071,-27.5081,-0.788561,26.951,0.740353,3.05321,0.0706026,1.97337,1.83527,2.06651,-0.935397,1.06415,0.203005,0.20484,0.413034,0.21824,0.191333,0.147721,-0.326534,0.0904418,
0.0202796,-0.0547938,0.511823,-1.56586,0.040413,-0.0146771,0.531221,-9.74653e-05,-0.000457973,-4.53621e-05,0.000164461,-0.00196799,4.85343e-05,-2.75797e-06,0,0,0,0,0,0,0,0.0202802,-0.0547854,0.511823,-1.56586,0.0404585,1.55612,1.31662,0.00070359,-0.00049215,-0.000254487,0.000541163,-0.00523673,-0.000394035,0.000408614,0.182071,-27.5081,-0.788561,26.951,0.740353,3.05321,0.0706026,2.05265,1.82295,2.02985,-0.950622,1.13406,0.175222,0.177854,0.456973,0.190652,0.165767,0.131815,-0.331235,0.0897542,
0.0202792,-0.0547954,0.511823,-1.56585,0.0404065,-0.0146769,0.531221,-0.000109893,-0.000416199,-5.28049e-05,0.000159321,-0.00161201,4.90358e-05,-1.08277e-06,0,0,0,0,0,0,0,0.0202802,-0.0547854,0.511823,-1.56586,0.0404585,1.55612,1.31662,0.00070359,-0.00049215,-0.000254487,0.000541163,-0.00523673,-0.000394035,0.000408614,0.182071,-27.5081,-0.788561,26.951,0.740353,3.05321,0.0706026,2.05265,1.82295,2.02985,-0.950622,1.13406,0.175222,0.177854,0.456973,0.190652,0.165767,0.131815,-0.331235,0.0897542,
0.0202787,-0.054797,0.511823,-1.56585,0.0404012,-0.0146767,0.531221,-0.000114874,-0.000382016,-5.29925e-05,0.000153337,-0.0013374,4.40618e-05,-3.07117e-08,0,0,0,0,0,0,0,0.0202802,-0.0547854,0.511823,-1.56586,0.0404585,1.55612,1.31662,0.00070359,-0.00049215,-0.000254487,0.000541163,-0.00523673,-0.000394035,0.000408614,0.182071,-27.5081,-0.788561,26.951,0.740353,3.05321,0.0706026,1.57586,1.38888,2.27448,-0.532325,0.636713,0.111351,0.112697,0.112966,0.113667,0.37663,0.136838,-0.276215,0.0897364,
0.0202782,-0.0547984,0.511823,-1.56585,0.0403967,-0.0146765,0.531221,-0.000115029,-0.00035462,-4.864e-05,0.000146511,-0.00112325,3.47825e-05,6.47761e-07,0,0,0,0,0,0,0,0.0202769,-0.0548646,0.51182,-1.56622,0.0404128,1.55652,1.31662,0.000827992,-0.00560887,0.00101571,-0.0318497,-0.00329586,0.0511292,-0.000316801,0.233646,-26.5083,-0.713182,25.0586,0.617672,2.86095,0.0980684,1.57586,1.38888,2.27448,-0.532325,0.636713,0.111351,0.112697,0.112966,0.113667,0.37663,0.136838,-0.276215,0.0897364,
0.0202778,-0.0547997,0.511823,-1.56585,0.0403929,-0.0146765,0.531221,-0.0001121,-0.000332959,-4.15363e-05,0.000139278,-0.000954571,2.19487e-05,1.08793e-06,0,0,0,0,0,0,0,0.0202769,-0.0548646,0.51182,-1.56622,0.0404128,1.55652,1.31662,0.000827992,-0.00560887,0.00101571,-0.0318497,-0.00329586,0.0511292,-0.000316801,0.233646,-26.5083,-0.713182,25.0586,0.617672,2.86095,0.0980684,0.562107,1.12282,1.24374,-0.587348,0.278569,0.273197,0.270875,0.0952491,0.286604,0.0723409,0.135737,-0.297166,0.0903237,
0.0202774,-0.054801,0.511822,-1.56585,0.0403896,-0.0146764,0.531221,-0.00010727,-0.000316035,-3.28793e-05,0.000132038,-0.000820432,6.27248e-06,1.37088e-06,0,0,0,0,0,0,0,0.0202769,-0.0548646,0.51182,-1.56622,0.0404128,1.55652,1.31662,0.000827992,-0.00560887,0.00101571,-0.0318497,-0.00329586,0.0511292,-0.000316801,0.233646,-26.5083,-0.713182,25.0586,0.617672,2.86095,0.0980684,1.27174,1.81179,0.6297,-1.24506,1.03437,0.386648,0.38254,0.623266,0.4243,-0.241243,0.136711,-0.282798,0.0900772,
0.0202769,-0.0548022,0.511822,-1.56585,0.0403867,-0.0146765,0.531221,-0.000101342,-0.000302986,-2.34709e-05,0.00012507,-0.000712755,-1.15389e-05,1.54882e-06,0,0,0,0,0,0,0,0.0202769,-0.0548646,0.51182,-1.56622,0.0404128,1.55652,1.31662,0.000827992,-0.00560887,0.00101571,-0.0318497,-0.00329586,0.0511292,-0.000316801,0.233646,-26.5083,-0.713182,25.0586,0.617672,2.86095,0.0980684,1.27174,1.81179,0.6297,-1.24506,1.03437,0.386648,0.38254,0.623266,0.4243,-0.241243,0.136711,-0.282798,0.0900772,
0.0202766,-0.0548034,0.511822,-1.56585,0.0403842,-0.0146766,0.531221,-9.48646e-05,-0.000293086,-1.3842e-05,0.000118545,-0.000625531,-3.08159e-05,1.6566e-06,0,0,0,0,0,0,0,0.0202769,-0.0548646,0.51182,-1.56622,0.0404128,1.55652,1.31662,0.000827992,-0.00560887,0.00101571,-0.0318497,-0.00329586,0.0511292,-0.000316801,0.233646,-26.5083,-0.713182,25.0586,0.617672,2.86095,0.0980684,2.10142,1.87676,1.15474,-1.15367,1.41304,0.181009,0.177473,0.723313,0.212163,-0.0733016,0.124447,-0.232123,0.0918581,
0.0202762,-0.0548045,0.511822,-1.56585,0.040382,-0.0146768,0.531221,-8.82029e-05,-0.00028573,-4.33725e-06,0.000112551,-0.000554253,-5.09581e-05,1.71777e-06,0,0,0,0,0,0,0,0.0202769,-0.0548646,0.51182,-1.56622,0.0404128,1.55652,1.31662,0.000827992,-0.00560887,0.00101571,-0.0318497,-0.00329586,0.0511292,-0.000316801,0.233646,-26.5083,-0.713182,25.0586,0.617672,2.86095,0.0980684,2.10142,1.87676,1.15474,-1.15367,1.41304,0.181009,0.177473,0.723313,0.212163,-0.0733016,0.124447,-0.232123,0.0918581,
0.0202759,-0.0548056,0.511822,-1.56585,0.04038,-0.0146771,0.531221,-8.15983e-05,-0.00028042,4.82723e-06,0.000107123,-0.000495517,-7.14514e-05,1.74838e-06,0,0,0,0,0,0,0,0.0202773,-0.054838,0.511813,-1.56636,0.0403944,1.55677,1.31662,0.000606544,0.0016796,0.000362095,-9.77033e-05,0.0164957,0.00260275,0.000715923,0.182071,-27.6827,-0.736986,27.2763,0.557247,3.13286,0.0577852,2.45804,1.8544,1.55882,-1.0467,1.49842,0.0701519,0.0571611,0.687572,0.105052,0.0707684,0.104001,-0.208179,0.09127,
0.0202756,-0.0548067,0.511822,-1.56585,0.0403782,-0.0146775,0.531221,-7.52053e-05,-0.000276747,1.3523e-05,0.000102262,-0.000446731,-9.18727e-05,1.75927e-06,0,0,0,0,0,0,0,0.0202773,-0.054838,0.511813,-1.56636,0.0403944,1.55677,1.31662,0.000606544,0.0016796,0.000362095,-9.77033e-05,0.0164957,0.00260275,0.000715923,0.182071,-27.6827,-0.736986,27.2763,0.557247,3.13286,0.0577852,2.45804,1.8544,1.55882,-1.0467,1.49842,0.0701519,0.0571611,0.687572,0.105052,0.0707684,0.104001,-0.208179,0.09127,
0.0202753,-0.0548078,0.511822,-1.56585,0.0403766,-0.0146779,0.531221,-6.9118e-05,-0.000274376,2.16815e-05,9.79439e-05,-0.000405908,-0.000111886,1.75779e-06,0,0,0,0,0,0,0,0.0202773,-0.054838,0.511813,-1.56636,0.0403944,1.55677,1.31662,0.000606544,0.0016796,0.000362095,-9.77033e-05,0.0164957,0.00260275,0.000715923,0.182071,-27.6827,-0.736986,27.2763,0.557247,3.13286,0.0577852,2.05055,1.95464,1.45242,-1.1312,1.26464,0.232886,0.20494,0.590161,0.28471,0.044286,0.137451,-0.22912,0.0893299,
0.0202751,-0.0548089,0.511823,-1.56585,0.0403751,-0.0146784,0.531221,-6.33892e-05,-0.000273034,2.92737e-05,9.41348e-05,-0.000371512,-0.000131236,1.74884e-06,0,0,0,0,0,0,0,0.0202773,-0.054838,0.511813,-1.56636,0.0403944,1.55677,1.31662,0.000606544,0.0016796,0.000362095,-9.77033e-05,0.0164957,0.00260275,0.000715923,0.182071,-27.6827,-0.736986,27.2763,0.557247,3.13286,0.0577852,1.88636,1.7541,1.64756,-0.957929,1.06574,0.186446,0.156321,0.443672,0.234761,0.130636,0.115808,-0.240495,0.0900426,
0.0202748,-0.05481,0.511823,-1.56585,0.0403738,-0.014679,0.531221,-5.80439e-05,-0.000272499,3.62972e-05,9.07932e-05,-0.000342343,-0.000149735,1.73566e-06,0,0,0,0,0,0,0,0.0202773,-0.054838,0.511813,-1.56636,0.0403944,1.55677,1.31662,0.000606544,0.0016796,0.000362095,-9.77033e-05,0.0164957,0.00260275,0.000715923,0.182071,-27.6827,-0.736986,27.2763,0.557247,3.13286,0.0577852,1.88636,1.7541,1.64756,-0.957929,1.06574,0.186446,0.156321,0.443672,0.234761,0.130636,0.115808,-0.240495,0.0900426,
0.0202746,-0.0548111,0.511823,-1.56585,0.0403725,-0.0146797,0.531221,-5.30879e-05,-0.00027259,4.27664e-05,8.7876e-05,-0.00031746,-0.000167256,1.72039e-06,0,0,0,0,0,0,0,0.0202968,-0.0548444,0.511822,-1.56635,0.0403096,1.55675,1.31662,0.00107281,-0.00208129,-0.000234746,-0.000112005,-0.013896,-0.0018078,0.000716474,-0.0202602,-27.6073,-0.812364,27.2763,1.18621,3.31139,0.0779268,1.71458,1.62401,1.79977,-0.831583,0.877214,0.175258,0.133618,0.310295,0.230164,0.207002,0.109126,-0.243473,0.0896806,
0.0202744,-0.0548122,0.511823,-1.56585,0.0403713,-0.0146804,0.531221,-4.85152e-05,-0.000273162,4.87061e-05,8.53401e-05,-0.000296116,-0.000183719,1.70437e-06,0,0,0,0,0,0,0,0.0202968,-0.0548444,0.511822,-1.56635,0.0403096,1.55675,1.31662,0.00107281,-0.00208129,-0.000234746,-0.000112005,-0.013896,-0.0018078,0.000716474,-0.0202602,-27.6073,-0.812364,27.2763,1.18621,3.31139,0.0779268,1.71458,1.62401,1.79977,-0.831583,0.877214,0.175258,0.133618,0.310295,0.230164,0.207002,0.109126,-0.243473,0.0896806,
0.0202742,-0.0548133,0.511823,-1.56585,0.0403702,-0.0146812,0.531221,-4.43115e-05,-0.000274099,5.41468e-05,8.31442e-05,-0.000277714,-0.000199083,1.68847e-06,0,0,0,0,0,0,0,0.0202968,-0.0548444,0.511822,-1.56635,0.0403096,1.55675,1.31662,0.00107281,-0.00208129,-0.000234746,-0.000112005,-0.013896,-0.0018078,0.000716474,-0.0202602,-27.6073,-0.812364,27.2763,1.18621,3.31139,0.0779268,1.82213,1.7311,1.63592,-0.930886,1.03296,0.194346,0.142835,0.431241,0.262043,0.129822,0.133656,-0.24394,0.0894469,
0.0202741,-0.0548144,0.511824,-1.56585,0.0403692,-0.0146821,0.531221,-4.04581e-05,-0.000275305,5.91221e-05,8.12499e-05,-0.000261775,-0.000213338,1.67318e-06,0,0,0,0,0,0,0,0.0202968,-0.0548444,0.511822,-1.56635,0.0403096,1.55675,1.31662,0.00107281,-0.00208129,-0.000234746,-0.000112005,-0.013896,-0.0018078,0.000716474,-0.0202602,-27.6073,-0.812364,27.2763,1.18621,3.31139,0.0779268,1.82213,1.7311,1.63592,-0.930886,1.03296,0.194346,0.142835,0.431241,0.262043,0.129822,0.133656,-0.24394,0.0894469,
0.0202739,-0.0548155,0.511824,-1.56585,0.0403682,-0.014683,0.531221,-3.69336e-05,-0.000276707,6.36664e-05,7.96219e-05,-0.000247908,-0.000226496,1.65878e-06,0,0,0,0,0,0,0,0.0202968,-0.0548444,0.511822,-1.56635,0.0403096,1.55675,1.31662,0.00107281,-0.00208129,-0.000234746,-0.000112005,-0.013896,-0.0018078,0.000716474,-0.0202602,-27.6073,-0.812364,27.2763,1.18621,3.31139,0.0779268,1.86327,1.59548,1.64377,-0.844532,1.05807,0.119824,0.0722183,0.44195,0.181604,0.127953,0.115827,-0.250293,0.09031,
0.0202738,-0.0548166,0.511824,-1.56585,0.0403672,-0.0146839,0.531221,-3.37156e-05,-0.000278244,6.7814e-05,7.8228e-05,-0.000235796,-0.00023859,1.64542e-06,0,0,0,0,0,0,0,0.0202466,-0.0548507,0.511796,-1.56631,0.0403348,1.55678,1.31662,-0.000292375,-0.000875533,0.00026426,0.00513187,-0.0100011,0.000529001,-0.000276276,0.487552,-27.5319,-0.586229,26.7288,0.948178,3.12554,0.0907442,1.52075,1.74148,1.66177,-0.946348,0.809072,0.284413,0.249336,0.308473,0.337053,0.149221,0.128434,-0.262637,0.089611,
0.0202737,-0.0548177,0.511824,-1.56585,0.0403663,-0.0146849,0.531221,-3.07814e-05,-0.00027987,7.15976e-05,7.70395e-05,-0.000225175,-0.000249662,1.63313e-06,0,0,0,0,0,0,0,0.0202466,-0.0548507,0.511796,-1.56631,0.0403348,1.55678,1.31662,-0.000292375,-0.000875533,0.00026426,0.00513187,-0.0100011,0.000529001,-0.000276276,0.487552,-27.5319,-0.586229,26.7288,0.948178,3.12554,0.0907442,1.52075,1.74148,1.66177,-0.946348,0.809072,0.284413,0.249336,0.308473,0.337053,0.149221,0.128434,-0.262637,0.089611,
0.0202736,-0.0548189,0.511825,-1.56585,0.0403655,-0.014686,0.531221,-2.8109e-05,-0.000281547,7.50485e-05,7.60307e-05,-0.000215829,-0.000259765,1.6219e-06,0,0,0,0,0,0,0,0.0202466,-0.0548507,0.511796,-1.56631,0.0403348,1.55678,1.31662,-0.000292375,-0.000875533,0.00026426,0.00513187,-0.0100011,0.000529001,-0.000276276,0.487552,-27.5319,-0.586229,26.7288,0.948178,3.12554,0.0907442,1.57738,1.85627,1.47231,-1.06845,0.938947,0.321759,0.305744,0.421779,0.360674,0.058853,0.14335,-0.271107,0.0899892,
0.0202735,-0.05482,0.511825,-1.56585,0.0403646,-0.0146871,0.531221,-2.56771e-05,-0.000283248,7.81959e-05,7.51786e-05,-0.000207576,-0.000268954,1.61169e-06,0,0,0,0,0,0,0,0.0202466,-0.0548507,0.511796,-1.56631,0.0403348,1.55678,1.31662,-0.000292375,-0.000875533,0.00026426,0.00513187,-0.0100011,0.000529001,-0.000276276,0.487552,-27.5319,-0.586229,26.7288,0.948178,3.12554,0.0907442,1.57738,1.85627,1.47231,-1.06845,0.938947,0.321759,0.305744,0.421779,0.360674,0.058853,0.14335,-0.271107,0.0899892,
0.0202734,-0.0548211,0.511825,-1.56585,0.0403638,-0.0146882,0.531221,-2.34656e-05,-0.00028495,8.1067e-05,7.44631e-05,-0.000200265,-0.000277292,1.60244e-06,0,0,0,0,0,0,0,0.0202466,-0.0548507,0.511796,-1.56631,0.0403348,1.55678,1.31662,-0.000292375,-0.000875533,0.00026426,0.00513187,-0.0100011,0.000529001,-0.000276276,0.487552,-27.5319,-0.586229,26.7288,0.948178,3.12554,0.0907442,1.58823,1.68729,1.5058,-0.943052,0.915079,0.241184,0.238479,0.393314,0.263746,0.0890579,0.123289,-0.259362,0.0903389,
0.0202733,-0.0548223,0.511826,-1.56585,0.040363,-0.0146893,0.531221,-2.14557e-05,-0.000286637,8.3687e-05,7.38663e-05,-0.000193769,-0.000284838,1.59408e-06,0,0,0,0,0,0,0,0.0202466,-0.0548507,0.511796,-1.56631,0.0403348,1.55678,1.31662,-0.000292375,-0.000875533,0.00026426,0.00513187,-0.0100011,0.000529001,-0.000276276,0.487552,-27.5319,-0.586229,26.7288,0.948178,3.12554,0.0907442,1.58823,1.68729,1.5058,-0.943052,0.915079,0.241184,0.238479,0.393314,0.263746,0.0890579,0.123289,-0.259362,0.0903389,
0.0202732,-0.0548234,0.511826,-1.56585,0.0403623,-0.0146905,0.531221,-1.96299e-05,-0.000288295,8.60789e-05,7.33726e-05,-0.000187978,-0.000291653,1.58653e-06,0,0,0,0,0,0,0,0.0202547,-0.0548711,0.511792,-1.56633,0.0403593,1.55677,1.31662,0.00178546,-0.000942222,0.000189865,0.000899787,-0.00994367,-0.00178344,0.000237462,0.134464,-27.4565,-0.76079,27.1017,0.642391,3.19237,0.0907442,1.53207,1.66577,1.60746,-0.882056,0.831359,0.247206,0.241041,0.327084,0.270266,0.146696,0.139999,-0.246438,0.0907372,
0.0204734,-0.0550597,0.512019,-1.56562,-0.0156484,-0.0499141,0.531066,-0.00518057,0.000919807,-0.00514946,-0.00229392,-0.334334,-0.212474,-0.000692614,0,0,0,0,0,0,0,0.0202547,-0.0548711,0.511792,-1.56633,0.0403593,1.55677,1.31662,0.00178546,-0.000942222,0.000189865,0.000899787,-0.00994367,-0.00178344,0.000237462,0.134464,-27.4565,-0.76079,27.1017,0.642391,3.19237,0.0907442,2.25261,1.88561,1.40863,-1.1137,1.45308,0.143121,0.130847,0.711852,0.180353,-0.0175183,0.12455,-0.257745,0.091549,
0.0204337,-0.0551779,0.511988,-1.56612,-0.00565193,-0.0434537,0.531135,-0.00443001,0.00021082,-0.00431636,-0.00208901,-0.256366,-0.170051,-0.000338084,0,0,0,0,0,0,0,0.0202547,-0.0548711,0.511792,-1.56633,0.0403593,1.55677,1.31662,0.00178546,-0.000942222,0.000189865,0.000899787,-0.00994367,-0.00178344,0.000237462,0.134464,-27.4565,-0.76079,27.1017,0.642391,3.19237,0.0907442,2.25261,1.88561,1.40863,-1.1137,1.45308,0.143121,0.130847,0.711852,0.180353,-0.0175183,0.12455,-0.257745,0.091549,
0.0204157,-0.055177,0.51197,-1.56613,-0.0066621,-0.0441253,0.531134,-0.00449007,0.00022343,-0.00437861,-0.00210347,-0.252543,-0.167905,-0.000336383,0,0,0,0,0,0,0,0.0202547,-0.0548711,0.511792,-1.56633,0.0403593,1.55677,1.31662,0.00178546,-0.000942222,0.000189865,0.000899787,-0.00994367,-0.00178344,0.000237462,0.134464,-27.4565,-0.76079,27.1017,0.642391,3.19237,0.0907442,2.09942,1.68982,1.53771,-0.951252,1.2807,0.0956414,0.0691656,0.588128,0.141311,0.0526271,0.107376,-0.258956,0.0917086,
0.0203975,-0.0551761,0.511952,-1.56614,-0.00765602,-0.0447877,0.531133,-0.00455124,0.000229803,-0.00444169,-0.00212397,-0.24848,-0.1656,-0.000335681,0,0,0,0,0,0,0,0.0202547,-0.0548711,0.511792,-1.56633,0.0403593,1.55677,1.31662,0.00178546,-0.000942222,0.000189865,0.000899787,-0.00994367,-0.00178344,0.000237462,0.134464,-27.4565,-0.76079,27.1017,0.642391,3.19237,0.0907442,2.09942,1.68982,1.53771,-0.951252,1.2807,0.0956414,0.0691656,0.588128,0.141311,0.0526271,0.107376,-0.258956,0.0917086,
0.020379,-0.0551752,0.511934,-1.56615,-0.00863259,-0.0454401,0.531131,-0.0046153,0.000230424,-0.00450735,-0.00215256,-0.244141,-0.163105,-0.000336157,0,0,0,0,0,0,0,0.0203231,-0.054894,0.511838,-1.56629,0.0389358,1.55674,1.31662,0.00759113,0.000769795,0.0037706,-4.49801e-05,-0.132076,0.00121796,-0.000393899,-0.627255,-27.5081,-1.33605,26.6058,-0.023197,2.70806,0.0980684,1.78355,1.90646,1.70313,-1.07087,1.01013,0.281186,0.238816,0.423275,0.344593,0.112315,0.129577,-0.283297,0.093335,
0.0203603,-0.0551743,0.511916,-1.56616,-0.00959053,-0.0460817,0.53113,-0.00468436,0.000225812,-0.00457765,-0.00219164,-0.239486,-0.160386,-0.000337821,0,0,0,0,0,0,0,0.0203231,-0.054894,0.511838,-1.56629,0.0389358,1.55674,1.31662,0.00759113,0.000769795,0.0037706,-4.49801e-05,-0.132076,0.00121796,-0.000393899,-0.627255,-27.5081,-1.33605,26.6058,-0.023197,2.70806,0.0980684,1.78355,1.90646,1.70313,-1.07087,1.01013,0.281186,0.238816,0.423275,0.344593,0.112315,0.129577,-0.283297,0.093335,
0.0203413,-0.0551734,0.511897,-1.56616,-0.0105284,-0.0467113,0.531129,-0.00476097,0.000216506,-0.00465507,-0.00224405,-0.234466,-0.157402,-0.000340781,0,0,0,0,0,0,0,0.0203231,-0.054894,0.511838,-1.56629,0.0389358,1.55674,1.31662,0.00759113,0.000769795,0.0037706,-4.49801e-05,-0.132076,0.00121796,-0.000393899,-0.627255,-27.5081,-1.33605,26.6058,-0.023197,2.70806,0.0980684,1.59692,2.1097,1.77409,-1.32068,0.847388,0.422725,0.362862,0.325888,0.512494,0.0867574,0.0369594,-0.34546,0.0920813,
0.0203219,-0.0551726,0.511878,-1.56617,-0.0114445,-0.0473277,0.531127,-0.00484827,0.000203112,-0.00474264,-0.00231319,-0.229017,-0.154099,-0.000344919,0,0,0,0,0,0,0,0.0203231,-0.054894,0.511838,-1.56629,0.0389358,1.55674,1.31662,0.00759113,0.000769795,0.0037706,-4.49801e-05,-0.132076,0.00121796,-0.000393899,-0.627255,-27.5081,-1.33605,26.6058,-0.023197,2.70806,0.0980684,1.59692,2.1097,1.77409,-1.32068,0.847388,0.422725,0.362862,0.325888,0.512494,0.0867574,0.0369594,-0.34546,0.0920813,
0.0203021,-0.0551719,0.511859,-1.56618,-0.0123367,-0.0479293,0.531126,-0.00495019,0.000186304,-0.00484418,-0.00240309,-0.223066,-0.150418,-0.000350311,0,0,0,0,0,0,0,0.0203231,-0.054894,0.511838,-1.56629,0.0389358,1.55674,1.31662,0.00759113,0.000769795,0.0037706,-4.49801e-05,-0.132076,0.00121796,-0.000393899,-0.627255,-27.5081,-1.33605,26.6058,-0.023197,2.70806,0.0980684,1.41361,2.13357,1.91297,-1.40199,0.624543,0.482403,0.407785,0.165091,0.590163,0.134486,-0.0605337,-0.367024,0.0896425,
0.0202818,-0.0551712,0.511839,-1.56619,-0.0132028,-0.0485145,0.531124,-0.00507171,0.000166851,-0.00496454,-0.00251854,-0.216518,-0.146283,-0.0003568,0,0,0,0,0,0,0,0.0203231,-0.054894,0.511838,-1.56629,0.0389358,1.55674,1.31662,0.00759113,0.000769795,0.0037706,-4.49801e-05,-0.132076,0.00121796,-0.000393899,-0.627255,-27.5081,-1.33605,26.6058,-0.023197,2.70806,0.0980684,1.48003,2.07732,2.02191,-1.34731,0.606905,0.435438,0.35734,0.124565,0.54475,0.187616,-0.0858949,-0.351017,0.0901599,
0.0202609,-0.0551706,0.511819,-1.5662,-0.0140398,-0.0490809,0.531123,-0.00521925,0.000145619,-0.00510996,-0.00266526,-0.209256,-0.141606,-0.000364108,0,0,0,0,0,0,0,0.0203955,-0.0549009,0.511887,-1.56631,0.0332471,1.55598,1.31662,0.00138041,0.0003416,-0.000373578,0.000654686,-0.182659,-0.0323872,-0.000958786,-0.500302,-27.4565,-1.33605,26.9272,0.00701543,2.69524,0.0980684,1.48003,2.07732,2.02191,-1.34731,0.606905,0.435438,0.35734,0.124565,0.54475,0.187616,-0.0858949,-0.351017,0.0901599,
0.0202393,-0.0551701,0.511798,-1.56622,-0.0148444,-0.049626,0.531121,-0.00540115,0.000123587,-0.00528854,-0.00285003,-0.201132,-0.136281,-0.000371724,0,0,0,0,0,0,0,0.0203955,-0.0549009,0.511887,-1.56631,0.0332471,1.55598,1.31662,0.00138041,0.0003416,-0.000373578,0.000654686,-0.182659,-0.0323872,-0.000958786,-0.500302,-27.4565,-1.33605,26.9272,0.00701543,2.69524,0.0980684,2.17273,1.7268,2.15554,-1.17057,1.0761,0.0771762,0.00214406,0.361887,0.1805,0.129187,-0.193623,-0.408767,0.0899189,
0.0202168,-0.0551697,0.511776,-1.56623,-0.0156122,-0.0501467,0.53112,-0.00562833,0.000101829,-0.00551095,-0.00308092,-0.191959,-0.130182,-0.0003788,0,0,0,0,0,0,0,0.0203955,-0.0549009,0.511887,-1.56631,0.0332471,1.55598,1.31662,0.00138041,0.0003416,-0.000373578,0.000654686,-0.182659,-0.0323872,-0.000958786,-0.500302,-27.4565,-1.33605,26.9272,0.00701543,2.69524,0.0980684,2.17273,1.7268,2.15554,-1.17057,1.0761,0.0771762,0.00214406,0.361887,0.1805,0.129187,-0.193623,-0.408767,0.0899189,
0.0201931,-0.0551694,0.511752,-1.56624,-0.0163382,-0.0506394,0.531118,-0.00591525,8.14332e-05,-0.00579127,-0.00336757,-0.181495,-0.12316,-0.000383919,0,0,0,0,0,0,0,0.0203955,-0.0549009,0.511887,-1.56631,0.0332471,1.55598,1.31662,0.00138041,0.0003416,-0.000373578,0.000654686,-0.182659,-0.0323872,-0.000958786,-0.500302,-27.4565,-1.33605,26.9272,0.00701543,2.69524,0.0980684,2.2173,1.39713,2.35485,-0.978267,1.05735,-0.0867281,-0.165664,0.326483,0.0160074,0.141582,-0.272253,-0.481407,0.0874934,
0.020168,-0.0551691,0.511728,-1.56626,-0.0170159,-0.0510995,0.531117,-0.00628124,6.32727e-05,-0.00614837,-0.0037218,-0.169429,-0.115036,-0.00038444,0,0,0,0,0,0,0,0.0203955,-0.0549009,0.511887,-1.56631,0.0332471,1.55598,1.31662,0.00138041,0.0003416,-0.000373578,0.000654686,-0.182659,-0.0323872,-0.000958786,-0.500302,-27.4565,-1.33605,26.9272,0.00701543,2.69524,0.0980684,2.2173,1.39713,2.35485,-0.978267,1.05735,-0.0867281,-0.165664,0.326483,0.0160074,0.141582,-0.272253,-0.481407,0.0874934,
0.020141,-0.0551689,0.511701,-1.56627,-0.0176373,-0.0515219,0.531115,-0.00675256,4.71833e-05,-0.00660791,-0.00415933,-0.155353,-0.105599,-0.00037553,0,0,0,0,0,0,0,0.0204147,-0.054922,0.511889,-1.56632,0.0278646,1.55523,1.31662,-0.00993494,0.000153971,-0.00142337,-0.000226557,-0.144334,-0.0114809,-0.000484645,-0.119442,-27.3811,-1.21306,26.9272,0.1535,2.60918,0.0843355,2.32276,1.33678,2.31151,-0.982126,1.17484,-0.145056,-0.222523,0.409385,-0.0423937,0.0792677,-0.295696,-0.519891,0.0869992,
0.0201115,-0.0551688,0.511672,-1.56629,-0.0181922,-0.0519002,0.531114,-0.00736601,2.94103e-05,-0.00720579,-0.00470503,-0.138723,-0.0945811,-0.000346303,0,0,0,0,0,0,0,0.0204147,-0.054922,0.511889,-1.56632,0.0278646,1.55523,1.31662,-0.00993494,0.000153971,-0.00142337,-0.000226557,-0.144334,-0.0114809,-0.000484645,-0.119442,-27.3811,-1.21306,26.9272,0.1535,2.60918,0.0843355,2.4185,1.35137,2.29838,-1.0328,1.29172,-0.163805,-0.22073,0.495921,-0.07838,0.0120238,-0.308397,-0.57267,0.0850033,
0.0200788,-0.0551688,0.511641,-1.56631,-0.0186673,-0.0522267,0.531113,-0.00817637,-5.81619e-06,-0.00799539,-0.0054105,-0.118785,-0.0816177,-0.000273163,0,0,0,0,0,0,0,0.0204147,-0.054922,0.511889,-1.56632,0.0278646,1.55523,1.31662,-0.00993494,0.000153971,-0.00142337,-0.000226557,-0.144334,-0.0114809,-0.000484645,-0.119442,-27.3811,-1.21306,26.9272,0.1535,2.60918,0.0843355,2.4185,1.35137,2.29838,-1.0328,1.29172,-0.163805,-0.22073,0.495921,-0.07838,0.0120238,-0.308397,-0.57267,0.0850033,
0.0200417,-0.0551693,0.511604,-1.56634,-0.019045,-0.052491,0.531112,-0.009275,-0.000114509,-0.00906616,-0.00641338,-0.0944162,-0.0660822,-0.000148524,0,0,0,0,0,0,0,0.0204147,-0.054922,0.511889,-1.56632,0.0278646,1.55523,1.31662,-0.00993494,0.000153971,-0.00142337,-0.000226557,-0.144334,-0.0114809,-0.000484645,-0.119442,-27.3811,-1.21306,26.9272,0.1535,2.60918,0.0843355,2.20536,1.46516,2.39805,-1.06802,1.14343,-0.0494151,-0.081843,0.419251,0.0125142,0.0357059,-0.259883,-0.602341,0.0839945,
0.0200037,-0.055167,0.511567,-1.56636,-0.0193501,-0.0527093,0.531112,-0.00949255,0.000577829,-0.00937704,-0.00578764,-0.0762783,-0.0545653,-5.33479e-05,0,0,0,0,0,0,0,0.0204147,-0.054922,0.511889,-1.56632,0.0278646,1.55523,1.31662,-0.00993494,0.000153971,-0.00142337,-0.000226557,-0.144334,-0.0114809,-0.000484645,-0.119442,-27.3811,-1.21306,26.9272,0.1535,2.60918,0.0843355,2.20536,1.46516,2.39805,-1.06802,1.14343,-0.0494151,-0.081843,0.419251,0.0125142,0.0357059,-0.259883,-0.602341,0.0839945,
0.0199665,-0.0551617,0.51153,-1.56638,-0.0195992,-0.0528905,0.531112,-0.00931709,0.00131624,-0.00926894,-0.0048696,-0.062276,-0.04531,-1.37149e-05,0,0,0,0,0,0,0,0.0204147,-0.054922,0.511889,-1.56632,0.0278646,1.55523,1.31662,-0.00993494,0.000153971,-0.00142337,-0.000226557,-0.144334,-0.0114809,-0.000484645,-0.119442,-27.3811,-1.21306,26.9272,0.1535,2.60918,0.0843355,2.45064,1.46489,2.46105,-1.04177,1.31329,-0.119393,-0.134838,0.507394,-0.0750666,0.0346282,-0.2476,-0.60415,0.085081,
0.0199307,-0.0551541,0.511494,-1.5664,-0.0198042,-0.0530411,0.531112,-0.0089333,0.00191386,-0.00893036,-0.00400814,-0.0512413,-0.0376431,5.49478e-07,0,0,0,0,0,0,0,0.0203419,-0.0549212,0.51183,-1.56631,0.0233309,1.55516,1.31661,-0.00606396,-0.000644461,-0.000919207,0.00131758,-0.142623,0.00019135,-0.000586955,0.285221,-27.4089,-0.788561,26.828,0.740353,2.82067,0.110886,2.30563,1.65524,2.4598,-1.12729,1.24131,0.00957836,0.00612825,0.484489,0.0435456,0.0378515,-0.178066,-0.60631,0.0853268,
0.019897,-0.0551447,0.51146,-1.56641,-0.0199739,-0.053166,0.531112,-0.00843732,0.00234633,-0.00846385,-0.00327166,-0.0424215,-0.0312291,3.19142e-06,0,0,0,0,0,0,0,0.0203419,-0.0549212,0.51183,-1.56631,0.0233309,1.55516,1.31661,-0.00606396,-0.000644461,-0.000919207,0.00131758,-0.142623,0.00019135,-0.000586955,0.285221,-27.4089,-0.788561,26.828,0.740353,2.82067,0.110886,2.30563,1.65524,2.4598,-1.12729,1.24131,0.00957836,0.00612825,0.484489,0.0435456,0.0378515,-0.178066,-0.60631,0.0853268,
0.0198655,-0.0551342,0.511428,-1.56642,-0.020115,-0.0532694,0.531112,-0.00788603,0.00263234,-0.00793121,-0.00265482,-0.0352905,-0.0258492,3.60199e-08,0,0,0,0,0,0,0,0.0203419,-0.0549212,0.51183,-1.56631,0.0233309,1.55516,1.31661,-0.00606396,-0.000644461,-0.000919207,0.00131758,-0.142623,0.00019135,-0.000586955,0.285221,-27.4089,-0.788561,26.828,0.740353,2.82067,0.110886,1.85313,2.02586,2.46476,-1.30743,0.943826,0.308981,0.312167,0.33897,0.339522,0.0776667,-0.067655,-0.595709,0.085003,
0.0198362,-0.055123,0.511399,-1.56643,-0.0202329,-0.0533548,0.531112,-0.00731519,0.00279882,-0.00737172,-0.00213724,-0.029465,-0.0213351,-6.12825e-06,0,0,0,0,0,0,0,0.0203419,-0.0549212,0.51183,-1.56631,0.0233309,1.55516,1.31661,-0.00606396,-0.000644461,-0.000919207,0.00131758,-0.142623,0.00019135,-0.000586955,0.285221,-27.4089,-0.788561,26.828,0.740353,2.82067,0.110886,1.85313,2.02586,2.46476,-1.30743,0.943826,0.308981,0.312167,0.33897,0.339522,0.0776667,-0.067655,-0.595709,0.085003,
0.0198092,-0.0551115,0.511372,-1.56644,-0.0203315,-0.053425,0.531112,-0.00674768,0.00287127,-0.00681072,-0.00169905,-0.0246601,-0.017548,-1.37839e-05,0,0,0,0,0,0,0,0.0203419,-0.0549212,0.51183,-1.56631,0.0233309,1.55516,1.31661,-0.00606396,-0.000644461,-0.000919207,0.00131758,-0.142623,0.00019135,-0.000586955,0.285221,-27.4089,-0.788561,26.828,0.740353,2.82067,0.110886,1.899,2.0695,2.48917,-1.28244,0.9774,0.317922,0.333867,0.356783,0.334113,0.100256,-0.0191902,-0.576288,0.0845684,
0.0188059,-0.0535783,0.510155,-1.56653,-0.142569,-0.190816,0.529664,-0.0318026,0.0210074,-0.0328572,-0.0205883,-1.20672,-1.04462,-0.00727714,0,0,0,0,0,0,0,0.0201412,-0.0549159,0.511713,-1.56634,0.0188959,1.55514,1.31661,-0.00456153,-0.00029923,-0.00641697,-0.00349094,-0.133989,-0.000407146,-0.000460382,0.233646,-27.4843,-0.812364,27.1255,1.22284,2.9937,0.0980684,1.83322,2.11444,2.50553,-1.22769,0.940709,0.359068,0.382783,0.34081,0.36413,0.137291,0.0635321,-0.549729,0.0851897,
0.0182168,-0.0538623,0.509678,-1.56643,-0.113464,-0.145405,0.530405,-0.0265861,0.0141059,-0.0273076,-0.0117172,-0.644453,-0.770943,-0.00289782,0,0,0,0,0,0,0,0.0201412,-0.0549159,0.511713,-1.56634,0.0188959,1.55514,1.31661,-0.00456153,-0.00029923,-0.00641697,-0.00349094,-0.133989,-0.000407146,-0.000460382,0.233646,-27.4843,-0.812364,27.1255,1.22284,2.9937,0.0980684,1.83322,2.11444,2.50553,-1.22769,0.940709,0.359068,0.382783,0.34081,0.36413,0.137291,0.0635321,-0.549729,0.0851897,
0.0181108,-0.053807,0.509569,-1.56648,-0.115998,-0.14847,0.530394,-0.0265063,0.0138328,-0.0272378,-0.0115316,-0.633531,-0.766284,-0.00282485,0,0,0,0,0,0,0,0.0201412,-0.0549159,0.511713,-1.56634,0.0188959,1.55514,1.31661,-0.00456153,-0.00029923,-0.00641697,-0.00349094,-0.133989,-0.000407146,-0.000460382,0.233646,-27.4843,-0.812364,27.1255,1.22284,2.9937,0.0980684,2.28284,2.09756,2.55036,-1.16345,1.26109,0.224231,0.255301,0.510913,0.219385,0.134483,0.0961459,-0.527439,0.0869434,
0.018005,-0.0537529,0.50946,-1.56653,-0.118487,-0.151515,0.530383,-0.0264358,0.0135257,-0.0271771,-0.0113627,-0.622115,-0.761186,-0.00275524,0,0,0,0,0,0,0,0.0201412,-0.0549159,0.511713,-1.56634,0.0188959,1.55514,1.31661,-0.00456153,-0.00029923,-0.00641697,-0.00349094,-0.133989,-0.000407146,-0.000460382,0.233646,-27.4843,-0.812364,27.1255,1.22284,2.9937,0.0980684,2.28284,2.09756,2.55036,-1.16345,1.26109,0.224231,0.255301,0.510913,0.219385,0.134483,0.0961459,-0.527439,0.0869434,
0.0178995,-0.0537002,0.509351,-1.56657,-0.120927,-0.154537,0.530372,-0.0263784,0.0131843,-0.0271291,-0.0112157,-0.610108,-0.755536,-0.0026884,0,0,0,0,0,0,0,0.0201412,-0.0549159,0.511713,-1.56634,0.0188959,1.55514,1.31661,-0.00456153,-0.00029923,-0.00641697,-0.00349094,-0.133989,-0.000407146,-0.000460382,0.233646,-27.4843,-0.812364,27.1255,1.22284,2.9937,0.0980684,3.46614,4.14326,2.96021,-2.49177,1.98192,0.815011,0.855079,0.851735,0.835821,0.168075,0.19471,-0.450027,0.0947104,
0.0177942,-0.0536489,0.509243,-1.56662,-0.123317,-0.157534,0.530362,-0.0263388,0.0128076,-0.0270982,-0.011097,-0.597403,-0.749197,-0.00262641,0,0,0,0,0,0,0,0.0201412,-0.0549159,0.511713,-1.56634,0.0188959,1.55514,1.31661,-0.00456153,-0.00029923,-0.00641697,-0.00349094,-0.133989,-0.000407146,-0.000460382,0.233646,-27.4843,-0.812364,27.1255,1.22284,2.9937,0.0980684,3.46614,4.14326,2.96021,-2.49177,1.98192,0.815011,0.855079,0.851735,0.835821,0.168075,0.19471,-0.450027,0.0947104,
0.0176889,-0.0535994,0.509135,-1.56666,-0.125652,-0.160502,0.530351,-0.0263219,0.0123943,-0.0270895,-0.011014,-0.583873,-0.742003,-0.00256982,0,0,0,0,0,0,0,0.0201377,-0.0549506,0.511619,-1.566,0.0105661,1.55191,1.31661,0.0153556,-0.0167217,0.00581646,0.0310078,-0.591133,-0.318276,-0.000478239,-1.61908,-26.9328,-2.26042,24.4635,0.0381434,1.42815,0.0843355,3.2048,4.84379,3.34794,-2.9399,1.61267,1.19173,1.19501,0.573075,1.25934,0.326368,0.178069,-0.431567,0.101199,
0.0175835,-0.0535516,0.509026,-1.5667,-0.12793,-0.163437,0.530341,-0.0263336,0.0119428,-0.0271088,-0.0109757,-0.569374,-0.733758,-0.00251857,0,0,0,0,0,0,0,0.0201377,-0.0549506,0.511619,-1.566,0.0105661,1.55191,1.31661,0.0153556,-0.0167217,0.00581646,0.0310078,-0.591133,-0.318276,-0.000478239,-1.61908,-26.9328,-2.26042,24.4635,0.0381434,1.42815,0.0843355,3.2048,4.84379,3.34794,-2.9399,1.61267,1.19173,1.19501,0.573075,1.25934,0.326368,0.178069,-0.431567,0.101199,
0.017478,-0.0535058,0.508918,-1.56675,-0.130145,-0.166334,0.530331,-0.0263808,0.0114514,-0.0271628,-0.0109927,-0.55374,-0.724225,-0.00247383,0,0,0,0,0,0,0,0.0201377,-0.0549506,0.511619,-1.566,0.0105661,1.55191,1.31661,0.0153556,-0.0167217,0.00581646,0.0310078,-0.591133,-0.318276,-0.000478239,-1.61908,-26.9328,-2.26042,24.4635,0.0381434,1.42815,0.0843355,2.27311,3.59326,3.38836,-2.3592,0.909403,0.864598,0.831014,0.175429,0.95914,0.278931,-0.13645,-0.634827,0.0991323,
0.0173721,-0.0534621,0.508809,-1.56679,-0.132292,-0.169186,0.530322,-0.0264713,0.010918,-0.0272591,-0.0110781,-0.536781,-0.713119,-0.00243711,0,0,0,0,0,0,0,0.0201377,-0.0549506,0.511619,-1.566,0.0105661,1.55191,1.31661,0.0153556,-0.0167217,0.00581646,0.0310078,-0.591133,-0.318276,-0.000478239,-1.61908,-26.9328,-2.26042,24.4635,0.0381434,1.42815,0.0843355,3.37733,2.58375,3.68988,-1.93066,1.61814,0.0794905,0.0320628,0.514194,0.183055,0.133997,-0.497378,-0.834469,0.0942915,
0.0172657,-0.0534208,0.508699,-1.56684,-0.134365,-0.171986,0.530312,-0.0266138,0.0103406,-0.0274064,-0.0112473,-0.518283,-0.700099,-0.00240913,0,0,0,0,0,0,0,0.0201377,-0.0549506,0.511619,-1.566,0.0105661,1.55191,1.31661,0.0153556,-0.0167217,0.00581646,0.0310078,-0.591133,-0.318276,-0.000478239,-1.61908,-26.9328,-2.26042,24.4635,0.0381434,1.42815,0.0843355,3.37733,2.58375,3.68988,-1.93066,1.61814,0.0794905,0.0320628,0.514194,0.183055,0.133997,-0.497378,-0.834469,0.0942915,
0.0171584,-0.0533819,0.508588,-1.56688,-0.136357,-0.174725,0.530303,-0.0268183,0.00971768,-0.0276146,-0.0115187,-0.498,-0.684759,-0.00239166,0,0,0,0,0,0,0,0.0203952,-0.0550837,0.511725,-1.56523,-0.00921058,1.53684,1.31661,0.0128524,-0.0158096,0.00377646,0.0140368,-0.60348,-0.527565,-0.00016389,-1.5675,-26.5599,-2.23662,25.4831,-0.407718,1.43548,0.0706026,3.92423,1.79605,4.28258,-1.41151,1.84569,-0.444546,-0.506453,0.553762,-0.340331,0.196001,-0.667694,-0.981223,0.0905527,
0.01705,-0.0533457,0.508477,-1.56693,-0.13826,-0.177392,0.530293,-0.0270954,0.00904776,-0.0278942,-0.0119145,-0.475662,-0.666614,-0.00238757,0,0,0,0,0,0,0,0.0203952,-0.0550837,0.511725,-1.56523,-0.00921058,1.53684,1.31661,0.0128524,-0.0158096,0.00377646,0.0140368,-0.60348,-0.527565,-0.00016389,-1.5675,-26.5599,-2.23662,25.4831,-0.407718,1.43548,0.0706026,3.92423,1.79605,4.28258,-1.41151,1.84569,-0.444546,-0.506453,0.553762,-0.340331,0.196001,-0.667694,-0.981223,0.0905527,
0.0169402,-0.0533124,0.508364,-1.56698,-0.140064,-0.179972,0.530283,-0.0274567,0.00833047,-0.0282565,-0.0124605,-0.450972,-0.645086,-0.00239927,0,0,0,0,0,0,0,0.0203952,-0.0550837,0.511725,-1.56523,-0.00921058,1.53684,1.31661,0.0128524,-0.0158096,0.00377646,0.0140368,-0.60348,-0.527565,-0.00016389,-1.5675,-26.5599,-2.23662,25.4831,-0.407718,1.43548,0.0706026,3.58019,1.47877,4.43306,-1.27705,1.66931,-0.504976,-0.57577,0.491187,-0.393765,0.106148,-0.718188,-1.17498,0.0879108,
0.0168285,-0.0532821,0.508249,-1.56703,-0.141758,-0.18245,0.530274,-0.0279134,0.00756681,-0.0287127,-0.0131873,-0.42361,-0.619495,-0.00242992,0,0,0,0,0,0,0,0.0203952,-0.0550837,0.511725,-1.56523,-0.00921058,1.53684,1.31661,0.0128524,-0.0158096,0.00377646,0.0140368,-0.60348,-0.527565,-0.00016389,-1.5675,-26.5599,-2.23662,25.4831,-0.407718,1.43548,0.0706026,2.2319,1.04433,4.83387,-1.00041,0.696259,-0.341904,-0.416478,-0.0359098,-0.234014,0.159859,-0.74301,-1.41897,0.0853838,
0.0167146,-0.0532551,0.508132,-1.56709,-0.143331,-0.184806,0.530264,-0.0284757,0.00675991,-0.0292726,-0.0141307,-0.393248,-0.589037,-0.0024844,0,0,0,0,0,0,0,0.0203952,-0.0550837,0.511725,-1.56523,-0.00921058,1.53684,1.31661,0.0128524,-0.0158096,0.00377646,0.0140368,-0.60348,-0.527565,-0.00016389,-1.5675,-26.5599,-2.23662,25.4831,-0.407718,1.43548,0.0706026,2.2319,1.04433,4.83387,-1.00041,0.696259,-0.341904,-0.416478,-0.0359098,-0.234014,0.159859,-0.74301,-1.41897,0.0853838,
0.016598,-0.0532314,0.508012,-1.56715,-0.144769,-0.187017,0.530253,-0.0291508,0.00591616,-0.0299436,-0.0153321,-0.359565,-0.552771,-0.00257046,0,0,0,0,0,0,0,0.0205369,-0.0552624,0.511825,-1.56522,-0.0324913,1.51432,1.31661,-0.0110825,-0.000973526,-0.000511958,-0.00250178,-0.481636,-0.536058,0.000284544,-0.829586,-27.0082,-1.9113,26.3281,-0.145878,1.44189,0.0706026,2.74607,0.612425,4.67452,-0.920446,1.16794,-0.69226,-0.756785,0.266185,-0.590509,-0.0572771,-0.915047,-1.54835,0.0836589,
0.0164783,-0.0532112,0.507889,-1.56722,-0.146058,-0.189056,0.530243,-0.0299404,0.00504697,-0.0307274,-0.0168388,-0.322272,-0.509595,-0.00269872,0,0,0,0,0,0,0,0.0205369,-0.0552624,0.511825,-1.56522,-0.0324913,1.51432,1.31661,-0.0110825,-0.000973526,-0.000511958,-0.00250178,-0.481636,-0.536058,0.000284544,-0.829586,-27.0082,-1.9113,26.3281,-0.145878,1.44189,0.0706026,2.74607,0.612425,4.67452,-0.920446,1.16794,-0.69226,-0.756785,0.266185,-0.590509,-0.0572771,-0.915047,-1.54835,0.0836589,
0.0163549,-0.0531945,0.507763,-1.56729,-0.147183,-0.190889,0.530231,-0.0308366,0.0041727,-0.0316158,-0.0187011,-0.281159,-0.458236,-0.00287739,0,0,0,0,0,0,0,0.0205369,-0.0552624,0.511825,-1.56522,-0.0324913,1.51432,1.31661,-0.0110825,-0.000973526,-0.000511958,-0.00250178,-0.481636,-0.536058,0.000284544,-0.829586,-27.0082,-1.9113,26.3281,-0.145878,1.44189,0.0706026,3.00891,0.799831,4.20141,-1.19656,1.63844,-0.685079,-0.728421,0.65413,-0.592361,-0.360727,-0.889123,-1.64025,0.0805353,
0.0162277,-0.0531812,0.507632,-1.56738,-0.148128,-0.192478,0.530219,-0.0318132,0.00333315,-0.0325832,-0.0209583,-0.236162,-0.39725,-0.00301409,0,0,0,0,0,0,0,0.0205369,-0.0552624,0.511825,-1.56522,-0.0324913,1.51432,1.31661,-0.0110825,-0.000973526,-0.000511958,-0.00250178,-0.481636,-0.536058,0.000284544,-0.829586,-27.0082,-1.9113,26.3281,-0.145878,1.44189,0.0706026,3.00891,0.799831,4.20141,-1.19656,1.63844,-0.685079,-0.728421,0.65413,-0.592361,-0.360727,-0.889123,-1.64025,0.0805353,
0.0160965,-0.0531707,0.507498,-1.56747,-0.148878,-0.193778,0.530213,-0.0327973,0.00262237,-0.0335728,-0.023584,-0.187501,-0.325122,-0.00139312,0,0,0,0,0,0,0,0.0205369,-0.0552624,0.511825,-1.56522,-0.0324913,1.51432,1.31661,-0.0110825,-0.000973526,-0.000511958,-0.00250178,-0.481636,-0.536058,0.000284544,-0.829586,-27.0082,-1.9113,26.3281,-0.145878,1.44189,0.0706026,3.20632,0.828392,3.81328,-1.23517,2.07371,-0.734656,-0.74823,1.025,-0.669189,-0.609854,-0.757042,-1.72397,0.0779858,
0.0159685,-0.0531536,0.507367,-1.56756,-0.149481,-0.194857,0.530209,-0.0319922,0.00428735,-0.0328744,-0.021275,-0.150772,-0.269619,-0.00124667,0,0,0,0,0,0,0,0.0205369,-0.0552624,0.511825,-1.56522,-0.0324913,1.51432,1.31661,-0.0110825,-0.000973526,-0.000511958,-0.00250178,-0.481636,-0.536058,0.000284544,-0.829586,-27.0082,-1.9113,26.3281,-0.145878,1.44189,0.0706026,3.20632,0.828392,3.81328,-1.23517,2.07371,-0.734656,-0.74823,1.025,-0.669189,-0.609854,-0.757042,-1.72397,0.0779858,
0.0158466,-0.0531291,0.507241,-1.56763,-0.149968,-0.195755,0.530203,-0.0304718,0.00612556,-0.0314288,-0.0179837,-0.121835,-0.224655,-0.00128882,0,0,0,0,0,0,0,0.0204286,-0.0553808,0.511735,-1.56526,-0.0480491,1.49785,1.31661,-0.0100377,8.08974e-05,-0.00735636,-0.00625075,-0.439491,-0.473996,0.000536355,-0.246395,-27.3573,-1.28844,26.5781,0.495907,1.87951,0.0577852,2.25669,0.354271,4.09114,-0.725606,1.2261,-0.686144,-0.681779,0.486974,-0.656515,-0.329565,-0.696728,-1.65979,0.0768643,
0.015732,-0.0530987,0.507122,-1.56769,-0.150362,-0.196505,0.530198,-0.0286446,0.00757866,-0.029649,-0.0148098,-0.0984993,-0.18747,-0.00136487,0,0,0,0,0,0,0,0.0204286,-0.0553808,0.511735,-1.56526,-0.0480491,1.49785,1.31661,-0.0100377,8.08974e-05,-0.00735636,-0.00625075,-0.439491,-0.473996,0.000536355,-0.246395,-27.3573,-1.28844,26.5781,0.495907,1.87951,0.0577852,1.32407,0.809193,3.79044,-0.99654,0.685843,-0.216686,-0.203378,0.259939,-0.189549,-0.34398,-0.543876,-1.6253,0.072484,
0.0156252,-0.0530645,0.507011,-1.56774,-0.15068,-0.197131,0.530192,-0.0267019,0.00857064,-0.0277339,-0.012006,-0.0793993,-0.156471,-0.00144452,0,0,0,0,0,0,0,0.0204286,-0.0553808,0.511735,-1.56526,-0.0480491,1.49785,1.31661,-0.0100377,8.08974e-05,-0.00735636,-0.00625075,-0.439491,-0.473996,0.000536355,-0.246395,-27.3573,-1.28844,26.5781,0.495907,1.87951,0.0577852,1.32407,0.809193,3.79044,-0.99654,0.685843,-0.216686,-0.203378,0.259939,-0.189549,-0.34398,-0.543876,-1.6253,0.072484,
0.0155263,-0.0530278,0.506908,-1.56777,-0.150934,-0.197653,0.530186,-0.0247461,0.00915542,-0.0257927,-0.00958557,-0.0635895,-0.130543,-0.00151957,0,0,0,0,0,0,0,0.0204286,-0.0553808,0.511735,-1.56526,-0.0480491,1.49785,1.31661,-0.0100377,8.08974e-05,-0.00735636,-0.00625075,-0.439491,-0.473996,0.000536355,-0.246395,-27.3573,-1.28844,26.5781,0.495907,1.87951,0.0577852,1.02135,0.574086,3.22577,-0.90552,0.75722,-0.24393,-0.218475,0.431937,-0.229383,-0.56989,-0.461389,-1.67697,0.0713532,
-0.00722231,-0.0428197,0.482811,-1.57977,-0.157875,-0.211975,0.518476,-0.204061,0.109426,-0.213765,-0.0989793,-1.24238,-1.32221,-0.0588048,0,0,0,0,0,0,0,0.0204286,-0.0553808,0.511735,-1.56526,-0.0480491,1.49785,1.31661,-0.0100377,8.08974e-05,-0.00735636,-0.00625075,-0.439491,-0.473996,0.000536355,-0.246395,-27.3573,-1.28844,26.5781,0.495907,1.87951,0.0577852,1.02135,0.574086,3.22577,-0.90552,0.75722,-0.24393,-0.218475,0.431937,-0.229383,-0.56989,-0.461389,-1.67697,0.0713532,
-0.00174469,-0.047333,0.488488,-1.57603,-0.225718,-0.200502,0.524478,-0.166152,0.0611038,-0.1729,-0.0695868,-1.02478,-0.0371768,-0.0227974,0,0,0,0,0,0,0,0.019883,-0.0553307,0.511311,-1.56552,-0.0592603,1.48539,1.31661,-0.0244719,-0.00153342,-0.0177223,-0.021781,-0.349052,-0.380698,0.00151346,0.285221,-27.7065,-0.836168,27.55,1.12487,3.02666,0.00376909,0.591711,0.895862,3.41878,-0.827242,0.276224,0.025644,0.0640439,0.0904865,0.017782,-0.257521,-0.264523,-1.46326,0.0745244,
-0.00241657,-0.0470948,0.487789,-1.5763,-0.229596,-0.200469,0.52439,-0.167971,0.0595452,-0.174756,-0.0683539,-0.969566,0.00821504,-0.0219616,0,0,0,0,0,0,0,0.019883,-0.0553307,0.511311,-1.56552,-0.0592603,1.48539,1.31661,-0.0244719,-0.00153342,-0.0177223,-0.021781,-0.349052,-0.380698,0.00151346,0.285221,-27.7065,-0.836168,27.55,1.12487,3.02666,0.00376909,0.36787,2.37969,4.1285,-1.25748,-0.389133,0.786388,0.830378,-0.500679,0.769984,0.432329,0.078727,-0.992832,0.0698121,
-0.00309539,-0.046863,0.487083,-1.57657,-0.233232,-0.20025,0.524306,-0.169705,0.0579588,-0.176529,-0.0671317,-0.909153,0.0548283,-0.0211526,0,0,0,0,0,0,0,0.019883,-0.0553307,0.511311,-1.56552,-0.0592603,1.48539,1.31661,-0.0244719,-0.00153342,-0.0177223,-0.021781,-0.349052,-0.380698,0.00151346,0.285221,-27.7065,-0.836168,27.55,1.12487,3.02666,0.00376909,0.36787,2.37969,4.1285,-1.25748,-0.389133,0.786388,0.830378,-0.500679,0.769984,0.432329,0.078727,-0.992832,0.0698121,
-0.00378077,-0.0466377,0.48637,-1.57683,-0.236607,-0.199838,0.524224,-0.171345,0.0563265,-0.178207,-0.0659446,-0.843575,0.102831,-0.0203641,0,0,0,0,0,0,0,0.019883,-0.0553307,0.511311,-1.56552,-0.0592603,1.48539,1.31661,-0.0244719,-0.00153342,-0.0177223,-0.021781,-0.349052,-0.380698,0.00151346,0.285221,-27.7065,-0.836168,27.55,1.12487,3.02666,0.00376909,-0.323028,5.81737,2.92743,-3.53456,-0.498717,2.57371,2.61957,-0.357269,2.61506,0.243063,0.592704,-0.623258,0.0536349,
-0.00447237,-0.0464191,0.485651,-1.57709,-0.239697,-0.199229,0.524146,-0.172898,0.0546291,-0.179793,-0.0648091,-0.772685,0.152391,-0.0196109,0,0,0,0,0,0,0,0.019883,-0.0553307,0.511311,-1.56552,-0.0592603,1.48539,1.31661,-0.0244719,-0.00153342,-0.0177223,-0.021781,-0.349052,-0.380698,0.00151346,0.285221,-27.7065,-0.836168,27.55,1.12487,3.02666,0.00376909,-0.323028,5.81737,2.92743,-3.53456,-0.498717,2.57371,2.61957,-0.357269,2.61506,0.243063,0.592704,-0.623258,0.0536349,
-0.00516988,-0.0462078,0.484926,-1.57735,-0.242482,-0.198414,0.52407,-0.174378,0.0528493,-0.1813,-0.0637346,-0.696175,0.203662,-0.0188911,0,0,0,0,0,0,0,0.019883,-0.0553307,0.511311,-1.56552,-0.0592603,1.48539,1.31661,-0.0244719,-0.00153342,-0.0177223,-0.021781,-0.349052,-0.380698,0.00151346,0.285221,-27.7065,-0.836168,27.55,1.12487,3.02666,0.00376909,-1.24975,4.09117,2.14388,-2.40552,-0.932593,2.06851,2.09896,-0.49503,2.09504,0.13747,0.581916,-0.596287,0.0294345,
-0.00587309,-0.0460039,0.484195,-1.5776,-0.244937,-0.197387,0.523998,-0.175802,0.0509706,-0.182744,-0.0627263,-0.613612,0.256788,-0.0182028,0,0,0,0,0,0,0,0.0189229,-0.055371,0.510092,-1.56618,-0.0821474,1.46868,1.31638,-0.0338116,0.00145312,-0.0304124,-0.0359763,-0.942296,-0.481124,0.000874858,-2.4046,-25.7347,-3.63707,27.1017,-2.22229,3.85522,-0.0969389,-1.24975,4.09117,2.14388,-2.40552,-0.932593,2.06851,2.09896,-0.49503,2.09504,0.13747,0.581916,-0.596287,0.0294345,
-0.00658185,-0.045808,0.483458,-1.57785,-0.247034,-0.196139,0.523927,-0.17719,0.0489787,-0.184144,-0.0617856,-0.524448,0.311884,-0.0175608,0,0,0,0,0,0,0,0.0189229,-0.055371,0.510092,-1.56618,-0.0821474,1.46868,1.31638,-0.0338116,0.00145312,-0.0304124,-0.0359763,-0.942296,-0.481124,0.000874858,-2.4046,-25.7347,-3.63707,27.1017,-2.22229,3.85522,-0.0969389,1.90856,1.77221,2.19218,-1.15234,0.90787,0.185287,0.227255,0.283845,0.176307,0.150862,-0.13691,-0.425512,0.0272641,
-0.00729608,-0.0456205,0.482716,-1.57809,-0.248747,-0.194663,0.523859,-0.178557,0.0468634,-0.185512,-0.0609099,-0.428074,0.369014,-0.0169658,0,0,0,0,0,0,0,0.0189229,-0.055371,0.510092,-1.56618,-0.0821474,1.46868,1.31638,-0.0338116,0.00145312,-0.0304124,-0.0359763,-0.942296,-0.481124,0.000874858,-2.4046,-25.7347,-3.63707,27.1017,-2.22229,3.85522,-0.0969389,5.06495,1.55044,1.37098,-1.34695,3.18995,-0.725201,-0.684292,1.51922,-0.718451,-0.176972,-0.495036,-0.165678,0.0197305,
-0.00801569,-0.045442,0.481969,-1.57833,-0.250042,-0.192951,0.523794,-0.179904,0.0446205,-0.186853,-0.0600911,-0.323875,0.428155,-0.0164221,0,0,0,0,0,0,0,0.0189229,-0.055371,0.510092,-1.56618,-0.0821474,1.46868,1.31638,-0.0338116,0.00145312,-0.0304124,-0.0359763,-0.942296,-0.481124,0.000874858,-2.4046,-25.7347,-3.63707,27.1017,-2.22229,3.85522,-0.0969389,5.06495,1.55044,1.37098,-1.34695,3.18995,-0.725201,-0.684292,1.51922,-0.718451,-0.176972,-0.495036,-0.165678,0.0197305,
-0.00874054,-0.045273,0.481216,-1.57857,-0.250888,-0.190994,0.52373,-0.181211,0.0422568,-0.188144,-0.05931,-0.211349,0.489128,-0.0159416,0,0,0,0,0,0,0,0.0189229,-0.055371,0.510092,-1.56618,-0.0821474,1.46868,1.31638,-0.0338116,0.00145312,-0.0304124,-0.0359763,-0.942296,-0.481124,0.000874858,-2.4046,-25.7347,-3.63707,27.1017,-2.22229,3.85522,-0.0969389,3.56598,2.82931,0.855209,-2.11614,2.25976,0.299993,0.329428,1.09363,0.335786,-0.126514,-0.208199,0.010048,0.00754499,
-0.00947018,-0.0451138,0.480459,-1.5788,-0.251249,-0.188788,0.523668,-0.182412,0.0397988,-0.189319,-0.0585275,-0.0903172,0.551482,-0.0155307,0,0,0,0,0,0,0,0.0176043,-0.0558532,0.508494,-1.56797,-0.109105,1.45521,1.31617,-0.061949,-0.0201325,-0.0783593,-0.0625277,-0.78807,-0.364029,-0.00284676,-2.32922,-25.5364,-3.33556,27.1017,-0.908512,4.23333,0.017502,3.56598,2.82931,0.855209,-2.11614,2.25976,0.299993,0.329428,1.09363,0.335786,-0.126514,-0.208199,0.010048,0.00754499,
-0.0102036,-0.0449646,0.479698,-1.57903,-0.251094,-0.186331,0.523607,-0.183361,0.0373064,-0.190237,-0.0576667,0.0387024,0.614296,-0.0152138,0,0,0,0,0,0,0,0.0176043,-0.0558532,0.508494,-1.56797,-0.109105,1.45521,1.31617,-0.061949,-0.0201325,-0.0783593,-0.0625277,-0.78807,-0.364029,-0.00284676,-2.32922,-25.5364,-3.33556,27.1017,-0.908512,4.23333,0.017502,3.73067,2.28649,1.44754,-1.61489,1.85159,0.064875,0.0938905,0.624176,0.0844575,0.348895,-0.401071,0.251797,-0.00569092,
-0.0109387,-0.044825,0.478936,-1.57926,-0.250399,-0.183628,0.523547,-0.183775,0.0348975,-0.190617,-0.0565833,0.173857,0.675863,-0.0150154,0,0,0,0,0,0,0,0.0176043,-0.0558532,0.508494,-1.56797,-0.109105,1.45521,1.31617,-0.061949,-0.0201325,-0.0783593,-0.0625277,-0.78807,-0.364029,-0.00284676,-2.32922,-25.5364,-3.33556,27.1017,-0.908512,4.23333,0.017502,3.73067,2.28649,1.44754,-1.61489,1.85159,0.064875,0.0938905,0.624176,0.0844575,0.348895,-0.401071,0.251797,-0.00569092,
-0.0116713,-0.0446938,0.478176,-1.57948,-0.249155,-0.180695,0.523487,-0.183139,0.0327853,-0.189952,-0.0550154,0.310938,0.733208,-0.0149957,0,0,0,0,0,0,0,0.0176043,-0.0558532,0.508494,-1.56797,-0.109105,1.45521,1.31617,-0.061949,-0.0201325,-0.0783593,-0.0625277,-0.78807,-0.364029,-0.00284676,-2.32922,-25.5364,-3.33556,27.1017,-0.908512,4.23333,0.017502,3.73269,0.500628,1.94139,-0.4362,1.44821,-0.716093,-0.687283,0.209746,-0.727689,0.65567,-0.757567,0.284512,-0.0111571,
-0.0123936,-0.0445685,0.477426,-1.57969,-0.247387,-0.177569,0.523426,-0.180581,0.0313325,-0.187384,-0.0525094,0.441934,0.781459,-0.0152695,0,0,0,0,0,0,0,0.0176043,-0.0558532,0.508494,-1.56797,-0.109105,1.45521,1.31617,-0.061949,-0.0201325,-0.0783593,-0.0625277,-0.78807,-0.364029,-0.00284676,-2.32922,-25.5364,-3.33556,27.1017,-0.908512,4.23333,0.017502,3.98875,0.482208,1.44761,-0.557596,1.84536,-0.782185,-0.753836,0.523351,-0.786579,0.422854,-0.764915,0.260593,-0.0140277,
-0.0130925,-0.044444,0.4767,-1.57988,-0.245174,-0.174317,0.523361,-0.174731,0.0311351,-0.181558,-0.0482839,0.553397,0.813123,-0.0161147,0,0,0,0,0,0,0,0.0176043,-0.0558532,0.508494,-1.56797,-0.109105,1.45521,1.31617,-0.061949,-0.0201325,-0.0783593,-0.0625277,-0.78807,-0.364029,-0.00284676,-2.32922,-25.5364,-3.33556,27.1017,-0.908512,4.23333,0.017502,3.98875,0.482208,1.44761,-0.557596,1.84536,-0.782185,-0.753836,0.523351,-0.786579,0.422854,-0.764915,0.260593,-0.0140277,
-0.0137469,-0.044311,0.476018,-1.58004,-0.242673,-0.171048,0.523289,-0.16359,0.0332307,-0.170483,-0.0408322,0.625065,0.81707,-0.0181315,0,0,0,0,0,0,0,0.0150951,-0.0560743,0.50517,-1.57062,-0.124271,1.44854,1.31611,-0.089206,-0.00419325,-0.125151,-0.0849324,-0.268852,-0.0688796,0.00130814,-1.64288,-25.9847,-2.68492,27.0541,-0.0781286,3.8424,-0.0630644,4.18482,0.0927299,0.475734,-0.440855,2.43422,-0.999132,-0.970424,1.04708,-1.00334,0.0156204,-0.688142,0.220097,-0.0223316,
-0.0143238,-0.0441515,0.475413,-1.58015,-0.24016,-0.167948,0.523202,-0.144227,0.0398909,-0.151233,-0.0263795,0.628342,0.775038,-0.0218019,0,0,0,0,0,0,0,0.0150951,-0.0560743,0.50517,-1.57062,-0.124271,1.44854,1.31611,-0.089206,-0.00419325,-0.125151,-0.0849324,-0.268852,-0.0688796,0.00130814,-1.64288,-25.9847,-2.68492,27.0541,-0.0781286,3.8424,-0.0630644,4.18482,0.0927299,0.475734,-0.440855,2.43422,-0.999132,-0.970424,1.04708,-1.00334,0.0156204,-0.688142,0.220097,-0.0223316,
-0.0147703,-0.0439209,0.47494,-1.58012,-0.238081,-0.165361,0.523149,-0.111622,0.0576352,-0.118409,0.00687937,0.519666,0.646731,-0.0130551,0,0,0,0,0,0,0,0.0150951,-0.0560743,0.50517,-1.57062,-0.124271,1.44854,1.31611,-0.089206,-0.00419325,-0.125151,-0.0849324,-0.268852,-0.0688796,0.00130814,-1.64288,-25.9847,-2.68492,27.0541,-0.0781286,3.8424,-0.0630644,2.29665,-0.707209,0.0172554,0.187669,1.3287,-0.86147,-0.839205,0.565202,-0.879502,-0.00723473,-0.501867,0.163206,-0.024092,
-0.0151337,-0.0436909,0.474552,-1.58008,-0.236272,-0.163091,0.523097,-0.0908616,0.0575179,-0.0968448,0.0112665,0.45243,0.567459,-0.0132281,0,0,0,0,0,0,0,0.0150951,-0.0560743,0.50517,-1.57062,-0.124271,1.44854,1.31611,-0.089206,-0.00419325,-0.125151,-0.0849324,-0.268852,-0.0688796,0.00130814,-1.64288,-25.9847,-2.68492,27.0541,-0.0781286,3.8424,-0.0630644,2.29665,-0.707209,0.0172554,0.187669,1.3287,-0.86147,-0.839205,0.565202,-0.879502,-0.00723473,-0.501867,0.163206,-0.024092,
-0.0154383,-0.0434807,0.474226,-1.58004,-0.234635,-0.16105,0.523042,-0.0761438,0.0525489,-0.081531,0.00833782,0.409157,0.510272,-0.0136314,0,0,0,0,0,0,0,0.0150951,-0.0560743,0.50517,-1.57062,-0.124271,1.44854,1.31611,-0.089206,-0.00419325,-0.125151,-0.0849324,-0.268852,-0.0688796,0.00130814,-1.64288,-25.9847,-2.68492,27.0541,-0.0781286,3.8424,-0.0630644,1.71429,-0.408023,0.381684,0.246829,0.885288,-0.590227,-0.565818,0.31385,-0.619108,0.155273,-0.258476,0.146837,-0.023135,
-0.0156989,-0.0432938,0.473946,-1.58003,-0.233111,-0.159188,0.522986,-0.0651409,0.0467093,-0.0701036,0.0043185,0.38109,0.465631,-0.0138803,0,0,0,0,0,0,0,0.0110897,-0.0559548,0.500231,-1.57301,-0.125963,1.4501,1.31606,-0.130936,0.00769046,-0.154988,-0.0599294,0.0341853,0.106135,-0.00229434,0.00751081,-27.5081,-1.01073,27.3755,0.635983,3.39745,-0.0630644,1.71429,-0.408023,0.381684,0.246829,0.885288,-0.590227,-0.565818,0.31385,-0.619108,0.155273,-0.258476,0.146837,-0.023135,
-0.0159255,-0.0431291,0.4737,-1.58002,-0.231658,-0.157469,0.52293,-0.056661,0.0411749,-0.0613234,0.000811027,0.363143,0.429593,-0.014037,0,0,0,0,0,0,0,0.0110897,-0.0559548,0.500231,-1.57301,-0.125963,1.4501,1.31606,-0.130936,0.00769046,-0.154988,-0.0599294,0.0341853,0.106135,-0.00229434,0.00751081,-27.5081,-1.01073,27.3755,0.635983,3.39745,-0.0630644,1.50087,-0.049216,-0.0149304,0.138795,1.03454,-0.381699,-0.355943,0.534326,-0.412572,-0.00374568,0.0401065,0.133853,-0.0254025,
-0.0161255,-0.0429841,0.473483,-1.58003,-0.23025,-0.155869,0.522874,-0.0499912,0.0362486,-0.0544415,-0.00192251,0.352059,0.400121,-0.0141426,0,0,0,0,0,0,0,0.0110897,-0.0559548,0.500231,-1.57301,-0.125963,1.4501,1.31606,-0.130936,0.00769046,-0.154988,-0.0599294,0.0341853,0.106135,-0.00229434,0.00751081,-27.5081,-1.01073,27.3755,0.635983,3.39745,-0.0630644,-0.00474232,0.533853,-1.03197,-0.28927,0.524759,0.268198,0.296399,0.528171,0.2472,-0.357841,0.36599,0.0593859,-0.0228353,
-0.02848,-0.0325993,0.460421,-1.58669,-0.2206,-0.268001,0.512886,-0.340471,0.178128,-0.355878,-0.141772,-1.23301,-1.15394,-0.0768284,0,0,0,0,0,0,0,0.0110897,-0.0559548,0.500231,-1.57301,-0.125963,1.4501,1.31606,-0.130936,0.00769046,-0.154988,-0.0599294,0.0341853,0.106135,-0.00229434,0.00751081,-27.5081,-1.01073,27.3755,0.635983,3.39745,-0.0630644,-0.00474232,0.533853,-1.03197,-0.28927,0.524759,0.268198,0.296399,0.528171,0.2472,-0.357841,0.36599,0.0593859,-0.0228353,
-0.023133,-0.0421163,0.464508,-1.58495,-0.242356,-0.174558,0.521954,-0.199956,0.0789227,-0.207967,-0.0664399,-0.224044,-0.242229,-0.0337534,0,0,0,0,0,0,0,0.0110897,-0.0559548,0.500231,-1.57301,-0.125963,1.4501,1.31606,-0.130936,0.00769046,-0.154988,-0.0599294,0.0341853,0.106135,-0.00229434,0.00751081,-27.5081,-1.01073,27.3755,0.635983,3.39745,-0.0630644,-1.12165,0.917589,-1.00738,-0.451936,-0.147444,0.710943,0.744571,0.228108,0.686174,-0.358038,0.557209,-0.0328518,-0.0180153,
-0.0239329,-0.0418062,0.463676,-1.58522,-0.242998,-0.175441,0.521822,-0.199972,0.0775216,-0.207985,-0.0658322,-0.16044,-0.220909,-0.0330083,0,0,0,0,0,0,0,0.00665079,-0.0548472,0.495476,-1.57347,-0.126309,1.45375,1.31604,-0.139098,0.0365404,-0.146658,0.00168521,-0.0170841,0.126321,0.000640267,1.60236,-28.2063,0.564283,26.0822,0.733944,2.54235,-0.0429228,-1.12165,0.917589,-1.00738,-0.451936,-0.147444,0.710943,0.744571,0.228108,0.686174,-0.358038,0.557209,-0.0328518,-0.0180153,
-0.024733,-0.0415021,0.462844,-1.58548,-0.243369,-0.176235,0.521693,-0.200037,0.0760189,-0.208051,-0.0652163,-0.0928164,-0.198461,-0.0322794,0,0,0,0,0,0,0,0.00665079,-0.0548472,0.495476,-1.57347,-0.126309,1.45375,1.31604,-0.139098,0.0365404,-0.146658,0.00168521,-0.0170841,0.126321,0.000640267,1.60236,-28.2063,0.564283,26.0822,0.733944,2.54235,-0.0429228,-1.91172,3.52964,-0.737827,-2.094,-0.708008,2.11314,2.1526,-0.0648377,2.12194,-0.277171,0.861124,0.000742818,-0.0207527,
-0.0255337,-0.0412045,0.462012,-1.58574,-0.243452,-0.176934,0.521566,-0.200167,0.0744026,-0.208177,-0.0645985,-0.0206408,-0.174807,-0.031567,0,0,0,0,0,0,0,0.00665079,-0.0548472,0.495476,-1.57347,-0.126309,1.45375,1.31604,-0.139098,0.0365404,-0.146658,0.00168521,-0.0170841,0.126321,0.000640267,1.60236,-28.2063,0.564283,26.0822,0.733944,2.54235,-0.0429228,-1.91172,3.52964,-0.737827,-2.094,-0.708008,2.11314,2.1526,-0.0648377,2.12194,-0.277171,0.861124,0.000742818,-0.0207527,
-0.0263352,-0.0409139,0.461178,-1.58599,-0.243225,-0.177534,0.521443,-0.200377,0.0726607,-0.208381,-0.0639868,0.0566774,-0.149844,-0.0308752,0,0,0,0,0,0,0,0.00665079,-0.0548472,0.495476,-1.57347,-0.126309,1.45375,1.31604,-0.139098,0.0365404,-0.146658,0.00168521,-0.0170841,0.126321,0.000640267,1.60236,-28.2063,0.564283,26.0822,0.733944,2.54235,-0.0429228,-2.81034,5.0044,-2.29839,-3.3507,-0.572182,3.02334,3.04012,0.371025,3.09312,-0.92924,1.13922,-0.0662195,-0.0198725,
-0.0271379,-0.0406307,0.460343,-1.58624,-0.242666,-0.178028,0.521322,-0.200682,0.0707816,-0.208678,-0.0633907,0.139788,-0.123443,-0.030204,0,0,0,0,0,0,0,0.00665079,-0.0548472,0.495476,-1.57347,-0.126309,1.45375,1.31604,-0.139098,0.0365404,-0.146658,0.00168521,-0.0170841,0.126321,0.000640267,1.60236,-28.2063,0.564283,26.0822,0.733944,2.54235,-0.0429228,-0.996733,3.3918,-1.79487,-2.38278,0.514578,1.80232,1.82422,0.849639,1.84578,-0.946389,0.77336,-0.192483,-0.0236361,
-0.0279423,-0.0403557,0.459507,-1.5865,-0.241748,-0.178409,0.521204,-0.201097,0.0687538,-0.209081,-0.0628234,0.229386,-0.0954414,-0.0295613,0,0,0,0,0,0,0,0.00665079,-0.0548472,0.495476,-1.57347,-0.126309,1.45375,1.31604,-0.139098,0.0365404,-0.146658,0.00168521,-0.0170841,0.126321,0.000640267,1.60236,-28.2063,0.564283,26.0822,0.733944,2.54235,-0.0429228,-0.996733,3.3918,-1.79487,-2.38278,0.514578,1.80232,1.82422,0.849639,1.84578,-0.946389,0.77336,-0.192483,-0.0236361,
-0.0287488,-0.0400895,0.458669,-1.58675,-0.240444,-0.178672,0.521088,-0.201629,0.0665671,-0.209599,-0.062302,0.326194,-0.0656396,-0.0289476,0,0,0,0,0,0,0,0.00161648,-0.053966,0.490094,-1.57365,-0.135867,1.45305,1.31559,-0.156184,0.0211673,-0.17404,-0.0273745,-0.297276,-0.0321932,-0.00950099,-0.119442,-27.4089,-1.28844,26.1813,-0.200809,2.11114,-0.110672,0.596883,2.22032,-0.925323,-1.6999,1.26716,0.857931,0.899866,1.07015,0.867877,-0.81143,0.369481,-0.30167,-0.0376292,
-0.029558,-0.0398326,0.457828,-1.58699,-0.23872,-0.178807,0.520975,-0.202282,0.0642134,-0.210234,-0.0618492,0.430911,-0.0337919,-0.0283754,0,0,0,0,0,0,0,0.00161648,-0.053966,0.490094,-1.57365,-0.135867,1.45305,1.31559,-0.156184,0.0211673,-0.17404,-0.0273745,-0.297276,-0.0321932,-0.00950099,-0.119442,-27.4089,-1.28844,26.1813,-0.200809,2.11114,-0.110672,0.596883,2.22032,-0.925323,-1.6999,1.26716,0.857931,0.899866,1.07015,0.867877,-0.81143,0.369481,-0.30167,-0.0376292,
-0.0303701,-0.0395858,0.456984,-1.58724,-0.236543,-0.178806,0.520863,-0.203039,0.0616898,-0.210972,-0.0614937,0.544133,0.000395418,-0.0278495,0,0,0,0,0,0,0,0.00161648,-0.053966,0.490094,-1.57365,-0.135867,1.45305,1.31559,-0.156184,0.0211673,-0.17404,-0.0273745,-0.297276,-0.0321932,-0.00950099,-0.119442,-27.4089,-1.28844,26.1813,-0.200809,2.11114,-0.110672,1.32646,-0.605223,-0.539608,0.0581948,1.59272,-0.643057,-0.606064,1.15197,-0.669828,-0.777594,-0.0748952,-0.48312,-0.0455784,
-0.0311839,-0.0393491,0.456138,-1.58748,-0.233895,-0.178657,0.520754,-0.203446,0.0591904,-0.211399,-0.06117,0.662011,0.0370193,-0.0273842,0,0,0,0,0,0,0,0.00161648,-0.053966,0.490094,-1.57365,-0.135867,1.45305,1.31559,-0.156184,0.0211673,-0.17404,-0.0273745,-0.297276,-0.0321932,-0.00950099,-0.119442,-27.4089,-1.28844,26.1813,-0.200809,2.11114,-0.110672,1.32646,-0.605223,-0.539608,0.0581948,1.59272,-0.643057,-0.606064,1.15197,-0.669828,-0.777594,-0.0748952,-0.48312,-0.0455784,
-0.0319854,-0.0391168,0.455304,-1.58772,-0.230886,-0.178358,0.520646,-0.200376,0.0580662,-0.208639,-0.0602614,0.752347,0.0747938,-0.0269757,0,0,0,0,0,0,0,0.00161648,-0.053966,0.490094,-1.57365,-0.135867,1.45305,1.31559,-0.156184,0.0211673,-0.17404,-0.0273745,-0.297276,-0.0321932,-0.00950099,-0.119442,-27.4089,-1.28844,26.1813,-0.200809,2.11114,-0.110672,0.434512,-1.86322,-0.0129765,0.903428,0.738713,-1.01256,-0.976082,0.595996,-1.06096,-0.56891,-0.259078,-0.610927,-0.0507895,
-0.0327663,-0.0388882,0.454489,-1.58796,-0.227596,-0.177893,0.520539,-0.195235,0.0571488,-0.203689,-0.0599853,0.822384,0.116251,-0.0267518,0,0,0,0,0,0,0,-0.00500466,-0.0528443,0.482374,-1.57465,-0.137793,1.45259,1.3154,-0.175167,0.0308378,-0.188734,-0.0264977,0.124786,0.00648613,-0.00448534,-1.21045,-27.6589,-2.03826,25.5347,-0.493778,1.58105,-0.117081,-0.0647149,-1.21207,-0.0943157,0.3621,0.450638,-0.588139,-0.558462,0.472905,-0.613496,-0.640777,-0.263383,-0.66349,-0.0504687,
-0.0335212,-0.0386641,0.4537,-1.58821,-0.224088,-0.177243,0.520432,-0.188709,0.0560334,-0.197256,-0.0604991,0.877085,0.162477,-0.0267267,0,0,0,0,0,0,0,-0.00500466,-0.0528443,0.482374,-1.57465,-0.137793,1.45259,1.3154,-0.175167,0.0308378,-0.188734,-0.0264977,0.124786,0.00648613,-0.00448534,-1.21045,-27.6589,-2.03826,25.5347,-0.493778,1.58105,-0.117081,-0.0647149,-1.21207,-0.0943157,0.3621,0.450638,-0.588139,-0.558462,0.472905,-0.613496,-0.640777,-0.263383,-0.66349,-0.0504687,
-0.0342459,-0.0384457,0.452941,-1.58845,-0.220408,-0.176389,0.520324,-0.181183,0.0545873,-0.189746,-0.0616572,0.919933,0.213684,-0.0269698,0,0,0,0,0,0,0,-0.00500466,-0.0528443,0.482374,-1.57465,-0.137793,1.45259,1.3154,-0.175167,0.0308378,-0.188734,-0.0264977,0.124786,0.00648613,-0.00448534,-1.21045,-27.6589,-2.03826,25.5347,-0.493778,1.58105,-0.117081,0.679499,-0.895244,-0.107081,-0.00702382,1.01208,-0.619675,-0.594048,0.784578,-0.627099,-0.781315,-0.380854,-0.716588,-0.0565945,
-0.0349372,-0.0382345,0.452216,-1.58871,-0.216595,-0.175313,0.520213,-0.172823,0.0528175,-0.181326,-0.0631491,0.953328,0.268822,-0.0276416,0,0,0,0,0,0,0,-0.00500466,-0.0528443,0.482374,-1.57465,-0.137793,1.45259,1.3154,-0.175167,0.0308378,-0.188734,-0.0264977,0.124786,0.00648613,-0.00448534,-1.21045,-27.6589,-2.03826,25.5347,-0.493778,1.58105,-0.117081,0.679499,-0.895244,-0.107081,-0.00702382,1.01208,-0.619675,-0.594048,0.784578,-0.627099,-0.781315,-0.380854,-0.716588,-0.0565945,
-0.0355915,-0.0380309,0.451528,-1.58896,-0.21268,-0.174015,0.520097,-0.163571,0.0508856,-0.17192,-0.0643866,0.978767,0.324623,-0.02909,0,0,0,0,0,0,0,-0.00500466,-0.0528443,0.482374,-1.57465,-0.137793,1.45259,1.3154,-0.175167,0.0308378,-0.188734,-0.0264977,0.124786,0.00648613,-0.00448534,-1.21045,-27.6589,-2.03826,25.5347,-0.493778,1.58105,-0.117081,2.52773,-1.1064,-0.758332,-0.1362,2.66514,-1.164,-1.13218,1.82012,-1.16528,-1.26677,-0.51761,-0.799098,-0.0640348,
-0.0362038,-0.0378338,0.450883,-1.58922,-0.208692,-0.172518,0.519969,-0.153082,0.0492706,-0.161145,-0.0641437,0.996874,0.374212,-0.0319478,0,0,0,0,0,0,0,-0.00500466,-0.0528443,0.482374,-1.57465,-0.137793,1.45259,1.3154,-0.175167,0.0308378,-0.188734,-0.0264977,0.124786,0.00648613,-0.00448534,-1.21045,-27.6589,-2.03826,25.5347,-0.493778,1.58105,-0.117081,1.95416,-1.26836,-1.20531,0.000784908,2.51125,-1.10027,-1.07372,1.85698,-1.10061,-1.41676,-0.379269,-0.836909,-0.0659558,
-0.036766,-0.0376364,0.450291,-1.58946,-0.204664,-0.170901,0.519823,-0.140545,0.0493511,-0.148139,-0.0594158,1.0072,0.40433,-0.0364481,0,0,0,0,0,0,0,-0.0108764,-0.0523513,0.475979,-1.57535,-0.127409,1.4528,1.31535,-0.189855,0.018984,-0.213338,-0.0110516,0.423238,0.0252156,0.000680801,0.689884,-27.9326,-0.33629,25.011,0.733944,1.97198,-0.0969389,1.95416,-1.26836,-1.20531,0.000784908,2.51125,-1.10027,-1.07372,1.85698,-1.10061,-1.41676,-0.379269,-0.836909,-0.0659558,
-0.0372318,-0.0374007,0.449796,-1.58961,-0.200954,-0.169379,0.519715,-0.116447,0.0589379,-0.123774,-0.0390098,0.927491,0.380404,-0.0269895,0,0,0,0,0,0,0,-0.0108764,-0.0523513,0.475979,-1.57535,-0.127409,1.4528,1.31535,-0.189855,0.018984,-0.213338,-0.0110516,0.423238,0.0252156,0.000680801,0.689884,-27.9326,-0.33629,25.011,0.733944,1.97198,-0.0969389,-0.570226,-1.56745,-1.22261,0.425331,0.826486,-0.644806,-0.624839,1.01601,-0.656635,-1.26967,-0.109968,-0.920443,-0.0691275,
-0.0376315,-0.0371668,0.449369,-1.58975,-0.197448,-0.167877,0.519608,-0.0999193,0.0584759,-0.106746,-0.034199,0.876437,0.375438,-0.0268848,0,0,0,0,0,0,0,-0.0108764,-0.0523513,0.475979,-1.57535,-0.127409,1.4528,1.31535,-0.189855,0.018984,-0.213338,-0.0110516,0.423238,0.0252156,0.000680801,0.689884,-27.9326,-0.33629,25.011,0.733944,1.97198,-0.0969389,-0.570226,-1.56745,-1.22261,0.425331,0.826486,-0.644806,-0.624839,1.01601,-0.656635,-1.26967,-0.109968,-0.920443,-0.0691275,
-0.037982,-0.0369466,0.448992,-1.58988,-0.194076,-0.166372,0.519499,-0.0876418,0.0550561,-0.0941037,-0.0334256,0.842862,0.376211,-0.0272067,0,0,0,0,0,0,0,-0.0108764,-0.0523513,0.475979,-1.57535,-0.127409,1.4528,1.31535,-0.189855,0.018984,-0.213338,-0.0110516,0.423238,0.0252156,0.000680801,0.689884,-27.9326,-0.33629,25.011,0.733944,1.97198,-0.0969389,-2.3384,-2.06603,-0.413715,1.145,-0.75157,-0.473512,-0.457567,0.034624,-0.510989,-0.766403,0.0764519,-0.904495,-0.0672443,
-0.0382946,-0.0367428,0.448655,-1.59002,-0.190794,-0.164858,0.519389,-0.0781483,0.0509291,-0.0843541,-0.0333656,0.820735,0.378608,-0.0274415,0,0,0,0,0,0,0,-0.0108764,-0.0523513,0.475979,-1.57535,-0.127409,1.4528,1.31535,-0.189855,0.018984,-0.213338,-0.0110516,0.423238,0.0252156,0.000680801,0.689884,-27.9326,-0.33629,25.011,0.733944,1.97198,-0.0969389,-2.24045,-2.02822,-0.685631,1.1908,-0.563189,-0.481166,-0.46943,0.192112,-0.517114,-0.829601,0.192352,-0.853658,-0.0664394,
-0.0385771,-0.0365556,0.448348,-1.59015,-0.187568,-0.163333,0.519279,-0.0706237,0.0468173,-0.0766515,-0.0331754,0.806361,0.38135,-0.0276066,0,0,0,0,0,0,0,-0.016396,-0.0513042,0.469365,-1.57602,-0.113953,1.45554,1.31528,-0.178728,0.0395125,-0.196442,-0.017122,0.404688,0.095495,-0.00216358,1.80469,-28.6546,1.03639,25.733,1.03973,2.60918,-0.083206,-2.24045,-2.02822,-0.685631,1.1908,-0.563189,-0.481166,-0.46943,0.192112,-0.517114,-0.829601,0.192352,-0.853658,-0.0664394,
-0.0388353,-0.0363838,0.448066,-1.59028,-0.184379,-0.161796,0.519168,-0.0645511,0.0429508,-0.0704561,-0.0327258,0.797295,0.384044,-0.0277277,0,0,0,0,0,0,0,-0.016396,-0.0513042,0.469365,-1.57602,-0.113953,1.45554,1.31528,-0.178728,0.0395125,-0.196442,-0.017122,0.404688,0.095495,-0.00216358,1.80469,-28.6546,1.03639,25.733,1.03973,2.60918,-0.083206,-2.47032,-0.875704,-1.30193,0.470038,-0.491464,0.127819,0.136443,0.334945,0.111731,-0.962422,0.433204,-0.72284,-0.0655293,
-0.0452533,-0.0330095,0.441539,-1.59709,-0.296957,-0.294733,0.510294,-0.327975,0.1498,-0.341209,-0.148213,-1.20159,-0.750779,-0.0842869,0,0,0,0,0,0,0,-0.016396,-0.0513042,0.469365,-1.57602,-0.113953,1.45554,1.31528,-0.178728,0.0395125,-0.196442,-0.017122,0.404688,0.095495,-0.00216358,1.80469,-28.6546,1.03639,25.733,1.03973,2.60918,-0.083206,-2.47032,-0.875704,-1.30193,0.470038,-0.491464,0.127819,0.136443,0.334945,0.111731,-0.962422,0.433204,-0.72284,-0.0655293,
-0.0487093,-0.0420769,0.435622,-1.59061,-0.195801,-0.0953125,0.519384,-0.16836,0.0378009,-0.175836,-0.0791608,-0.172551,0.587189,-0.0450515,0,0,0,0,0,0,0,-0.016396,-0.0513042,0.469365,-1.57602,-0.113953,1.45554,1.31528,-0.178728,0.0395125,-0.196442,-0.017122,0.404688,0.095495,-0.00216358,1.80469,-28.6546,1.03639,25.733,1.03973,2.60918,-0.083206,-1.90181,0.983582,-2.11865,-0.727141,0.158259,0.903612,0.90805,0.783357,0.920093,-1.13752,0.715024,-0.458689,-0.0662612,
-0.0493821,-0.0419298,0.434919,-1.59093,-0.196319,-0.0928152,0.519206,-0.1682,0.0367591,-0.175668,-0.0790857,-0.129565,0.624332,-0.0444123,0,0,0,0,0,0,0,-0.016396,-0.0513042,0.469365,-1.57602,-0.113953,1.45554,1.31528,-0.178728,0.0395125,-0.196442,-0.017122,0.404688,0.095495,-0.00216358,1.80469,-28.6546,1.03639,25.733,1.03973,2.60918,-0.083206,-1.90181,0.983582,-2.11865,-0.727141,0.158259,0.903612,0.90805,0.783357,0.920093,-1.13752,0.715024,-0.458689,-0.0662612,
-0.0500546,-0.041787,0.434217,-1.59125,-0.196651,-0.0901613,0.519031,-0.168123,0.0357079,-0.175579,-0.079065,-0.0830138,0.663476,-0.0438015,0,0,0,0,0,0,0,-0.016396,-0.0513042,0.469365,-1.57602,-0.113953,1.45554,1.31528,-0.178728,0.0395125,-0.196442,-0.017122,0.404688,0.095495,-0.00216358,1.80469,-28.6546,1.03639,25.733,1.03973,2.60918,-0.083206,-1.87632,2.81134,-2.03279,-1.77241,-0.0129549,1.79837,1.80559,0.593634,1.83128,-0.895493,0.927362,-0.170899,-0.0707198,
-0.0507271,-0.0416484,0.433514,-1.59156,-0.196781,-0.0873426,0.518858,-0.168137,0.0346419,-0.175578,-0.0790989,-0.0323741,0.704678,-0.043224,0,0,0,0,0,0,0,-0.0223708,-0.0502492,0.463121,-1.57639,-0.104732,1.45665,1.31517,-0.191429,0.0318191,-0.2048,-0.00843256,0.100766,-0.0814492,-0.0152417,-1.76983,-27.3573,-2.43498,22.7933,-0.866398,1.93261,-0.137222,-2.40433,3.8028,-2.673,-2.50096,-0.156471,2.40536,2.40261,0.614662,2.4675,-1.05938,1.05199,-0.0969393,-0.0707704,
-0.0514001,-0.0415142,0.432812,-1.59188,-0.196689,-0.0843507,0.518687,-0.168252,0.0335564,-0.175675,-0.0791868,0.0229425,0.74797,-0.0426844,0,0,0,0,0,0,0,-0.0223708,-0.0502492,0.463121,-1.57639,-0.104732,1.45665,1.31517,-0.191429,0.0318191,-0.2048,-0.00843256,0.100766,-0.0814492,-0.0152417,-1.76983,-27.3573,-2.43498,22.7933,-0.866398,1.93261,-0.137222,-2.40433,3.8028,-2.673,-2.50096,-0.156471,2.40536,2.40261,0.614662,2.4675,-1.05938,1.05199,-0.0969393,-0.0707704,
-0.052074,-0.0413844,0.432108,-1.5922,-0.196354,-0.0811773,0.518518,-0.168475,0.0324479,-0.175874,-0.0793263,0.0835869,0.793346,-0.0421919,0,0,0,0,0,0,0,-0.0223708,-0.0502492,0.463121,-1.57639,-0.104732,1.45665,1.31517,-0.191429,0.0318191,-0.2048,-0.00843256,0.100766,-0.0814492,-0.0152417,-1.76983,-27.3573,-2.43498,22.7933,-0.866398,1.93261,-0.137222,-1.99948,0.927871,-2.51129,-0.706517,0.126971,0.934768,0.923107,0.782736,0.965669,-1.1525,0.70134,-0.331374,-0.0883275,
-0.0527482,-0.0412567,0.431405,-1.59251,-0.195756,-0.0778519,0.518351,-0.168535,0.0319331,-0.175895,-0.0776081,0.149715,0.831365,-0.0417676,0,0,0,0,0,0,0,-0.0223708,-0.0502492,0.463121,-1.57639,-0.104732,1.45665,1.31517,-0.191429,0.0318191,-0.2048,-0.00843256,0.100766,-0.0814492,-0.0152417,-1.76983,-27.3573,-2.43498,22.7933,-0.866398,1.93261,-0.137222,-1.99948,0.927871,-2.51129,-0.706517,0.126971,0.934768,0.923107,0.782736,0.965669,-1.1525,0.70134,-0.331374,-0.0883275,
-0.0534224,-0.0411307,0.430701,-1.59281,-0.194866,-0.074406,0.518186,-0.168545,0.0315082,-0.175864,-0.0748691,0.222401,0.861469,-0.0414275,0,0,0,0,0,0,0,-0.0223708,-0.0502492,0.463121,-1.57639,-0.104732,1.45665,1.31517,-0.191429,0.0318191,-0.2048,-0.00843256,0.100766,-0.0814492,-0.0152417,-1.76983,-27.3573,-2.43498,22.7933,-0.866398,1.93261,-0.137222,-0.0955838,-0.90599,-2.27263,0.263772,1.17583,-0.34071,-0.330108,1.20728,-0.346865,-1.11332,0.162492,-0.284229,-0.0979795,
-0.0540969,-0.0410076,0.429998,-1.59309,-0.193655,-0.0708628,0.518021,-0.168629,0.0307765,-0.17591,-0.072045,0.3027,0.885797,-0.0411638,0,0,0,0,0,0,0,-0.0274099,-0.0500616,0.457058,-1.57833,-0.10783,1.46056,1.31478,-0.138045,-0.0148046,-0.179363,-0.090531,-0.0522182,0.225291,-0.0111724,-2.09912,-27.881,-2.66112,26.2567,-0.21912,5.28069,-0.0301054,-0.0955838,-0.90599,-2.27263,0.263772,1.17583,-0.34071,-0.330108,1.20728,-0.346865,-1.11332,0.162492,-0.284229,-0.0979795,
-0.0547721,-0.0408888,0.429293,-1.59337,-0.19209,-0.0672405,0.517857,-0.168804,0.0296816,-0.176047,-0.0694242,0.391323,0.905566,-0.0409841,0,0,0,0,0,0,0,-0.0274099,-0.0500616,0.457058,-1.57833,-0.10783,1.46056,1.31478,-0.138045,-0.0148046,-0.179363,-0.090531,-0.0522182,0.225291,-0.0111724,-2.09912,-27.881,-2.66112,26.2567,-0.21912,5.28069,-0.0301054,0.640576,-2.4749,-2.31531,1.3301,1.16593,-1.18818,-1.18823,0.967626,-1.21065,-0.663086,-0.173695,0.189458,-0.0947985,
-0.0554482,-0.0407758,0.428589,-1.59364,-0.190136,-0.0635541,0.517694,-0.169018,0.0282672,-0.176225,-0.0671062,0.488553,0.921609,-0.0408988,0,0,0,0,0,0,0,-0.0274099,-0.0500616,0.457058,-1.57833,-0.10783,1.46056,1.31478,-0.138045,-0.0148046,-0.179363,-0.090531,-0.0522182,0.225291,-0.0111724,-2.09912,-27.881,-2.66112,26.2567,-0.21912,5.28069,-0.0301054,0.19155,-2.05184,-2.42639,1.08631,0.651581,-0.840488,-0.842852,0.60062,-0.856577,-0.433852,-0.178257,0.442535,-0.102142,
-0.0561247,-0.0406693,0.427883,-1.5939,-0.18776,-0.0598159,0.51753,-0.16913,0.0266131,-0.176307,-0.0651445,0.59384,0.934542,-0.0409337,0,0,0,0,0,0,0,-0.0274099,-0.0500616,0.457058,-1.57833,-0.10783,1.46056,1.31478,-0.138045,-0.0148046,-0.179363,-0.090531,-0.0522182,0.225291,-0.0111724,-2.09912,-27.881,-2.66112,26.2567,-0.21912,5.28069,-0.0301054,0.19155,-2.05184,-2.42639,1.08631,0.651581,-0.840488,-0.842852,0.60062,-0.856577,-0.433852,-0.178257,0.442535,-0.102142,
-0.0567984,-0.0405693,0.427181,-1.59415,-0.184957,-0.0560376,0.517365,-0.16844,0.0250102,-0.175649,-0.0634579,0.700806,0.944582,-0.0410908,0,0,0,0,0,0,0,-0.0274099,-0.0500616,0.457058,-1.57833,-0.10783,1.46056,1.31478,-0.138045,-0.0148046,-0.179363,-0.090531,-0.0522182,0.225291,-0.0111724,-2.09912,-27.881,-2.66112,26.2567,-0.21912,5.28069,-0.0301054,0.000536551,-1.30236,-2.50065,0.440713,0.539673,-0.418023,-0.421821,0.540346,-0.413872,-0.49592,-0.241643,0.425442,-0.11717,
-0.0574554,-0.0404712,0.426494,-1.5944,-0.181832,-0.052234,0.5172,-0.164248,0.0245045,-0.171757,-0.0614923,0.781257,0.950903,-0.041272,0,0,0,0,0,0,0,-0.0274099,-0.0500616,0.457058,-1.57833,-0.10783,1.46056,1.31478,-0.138045,-0.0148046,-0.179363,-0.090531,-0.0522182,0.225291,-0.0111724,-2.09912,-27.881,-2.66112,26.2567,-0.21912,5.28069,-0.0301054,0.000536551,-1.30236,-2.50065,0.440713,0.539673,-0.418023,-0.421821,0.540346,-0.413872,-0.49592,-0.241643,0.425442,-0.11717,
-0.0580866,-0.0403746,0.425832,-1.59464,-0.178464,-0.0484122,0.517032,-0.157789,0.0241506,-0.165459,-0.0603552,0.842031,0.955448,-0.0420771,0,0,0,0,0,0,0,-0.0340889,-0.0500734,0.44958,-1.58248,-0.105546,1.4745,1.31452,-0.174222,-0.00788919,-0.190161,-0.10826,0.193679,0.413369,-0.00561158,0.384403,-27.9802,-0.435472,27.3755,-0.0662268,4.29284,-0.0969389,1.56161,-1.13883,-2.34441,0.219369,1.3513,-0.64981,-0.656387,0.825802,-0.633968,-0.367019,-0.479282,0.640619,-0.118399,
-0.0586847,-0.0402789,0.425203,-1.59488,-0.174914,-0.0445781,0.516856,-0.149522,0.0239281,-0.157232,-0.0597443,0.887566,0.958532,-0.0440562,0,0,0,0,0,0,0,-0.0340889,-0.0500734,0.44958,-1.58248,-0.105546,1.4745,1.31452,-0.174222,-0.00788919,-0.190161,-0.10826,0.193679,0.413369,-0.00561158,0.384403,-27.9802,-0.435472,27.3755,-0.0662268,4.29284,-0.0969389,2.92361,-0.921714,-2.20116,0.0884651,2.15165,-0.825314,-0.826834,1.16979,-0.810381,-0.29332,-0.54064,0.787483,-0.121253,
-0.0592423,-0.0401794,0.424615,-1.59511,-0.171232,-0.0407425,0.516665,-0.139399,0.0248906,-0.147034,-0.0576304,0.920403,0.958895,-0.0476418,0,0,0,0,0,0,0,-0.0340889,-0.0500734,0.44958,-1.58248,-0.105546,1.4745,1.31452,-0.174222,-0.00788919,-0.190161,-0.10826,0.193679,0.413369,-0.00561158,0.384403,-27.9802,-0.435472,27.3755,-0.0662268,4.29284,-0.0969389,2.92361,-0.921714,-2.20116,0.0884651,2.15165,-0.825314,-0.826834,1.16979,-0.810381,-0.29332,-0.54064,0.787483,-0.121253,
-0.0597269,-0.0400309,0.424101,-1.59523,-0.167631,-0.0372475,0.51651,-0.121156,0.0371271,-0.128509,-0.0304091,0.900267,0.873745,-0.0388879,0,0,0,0,0,0,0,-0.0340889,-0.0500734,0.44958,-1.58248,-0.105546,1.4745,1.31452,-0.174222,-0.00788919,-0.190161,-0.10826,0.193679,0.413369,-0.00561158,0.384403,-27.9802,-0.435472,27.3755,-0.0662268,4.29284,-0.0969389,2.0773,-1.20472,-2.48326,0.410343,1.76734,-0.78824,-0.790433,1.07579,-0.783853,-0.371817,-0.33921,0.730703,-0.126147,
-0.0601615,-0.0398803,0.423638,-1.59533,-0.164048,-0.0339574,0.516354,-0.108658,0.0376487,-0.115739,-0.0249674,0.895635,0.822528,-0.0388302,0,0,0,0,0,0,0,-0.0340889,-0.0500734,0.44958,-1.58248,-0.105546,1.4745,1.31452,-0.174222,-0.00788919,-0.190161,-0.10826,0.193679,0.413369,-0.00561158,0.384403,-27.9802,-0.435472,27.3755,-0.0662268,4.29284,-0.0969389,2.0773,-1.20472,-2.48326,0.410343,1.76734,-0.78824,-0.790433,1.07579,-0.783853,-0.371817,-0.33921,0.730703,-0.126147,
-0.0605576,-0.0397399,0.423214,-1.59544,-0.160458,-0.0308134,0.516198,-0.0990179,0.0351034,-0.105884,-0.0255818,0.897721,0.786013,-0.0391014,0,0,0,0,0,0,0,-0.0396472,-0.049982,0.443268,-1.58541,-0.0956972,1.49087,1.31442,-0.159493,-0.00215047,-0.187913,-0.0937091,0.390511,0.55897,-0.0100435,0.919986,-29.5274,0.187391,27.9745,0.91705,3.95501,-0.0969389,2.66138,-2.11039,-1.94937,1.25882,1.97738,-1.36563,-1.36615,1.11306,-1.38893,-0.160015,-0.278153,0.75503,-0.128658,
-0.0609221,-0.0396116,0.422823,-1.59555,-0.156846,-0.0277831,0.516041,-0.0911352,0.0320519,-0.0978337,-0.0275856,0.902983,0.757566,-0.0392807,0,0,0,0,0,0,0,-0.0396472,-0.049982,0.443268,-1.58541,-0.0956972,1.49087,1.31442,-0.159493,-0.00215047,-0.187913,-0.0937091,0.390511,0.55897,-0.0100435,0.919986,-29.5274,0.187391,27.9745,0.91705,3.95501,-0.0969389,2.66138,-2.11039,-1.94937,1.25882,1.97738,-1.36563,-1.36615,1.11306,-1.38893,-0.160015,-0.278153,0.75503,-0.128658,
-0.0612601,-0.0394948,0.422459,-1.59566,-0.153207,-0.024845,0.515883,-0.0845018,0.0292081,-0.0910681,-0.0296568,0.909753,0.734535,-0.0394027,0,0,0,0,0,0,0,-0.0396472,-0.049982,0.443268,-1.58541,-0.0956972,1.49087,1.31442,-0.159493,-0.00215047,-0.187913,-0.0937091,0.390511,0.55897,-0.0100435,0.919986,-29.5274,0.187391,27.9745,0.91705,3.95501,-0.0969389,2.28095,-1.44008,-1.34811,1.0385,1.51987,-0.97029,-0.971271,0.783203,-0.994155,0.0837561,-0.091356,0.759543,-0.128769,
-0.0615755,-0.0393879,0.422117,-1.59579,-0.149538,-0.0219826,0.515725,-0.0788306,0.0267314,-0.0852916,-0.03147,0.917135,0.715592,-0.0394936,0,0,0,0,0,0,0,-0.0396472,-0.049982,0.443268,-1.58541,-0.0956972,1.49087,1.31442,-0.159493,-0.00215047,-0.187913,-0.0937091,0.390511,0.55897,-0.0100435,0.919986,-29.5274,0.187391,27.9745,0.91705,3.95501,-0.0969389,0.692562,-0.63023,-1.66591,0.605045,0.718742,-0.253328,-0.25963,0.505019,-0.264766,-0.0620121,0.22068,0.624745,-0.131545,
-0.0618712,-0.0392894,0.421796,-1.59592,-0.14584,-0.019183,0.515567,-0.0739324,0.0246207,-0.0803085,-0.0329857,0.9246,0.699905,-0.0395655,0,0,0,0,0,0,0,-0.0396472,-0.049982,0.443268,-1.58541,-0.0956972,1.49087,1.31442,-0.159493,-0.00215047,-0.187913,-0.0937091,0.390511,0.55897,-0.0100435,0.919986,-29.5274,0.187391,27.9745,0.91705,3.95501,-0.0969389,0.692562,-0.63023,-1.66591,0.605045,0.718742,-0.253328,-0.25963,0.505019,-0.264766,-0.0620121,0.22068,0.624745,-0.131545,
-0.0666604,-0.0296968,0.416622,-1.60551,-0.350331,-0.231295,0.504723,-0.0790882,0.0471216,-0.0865972,-0.0623503,-0.327489,0.0240542,-0.0595653,0,0,0,0,0,0,0,-0.0396472,-0.049982,0.443268,-1.58541,-0.0956972,1.49087,1.31442,-0.159493,-0.00215047,-0.187913,-0.0937091,0.390511,0.55897,-0.0100435,0.919986,-29.5274,0.187391,27.9745,0.91705,3.95501,-0.0969389,-0.791987,0.177112,-1.76269,0.228423,-0.132172,0.44426,0.436621,0.144561,0.43839,-0.0950491,0.529628,0.526915,-0.135738,
-0.0508548,-0.0361809,0.4333,-1.59622,-0.28186,-0.238972,0.511819,-0.1841,0.0842263,-0.192897,-0.123899,-1.19087,-0.273841,-0.0808662,0,0,0,0,0,0,0,-0.0450243,-0.0492093,0.437389,-1.58725,-0.0831692,1.50976,1.31423,-0.171584,0.0358945,-0.180298,-0.0430296,0.349508,0.601766,-0.00673095,1.83246,-30.2297,0.937208,27.3279,1.73553,3.52379,-0.0767973,-0.791987,0.177112,-1.76269,0.228423,-0.132172,0.44426,0.436621,0.144561,0.43839,-0.0950491,0.529628,0.526915,-0.135738,
-0.0600649,-0.0431975,0.421357,-1.5986,-0.164996,-0.04706,0.518309,-0.0460246,0.0283738,-0.0510547,-0.0689195,-0.607288,-0.00620752,-0.0519051,0,0,0,0,0,0,0,-0.0450243,-0.0492093,0.437389,-1.58725,-0.0831692,1.50976,1.31423,-0.171584,0.0358945,-0.180298,-0.0430296,0.349508,0.601766,-0.00673095,1.83246,-30.2297,0.937208,27.3279,1.73553,3.52379,-0.0767973,-1.41997,1.16743,-1.71901,-0.29142,-0.461973,1.05324,1.04856,0.0153858,1.05289,-0.114665,0.784438,0.468704,-0.136653,
-0.060244,-0.043086,0.421158,-1.59887,-0.167527,-0.0470512,0.518103,-0.0447552,0.0278816,-0.0497806,-0.068812,-0.632658,0.00221211,-0.0513958,0,0,0,0,0,0,0,-0.0450243,-0.0492093,0.437389,-1.58725,-0.0831692,1.50976,1.31423,-0.171584,0.0358945,-0.180298,-0.0430296,0.349508,0.601766,-0.00673095,1.83246,-30.2297,0.937208,27.3279,1.73553,3.52379,-0.0767973,-1.41997,1.16743,-1.71901,-0.29142,-0.461973,1.05324,1.04856,0.0153858,1.05289,-0.114665,0.784438,0.468704,-0.136653,
-0.060418,-0.0429765,0.420964,-1.59915,-0.170166,-0.0470071,0.5179,-0.0435057,0.0273775,-0.0485267,-0.0686986,-0.659684,0.0110245,-0.0508917,0,0,0,0,0,0,0,-0.0450243,-0.0492093,0.437389,-1.58725,-0.0831692,1.50976,1.31423,-0.171584,0.0358945,-0.180298,-0.0430296,0.349508,0.601766,-0.00673095,1.83246,-30.2297,0.937208,27.3279,1.73553,3.52379,-0.0767973,-0.680836,3.35692,-1.55221,-1.59859,0.157277,1.97471,1.97835,0.361347,1.99277,-0.1943,1.1113,0.463771,-0.137358,
-0.0605871,-0.042869,0.420775,-1.59942,-0.172919,-0.0469261,0.517698,-0.0422735,0.0268576,-0.0472901,-0.0685867,-0.688354,0.0202496,-0.0503957,0,0,0,0,0,0,0,-0.0450243,-0.0492093,0.437389,-1.58725,-0.0831692,1.50976,1.31423,-0.171584,0.0358945,-0.180298,-0.0430296,0.349508,0.601766,-0.00673095,1.83246,-30.2297,0.937208,27.3279,1.73553,3.52379,-0.0767973,1.34488,3.27662,-2.34604,-1.73574,2.00051,1.50979,1.51201,1.51979,1.53993,-0.704664,1.05683,0.429705,-0.123796,
-0.0607513,-0.0427638,0.420591,-1.5997,-0.175794,-0.0468063,0.517499,-0.0410591,0.026317,-0.0460708,-0.0684855,-0.71862,0.0299346,-0.0499077,0,0,0,0,0,0,0,-0.0496094,-0.0482198,0.43262,-1.58738,-0.0854515,1.5207,1.31382,-0.100368,0.0202425,-0.115647,0.00246011,-0.490307,0.155453,-0.01954,1.32465,-30.0273,1.03639,24.761,-1.8982,0.752493,0.0101778,1.34488,3.27662,-2.34604,-1.73574,2.00051,1.50979,1.51201,1.51979,1.53993,-0.704664,1.05683,0.429705,-0.123796,
-0.0609108,-0.0426608,0.420411,-1.59997,-0.178795,-0.0466457,0.517301,-0.0398673,0.0257497,-0.0448732,-0.0684066,-0.750372,0.0401617,-0.0494282,0,0,0,0,0,0,0,-0.0496094,-0.0482198,0.43262,-1.58738,-0.0854515,1.5207,1.31382,-0.100368,0.0202425,-0.115647,0.00246011,-0.490307,0.155453,-0.01954,1.32465,-30.0273,1.03639,24.761,-1.8982,0.752493,0.0101778,0.509638,0.0158097,-1.84736,-0.152686,1.35288,0.0333409,0.0386904,1.17466,0.0375545,-0.8724,0.248478,-0.111113,-0.131018,
-0.0610656,-0.0425602,0.420236,-1.60024,-0.181929,-0.0464414,0.517105,-0.0387098,0.0251478,-0.0437081,-0.0683654,-0.783413,0.0510632,-0.0489582,0,0,0,0,0,0,0,-0.0496094,-0.0482198,0.43262,-1.58738,-0.0854515,1.5207,1.31382,-0.100368,0.0202425,-0.115647,0.00246011,-0.490307,0.155453,-0.01954,1.32465,-30.0273,1.03639,24.761,-1.8982,0.752493,0.0101778,0.509638,0.0158097,-1.84736,-0.152686,1.35288,0.0333409,0.0386904,1.17466,0.0375545,-0.8724,0.248478,-0.111113,-0.131018,
-0.0612161,-0.0424622,0.420066,-1.60052,-0.185198,-0.0461901,0.516911,-0.0376085,0.0245009,-0.0425961,-0.0683824,-0.8174,0.0628389,-0.0484959,0,0,0,0,0,0,0,-0.0496094,-0.0482198,0.43262,-1.58738,-0.0854515,1.5207,1.31382,-0.100368,0.0202425,-0.115647,0.00246011,-0.490307,0.155453,-0.01954,1.32465,-30.0273,1.03639,24.761,-1.8982,0.752493,0.0101778,-0.709853,-0.780538,-2.16074,-0.203081,0.758154,-0.137197,-0.133127,0.970026,-0.118185,-1.2512,-0.234455,-0.500882,-0.136628,
-0.0613625,-0.042367,0.4199,-1.60079,-0.188606,-0.045887,0.516719,-0.0366006,0.0237948,-0.0415732,-0.068484,-0.851775,0.0757791,-0.0480412,0,0,0,0,0,0,0,-0.0496094,-0.0482198,0.43262,-1.58738,-0.0854515,1.5207,1.31382,-0.100368,0.0202425,-0.115647,0.00246011,-0.490307,0.155453,-0.01954,1.32465,-30.0273,1.03639,24.761,-1.8982,0.752493,0.0101778,-0.709853,-0.780538,-2.16074,-0.203081,0.758154,-0.137197,-0.133127,0.970026,-0.118185,-1.2512,-0.234455,-0.500882,-0.136628,
-0.0615054,-0.0422749,0.419737,-1.60107,-0.192148,-0.0455258,0.516529,-0.0357471,0.02301,-0.0406978,-0.0687043,-0.885647,0.0902915,-0.0475873,0,0,0,0,0,0,0,-0.0524136,-0.0472471,0.428996,-1.58768,-0.103243,1.52761,1.31362,-0.0750834,0.0217741,-0.0997466,-0.0232703,-0.644146,0.193949,-0.00489934,1.27307,-30.0273,0.738844,26.3043,-0.85358,2.17156,-0.0969389,-1.60938,0.239971,-1.47925,-0.816942,-0.231819,0.551106,0.550831,0.265642,0.584544,-0.89198,-0.221806,-0.441702,-0.137962,
-0.061646,-0.0421865,0.419577,-1.60134,-0.195819,-0.0450981,0.51634,-0.0351438,0.0221201,-0.0400625,-0.0690841,-0.917635,0.106929,-0.0471301,0,0,0,0,0,0,0,-0.0524136,-0.0472471,0.428996,-1.58768,-0.103243,1.52761,1.31362,-0.0750834,0.0217741,-0.0997466,-0.0232703,-0.644146,0.193949,-0.00489934,1.27307,-30.0273,0.738844,26.3043,-0.85358,2.17156,-0.0969389,-0.0272261,-0.770219,-0.853608,-0.308474,0.644,-0.286119,-0.277011,0.622489,-0.268275,-0.858113,-0.570076,-0.546204,-0.144159,
-0.0617858,-0.0421021,0.419417,-1.60162,-0.199601,-0.0445925,0.516153,-0.0349372,0.0210892,-0.0398094,-0.0696679,-0.945634,0.126405,-0.0466518,0,0,0,0,0,0,0,-0.0524136,-0.0472471,0.428996,-1.58768,-0.103243,1.52761,1.31362,-0.0750834,0.0217741,-0.0997466,-0.0232703,-0.644146,0.193949,-0.00489934,1.27307,-30.0273,0.738844,26.3043,-0.85358,2.17156,-0.0969389,-0.0272261,-0.770219,-0.853608,-0.308474,0.644,-0.286119,-0.277011,0.622489,-0.268275,-0.858113,-0.570076,-0.546204,-0.144159,
-0.0619272,-0.0420226,0.419257,-1.6019,-0.203467,-0.0439942,0.515969,-0.035346,0.0198701,-0.0401508,-0.0704937,-0.966494,0.149576,-0.0461303,0,0,0,0,0,0,0,-0.0524136,-0.0472471,0.428996,-1.58768,-0.103243,1.52761,1.31362,-0.0750834,0.0217741,-0.0997466,-0.0232703,-0.644146,0.193949,-0.00489934,1.27307,-30.0273,0.738844,26.3043,-0.85358,2.17156,-0.0969389,0.411202,-2.73205,-1.12825,0.405954,1.17906,-1.3914,-1.37774,1.01379,-1.37962,-1.29465,-1.19277,-0.910786,-0.14661,
-0.0620739,-0.041949,0.419091,-1.60219,-0.20737,-0.0432847,0.515787,-0.0366862,0.0184032,-0.0413943,-0.0715708,-0.975619,0.177356,-0.0455257,0,0,0,0,0,0,0,-0.0524136,-0.0472471,0.428996,-1.58768,-0.103243,1.52761,1.31362,-0.0750834,0.0217741,-0.0997466,-0.0232703,-0.644146,0.193949,-0.00489934,1.27307,-30.0273,0.738844,26.3043,-0.85358,2.17156,-0.0969389,0.411202,-2.73205,-1.12825,0.405954,1.17906,-1.3914,-1.37774,1.01379,-1.37962,-1.29465,-1.19277,-0.910786,-0.14661,
-0.0622315,-0.0418825,0.418915,-1.60248,-0.211236,-0.0424427,0.515608,-0.0393968,0.0166184,-0.0439694,-0.0728414,-0.966501,0.210515,-0.0447801,0,0,0,0,0,0,0,-0.0524136,-0.0472471,0.428996,-1.58768,-0.103243,1.52761,1.31362,-0.0750834,0.0217741,-0.0997466,-0.0232703,-0.644146,0.193949,-0.00489934,1.27307,-30.0273,0.738844,26.3043,-0.85358,2.17156,-0.0969389,-0.809171,-3.13059,-1.13201,0.516476,0.324898,-1.36886,-1.35678,0.56525,-1.35642,-1.29293,-1.34786,-1.02698,-0.143691,
-0.0624077,-0.0418248,0.418722,-1.60278,-0.214957,-0.0414453,0.515432,-0.0440559,0.0144392,-0.048444,-0.0741298,-0.93033,0.249355,-0.0438073,0,0,0,0,0,0,0,-0.054088,-0.0464374,0.426735,-1.58805,-0.1225,1.53554,1.31356,-0.0427926,0.0329893,-0.0606415,-0.00683579,-0.662959,0.27439,-0.00133912,0.539127,-30.7771,-0.213304,25.4315,-1.61164,2.33727,-0.150955,-0.859427,-3.86888,-1.37227,0.905306,0.342365,-1.73483,-1.71962,0.606943,-1.73197,-1.3614,-1.47826,-1.036,-0.143858,
-0.0626132,-0.0417776,0.418499,-1.60308,-0.218381,-0.0402717,0.515262,-0.0513697,0.0117906,-0.0555186,-0.0751039,-0.855886,0.293396,-0.0424965,0,0,0,0,0,0,0,-0.054088,-0.0464374,0.426735,-1.58805,-0.1225,1.53554,1.31356,-0.0427926,0.0329893,-0.0606415,-0.00683579,-0.662959,0.27439,-0.00133912,0.539127,-30.7771,-0.213304,25.4315,-1.61164,2.33727,-0.150955,-0.859427,-3.86888,-1.37227,0.905306,0.342365,-1.73483,-1.71962,0.606943,-1.73197,-1.3614,-1.47826,-1.036,-0.143858,
-0.0628617,-0.0417432,0.418236,-1.60338,-0.221301,-0.0389065,0.515099,-0.0621205,0.00861175,-0.0659788,-0.0752805,-0.730015,0.341296,-0.0407439,0,0,0,0,0,0,0,-0.054088,-0.0464374,0.426735,-1.58805,-0.1225,1.53554,1.31356,-0.0427926,0.0329893,-0.0606415,-0.00683579,-0.662959,0.27439,-0.00133912,0.539127,-30.7771,-0.213304,25.4315,-1.61164,2.33727,-0.150955,0.340737,-4.44895,-2.20458,0.985519,1.50179,-2.263,-2.24602,1.35955,-2.25472,-1.77054,-1.70532,-1.0475,-0.147365,
-0.06317,-0.0417236,0.417913,-1.60368,-0.223455,-0.0373425,0.514945,-0.0770749,0.00490413,-0.0806079,-0.0740244,-0.538634,0.390992,-0.0387249,0,0,0,0,0,0,0,-0.054088,-0.0464374,0.426735,-1.58805,-0.1225,1.53554,1.31356,-0.0427926,0.0329893,-0.0606415,-0.00683579,-0.662959,0.27439,-0.00133912,0.539127,-30.7771,-0.213304,25.4315,-1.61164,2.33727,-0.150955,0.340737,-4.44895,-2.20458,0.985519,1.50179,-2.263,-2.24602,1.35955,-2.25472,-1.77054,-1.70532,-1.0475,-0.147365,
-0.0635577,-0.0417199,0.417513,-1.60396,-0.224525,-0.0355865,0.514785,-0.096922,0.000913018,-0.100086,-0.0702256,-0.267405,0.438998,-0.0399763,0,0,0,0,0,0,0,-0.054088,-0.0464374,0.426735,-1.58805,-0.1225,1.53554,1.31356,-0.0427926,0.0329893,-0.0606415,-0.00683579,-0.662959,0.27439,-0.00133912,0.539127,-30.7771,-0.213304,25.4315,-1.61164,2.33727,-0.150955,0.676217,-3.79298,-1.9522,0.631328,1.52756,-1.99775,-1.97982,1.26624,-1.98442,-1.57614,-1.66326,-0.898129,-0.144025,
-0.0639838,-0.0417122,0.417069,-1.60421,-0.224786,-0.0337005,0.514629,-0.10653,0.00192345,-0.110833,-0.0624918,-0.0654081,0.471502,-0.0389983,0,0,0,0,0,0,0,-0.0549169,-0.0459608,0.425405,-1.58855,-0.145904,1.5447,1.31352,-0.0222408,0.00159076,-0.0342708,-0.0321182,-0.716513,0.283663,-0.00117657,-0.274166,-30.2773,-0.93535,26.4035,-0.743717,2.78771,-0.224197,0.676217,-3.79298,-1.9522,0.631328,1.52756,-1.99775,-1.97982,1.26624,-1.98442,-1.57614,-1.66326,-0.898129,-0.144025,
-0.0644254,-0.0416953,0.416607,-1.60443,-0.224437,-0.0317153,0.514476,-0.110407,0.00423605,-0.115504,-0.055717,0.0874667,0.496294,-0.0382805,0,0,0,0,0,0,0,-0.0549169,-0.0459608,0.425405,-1.58855,-0.145904,1.5447,1.31352,-0.0222408,0.00159076,-0.0342708,-0.0321182,-0.716513,0.283663,-0.00117657,-0.274166,-30.2773,-0.93535,26.4035,-0.743717,2.78771,-0.224197,0.588814,-3.03202,-1.66212,0.276471,1.29779,-1.58855,-1.57116,1.06025,-1.57043,-1.37677,-1.52695,-0.787664,-0.149764,
-0.064868,-0.0416685,0.416142,-1.60463,-0.223618,-0.0296505,0.514324,-0.110657,0.00668958,-0.116275,-0.0507384,0.204668,0.516203,-0.0378321,0,0,0,0,0,0,0,-0.0549169,-0.0459608,0.425405,-1.58855,-0.145904,1.5447,1.31352,-0.0222408,0.00159076,-0.0342708,-0.0321182,-0.716513,0.283663,-0.00117657,-0.274166,-30.2773,-0.93535,26.4035,-0.743717,2.78771,-0.224197,0.588814,-3.03202,-1.66212,0.276471,1.29779,-1.58855,-1.57116,1.06025,-1.57043,-1.37677,-1.52695,-0.787664,-0.149764,
-0.0653025,-0.0416328,0.415684,-1.60482,-0.222435,-0.0275205,0.514174,-0.108622,0.00892267,-0.114569,-0.0473418,0.295603,0.532498,-0.0375629,0,0,0,0,0,0,0,-0.0549169,-0.0459608,0.425405,-1.58855,-0.145904,1.5447,1.31352,-0.0222408,0.00159076,-0.0342708,-0.0321182,-0.716513,0.283663,-0.00117657,-0.274166,-30.2773,-0.93535,26.4035,-0.743717,2.78771,-0.224197,-0.465623,-3.10213,-1.49171,0.582658,0.434714,-1.39736,-1.38087,0.564657,-1.39199,-1.12685,-1.31999,-0.692523,-0.160646,
-0.0657233,-0.0415895,0.415239,-1.605,-0.220967,-0.0253369,0.514024,-0.105197,0.0108351,-0.111344,-0.045131,0.366994,0.545917,-0.0374116,0,0,0,0,0,0,0,-0.0549169,-0.0459608,0.425405,-1.58855,-0.145904,1.5447,1.31352,-0.0222408,0.00159076,-0.0342708,-0.0321182,-0.716513,0.283663,-0.00117657,-0.274166,-30.2773,-0.93535,26.4035,-0.743717,2.78771,-0.224197,-0.799396,-3.90644,-0.893257,1.48435,-0.218956,-1.70693,-1.69001,0.0586916,-1.73141,-0.630086,-1.18849,-0.482416,-0.161931,
-0.0661273,-0.0415398,0.41481,-1.60518,-0.219273,-0.0231089,0.513875,-0.100989,0.0124162,-0.107245,-0.0437543,0.423702,0.556986,-0.0373379,0,0,0,0,0,0,0,-0.0549169,-0.0459608,0.425405,-1.58855,-0.145904,1.5447,1.31352,-0.0222408,0.00159076,-0.0342708,-0.0321182,-0.716513,0.283663,-0.00117657,-0.274166,-30.2773,-0.93535,26.4035,-0.743717,2.78771,-0.224197,-0.799396,-3.90644,-0.893257,1.48435,-0.218956,-1.70693,-1.69001,0.0586916,-1.73141,-0.630086,-1.18849,-0.482416,-0.161931,
-0.0713565,-0.0318158,0.409371,-1.60453,-0.265556,-0.211737,0.509921,-0.138939,0.110601,-0.148027,-0.113161,-1.18887,-0.673249,-0.0845317,0,0,0,0,0,0,0,-0.0563788,-0.0459747,0.42386,-1.58982,-0.16188,1.55463,1.31346,-0.0666782,-0.00245702,-0.0550433,-0.0466337,-0.22322,0.280128,-0.00121875,-0.40112,-30.1027,-1.463,27.5024,0.880428,3.76916,-0.0630644,-0.162391,-3.23003,-0.246513,1.55477,-0.28193,-1.42932,-1.40782,-0.19899,-1.47208,-0.03945,-0.848778,-0.0560624,-0.163019,
-0.0746638,-0.0360085,0.404342,-1.60139,-0.228687,-0.0520702,0.517295,-0.113205,0.0640757,-0.120705,-0.0640294,0.232529,-0.234908,-0.0483938,0,0,0,0,0,0,0,-0.0563788,-0.0459747,0.42386,-1.58982,-0.16188,1.55463,1.31346,-0.0666782,-0.00245702,-0.0550433,-0.0466337,-0.22322,0.280128,-0.00121875,-0.40112,-30.1027,-1.463,27.5024,0.880428,3.76916,-0.0630644,-0.162391,-3.23003,-0.246513,1.55477,-0.28193,-1.42932,-1.40782,-0.19899,-1.47208,-0.03945,-0.848778,-0.0560624,-0.163019,
-0.0751138,-0.0357573,0.403862,-1.60164,-0.227664,-0.0530527,0.517104,-0.112515,0.0628121,-0.120003,-0.0634439,0.255711,-0.245631,-0.0479659,0,0,0,0,0,0,0,-0.0563788,-0.0459747,0.42386,-1.58982,-0.16188,1.55463,1.31346,-0.0666782,-0.00245702,-0.0550433,-0.0466337,-0.22322,0.280128,-0.00121875,-0.40112,-30.1027,-1.463,27.5024,0.880428,3.76916,-0.0630644,0.489923,-1.7056,-0.39471,1.09558,0.0066292,-0.694931,-0.67052,-0.125114,-0.742373,0.302862,-0.283796,0.462759,-0.166604,
-0.0755616,-0.0355115,0.403385,-1.60189,-0.226539,-0.0540784,0.516913,-0.111931,0.0614426,-0.119409,-0.0628553,0.281245,-0.256418,-0.0475541,0,0,0,0,0,0,0,-0.0563788,-0.0459747,0.42386,-1.58982,-0.16188,1.55463,1.31346,-0.0666782,-0.00245702,-0.0550433,-0.0466337,-0.22322,0.280128,-0.00121875,-0.40112,-30.1027,-1.463,27.5024,0.880428,3.76916,-0.0630644,0.489923,-1.7056,-0.39471,1.09558,0.0066292,-0.694931,-0.67052,-0.125114,-0.742373,0.302862,-0.283796,0.462759,-0.166604,
-0.0760074,-0.0352717,0.402909,-1.60214,-0.225301,-0.0551466,0.516725,-0.111458,0.0599563,-0.118924,-0.0622816,0.309494,-0.267043,-0.0471613,0,0,0,0,0,0,0,-0.0563788,-0.0459747,0.42386,-1.58982,-0.16188,1.55463,1.31346,-0.0666782,-0.00245702,-0.0550433,-0.0466337,-0.22322,0.280128,-0.00121875,-0.40112,-30.1027,-1.463,27.5024,0.880428,3.76916,-0.0630644,0.770109,0.963595,-0.556158,-0.340094,0.348446,0.62867,0.660827,0.0914466,0.598364,0.295537,0.282228,0.647231,-0.170773,
-0.0764518,-0.0350383,0.402435,-1.60239,-0.223938,-0.0562553,0.516538,-0.111098,0.0583401,-0.118553,-0.0617501,0.340845,-0.277173,-0.0467933,0,0,0,0,0,0,0,-0.0594157,-0.0462133,0.420584,-1.59119,-0.1695,1.55708,1.31331,-0.0867039,-0.00269133,-0.0878899,-0.00593127,-0.218543,-0.0339066,0.000159581,0.00751081,-27.8334,-0.713182,25.9552,1.13128,2.57531,-0.130813,1.51886,1.4466,-1.65896,-0.744116,1.77626,0.685152,0.713972,1.25331,0.672592,-0.537954,0.556423,0.314368,-0.172984,
-0.0768952,-0.034812,0.401961,-1.60263,-0.222435,-0.0574005,0.516352,-0.110856,0.0565796,-0.118301,-0.0613013,0.375706,-0.28632,-0.0464577,0,0,0,0,0,0,0,-0.0594157,-0.0462133,0.420584,-1.59119,-0.1695,1.55708,1.31331,-0.0867039,-0.00269133,-0.0878899,-0.00593127,-0.218543,-0.0339066,0.000159581,0.00751081,-27.8334,-0.713182,25.9552,1.13128,2.57531,-0.130813,1.51886,1.4466,-1.65896,-0.744116,1.77626,0.685152,0.713972,1.25331,0.672592,-0.537954,0.556423,0.314368,-0.172984,
-0.0773382,-0.0345934,0.401489,-1.60288,-0.220777,-0.0585756,0.516167,-0.110737,0.0546595,-0.118171,-0.060995,0.414476,-0.29377,-0.0461634,0,0,0,0,0,0,0,-0.0594157,-0.0462133,0.420584,-1.59119,-0.1695,1.55708,1.31331,-0.0867039,-0.00269133,-0.0878899,-0.00593127,-0.218543,-0.0339066,0.000159581,0.00751081,-27.8334,-0.713182,25.9552,1.13128,2.57531,-0.130813,0.501988,1.91385,-2.24861,-1.13922,1.64736,1.06753,1.09325,1.44774,1.06938,-1.02399,0.735688,-0.0154719,-0.172376,
-0.0777811,-0.0343831,0.401016,-1.60312,-0.218947,-0.0597696,0.515983,-0.110739,0.052565,-0.118162,-0.0609169,0.45749,-0.298501,-0.0459239,0,0,0,0,0,0,0,-0.0594157,-0.0462133,0.420584,-1.59119,-0.1695,1.55708,1.31331,-0.0867039,-0.00269133,-0.0878899,-0.00593127,-0.218543,-0.0339066,0.000159581,0.00751081,-27.8334,-0.713182,25.9552,1.13128,2.57531,-0.130813,1.19983,3.36562,-3.21145,-2.10963,2.6899,1.68263,1.70899,2.22561,1.70827,-1.50735,1.02771,-0.014059,-0.17835,
-0.0782245,-0.034182,0.400543,-1.60337,-0.216928,-0.0609659,0.5158,-0.110846,0.050285,-0.118261,-0.0611861,0.504897,-0.299076,-0.0457593,0,0,0,0,0,0,0,-0.0594157,-0.0462133,0.420584,-1.59119,-0.1695,1.55708,1.31331,-0.0867039,-0.00269133,-0.0878899,-0.00593127,-0.218543,-0.0339066,0.000159581,0.00751081,-27.8334,-0.713182,25.9552,1.13128,2.57531,-0.130813,1.19983,3.36562,-3.21145,-2.10963,2.6899,1.68263,1.70899,2.22561,1.70827,-1.50735,1.02771,-0.014059,-0.17835,
-0.0786685,-0.0339907,0.400069,-1.60362,-0.214702,-0.06214,0.515618,-0.111012,0.0478194,-0.11842,-0.0619607,0.556437,-0.29353,-0.0456972,0,0,0,0,0,0,0,-0.0594157,-0.0462133,0.420584,-1.59119,-0.1695,1.55708,1.31331,-0.0867039,-0.00269133,-0.0878899,-0.00593127,-0.218543,-0.0339066,0.000159581,0.00751081,-27.8334,-0.713182,25.9552,1.13128,2.57531,-0.130813,-0.0797303,3.80644,-2.76026,-2.19992,1.73251,2.1311,2.15889,1.69729,2.1508,-1.35007,1.24123,-0.121235,-0.183865,
-0.079113,-0.0338099,0.399595,-1.60387,-0.212258,-0.0632572,0.515434,-0.111122,0.0451912,-0.11853,-0.0634368,0.611045,-0.279284,-0.0457789,0,0,0,0,0,0,0,-0.0629263,-0.0464996,0.416653,-1.5911,-0.172099,1.55465,1.31328,-0.123016,-0.000953573,-0.143736,-0.00397677,-0.0103794,-0.0802469,-0.000656188,1.01917,-28.5317,0.112013,25.0348,1.24664,1.91247,-0.170181,-0.0797303,3.80644,-2.76026,-2.19992,1.73251,2.1311,2.15889,1.69729,2.1508,-1.35007,1.24123,-0.121235,-0.183865,
-0.0795568,-0.0336401,0.399122,-1.60413,-0.209593,-0.0642697,0.51525,-0.110951,0.0424657,-0.118369,-0.0658337,0.666249,-0.253142,-0.046068,0,0,0,0,0,0,0,-0.0629263,-0.0464996,0.416653,-1.5911,-0.172099,1.55465,1.31328,-0.123016,-0.000953573,-0.143736,-0.00397677,-0.0103794,-0.0802469,-0.000656188,1.01917,-28.5317,0.112013,25.0348,1.24664,1.91247,-0.170181,-1.44386,2.99985,-1.73997,-1.53719,0.525463,1.91752,1.95196,0.970195,1.91083,-1.08202,1.21969,-0.395406,-0.181184,
-0.0799972,-0.033481,0.398652,-1.60441,-0.206723,-0.0651156,0.515064,-0.110098,0.0397749,-0.117543,-0.0693539,0.717467,-0.21146,-0.0466607,0,0,0,0,0,0,0,-0.0629263,-0.0464996,0.416653,-1.5911,-0.172099,1.55465,1.31328,-0.123016,-0.000953573,-0.143736,-0.00397677,-0.0103794,-0.0802469,-0.000656188,1.01917,-28.5317,0.112013,25.0348,1.24664,1.91247,-0.170181,-1.44386,2.99985,-1.73997,-1.53719,0.525463,1.91752,1.95196,0.970195,1.91083,-1.08202,1.21969,-0.395406,-0.181184,
-0.0804291,-0.0333316,0.39819,-1.60471,-0.203693,-0.0657179,0.514873,-0.107958,0.0373398,-0.115449,-0.0741058,0.757566,-0.150591,-0.0476678,0,0,0,0,0,0,0,-0.0629263,-0.0464996,0.416653,-1.5911,-0.172099,1.55465,1.31328,-0.123016,-0.000953573,-0.143736,-0.00397677,-0.0103794,-0.0802469,-0.000656188,1.01917,-28.5317,0.112013,25.0348,1.24664,1.91247,-0.170181,-2.09234,2.01237,-1.0901,-0.815859,-0.110672,1.49611,1.52877,0.575709,1.47241,-0.909616,1.1446,-0.568834,-0.176536,
-0.080844,-0.0331896,0.397745,-1.60503,-0.200584,-0.0659885,0.514678,-0.103744,0.0354942,-0.111297,-0.0799647,0.777107,-0.0676474,-0.0488189,0,0,0,0,0,0,0,-0.0629263,-0.0464996,0.416653,-1.5911,-0.172099,1.55465,1.31328,-0.123016,-0.000953573,-0.143736,-0.00397677,-0.0103794,-0.0802469,-0.000656188,1.01917,-28.5317,0.112013,25.0348,1.24664,1.91247,-0.170181,-1.52481,2.53679,-1.49136,-1.28241,0.583128,1.63948,1.66721,1.05955,1.63544,-1.22892,1.16459,-0.669225,-0.1776,
-0.0812299,-0.0330505,0.397328,-1.60537,-0.197525,-0.0658351,0.514504,-0.0964758,0.0347943,-0.104116,-0.0862748,0.764659,0.0383601,-0.0433719,0,0,0,0,0,0,0,-0.0666665,-0.0464047,0.411877,-1.59121,-0.169982,1.55282,1.31325,-0.130105,0.000772602,-0.170003,0.000882729,0.154492,-0.0479456,-7.47265e-05,1.37622,-29.3529,0.762648,25.4593,1.11847,2.17156,-0.204056,-1.52481,2.53679,-1.49136,-1.28241,0.583128,1.63948,1.66721,1.05955,1.63544,-1.22892,1.16459,-0.669225,-0.1776,
-0.0815896,-0.0329049,0.396939,-1.60571,-0.194502,-0.0653545,0.514331,-0.0899141,0.0363989,-0.097378,-0.0851197,0.755937,0.120152,-0.0432009,0,0,0,0,0,0,0,-0.0666665,-0.0464047,0.411877,-1.59121,-0.169982,1.55282,1.31325,-0.130105,0.000772602,-0.170003,0.000882729,0.154492,-0.0479456,-7.47265e-05,1.37622,-29.3529,0.762648,25.4593,1.11847,2.17156,-0.204056,-2.14807,2.71981,-1.6515,-1.448,0.275462,1.83831,1.86222,0.951536,1.8427,-1.32633,1.18591,-0.752539,-0.181259,
-0.0819265,-0.0327532,0.396572,-1.60604,-0.191499,-0.0646094,0.514158,-0.0842216,0.0379204,-0.0915589,-0.0818463,0.750752,0.186261,-0.0434167,0,0,0,0,0,0,0,-0.0666665,-0.0464047,0.411877,-1.59121,-0.169982,1.55282,1.31325,-0.130105,0.000772602,-0.170003,0.000882729,0.154492,-0.0479456,-7.47265e-05,1.37622,-29.3529,0.762648,25.4593,1.11847,2.17156,-0.204056,-2.14807,2.71981,-1.6515,-1.448,0.275462,1.83831,1.86222,0.951536,1.8427,-1.32633,1.18591,-0.752539,-0.181259,
-0.0822439,-0.0325979,0.396226,-1.60635,-0.188506,-0.0636465,0.513983,-0.0793459,0.0388208,-0.0865964,-0.0781367,0.748249,0.240732,-0.0436273,0,0,0,0,0,0,0,-0.0666665,-0.0464047,0.411877,-1.59121,-0.169982,1.55282,1.31325,-0.130105,0.000772602,-0.170003,0.000882729,0.154492,-0.0479456,-7.47265e-05,1.37622,-29.3529,0.762648,25.4593,1.11847,2.17156,-0.204056,-2.72611,2.4524,-1.74067,-1.24539,-0.0824991,1.80784,1.82959,0.793493,1.8087,-1.33264,1.20823,-0.784753,-0.183232,
