PerkyPenguin/Analysis-on-Approximated-Derivatives/Code_and_Data/PaperData/Real_Robot/Scene_1/contact_change/18/trajectory.csv
Commanded Joint 0 Position,Commanded Joint 1 Position,Commanded Joint 2 Position,Commanded Joint 3 Position,Commanded Joint 4 Position,Commanded Joint 5 Position,Commanded Joint 6 Position,Commanded Joint 0 Velocity,Commanded Joint 1 Velocity,Commanded Joint 2 Velocity,Commanded Joint 3 Velocity,Commanded Joint 4 Velocity,Commanded Joint 5 Velocity,Commanded Joint 6 Velocity,Commanded Joint 0 Torque,Commanded Joint 1 Torque,Commanded Joint 2 Torque,Commanded Joint 3 Torque,Commanded Joint 4 Torque,Commanded Joint 5 Torque,Commanded Joint 6 Torque,Actual Joint 0 Position,Actual Joint 1 Position,Actual Joint 2 Position,Actual Joint 3 Position,Actual Joint 4 Position,Actual Joint 5 Position,Actual Joint 6 Position,Actual Joint 0 Velocity,Actual Joint 1 Velocity,Actual Joint 2 Velocity,Actual Joint 3 Velocity,Actual Joint 4 Velocity,Actual Joint 5 Velocity,Actual Joint 6 Velocity,Actual Joint 0 Torque,Actual Joint 1 Torque,Actual Joint 2 Torque,Actual Joint 3 Torque,Actual Joint 4 Torque,Actual Joint 5 Torque,Actual Joint 6 Torque,EE ext force 0,EE ext force 1,EE ext force 2,EE ext force 3,EE ext force 4,EE ext force 5,joint ext torque 0,joint ext torque 1,joint ext torque 2,joint ext torque 3,joint ext torque 4,joint ext torque 5,joint ext torque 6,
0.0126046,-0.201283,-0.33227,-1.66131,-0.0922786,-0.0943554,-0.383378,-0.00204276,0.0161505,-0.0122052,-0.15134,0.00426374,0.196583,-0.00216171,0,0,0,0,0,0,0,0.0126158,-0.201292,-0.332172,-1.65978,-0.0923253,1.47448,0.402041,0.000619617,0.00105304,0.000546989,0.000517263,-0.0035565,-3.80598e-06,-0.000557179,-0.119442,-25.3856,1.91316,25.9552,0.593868,2.95983,-0.0163725,-0.956354,-0.0347601,-0.402403,0.0526269,-0.247942,-0.140392,-0.0619024,0.064725,-0.212379,-0.355094,-0.154954,-0.321363,-0.0411236,
0.0125912,-0.201145,-0.332331,-1.66195,-0.0922646,-0.0935398,-0.383386,-0.00333859,0.0345538,-0.015188,-0.160364,0.00349478,0.203904,-0.00205307,0,0,0,0,0,0,0,0.0126158,-0.201292,-0.332172,-1.65978,-0.0923253,1.47448,0.402041,0.000619617,0.00105304,0.000546989,0.000517263,-0.0035565,-3.80598e-06,-0.000557179,-0.119442,-25.3856,1.91316,25.9552,0.593868,2.95983,-0.0163725,-0.956354,-0.0347601,-0.402403,0.0526269,-0.247942,-0.140392,-0.0619024,0.064725,-0.212379,-0.355094,-0.154954,-0.321363,-0.0411236,
0.01262,-0.201283,-0.332166,-1.65978,-0.0923536,-0.0963073,-0.383358,0.000170065,0.000384769,0.000182093,-0.000118633,-0.00107507,0.00026924,-1.01471e-05,0,0,0,0,0,0,0,0.0126158,-0.201292,-0.332172,-1.65978,-0.0923253,1.47448,0.402041,0.000619617,0.00105304,0.000546989,0.000517263,-0.0035565,-3.80598e-06,-0.000557179,-0.119442,-25.3856,1.91316,25.9552,0.593868,2.95983,-0.0163725,-1.07617,0.0127956,-0.265662,-0.00686787,-0.400111,-0.138802,-0.056318,-0.0472659,-0.205187,-0.279989,-0.154665,-0.312478,-0.0420253,
0.0126205,-0.201282,-0.332166,-1.65978,-0.0923569,-0.0963066,-0.383358,0.000134331,0.000310644,0.000130405,-0.000110756,-0.000809936,0.000186346,-7.62432e-06,0,0,0,0,0,0,0,0.0126158,-0.201292,-0.332172,-1.65978,-0.0923253,1.47448,0.402041,0.000619617,0.00105304,0.000546989,0.000517263,-0.0035565,-3.80598e-06,-0.000557179,-0.119442,-25.3856,1.91316,25.9552,0.593868,2.95983,-0.0163725,-1.07617,0.0127956,-0.265662,-0.00686787,-0.400111,-0.138802,-0.056318,-0.0472659,-0.205187,-0.279989,-0.154665,-0.312478,-0.0420253,
0.012621,-0.201281,-0.332166,-1.65978,-0.0923593,-0.0963061,-0.383358,0.000108244,0.000244975,9.30128e-05,-9.80593e-05,-0.000617206,0.000109168,-5.69661e-06,0,0,0,0,0,0,0,0.0126038,-0.201373,-0.332171,-1.66003,-0.092311,1.47477,0.40205,0.000525885,-0.00523649,0.000384837,-0.0289421,-0.00433339,0.0380655,0.000903862,0.00751081,-24.3382,1.86159,24.1898,0.507809,2.89391,-0.0703886,-1.2565,0.124079,-0.497045,-0.0671315,-0.480805,-0.120265,-0.0303471,-0.0680901,-0.188612,-0.316585,-0.155404,-0.286078,-0.0400825,
0.0126213,-0.20128,-0.332165,-1.65978,-0.0923612,-0.096306,-0.383358,8.90607e-05,0.000186307,6.57355e-05,-8.38138e-05,-0.000476889,4.02762e-05,-4.23166e-06,0,0,0,0,0,0,0,0.0126038,-0.201373,-0.332171,-1.66003,-0.092311,1.47477,0.40205,0.000525885,-0.00523649,0.000384837,-0.0289421,-0.00433339,0.0380655,0.000903862,0.00751081,-24.3382,1.86159,24.1898,0.507809,2.89391,-0.0703886,-1.2565,0.124079,-0.497045,-0.0671315,-0.480805,-0.120265,-0.0303471,-0.0680901,-0.188612,-0.316585,-0.155404,-0.286078,-0.0400825,
0.0126216,-0.20128,-0.332165,-1.65979,-0.0923627,-0.096306,-0.383358,7.47764e-05,0.000133851,4.56032e-05,-6.93979e-05,-0.000374525,-1.9959e-05,-3.1145e-06,0,0,0,0,0,0,0,0.0126038,-0.201373,-0.332171,-1.66003,-0.092311,1.47477,0.40205,0.000525885,-0.00523649,0.000384837,-0.0289421,-0.00433339,0.0380655,0.000903862,0.00751081,-24.3382,1.86159,24.1898,0.507809,2.89391,-0.0703886,-2.51898,0.421884,-1.06436,-0.207499,-1.24098,-0.208177,-0.107044,-0.40786,-0.275218,-0.38518,-0.156614,-0.302875,-0.0393903,
0.0126219,-0.20128,-0.332165,-1.65979,-0.0923639,-0.0963063,-0.383358,6.39622e-05,8.70203e-05,3.05219e-05,-5.54414e-05,-0.000299699,-7.20081e-05,-2.25415e-06,0,0,0,0,0,0,0,0.0126038,-0.201373,-0.332171,-1.66003,-0.092311,1.47477,0.40205,0.000525885,-0.00523649,0.000384837,-0.0289421,-0.00433339,0.0380655,0.000903862,0.00751081,-24.3382,1.86159,24.1898,0.507809,2.89391,-0.0703886,-1.58554,-0.0163517,-1.46026,0.169638,-0.390464,-0.23802,-0.135276,0.128732,-0.35328,-0.624986,-0.173,-0.275216,-0.0394521,
0.0124956,-0.201229,-0.332261,-1.65966,-0.0908014,-0.0972691,-0.383357,-0.0114611,0.00438784,-0.0101688,0.00979884,0.174618,-0.108461,0.000384176,0,0,0,0,0,0,0,0.0126038,-0.201373,-0.332171,-1.66003,-0.092311,1.47477,0.40205,0.000525885,-0.00523649,0.000384837,-0.0289421,-0.00433339,0.0380655,0.000903862,0.00751081,-24.3382,1.86159,24.1898,0.507809,2.89391,-0.0703886,-1.58554,-0.0163517,-1.46026,0.169638,-0.390464,-0.23802,-0.135276,0.128732,-0.35328,-0.624986,-0.173,-0.275216,-0.0394521,
0.0124824,-0.201274,-0.332272,-1.65999,-0.0908099,-0.0968469,-0.383348,-0.0115913,0.0083334,-0.0107864,0.00659793,0.171774,-0.101892,0.000354464,0,0,0,0,0,0,0,0.0126038,-0.201373,-0.332171,-1.66003,-0.092311,1.47477,0.40205,0.000525885,-0.00523649,0.000384837,-0.0289421,-0.00433339,0.0380655,0.000903862,0.00751081,-24.3382,1.86159,24.1898,0.507809,2.89391,-0.0703886,-0.724114,-0.162167,-1.41504,0.278099,0.232544,-0.150767,-0.060317,0.464876,-0.270201,-0.687269,-0.158166,-0.245516,-0.0407547,
0.0124366,-0.201248,-0.332317,-1.65996,-0.0899949,-0.0973458,-0.383346,-0.0114562,0.00660101,-0.0112992,0.00591806,0.203735,-0.124705,0.000500273,0,0,0,0,0,0,0,0.0126158,-0.201288,-0.332166,-1.66007,-0.0923006,1.47509,0.402045,-0.000671959,0.00233762,0.00153048,0.000282526,-0.000842236,0.00469143,0.000211476,-0.119442,-25.5364,1.83778,25.856,0.404354,3.03307,-0.0301054,-0.724114,-0.162167,-1.41504,0.278099,0.232544,-0.150767,-0.060317,0.464876,-0.270201,-0.687269,-0.158166,-0.245516,-0.0407547,
0.0123934,-0.201228,-0.332362,-1.65994,-0.0890813,-0.0979178,-0.383344,-0.010797,0.00489158,-0.0110612,0.00482968,0.228401,-0.143016,0.000575744,0,0,0,0,0,0,0,0.0126158,-0.201288,-0.332166,-1.66007,-0.0923006,1.47509,0.402045,-0.000671959,0.00233762,0.00153048,0.000282526,-0.000842236,0.00469143,0.000211476,-0.119442,-25.5364,1.83778,25.856,0.404354,3.03307,-0.0301054,-1.18101,0.00835607,-0.890755,0.0609204,-0.343993,-0.156668,-0.0681683,0.0426218,-0.241217,-0.404524,-0.154644,-0.216589,-0.0398545,
0.0123539,-0.201214,-0.332403,-1.65993,-0.0880909,-0.0985494,-0.383341,-0.00985617,0.00342248,-0.0103734,0.00376636,0.247609,-0.157902,0.000612023,0,0,0,0,0,0,0,0.0126158,-0.201288,-0.332166,-1.66007,-0.0923006,1.47509,0.402045,-0.000671959,0.00233762,0.00153048,0.000282526,-0.000842236,0.00469143,0.000211476,-0.119442,-25.5364,1.83778,25.856,0.404354,3.03307,-0.0301054,-1.3568,-0.115228,-0.952055,0.173125,-0.444546,-0.240433,-0.136421,-0.00131,-0.350351,-0.422006,-0.156659,-0.232495,-0.0407261,
0.0123188,-0.201205,-0.332441,-1.65992,-0.0870402,-0.0992295,-0.383339,-0.00877783,0.00222985,-0.00943084,0.00283832,0.262666,-0.17002,0.000624909,0,0,0,0,0,0,0,0.0126158,-0.201288,-0.332166,-1.66007,-0.0923006,1.47509,0.402045,-0.000671959,0.00233762,0.00153048,0.000282526,-0.000842236,0.00469143,0.000211476,-0.119442,-25.5364,1.83778,25.856,0.404354,3.03307,-0.0301054,-1.3568,-0.115228,-0.952055,0.173125,-0.444546,-0.240433,-0.136421,-0.00131,-0.350351,-0.422006,-0.156659,-0.232495,-0.0407261,
0.0123106,-0.201175,-0.332382,-1.65966,-0.0877847,-0.0996773,-0.383318,-0.0268369,0.0135735,-0.0224141,0.0314734,0.519041,-0.417781,0.00329538,0,0,0,0,0,0,0,0.0126158,-0.201288,-0.332166,-1.66007,-0.0923006,1.47509,0.402045,-0.000671959,0.00233762,0.00153048,0.000282526,-0.000842236,0.00469143,0.000211476,-0.119442,-25.5364,1.83778,25.856,0.404354,3.03307,-0.0301054,-1.23594,-0.0504052,-1.1689,0.255195,-0.267097,-0.18812,-0.0657667,0.133376,-0.335564,-0.551795,-0.0656015,-0.267903,-0.0394587,
0.0123251,-0.201123,-0.332365,-1.65966,-0.0877519,-0.0992203,-0.383325,-0.0265762,0.0100894,-0.0218223,0.0321159,0.521041,-0.396852,0.00313982,0,0,0,0,0,0,0,0.012556,-0.201229,-0.332209,-1.65999,-0.0910386,1.47506,0.402048,-0.00145263,-0.00439982,-0.00109119,0.000927664,0.0785866,-0.000365845,-0.000409719,0.384403,-25.5879,2.1393,26.0822,0.874935,3.02025,-0.050247,-1.23594,-0.0504052,-1.1689,0.255195,-0.267097,-0.18812,-0.0657667,0.133376,-0.335564,-0.551795,-0.0656015,-0.267903,-0.0394587,
0.0122243,-0.201103,-0.332454,-1.65956,-0.0852646,-0.101101,-0.383311,-0.0252091,0.00500164,-0.0223486,0.0256271,0.621828,-0.470047,0.00347286,0,0,0,0,0,0,0,0.012556,-0.201229,-0.332209,-1.65999,-0.0910386,1.47506,0.402048,-0.00145263,-0.00439982,-0.00109119,0.000927664,0.0785866,-0.000365845,-0.000409719,0.384403,-25.5879,2.1393,26.0822,0.874935,3.02025,-0.050247,-1.44639,-0.178426,-0.576253,0.325632,-0.679777,-0.279462,-0.139027,-0.210869,-0.444941,-0.294278,-0.00437926,-0.257452,-0.0408293,
0.0121339,-0.2011,-0.332538,-1.65948,-0.0824585,-0.103212,-0.383296,-0.0225883,0.000755235,-0.0209645,0.0194179,0.701536,-0.527977,0.00365008,0,0,0,0,0,0,0,0.012556,-0.201229,-0.332209,-1.65999,-0.0910386,1.47506,0.402048,-0.00145263,-0.00439982,-0.00109119,0.000927664,0.0785866,-0.000365845,-0.000409719,0.384403,-25.5879,2.1393,26.0822,0.874935,3.02025,-0.050247,-0.924045,-0.216581,-0.63145,0.448298,-0.254652,-0.202046,-0.0581757,0.0386984,-0.39442,-0.404473,0.0768803,-0.282212,-0.0420068,
0.0120567,-0.20111,-0.332612,-1.65943,-0.0793975,-0.105508,-0.383281,-0.019298,-0.00247708,-0.0184386,0.0140037,0.765236,-0.573845,0.00373389,0,0,0,0,0,0,0,0.012556,-0.201229,-0.332209,-1.65999,-0.0910386,1.47506,0.402048,-0.00145263,-0.00439982,-0.00109119,0.000927664,0.0785866,-0.000365845,-0.000409719,0.384403,-25.5879,2.1393,26.0822,0.874935,3.02025,-0.050247,-0.924045,-0.216581,-0.63145,0.448298,-0.254652,-0.202046,-0.0581757,0.0386984,-0.39442,-0.404473,0.0768803,-0.282212,-0.0420068,
0.0119939,-0.201129,-0.332673,-1.65939,-0.076131,-0.107947,-0.383266,-0.0156997,-0.00478385,-0.0152769,0.00942244,0.816618,-0.609925,0.00375826,0,0,0,0,0,0,0,0.012556,-0.201229,-0.332209,-1.65999,-0.0910386,1.47506,0.402048,-0.00145263,-0.00439982,-0.00109119,0.000927664,0.0785866,-0.000365845,-0.000409719,0.384403,-25.5879,2.1393,26.0822,0.874935,3.02025,-0.050247,-0.936838,-0.371009,-0.234275,0.606176,-0.41173,-0.272152,-0.118246,-0.116085,-0.492351,-0.284708,0.165843,-0.3119,-0.0425491,
0.0119458,-0.201154,-0.33272,-1.65937,-0.0726974,-0.110499,-0.383251,-0.012022,-0.00631956,-0.011813,0.00558145,0.858408,-0.637989,0.00374379,0,0,0,0,0,0,0,0.012556,-0.201229,-0.332209,-1.65999,-0.0910386,1.47506,0.402048,-0.00145263,-0.00439982,-0.00109119,0.000927664,0.0785866,-0.000365845,-0.000409719,0.384403,-25.5879,2.1393,26.0822,0.874935,3.02025,-0.050247,-0.936838,-0.371009,-0.234275,0.606176,-0.41173,-0.272152,-0.118246,-0.116085,-0.492351,-0.284708,0.165843,-0.3119,-0.0425491,
0.0132119,-0.201373,-0.331448,-1.65995,-0.0894042,-0.101154,-0.383209,0.0718751,-0.0140537,0.0852062,0.00274829,0.34853,-0.630581,0.0119849,0,0,0,0,0,0,0,0.0123255,-0.201172,-0.3323,-1.65976,-0.0859136,1.47415,0.402048,-0.0158031,0.00339172,-0.00312136,0.0192469,0.262431,-0.0645283,0.000212704,0.919986,-25.9847,2.51222,25.8798,1.8399,2.40319,-0.0566557,-0.558678,-0.350838,0.29187,0.690406,-0.282422,-0.192569,-0.029928,-0.11444,-0.439835,-0.216934,0.325802,-0.39448,-0.0454684,
0.01295,-0.201349,-0.331587,-1.65963,-0.0810785,-0.10253,-0.383197,0.0765303,-0.0219794,0.0879653,0.00198452,0.473939,-0.658216,0.0124916,0,0,0,0,0,0,0,0.0123255,-0.201172,-0.3323,-1.65976,-0.0859136,1.47415,0.402048,-0.0158031,0.00339172,-0.00312136,0.0192469,0.262431,-0.0645283,0.000212704,0.919986,-25.9847,2.51222,25.8798,1.8399,2.40319,-0.0566557,-0.558678,-0.350838,0.29187,0.690406,-0.282422,-0.192569,-0.029928,-0.11444,-0.439835,-0.216934,0.325802,-0.39448,-0.0454684,
0.0133335,-0.201452,-0.331146,-1.65966,-0.0789149,-0.10567,-0.383149,0.0958984,-0.0257513,0.110191,-0.00757808,0.540903,-0.785058,0.0120071,0,0,0,0,0,0,0,0.0123255,-0.201172,-0.3323,-1.65976,-0.0859136,1.47415,0.402048,-0.0158031,0.00339172,-0.00312136,0.0192469,0.262431,-0.0645283,0.000212704,0.919986,-25.9847,2.51222,25.8798,1.8399,2.40319,-0.0566557,-0.20225,-0.170096,0.759826,0.701263,-0.13633,-0.0481218,0.118109,-0.0881198,-0.315588,-0.191613,0.524381,-0.502285,-0.0448657,
0.0137831,-0.201562,-0.330631,-1.65973,-0.0765021,-0.109225,-0.383103,0.11239,-0.0274084,0.128839,-0.0164667,0.603196,-0.888801,0.0115823,0,0,0,0,0,0,0,0.0123255,-0.201172,-0.3323,-1.65976,-0.0859136,1.47415,0.402048,-0.0158031,0.00339172,-0.00312136,0.0192469,0.262431,-0.0645283,0.000212704,0.919986,-25.9847,2.51222,25.8798,1.8399,2.40319,-0.0566557,-0.433667,-0.312435,0.517284,0.990133,-0.134267,-0.151376,0.0326134,-0.0129454,-0.480031,-0.387005,0.623865,-0.636105,-0.0436956,
0.0142892,-0.201672,-0.330052,-1.65982,-0.073861,-0.113121,-0.383058,0.126527,-0.0274425,0.144628,-0.0245088,0.660271,-0.97384,0.0112077,0,0,0,0,0,0,0,0.0123255,-0.201172,-0.3323,-1.65976,-0.0859136,1.47415,0.402048,-0.0158031,0.00339172,-0.00312136,0.0192469,0.262431,-0.0645283,0.000212704,0.919986,-25.9847,2.51222,25.8798,1.8399,2.40319,-0.0566557,-0.433667,-0.312435,0.517284,0.990133,-0.134267,-0.151376,0.0326134,-0.0129454,-0.480031,-0.387005,0.623865,-0.636105,-0.0436956,
0.0148441,-0.201777,-0.32942,-1.65995,-0.0710131,-0.117295,-0.383014,0.138713,-0.0262839,0.1581,-0.0316878,0.711987,-1.04363,0.0108717,0,0,0,0,0,0,0,0.012067,-0.201293,-0.332481,-1.65946,-0.073204,1.47006,0.402048,0.00959753,-0.00348484,0.0140271,0.00198506,0.249572,-0.135257,-0.000788791,1.34845,-24.8381,3.76192,25.6061,1.31988,1.87951,-0.00996382,-0.67387,-0.177113,0.768779,0.919427,-0.309749,-0.143723,0.0341875,-0.107822,-0.462159,-0.382178,0.660197,-0.757139,-0.0340093,
0.0154411,-0.201874,-0.328741,-1.6601,-0.0679792,-0.121699,-0.382972,0.149263,-0.0242822,0.169667,-0.0380431,0.758461,-1.10094,0.010565,0,0,0,0,0,0,0,0.012067,-0.201293,-0.332481,-1.65946,-0.073204,1.47006,0.402048,0.00959753,-0.00348484,0.0140271,0.00198506,0.249572,-0.135257,-0.000788791,1.34845,-24.8381,3.76192,25.6061,1.31988,1.87951,-0.00996382,-0.67387,-0.177113,0.768779,0.919427,-0.309749,-0.143723,0.0341875,-0.107822,-0.462159,-0.382178,0.660197,-0.757139,-0.0340093,
0.0136847,-0.201715,-0.330845,-1.66019,-0.0824242,-0.102277,-0.383171,0.157551,-0.056262,0.174026,-0.0511498,0.334529,-0.639971,0.0144811,0,0,0,0,0,0,0,0.012067,-0.201293,-0.332481,-1.65946,-0.073204,1.47006,0.402048,0.00959753,-0.00348484,0.0140271,0.00198506,0.249572,-0.135257,-0.000788791,1.34845,-24.8381,3.76192,25.6061,1.31988,1.87951,-0.00996382,-0.625705,-0.239346,1.42649,0.810274,-0.461418,-0.174309,-0.0403306,-0.270981,-0.428955,-0.173748,0.594645,-0.78675,-0.028743,
0.0135491,-0.201827,-0.330884,-1.65999,-0.0696121,-0.106952,-0.383159,0.164824,-0.0538695,0.182309,-0.0579007,0.348038,-0.678783,0.0152424,0,0,0,0,0,0,0,0.012067,-0.201293,-0.332481,-1.65946,-0.073204,1.47006,0.402048,0.00959753,-0.00348484,0.0140271,0.00198506,0.249572,-0.135257,-0.000788791,1.34845,-24.8381,3.76192,25.6061,1.31988,1.87951,-0.00996382,0.056218,0.410228,1.46474,0.371434,0.10386,0.229337,0.316759,0.0729945,0.0493715,-0.306051,0.663598,-0.854149,-0.0251904,
0.0143332,-0.202052,-0.330008,-1.66026,-0.067973,-0.110161,-0.383101,0.196038,-0.0564064,0.218979,-0.067377,0.409753,-0.802151,0.0144014,0,0,0,0,0,0,0,0.012067,-0.201293,-0.332481,-1.65946,-0.073204,1.47006,0.402048,0.00959753,-0.00348484,0.0140271,0.00198506,0.249572,-0.135257,-0.000788791,1.34845,-24.8381,3.76192,25.6061,1.31988,1.87951,-0.00996382,0.056218,0.410228,1.46474,0.371434,0.10386,0.229337,0.316759,0.0729945,0.0493715,-0.306051,0.663598,-0.854149,-0.0251904,
0.0152211,-0.202277,-0.329012,-1.66056,-0.0660777,-0.113771,-0.383046,0.221963,-0.0561963,0.248991,-0.0757151,0.473833,-0.902708,0.0137118,0,0,0,0,0,0,0,0.012067,-0.201293,-0.332481,-1.65946,-0.073204,1.47006,0.402048,0.00959753,-0.00348484,0.0140271,0.00198506,0.249572,-0.135257,-0.000788791,1.34845,-24.8381,3.76192,25.6061,1.31988,1.87951,-0.00996382,-0.27288,1.40151,1.27796,-0.204192,0.0190263,0.611647,0.67752,0.102106,0.491272,-0.475262,0.801881,-1.00471,-0.0225281,
0.0161959,-0.202494,-0.327916,-1.6609,-0.0639296,-0.11771,-0.382994,0.24372,-0.0541797,0.273839,-0.0832036,0.537017,-0.984568,0.0131321,0,0,0,0,0,0,0,0.0123239,-0.201578,-0.331953,-1.65925,-0.0645854,1.46317,0.402055,0.017455,-0.0187797,0.0209113,-0.000511156,0.24734,-0.243638,-0.000303857,2.3125,-24.9135,4.76167,24.884,0.97839,2.28417,-0.0429228,-0.27288,1.40151,1.27796,-0.204192,0.0190263,0.611647,0.67752,0.102106,0.491272,-0.475262,0.801881,-1.00471,-0.0225281,
0.0172444,-0.202698,-0.326738,-1.66126,-0.0615402,-0.121915,-0.382943,0.262125,-0.0509743,0.294615,-0.0899225,0.597354,-1.0512,0.0126345,0,0,0,0,0,0,0,0.0123239,-0.201578,-0.331953,-1.65925,-0.0645854,1.46317,0.402055,0.017455,-0.0187797,0.0209113,-0.000511156,0.24734,-0.243638,-0.000303857,2.3125,-24.9135,4.76167,24.884,0.97839,2.28417,-0.0429228,-1.11255,1.56463,1.10233,-0.330098,-0.490434,0.53215,0.595032,-0.126731,0.430798,-0.502471,0.752665,-1.07266,-0.0173931,
0.0183556,-0.202886,-0.325489,-1.66164,-0.0589252,-0.126336,-0.382894,0.277793,-0.0469902,0.312121,-0.0958571,0.653757,-1.10549,0.0121864,0,0,0,0,0,0,0,0.0123239,-0.201578,-0.331953,-1.65925,-0.0645854,1.46317,0.402055,0.017455,-0.0187797,0.0209113,-0.000511156,0.24734,-0.243638,-0.000303857,2.3125,-24.9135,4.76167,24.884,0.97839,2.28417,-0.0429228,-1.79038,0.0341932,0.803757,0.611107,-0.822792,-0.277392,-0.206294,-0.239537,-0.45549,-0.53313,0.430294,-1.06092,-0.0104102,
0.0142348,-0.202101,-0.330189,-1.66049,-0.0708597,-0.106707,-0.383162,0.240512,-0.0784332,0.262896,-0.10502,0.218779,-0.660093,0.0150641,0,0,0,0,0,0,0,0.0123239,-0.201578,-0.331953,-1.65925,-0.0645854,1.46317,0.402055,0.017455,-0.0187797,0.0209113,-0.000511156,0.24734,-0.243638,-0.000303857,2.3125,-24.9135,4.76167,24.884,0.97839,2.28417,-0.0429228,-1.79038,0.0341932,0.803757,0.611107,-0.822792,-0.277392,-0.206294,-0.239537,-0.45549,-0.53313,0.430294,-1.06092,-0.0104102,
0.014507,-0.202501,-0.32964,-1.66032,-0.0621238,-0.114415,-0.383125,0.240277,-0.0856682,0.262503,-0.108331,0.230993,-0.713095,0.0168768,0,0,0,0,0,0,0,0.0123239,-0.201578,-0.331953,-1.65925,-0.0645854,1.46317,0.402055,0.017455,-0.0187797,0.0209113,-0.000511156,0.24734,-0.243638,-0.000303857,2.3125,-24.9135,4.76167,24.884,0.97839,2.28417,-0.0429228,-1.98943,-0.647851,1.12383,0.86017,-1.05053,-0.614958,-0.541734,-0.401756,-0.792058,-0.365294,0.188775,-1.02905,-0.00798304,
0.0156408,-0.20284,-0.328385,-1.6608,-0.0609768,-0.117731,-0.383063,0.283456,-0.0845984,0.313605,-0.118483,0.286737,-0.828983,0.0156837,0,0,0,0,0,0,0,0.0138108,-0.20229,-0.329983,-1.65975,-0.0572181,1.4546,0.40206,0.0621616,-0.0304713,0.0814841,-0.0150247,0.298982,-0.328057,0.000639469,3.73279,-24.9373,6.2613,24.7095,2.0166,1.7138,-0.0365141,-1.98943,-0.647851,1.12383,0.86017,-1.05053,-0.614958,-0.541734,-0.401756,-0.792058,-0.365294,0.188775,-1.02905,-0.00798304,
0.0169165,-0.203162,-0.326965,-1.66131,-0.0595694,-0.121424,-0.383004,0.318923,-0.0804947,0.354999,-0.12693,0.351856,-0.923338,0.0147571,0,0,0,0,0,0,0,0.0138108,-0.20229,-0.329983,-1.65975,-0.0572181,1.4546,0.40206,0.0621616,-0.0304713,0.0814841,-0.0150247,0.298982,-0.328057,0.000639469,3.73279,-24.9373,6.2613,24.7095,2.0166,1.7138,-0.0365141,-1.54635,0.239195,0.602942,0.341616,-0.510954,-0.136507,-0.0727734,-0.0064463,-0.271764,-0.638972,0.290091,-1.06194,-0.00903507,
0.0183101,-0.20346,-0.325409,-1.66184,-0.0578877,-0.125423,-0.382947,0.348396,-0.0746695,0.388938,-0.134377,0.420425,-0.999785,0.0140248,0,0,0,0,0,0,0,0.0138108,-0.20229,-0.329983,-1.65975,-0.0572181,1.4546,0.40206,0.0621616,-0.0304713,0.0814841,-0.0150247,0.298982,-0.328057,0.000639469,3.73279,-24.9373,6.2613,24.7095,2.0166,1.7138,-0.0365141,-1.54635,0.239195,0.602942,0.341616,-0.510954,-0.136507,-0.0727734,-0.0064463,-0.271764,-0.638972,0.290091,-1.06194,-0.00903507,
0.0198026,-0.203731,-0.323741,-1.66241,-0.0559328,-0.129671,-0.382894,0.373124,-0.067763,0.417015,-0.140765,0.488718,-1.06181,0.0133139,0,0,0,0,0,0,0,0.0138108,-0.20229,-0.329983,-1.65975,-0.0572181,1.4546,0.40206,0.0621616,-0.0304713,0.0814841,-0.0150247,0.298982,-0.328057,0.000639469,3.73279,-24.9373,6.2613,24.7095,2.0166,1.7138,-0.0365141,-0.927954,2.38383,0.00827298,-1.02552,0.146418,0.928414,0.968603,0.456198,0.920792,-0.944012,0.533952,-1.08934,-0.00629862,
0.021378,-0.203976,-0.321979,-1.663,-0.0537143,-0.134057,-0.382843,0.393857,-0.0612278,0.440531,-0.149288,0.554644,-1.09671,0.0127816,0,0,0,0,0,0,0,0.0138108,-0.20229,-0.329983,-1.65975,-0.0572181,1.4546,0.40206,0.0621616,-0.0304713,0.0814841,-0.0150247,0.298982,-0.328057,0.000639469,3.73279,-24.9373,6.2613,24.7095,2.0166,1.7138,-0.0365141,-2.47495,0.815996,0.0629804,-0.132534,-1.09244,-0.040829,0.0112776,-0.27419,-0.110829,-0.633816,0.216588,-0.976136,-0.00183892,
0.0151132,-0.202766,-0.329036,-1.66079,-0.0632098,-0.114174,-0.383148,0.306887,-0.10957,0.332485,-0.152163,0.118837,-0.694533,0.0154104,0,0,0,0,0,0,0,0.0165212,-0.203609,-0.326966,-1.6608,-0.051515,1.44472,0.40206,0.107211,-0.0517197,0.132142,-0.0483177,0.170712,-0.337074,-0.00048901,4.29218,-25.0127,6.78895,24.8602,1.23474,2.01867,0.0101778,-2.47495,0.815996,0.0629804,-0.132534,-1.09244,-0.040829,0.0112776,-0.27419,-0.110829,-0.633816,0.216588,-0.976136,-0.00183892,
0.0199753,-0.204816,-0.323259,-1.66247,-0.0498669,-0.133514,-0.383131,0.350079,-0.104858,0.382827,-0.158249,0.169092,-0.752106,0.016069,0,0,0,0,0,0,0,0.0165212,-0.203609,-0.326966,-1.6608,-0.051515,1.44472,0.40206,0.107211,-0.0517197,0.132142,-0.0483177,0.170712,-0.337074,-0.00048901,4.29218,-25.0127,6.78895,24.8602,1.23474,2.01867,0.0101778,-2.9445,-0.965355,0.0373529,0.901727,-1.47872,-0.910711,-0.825907,-0.514071,-1.07854,-0.464142,-0.132658,-0.837179,0.00117053,
0.0215599,-0.205216,-0.32151,-1.66314,-0.0489421,-0.136941,-0.383071,0.396146,-0.100052,0.437174,-0.168391,0.231203,-0.856809,0.0150899,0,0,0,0,0,0,0,0.0165212,-0.203609,-0.326966,-1.6608,-0.051515,1.44472,0.40206,0.107211,-0.0517197,0.132142,-0.0483177,0.170712,-0.337074,-0.00048901,4.29218,-25.0127,6.78895,24.8602,1.23474,2.01867,0.0101778,-2.9445,-0.965355,0.0373529,0.901727,-1.47872,-0.910711,-0.825907,-0.514071,-1.07854,-0.464142,-0.132658,-0.837179,0.00117053,
0.0232958,-0.205587,-0.319585,-1.66385,-0.047731,-0.140697,-0.383014,0.43398,-0.0927038,0.481186,-0.176938,0.302762,-0.938985,0.0141823,0,0,0,0,0,0,0,0.0165212,-0.203609,-0.326966,-1.6608,-0.051515,1.44472,0.40206,0.107211,-0.0517197,0.132142,-0.0483177,0.170712,-0.337074,-0.00048901,4.29218,-25.0127,6.78895,24.8602,1.23474,2.01867,0.0101778,-2.35102,0.0701589,-0.127445,0.254186,-1.02268,-0.342547,-0.267017,-0.250229,-0.454279,-0.567764,0.0310893,-0.815531,0.000530414,
0.0251567,-0.205928,-0.317516,-1.6646,-0.0462195,-0.144627,-0.38296,0.465227,-0.0851304,0.51731,-0.188195,0.377884,-0.982537,0.0135039,0,0,0,0,0,0,0,0.0165212,-0.203609,-0.326966,-1.6608,-0.051515,1.44472,0.40206,0.107211,-0.0517197,0.132142,-0.0483177,0.170712,-0.337074,-0.00048901,4.29218,-25.0127,6.78895,24.8602,1.23474,2.01867,0.0101778,-2.35102,0.0701589,-0.127445,0.254186,-1.02268,-0.342547,-0.267017,-0.250229,-0.454279,-0.567764,0.0310893,-0.815531,0.000530414,
0.027122,-0.206235,-0.315328,-1.6654,-0.0444093,-0.148607,-0.382908,0.491319,-0.0768382,0.547016,-0.199538,0.452555,-0.995023,0.012966,0,0,0,0,0,0,0,0.0165212,-0.203609,-0.326966,-1.6608,-0.051515,1.44472,0.40206,0.107211,-0.0517197,0.132142,-0.0483177,0.170712,-0.337074,-0.00048901,4.29218,-25.0127,6.78895,24.8602,1.23474,2.01867,0.0101778,-1.11719,1.52667,-0.616007,-0.529217,0.0638606,0.508113,0.557712,0.432862,0.458166,-0.922265,0.338218,-0.848465,0.00420949,
0.0291751,-0.206505,-0.313042,-1.66623,-0.0423129,-0.152571,-0.382858,0.513269,-0.0674211,0.571561,-0.208252,0.524085,-0.990871,0.012483,0,0,0,0,0,0,0,0.0208134,-0.205716,-0.321477,-1.66273,-0.0468195,1.43133,0.402073,0.156406,-0.0808257,0.186354,-0.0751378,0.0201613,-0.386799,0.000199908,3.09803,-25.4094,5.43611,25.2332,1.24664,2.39037,-0.0163725,-2.24199,-0.468319,-0.619273,0.806897,-0.779557,-0.570893,-0.494236,-0.0525683,-0.75615,-0.763531,0.0993213,-0.811241,0.0086431,
0.0207446,-0.205019,-0.32319,-1.66287,-0.0505961,-0.133275,-0.383164,0.422175,-0.122736,0.40407,-0.196972,0.0949153,-0.731975,0.0137544,0,0,0,0,0,0,0,0.0208134,-0.205716,-0.321477,-1.66273,-0.0468195,1.43133,0.402073,0.156406,-0.0808257,0.186354,-0.0751378,0.0201613,-0.386799,0.000199908,3.09803,-25.4094,5.43611,25.2332,1.24664,2.39037,-0.0163725,-2.24199,-0.468319,-0.619273,0.806897,-0.779557,-0.570893,-0.494236,-0.0525683,-0.75615,-0.763531,0.0993213,-0.811241,0.0086431,
0.0252574,-0.207216,-0.317266,-1.66486,-0.0465895,-0.147078,-0.383121,0.434151,-0.126265,0.431087,-0.20108,0.0663874,-0.744735,0.0158081,0,0,0,0,0,0,0,0.0208134,-0.205716,-0.321477,-1.66273,-0.0468195,1.43133,0.402073,0.156406,-0.0808257,0.186354,-0.0751378,0.0201613,-0.386799,0.000199908,3.09803,-25.4094,5.43611,25.2332,1.24664,2.39037,-0.0163725,-3.00429,-1.34858,-0.505842,1.23133,-1.44672,-1.0739,-0.954461,-0.473154,-1.30948,-0.532494,-0.13721,-0.709548,0.00887876,
0.0271821,-0.207693,-0.315299,-1.66573,-0.0460265,-0.150282,-0.383062,0.48118,-0.119278,0.49195,-0.217562,0.140756,-0.800934,0.0147773,0,0,0,0,0,0,0,0.0208134,-0.205716,-0.321477,-1.66273,-0.0468195,1.43133,0.402073,0.156406,-0.0808257,0.186354,-0.0751378,0.0201613,-0.386799,0.000199908,3.09803,-25.4094,5.43611,25.2332,1.24664,2.39037,-0.0163725,-3.00429,-1.34858,-0.505842,1.23133,-1.44672,-1.0739,-0.954461,-0.473154,-1.30948,-0.532494,-0.13721,-0.709548,0.00887876,
0.0292616,-0.208131,-0.31313,-1.66666,-0.0451361,-0.153574,-0.383006,0.519879,-0.109466,0.542143,-0.231362,0.222593,-0.823011,0.0140051,0,0,0,0,0,0,0,0.0208134,-0.205716,-0.321477,-1.66273,-0.0468195,1.43133,0.402073,0.156406,-0.0808257,0.186354,-0.0751378,0.0201613,-0.386799,0.000199908,3.09803,-25.4094,5.43611,25.2332,1.24664,2.39037,-0.0163725,-1.54405,0.406645,-0.63356,0.103628,-0.297036,-0.0497772,0.0258304,0.205605,-0.162619,-0.7797,0.116333,-0.741405,0.00440318,
0.0314698,-0.208521,-0.310794,-1.66762,-0.0439127,-0.15688,-0.382952,0.552056,-0.097582,0.584057,-0.241241,0.305862,-0.826368,0.0133599,0,0,0,0,0,0,0,0.0291885,-0.209401,-0.312285,-1.66672,-0.0444983,1.41389,0.402087,0.237319,-0.0900527,0.224531,-0.114502,0.00457221,-0.389679,0.00121813,2.11017,-24.8619,4.48793,25.1578,1.02142,2.55608,-0.0630644,-1.19476,3.50455,0.167391,-2.01865,-0.356107,1.38741,1.4022,0.0653692,1.52111,-0.582788,0.550421,-0.822087,0.00259671,
0.0337857,-0.20886,-0.308316,-1.66861,-0.0423653,-0.160154,-0.382901,0.578963,-0.0847671,0.61956,-0.247929,0.386854,-0.818662,0.0128086,0,0,0,0,0,0,0,0.0291885,-0.209401,-0.312285,-1.66672,-0.0444983,1.41389,0.402087,0.237319,-0.0900527,0.224531,-0.114502,0.00457221,-0.389679,0.00121813,2.11017,-24.8619,4.48793,25.1578,1.02142,2.55608,-0.0630644,-1.19476,3.50455,0.167391,-2.01865,-0.356107,1.38741,1.4022,0.0653692,1.52111,-0.582788,0.550421,-0.822087,0.00259671,
0.0361919,-0.209148,-0.305716,-1.66962,-0.0405115,-0.163371,-0.382852,0.601556,-0.0718769,0.649986,-0.252303,0.463435,-0.804137,0.0123297,0,0,0,0,0,0,0,0.0291885,-0.209401,-0.312285,-1.66672,-0.0444983,1.41389,0.402087,0.237319,-0.0900527,0.224531,-0.114502,0.00457221,-0.389679,0.00121813,2.11017,-24.8619,4.48793,25.1578,1.02142,2.55608,-0.0630644,-2.36341,1.57691,0.110878,-0.689142,-1.19769,0.343288,0.371423,-0.407356,0.349168,-0.464234,0.346264,-0.813445,0.00365269,
0.0257489,-0.207341,-0.317481,-1.6652,-0.0468119,-0.146875,-0.383174,0.481726,-0.136662,0.413903,-0.234002,0.044117,-0.730177,0.0120227,0,0,0,0,0,0,0,0.0291885,-0.209401,-0.312285,-1.66672,-0.0444983,1.41389,0.402087,0.237319,-0.0900527,0.224531,-0.114502,0.00457221,-0.389679,0.00121813,2.11017,-24.8619,4.48793,25.1578,1.02142,2.55608,-0.0630644,-2.36341,1.57691,0.110878,-0.689142,-1.19769,0.343288,0.371423,-0.407356,0.349168,-0.464234,0.346264,-0.813445,0.00365269,
0.0345586,-0.210941,-0.307806,-1.66939,-0.0441273,-0.16371,-0.383131,0.511179,-0.127937,0.447147,-0.251722,0.0851789,-0.623325,0.0138299,0,0,0,0,0,0,0,0.0291885,-0.209401,-0.312285,-1.66672,-0.0444983,1.41389,0.402087,0.237319,-0.0900527,0.224531,-0.114502,0.00457221,-0.389679,0.00121813,2.11017,-24.8619,4.48793,25.1578,1.02142,2.55608,-0.0630644,-3.60052,-1.35241,-0.557592,1.3895,-1.87309,-1.14643,-1.02163,-0.713962,-1.41708,-0.533957,0.0162079,-0.769776,0.00980174,
0.0367961,-0.211412,-0.305793,-1.67046,-0.0434838,-0.166298,-0.383079,0.559357,-0.117716,0.50339,-0.265749,0.16088,-0.646957,0.0129995,0,0,0,0,0,0,0,0.0291885,-0.209401,-0.312285,-1.66672,-0.0444983,1.41389,0.402087,0.237319,-0.0900527,0.224531,-0.114502,0.00457221,-0.389679,0.00121813,2.11017,-24.8619,4.48793,25.1578,1.02142,2.55608,-0.0630644,-3.60052,-1.35241,-0.557592,1.3895,-1.87309,-1.14643,-1.02163,-0.713962,-1.41708,-0.533957,0.0162079,-0.769776,0.00980174,
0.0391954,-0.211832,-0.303592,-1.67156,-0.0425182,-0.168922,-0.38303,0.599825,-0.104826,0.550057,-0.274516,0.241394,-0.655849,0.0123549,0,0,0,0,0,0,0,0.0375743,-0.212433,-0.302568,-1.67074,-0.0442006,1.40195,0.402087,0.283168,-0.100133,0.295012,-0.130944,-0.00827191,-0.345388,2.95747e-05,3.32813,-24.5644,5.73762,25.2847,2.14477,2.29058,-0.0163725,-3.60052,-1.35241,-0.557592,1.3895,-1.87309,-1.14643,-1.02163,-0.713962,-1.41708,-0.533957,0.0162079,-0.769776,0.00980174,
0.0417323,-0.212196,-0.301235,-1.67268,-0.0412308,-0.171541,-0.382983,0.634226,-0.0910387,0.589321,-0.280077,0.321845,-0.654743,0.0118343,0,0,0,0,0,0,0,0.0375743,-0.212433,-0.302568,-1.67074,-0.0442006,1.40195,0.402087,0.283168,-0.100133,0.295012,-0.130944,-0.00827191,-0.345388,2.95747e-05,3.32813,-24.5644,5.73762,25.2847,2.14477,2.29058,-0.0163725,-0.866795,3.00131,-0.540988,-1.49304,0.11212,1.22146,1.26413,0.417698,1.25897,-0.847102,0.614439,-0.770894,-0.0020892,
0.0443873,-0.212505,-0.298744,-1.67381,-0.0396336,-0.174128,-0.382937,0.663745,-0.0773211,0.622735,-0.283567,0.39932,-0.646793,0.0114023,0,0,0,0,0,0,0,0.0375743,-0.212433,-0.302568,-1.67074,-0.0442006,1.40195,0.402087,0.283168,-0.100133,0.295012,-0.130944,-0.00827191,-0.345388,2.95747e-05,3.32813,-24.5644,5.73762,25.2847,2.14477,2.29058,-0.0163725,-0.866795,3.00131,-0.540988,-1.49304,0.11212,1.22146,1.26413,0.417698,1.25897,-0.847102,0.614439,-0.770894,-0.0020892,
0.0325139,-0.21043,-0.309595,-1.66839,-0.044468,-0.161217,-0.383187,0.452847,-0.132263,0.378291,-0.228632,0.0222502,-0.577749,0.0149536,0,0,0,0,0,0,0,0.0375743,-0.212433,-0.302568,-1.67074,-0.0442006,1.40195,0.402087,0.283168,-0.100133,0.295012,-0.130944,-0.00827191,-0.345388,2.95747e-05,3.32813,-24.5644,5.73762,25.2847,2.14477,2.29058,-0.0163725,-1.76289,1.8724,-0.209205,-0.761864,-0.70294,0.580974,0.597615,-0.110825,0.584341,-0.592084,0.50711,-0.744196,-0.00086035,
0.0433735,-0.213952,-0.297583,-1.67349,-0.0434986,-0.174199,-0.383121,0.540745,-0.12166,0.480972,-0.250852,0.123592,-0.490719,0.014656,0,0,0,0,0,0,0,0.0375743,-0.212433,-0.302568,-1.67074,-0.0442006,1.40195,0.402087,0.283168,-0.100133,0.295012,-0.130944,-0.00827191,-0.345388,2.95747e-05,3.32813,-24.5644,5.73762,25.2847,2.14477,2.29058,-0.0163725,-3.21812,-0.492058,-1.20537,0.922391,-1.44408,-0.665738,-0.537069,-0.416489,-0.915676,-0.740524,0.199494,-0.692682,0.00233349,
0.0457113,-0.21439,-0.295456,-1.67453,-0.0426887,-0.176273,-0.383066,0.584457,-0.109558,0.531762,-0.260011,0.202489,-0.518284,0.0137154,0,0,0,0,0,0,0,0.0482056,-0.21559,-0.29357,-1.67534,-0.0441905,1.39187,0.402097,0.362677,-0.0962896,0.335937,-0.153133,0.0140084,-0.30542,0.000148628,4.47071,-23.3663,6.56282,24.1898,2.40753,2.27044,-0.0227812,-3.21812,-0.492058,-1.20537,0.922391,-1.44408,-0.665738,-0.537069,-0.416489,-0.915676,-0.740524,0.199494,-0.692682,0.00233349,
0.0481968,-0.214775,-0.293159,-1.6756,-0.0415558,-0.178412,-0.383014,0.621371,-0.096205,0.57426,-0.265814,0.283221,-0.534759,0.0129794,0,0,0,0,0,0,0,0.0482056,-0.21559,-0.29357,-1.67534,-0.0441905,1.39187,0.402097,0.362677,-0.0962896,0.335937,-0.153133,0.0140084,-0.30542,0.000148628,4.47071,-23.3663,6.56282,24.1898,2.40753,2.27044,-0.0227812,-2.15175,-0.0768535,-2.14456,0.778642,-0.288311,-0.323528,-0.177677,0.379588,-0.603852,-1.21325,0.284597,-0.684263,0.00075991,
0.0508083,-0.215106,-0.290718,-1.67667,-0.040107,-0.180581,-0.382964,0.652881,-0.0827737,0.610227,-0.269726,0.362187,-0.542391,0.0123824,0,0,0,0,0,0,0,0.0482056,-0.21559,-0.29357,-1.67534,-0.0441905,1.39187,0.402097,0.362677,-0.0962896,0.335937,-0.153133,0.0140084,-0.30542,0.000148628,4.47071,-23.3663,6.56282,24.1898,2.40753,2.27044,-0.0227812,-2.15175,-0.0768535,-2.14456,0.778642,-0.288311,-0.323528,-0.177677,0.379588,-0.603852,-1.21325,0.284597,-0.684263,0.00075991,
0.0535283,-0.215386,-0.288154,-1.67776,-0.038358,-0.182754,-0.382917,0.679996,-0.0698254,0.640957,-0.272399,0.437262,-0.543137,0.011912,0,0,0,0,0,0,0,0.0482056,-0.21559,-0.29357,-1.67534,-0.0441905,1.39187,0.402097,0.362677,-0.0962896,0.335937,-0.153133,0.0140084,-0.30542,0.000148628,4.47071,-23.3663,6.56282,24.1898,2.40753,2.27044,-0.0227812,-0.828208,1.91785,-0.82622,-0.719859,0.132997,0.740593,0.778449,0.410329,0.70412,-0.813622,0.558082,-0.614967,-0.00174837,
0.0412105,-0.213465,-0.299507,-1.67249,-0.043993,-0.172237,-0.383179,0.488109,-0.12992,0.419505,-0.234722,0.0524809,-0.450277,0.0159149,0,0,0,0,0,0,0,0.0482056,-0.21559,-0.29357,-1.67534,-0.0441905,1.39187,0.402097,0.362677,-0.0962896,0.335937,-0.153133,0.0140084,-0.30542,0.000148628,4.47071,-23.3663,6.56282,24.1898,2.40753,2.27044,-0.0227812,-0.828208,1.91785,-0.82622,-0.719859,0.132997,0.740593,0.778449,0.410329,0.70412,-0.813622,0.558082,-0.614967,-0.00174837,
0.0544568,-0.216944,-0.288081,-1.67815,-0.0428651,-0.183517,-0.383109,0.571942,-0.106354,0.51613,-0.250482,0.180501,-0.4229,0.0149361,0,0,0,0,0,0,0,0.0482056,-0.21559,-0.29357,-1.67534,-0.0441905,1.39187,0.402097,0.362677,-0.0962896,0.335937,-0.153133,0.0140084,-0.30542,0.000148628,4.47071,-23.3663,6.56282,24.1898,2.40753,2.27044,-0.0227812,-1.76395,0.632115,-0.880466,0.136934,-0.554103,0.0462087,0.104467,0.00901948,-0.0789882,-0.703102,0.398471,-0.596881,-0.00121211,
0.0569018,-0.217323,-0.285833,-1.67918,-0.0418285,-0.185319,-0.383053,0.61126,-0.0946486,0.561781,-0.257054,0.259156,-0.450379,0.0139888,0,0,0,0,0,0,0,0.0597638,-0.218982,-0.283233,-1.68062,-0.0438868,1.38408,0.402107,0.377652,-0.098605,0.3733,-0.176267,0.0310596,-0.216844,0.000218905,4.18903,-23.4654,5.83681,24.4119,1.64398,2.39037,-0.0227812,-3.14881,-0.838963,-1.5366,1.16839,-1.35156,-0.771765,-0.632159,-0.367257,-1.05869,-0.769282,0.191827,-0.587843,0.000202881,
0.0594802,-0.217652,-0.283433,-1.68022,-0.0404777,-0.187191,-0.383,0.644587,-0.0822807,0.60016,-0.261258,0.337711,-0.468136,0.0132617,0,0,0,0,0,0,0,0.0597638,-0.218982,-0.283233,-1.68062,-0.0438868,1.38408,0.402107,0.377652,-0.098605,0.3733,-0.176267,0.0310596,-0.216844,0.000218905,4.18903,-23.4654,5.83681,24.4119,1.64398,2.39037,-0.0227812,-3.14881,-0.838963,-1.5366,1.16839,-1.35156,-0.771765,-0.632159,-0.367257,-1.05869,-0.769282,0.191827,-0.587843,0.000202881,
0.0621645,-0.217932,-0.280897,-1.68128,-0.0388206,-0.189102,-0.382949,0.671073,-0.0699787,0.633916,-0.264171,0.414258,-0.477645,0.0126155,0,0,0,0,0,0,0,0.0597638,-0.218982,-0.283233,-1.68062,-0.0438868,1.38408,0.402107,0.377652,-0.098605,0.3733,-0.176267,0.0310596,-0.216844,0.000218905,4.18903,-23.4654,5.83681,24.4119,1.64398,2.39037,-0.0227812,-1.00961,1.35173,-1.94995,-0.300415,0.433748,0.485837,0.569989,0.752984,0.359847,-1.19473,0.429032,-0.593572,-0.00447404,
0.0649319,-0.218164,-0.278242,-1.68235,-0.0368716,-0.191024,-0.382901,0.691857,-0.0581247,0.663697,-0.266187,0.487251,-0.480489,0.0120274,0,0,0,0,0,0,0,0.0597638,-0.218982,-0.283233,-1.68062,-0.0438868,1.38408,0.402107,0.377652,-0.098605,0.3733,-0.176267,0.0310596,-0.216844,0.000218905,4.18903,-23.4654,5.83681,24.4119,1.64398,2.39037,-0.0227812,-1.00961,1.35173,-1.94995,-0.300415,0.433748,0.485837,0.569989,0.752984,0.359847,-1.19473,0.429032,-0.593572,-0.00447404,
0.0677679,-0.218352,-0.275485,-1.68342,-0.0346505,-0.192936,-0.382855,0.709011,-0.0469781,0.689369,-0.267488,0.555289,-0.478053,0.0115196,0,0,0,0,0,0,0,0.0597638,-0.218982,-0.283233,-1.68062,-0.0438868,1.38408,0.402107,0.377652,-0.098605,0.3733,-0.176267,0.0310596,-0.216844,0.000218905,4.18903,-23.4654,5.83681,24.4119,1.64398,2.39037,-0.0227812,-0.459247,1.20714,-1.20771,-0.262586,0.627577,0.474302,0.49082,0.767639,0.406175,-1.02502,0.441352,-0.632067,-0.000919272,
0.052169,-0.216519,-0.290145,-1.67715,-0.0435871,-0.181825,-0.383168,0.524867,-0.115396,0.461203,-0.238636,0.10633,-0.385198,0.0161495,0,0,0,0,0,0,0,0.0722069,-0.222142,-0.271906,-1.68609,-0.0429677,1.37841,0.402119,0.408569,-0.10022,0.373183,-0.18094,0.0433705,-0.15046,-0.000714682,4.51831,-23.4892,6.16212,24.8087,1.5158,2.42333,-0.0026396,-1.7137,-0.465199,-1.13158,0.822934,-0.350666,-0.408824,-0.30281,0.162204,-0.63769,-0.8219,0.212856,-0.613693,0.00289827,
0.0787895,-0.223362,-0.266053,-1.68886,-0.0411212,-0.195612,-0.383086,0.59533,-0.0937048,0.542038,-0.242241,0.225489,-0.320164,0.0152194,0,0,0,0,0,0,0,0.0722069,-0.222142,-0.271906,-1.68609,-0.0429677,1.37841,0.402119,0.408569,-0.10022,0.373183,-0.18094,0.0433705,-0.15046,-0.000714682,4.51831,-23.4892,6.16212,24.8087,1.5158,2.42333,-0.0026396,-1.7137,-0.465199,-1.13158,0.822934,-0.350666,-0.408824,-0.30281,0.162204,-0.63769,-0.8219,0.212856,-0.613693,0.00289827,
0.0813081,-0.223692,-0.263711,-1.68985,-0.0399066,-0.197034,-0.383029,0.629644,-0.0826209,0.585653,-0.24776,0.303632,-0.355514,0.0142462,0,0,0,0,0,0,0,0.0722069,-0.222142,-0.271906,-1.68609,-0.0429677,1.37841,0.402119,0.408569,-0.10022,0.373183,-0.18094,0.0433705,-0.15046,-0.000714682,4.51831,-23.4892,6.16212,24.8087,1.5158,2.42333,-0.0026396,-1.87118,-1.32257,-1.75653,1.5067,-0.212044,-0.802869,-0.647026,0.314269,-1.15549,-1.04807,0.163133,-0.628443,0.00124409,
0.0839348,-0.223977,-0.261218,-1.69086,-0.0383803,-0.198554,-0.382975,0.656692,-0.0711551,0.62325,-0.25168,0.381588,-0.379997,0.0134053,0,0,0,0,0,0,0,0.0722069,-0.222142,-0.271906,-1.68609,-0.0429677,1.37841,0.402119,0.408569,-0.10022,0.373183,-0.18094,0.0433705,-0.15046,-0.000714682,4.51831,-23.4892,6.16212,24.8087,1.5158,2.42333,-0.0026396,-1.87118,-1.32257,-1.75653,1.5067,-0.212044,-0.802869,-0.647026,0.314269,-1.15549,-1.04807,0.163133,-0.628443,0.00124409,
0.0866506,-0.224217,-0.258597,-1.69188,-0.0365542,-0.200136,-0.382924,0.678939,-0.0599372,0.655199,-0.254576,0.456516,-0.395439,0.0126971,0,0,0,0,0,0,0,0.0722069,-0.222142,-0.271906,-1.68609,-0.0429677,1.37841,0.402119,0.408569,-0.10022,0.373183,-0.18094,0.0433705,-0.15046,-0.000714682,4.51831,-23.4892,6.16212,24.8087,1.5158,2.42333,-0.0026396,-1.45732,1.14874,-0.752642,-0.202744,-0.265757,0.353881,0.448828,0.19795,0.222007,-0.787328,0.499628,-0.683234,0.00235269,
0.0894398,-0.224414,-0.255867,-1.6929,-0.0344465,-0.20175,-0.382876,0.697297,-0.0492519,0.682533,-0.256696,0.526921,-0.403521,0.0120866,0,0,0,0,0,0,0,0.0857724,-0.224665,-0.258994,-1.69129,-0.0400702,1.37424,0.402133,0.423797,-0.075816,0.399574,-0.169407,0.0508824,-0.0775751,0.000208896,-0.908932,-24.8857,1.46089,26.1575,0.635983,2.45629,-0.00996382,-1.45732,1.14874,-0.752642,-0.202744,-0.265757,0.353881,0.448828,0.19795,0.222007,-0.787328,0.499628,-0.683234,0.00235269,
0.0764082,-0.222987,-0.268221,-1.68789,-0.0420231,-0.194331,-0.383147,0.551976,-0.103168,0.491085,-0.233534,0.150879,-0.272559,0.0163395,0,0,0,0,0,0,0,0.0857724,-0.224665,-0.258994,-1.69129,-0.0400702,1.37424,0.402133,0.423797,-0.075816,0.399574,-0.169407,0.0508824,-0.0775751,0.000208896,-0.908932,-24.8857,1.46089,26.1575,0.635983,2.45629,-0.00996382,-0.422079,0.756503,0.623064,-0.106514,-0.0367184,0.275314,0.293462,0.0892609,0.218999,-0.322415,0.439554,-0.606379,0.00366509,
0.0924956,-0.225676,-0.252925,-1.69398,-0.0380358,-0.198915,-0.383066,0.60178,-0.0784774,0.559107,-0.236342,0.244435,-0.251315,0.015502,0,0,0,0,0,0,0,0.0857724,-0.224665,-0.258994,-1.69129,-0.0400702,1.37424,0.402133,0.423797,-0.075816,0.399574,-0.169407,0.0508824,-0.0775751,0.000208896,-0.908932,-24.8857,1.46089,26.1575,0.635983,2.45629,-0.00996382,-1.56736,0.0505871,-0.29919,0.317008,-0.572242,-0.129988,-0.0390623,-0.0869191,-0.275489,-0.4971,0.227416,-0.577068,0.00486641,
0.0950248,-0.225952,-0.25052,-1.69495,-0.0367398,-0.200076,-0.383009,0.632305,-0.0690963,0.601289,-0.241705,0.324012,-0.290338,0.0144554,0,0,0,0,0,0,0,0.0857724,-0.224665,-0.258994,-1.69129,-0.0400702,1.37424,0.402133,0.423797,-0.075816,0.399574,-0.169407,0.0508824,-0.0775751,0.000208896,-0.908932,-24.8857,1.46089,26.1575,0.635983,2.45629,-0.00996382,-1.56736,0.0505871,-0.29919,0.317008,-0.572242,-0.129988,-0.0390623,-0.0869191,-0.275489,-0.4971,0.227416,-0.577068,0.00486641,
0.0976542,-0.226189,-0.247972,-1.69593,-0.035132,-0.20135,-0.382954,0.657364,-0.0592343,0.63683,-0.245417,0.401956,-0.3183,0.0135847,0,0,0,0,0,0,0,0.0857724,-0.224665,-0.258994,-1.69129,-0.0400702,1.37424,0.402133,0.423797,-0.075816,0.399574,-0.169407,0.0508824,-0.0775751,0.000208896,-0.908932,-24.8857,1.46089,26.1575,0.635983,2.45629,-0.00996382,-3.21059,1.62775,-0.426382,-0.698474,-1.76531,0.44872,0.567787,-0.683654,0.388701,-0.420014,0.430243,-0.64004,0.00534314,
0.100366,-0.226387,-0.245304,-1.69692,-0.0332274,-0.202697,-0.382903,0.678002,-0.0494842,0.667046,-0.248133,0.476147,-0.336885,0.0128437,0,0,0,0,0,0,0,0.0857724,-0.224665,-0.258994,-1.69129,-0.0400702,1.37424,0.402133,0.423797,-0.075816,0.399574,-0.169407,0.0508824,-0.0775751,0.000208896,-0.908932,-24.8857,1.46089,26.1575,0.635983,2.45629,-0.00996382,-3.21059,1.62775,-0.426382,-0.698474,-1.76531,0.44872,0.567787,-0.683654,0.388701,-0.420014,0.430243,-0.64004,0.00534314,
0.103146,-0.226548,-0.242532,-1.69792,-0.0310458,-0.204088,-0.382854,0.694999,-0.0401257,0.692934,-0.250102,0.54539,-0.347767,0.0122019,0,0,0,0,0,0,0,0.104725,-0.227011,-0.241172,-1.69811,-0.0365176,1.3723,0.402153,0.459585,-0.046807,0.432066,-0.157775,0.0425829,-0.00118878,0.00090555,2.49103,-24.6636,4.16261,25.2332,1.47277,2.17797,-0.0026396,-2.11473,2.38249,-0.261814,-1.10204,-0.943453,0.87586,0.916598,-0.20794,0.894426,-0.551283,0.643188,-0.694031,0.00686418,
0.0900884,-0.225362,-0.255161,-1.69304,-0.0390136,-0.19791,-0.383128,0.564215,-0.0860097,0.50861,-0.227465,0.166781,-0.200254,0.0167671,0,0,0,0,0,0,0,0.104725,-0.227011,-0.241172,-1.69811,-0.0365176,1.3723,0.402153,0.459585,-0.046807,0.432066,-0.157775,0.0425829,-0.00118878,0.00090555,2.49103,-24.6636,4.16261,25.2332,1.47277,2.17797,-0.0026396,-1.66575,-0.548201,-0.723192,0.921019,-0.402161,-0.418154,-0.339453,0.0668725,-0.641722,-0.72834,0.34056,-0.665109,0.0124411,
0.111615,-0.227755,-0.23476,-1.70073,-0.0342919,-0.199985,-0.38305,0.610863,-0.0587915,0.583165,-0.231245,0.266727,-0.182393,0.0153172,0,0,0,0,0,0,0,0.104725,-0.227011,-0.241172,-1.69811,-0.0365176,1.3723,0.402153,0.459585,-0.046807,0.432066,-0.157775,0.0425829,-0.00118878,0.00090555,2.49103,-24.6636,4.16261,25.2332,1.47277,2.17797,-0.0026396,-1.66575,-0.548201,-0.723192,0.921019,-0.402161,-0.418154,-0.339453,0.0668725,-0.641722,-0.72834,0.34056,-0.665109,0.0124411,
0.114168,-0.227961,-0.232273,-1.70168,-0.0328976,-0.200886,-0.382992,0.638299,-0.0515891,0.621707,-0.236685,0.34859,-0.225306,0.0143026,0,0,0,0,0,0,0,0.104725,-0.227011,-0.241172,-1.69811,-0.0365176,1.3723,0.402153,0.459585,-0.046807,0.432066,-0.157775,0.0425829,-0.00118878,0.00090555,2.49103,-24.6636,4.16261,25.2332,1.47277,2.17797,-0.0026396,-2.29906,-1.85033,-1.51846,1.77753,-0.613241,-1.03614,-0.887683,0.0115068,-1.39691,-0.889517,0.12842,-0.61414,0.0105254,
0.116812,-0.228136,-0.229656,-1.70264,-0.0311891,-0.201914,-0.382939,0.66084,-0.0436946,0.654337,-0.240327,0.427114,-0.256852,0.0134506,0,0,0,0,0,0,0,0.104725,-0.227011,-0.241172,-1.69811,-0.0365176,1.3723,0.402153,0.459585,-0.046807,0.432066,-0.157775,0.0425829,-0.00118878,0.00090555,2.49103,-24.6636,4.16261,25.2332,1.47277,2.17797,-0.0026396,-2.29906,-1.85033,-1.51846,1.77753,-0.613241,-1.03614,-0.887683,0.0115068,-1.39691,-0.889517,0.12842,-0.61414,0.0105254,
0.119529,-0.228279,-0.226927,-1.70361,-0.029186,-0.203028,-0.382888,0.679398,-0.0357229,0.682193,-0.242913,0.500792,-0.278662,0.0127196,0,0,0,0,0,0,0,0.11967,-0.228097,-0.226079,-1.70252,-0.032754,1.37221,0.402171,0.465833,-0.0206672,0.452917,-0.13926,0.0834058,0.00155307,0.00107099,0.158268,-25.211,2.23848,25.0864,1.35101,1.64055,0.00376909,-2.54094,0.60605,-1.40983,0.147278,-0.836378,0.0709393,0.159958,-0.0363772,-0.0833376,-0.877944,0.44734,-0.649297,0.00906164,
0.122308,-0.228391,-0.224102,-1.70459,-0.0269106,-0.204198,-0.382839,0.694659,-0.0279662,0.706143,-0.244728,0.568847,-0.29242,0.0120824,0,0,0,0,0,0,0,0.11967,-0.228097,-0.226079,-1.70252,-0.032754,1.37221,0.402171,0.465833,-0.0206672,0.452917,-0.13926,0.0834058,0.00155307,0.00107099,0.158268,-25.211,2.23848,25.0864,1.35101,1.64055,0.00376909,-2.54094,0.60605,-1.40983,0.147278,-0.836378,0.0709393,0.159958,-0.0363772,-0.0833376,-0.877944,0.44734,-0.649297,0.00906164,
0.109172,-0.22752,-0.237093,-1.69981,-0.0353589,-0.199255,-0.383111,0.57722,-0.0638723,0.537227,-0.221928,0.184164,-0.12736,0.0165216,0,0,0,0,0,0,0,0.11967,-0.228097,-0.226079,-1.70252,-0.032754,1.37221,0.402171,0.465833,-0.0206672,0.452917,-0.13926,0.0834058,0.00155307,0.00107099,0.158268,-25.211,2.23848,25.0864,1.35101,1.64055,0.00376909,-2.29818,1.56791,-0.64188,-0.550873,-0.919348,0.529867,0.556469,-0.150575,0.505064,-0.656666,0.564931,-0.675267,0.0104736,
0.126587,-0.228648,-0.219477,-1.70508,-0.0300922,-0.199783,-0.383031,0.611384,-0.0453525,0.596969,-0.227655,0.300293,-0.152657,0.0153326,0,0,0,0,0,0,0,0.11967,-0.228097,-0.226079,-1.70252,-0.032754,1.37221,0.402171,0.465833,-0.0206672,0.452917,-0.13926,0.0834058,0.00155307,0.00107099,0.158268,-25.211,2.23848,25.0864,1.35101,1.64055,0.00376909,-1.89075,0.768915,-1.12695,-0.101108,-0.437494,0.22039,0.302473,0.166598,0.106288,-0.83781,0.369314,-0.632177,0.00975377,
0.129137,-0.228807,-0.216941,-1.70601,-0.0285757,-0.200557,-0.382973,0.637343,-0.039684,0.633886,-0.233093,0.379124,-0.193295,0.0142964,0,0,0,0,0,0,0,0.11967,-0.228097,-0.226079,-1.70252,-0.032754,1.37221,0.402171,0.465833,-0.0206672,0.452917,-0.13926,0.0834058,0.00155307,0.00107099,0.158268,-25.211,2.23848,25.0864,1.35101,1.64055,0.00376909,-1.89075,0.768915,-1.12695,-0.101108,-0.437494,0.22039,0.302473,0.166598,0.106288,-0.83781,0.369314,-0.632177,0.00975377,
0.131771,-0.228939,-0.214281,-1.70696,-0.0267572,-0.20145,-0.38292,0.658607,-0.0330709,0.665141,-0.236464,0.454634,-0.223358,0.0134264,0,0,0,0,0,0,0,0.11967,-0.228097,-0.226079,-1.70252,-0.032754,1.37221,0.402171,0.465833,-0.0206672,0.452917,-0.13926,0.0834058,0.00155307,0.00107099,0.158268,-25.211,2.23848,25.0864,1.35101,1.64055,0.00376909,-2.23058,0.237943,-1.87328,0.327708,-0.37807,-0.0346411,0.0763333,0.301659,-0.228577,-1.10314,0.349552,-0.662267,0.0112644,
0.134475,-0.229044,-0.211513,-1.70792,-0.0246556,-0.202427,-0.382869,0.676057,-0.0262297,0.691821,-0.238716,0.525409,-0.244172,0.0126793,0,0,0,0,0,0,0,0.134541,-0.228922,-0.211317,-1.70687,-0.0280615,1.37232,0.402183,0.488831,-0.022315,0.477214,-0.137008,0.142484,0.0272292,-0.00191881,-1.13507,-25.3856,0.488905,24.8087,1.02691,1.50139,0.0706026,-2.23058,0.237943,-1.87328,0.327708,-0.37807,-0.0346411,0.0763333,0.301659,-0.228577,-1.10314,0.349552,-0.662267,0.0112644,
0.137237,-0.229122,-0.208654,-1.70888,-0.0222927,-0.203456,-0.382821,0.690354,-0.0194906,0.714754,-0.240204,0.590725,-0.257278,0.0120273,0,0,0,0,0,0,0,0.134541,-0.228922,-0.211317,-1.70687,-0.0280615,1.37232,0.402183,0.488831,-0.022315,0.477214,-0.137008,0.142484,0.0272292,-0.00191881,-1.13507,-25.3856,0.488905,24.8087,1.02691,1.50139,0.0706026,-2.68623,0.189345,-1.47684,0.425681,-0.768656,-0.0855584,-0.0112674,0.0533311,-0.258739,-1.01516,0.439915,-0.775178,0.0160739,
0.140045,-0.229174,-0.205716,-1.70984,-0.0196914,-0.204512,-0.382775,0.702012,-0.0130209,0.734584,-0.241082,0.650311,-0.264096,0.0114525,0,0,0,0,0,0,0,0.134541,-0.228922,-0.211317,-1.70687,-0.0280615,1.37232,0.402183,0.488831,-0.022315,0.477214,-0.137008,0.142484,0.0272292,-0.00191881,-1.13507,-25.3856,0.488905,24.8087,1.02691,1.50139,0.0706026,-2.68623,0.189345,-1.47684,0.425681,-0.768656,-0.0855584,-0.0112674,0.0533311,-0.258739,-1.01516,0.439915,-0.775178,0.0160739,
0.124142,-0.228467,-0.221865,-1.70417,-0.0312934,-0.199173,-0.383092,0.57944,-0.0483585,0.552971,-0.217489,0.220631,-0.101421,0.0165678,0,0,0,0,0,0,0,0.134541,-0.228922,-0.211317,-1.70687,-0.0280615,1.37232,0.402183,0.488831,-0.022315,0.477214,-0.137008,0.142484,0.0272292,-0.00191881,-1.13507,-25.3856,0.488905,24.8087,1.02691,1.50139,0.0706026,-2.55143,-0.809717,-1.64192,1.05361,-0.589713,-0.517316,-0.429745,0.140348,-0.760979,-1.07775,0.295892,-0.770567,0.0144622,
0.141551,-0.229443,-0.204446,-1.70934,-0.0247322,-0.199312,-0.383025,0.616149,-0.0420424,0.616195,-0.219974,0.351959,-0.120285,0.0150354,0,0,0,0,0,0,0,0.134541,-0.228922,-0.211317,-1.70687,-0.0280615,1.37232,0.402183,0.488831,-0.022315,0.477214,-0.137008,0.142484,0.0272292,-0.00191881,-1.13507,-25.3856,0.488905,24.8087,1.02691,1.50139,0.0706026,-3.01658,0.00070146,-1.93087,0.423668,-0.879353,-0.131381,-0.0238726,0.055711,-0.316578,-1.10059,0.304664,-0.725736,0.0100837,
0.144111,-0.229588,-0.201844,-1.71024,-0.0230275,-0.199947,-0.382969,0.639973,-0.0362531,0.650644,-0.225402,0.426191,-0.158761,0.0140315,0,0,0,0,0,0,0,0.150559,-0.229387,-0.194488,-1.7115,-0.0222685,1.37292,0.402202,0.485807,-0.00283321,0.513075,-0.128557,0.245271,0.00287151,-0.00100847,2.08637,-25.1634,3.61116,24.3604,1.8518,1.57464,0.0239107,-3.01658,0.00070146,-1.93087,0.423668,-0.879353,-0.131381,-0.0238726,0.055711,-0.316578,-1.10059,0.304664,-0.725736,0.0100837,
0.146749,-0.229707,-0.199124,-1.71116,-0.0210392,-0.200696,-0.382916,0.659441,-0.0296808,0.67984,-0.228846,0.497077,-0.187232,0.0131805,0,0,0,0,0,0,0,0.150559,-0.229387,-0.194488,-1.7115,-0.0222685,1.37292,0.402202,0.485807,-0.00283321,0.513075,-0.128557,0.245271,0.00287151,-0.00100847,2.08637,-25.1634,3.61116,24.3604,1.8518,1.57464,0.0239107,-3.37742,1.60763,-1.92175,-0.63224,-1.09524,0.611029,0.69821,0.0405697,0.543337,-1.15018,0.519208,-0.795043,0.00891878,
0.14945,-0.229798,-0.196305,-1.71208,-0.0187857,-0.201524,-0.382866,0.675362,-0.0229679,0.704781,-0.231183,0.563379,-0.206967,0.0124469,0,0,0,0,0,0,0,0.150559,-0.229387,-0.194488,-1.7115,-0.0222685,1.37292,0.402202,0.485807,-0.00283321,0.513075,-0.128557,0.245271,0.00287151,-0.00100847,2.08637,-25.1634,3.61116,24.3604,1.8518,1.57464,0.0239107,-3.37742,1.60763,-1.92175,-0.63224,-1.09524,0.611029,0.69821,0.0405697,0.543337,-1.15018,0.519208,-0.795043,0.00891878,
0.152204,-0.229864,-0.1934,-1.71302,-0.0162878,-0.202402,-0.382819,0.688347,-0.0164075,0.726232,-0.232752,0.624471,-0.219422,0.0118022,0,0,0,0,0,0,0,0.150559,-0.229387,-0.194488,-1.7115,-0.0222685,1.37292,0.402202,0.485807,-0.00283321,0.513075,-0.128557,0.245271,0.00287151,-0.00100847,2.08637,-25.1634,3.61116,24.3604,1.8518,1.57464,0.0239107,-2.34189,1.76363,-1.55143,-0.708398,-0.443753,0.713021,0.735318,0.350382,0.691136,-1.12181,0.601358,-0.781818,0.00950577,
0.139086,-0.229275,-0.206911,-1.70846,-0.0261401,-0.198831,-0.383085,0.586812,-0.0455014,0.575193,-0.210118,0.276566,-0.0717129,0.0161925,0,0,0,0,0,0,0,0.150559,-0.229387,-0.194488,-1.7115,-0.0222685,1.37292,0.402202,0.485807,-0.00283321,0.513075,-0.128557,0.245271,0.00287151,-0.00100847,2.08637,-25.1634,3.61116,24.3604,1.8518,1.57464,0.0239107,-2.34189,1.76363,-1.55143,-0.708398,-0.443753,0.713021,0.735318,0.350382,0.691136,-1.12181,0.601358,-0.781818,0.00950577,
0.157639,-0.229747,-0.187373,-1.71395,-0.0180065,-0.198695,-0.383008,0.620268,-0.0302558,0.634196,-0.218227,0.41968,-0.110142,0.0146802,0,0,0,0,0,0,0,0.150559,-0.229387,-0.194488,-1.7115,-0.0222685,1.37292,0.402202,0.485807,-0.00283321,0.513075,-0.128557,0.245271,0.00287151,-0.00100847,2.08637,-25.1634,3.61116,24.3604,1.8518,1.57464,0.0239107,-2.12544,-0.339984,-1.4794,0.634901,-0.390309,-0.235047,-0.17066,0.224644,-0.410935,-0.990505,0.317613,-0.68234,0.0139863,
0.160209,-0.229849,-0.184706,-1.71484,-0.0160648,-0.199267,-0.382953,0.642403,-0.0255118,0.666828,-0.223298,0.48544,-0.143065,0.0136902,0,0,0,0,0,0,0,0.16617,-0.229462,-0.177967,-1.71579,-0.0154704,1.3735,0.402221,0.472061,0.00155437,0.534926,-0.133114,0.265821,-0.00132065,0.000353216,2.49103,-25.4848,3.31361,24.761,1.63757,2.13769,-0.0301054,-2.21229,-0.503173,-1.63036,0.729741,-0.459195,-0.28954,-0.175213,0.173366,-0.513603,-0.971284,0.290597,-0.617006,0.0113264,
0.16285,-0.229929,-0.181928,-1.71575,-0.0138694,-0.199936,-0.382902,0.66036,-0.0198633,0.694406,-0.226269,0.548847,-0.167275,0.0128511,0,0,0,0,0,0,0,0.16617,-0.229462,-0.177967,-1.71579,-0.0154704,1.3735,0.402221,0.472061,0.00155437,0.534926,-0.133114,0.265821,-0.00132065,0.000353216,2.49103,-25.4848,3.31361,24.761,1.63757,2.13769,-0.0301054,-2.21229,-0.503173,-1.63036,0.729741,-0.459195,-0.28954,-0.175213,0.173366,-0.513603,-0.971284,0.290597,-0.617006,0.0113264,
0.16555,-0.229985,-0.179057,-1.71666,-0.0114352,-0.200671,-0.382853,0.674932,-0.0140052,0.7179,-0.228134,0.608552,-0.183721,0.0121342,0,0,0,0,0,0,0,0.16617,-0.229462,-0.177967,-1.71579,-0.0154704,1.3735,0.402221,0.472061,0.00155437,0.534926,-0.133114,0.265821,-0.00132065,0.000353216,2.49103,-25.4848,3.31361,24.761,1.63757,2.13769,-0.0301054,-1.97934,1.32902,-1.09479,-0.409204,-0.486197,0.550191,0.603384,0.16245,0.477298,-0.821677,0.605041,-0.611058,0.0116626,
0.168297,-0.230018,-0.176104,-1.71758,-0.00877989,-0.201445,-0.382807,0.686711,-0.00824655,0.738057,-0.229272,0.663827,-0.19366,0.0114951,0,0,0,0,0,0,0,0.16617,-0.229462,-0.177967,-1.71579,-0.0154704,1.3735,0.402221,0.472061,0.00155437,0.534926,-0.133114,0.265821,-0.00132065,0.000353216,2.49103,-25.4848,3.31361,24.761,1.63757,2.13769,-0.0301054,-1.97934,1.32902,-1.09479,-0.409204,-0.486197,0.550191,0.603384,0.16245,0.477298,-0.821677,0.605041,-0.611058,0.0116626,
0.171081,-0.230029,-0.173083,-1.7185,-0.00592244,-0.202239,-0.382764,0.696158,-0.00273764,0.755456,-0.229845,0.714361,-0.198282,0.0109456,0,0,0,0,0,0,0,0.16617,-0.229462,-0.177967,-1.71579,-0.0154704,1.3735,0.402221,0.472061,0.00155437,0.534926,-0.133114,0.265821,-0.00132065,0.000353216,2.49103,-25.4848,3.31361,24.761,1.63757,2.13769,-0.0301054,-1.67146,0.354328,-0.961127,0.217127,-0.327612,0.111902,0.157137,0.163213,-0.0125855,-0.757822,0.48685,-0.577355,0.0110568,
0.155158,-0.229626,-0.18991,-1.71308,-0.0196853,-0.198254,-0.383067,0.592782,-0.0323878,0.595267,-0.208276,0.35386,-0.0690044,0.0158476,0,0,0,0,0,0,0,0.181961,-0.229317,-0.161048,-1.72003,-0.00783643,1.37372,0.402232,0.487099,0.00904139,0.539089,-0.136115,0.264476,0.000288844,0.00142549,3.07422,-26.6591,3.88887,24.8364,1.48559,2.20452,-0.0301054,-1.67146,0.354328,-0.961127,0.217127,-0.327612,0.111902,0.157137,0.163213,-0.0125855,-0.757822,0.48685,-0.577355,0.0110568,
0.189045,-0.229508,-0.153742,-1.72249,-0.00330169,-0.197785,-0.382981,0.618769,-0.0164642,0.647784,-0.217518,0.442325,-0.0955661,0.0144147,0,0,0,0,0,0,0,0.181961,-0.229317,-0.161048,-1.72003,-0.00783643,1.37372,0.402232,0.487099,0.00904139,0.539089,-0.136115,0.264476,0.000288844,0.00142549,3.07422,-26.6591,3.88887,24.8364,1.48559,2.20452,-0.0301054,-2.24854,-0.895713,-1.46248,0.963342,-0.668074,-0.437053,-0.33036,-0.047906,-0.666091,-0.771911,0.261958,-0.486564,0.00979809,
0.191603,-0.229558,-0.151027,-1.72337,-0.00127505,-0.198281,-0.382928,0.639558,-0.0125124,0.678813,-0.221952,0.50666,-0.123919,0.0134547,0,0,0,0,0,0,0,0.181961,-0.229317,-0.161048,-1.72003,-0.00783643,1.37372,0.402232,0.487099,0.00904139,0.539089,-0.136115,0.264476,0.000288844,0.00142549,3.07422,-26.6591,3.88887,24.8364,1.48559,2.20452,-0.0301054,-2.25403,-0.683669,-1.45841,0.851314,-0.683767,-0.334411,-0.254407,-0.0563381,-0.534134,-0.757919,0.331343,-0.469288,0.00884845,
0.194229,-0.229589,-0.148206,-1.72427,0.000997854,-0.198859,-0.382877,0.65642,-0.00774916,0.705107,-0.224418,0.568225,-0.144543,0.0126232,0,0,0,0,0,0,0,0.181961,-0.229317,-0.161048,-1.72003,-0.00783643,1.37372,0.402232,0.487099,0.00904139,0.539089,-0.136115,0.264476,0.000288844,0.00142549,3.07422,-26.6591,3.88887,24.8364,1.48559,2.20452,-0.0301054,-2.25403,-0.683669,-1.45841,0.851314,-0.683767,-0.334411,-0.254407,-0.0563381,-0.534134,-0.757919,0.331343,-0.469288,0.00884845,
0.196909,-0.2296,-0.145296,-1.72518,0.0035015,-0.199492,-0.382829,0.670078,-0.00279548,0.727551,-0.225841,0.625913,-0.158246,0.0119174,0,0,0,0,0,0,0,0.181961,-0.229317,-0.161048,-1.72003,-0.00783643,1.37372,0.402232,0.487099,0.00904139,0.539089,-0.136115,0.264476,0.000288844,0.00142549,3.07422,-26.6591,3.88887,24.8364,1.48559,2.20452,-0.0301054,-2.15037,2.77681,-1.26921,-1.52895,-0.622853,1.27742,1.28078,0.209921,1.372,-0.805077,0.658731,-0.511153,0.00317613,
0.199633,-0.229592,-0.142309,-1.72608,0.00621808,-0.200157,-0.382784,0.681073,0.00207517,0.746838,-0.226579,0.679145,-0.166129,0.0112894,0,0,0,0,0,0,0,0.181961,-0.229317,-0.161048,-1.72003,-0.00783643,1.37372,0.402232,0.487099,0.00904139,0.539089,-0.136115,0.264476,0.000288844,0.00142549,3.07422,-26.6591,3.88887,24.8364,1.48559,2.20452,-0.0301054,-2.15037,2.77681,-1.26921,-1.52895,-0.622853,1.27742,1.28078,0.209921,1.372,-0.805077,0.658731,-0.511153,0.00317613,
0.18657,-0.229442,-0.156333,-1.72162,-0.00507099,-0.197403,-0.383039,0.592988,-0.0180729,0.61092,-0.208561,0.377103,-0.0600264,0.0155474,0,0,0,0,0,0,0,0.197748,-0.229068,-0.143811,-1.72428,0.00168301,1.37388,0.402235,0.485778,0.0101284,0.512139,-0.129463,0.257462,0.00759578,-0.000434188,0.765262,-26.8852,1.63942,25.5823,1.20453,2.11846,0.0303194,-2.08043,0.720989,-1.36907,-0.202614,-0.562303,0.338814,0.353136,0.120032,0.304268,-0.786776,0.400944,-0.483467,0.00719535,
0.204618,-0.229241,-0.136594,-1.72667,0.00612742,-0.197417,-0.382976,0.601815,-0.0147806,0.642247,-0.211709,0.433201,-0.0739529,0.0147137,0,0,0,0,0,0,0,0.197748,-0.229068,-0.143811,-1.72428,0.00168301,1.37388,0.402235,0.485778,0.0101284,0.512139,-0.129463,0.257462,0.00759578,-0.000434188,0.765262,-26.8852,1.63942,25.5823,1.20453,2.11846,0.0303194,-2.08043,0.720989,-1.36907,-0.202614,-0.562303,0.338814,0.353136,0.120032,0.304268,-0.786776,0.400944,-0.483467,0.00719535,
0.207112,-0.229284,-0.133896,-1.72753,0.0081143,-0.197816,-0.382921,0.623563,-0.0108147,0.674472,-0.216082,0.496721,-0.099819,0.0136967,0,0,0,0,0,0,0,0.197748,-0.229068,-0.143811,-1.72428,0.00168301,1.37388,0.402235,0.485778,0.0101284,0.512139,-0.129463,0.257462,0.00759578,-0.000434188,0.765262,-26.8852,1.63942,25.5823,1.20453,2.11846,0.0303194,-2.37084,-0.910998,-1.3761,0.839913,-0.88919,-0.376788,-0.282013,-0.210935,-0.560351,-0.629503,0.173166,-0.384312,0.00474521,
0.209677,-0.229308,-0.13109,-1.7284,0.010346,-0.19829,-0.38287,0.641196,-0.00607725,0.701735,-0.218491,0.557922,-0.118598,0.0128153,0,0,0,0,0,0,0,0.197748,-0.229068,-0.143811,-1.72428,0.00168301,1.37388,0.402235,0.485778,0.0101284,0.512139,-0.129463,0.257462,0.00759578,-0.000434188,0.765262,-26.8852,1.63942,25.5823,1.20453,2.11846,0.0303194,-1.64833,0.134717,-2.05029,0.158012,-0.00211154,0.0917879,0.184812,0.489003,-0.0594779,-1.04174,0.33116,-0.442389,0.00393474,
0.212299,-0.229313,-0.12819,-1.72928,0.0128082,-0.198814,-0.382821,0.655472,-0.00117924,0.724967,-0.219868,0.615563,-0.13096,0.0120516,0,0,0,0,0,0,0,0.197748,-0.229068,-0.143811,-1.72428,0.00168301,1.37388,0.402235,0.485778,0.0101284,0.512139,-0.129463,0.257462,0.00759578,-0.000434188,0.765262,-26.8852,1.63942,25.5823,1.20453,2.11846,0.0303194,-1.64833,0.134717,-2.05029,0.158012,-0.00211154,0.0917879,0.184812,0.489003,-0.0594779,-1.04174,0.33116,-0.442389,0.00393474,
0.214967,-0.229299,-0.12521,-1.73017,0.0154841,-0.199366,-0.382776,0.666981,0.00361203,0.744885,-0.220571,0.668956,-0.137903,0.0113838,0,0,0,0,0,0,0,0.218877,-0.228879,-0.120378,-1.72963,0.014624,1.37434,0.402251,0.484871,-0.00289271,0.556093,-0.127459,0.285413,0.0201685,-0.000155159,1.52698,-26.3338,2.1869,24.2374,0.654293,2.09191,0.017502,-1.21319,0.922008,-1.87798,-0.330347,0.372833,0.430676,0.440371,0.763329,0.378685,-1.13261,0.484833,-0.534046,0.0050128,
0.217678,-0.229266,-0.12217,-1.73105,0.0183572,-0.199928,-0.382733,0.677733,0.0081917,0.759981,-0.220725,0.718289,-0.140435,0.0107626,0,0,0,0,0,0,0,0.218877,-0.228879,-0.120378,-1.72963,0.014624,1.37434,0.402251,0.484871,-0.00289271,0.556093,-0.127459,0.285413,0.0201685,-0.000155159,1.52698,-26.3338,2.1869,24.2374,0.654293,2.09191,0.017502,-1.21319,0.922008,-1.87798,-0.330347,0.372833,0.430676,0.440371,0.763329,0.378685,-1.13261,0.484833,-0.534046,0.0050128,
0.202211,-0.229182,-0.139163,-1.72582,0.00439461,-0.197121,-0.383035,0.57491,-0.0164567,0.60386,-0.202803,0.369392,-0.0417223,0.0158765,0,0,0,0,0,0,0,0.218877,-0.228879,-0.120378,-1.72963,0.014624,1.37434,0.402251,0.484871,-0.00289271,0.556093,-0.127459,0.285413,0.0201685,-0.000155159,1.52698,-26.3338,2.1869,24.2374,0.654293,2.09191,0.017502,-1.58868,0.0165356,-1.83428,0.143945,-0.0277989,0.0535622,0.0907694,0.454768,-0.0367273,-0.980323,0.261658,-0.455503,0.0061291,
0.225815,-0.229112,-0.11289,-1.73191,0.0194542,-0.19672,-0.382966,0.604807,-0.0177828,0.660924,-0.202798,0.466006,-0.0505456,0.0141965,0,0,0,0,0,0,0,0.218877,-0.228879,-0.120378,-1.72963,0.014624,1.37434,0.402251,0.484871,-0.00289271,0.556093,-0.127459,0.285413,0.0201685,-0.000155159,1.52698,-26.3338,2.1869,24.2374,0.654293,2.09191,0.017502,-1.46996,-2.05012,-2.12721,1.48619,0.123087,-0.884204,-0.790688,0.412192,-1.14795,-1.02714,0.0202271,-0.420692,0.00608344,
0.228313,-0.229163,-0.110128,-1.73274,0.0215669,-0.197012,-0.382913,0.624419,-0.012689,0.690523,-0.207416,0.528158,-0.0730063,0.0132318,0,0,0,0,0,0,0,0.218877,-0.228879,-0.120378,-1.72963,0.014624,1.37434,0.402251,0.484871,-0.00289271,0.556093,-0.127459,0.285413,0.0201685,-0.000155159,1.52698,-26.3338,2.1869,24.2374,0.654293,2.09191,0.017502,-1.46996,-2.05012,-2.12721,1.48619,0.123087,-0.884204,-0.790688,0.412192,-1.14795,-1.02714,0.0202271,-0.420692,0.00608344,
0.230874,-0.229192,-0.107265,-1.73358,0.0239157,-0.197369,-0.382864,0.640325,-0.00716723,0.715673,-0.210144,0.587217,-0.0892409,0.0123984,0,0,0,0,0,0,0,0.218877,-0.228879,-0.120378,-1.72963,0.014624,1.37434,0.402251,0.484871,-0.00289271,0.556093,-0.127459,0.285413,0.0201685,-0.000155159,1.52698,-26.3338,2.1869,24.2374,0.654293,2.09191,0.017502,-1.73446,1.47201,-2.28584,-0.846838,0.109979,0.75576,0.808873,0.750614,0.734198,-1.22177,0.447166,-0.507753,-0.00129218,
0.233493,-0.229198,-0.104325,-1.73443,0.0264869,-0.197769,-0.382817,0.654747,-0.00169649,0.735099,-0.211803,0.642793,-0.0998398,0.0116399,0,0,0,0,0,0,0,0.234821,-0.228843,-0.101903,-1.73392,0.0262451,1.37492,0.402257,0.491404,0.00172565,0.545381,-0.128178,0.310873,0.0354446,-0.000789238,-0.984311,-26.3854,-0.288683,25.3601,1.0086,2.02508,0.00376909,-1.73446,1.47201,-2.28584,-0.846838,0.109979,0.75576,0.808873,0.750614,0.734198,-1.22177,0.447166,-0.507753,-0.00129218,
0.236161,-0.229184,-0.101324,-1.73528,0.0292657,-0.198191,-0.382774,0.667111,0.00351904,0.750145,-0.212767,0.694698,-0.105654,0.0109481,0,0,0,0,0,0,0,0.234821,-0.228843,-0.101903,-1.73392,0.0262451,1.37492,0.402257,0.491404,0.00172565,0.545381,-0.128178,0.310873,0.0354446,-0.000789238,-0.984311,-26.3854,-0.288683,25.3601,1.0086,2.02508,0.00376909,-1.94719,2.11804,-2.17035,-1.24761,-0.0420495,1.06119,1.05726,0.718103,1.12413,-1.20942,0.571423,-0.545052,-0.00142455,
0.238869,-0.229151,-0.0982755,-1.73614,0.032236,-0.198621,-0.382732,0.677028,0.0083814,0.762185,-0.213207,0.742579,-0.107535,0.0103272,0,0,0,0,0,0,0,0.234821,-0.228843,-0.101903,-1.73392,0.0262451,1.37492,0.402257,0.491404,0.00172565,0.545381,-0.128178,0.310873,0.0354446,-0.000789238,-0.984311,-26.3854,-0.288683,25.3601,1.0086,2.02508,0.00376909,-1.94719,2.11804,-2.17035,-1.24761,-0.0420495,1.06119,1.05726,0.718103,1.12413,-1.20942,0.571423,-0.545052,-0.00142455,
0.223396,-0.229041,-0.115534,-1.7311,0.0175902,-0.196518,-0.383023,0.580539,-0.0211658,0.625901,-0.194001,0.402236,-0.0225361,0.015287,0,0,0,0,0,0,0,0.234821,-0.228843,-0.101903,-1.73392,0.0262451,1.37492,0.402257,0.491404,0.00172565,0.545381,-0.128178,0.310873,0.0354446,-0.000789238,-0.984311,-26.3854,-0.288683,25.3601,1.0086,2.02508,0.00376909,-1.53618,-0.504042,-2.61334,0.403077,0.340458,-0.145116,-0.0928652,0.768623,-0.283163,-1.29896,0.222381,-0.479535,0.00107339,
0.241648,-0.229008,-0.0943849,-1.73618,0.031304,-0.195896,-0.382962,0.595256,-0.0122106,0.663907,-0.199092,0.480982,-0.0276146,0.0141016,0,0,0,0,0,0,0,0.234821,-0.228843,-0.101903,-1.73392,0.0262451,1.37492,0.402257,0.491404,0.00172565,0.545381,-0.128178,0.310873,0.0354446,-0.000789238,-0.984311,-26.3854,-0.288683,25.3601,1.0086,2.02508,0.00376909,-1.53618,-0.504042,-2.61334,0.403077,0.340458,-0.145116,-0.0928652,0.768623,-0.283163,-1.29896,0.222381,-0.479535,0.00107339,
0.244114,-0.229038,-0.091619,-1.73699,0.0334657,-0.196089,-0.38291,0.616414,-0.00749257,0.691493,-0.203349,0.540419,-0.0481488,0.0130947,0,0,0,0,0,0,0,0.250934,-0.228726,-0.083039,-1.73812,0.0377496,1.3758,0.402262,0.51797,0.00663498,0.60236,-0.128903,0.397716,0.0209893,-0.000671435,0.717655,-26.5361,1.28633,25.2332,2.16949,1.67351,0.00376909,-1.74325,-1.94566,-2.39293,1.38791,0.0210288,-0.774852,-0.664418,0.397556,-1.04309,-1.10068,0.0834331,-0.416347,0.00172438,
0.246651,-0.229047,-0.0887662,-1.73781,0.035858,-0.196341,-0.382861,0.634311,-0.00236754,0.713197,-0.20583,0.59807,-0.0629857,0.0121956,0,0,0,0,0,0,0,0.250934,-0.228726,-0.083039,-1.73812,0.0377496,1.3758,0.402262,0.51797,0.00663498,0.60236,-0.128903,0.397716,0.0209893,-0.000671435,0.717655,-26.5361,1.28633,25.2332,2.16949,1.67351,0.00376909,-1.38481,-0.166204,-2.39288,0.265493,0.375292,0.00524503,0.0671357,0.755237,-0.140483,-1.21828,0.363285,-0.455752,-0.0012952,
0.249246,-0.229036,-0.0858433,-1.73864,0.038469,-0.196631,-0.382815,0.648819,0.00268778,0.730716,-0.20734,0.652747,-0.0726191,0.0114029,0,0,0,0,0,0,0,0.250934,-0.228726,-0.083039,-1.73812,0.0377496,1.3758,0.402262,0.51797,0.00663498,0.60236,-0.128903,0.397716,0.0209893,-0.000671435,0.717655,-26.5361,1.28633,25.2332,2.16949,1.67351,0.00376909,-1.38481,-0.166204,-2.39288,0.265493,0.375292,0.00524503,0.0671357,0.755237,-0.140483,-1.21828,0.363285,-0.455752,-0.0012952,
0.251888,-0.229007,-0.0828639,-1.73947,0.0412836,-0.196943,-0.382773,0.660493,0.00747524,0.744843,-0.208191,0.703654,-0.0778385,0.0107021,0,0,0,0,0,0,0,0.250934,-0.228726,-0.083039,-1.73812,0.0377496,1.3758,0.402262,0.51797,0.00663498,0.60236,-0.128903,0.397716,0.0209893,-0.000671435,0.717655,-26.5361,1.28633,25.2332,2.16949,1.67351,0.00376909,-1.70723,2.74343,-1.92708,-1.67518,-0.00069768,1.36058,1.35192,0.745535,1.46638,-1.08284,0.660615,-0.462203,-0.00408755,
0.254567,-0.228959,-0.0798393,-1.74031,0.0442852,-0.19726,-0.382732,0.669804,0.0119101,0.756173,-0.208528,0.750391,-0.0794271,0.0100785,0,0,0,0,0,0,0,0.250934,-0.228726,-0.083039,-1.73812,0.0377496,1.3758,0.402262,0.51797,0.00663498,0.60236,-0.128903,0.397716,0.0209893,-0.000671435,0.717655,-26.5361,1.28633,25.2332,2.16949,1.67351,0.00376909,-1.70723,2.74343,-1.92708,-1.67518,-0.00069768,1.36058,1.35192,0.745535,1.46638,-1.08284,0.660615,-0.462203,-0.00408755,
0.239267,-0.228959,-0.0970406,-1.73538,0.0293801,-0.195786,-0.383019,0.571014,-0.0153215,0.628695,-0.190887,0.421088,-0.00206913,0.0151721,0,0,0,0,0,0,0,0.250934,-0.228726,-0.083039,-1.73812,0.0377496,1.3758,0.402262,0.51797,0.00663498,0.60236,-0.128903,0.397716,0.0209893,-0.000671435,0.717655,-26.5361,1.28633,25.2332,2.16949,1.67351,0.00376909,-1.57747,0.744203,-1.66155,-0.417413,-0.154208,0.460526,0.487584,0.402364,0.441355,-0.844844,0.34738,-0.356485,-0.00112386,
0.258022,-0.228814,-0.0750944,-1.74034,0.0437904,-0.194999,-0.382972,0.614182,-0.00572287,0.690558,-0.196552,0.559083,-0.0192114,0.0129285,0,0,0,0,0,0,0,0.266595,-0.228593,-0.06514,-1.74194,0.0481317,1.37649,0.402268,0.495924,0.0109929,0.593906,-0.125997,0.38046,0.00737807,-9.31217e-05,1.1977,-26.8337,1.08797,25.7568,1.90673,2.21734,-0.00996382,-0.957673,-1.38594,-1.47068,1.05443,0.164326,-0.55748,-0.483823,0.305638,-0.763152,-0.727537,0.160966,-0.296109,0.0016157,
0.260549,-0.228819,-0.0722469,-1.74115,0.0462452,-0.195138,-0.382924,0.631826,-0.00120972,0.711883,-0.200443,0.613699,-0.0347447,0.012028,0,0,0,0,0,0,0,0.266595,-0.228593,-0.06514,-1.74194,0.0481317,1.37649,0.402268,0.495924,0.0109929,0.593906,-0.125997,0.38046,0.00737807,-9.31217e-05,1.1977,-26.8337,1.08797,25.7568,1.90673,2.21734,-0.00996382,-0.957673,-1.38594,-1.47068,1.05443,0.164326,-0.55748,-0.483823,0.305638,-0.763152,-0.727537,0.160966,-0.296109,0.0016157,
0.263133,-0.228805,-0.0693305,-1.74196,0.0489081,-0.195321,-0.382879,0.646047,0.0035726,0.729096,-0.20262,0.66573,-0.0457068,0.0112354,0,0,0,0,0,0,0,0.266595,-0.228593,-0.06514,-1.74194,0.0481317,1.37649,0.402268,0.495924,0.0109929,0.593906,-0.125997,0.38046,0.00737807,-9.31217e-05,1.1977,-26.8337,1.08797,25.7568,1.90673,2.21734,-0.00996382,-0.857784,-0.513742,-1.67595,0.548611,0.415048,-0.186671,-0.138514,0.570415,-0.347384,-0.891746,0.371696,-0.350085,0.00299656,
0.265763,-0.228772,-0.0663587,-1.74277,0.0517655,-0.195531,-0.382837,0.657452,0.00820258,0.742945,-0.203854,0.71435,-0.0524036,0.0105358,0,0,0,0,0,0,0,0.266595,-0.228593,-0.06514,-1.74194,0.0481317,1.37649,0.402268,0.495924,0.0109929,0.593906,-0.125997,0.38046,0.00737807,-9.31217e-05,1.1977,-26.8337,1.08797,25.7568,1.90673,2.21734,-0.00996382,-0.857784,-0.513742,-1.67595,0.548611,0.415048,-0.186671,-0.138514,0.570415,-0.347384,-0.891746,0.371696,-0.350085,0.00299656,
0.268429,-0.228722,-0.0633426,-1.74359,0.054802,-0.195752,-0.382797,0.666515,0.0125188,0.754021,-0.204456,0.759118,-0.0554491,0.00991432,0,0,0,0,0,0,0,0.266595,-0.228593,-0.06514,-1.74194,0.0481317,1.37649,0.402268,0.495924,0.0109929,0.593906,-0.125997,0.38046,0.00737807,-9.31217e-05,1.1977,-26.8337,1.08797,25.7568,1.90673,2.21734,-0.00996382,-1.76666,1.20842,-1.61258,-0.61248,-0.240913,0.690794,0.692321,0.392277,0.695976,-0.847135,0.556193,-0.37895,-0.000325197,
0.271123,-0.228656,-0.0602915,-1.74441,0.0580014,-0.195974,-0.38276,0.673615,0.0164617,0.762792,-0.204572,0.799869,-0.0554806,0.00935875,0,0,0,0,0,0,0,0.282698,-0.228156,-0.0460602,-1.74566,0.0599812,1.37707,0.402269,0.497569,0.0176509,0.57174,-0.110802,0.357909,0.0243656,-0.000428159,0.539127,-27.1828,0.389723,25.3839,1.07635,2.19079,0.0239107,-2.18154,0.633093,-1.51082,-0.316377,-0.696796,0.505161,0.536864,0.0581463,0.486891,-0.68506,0.389638,-0.310264,-0.00171684,
0.255565,-0.228792,-0.0778567,-1.73956,0.041554,-0.194922,-0.383024,0.592327,-0.00884758,0.664169,-0.188876,0.503207,3.48025e-05,0.0139034,0,0,0,0,0,0,0,0.282698,-0.228156,-0.0460602,-1.74566,0.0599812,1.37707,0.402269,0.497569,0.0176509,0.57174,-0.110802,0.357909,0.0243656,-0.000428159,0.539127,-27.1828,0.389723,25.3839,1.07635,2.19079,0.0239107,-2.18154,0.633093,-1.51082,-0.316377,-0.696796,0.505161,0.536864,0.0581463,0.486891,-0.68506,0.389638,-0.310264,-0.00171684,
0.289519,-0.228174,-0.038375,-1.74781,0.0656244,-0.193471,-0.382962,0.593806,-0.000869117,0.670722,-0.191528,0.528,0.00647198,0.0132028,0,0,0,0,0,0,0,0.282698,-0.228156,-0.0460602,-1.74566,0.0599812,1.37707,0.402269,0.497569,0.0176509,0.57174,-0.110802,0.357909,0.0243656,-0.000428159,0.539127,-27.1828,0.389723,25.3839,1.07635,2.19079,0.0239107,-1.59371,-1.51689,-1.50022,1.12516,-0.36099,-0.514721,-0.43727,-0.0168327,-0.711148,-0.617599,0.167944,-0.238195,0.000128081,
0.29197,-0.228161,-0.0356004,-1.74859,0.0679621,-0.193501,-0.382913,0.612799,0.00322161,0.693651,-0.195868,0.584442,-0.00745686,0.0122348,0,0,0,0,0,0,0,0.282698,-0.228156,-0.0460602,-1.74566,0.0599812,1.37707,0.402269,0.497569,0.0176509,0.57174,-0.110802,0.357909,0.0243656,-0.000428159,0.539127,-27.1828,0.389723,25.3839,1.07635,2.19079,0.0239107,-1.59371,-1.51689,-1.50022,1.12516,-0.36099,-0.514721,-0.43727,-0.0168327,-0.711148,-0.617599,0.167944,-0.238195,0.000128081,
0.294483,-0.228131,-0.0327515,-1.74939,0.0705151,-0.193571,-0.382867,0.628169,0.0076441,0.712232,-0.198219,0.638247,-0.0176026,0.0113795,0,0,0,0,0,0,0,0.282698,-0.228156,-0.0460602,-1.74566,0.0599812,1.37707,0.402269,0.497569,0.0176509,0.57174,-0.110802,0.357909,0.0243656,-0.000428159,0.539127,-27.1828,0.389723,25.3839,1.07635,2.19079,0.0239107,-0.452549,-0.871685,-1.96548,0.742526,0.779029,-0.381316,-0.343054,0.756041,-0.562172,-0.973096,0.360564,-0.286371,-0.00156809,
0.297045,-0.228083,-0.0298425,-1.75018,0.0732695,-0.193667,-0.382825,0.640552,0.0119206,0.727246,-0.199516,0.688588,-0.0239636,0.0106255,0,0,0,0,0,0,0,0.298182,-0.227586,-0.0275194,-1.74906,0.0733695,1.37755,0.402269,0.493006,0.00974195,0.576509,-0.102436,0.386665,0.0266924,-0.00164968,-1.05969,-26.7107,-1.08611,25.3601,1.04522,2.23107,0.0239107,-0.452549,-0.871685,-1.96548,0.742526,0.779029,-0.381316,-0.343054,0.756041,-0.562172,-0.973096,0.360564,-0.286371,-0.00156809,
0.299647,-0.22802,-0.0268853,-1.75099,0.0762095,-0.193775,-0.382785,0.650451,0.0158777,0.739314,-0.200133,0.735003,-0.0269892,0.00995793,0,0,0,0,0,0,0,0.298182,-0.227586,-0.0275194,-1.74906,0.0733695,1.37755,0.402269,0.493006,0.00974195,0.576509,-0.102436,0.386665,0.0266924,-0.00164968,-1.05969,-26.7107,-1.08611,25.3601,1.04522,2.23107,0.0239107,-1.0018,1.26876,-2.46756,-0.747338,0.661224,0.641421,0.647066,1.04664,0.623699,-1.22459,0.602313,-0.347721,-0.00375314,
0.30228,-0.227942,-0.0238896,-1.75179,0.0793187,-0.193884,-0.382747,0.65827,0.0194574,0.748931,-0.200243,0.777311,-0.0272176,0.00936388,0,0,0,0,0,0,0,0.298182,-0.227586,-0.0275194,-1.74906,0.0733695,1.37755,0.402269,0.493006,0.00974195,0.576509,-0.102436,0.386665,0.0266924,-0.00164968,-1.05969,-26.7107,-1.08611,25.3601,1.04522,2.23107,0.0239107,-1.32065,0.0145726,-2.49672,-0.00781598,0.309608,0.149746,0.199943,0.715002,0.053669,-1.10699,0.371155,-0.28121,-0.00408348,
0.287143,-0.228171,-0.0410579,-1.74704,0.0635124,-0.193497,-0.383014,0.570358,-0.00331968,0.642492,-0.18268,0.470181,0.0226708,0.0142304,0,0,0,0,0,0,0,0.298182,-0.227586,-0.0275194,-1.74906,0.0733695,1.37755,0.402269,0.493006,0.00974195,0.576509,-0.102436,0.386665,0.0266924,-0.00164968,-1.05969,-26.7107,-1.08611,25.3601,1.04522,2.23107,0.0239107,-1.32065,0.0145726,-2.49672,-0.00781598,0.309608,0.149746,0.199943,0.715002,0.053669,-1.10699,0.371155,-0.28121,-0.00408348,
0.304961,-0.227665,-0.0198533,-1.75111,0.0793068,-0.192827,-0.382966,0.58937,-0.00482568,0.66785,-0.183966,0.550096,0.0240003,0.0128572,0,0,0,0,0,0,0,0.298182,-0.227586,-0.0275194,-1.74906,0.0733695,1.37755,0.402269,0.493006,0.00974195,0.576509,-0.102436,0.386665,0.0266924,-0.00164968,-1.05969,-26.7107,-1.08611,25.3601,1.04522,2.23107,0.0239107,-1.28803,-0.243689,-2.37872,0.129674,0.220202,0.0459597,0.117764,0.60262,-0.0705941,-1.00792,0.291981,-0.229622,-0.0043335,
0.307392,-0.227665,-0.0170939,-1.75186,0.0817225,-0.192776,-0.382918,0.607563,-7.56343e-06,0.689855,-0.188581,0.60393,0.0128909,0.0119018,0,0,0,0,0,0,0,0.298182,-0.227586,-0.0275194,-1.74906,0.0733695,1.37755,0.402269,0.493006,0.00974195,0.576509,-0.102436,0.386665,0.0266924,-0.00164968,-1.05969,-26.7107,-1.08611,25.3601,1.04522,2.23107,0.0239107,-1.28803,-0.243689,-2.37872,0.129674,0.220202,0.0459597,0.117764,0.60262,-0.0705941,-1.00792,0.291981,-0.229622,-0.0043335,
0.309881,-0.227645,-0.0142632,-1.75263,0.0843432,-0.192756,-0.382874,0.622259,0.00496758,0.707668,-0.191174,0.655185,0.00477898,0.0110555,0,0,0,0,0,0,0,0.31934,-0.226791,-0.00238462,-1.75327,0.0898701,1.3788,0.402278,0.502975,0.013399,0.594224,-0.0951763,0.362271,0.0397755,1.08407e-05,-1.49212,-26.8852,-1.68517,25.2332,1.63757,1.97198,-0.00996382,-0.731153,-0.655783,-2.48924,0.498401,0.751742,-0.234254,-0.190066,0.85738,-0.394752,-1.12878,0.396207,-0.261443,-0.00376492,
0.312417,-0.227607,-0.0113751,-1.7534,0.0871557,-0.192757,-0.382833,0.634069,0.00965975,0.722032,-0.192685,0.703106,-0.000173,0.0103094,0,0,0,0,0,0,0,0.31934,-0.226791,-0.00238462,-1.75327,0.0898701,1.3788,0.402278,0.502975,0.013399,0.594224,-0.0951763,0.362271,0.0397755,1.08407e-05,-1.49212,-26.8852,-1.68517,25.2332,1.63757,1.97198,-0.00996382,-1.98921,2.02287,-2.5666,-1.25469,-0.0107806,1.12777,1.11639,0.802901,1.18646,-1.18113,0.754543,-0.336728,-0.00930436,
0.314991,-0.227551,-0.00844088,-1.75417,0.0901448,-0.192766,-0.382794,0.643478,0.0139246,0.733544,-0.193492,0.747273,-0.00228297,0.00965034,0,0,0,0,0,0,0,0.31934,-0.226791,-0.00238462,-1.75327,0.0898701,1.3788,0.402278,0.502975,0.013399,0.594224,-0.0951763,0.362271,0.0397755,1.08407e-05,-1.49212,-26.8852,-1.68517,25.2332,1.63757,1.97198,-0.00996382,-1.98921,2.02287,-2.5666,-1.25469,-0.0107806,1.12777,1.11639,0.802901,1.18646,-1.18113,0.754543,-0.336728,-0.00930436,
0.317594,-0.22748,-0.00547018,-1.75495,0.0932948,-0.192774,-0.382758,0.650874,0.0177275,0.742675,-0.193774,0.787523,-0.00197954,0.00906846,0,0,0,0,0,0,0,0.31934,-0.226791,-0.00238462,-1.75327,0.0898701,1.3788,0.402278,0.502975,0.013399,0.594224,-0.0951763,0.362271,0.0397755,1.08407e-05,-1.49212,-26.8852,-1.68517,25.2332,1.63757,1.97198,-0.00996382,-2.04093,0.289678,-2.24925,-0.142871,-0.290512,0.401882,0.419275,0.383452,0.359346,-0.956936,0.490942,-0.281784,-0.00712668,
0.302604,-0.227646,-0.0225247,-1.75037,0.0771064,-0.192923,-0.383017,0.566882,-0.00822995,0.640757,-0.17481,0.494801,0.0364014,0.0138634,0,0,0,0,0,0,0,0.31934,-0.226791,-0.00238462,-1.75327,0.0898701,1.3788,0.402278,0.502975,0.013399,0.594224,-0.0951763,0.362271,0.0397755,1.08407e-05,-1.49212,-26.8852,-1.68517,25.2332,1.63757,1.97198,-0.00996382,-2.04093,0.289678,-2.24925,-0.142871,-0.290512,0.401882,0.419275,0.383452,0.359346,-0.956936,0.490942,-0.281784,-0.00712668,
0.326156,-0.226832,0.00537097,-1.75527,0.0957671,-0.191334,-0.382966,0.589616,-0.0017287,0.671732,-0.179691,0.552894,0.0469051,0.012242,0,0,0,0,0,0,0,0.335173,-0.226287,0.0167964,-1.75654,0.102602,1.38038,0.402279,0.499647,0.00917065,0.605818,-0.110807,0.436912,0.0474992,0.000299341,0.0551182,-26.2584,-0.411669,25.1578,2.51098,1.84655,-0.0227812,-0.850093,-0.946873,-2.5263,0.557382,0.573525,-0.309711,-0.238906,0.730033,-0.475263,-1.06545,0.258131,-0.201692,-0.00457755,
0.328579,-0.22682,0.00813609,-1.75601,0.0982052,-0.191186,-0.38292,0.605875,0.00295601,0.691279,-0.184356,0.609521,0.0370002,0.0113606,0,0,0,0,0,0,0,0.335173,-0.226287,0.0167964,-1.75654,0.102602,1.38038,0.402279,0.499647,0.00917065,0.605818,-0.110807,0.436912,0.0474992,0.000299341,0.0551182,-26.2584,-0.411669,25.1578,2.51098,1.84655,-0.0227812,-0.850093,-0.946873,-2.5263,0.557382,0.573525,-0.309711,-0.238906,0.730033,-0.475263,-1.06545,0.258131,-0.201692,-0.00457755,
0.331055,-0.226789,0.0109648,-1.75675,0.100854,-0.191068,-0.382878,0.619057,0.00773132,0.707183,-0.18693,0.662103,0.0296348,0.0105704,0,0,0,0,0,0,0,0.335173,-0.226287,0.0167964,-1.75654,0.102602,1.38038,0.402279,0.499647,0.00917065,0.605818,-0.110807,0.436912,0.0474992,0.000299341,0.0551182,-26.2584,-0.411669,25.1578,2.51098,1.84655,-0.0227812,-0.944922,0.135462,-2.65197,-0.104215,0.678466,0.16673,0.21672,0.956455,0.0590958,-1.19646,0.488958,-0.263498,-0.00786741,
0.333574,-0.22674,0.013845,-1.75751,0.103695,-0.190967,-0.382838,0.629668,0.0121726,0.72004,-0.188398,0.710393,0.0250918,0.00987173,0,0,0,0,0,0,0,0.335173,-0.226287,0.0167964,-1.75654,0.102602,1.38038,0.402279,0.499647,0.00917065,0.605818,-0.110807,0.436912,0.0474992,0.000299341,0.0551182,-26.2584,-0.411669,25.1578,2.51098,1.84655,-0.0227812,-1.94255,1.49877,-2.61661,-0.947076,0.0456503,0.919843,0.932544,0.803459,0.928509,-1.18947,0.734232,-0.326927,-0.00890421,
0.336126,-0.226676,0.0167664,-1.75826,0.106713,-0.190875,-0.382801,0.638078,0.0161529,0.730363,-0.189162,0.754335,0.0231502,0.00927117,0,0,0,0,0,0,0,0.335173,-0.226287,0.0167964,-1.75654,0.102602,1.38038,0.402279,0.499647,0.00917065,0.605818,-0.110807,0.436912,0.0474992,0.000299341,0.0551182,-26.2584,-0.411669,25.1578,2.51098,1.84655,-0.0227812,-1.94255,1.49877,-2.61661,-0.947076,0.0456503,0.919843,0.932544,0.803459,0.928509,-1.18947,0.734232,-0.326927,-0.00890421,
0.33871,-0.226597,0.019723,-1.75902,0.109843,-0.190781,-0.382766,0.64599,0.0196331,0.739131,-0.188941,0.782708,0.0232817,0.0087131,0,0,0,0,0,0,0,0.335173,-0.226287,0.0167964,-1.75654,0.102602,1.38038,0.402279,0.499647,0.00917065,0.605818,-0.110807,0.436912,0.0474992,0.000299341,0.0551182,-26.2584,-0.411669,25.1578,2.51098,1.84655,-0.0227812,-1.45955,-0.931074,-2.34984,0.667919,0.189037,-0.191191,-0.148537,0.511907,-0.348743,-1.02611,0.449902,-0.281563,-0.00808148,
0.326156,-0.226832,0.00537102,-1.75527,0.0957663,-0.191334,-0.382966,0.589622,-0.00173026,0.671738,-0.179692,0.552808,0.0469363,0.0122416,0,0,0,0,0,0,0,0.350591,-0.225919,0.0352403,-1.75984,0.114863,1.38253,0.402279,0.4903,0.00906696,0.611277,-0.113007,0.409594,0.0634552,-0.00160026,1.07074,-26.4607,0.211195,24.9594,1.40594,2.13769,0.0239107,-1.45955,-0.931074,-2.34984,0.667919,0.189037,-0.191191,-0.148537,0.511907,-0.348743,-1.02611,0.449902,-0.281563,-0.00808148,
0.35739,-0.225914,0.0430235,-1.76185,0.121162,-0.187402,-0.382971,0.587175,0.00308777,0.672488,-0.177969,0.581597,0.0647648,0.0117286,0,0,0,0,0,0,0,0.350591,-0.225919,0.0352403,-1.75984,0.114863,1.38253,0.402279,0.4903,0.00906696,0.611277,-0.113007,0.409594,0.0634552,-0.00160026,1.07074,-26.4607,0.211195,24.9594,1.40594,2.13769,0.0239107,-1.11226,-0.731344,-2.38625,0.417614,0.364716,-0.144071,-0.0758638,0.629495,-0.291201,-1.01682,0.336156,-0.221618,-0.00882587,
0.359799,-0.225883,0.0457872,-1.76258,0.123698,-0.187176,-0.382927,0.602446,0.00762003,0.690929,-0.181906,0.634031,0.0567065,0.0108809,0,0,0,0,0,0,0,0.350591,-0.225919,0.0352403,-1.75984,0.114863,1.38253,0.402279,0.4903,0.00906696,0.611277,-0.113007,0.409594,0.0634552,-0.00160026,1.07074,-26.4607,0.211195,24.9594,1.40594,2.13769,0.0239107,-0.503534,-0.591319,-2.50971,0.313186,0.903751,-0.20424,-0.164504,0.962248,-0.340767,-1.14334,0.387523,-0.238948,-0.00918106,
0.362258,-0.225835,0.0486107,-1.76331,0.12643,-0.186972,-0.382886,0.61474,0.0120171,0.705883,-0.184126,0.682813,0.0508584,0.0101428,0,0,0,0,0,0,0,0.350591,-0.225919,0.0352403,-1.75984,0.114863,1.38253,0.402279,0.4903,0.00906696,0.611277,-0.113007,0.409594,0.0634552,-0.00160026,1.07074,-26.4607,0.211195,24.9594,1.40594,2.13769,0.0239107,-0.503534,-0.591319,-2.50971,0.313186,0.903751,-0.20424,-0.164504,0.962248,-0.340767,-1.14334,0.387523,-0.238948,-0.00918106,
0.364762,-0.225771,0.0514847,-1.76405,0.129295,-0.186783,-0.382849,0.625895,0.016005,0.718495,-0.184861,0.716398,0.0472527,0.00946824,0,0,0,0,0,0,0,0.350591,-0.225919,0.0352403,-1.75984,0.114863,1.38253,0.402279,0.4903,0.00906696,0.611277,-0.113007,0.409594,0.0634552,-0.00160026,1.07074,-26.4607,0.211195,24.9594,1.40594,2.13769,0.0239107,-1.75638,1.73428,-2.79591,-1.23619,0.253426,1.01518,1.00806,1.01841,1.06702,-1.28873,0.724407,-0.329283,-0.0127188,
0.367303,-0.225694,0.054402,-1.76479,0.132245,-0.1866,-0.382813,0.635373,0.0193998,0.729326,-0.184798,0.737368,0.0458412,0.0088614,0,0,0,0,0,0,0,0.36551,-0.225731,0.052931,-1.76319,0.127384,1.38478,0.402281,0.474279,0.00891611,0.57789,-0.10179,0.372543,0.0858705,-0.000188993,0.66608,-26.9844,-0.33629,25.4315,1.22833,2.28417,0.00376909,-1.75638,1.73428,-2.79591,-1.23619,0.253426,1.01518,1.00806,1.01841,1.06702,-1.28873,0.724407,-0.329283,-0.0127188,
0.369875,-0.225605,0.0573555,-1.76553,0.135245,-0.186414,-0.38278,0.642989,0.0221971,0.738373,-0.184334,0.75001,0.046344,0.00832052,0,0,0,0,0,0,0,0.36551,-0.225731,0.052931,-1.76319,0.127384,1.38478,0.402281,0.474279,0.00891611,0.57789,-0.10179,0.372543,0.0858705,-0.000188993,0.66608,-26.9844,-0.33629,25.4315,1.22833,2.28417,0.00376909,-1.57516,0.842416,-2.67035,-0.665651,0.262234,0.616533,0.644535,0.873339,0.59468,-1.19452,0.587338,-0.288261,-0.00934636,
0.35739,-0.225914,0.043024,-1.76185,0.121153,-0.1874,-0.382971,0.587249,0.00307096,0.672551,-0.177975,0.58054,0.0650631,0.0117234,0,0,0,0,0,0,0,0.36551,-0.225731,0.052931,-1.76319,0.127384,1.38478,0.402281,0.474279,0.00891611,0.57789,-0.10179,0.372543,0.0858705,-0.000188993,0.66608,-26.9844,-0.33629,25.4315,1.22833,2.28417,0.00376909,-0.437854,-0.927717,-2.59005,0.478596,0.959801,-0.3451,-0.273979,0.967727,-0.521735,-1.16623,0.351115,-0.230816,-0.00670132,
0.372058,-0.225737,0.0604477,-1.76511,0.133305,-0.184818,-0.382966,0.56768,0.00213542,0.652285,-0.171532,0.551882,0.0928836,0.0118918,0,0,0,0,0,0,0,0.36551,-0.225731,0.052931,-1.76319,0.127384,1.38478,0.402281,0.474279,0.00891611,0.57789,-0.10179,0.372543,0.0858705,-0.000188993,0.66608,-26.9844,-0.33629,25.4315,1.22833,2.28417,0.00376909,-0.437854,-0.927717,-2.59005,0.478596,0.959801,-0.3451,-0.273979,0.967727,-0.521735,-1.16623,0.351115,-0.230816,-0.00670132,
0.3744,-0.22571,0.0631389,-1.76581,0.135685,-0.184479,-0.382922,0.585482,0.00678508,0.672791,-0.175321,0.594814,0.0846284,0.0109985,0,0,0,0,0,0,0,0.36551,-0.225731,0.052931,-1.76319,0.127384,1.38478,0.402281,0.474279,0.00891611,0.57789,-0.10179,0.372543,0.0858705,-0.000188993,0.66608,-26.9844,-0.33629,25.4315,1.22833,2.28417,0.00376909,-0.65774,-0.54918,-2.32551,0.305964,0.745824,-0.14503,-0.0977349,0.850932,-0.286309,-1.06511,0.451191,-0.239351,-0.00707682,
0.376802,-0.225666,0.0658997,-1.76652,0.138186,-0.184166,-0.382881,0.600545,0.0111666,0.69022,-0.177131,0.625492,0.0782716,0.0101901,0,0,0,0,0,0,0,0.36551,-0.225731,0.052931,-1.76319,0.127384,1.38478,0.402281,0.474279,0.00891611,0.57789,-0.10179,0.372543,0.0858705,-0.000188993,0.66608,-26.9844,-0.33629,25.4315,1.22833,2.28417,0.00376909,-0.65774,-0.54918,-2.32551,0.305964,0.745824,-0.14503,-0.0977349,0.850932,-0.286309,-1.06511,0.451191,-0.239351,-0.00707682,
0.379253,-0.225606,0.0687189,-1.76723,0.140778,-0.18387,-0.382844,0.612879,0.0149725,0.704801,-0.178014,0.647847,0.0741505,0.0094733,0,0,0,0,0,0,0,0.381312,-0.225436,0.0724499,-1.76673,0.141063,1.38788,0.402286,0.510797,0.0082819,0.604602,-0.108355,0.420662,0.101808,0.000852852,0.638309,-26.4092,-0.312487,25.257,2.01019,2.07177,-0.0365141,-1.16317,0.783234,-2.30506,-0.530643,0.446308,0.503956,0.511017,0.874174,0.471833,-1.05959,0.659934,-0.250788,-0.0082996,
0.381744,-0.225533,0.0715859,-1.76795,0.143436,-0.183581,-0.382808,0.622761,0.01818,0.716732,-0.178361,0.664417,0.0720817,0.00883142,0,0,0,0,0,0,0,0.381312,-0.225436,0.0724499,-1.76673,0.141063,1.38788,0.402286,0.510797,0.0082819,0.604602,-0.108355,0.420662,0.101808,0.000852852,0.638309,-26.4092,-0.312487,25.257,2.01019,2.07177,-0.0365141,-1.16317,0.783234,-2.30506,-0.530643,0.446308,0.503956,0.511017,0.874174,0.471833,-1.05959,0.659934,-0.250788,-0.0082996,
0.384266,-0.22545,0.0744908,-1.76866,0.146146,-0.183294,-0.382775,0.630355,0.0208433,0.726235,-0.178378,0.677734,0.0717837,0.00828852,0,0,0,0,0,0,0,0.381312,-0.225436,0.0724499,-1.76673,0.141063,1.38788,0.402286,0.510797,0.0082819,0.604602,-0.108355,0.420662,0.101808,0.000852852,0.638309,-26.4092,-0.312487,25.257,2.01019,2.07177,-0.0365141,-2.41471,1.36276,-1.91194,-0.858612,-0.636217,1.03686,1.04227,0.309866,1.07612,-0.792859,0.704665,-0.233835,-0.0126602,
0.372065,-0.225739,0.060453,-1.76511,0.133213,-0.184794,-0.382967,0.568418,0.00197572,0.652916,-0.171549,0.54124,0.0955954,0.0118396,0,0,0,0,0,0,0,0.381312,-0.225436,0.0724499,-1.76673,0.141063,1.38788,0.402286,0.510797,0.0082819,0.604602,-0.108355,0.420662,0.101808,0.000852852,0.638309,-26.4092,-0.312487,25.257,2.01019,2.07177,-0.0365141,-2.41471,1.36276,-1.91194,-0.858612,-0.636217,1.03686,1.04227,0.309866,1.07612,-0.792859,0.704665,-0.233835,-0.0126602,
0.388079,-0.22542,0.0802386,-1.76863,0.147347,-0.181536,-0.382977,0.583203,0.00420434,0.671061,-0.168028,0.560843,0.109822,0.0107649,0,0,0,0,0,0,0,0.381312,-0.225436,0.0724499,-1.76673,0.141063,1.38788,0.402286,0.510797,0.0082819,0.604602,-0.108355,0.420662,0.101808,0.000852852,0.638309,-26.4092,-0.312487,25.257,2.01019,2.07177,-0.0365141,-1.43909,-0.0522149,-1.5704,0.117483,-0.14294,0.2546,0.3131,0.272641,0.149584,-0.652478,0.512184,-0.170949,-0.00873745,
0.390471,-0.225386,0.082993,-1.76932,0.149689,-0.181122,-0.382937,0.598013,0.00837378,0.688609,-0.17118,0.585647,0.103409,0.00999156,0,0,0,0,0,0,0,0.397523,-0.224933,0.0921195,-1.77011,0.154067,1.39112,0.402289,0.500955,0.0159478,0.599718,-0.0999624,0.391662,0.102327,0.000493581,0.209842,-26.4092,-1.0623,25.5585,2.19329,2.10473,-0.0301054,-0.249895,-0.634356,-1.92333,0.452996,0.879126,-0.265965,-0.205287,0.792373,-0.443636,-0.886576,0.494676,-0.17468,-0.00691505,
0.392911,-0.225337,0.0858051,-1.77001,0.152109,-0.180728,-0.3829,0.609974,0.0122149,0.70302,-0.17286,0.604882,0.0985665,0.00928492,0,0,0,0,0,0,0,0.397523,-0.224933,0.0921195,-1.77011,0.154067,1.39112,0.402289,0.500955,0.0159478,0.599718,-0.0999624,0.391662,0.102327,0.000493581,0.209842,-26.4092,-1.0623,25.5585,2.19329,2.10473,-0.0301054,-0.249895,-0.634356,-1.92333,0.452996,0.879126,-0.265965,-0.205287,0.792373,-0.443636,-0.886576,0.494676,-0.17468,-0.00691505,
0.395389,-0.225275,0.0886635,-1.77071,0.154593,-0.180346,-0.382865,0.619316,0.0155363,0.714596,-0.173809,0.620994,0.095543,0.00868223,0,0,0,0,0,0,0,0.397523,-0.224933,0.0921195,-1.77011,0.154067,1.39112,0.402289,0.500955,0.0159478,0.599718,-0.0999624,0.391662,0.102327,0.000493581,0.209842,-26.4092,-1.0623,25.5585,2.19329,2.10473,-0.0301054,-0.920422,0.19632,-2.28258,-0.183206,0.60456,0.224843,0.246213,0.883868,0.145542,-1.05447,0.619335,-0.242982,-0.00728943,
0.397895,-0.225202,0.0915586,-1.7714,0.157123,-0.179969,-0.382832,0.626704,0.0183543,0.723772,-0.174158,0.632602,0.0941742,0.00813892,0,0,0,0,0,0,0,0.397523,-0.224933,0.0921195,-1.77011,0.154067,1.39112,0.402289,0.500955,0.0159478,0.599718,-0.0999624,0.391662,0.102327,0.000493581,0.209842,-26.4092,-1.0623,25.5585,2.19329,2.10473,-0.0301054,-0.920422,0.19632,-2.28258,-0.183206,0.60456,0.224843,0.246213,0.883868,0.145542,-1.05447,0.619335,-0.242982,-0.00728943,
0.400425,-0.225119,0.0944824,-1.7721,0.159682,-0.179592,-0.382802,0.632391,0.0206938,0.730972,-0.174048,0.639605,0.0942733,0.00764794,0,0,0,0,0,0,0,0.397523,-0.224933,0.0921195,-1.77011,0.154067,1.39112,0.402289,0.500955,0.0159478,0.599718,-0.0999624,0.391662,0.102327,0.000493581,0.209842,-26.4092,-1.0623,25.5585,2.19329,2.10473,-0.0301054,-1.27486,-0.254425,-2.20097,0.0724389,0.236743,0.148749,0.171633,0.611442,0.0700612,-0.955071,0.509374,-0.220414,-0.00936646,
0.388139,-0.225429,0.0802796,-1.76863,0.146617,-0.18141,-0.382981,0.58891,0.00311085,0.675909,-0.167423,0.476736,0.124317,0.0103716,0,0,0,0,0,0,0,0.417744,-0.224113,0.116807,-1.77365,0.168853,1.39521,0.402291,0.478326,0.0205419,0.592494,-0.084652,0.364866,0.103457,-0.000108136,0.66608,-26.0838,-0.487047,25.2847,2.0047,1.9793,-0.0365141,-1.71876,0.142614,-2.12479,-0.202653,-0.124096,0.432721,0.481889,0.474028,0.371954,-0.89154,0.522814,-0.21497,-0.00994569,
0.404267,-0.224876,0.0998743,-1.77196,0.158987,-0.17804,-0.38298,0.581585,0.00620638,0.66969,-0.163835,0.417647,0.138492,0.0101729,0,0,0,0,0,0,0,0.417744,-0.224113,0.116807,-1.77365,0.168853,1.39521,0.402291,0.478326,0.0205419,0.592494,-0.084652,0.364866,0.103457,-0.000108136,0.66608,-26.0838,-0.487047,25.2847,2.0047,1.9793,-0.0365141,-1.71876,0.142614,-2.12479,-0.202653,-0.124096,0.432721,0.481889,0.474028,0.371954,-0.89154,0.522814,-0.21497,-0.00994569,
0.40665,-0.224838,0.102623,-1.77263,0.160691,-0.177495,-0.382942,0.595658,0.00952571,0.687269,-0.167318,0.425995,0.136296,0.00943827,0,0,0,0,0,0,0,0.417744,-0.224113,0.116807,-1.77365,0.168853,1.39521,0.402291,0.478326,0.0205419,0.592494,-0.084652,0.364866,0.103457,-0.000108136,0.66608,-26.0838,-0.487047,25.2847,2.0047,1.9793,-0.0365141,-1.17423,0.478223,-2.08159,-0.434071,0.309878,0.434855,0.475169,0.753125,0.382145,-0.955239,0.567574,-0.236739,-0.0124058,
0.409077,-0.224787,0.105428,-1.7733,0.162423,-0.176957,-0.382907,0.606816,0.0127429,0.701197,-0.169115,0.432996,0.134391,0.00877329,0,0,0,0,0,0,0,0.417744,-0.224113,0.116807,-1.77365,0.168853,1.39521,0.402291,0.478326,0.0205419,0.592494,-0.084652,0.364866,0.103457,-0.000108136,0.66608,-26.0838,-0.487047,25.2847,2.0047,1.9793,-0.0365141,-1.17423,0.478223,-2.08159,-0.434071,0.309878,0.434855,0.475169,0.753125,0.382145,-0.955239,0.567574,-0.236739,-0.0124058,
0.411539,-0.224724,0.108277,-1.77398,0.164174,-0.176424,-0.382874,0.615522,0.0155809,0.712168,-0.169987,0.437698,0.133399,0.00817934,0,0,0,0,0,0,0,0.417744,-0.224113,0.116807,-1.77365,0.168853,1.39521,0.402291,0.478326,0.0205419,0.592494,-0.084652,0.364866,0.103457,-0.000108136,0.66608,-26.0838,-0.487047,25.2847,2.0047,1.9793,-0.0365141,-0.675621,-0.197369,-2.44949,-0.0893908,0.809088,0.0372271,0.0517798,1.00574,-0.0393142,-1.15378,0.517961,-0.266725,-0.00946814,
0.414028,-0.224653,0.11116,-1.77466,0.165932,-0.17589,-0.382844,0.622134,0.0179758,0.720715,-0.170275,0.439694,0.133478,0.00770039,0,0,0,0,0,0,0,0.417744,-0.224113,0.116807,-1.77365,0.168853,1.39521,0.402291,0.478326,0.0205419,0.592494,-0.084652,0.364866,0.103457,-0.000108136,0.66608,-26.0838,-0.487047,25.2847,2.0047,1.9793,-0.0365141,-0.675621,-0.197369,-2.44949,-0.0893908,0.809088,0.0372271,0.0517798,1.00574,-0.0393142,-1.15378,0.517961,-0.266725,-0.00946814,
0.404473,-0.224898,0.100012,-1.77191,0.156361,-0.177765,-0.382995,0.600708,0.00321641,0.685822,-0.159837,0.11828,0.169937,0.00896252,0,0,0,0,0,0,0,0.43401,-0.223478,0.136534,-1.77604,0.179513,1.39887,0.402287,0.489865,0.0321638,0.605663,-0.069479,0.299422,0.11377,-0.000839862,0.765262,-26.6353,-1.0623,25.2094,1.28967,2.15783,-0.0026396,-1.91064,-0.360228,-2.40827,-0.0153944,-0.153519,0.319744,0.33529,0.495659,0.281535,-1.03288,0.472976,-0.27755,-0.0107464,
0.440854,-0.223373,0.144369,-1.77772,0.180964,-0.16967,-0.382997,0.590708,0.00691171,0.679304,-0.153829,0.055856,0.200103,0.00908823,0,0,0,0,0,0,0,0.43401,-0.223478,0.136534,-1.77604,0.179513,1.39887,0.402287,0.489865,0.0321638,0.605663,-0.069479,0.299422,0.11377,-0.000839862,0.765262,-26.6353,-1.0623,25.2094,1.28967,2.15783,-0.0026396,-1.52798,-1.29367,-2.22461,0.605762,-0.0350415,-0.121893,-0.0623412,0.356695,-0.248487,-0.928904,0.320824,-0.234972,-0.00700087,
0.44327,-0.223339,0.147159,-1.77836,0.18101,-0.168862,-0.382963,0.604074,0.00850992,0.69745,-0.158726,0.0113446,0.201852,0.00845103,0,0,0,0,0,0,0,0.43401,-0.223478,0.136534,-1.77604,0.179513,1.39887,0.402287,0.489865,0.0321638,0.605663,-0.069479,0.299422,0.11377,-0.000839862,0.765262,-26.6353,-1.0623,25.2094,1.28967,2.15783,-0.0026396,-1.52798,-1.29367,-2.22461,0.605762,-0.0350415,-0.121893,-0.0623412,0.356695,-0.248487,-0.928904,0.320824,-0.234972,-0.00700087,
0.445725,-0.223297,0.150003,-1.779,0.180917,-0.168056,-0.382931,0.613759,0.0104977,0.710885,-0.161506,-0.0231877,0.201536,0.00793911,0,0,0,0,0,0,0,0.43401,-0.223478,0.136534,-1.77604,0.179513,1.39887,0.402287,0.489865,0.0321638,0.605663,-0.069479,0.299422,0.11377,-0.000839862,0.765262,-26.6353,-1.0623,25.2094,1.28967,2.15783,-0.0026396,-1.80113,0.833657,-2.8535,-0.990787,0.0998444,0.770634,0.819548,0.940084,0.786078,-1.25826,0.529956,-0.28831,-0.0103625,
0.448209,-0.223248,0.152886,-1.77966,0.180705,-0.167254,-0.382901,0.620826,0.0124507,0.720727,-0.163042,-0.0530128,0.20056,0.00749543,0,0,0,0,0,0,0,0.43401,-0.223478,0.136534,-1.77604,0.179513,1.39887,0.402287,0.489865,0.0321638,0.605663,-0.069479,0.299422,0.11377,-0.000839862,0.765262,-26.6353,-1.0623,25.2094,1.28967,2.15783,-0.0026396,-1.80113,0.833657,-2.8535,-0.990787,0.0998444,0.770634,0.819548,0.940084,0.786078,-1.25826,0.529956,-0.28831,-0.0103625,
0.450711,-0.223191,0.155797,-1.78031,0.180392,-0.166455,-0.382873,0.62552,0.0141639,0.727721,-0.163943,-0.07828,0.199645,0.00710844,0,0,0,0,0,0,0,0.449591,-0.222936,0.155047,-1.77797,0.185283,1.40277,0.402295,0.514517,0.0155044,0.621734,-0.0550104,0.0644145,0.134188,0.00097233,0.741459,-26.6591,-0.887743,24.9594,0.831906,2.25762,-0.050247,-0.785182,-0.297727,-2.69833,-0.206319,0.769112,0.054,0.0933023,1.06268,-0.0187979,-1.25628,0.443944,-0.285041,-0.00274763,
0.453224,-0.223128,0.158726,-1.78097,0.179992,-0.165659,-0.382846,0.628313,0.0156136,0.73239,-0.164413,-0.0998584,0.199077,0.00678094,0,0,0,0,0,0,0,0.449591,-0.222936,0.155047,-1.77797,0.185283,1.40277,0.402295,0.514517,0.0155044,0.621734,-0.0550104,0.0644145,0.134188,0.00097233,0.741459,-26.6591,-0.887743,24.9594,0.831906,2.25762,-0.050247,-0.76481,-1.04796,-2.69883,0.202452,0.641383,-0.209345,-0.147994,0.871902,-0.314235,-1.19427,0.252411,-0.244845,-0.00230775,
0.441068,-0.223493,0.144463,-1.77773,0.175735,-0.168749,-0.38301,0.605504,-0.00655101,0.689369,-0.153646,-0.538497,0.296773,0.00833959,0,0,0,0,0,0,0,0.449591,-0.222936,0.155047,-1.77797,0.185283,1.40277,0.402295,0.514517,0.0155044,0.621734,-0.0550104,0.0644145,0.134188,0.00097233,0.741459,-26.6591,-0.887743,24.9594,0.831906,2.25762,-0.050247,-0.76481,-1.04796,-2.69883,0.202452,0.641383,-0.209345,-0.147994,0.871902,-0.314235,-1.19427,0.252411,-0.244845,-0.00230775,
0.456587,-0.223106,0.163018,-1.77956,0.18047,-0.164863,-0.382996,0.593342,-0.0178042,0.684266,-0.14901,-0.554026,0.2924,0.00865709,0,0,0,0,0,0,0,0.449591,-0.222936,0.155047,-1.77797,0.185283,1.40277,0.402295,0.514517,0.0155044,0.621734,-0.0550104,0.0644145,0.134188,0.00097233,0.741459,-26.6591,-0.887743,24.9594,0.831906,2.25762,-0.050247,-1.00596,-0.950225,-2.72251,0.0141164,0.352062,-0.0768902,-0.0191995,0.75234,-0.131886,-1.15274,0.114217,-0.216754,-0.00196996,
0.458974,-0.223173,0.165792,-1.78018,0.177882,-0.163652,-0.382963,0.596583,-0.0166112,0.693436,-0.156121,-0.646973,0.302663,0.00832855,0,0,0,0,0,0,0,0.449591,-0.222936,0.155047,-1.77797,0.185283,1.40277,0.402295,0.514517,0.0155044,0.621734,-0.0550104,0.0644145,0.134188,0.00097233,0.741459,-26.6591,-0.887743,24.9594,0.831906,2.25762,-0.050247,-1.00596,-0.950225,-2.72251,0.0141164,0.352062,-0.0768902,-0.0191995,0.75234,-0.131886,-1.15274,0.114217,-0.216754,-0.00196996,
0.461361,-0.223231,0.168582,-1.78083,0.175033,-0.162423,-0.382931,0.596733,-0.0143995,0.697619,-0.160644,-0.712351,0.3073,0.00803328,0,0,0,0,0,0,0,0.449591,-0.222936,0.155047,-1.77797,0.185283,1.40277,0.402295,0.514517,0.0155044,0.621734,-0.0550104,0.0644145,0.134188,0.00097233,0.741459,-26.6591,-0.887743,24.9594,0.831906,2.25762,-0.050247,-1.14675,0.652744,-3.21273,-1.29344,0.394555,0.567261,0.577904,1.17839,0.67866,-1.37846,0.145675,-0.224252,-0.0057146,
0.46374,-0.223278,0.171376,-1.78148,0.171999,-0.161187,-0.3829,0.594807,-0.0118377,0.698441,-0.16371,-0.758544,0.308919,0.00779137,0,0,0,0,0,0,0,0.466538,-0.222542,0.175464,-1.78005,0.18476,1.40851,0.402288,0.521524,0.00109193,0.596552,-0.0595967,-0.10412,0.201637,-0.000656828,-1.03589,-26.187,-2.63732,25.3323,0.612179,2.28417,0.017502,-1.14675,0.652744,-3.21273,-1.29344,0.394555,0.567261,0.577904,1.17839,0.67866,-1.37846,0.145675,-0.224252,-0.0057146,
0.466106,-0.223315,0.174164,-1.78214,0.168833,-0.159952,-0.382869,0.591512,-0.00922553,0.697017,-0.165814,-0.791371,0.308891,0.00766279,0,0,0,0,0,0,0,0.466538,-0.222542,0.175464,-1.78005,0.18476,1.40851,0.402288,0.521524,0.00109193,0.596552,-0.0595967,-0.10412,0.201637,-0.000656828,-1.03589,-26.187,-2.63732,25.3323,0.612179,2.28417,0.017502,-2.00142,0.572851,-3.22301,-1.27178,-0.236117,0.801913,0.793611,0.875319,0.957528,-1.33349,0.14244,-0.251869,-0.0038524,
