PerkyPenguin/Analysis-on-Approximated-Derivatives/Code_and_Data/PaperData/Real_Robot/Scene_2/contact_change/19/trajectory.csv
Commanded Joint 0 Position,Commanded Joint 1 Position,Commanded Joint 2 Position,Commanded Joint 3 Position,Commanded Joint 4 Position,Commanded Joint 5 Position,Commanded Joint 6 Position,Commanded Joint 0 Velocity,Commanded Joint 1 Velocity,Commanded Joint 2 Velocity,Commanded Joint 3 Velocity,Commanded Joint 4 Velocity,Commanded Joint 5 Velocity,Commanded Joint 6 Velocity,Commanded Joint 0 Torque,Commanded Joint 1 Torque,Commanded Joint 2 Torque,Commanded Joint 3 Torque,Commanded Joint 4 Torque,Commanded Joint 5 Torque,Commanded Joint 6 Torque,Actual Joint 0 Position,Actual Joint 1 Position,Actual Joint 2 Position,Actual Joint 3 Position,Actual Joint 4 Position,Actual Joint 5 Position,Actual Joint 6 Position,Actual Joint 0 Velocity,Actual Joint 1 Velocity,Actual Joint 2 Velocity,Actual Joint 3 Velocity,Actual Joint 4 Velocity,Actual Joint 5 Velocity,Actual Joint 6 Velocity,Actual Joint 0 Torque,Actual Joint 1 Torque,Actual Joint 2 Torque,Actual Joint 3 Torque,Actual Joint 4 Torque,Actual Joint 5 Torque,Actual Joint 6 Torque,EE ext force 0,EE ext force 1,EE ext force 2,EE ext force 3,EE ext force 4,EE ext force 5,joint ext torque 0,joint ext torque 1,joint ext torque 2,joint ext torque 3,joint ext torque 4,joint ext torque 5,joint ext torque 6,
0.0200827,-0.0518311,0.512199,-1.56078,0.0386912,-0.012903,0.532984,0.0109283,0.031442,0.0150432,-0.143902,-0.0690429,0.19977,-0.00123982,0,0,0,0,0,0,0,0.0200182,-0.0519864,0.512095,-1.55934,0.0391023,1.55591,1.3184,0.000774289,-0.000867371,-0.000800019,0.0012872,-0.00656584,0.0001494,0.0011307,0.134464,-27.4089,-0.76079,26.8796,1.21002,3.08617,0.0641939,2.26105,1.94459,2.03107,-1.02185,1.29346,0.173943,0.181761,0.547593,0.185054,0.147322,0.151913,-0.319658,0.0909829,
0.0201405,-0.0516245,0.512277,-1.56139,0.0383382,-0.0120706,0.532978,0.0144577,0.0516372,0.0193279,-0.154732,-0.0882341,0.2081,-0.00133407,0,0,0,0,0,0,0,0.0200121,-0.0519847,0.512097,-1.55934,0.0391185,1.55591,1.3184,-8.69693e-05,-0.000664131,0.000748282,-0.000670703,-0.0162108,-6.13975e-05,0.000948866,0.182071,-27.4327,-0.788561,26.9272,1.11847,3.08617,0.0706026,2.26105,1.94459,2.03107,-1.02185,1.29346,0.173943,0.181761,0.547593,0.185054,0.147322,0.151913,-0.319658,0.0909829,
0.0200073,-0.0519917,0.512094,-1.55934,0.0389731,-0.0148922,0.532999,-0.000465295,-0.000328119,-0.000391483,-0.000110358,-0.00620947,-0.000402363,-9.98769e-06,0,0,0,0,0,0,0,0.0200121,-0.0519847,0.512097,-1.55934,0.0391185,1.55591,1.3184,-8.69693e-05,-0.000664131,0.000748282,-0.000670703,-0.0162108,-6.13975e-05,0.000948866,0.182071,-27.4327,-0.788561,26.9272,1.11847,3.08617,0.0706026,2.15587,1.92961,2.03903,-0.997237,1.21664,0.197114,0.203089,0.505363,0.209052,0.161871,0.16499,-0.318897,0.0909947,
0.0200053,-0.0519928,0.512092,-1.55934,0.038953,-0.0148937,0.532999,-0.000497463,-0.000276353,-0.000424975,-5.68293e-05,-0.00501895,-0.000384129,-4.35645e-06,0,0,0,0,0,0,0,0.0200121,-0.0519847,0.512097,-1.55934,0.0391185,1.55591,1.3184,-8.69693e-05,-0.000664131,0.000748282,-0.000670703,-0.0162108,-6.13975e-05,0.000948866,0.182071,-27.4327,-0.788561,26.9272,1.11847,3.08617,0.0706026,2.15587,1.92961,2.03903,-0.997237,1.21664,0.197114,0.203089,0.505363,0.209052,0.161871,0.16499,-0.318897,0.0909947,
0.0200033,-0.0519937,0.512091,-1.55934,0.0389366,-0.0148952,0.532999,-0.000504358,-0.000236163,-0.000431311,-2.09067e-05,-0.00409909,-0.000357371,-5.98538e-07,0,0,0,0,0,0,0,0.0200121,-0.0519847,0.512097,-1.55934,0.0391185,1.55591,1.3184,-8.69693e-05,-0.000664131,0.000748282,-0.000670703,-0.0162108,-6.13975e-05,0.000948866,0.182071,-27.4327,-0.788561,26.9272,1.11847,3.08617,0.0706026,2.07806,1.64922,2.09039,-0.777768,1.09558,0.090066,0.100454,0.407983,0.0914708,0.235162,0.137866,-0.284447,0.0907261,
0.0200013,-0.0519946,0.512089,-1.55934,0.0389231,-0.0148965,0.532999,-0.000494839,-0.000205837,-0.000420083,2.92068e-06,-0.00338101,-0.000329135,1.85152e-06,0,0,0,0,0,0,0,0.0200121,-0.0519847,0.512097,-1.55934,0.0391185,1.55591,1.3184,-8.69693e-05,-0.000664131,0.000748282,-0.000670703,-0.0162108,-6.13975e-05,0.000948866,0.182071,-27.4327,-0.788561,26.9272,1.11847,3.08617,0.0706026,1.03672,1.07873,1.41845,-0.512272,0.560899,0.121216,0.131908,0.218564,0.118653,0.102676,0.13034,-0.286676,0.0908641,
0.0199994,-0.0519953,0.512087,-1.55934,0.0389119,-0.0148977,0.532999,-0.000475045,-0.000183757,-0.000397926,1.85313e-05,-0.00281445,-0.000303341,3.40152e-06,0,0,0,0,0,0,0,0.0200121,-0.0519847,0.512097,-1.55934,0.0391185,1.55591,1.3184,-8.69693e-05,-0.000664131,0.000748282,-0.000670703,-0.0162108,-6.13975e-05,0.000948866,0.182071,-27.4327,-0.788561,26.9272,1.11847,3.08617,0.0706026,1.03672,1.07873,1.41845,-0.512272,0.560899,0.121216,0.131908,0.218564,0.118653,0.102676,0.13034,-0.286676,0.0908641,
0.0199976,-0.051996,0.512086,-1.55934,0.0389024,-0.0148988,0.532999,-0.000449204,-0.000168469,-0.000369395,2.86255e-05,-0.00236256,-0.000281898,4.33679e-06,0,0,0,0,0,0,0,0.0200149,-0.0520821,0.512098,-1.55992,0.0390732,1.55667,1.31839,-0.000575583,0.000842265,0.0015741,-0.0211856,-0.000109786,0.0206031,-8.41081e-05,0.182071,-27.6073,-0.788561,27.9984,0.782467,3.49724,0.0843355,1.47256,1.72403,0.933196,-1.09608,1.06257,0.293486,0.299834,0.582326,0.313475,-0.130177,0.142091,-0.267171,0.089672,
0.020494,-0.0520687,0.512571,-1.55891,0.0265304,-0.0223688,0.532959,0.00658238,-0.00598394,0.00671644,0.00286163,-0.367494,-0.229097,-0.00107804,0,0,0,0,0,0,0,0.0200149,-0.0520821,0.512098,-1.55992,0.0390732,1.55667,1.31839,-0.000575583,0.000842265,0.0015741,-0.0211856,-0.000109786,0.0206031,-8.41081e-05,0.182071,-27.6073,-0.788561,27.9984,0.782467,3.49724,0.0843355,1.47256,1.72403,0.933196,-1.09608,1.06257,0.293486,0.299834,0.582326,0.313475,-0.130177,0.142091,-0.267171,0.089672,
0.020502,-0.0519908,0.512585,-1.55965,0.0272534,-0.0212901,0.532959,0.00641407,-0.00396554,0.00660686,0.00153012,-0.348548,-0.22083,-0.000997752,0,0,0,0,0,0,0,0.0200149,-0.0520821,0.512098,-1.55992,0.0390732,1.55667,1.31839,-0.000575583,0.000842265,0.0015741,-0.0211856,-0.000109786,0.0206031,-8.41081e-05,0.182071,-27.6073,-0.788561,27.9984,0.782467,3.49724,0.0843355,2.36811,2.12981,0.963153,-1.3928,1.69322,0.225825,0.229139,0.917771,0.25679,-0.189752,0.126452,-0.23513,0.0896686,
0.0205233,-0.052007,0.512607,-1.55964,0.0258408,-0.0221893,0.532955,0.00532748,-0.00404123,0.00551573,0.000974279,-0.353153,-0.224801,-0.00097549,0,0,0,0,0,0,0,0.0200149,-0.0520821,0.512098,-1.55992,0.0390732,1.55667,1.31839,-0.000575583,0.000842265,0.0015741,-0.0211856,-0.000109786,0.0206031,-8.41081e-05,0.182071,-27.6073,-0.788561,27.9984,0.782467,3.49724,0.0843355,2.36811,2.12981,0.963153,-1.3928,1.69322,0.225825,0.229139,0.917771,0.25679,-0.189752,0.126452,-0.23513,0.0896686,
0.0205406,-0.0520229,0.512625,-1.55964,0.0244142,-0.0231006,0.532952,0.00431497,-0.00399586,0.0044973,0.00049331,-0.356629,-0.22784,-0.000953369,0,0,0,0,0,0,0,0.0200149,-0.0520821,0.512098,-1.55992,0.0390732,1.55667,1.31839,-0.000575583,0.000842265,0.0015741,-0.0211856,-0.000109786,0.0206031,-8.41081e-05,0.182071,-27.6073,-0.788561,27.9984,0.782467,3.49724,0.0843355,2.54175,1.95935,1.37187,-1.12835,1.63196,0.0996038,0.0904262,0.794183,0.132149,0.00764771,0.140776,-0.182787,0.0893226,
0.0205541,-0.0520384,0.512639,-1.55964,0.0229775,-0.024021,0.532948,0.00337857,-0.00386179,0.00355432,7.48375e-05,-0.359188,-0.230107,-0.000931806,0,0,0,0,0,0,0,0.0200214,-0.0520797,0.512101,-1.55995,0.0388543,1.5567,1.3184,0.000524818,-6.65656e-05,3.90363e-05,0.00295727,-0.0349295,-0.00474264,-0.00091075,0.00751081,-27.7342,-0.836168,27.1017,0.208431,3.17864,0.0980684,2.26932,2.49907,1.20001,-1.57362,1.53358,0.422729,0.403204,0.791695,0.478419,-0.0891228,0.168865,-0.218129,0.0887837,
0.0205642,-0.052053,0.51265,-1.55964,0.0215335,-0.024948,0.532944,0.00251748,-0.0036646,0.00268642,-0.000290731,-0.360997,-0.231735,-0.000911033,0,0,0,0,0,0,0,0.0200214,-0.0520797,0.512101,-1.55995,0.0388543,1.5567,1.3184,0.000524818,-6.65656e-05,3.90363e-05,0.00295727,-0.0349295,-0.00474264,-0.00091075,0.00751081,-27.7342,-0.836168,27.1017,0.208431,3.17864,0.0980684,2.26932,2.49907,1.20001,-1.57362,1.53358,0.422729,0.403204,0.791695,0.478419,-0.0891228,0.168865,-0.218129,0.0887837,
0.0205711,-0.0520667,0.512658,-1.55964,0.0200848,-0.0258793,0.532941,0.00172911,-0.00342437,0.00189126,-0.000610941,-0.362188,-0.232835,-0.000891165,0,0,0,0,0,0,0,0.0200214,-0.0520797,0.512101,-1.55995,0.0388543,1.5567,1.3184,0.000524818,-6.65656e-05,3.90363e-05,0.00295727,-0.0349295,-0.00474264,-0.00091075,0.00751081,-27.7342,-0.836168,27.1017,0.208431,3.17864,0.0980684,1.70616,2.12823,1.51001,-1.33034,0.954729,0.405252,0.3776,0.397801,0.462864,0.0721891,0.0560554,-0.243841,0.0902145,
0.0210043,-0.0520382,0.513011,-1.55829,-0.00236913,-0.0562181,0.532469,0.00240261,-0.00864394,0.0015088,0.000391077,-1.13588,-1.15379,-0.0109064,0,0,0,0,0,0,0,0.0200214,-0.0520797,0.512101,-1.55995,0.0388543,1.5567,1.3184,0.000524818,-6.65656e-05,3.90363e-05,0.00295727,-0.0349295,-0.00474264,-0.00091075,0.00751081,-27.7342,-0.836168,27.1017,0.208431,3.17864,0.0980684,1.70616,2.12823,1.51001,-1.33034,0.954729,0.405252,0.3776,0.397801,0.462864,0.0721891,0.0560554,-0.243841,0.0902145,
0.0210156,-0.0522205,0.51302,-1.55831,-0.00313958,-0.052305,0.53253,0.00361037,-0.00993615,0.00285649,0.00126285,-1.14081,-1.04584,-0.00969511,0,0,0,0,0,0,0,0.0200214,-0.0520797,0.512101,-1.55995,0.0388543,1.5567,1.3184,0.000524818,-6.65656e-05,3.90363e-05,0.00295727,-0.0349295,-0.00474264,-0.00091075,0.00751081,-27.7342,-0.836168,27.1017,0.208431,3.17864,0.0980684,1.94779,1.79497,1.59385,-1.19621,1.06726,0.178929,0.146909,0.429281,0.239705,0.0580835,-0.083966,-0.280493,0.0906523,
0.0210176,-0.0522529,0.513019,-1.55832,-0.00777005,-0.0565332,0.532491,0.000519217,-0.00809522,-0.000202377,-0.00205142,-1.15762,-1.05706,-0.0095589,0,0,0,0,0,0,0,0.0200214,-0.0520797,0.512101,-1.55995,0.0388543,1.5567,1.3184,0.000524818,-6.65656e-05,3.90363e-05,0.00295727,-0.0349295,-0.00474264,-0.00091075,0.00751081,-27.7342,-0.836168,27.1017,0.208431,3.17864,0.0980684,2.12366,2.14318,1.4373,-1.55613,1.27541,0.286777,0.254496,0.584077,0.360205,-0.0768228,-0.126314,-0.324407,0.0893895,
0.0210082,-0.0522774,0.513007,-1.55834,-0.0124565,-0.0607916,0.532454,-0.00235691,-0.00611764,-0.00305401,-0.00494219,-1.17162,-1.0646,-0.00942333,0,0,0,0,0,0,0,0.0201888,-0.0521329,0.512269,-1.55983,0.0323,1.55601,1.3184,0.00808998,-0.00325835,0.00915448,0.0143866,-0.270242,-0.0945315,0.000742643,-0.603451,-27.2066,-1.463,26.106,-0.395817,2.13769,0.0577852,2.12366,2.14318,1.4373,-1.55613,1.27541,0.286777,0.254496,0.584077,0.360205,-0.0768228,-0.126314,-0.324407,0.0893895,
0.0209881,-0.0522937,0.512984,-1.55837,-0.0171899,-0.065068,0.532417,-0.0050203,-0.00408149,-0.00569931,-0.00746159,-1.18334,-1.0691,-0.00928907,0,0,0,0,0,0,0,0.0201888,-0.0521329,0.512269,-1.55983,0.0323,1.55601,1.3184,0.00808998,-0.00325835,0.00915448,0.0143866,-0.270242,-0.0945315,0.000742643,-0.603451,-27.2066,-1.463,26.106,-0.395817,2.13769,0.0577852,3.01163,3.15131,2.08522,-2.11609,1.64556,0.491369,0.458374,0.663626,0.577219,0.112961,-0.110048,-0.251091,0.0924869,
0.0209582,-0.0523019,0.512952,-1.55841,-0.0219625,-0.0693523,0.53238,-0.00747745,-0.00204504,-0.00814377,-0.00965395,-1.19315,-1.07107,-0.00915646,0,0,0,0,0,0,0,0.0201888,-0.0521329,0.512269,-1.55983,0.0323,1.55601,1.3184,0.00808998,-0.00325835,0.00915448,0.0143866,-0.270242,-0.0945315,0.000742643,-0.603451,-27.2066,-1.463,26.106,-0.395817,2.13769,0.0577852,3.01163,3.15131,2.08522,-2.11609,1.64556,0.491369,0.458374,0.663626,0.577219,0.112961,-0.110048,-0.251091,0.0924869,
0.0209193,-0.0523021,0.51291,-1.55845,-0.026768,-0.073636,0.532344,-0.00973743,-5.08719e-05,-0.0103957,-0.0115573,-1.20137,-1.07094,-0.00902567,0,0,0,0,0,0,0,0.0201888,-0.0521329,0.512269,-1.55983,0.0323,1.55601,1.3184,0.00808998,-0.00325835,0.00915448,0.0143866,-0.270242,-0.0945315,0.000742643,-0.603451,-27.2066,-1.463,26.106,-0.395817,2.13769,0.0577852,3.52465,3.44985,2.82562,-2.37715,1.76339,0.469252,0.430041,0.614042,0.569688,0.21494,-0.285784,-0.366545,0.0947683,
0.0152616,-0.050977,0.506894,-1.56186,0.00396273,-0.0567126,0.528352,-0.162137,0.054126,-0.171564,-0.0841623,-1.03537,-1.22423,-0.0915151,0,0,0,0,0,0,0,0.0201888,-0.0521329,0.512269,-1.55983,0.0323,1.55601,1.3184,0.00808998,-0.00325835,0.00915448,0.0143866,-0.270242,-0.0945315,0.000742643,-0.603451,-27.2066,-1.463,26.106,-0.395817,2.13769,0.0577852,3.26563,3.01285,2.75709,-2.4826,1.66249,0.325397,0.28106,0.604758,0.443636,-0.0408465,-0.613562,-0.639471,0.0937321,
0.0155066,-0.0513193,0.507179,-1.56152,-0.00610515,-0.0587971,0.528847,-0.157909,0.0489333,-0.166658,-0.0764389,-1.05735,-1.23329,-0.0808964,0,0,0,0,0,0,0,0.0207913,-0.0521451,0.512972,-1.55888,0.0128273,1.54621,1.31839,0.0228167,-0.00290013,0.0301644,0.0347017,-0.702719,-0.394503,0.00137003,-1.49212,-27.3335,-2.18505,24.9832,-1.39099,1.49499,0.0376436,3.26563,3.01285,2.75709,-2.4826,1.66249,0.325397,0.28106,0.604758,0.443636,-0.0408465,-0.613562,-0.639471,0.0937321,
0.0148488,-0.0510989,0.506486,-1.56185,-0.010435,-0.063819,0.528528,-0.164443,0.0550899,-0.17318,-0.0808507,-1.08245,-1.25547,-0.0798464,0,0,0,0,0,0,0,0.0207913,-0.0521451,0.512972,-1.55888,0.0128273,1.54621,1.31839,0.0228167,-0.00290013,0.0301644,0.0347017,-0.702719,-0.394503,0.00137003,-1.49212,-27.3335,-2.18505,24.9832,-1.39099,1.49499,0.0376436,2.92852,2.62277,2.91833,-2.4658,1.37931,0.22847,0.180525,0.436489,0.35637,-0.120683,-0.870198,-0.829142,0.0911724,
0.0141676,-0.0508553,0.50577,-1.56218,-0.0148534,-0.0689145,0.528212,-0.170301,0.0609084,-0.17903,-0.0847146,-1.10461,-1.27386,-0.0788052,0,0,0,0,0,0,0,0.0207913,-0.0521451,0.512972,-1.55888,0.0128273,1.54621,1.31839,0.0228167,-0.00290013,0.0301644,0.0347017,-0.702719,-0.394503,0.00137003,-1.49212,-27.3335,-2.18505,24.9832,-1.39099,1.49499,0.0376436,2.92852,2.62277,2.91833,-2.4658,1.37931,0.22847,0.180525,0.436489,0.35637,-0.120683,-0.870198,-0.829142,0.0911724,
0.0134654,-0.0505899,0.505033,-1.56254,-0.01935,-0.0740707,0.527901,-0.175549,0.0663596,-0.184272,-0.0880801,-1.12417,-1.28906,-0.077771,0,0,0,0,0,0,0,0.0207913,-0.0521451,0.512972,-1.55888,0.0128273,1.54621,1.31839,0.0228167,-0.00290013,0.0301644,0.0347017,-0.702719,-0.394503,0.00137003,-1.49212,-27.3335,-2.18505,24.9832,-1.39099,1.49499,0.0376436,2.43891,3.00766,3.3822,-2.73758,0.921142,0.548401,0.506728,0.145171,0.678162,-0.0362393,-0.899825,-0.948935,0.074453,
0.0127444,-0.0503042,0.504277,-1.5629,-0.0239158,-0.0792771,0.527594,-0.180244,0.0714286,-0.188964,-0.090993,-1.14144,-1.3016,-0.0767427,0,0,0,0,0,0,0,0.0207913,-0.0521451,0.512972,-1.55888,0.0128273,1.54621,1.31839,0.0228167,-0.00290013,0.0301644,0.0347017,-0.702719,-0.394503,0.00137003,-1.49212,-27.3335,-2.18505,24.9832,-1.39099,1.49499,0.0376436,2.43891,3.00766,3.3822,-2.73758,0.921142,0.548401,0.506728,0.145171,0.678162,-0.0362393,-0.899825,-0.948935,0.074453,
0.0120067,-0.0499997,0.503505,-1.56327,-0.0285426,-0.0845247,0.527291,-0.184435,0.0761113,-0.193157,-0.0934954,-1.15669,-1.31189,-0.0757192,0,0,0,0,0,0,0,0.0207913,-0.0521451,0.512972,-1.55888,0.0128273,1.54621,1.31839,0.0228167,-0.00290013,0.0301644,0.0347017,-0.702719,-0.394503,0.00137003,-1.49212,-27.3335,-2.18505,24.9832,-1.39099,1.49499,0.0376436,2.65998,2.20439,3.85506,-2.08202,0.945918,0.127532,0.112639,0.0886109,0.212672,0.092278,-0.941711,-1.01447,0.0600448,
0.0101309,-0.0503354,0.501625,-1.56493,0.000366257,-0.0569358,0.524913,-0.31174,0.104097,-0.325075,-0.154691,-0.963148,-1.19983,-0.157641,0,0,0,0,0,0,0,0.0210228,-0.0524987,0.513198,-1.55867,-0.0103683,1.53102,1.31771,-0.0028522,-0.0125926,-0.00232057,-0.00444523,-0.693325,-0.53495,-0.0436584,-3.54321,-25.3618,-4.63683,25.3839,-1.00647,1.16997,-0.0630644,3.64129,0.802919,3.95862,-1.19739,1.72858,-0.778977,-0.770474,0.536004,-0.737052,-0.072299,-1.08357,-1.19015,0.0405291,
0.0106157,-0.0506365,0.502271,-1.56409,-0.0492333,-0.088829,0.525171,-0.309743,0.105831,-0.321987,-0.147452,-1.00621,-1.23432,-0.137401,0,0,0,0,0,0,0,0.0210228,-0.0524987,0.513198,-1.55867,-0.0103683,1.53102,1.31771,-0.0028522,-0.0125926,-0.00232057,-0.00444523,-0.693325,-0.53495,-0.0436584,-3.54321,-25.3618,-4.63683,25.3839,-1.00647,1.16997,-0.0630644,3.64129,0.802919,3.95862,-1.19739,1.72858,-0.778977,-0.770474,0.536004,-0.737052,-0.072299,-1.08357,-1.19015,0.0405291,
0.00934159,-0.0501768,0.500948,-1.56469,-0.053371,-0.0938263,0.524629,-0.318526,0.114915,-0.330816,-0.151183,-1.03444,-1.24932,-0.135445,0,0,0,0,0,0,0,0.0210228,-0.0524987,0.513198,-1.55867,-0.0103683,1.53102,1.31771,-0.0028522,-0.0125926,-0.00232057,-0.00444523,-0.693325,-0.53495,-0.0436584,-3.54321,-25.3618,-4.63683,25.3839,-1.00647,1.16997,-0.0630644,3.84587,-0.404832,3.9119,-0.481778,2.03703,-1.37592,-1.34954,0.769921,-1.367,-0.269495,-1.18177,-1.40739,0.0153027,
0.00803649,-0.049684,0.499593,-1.56531,-0.0576115,-0.0988733,0.524095,-0.326276,0.123212,-0.338606,-0.154405,-1.06012,-1.26174,-0.133505,0,0,0,0,0,0,0,0.0210228,-0.0524987,0.513198,-1.55867,-0.0103683,1.53102,1.31771,-0.0028522,-0.0125926,-0.00232057,-0.00444523,-0.693325,-0.53495,-0.0436584,-3.54321,-25.3618,-4.63683,25.3839,-1.00647,1.16997,-0.0630644,3.84587,-0.404832,3.9119,-0.481778,2.03703,-1.37592,-1.34954,0.769921,-1.367,-0.269495,-1.18177,-1.40739,0.0153027,
0.00670406,-0.0491609,0.498211,-1.56594,-0.0619452,-0.103961,0.523569,-0.333107,0.130759,-0.345475,-0.157154,-1.08341,-1.27201,-0.131577,0,0,0,0,0,0,0,0.0210228,-0.0524987,0.513198,-1.55867,-0.0103683,1.53102,1.31771,-0.0028522,-0.0125926,-0.00232057,-0.00444523,-0.693325,-0.53495,-0.0436584,-3.54321,-25.3618,-4.63683,25.3839,-1.00647,1.16997,-0.0630644,2.08985,0.0977881,3.45654,-0.887191,1.04629,-0.637228,-0.613151,0.369047,-0.61428,-0.394145,-1.01841,-1.50115,-0.00857639,
0.00534758,-0.0486105,0.496805,-1.56658,-0.066363,-0.109083,0.52305,-0.33912,0.137596,-0.351525,-0.159462,-1.10446,-1.28044,-0.129659,0,0,0,0,0,0,0,0.0207321,-0.0528474,0.512711,-1.5591,-0.0315884,1.51404,1.3165,-0.0335382,-0.0119209,-0.0494879,-0.0266475,-0.633474,-0.551925,-0.0503647,-6.08227,-24.4612,-6.98546,24.0866,-1.11084,1.11046,-0.157364,0.50633,0.0470219,2.99831,-0.834362,0.151138,-0.194958,-0.18823,-0.00049223,-0.157887,-0.46088,-0.841262,-1.54442,-0.0377734,
0.00396998,-0.0480355,0.495378,-1.56722,-0.0708567,-0.114232,0.522539,-0.344399,0.143767,-0.356842,-0.161365,-1.12342,-1.28733,-0.127749,0,0,0,0,0,0,0,0.0207321,-0.0528474,0.512711,-1.5591,-0.0315884,1.51404,1.3165,-0.0335382,-0.0119209,-0.0494879,-0.0266475,-0.633474,-0.551925,-0.0503647,-6.08227,-24.4612,-6.98546,24.0866,-1.11084,1.11046,-0.157364,0.50633,0.0470219,2.99831,-0.834362,0.151138,-0.194958,-0.18823,-0.00049223,-0.157887,-0.46088,-0.841262,-1.54442,-0.0377734,
0.00562514,-0.0497316,0.4972,-1.56711,-0.0434251,-0.0869163,0.521441,-0.451715,0.1566,-0.46643,-0.216158,-0.922897,-1.19959,-0.209997,0,0,0,0,0,0,0,0.0207321,-0.0528474,0.512711,-1.5591,-0.0315884,1.51404,1.3165,-0.0335382,-0.0119209,-0.0494879,-0.0266475,-0.633474,-0.551925,-0.0503647,-6.08227,-24.4612,-6.98546,24.0866,-1.11084,1.11046,-0.157364,0.298399,0.274213,3.15688,-0.839937,0.0129772,-0.0172163,-0.0156926,-0.0713808,0.0210124,-0.392223,-0.687566,-1.54355,-0.0642622,
0.0053904,-0.049934,0.49682,-1.56667,-0.0657892,-0.104575,0.521665,-0.436979,0.147897,-0.450334,-0.192989,-0.94433,-1.20269,-0.180365,0,0,0,0,0,0,0,0.0207321,-0.0528474,0.512711,-1.5591,-0.0315884,1.51404,1.3165,-0.0335382,-0.0119209,-0.0494879,-0.0266475,-0.633474,-0.551925,-0.0503647,-6.08227,-24.4612,-6.98546,24.0866,-1.11084,1.11046,-0.157364,0.298399,0.274213,3.15688,-0.839937,0.0129772,-0.0172163,-0.0156926,-0.0713808,0.0210124,-0.392223,-0.687566,-1.54355,-0.0642622,
0.00359924,-0.0492975,0.494975,-1.56746,-0.0697081,-0.109444,0.520955,-0.44779,0.159116,-0.461218,-0.196722,-0.979717,-1.2173,-0.177524,0,0,0,0,0,0,0,0.0207321,-0.0528474,0.512711,-1.5591,-0.0315884,1.51404,1.3165,-0.0335382,-0.0119209,-0.0494879,-0.0266475,-0.633474,-0.551925,-0.0503647,-6.08227,-24.4612,-6.98546,24.0866,-1.11084,1.11046,-0.157364,2.49417,0.455407,2.92845,-1.00692,1.71309,-0.523251,-0.522994,0.899143,-0.478144,-0.642306,-0.694905,-1.49338,-0.0906114,
0.00177014,-0.0486204,0.493092,-1.56826,-0.0737564,-0.114362,0.520256,-0.457275,0.169289,-0.470766,-0.199904,-1.01209,-1.2294,-0.174705,0,0,0,0,0,0,0,0.0207321,-0.0528474,0.512711,-1.5591,-0.0315884,1.51404,1.3165,-0.0335382,-0.0119209,-0.0494879,-0.0266475,-0.633474,-0.551925,-0.0503647,-6.08227,-24.4612,-6.98546,24.0866,-1.11084,1.11046,-0.157364,2.37326,0.805867,2.32816,-1.24719,1.84725,-0.296245,-0.304701,1.07491,-0.236736,-0.784972,-0.550004,-1.40178,-0.121237,
-9.2192e-05,-0.0479064,0.491175,-1.56907,-0.0779227,-0.119319,0.519569,-0.465584,0.178481,-0.479133,-0.202569,-1.04157,-1.23937,-0.171904,0,0,0,0,0,0,0,0.0180604,-0.0533844,0.50916,-1.56102,-0.0614028,1.488,1.31447,-0.0930512,-0.0186723,-0.119637,-0.0596969,-0.705644,-0.655519,-0.0614651,-7.22088,-23.2909,-8.11217,23.9874,-0.426029,1.82641,-0.190323,2.37326,0.805867,2.32816,-1.24719,1.84725,-0.296245,-0.304701,1.07491,-0.236736,-0.784972,-0.550004,-1.40178,-0.121237,
-0.00198357,-0.0471594,0.489229,-1.56989,-0.0821959,-0.124309,0.518892,-0.472845,0.186754,-0.486449,-0.204752,-1.06831,-1.24754,-0.169117,0,0,0,0,0,0,0,0.0180604,-0.0533844,0.50916,-1.56102,-0.0614028,1.488,1.31447,-0.0930512,-0.0186723,-0.119637,-0.0596969,-0.705644,-0.655519,-0.0614651,-7.22088,-23.2909,-8.11217,23.9874,-0.426029,1.82641,-0.190323,0.975361,0.0874596,1.74797,-0.654132,1.00273,-0.208989,-0.232247,0.687962,-0.154168,-0.738624,-0.392713,-1.29821,-0.145811,
-0.00390026,-0.0463827,0.487258,-1.57071,-0.0865659,-0.129326,0.518227,-0.479171,0.194169,-0.492829,-0.206491,-1.0925,-1.2542,-0.166343,0,0,0,0,0,0,0,0.0180604,-0.0533844,0.50916,-1.56102,-0.0614028,1.488,1.31447,-0.0930512,-0.0186723,-0.119637,-0.0596969,-0.705644,-0.655519,-0.0614651,-7.22088,-23.2909,-8.11217,23.9874,-0.426029,1.82641,-0.190323,0.975361,0.0874596,1.74797,-0.654132,1.00273,-0.208989,-0.232247,0.687962,-0.154168,-0.738624,-0.392713,-1.29821,-0.145811,
0.000740871,-0.0491135,0.492134,-1.56948,-0.0604693,-0.102716,0.51806,-0.568658,0.194859,-0.583507,-0.256282,-0.868763,-1.16892,-0.250357,0,0,0,0,0,0,0,0.0180604,-0.0533844,0.50916,-1.56102,-0.0614028,1.488,1.31447,-0.0930512,-0.0186723,-0.119637,-0.0596969,-0.705644,-0.655519,-0.0614651,-7.22088,-23.2909,-8.11217,23.9874,-0.426029,1.82641,-0.190323,0.444746,0.0114201,2.02849,-0.337583,0.430821,-0.0688745,-0.0951362,0.28726,-0.0262802,-0.424866,-0.25526,-1.14141,-0.173095,
-0.00236699,-0.049402,0.488204,-1.57039,-0.0945706,-0.130845,0.517926,-0.556186,0.187102,-0.569462,-0.228295,-0.919364,-1.17609,-0.211296,0,0,0,0,0,0,0,0.0180604,-0.0533844,0.50916,-1.56102,-0.0614028,1.488,1.31447,-0.0930512,-0.0186723,-0.119637,-0.0596969,-0.705644,-0.655519,-0.0614651,-7.22088,-23.2909,-8.11217,23.9874,-0.426029,1.82641,-0.190323,0.444746,0.0114201,2.02849,-0.337583,0.430821,-0.0688745,-0.0951362,0.28726,-0.0262802,-0.424866,-0.25526,-1.14141,-0.173095,
-0.00463814,-0.0486033,0.48588,-1.57132,-0.0984005,-0.1356,0.517096,-0.567786,0.199677,-0.58115,-0.231776,-0.957464,-1.18869,-0.207614,0,0,0,0,0,0,0,0.0143104,-0.0534476,0.504279,-1.5635,-0.0828382,1.46663,1.31199,-0.143315,0.00153817,-0.19823,-0.0905637,-0.749107,-0.754982,-0.0839422,-6.30841,-23.4377,-7.2116,24.4635,-1.10443,1.89232,-0.210464,0.105791,1.13725,2.09747,-0.955268,0.122731,0.561945,0.535158,0.0955272,0.6173,-0.281517,-0.0738644,-0.99857,-0.195192,
-0.00694967,-0.0477594,0.483514,-1.57226,-0.10237,-0.140396,0.51628,-0.577883,0.210966,-0.591322,-0.234697,-0.992495,-1.19912,-0.203961,0,0,0,0,0,0,0,0.0143104,-0.0534476,0.504279,-1.5635,-0.0828382,1.46663,1.31199,-0.143315,0.00153817,-0.19823,-0.0905637,-0.749107,-0.754982,-0.0839422,-6.30841,-23.4377,-7.2116,24.4635,-1.10443,1.89232,-0.210464,0.105791,1.13725,2.09747,-0.955268,0.122731,0.561945,0.535158,0.0955272,0.6173,-0.281517,-0.0738644,-0.99857,-0.195192,
-0.00929627,-0.0468752,0.481114,-1.57321,-0.106469,-0.145227,0.515478,-0.586651,0.221062,-0.600157,-0.237087,-1.02453,-1.2077,-0.200333,0,0,0,0,0,0,0,0.0143104,-0.0534476,0.504279,-1.5635,-0.0828382,1.46663,1.31199,-0.143315,0.00153817,-0.19823,-0.0905637,-0.749107,-0.754982,-0.0839422,-6.30841,-23.4377,-7.2116,24.4635,-1.10443,1.89232,-0.210464,0.357121,1.26639,1.81979,-1.08717,0.333951,0.588319,0.55687,0.222914,0.652806,-0.325741,-0.0893746,-0.904608,-0.223253,
-0.0116732,-0.045955,0.478682,-1.57416,-0.110683,-0.150086,0.514692,-0.594238,0.230052,-0.607806,-0.23898,-1.05369,-1.21472,-0.196727,0,0,0,0,0,0,0,0.0143104,-0.0534476,0.504279,-1.5635,-0.0828382,1.46663,1.31199,-0.143315,0.00153817,-0.19823,-0.0905637,-0.749107,-0.754982,-0.0839422,-6.30841,-23.4377,-7.2116,24.4635,-1.10443,1.89232,-0.210464,0.259637,0.120056,1.00877,-0.508934,0.545147,0.111097,0.0722024,0.462496,0.172427,-0.603019,-0.196306,-0.935429,-0.240304,
-0.0140763,-0.0450029,0.476225,-1.57513,-0.115004,-0.154968,0.513919,-0.60077,0.238019,-0.614398,-0.240414,-1.08014,-1.22042,-0.193141,0,0,0,0,0,0,0,0.0143104,-0.0534476,0.504279,-1.5635,-0.0828382,1.46663,1.31199,-0.143315,0.00153817,-0.19823,-0.0905637,-0.749107,-0.754982,-0.0839422,-6.30841,-23.4377,-7.2116,24.4635,-1.10443,1.89232,-0.210464,0.259637,0.120056,1.00877,-0.508934,0.545147,0.111097,0.0722024,0.462496,0.172427,-0.603019,-0.196306,-0.935429,-0.240304,
-0.00675504,-0.0486059,0.484261,-1.57307,-0.0898471,-0.128978,0.51443,-0.677135,0.230961,-0.691647,-0.288402,-0.847374,-1.14233,-0.279129,0,0,0,0,0,0,0,0.00765117,-0.0533505,0.496259,-1.56719,-0.10502,1.44106,1.30896,-0.236629,0.00917817,-0.264623,-0.119961,-0.655975,-0.7724,-0.0811456,-6.79242,-23.8622,-7.73528,24.7372,-1.26282,1.93261,-0.224197,0.538135,0.541587,0.934688,-0.71685,0.709088,0.249096,0.211915,0.53343,0.312202,-0.546157,-0.122428,-0.803224,-0.249043,
-0.0188039,-0.047018,0.469272,-1.57839,-0.13859,-0.178472,0.511276,-0.674552,0.236276,-0.687704,-0.261082,-0.9334,-1.14765,-0.231162,0,0,0,0,0,0,0,0.00765117,-0.0533505,0.496259,-1.56719,-0.10502,1.44106,1.30896,-0.236629,0.00917817,-0.264623,-0.119961,-0.655975,-0.7724,-0.0811456,-6.79242,-23.8622,-7.73528,24.7372,-1.26282,1.93261,-0.224197,0.538135,0.541587,0.934688,-0.71685,0.709088,0.249096,0.211915,0.53343,0.312202,-0.546157,-0.122428,-0.803224,-0.249043,
-0.0215443,-0.0460258,0.466478,-1.57944,-0.142474,-0.183101,0.510369,-0.68509,0.248037,-0.698328,-0.263639,-0.970965,-1.15734,-0.226747,0,0,0,0,0,0,0,0.00765117,-0.0533505,0.496259,-1.56719,-0.10502,1.44106,1.30896,-0.236629,0.00917817,-0.264623,-0.119961,-0.655975,-0.7724,-0.0811456,-6.79242,-23.8622,-7.73528,24.7372,-1.26282,1.93261,-0.224197,0.832545,1.77167,0.693892,-1.55697,0.9502,0.767742,0.738669,0.677857,0.845272,-0.578792,-0.0325099,-0.656067,-0.261027,
-0.0243207,-0.0449921,0.463649,-1.58051,-0.146496,-0.187762,0.509479,-0.694118,0.258435,-0.707431,-0.265647,-1.00544,-1.16532,-0.222371,0,0,0,0,0,0,0,0.00765117,-0.0533505,0.496259,-1.56719,-0.10502,1.44106,1.30896,-0.236629,0.00917817,-0.264623,-0.119961,-0.655975,-0.7724,-0.0811456,-6.79242,-23.8622,-7.73528,24.7372,-1.26282,1.93261,-0.224197,0.0257842,2.02176,0.193455,-1.86688,0.603109,1.10706,1.07719,0.597278,1.19656,-0.764075,-0.0117777,-0.708739,-0.274917,
-0.027128,-0.0439218,0.460788,-1.58157,-0.150644,-0.19245,0.508607,-0.701805,0.267574,-0.715184,-0.267132,-1.03692,-1.17187,-0.218032,0,0,0,0,0,0,0,0.00765117,-0.0533505,0.496259,-1.56719,-0.10502,1.44106,1.30896,-0.236629,0.00917817,-0.264623,-0.119961,-0.655975,-0.7724,-0.0811456,-6.79242,-23.8622,-7.73528,24.7372,-1.26282,1.93261,-0.224197,0.0257842,2.02176,0.193455,-1.86688,0.603109,1.10706,1.07719,0.597278,1.19656,-0.764075,-0.0117777,-0.708739,-0.274917,
-0.0299614,-0.0428204,0.457901,-1.58265,-0.154905,-0.197147,0.507752,-0.708365,0.275354,-0.72181,-0.268677,-1.06539,-1.17438,-0.213722,0,0,0,0,0,0,0,0.00765117,-0.0533505,0.496259,-1.56719,-0.10502,1.44106,1.30896,-0.236629,0.00917817,-0.264623,-0.119961,-0.655975,-0.7724,-0.0811456,-6.79242,-23.8622,-7.73528,24.7372,-1.26282,1.93261,-0.224197,-0.102767,0.850237,0.134405,-1.10949,0.499915,0.605119,0.567681,0.53307,0.683033,-0.755792,-0.132955,-0.742572,-0.280123,
-0.0205012,-0.045776,0.468636,-1.58085,-0.137104,-0.176994,0.507951,-0.730823,0.280877,-0.722508,-0.321166,-0.891612,-1.12232,-0.296286,0,0,0,0,0,0,0,-0.00110634,-0.0529136,0.486606,-1.57105,-0.124685,1.4169,1.30616,-0.299589,0.0249037,-0.344381,-0.136549,-0.592922,-0.750654,-0.115126,-7.55017,-23.763,-8.46129,24.039,-1.58692,1.30273,-0.304764,-0.102767,0.850237,0.134405,-1.10949,0.499915,0.605119,0.567681,0.53307,0.683033,-0.755792,-0.132955,-0.742572,-0.280123,
-0.0307666,-0.0454991,0.457454,-1.58346,-0.157891,-0.198546,0.507842,-0.750452,0.250916,-0.742419,-0.306907,-0.910329,-0.837002,-0.240896,0,0,0,0,0,0,0,-0.00110634,-0.0529136,0.486606,-1.57105,-0.124685,1.4169,1.30616,-0.299589,0.0249037,-0.344381,-0.136549,-0.592922,-0.750654,-0.115126,-7.55017,-23.763,-8.46129,24.039,-1.58692,1.30273,-0.304764,0.504762,-1.18426,0.0618517,0.179265,0.94804,-0.48721,-0.525086,0.777914,-0.439422,-0.835839,-0.363755,-0.833213,-0.287156,
-0.0338124,-0.0444518,0.45442,-1.58471,-0.161666,-0.201587,0.506899,-0.761449,0.26184,-0.758298,-0.31233,-0.943803,-0.760331,-0.235729,0,0,0,0,0,0,0,-0.00110634,-0.0529136,0.486606,-1.57105,-0.124685,1.4169,1.30616,-0.299589,0.0249037,-0.344381,-0.136549,-0.592922,-0.750654,-0.115126,-7.55017,-23.763,-8.46129,24.039,-1.58692,1.30273,-0.304764,0.799175,-1.81306,0.243214,0.55741,1.07616,-0.85028,-0.87887,0.808577,-0.819449,-0.811288,-0.499564,-0.877386,-0.289273,
-0.0368921,-0.0433639,0.451329,-1.58597,-0.165566,-0.204314,0.505976,-0.769936,0.271969,-0.772785,-0.315545,-0.975075,-0.681591,-0.230785,0,0,0,0,0,0,0,-0.00110634,-0.0529136,0.486606,-1.57105,-0.124685,1.4169,1.30616,-0.299589,0.0249037,-0.344381,-0.136549,-0.592922,-0.750654,-0.115126,-7.55017,-23.763,-8.46129,24.039,-1.58692,1.30273,-0.304764,0.799175,-1.81306,0.243214,0.55741,1.07616,-0.85028,-0.87887,0.808577,-0.819449,-0.811288,-0.499564,-0.877386,-0.289273,
-0.039999,-0.0422405,0.448186,-1.58724,-0.169581,-0.206715,0.505072,-0.776714,0.280857,-0.785797,-0.317565,-1.00366,-0.600353,-0.225948,0,0,0,0,0,0,0,-0.00110634,-0.0529136,0.486606,-1.57105,-0.124685,1.4169,1.30616,-0.299589,0.0249037,-0.344381,-0.136549,-0.592922,-0.750654,-0.115126,-7.55017,-23.763,-8.46129,24.039,-1.58692,1.30273,-0.304764,0.887881,-1.0823,-0.0518529,-0.0849067,1.30745,-0.525587,-0.546482,1.00609,-0.481731,-1.01116,-0.509855,-0.919781,-0.291692,
-0.0431322,-0.0410863,0.445003,-1.58852,-0.173701,-0.208782,0.504187,-0.783323,0.288552,-0.79563,-0.318674,-1.0301,-0.516611,-0.221172,0,0,0,0,0,0,0,-0.0117709,-0.052078,0.475353,-1.57603,-0.143251,1.39478,1.30215,-0.38403,0.0214744,-0.405784,-0.188995,-0.562622,-0.63546,-0.138728,-6.53851,-23.7392,-7.38616,23.7653,-1.25092,1.72661,-0.324905,0.887881,-1.0823,-0.0518529,-0.0849067,1.30745,-0.525587,-0.546482,1.00609,-0.481731,-1.01116,-0.509855,-0.919781,-0.291692,
-0.0275487,-0.0449932,0.460604,-1.58406,-0.154431,-0.195877,0.505839,-0.727852,0.297185,-0.719833,-0.334804,-0.880927,-1.09188,-0.310071,0,0,0,0,0,0,0,-0.0117709,-0.052078,0.475353,-1.57603,-0.143251,1.39478,1.30215,-0.38403,0.0214744,-0.405784,-0.188995,-0.562622,-0.63546,-0.138728,-6.53851,-23.7392,-7.38616,23.7653,-1.25092,1.72661,-0.324905,-0.0851225,-0.472531,-0.589461,-0.602901,0.91304,-0.0128093,-0.0381869,0.928934,0.0504359,-1.2295,-0.417329,-0.988072,-0.29401,
-0.0397651,-0.0445831,0.447784,-1.58874,-0.174236,-0.201919,0.504332,-0.752247,0.26259,-0.744463,-0.33668,-0.891578,-0.252594,-0.255637,0,0,0,0,0,0,0,-0.0117709,-0.052078,0.475353,-1.57603,-0.143251,1.39478,1.30215,-0.38403,0.0214744,-0.405784,-0.188995,-0.562622,-0.63546,-0.138728,-6.53851,-23.7392,-7.38616,23.7653,-1.25092,1.72661,-0.324905,-0.0851225,-0.472531,-0.589461,-0.602901,0.91304,-0.0128093,-0.0381869,0.928934,0.0504359,-1.2295,-0.417329,-0.988072,-0.29401,
-0.0428302,-0.043492,0.444749,-1.5901,-0.177921,-0.202471,0.503329,-0.766287,0.272791,-0.75876,-0.341956,-0.921286,-0.137981,-0.250695,0,0,0,0,0,0,0,-0.0117709,-0.052078,0.475353,-1.57603,-0.143251,1.39478,1.30215,-0.38403,0.0214744,-0.405784,-0.188995,-0.562622,-0.63546,-0.138728,-6.53851,-23.7392,-7.38616,23.7653,-1.25092,1.72661,-0.324905,-1.35561,0.490796,-0.65158,-1.23066,0.0326333,0.736799,0.704857,0.461793,0.820287,-1.15981,-0.310774,-0.958446,-0.293149,
-0.0459434,-0.0423589,0.441665,-1.59147,-0.181718,-0.202616,0.502353,-0.778288,0.283263,-0.770975,-0.341498,-0.949135,-0.0362895,-0.244001,0,0,0,0,0,0,0,-0.0117709,-0.052078,0.475353,-1.57603,-0.143251,1.39478,1.30215,-0.38403,0.0214744,-0.405784,-0.188995,-0.562622,-0.63546,-0.138728,-6.53851,-23.7392,-7.38616,23.7653,-1.25092,1.72661,-0.324905,-1.35561,0.490796,-0.65158,-1.23066,0.0326333,0.736799,0.704857,0.461793,0.820287,-1.15981,-0.310774,-0.958446,-0.293149,
-0.0490977,-0.0411875,0.438539,-1.59282,-0.185617,-0.202434,0.501397,-0.788584,0.292868,-0.781496,-0.33733,-0.974702,0.0455019,-0.238863,0,0,0,0,0,0,0,-0.0117709,-0.052078,0.475353,-1.57603,-0.143251,1.39478,1.30215,-0.38403,0.0214744,-0.405784,-0.188995,-0.562622,-0.63546,-0.138728,-6.53851,-23.7392,-7.38616,23.7653,-1.25092,1.72661,-0.324905,-0.559167,0.254598,-0.380673,-1.08692,0.418424,0.454692,0.428035,0.578501,0.530428,-1.06242,-0.447614,-0.90141,-0.291221,
-0.0522883,-0.0399852,0.435375,-1.59415,-0.189607,-0.201983,0.500462,-0.797656,0.300557,-0.790813,-0.332097,-0.997491,0.112636,-0.23394,0,0,0,0,0,0,0,-0.0258497,-0.0510369,0.460584,-1.58314,-0.162484,1.37863,1.29779,-0.447311,0.0383907,-0.450443,-0.222732,-0.577626,-0.426173,-0.145517,-4.45569,-24.5882,-5.31127,24.5865,-1.01288,2.36382,-0.258072,2.42856,-1.56498,-0.28005,0.11702,2.47005,-1.07775,-1.10088,1.64753,-1.03215,-1.17962,-0.682243,-0.880446,-0.286932,
-0.0555112,-0.0387604,0.432179,-1.59545,-0.193677,-0.201311,0.499545,-0.805726,0.306207,-0.799138,-0.32666,-1.01761,0.168119,-0.229109,0,0,0,0,0,0,0,-0.0258497,-0.0510369,0.460584,-1.58314,-0.162484,1.37863,1.29779,-0.447311,0.0383907,-0.450443,-0.222732,-0.577626,-0.426173,-0.145517,-4.45569,-24.5882,-5.31127,24.5865,-1.01288,2.36382,-0.258072,2.42856,-1.56498,-0.28005,0.11702,2.47005,-1.07775,-1.10088,1.64753,-1.03215,-1.17962,-0.682243,-0.880446,-0.286932,
-0.0425683,-0.041938,0.444976,-1.59179,-0.178329,-0.213268,0.50021,-0.762463,0.319388,-0.755309,-0.396748,-0.930848,-0.497853,-0.311517,0,0,0,0,0,0,0,-0.0258497,-0.0510369,0.460584,-1.58314,-0.162484,1.37863,1.29779,-0.447311,0.0383907,-0.450443,-0.222732,-0.577626,-0.426173,-0.145517,-4.45569,-24.5882,-5.31127,24.5865,-1.01288,2.36382,-0.258072,1.16056,-0.843818,0.721717,-0.074102,1.04615,-0.445922,-0.477104,0.645706,-0.397109,-0.572686,-0.571775,-0.732529,-0.284729,
-0.0581123,-0.0419793,0.428749,-1.59806,-0.198371,-0.192214,0.498961,-0.774798,0.266285,-0.767636,-0.323353,-0.93158,0.195269,-0.253693,0,0,0,0,0,0,0,-0.0258497,-0.0510369,0.460584,-1.58314,-0.162484,1.37863,1.29779,-0.447311,0.0383907,-0.450443,-0.222732,-0.577626,-0.426173,-0.145517,-4.45569,-24.5882,-5.31127,24.5865,-1.01288,2.36382,-0.258072,1.16056,-0.843818,0.721717,-0.074102,1.04615,-0.445922,-0.477104,0.645706,-0.397109,-0.572686,-0.571775,-0.732529,-0.284729,
-0.061246,-0.0408665,0.425643,-1.59929,-0.202211,-0.191502,0.497993,-0.783433,0.278223,-0.776443,-0.306958,-0.959979,0.178105,-0.241911,0,0,0,0,0,0,0,-0.0258497,-0.0510369,0.460584,-1.58314,-0.162484,1.37863,1.29779,-0.447311,0.0383907,-0.450443,-0.222732,-0.577626,-0.426173,-0.145517,-4.45569,-24.5882,-5.31127,24.5865,-1.01288,2.36382,-0.258072,-0.377713,0.0798825,1.16372,-0.514375,-0.422034,0.363393,0.333212,-0.316648,0.414966,-0.0921066,-0.476104,-0.506206,-0.283253,
-0.0644167,-0.0397367,0.422499,-1.6005,-0.20614,-0.190752,0.497046,-0.792665,0.282442,-0.786013,-0.303587,-0.982252,0.187595,-0.23669,0,0,0,0,0,0,0,-0.0411263,-0.0493421,0.444697,-1.59175,-0.181189,1.37289,1.29263,-0.501675,0.0738884,-0.525026,-0.282824,-0.612627,-0.0510609,-0.162887,-5.2174,-24.9889,-5.88652,26.0544,-1.23902,2.58904,-0.170181,0.629226,0.0479848,1.35995,-0.410121,0.103188,0.152142,0.123663,-0.125145,0.198237,0.048974,-0.490319,-0.35817,-0.27608,
-0.067605,-0.0385993,0.419307,-1.60172,-0.210152,-0.189903,0.496119,-0.797088,0.284336,-0.79801,-0.303805,-1.00299,0.212246,-0.231852,0,0,0,0,0,0,0,-0.0411263,-0.0493421,0.444697,-1.59175,-0.181189,1.37289,1.29263,-0.501675,0.0738884,-0.525026,-0.282824,-0.612627,-0.0510609,-0.162887,-5.2174,-24.9889,-5.88652,26.0544,-1.23902,2.58904,-0.170181,0.629226,0.0479848,1.35995,-0.410121,0.103188,0.152142,0.123663,-0.125145,0.198237,0.048974,-0.490319,-0.35817,-0.27608,
-0.0708044,-0.0374553,0.416076,-1.60293,-0.214247,-0.188946,0.495211,-0.799846,0.286008,-0.807778,-0.303122,-1.02377,0.239281,-0.227107,0,0,0,0,0,0,0,-0.0411263,-0.0493421,0.444697,-1.59175,-0.181189,1.37289,1.29263,-0.501675,0.0738884,-0.525026,-0.282824,-0.612627,-0.0510609,-0.162887,-5.2174,-24.9889,-5.88652,26.0544,-1.23902,2.58904,-0.170181,2.2859,2.01307,-0.0422714,-1.96785,1.9396,0.797765,0.782724,1.10956,0.875294,-0.642339,-0.343488,-0.298897,-0.275569,
-0.0578464,-0.0404234,0.428981,-1.59963,-0.198912,-0.207025,0.495934,-0.77204,0.31403,-0.765219,-0.380409,-0.943128,-0.145078,-0.312609,0,0,0,0,0,0,0,-0.0411263,-0.0493421,0.444697,-1.59175,-0.181189,1.37289,1.29263,-0.501675,0.0738884,-0.525026,-0.282824,-0.612627,-0.0510609,-0.162887,-5.2174,-24.9889,-5.88652,26.0544,-1.23902,2.58904,-0.170181,2.2859,2.01307,-0.0422714,-1.96785,1.9396,0.797765,0.782724,1.10956,0.875294,-0.642339,-0.343488,-0.298897,-0.275569,
-0.0747137,-0.0396502,0.411492,-1.60657,-0.219312,-0.193716,0.49392,-0.787524,0.259043,-0.78308,-0.31779,-0.959151,0.244536,-0.253004,0,0,0,0,0,0,0,-0.0411263,-0.0493421,0.444697,-1.59175,-0.181189,1.37289,1.29263,-0.501675,0.0738884,-0.525026,-0.282824,-0.612627,-0.0510609,-0.162887,-5.2174,-24.9889,-5.88652,26.0544,-1.23902,2.58904,-0.170181,3.51217,0.473326,-0.624268,-0.989442,2.92837,-0.152901,-0.179793,1.70803,-0.0839774,-0.799116,-0.467037,-0.194772,-0.26653,
-0.07785,-0.0385639,0.408326,-1.60777,-0.223287,-0.192864,0.492958,-0.784067,0.271575,-0.791498,-0.298359,-0.993797,0.212789,-0.240335,0,0,0,0,0,0,0,-0.0411263,-0.0493421,0.444697,-1.59175,-0.181189,1.37289,1.29263,-0.501675,0.0738884,-0.525026,-0.282824,-0.612627,-0.0510609,-0.162887,-5.2174,-24.9889,-5.88652,26.0544,-1.23902,2.58904,-0.170181,3.51217,0.473326,-0.624268,-0.989442,2.92837,-0.152901,-0.179793,1.70803,-0.0839774,-0.799116,-0.467037,-0.194772,-0.26653,
-0.080998,-0.0374614,0.405147,-1.60894,-0.227373,-0.192032,0.492018,-0.786993,0.275636,-0.794822,-0.293532,-1.02151,0.208165,-0.235188,0,0,0,0,0,0,0,-0.0634991,-0.0453342,0.421947,-1.60236,-0.208355,1.37286,1.28681,-0.550857,0.121965,-0.567225,-0.243519,-0.67009,0.0610941,-0.113324,-3.0354,-27.2344,-3.81163,24.8602,-1.39099,1.58105,-0.26448,2.34134,0.4747,-1.17623,-0.994458,2.20278,0.124845,0.0945913,1.36716,0.195048,-0.78854,-0.423766,-0.062365,-0.259105,
-0.0841554,-0.0363538,0.401958,-1.61011,-0.231556,-0.191157,0.491095,-0.789345,0.276887,-0.797274,-0.293127,-1.04586,0.218655,-0.230554,0,0,0,0,0,0,0,-0.0634991,-0.0453342,0.421947,-1.60236,-0.208355,1.37286,1.28681,-0.550857,0.121965,-0.567225,-0.243519,-0.67009,0.0610941,-0.113324,-3.0354,-27.2344,-3.81163,24.8602,-1.39099,1.58105,-0.26448,1.97994,-0.580419,-0.937553,-0.249192,1.84863,-0.324709,-0.345464,1.1555,-0.281981,-0.675918,-0.495652,-0.110405,-0.2581,
-0.0873179,-0.0352456,0.398763,-1.61129,-0.235828,-0.190198,0.490191,-0.79064,0.27705,-0.798647,-0.293922,-1.06793,0.239841,-0.226033,0,0,0,0,0,0,0,-0.0634991,-0.0453342,0.421947,-1.60236,-0.208355,1.37286,1.28681,-0.550857,0.121965,-0.567225,-0.243519,-0.67009,0.0610941,-0.113324,-3.0354,-27.2344,-3.81163,24.8602,-1.39099,1.58105,-0.26448,1.97994,-0.580419,-0.937553,-0.249192,1.84863,-0.324709,-0.345464,1.1555,-0.281981,-0.675918,-0.495652,-0.110405,-0.2581,
-0.0904805,-0.0341378,0.395568,-1.61246,-0.240181,-0.189137,0.489305,-0.790657,0.27696,-0.798732,-0.294034,-1.08837,0.265248,-0.221642,0,0,0,0,0,0,0,-0.0634991,-0.0453342,0.421947,-1.60236,-0.208355,1.37286,1.28681,-0.550857,0.121965,-0.567225,-0.243519,-0.67009,0.0610941,-0.113324,-3.0354,-27.2344,-3.81163,24.8602,-1.39099,1.58105,-0.26448,1.40131,1.43137,-1.91802,-1.67437,1.96728,0.784405,0.764841,1.40712,0.857032,-1.09188,-0.265209,-0.118569,-0.256991,
-0.074501,-0.0382973,0.411685,-1.60834,-0.21975,-0.203065,0.491013,-0.786299,0.301856,-0.780128,-0.374074,-0.967055,0.041498,-0.309588,0,0,0,0,0,0,0,-0.0634991,-0.0453342,0.421947,-1.60236,-0.208355,1.37286,1.28681,-0.550857,0.121965,-0.567225,-0.243519,-0.67009,0.0610941,-0.113324,-3.0354,-27.2344,-3.81163,24.8602,-1.39099,1.58105,-0.26448,1.40131,1.43137,-1.91802,-1.67437,1.96728,0.784405,0.764841,1.40712,0.857032,-1.09188,-0.265209,-0.118569,-0.256991,
-0.0981011,-0.0355346,0.387536,-1.61699,-0.248402,-0.187849,0.488237,-0.783588,0.250686,-0.793453,-0.311613,-0.993724,0.344356,-0.251899,0,0,0,0,0,0,0,-0.081512,-0.0411214,0.403146,-1.60962,-0.231157,1.3764,1.28307,-0.5518,0.146172,-0.589315,-0.21089,-0.739967,0.142236,-0.109484,-3.97564,-28.6824,-4.50987,25.1578,-1.27564,2.12487,-0.197647,0.448371,0.939115,-2.11605,-1.32072,1.36265,0.715512,0.686481,1.12792,0.786738,-1.07972,-0.25838,-0.118437,-0.254472,
-0.101224,-0.0344896,0.384374,-1.61817,-0.252527,-0.186541,0.487279,-0.780644,0.261246,-0.790381,-0.296241,-1.03105,0.327009,-0.239486,0,0,0,0,0,0,0,-0.081512,-0.0411214,0.403146,-1.60962,-0.231157,1.3764,1.28307,-0.5518,0.146172,-0.589315,-0.21089,-0.739967,0.142236,-0.109484,-3.97564,-28.6824,-4.50987,25.1578,-1.27564,2.12487,-0.197647,0.448371,0.939115,-2.11605,-1.32072,1.36265,0.715512,0.686481,1.12792,0.786738,-1.07972,-0.25838,-0.118437,-0.254472,
-0.104339,-0.0334307,0.38122,-1.61934,-0.256765,-0.185228,0.486341,-0.778931,0.264727,-0.788575,-0.2921,-1.05952,0.328138,-0.234613,0,0,0,0,0,0,0,-0.081512,-0.0411214,0.403146,-1.60962,-0.231157,1.3764,1.28307,-0.5518,0.146172,-0.589315,-0.21089,-0.739967,0.142236,-0.109484,-3.97564,-28.6824,-4.50987,25.1578,-1.27564,2.12487,-0.197647,0.206409,-1.68051,-1.21122,0.545396,0.710246,-0.566094,-0.601241,0.637204,-0.529745,-0.636103,-0.475515,-0.135526,-0.249383,
-0.107448,-0.0323683,0.378073,-1.62051,-0.261096,-0.183872,0.48542,-0.777271,0.26561,-0.786849,-0.291301,-1.08272,0.339039,-0.230287,0,0,0,0,0,0,0,-0.081512,-0.0411214,0.403146,-1.60962,-0.231157,1.3764,1.28307,-0.5518,0.146172,-0.589315,-0.21089,-0.739967,0.142236,-0.109484,-3.97564,-28.6824,-4.50987,25.1578,-1.27564,2.12487,-0.197647,-0.609662,-1.65819,-0.0711216,0.632278,-0.371981,-0.443052,-0.460795,-0.161107,-0.429762,-0.154373,-0.53352,-0.150324,-0.249033,
-0.110549,-0.031307,0.374934,-1.62167,-0.265505,-0.182444,0.484516,-0.775247,0.265326,-0.78478,-0.291427,-1.10228,0.357078,-0.226077,0,0,0,0,0,0,0,-0.081512,-0.0411214,0.403146,-1.60962,-0.231157,1.3764,1.28307,-0.5518,0.146172,-0.589315,-0.21089,-0.739967,0.142236,-0.109484,-3.97564,-28.6824,-4.50987,25.1578,-1.27564,2.12487,-0.197647,-0.609662,-1.65819,-0.0711216,0.632278,-0.371981,-0.443052,-0.460795,-0.161107,-0.429762,-0.154373,-0.53352,-0.150324,-0.249033,
-0.11364,-0.0302496,0.371805,-1.62284,-0.269981,-0.180917,0.483628,-0.772683,0.264342,-0.782192,-0.291785,-1.11909,0.381606,-0.221991,0,0,0,0,0,0,0,-0.081512,-0.0411214,0.403146,-1.60962,-0.231157,1.3764,1.28307,-0.5518,0.146172,-0.589315,-0.21089,-0.739967,0.142236,-0.109484,-3.97564,-28.6824,-4.50987,25.1578,-1.27564,2.12487,-0.197647,-0.704714,0.897203,-0.744968,-1.1743,0.0931844,0.828553,0.814186,0.238555,0.872676,-0.631245,-0.331389,-0.283124,-0.252963,
-0.0980325,-0.0342457,0.387719,-1.61867,-0.248686,-0.193433,0.485449,-0.797773,0.289016,-0.792648,-0.363613,-0.982759,0.232212,-0.306662,0,0,0,0,0,0,0,-0.100938,-0.0353821,0.382962,-1.61688,-0.255457,1.38391,1.27887,-0.609803,0.182953,-0.640765,-0.208556,-0.745085,0.305227,-0.149461,-2.20227,-29.9281,-2.7365,25.1578,-1.20789,1.68084,-0.284622,-0.704714,0.897203,-0.744968,-1.1743,0.0931844,0.828553,0.814186,0.238555,0.872676,-0.631245,-0.331389,-0.283124,-0.252963,
-0.136694,-0.0247985,0.347074,-1.63124,-0.298078,-0.166386,0.480365,-0.781015,0.252963,-0.792861,-0.303687,-0.998959,0.50435,-0.252671,0,0,0,0,0,0,0,-0.100938,-0.0353821,0.382962,-1.61688,-0.255457,1.38391,1.27887,-0.609803,0.182953,-0.640765,-0.208556,-0.745085,0.305227,-0.149461,-2.20227,-29.9281,-2.7365,25.1578,-1.20789,1.68084,-0.284622,-1.19796,0.724768,-1.43635,-1.1446,0.177879,0.784519,0.770255,0.478041,0.82803,-0.990109,-0.313777,-0.414346,-0.252496,
-0.139808,-0.0237671,0.343913,-1.63242,-0.302026,-0.164355,0.479405,-0.778488,0.257861,-0.790092,-0.295066,-0.987043,0.507806,-0.240017,0,0,0,0,0,0,0,-0.100938,-0.0353821,0.382962,-1.61688,-0.255457,1.38391,1.27887,-0.609803,0.182953,-0.640765,-0.208556,-0.745085,0.305227,-0.149461,-2.20227,-29.9281,-2.7365,25.1578,-1.20789,1.68084,-0.284622,-1.19796,0.724768,-1.43635,-1.1446,0.177879,0.784519,0.770255,0.478041,0.82803,-0.990109,-0.313777,-0.414346,-0.252496,
-0.142917,-0.0227324,0.340759,-1.63359,-0.305862,-0.162275,0.478464,-0.777236,0.25867,-0.788673,-0.291824,-0.959035,0.519803,-0.235247,0,0,0,0,0,0,0,-0.100938,-0.0353821,0.382962,-1.61688,-0.255457,1.38391,1.27887,-0.609803,0.182953,-0.640765,-0.208556,-0.745085,0.305227,-0.149461,-2.20227,-29.9281,-2.7365,25.1578,-1.20789,1.68084,-0.284622,0.0806561,-2.12353,-1.49981,0.644708,1.04827,-0.852908,-0.863662,1.00763,-0.838054,-1.04811,-0.610964,-0.452947,-0.245313,
-0.146021,-0.0216997,0.337609,-1.63475,-0.309542,-0.160151,0.47754,-0.77614,0.258172,-0.787454,-0.289066,-0.919998,0.531019,-0.231097,0,0,0,0,0,0,0,-0.100938,-0.0353821,0.382962,-1.61688,-0.255457,1.38391,1.27887,-0.609803,0.182953,-0.640765,-0.208556,-0.745085,0.305227,-0.149461,-2.20227,-29.9281,-2.7365,25.1578,-1.20789,1.68084,-0.284622,0.357496,-1.39574,-1.95938,0.0869671,1.49908,-0.508806,-0.502823,1.32557,-0.500533,-1.28665,-0.592642,-0.464257,-0.247831,
-0.14912,-0.0206712,0.334465,-1.63589,-0.313034,-0.158002,0.476631,-0.774701,0.257114,-0.785922,-0.285596,-0.872927,0.537462,-0.227084,0,0,0,0,0,0,0,-0.119633,-0.0294372,0.363786,-1.62323,-0.27882,1.39584,1.27407,-0.616229,0.191031,-0.637026,-0.205623,-0.749836,0.452718,-0.166676,-2.98779,-29.8805,-3.28795,24.5865,-1.2262,1.62041,-0.190323,0.357496,-1.39574,-1.95938,0.0869671,1.49908,-0.508806,-0.502823,1.32557,-0.500533,-1.28665,-0.592642,-0.464257,-0.247831,
-0.156723,-0.0169505,0.327071,-1.64064,-0.320026,-0.155073,0.471103,-0.830364,0.285182,-0.842782,-0.318614,-0.783938,0.571474,-0.26597,0,0,0,0,0,0,0,-0.119633,-0.0294372,0.363786,-1.62323,-0.27882,1.39584,1.27407,-0.616229,0.191031,-0.637026,-0.205623,-0.749836,0.452718,-0.166676,-2.98779,-29.8805,-3.28795,24.5865,-1.2262,1.62041,-0.190323,-0.90961,0.216447,-2.42707,-0.961767,0.90024,0.473282,0.473333,1.08245,0.498564,-1.45558,-0.428735,-0.478729,-0.247063,
-0.137007,-0.0238372,0.347086,-1.63274,-0.298116,-0.168093,0.477772,-0.811923,0.281073,-0.808818,-0.346603,-1.00059,0.488723,-0.303869,0,0,0,0,0,0,0,-0.119633,-0.0294372,0.363786,-1.62323,-0.27882,1.39584,1.27407,-0.616229,0.191031,-0.637026,-0.205623,-0.749836,0.452718,-0.166676,-2.98779,-29.8805,-3.28795,24.5865,-1.2262,1.62041,-0.190323,-0.90961,0.216447,-2.42707,-0.961767,0.90024,0.473282,0.473333,1.08245,0.498564,-1.45558,-0.428735,-0.478729,-0.247063,
-0.155255,-0.0195033,0.327676,-1.63707,-0.307667,-0.14628,0.475673,-0.776757,0.228981,-0.788884,-0.283737,-0.347631,0.604381,-0.251678,0,0,0,0,0,0,0,-0.119633,-0.0294372,0.363786,-1.62323,-0.27882,1.39584,1.27407,-0.616229,0.191031,-0.637026,-0.205623,-0.749836,0.452718,-0.166676,-2.98779,-29.8805,-3.28795,24.5865,-1.2262,1.62041,-0.190323,-0.885295,-0.944925,-2.34827,-0.218353,0.823676,-0.124206,-0.127313,1.03849,-0.106534,-1.37021,-0.56439,-0.454208,-0.245797,
-0.158339,-0.0185716,0.324545,-1.63818,-0.308899,-0.14389,0.474715,-0.770898,0.232921,-0.782835,-0.27658,-0.308006,0.5974,-0.239642,0,0,0,0,0,0,0,-0.119633,-0.0294372,0.363786,-1.62323,-0.27882,1.39584,1.27407,-0.616229,0.191031,-0.637026,-0.205623,-0.749836,0.452718,-0.166676,-2.98779,-29.8805,-3.28795,24.5865,-1.2262,1.62041,-0.190323,-0.885295,-0.944925,-2.34827,-0.218353,0.823676,-0.124206,-0.127313,1.03849,-0.106534,-1.37021,-0.56439,-0.454208,-0.245797,
-0.1614,-0.0176355,0.321436,-1.63927,-0.309961,-0.141527,0.473774,-0.76546,0.23402,-0.777241,-0.272728,-0.265435,0.590793,-0.235166,0,0,0,0,0,0,0,-0.140285,-0.022758,0.342023,-1.63025,-0.30173,1.41352,1.26855,-0.638047,0.19682,-0.669015,-0.232527,-0.659441,0.58068,-0.161122,-2.04754,-31.527,-2.43498,24.2889,-1.10443,1.60119,-0.130813,-1.25888,-2.33431,-1.86831,0.749788,0.251074,-0.814141,-0.821619,0.660122,-0.805809,-1.06598,-0.675965,-0.402542,-0.24024,
-0.164441,-0.0167006,0.318349,-1.64035,-0.310845,-0.139197,0.472849,-0.760071,0.233726,-0.771714,-0.269841,-0.221063,0.582508,-0.23129,0,0,0,0,0,0,0,-0.140285,-0.022758,0.342023,-1.63025,-0.30173,1.41352,1.26855,-0.638047,0.19682,-0.669015,-0.232527,-0.659441,0.58068,-0.161122,-2.04754,-31.527,-2.43498,24.2889,-1.10443,1.60119,-0.130813,-0.479337,-1.46087,-2.27264,0.249552,0.934876,-0.428463,-0.427604,1.04871,-0.422579,-1.18477,-0.545918,-0.282134,-0.23519,
-0.167459,-0.0157704,0.315285,-1.64142,-0.311546,-0.136908,0.471939,-0.754583,0.232554,-0.766104,-0.267225,-0.175311,0.572354,-0.227532,0,0,0,0,0,0,0,-0.140285,-0.022758,0.342023,-1.63025,-0.30173,1.41352,1.26855,-0.638047,0.19682,-0.669015,-0.232527,-0.659441,0.58068,-0.161122,-2.04754,-31.527,-2.43498,24.2889,-1.10443,1.60119,-0.130813,-0.479337,-1.46087,-2.27264,0.249552,0.934876,-0.428463,-0.427604,1.04871,-0.422579,-1.18477,-0.545918,-0.282134,-0.23519,
-0.170455,-0.0148475,0.312243,-1.64248,-0.312059,-0.134665,0.471043,-0.748925,0.230719,-0.76034,-0.264688,-0.128222,0.56063,-0.223886,0,0,0,0,0,0,0,-0.140285,-0.022758,0.342023,-1.63025,-0.30173,1.41352,1.26855,-0.638047,0.19682,-0.669015,-0.232527,-0.659441,0.58068,-0.161122,-2.04754,-31.527,-2.43498,24.2889,-1.10443,1.60119,-0.130813,-1.36293,0.547772,-1.59586,-0.887413,-0.0189309,0.707058,0.721871,0.322315,0.705365,-0.819641,-0.336142,-0.168588,-0.239015,
-0.156037,-0.0188652,0.327335,-1.63864,-0.314892,-0.1483,0.473188,-0.818724,0.248814,-0.832197,-0.32453,-0.558569,0.580171,-0.300103,0,0,0,0,0,0,0,-0.140285,-0.022758,0.342023,-1.63025,-0.30173,1.41352,1.26855,-0.638047,0.19682,-0.669015,-0.232527,-0.659441,0.58068,-0.161122,-2.04754,-31.527,-2.43498,24.2889,-1.10443,1.60119,-0.130813,-1.36293,0.547772,-1.59586,-0.887413,-0.0189309,0.707058,0.721871,0.322315,0.705365,-0.819641,-0.336142,-0.168588,-0.239015,
-0.175619,-0.0132534,0.306098,-1.64375,-0.310891,-0.128378,0.470241,-0.742073,0.208574,-0.754682,-0.275455,0.0685866,0.53406,-0.251256,0,0,0,0,0,0,0,-0.140285,-0.022758,0.342023,-1.63025,-0.30173,1.41352,1.26855,-0.638047,0.19682,-0.669015,-0.232527,-0.659441,0.58068,-0.161122,-2.04754,-31.527,-2.43498,24.2889,-1.10443,1.60119,-0.130813,-1.07621,-1.80696,-1.53421,0.799661,0.119294,-0.604521,-0.597467,0.503742,-0.614175,-0.751988,-0.345549,-0.187969,-0.235519,
-0.178552,-0.0124089,0.303116,-1.64483,-0.310528,-0.126308,0.469281,-0.733118,0.211117,-0.745506,-0.268973,0.0905654,0.517599,-0.239957,0,0,0,0,0,0,0,-0.160746,-0.0164693,0.320736,-1.63717,-0.314008,1.43265,1.26384,-0.666385,0.212516,-0.691684,-0.207705,-0.262301,0.620591,-0.145435,-0.857357,-32.9988,-1.13768,26.106,-0.11475,1.95275,-0.170181,-0.410911,-1.63238,-1.00884,0.91472,0.301699,-0.600609,-0.593571,0.494463,-0.612093,-0.507314,-0.162311,-0.109441,-0.235075,
-0.181452,-0.0115666,0.300166,-1.6459,-0.310069,-0.12427,0.468338,-0.725182,0.210595,-0.737412,-0.266963,0.114951,0.50943,-0.235745,0,0,0,0,0,0,0,-0.160746,-0.0164693,0.320736,-1.63717,-0.314008,1.43265,1.26384,-0.666385,0.212516,-0.691684,-0.207705,-0.262301,0.620591,-0.145435,-0.857357,-32.9988,-1.13768,26.106,-0.11475,1.95275,-0.170181,-0.410911,-1.63238,-1.00884,0.91472,0.301699,-0.600609,-0.593571,0.494463,-0.612093,-0.507314,-0.162311,-0.109441,-0.235075,
-0.184324,-0.0107314,0.297247,-1.64696,-0.309505,-0.122243,0.46741,-0.717812,0.20879,-0.729902,-0.266355,0.140933,0.506681,-0.232101,0,0,0,0,0,0,0,-0.160746,-0.0164693,0.320736,-1.63717,-0.314008,1.43265,1.26384,-0.666385,0.212516,-0.691684,-0.207705,-0.262301,0.620591,-0.145435,-0.857357,-32.9988,-1.13768,26.106,-0.11475,1.95275,-0.170181,0.596118,0.602046,-0.57107,-0.346135,0.809376,0.499038,0.51699,0.576308,0.484303,-0.365681,0.115791,-0.0163996,-0.238815,
-0.187167,-0.00990621,0.294356,-1.64803,-0.308831,-0.120207,0.466496,-0.710803,0.206299,-0.722767,-0.266238,0.168398,0.509012,-0.228584,0,0,0,0,0,0,0,-0.160746,-0.0164693,0.320736,-1.63717,-0.314008,1.43265,1.26384,-0.666385,0.212516,-0.691684,-0.207705,-0.262301,0.620591,-0.145435,-0.857357,-32.9988,-1.13768,26.106,-0.11475,1.95275,-0.170181,0.596118,0.602046,-0.57107,-0.346135,0.809376,0.499038,0.51699,0.576308,0.484303,-0.365681,0.115791,-0.0163996,-0.238815,
-0.189983,-0.00909286,0.291492,-1.64909,-0.308041,-0.118139,0.465595,-0.704045,0.203336,-0.7159,-0.266391,0.197571,0.516996,-0.225204,0,0,0,0,0,0,0,-0.160746,-0.0164693,0.320736,-1.63717,-0.314008,1.43265,1.26384,-0.666385,0.212516,-0.691684,-0.207705,-0.262301,0.620591,-0.145435,-0.857357,-32.9988,-1.13768,26.106,-0.11475,1.95275,-0.170181,-0.0137398,1.09252,-0.54341,-0.606011,0.532986,0.743103,0.76177,0.485033,0.727938,-0.48096,0.214401,-0.172635,-0.237614,
-0.177259,-0.0126489,0.304603,-1.6451,-0.317981,-0.129506,0.46785,-0.800143,0.230875,-0.814443,-0.308667,-0.0843704,0.518121,-0.29744,0,0,0,0,0,0,0,-0.181802,-0.00991986,0.298859,-1.64368,-0.319952,1.45158,1.25972,-0.682834,0.215931,-0.712077,-0.187402,-0.0570972,0.625514,-0.124617,0.539127,-34.8436,0.488905,26.106,0.269772,1.4016,-0.230606,-0.0137398,1.09252,-0.54341,-0.606011,0.532986,0.743103,0.76177,0.485033,0.727938,-0.48096,0.214401,-0.172635,-0.237614,
-0.216202,-0.000670273,0.263791,-1.65678,-0.311199,-0.09015,0.461436,-0.699529,0.19419,-0.713099,-0.274327,0.311356,0.573302,-0.254556,0,0,0,0,0,0,0,-0.181802,-0.00991986,0.298859,-1.64368,-0.319952,1.45158,1.25972,-0.682834,0.215931,-0.712077,-0.187402,-0.0570972,0.625514,-0.124617,0.539127,-34.8436,0.488905,26.106,0.269772,1.4016,-0.230606,-0.286542,-0.133439,-1.30511,0.229666,0.848088,0.0484309,0.0605158,0.961795,0.0366717,-0.909604,0.235195,-0.361925,-0.236471,
-0.218958,0.000112203,0.260982,-1.65785,-0.309937,-0.0879131,0.460465,-0.689106,0.195619,-0.702327,-0.267318,0.315504,0.559209,-0.24262,0,0,0,0,0,0,0,-0.181802,-0.00991986,0.298859,-1.64368,-0.319952,1.45158,1.25972,-0.682834,0.215931,-0.712077,-0.187402,-0.0570972,0.625514,-0.124617,0.539127,-34.8436,0.488905,26.106,0.269772,1.4016,-0.230606,-0.887431,0.423475,-2.11495,0.0351999,0.866323,0.357456,0.377994,1.17439,0.337582,-1.23902,0.45164,-0.390386,-0.237833,
-0.221677,0.000890681,0.258211,-1.6589,-0.308646,-0.0857273,0.459511,-0.679639,0.19462,-0.692735,-0.263479,0.322794,0.546462,-0.238588,0,0,0,0,0,0,0,-0.181802,-0.00991986,0.298859,-1.64368,-0.319952,1.45158,1.25972,-0.682834,0.215931,-0.712077,-0.187402,-0.0570972,0.625514,-0.124617,0.539127,-34.8436,0.488905,26.106,0.269772,1.4016,-0.230606,-0.887431,0.423475,-2.11495,0.0351999,0.866323,0.357456,0.377994,1.17439,0.337582,-1.23902,0.45164,-0.390386,-0.237833,
-0.22436,0.0016607,0.255476,-1.65995,-0.307316,-0.0835948,0.45857,-0.670844,0.192505,-0.683827,-0.260613,0.33251,0.533126,-0.235199,0,0,0,0,0,0,0,-0.181802,-0.00991986,0.298859,-1.64368,-0.319952,1.45158,1.25972,-0.682834,0.215931,-0.712077,-0.187402,-0.0570972,0.625514,-0.124617,0.539127,-34.8436,0.488905,26.106,0.269772,1.4016,-0.230606,-0.456397,2.67313,-2.44843,-1.2246,1.32644,1.55456,1.58342,1.38053,1.52796,-1.38102,0.747267,-0.313118,-0.241576,
-0.22701,0.00241969,0.252774,-1.66098,-0.305938,-0.0815192,0.457642,-0.662517,0.189748,-0.675397,-0.258041,0.344481,0.518897,-0.231958,0,0,0,0,0,0,0,-0.181802,-0.00991986,0.298859,-1.64368,-0.319952,1.45158,1.25972,-0.682834,0.215931,-0.712077,-0.187402,-0.0570972,0.625514,-0.124617,0.539127,-34.8436,0.488905,26.106,0.269772,1.4016,-0.230606,-0.456397,2.67313,-2.44843,-1.2246,1.32644,1.55456,1.58342,1.38053,1.52796,-1.38102,0.747267,-0.313118,-0.241576,
-0.217869,-0.000385365,0.262063,-1.65781,-0.309661,-0.0914577,0.459203,-0.750053,0.207937,-0.764767,-0.300593,0.364185,0.543066,-0.297698,0,0,0,0,0,0,0,-0.211419,-0.000636061,0.268171,-1.65094,-0.319443,1.47892,1.2536,-0.677156,0.215649,-0.707787,-0.169026,0.0629642,0.662868,-0.169124,0.919986,-34.8952,1.01259,25.1578,0.202938,1.52794,-0.210464,-1.03141,1.00073,-2.57557,-0.132412,0.997844,0.654266,0.678317,1.35411,0.630866,-1.4234,0.651114,-0.381793,-0.241993,
-0.244201,0.00763482,0.234711,-1.66326,-0.300918,-0.064328,0.455285,-0.645781,0.167556,-0.659149,-0.253012,0.491907,0.445988,-0.247482,0,0,0,0,0,0,0,-0.211419,-0.000636061,0.268171,-1.65094,-0.319443,1.47892,1.2536,-0.677156,0.215649,-0.707787,-0.169026,0.0629642,0.662868,-0.169124,0.919986,-34.8952,1.01259,25.1578,0.202938,1.52794,-0.210464,-1.07306,-1.02078,-2.57089,1.1058,0.965482,-0.457434,-0.443062,1.45781,-0.470565,-1.42795,0.463353,-0.445339,-0.237372,
-0.246744,0.0082983,0.232114,-1.66427,-0.298948,-0.0625954,0.454311,-0.635862,0.16587,-0.649144,-0.251341,0.492305,0.433143,-0.243572,0,0,0,0,0,0,0,-0.211419,-0.000636061,0.268171,-1.65094,-0.319443,1.47892,1.2536,-0.677156,0.215649,-0.707787,-0.169026,0.0629642,0.662868,-0.169124,0.919986,-34.8952,1.01259,25.1578,0.202938,1.52794,-0.210464,-1.07306,-1.02078,-2.57089,1.1058,0.965482,-0.457434,-0.443062,1.45781,-0.470565,-1.42795,0.463353,-0.445339,-0.237372,
-0.249252,0.00895138,0.229554,-1.66527,-0.296972,-0.0608914,0.45335,-0.626843,0.163269,-0.640042,-0.250888,0.494101,0.426011,-0.240238,0,0,0,0,0,0,0,-0.211419,-0.000636061,0.268171,-1.65094,-0.319443,1.47892,1.2536,-0.677156,0.215649,-0.707787,-0.169026,0.0629642,0.662868,-0.169124,0.919986,-34.8952,1.01259,25.1578,0.202938,1.52794,-0.210464,-1.39325,1.06847,-2.01388,-0.257919,0.449629,0.697831,0.720775,0.912737,0.674872,-1.17322,0.508029,-0.363037,-0.237766,
-0.251726,0.00959236,0.227027,-1.66627,-0.294983,-0.0591949,0.452402,-0.618504,0.160245,-0.631621,-0.250862,0.497227,0.424121,-0.237025,0,0,0,0,0,0,0,-0.211419,-0.000636061,0.268171,-1.65094,-0.319443,1.47892,1.2536,-0.677156,0.215649,-0.707787,-0.169026,0.0629642,0.662868,-0.169124,0.919986,-34.8952,1.01259,25.1578,0.202938,1.52794,-0.210464,-1.39325,1.06847,-2.01388,-0.257919,0.449629,0.697831,0.720775,0.912737,0.674872,-1.17322,0.508029,-0.363037,-0.237766,
-0.254168,0.0102202,0.224532,-1.66728,-0.292976,-0.0574836,0.451466,-0.610703,0.156964,-0.623742,-0.25107,0.50187,0.427823,-0.233939,0,0,0,0,0,0,0,-0.233149,0.00598866,0.245222,-1.65693,-0.314293,1.49995,1.24868,-0.683492,0.203655,-0.718639,-0.196756,0.236626,0.636245,-0.134616,1.60236,-36.1171,1.63942,25.733,0.0436365,1.68084,-0.177505,-1.27118,2.18904,-1.96222,-0.974969,0.397968,1.34443,1.3712,0.742464,1.31536,-1.05318,0.531862,-0.220114,-0.235074,
-0.242911,0.00700748,0.235998,-1.66307,-0.298847,-0.0677984,0.454331,-0.697488,0.173475,-0.712273,-0.282392,0.608545,0.418626,-0.299897,0,0,0,0,0,0,0,-0.233149,0.00598866,0.245222,-1.65693,-0.314293,1.49995,1.24868,-0.683492,0.203655,-0.718639,-0.196756,0.236626,0.636245,-0.134616,1.60236,-36.1171,1.63942,25.733,0.0436365,1.68084,-0.177505,-1.27118,2.18904,-1.96222,-0.974969,0.397968,1.34443,1.3712,0.742464,1.31536,-1.05318,0.531862,-0.220114,-0.235074,
-0.262197,0.0129482,0.215553,-1.66815,-0.291832,-0.0488931,0.451251,-0.620889,0.143732,-0.634395,-0.255781,0.625719,0.416867,-0.260104,0,0,0,0,0,0,0,-0.233149,0.00598866,0.245222,-1.65693,-0.314293,1.49995,1.24868,-0.683492,0.203655,-0.718639,-0.196756,0.236626,0.636245,-0.134616,1.60236,-36.1171,1.63942,25.733,0.0436365,1.68084,-0.177505,-1.43887,-0.422908,-1.86901,0.61078,0.165482,-0.0879186,-0.0702361,0.738442,-0.102741,-0.940546,0.30024,-0.218765,-0.22386,
-0.264639,0.0135129,0.213057,-1.66916,-0.289312,-0.0472789,0.450211,-0.610439,0.141189,-0.623972,-0.253713,0.630098,0.40356,-0.260133,0,0,0,0,0,0,0,-0.233149,0.00598866,0.245222,-1.65693,-0.314293,1.49995,1.24868,-0.683492,0.203655,-0.718639,-0.196756,0.236626,0.636245,-0.134616,1.60236,-36.1171,1.63942,25.733,0.0436365,1.68084,-0.177505,-0.709789,-1.32878,-1.84433,1.12234,0.638169,-0.580981,-0.559176,1.01476,-0.597626,-0.943638,0.176221,-0.220087,-0.220814,
-0.267033,0.0140757,0.21061,-1.67015,-0.286801,-0.0457246,0.449215,-0.598551,0.140701,-0.611667,-0.247742,0.627562,0.388563,-0.24902,0,0,0,0,0,0,0,-0.233149,0.00598866,0.245222,-1.65693,-0.314293,1.49995,1.24868,-0.683492,0.203655,-0.718639,-0.196756,0.236626,0.636245,-0.134616,1.60236,-36.1171,1.63942,25.733,0.0436365,1.68084,-0.177505,-0.709789,-1.32878,-1.84433,1.12234,0.638169,-0.580981,-0.559176,1.01476,-0.597626,-0.943638,0.176221,-0.220087,-0.220814,
-0.269384,0.0146284,0.208207,-1.67113,-0.284298,-0.0442012,0.448234,-0.587795,0.138173,-0.600866,-0.245461,0.625774,0.38085,-0.245265,0,0,0,0,0,0,0,-0.233149,0.00598866,0.245222,-1.65693,-0.314293,1.49995,1.24868,-0.683492,0.203655,-0.718639,-0.196756,0.236626,0.636245,-0.134616,1.60236,-36.1171,1.63942,25.733,0.0436365,1.68084,-0.177505,0.287308,0.876227,-1.87471,-0.245784,1.29702,0.664245,0.698757,1.17424,0.626869,-0.960322,0.295588,-0.124536,-0.218893,
-0.271696,0.0151682,0.205843,-1.67211,-0.2818,-0.0426895,0.447265,-0.57799,0.134939,-0.591016,-0.2444,0.624504,0.377933,-0.242094,0,0,0,0,0,0,0,-0.254572,0.0121811,0.222931,-1.66308,-0.303868,1.51855,1.2442,-0.664938,0.180293,-0.701205,-0.197053,0.401934,0.541362,-0.150582,1.52698,-36.5932,1.41328,26.1813,-0.13306,1.56823,-0.170181,0.287308,0.876227,-1.87471,-0.245784,1.29702,0.664245,0.698757,1.17424,0.626869,-0.960322,0.295588,-0.124536,-0.218893,
-0.273971,0.0156958,0.203516,-1.67308,-0.279306,-0.041202,0.446309,-0.568714,0.131898,-0.581679,-0.242303,0.623551,0.371887,-0.239058,0,0,0,0,0,0,0,-0.254572,0.0121811,0.222931,-1.66308,-0.303868,1.51855,1.2442,-0.664938,0.180293,-0.701205,-0.197053,0.401934,0.541362,-0.150582,1.52698,-36.5932,1.41328,26.1813,-0.13306,1.56823,-0.170181,-0.0614116,-0.501506,-1.11793,0.556208,0.719727,-0.131978,-0.0984523,0.815798,-0.162576,-0.672083,0.161903,-0.189548,-0.21191,
-0.266038,0.0135182,0.211588,-1.66999,-0.282886,-0.0488378,0.448183,-0.648292,0.146608,-0.662975,-0.275817,0.787452,0.363506,-0.299258,0,0,0,0,0,0,0,-0.254572,0.0121811,0.222931,-1.66308,-0.303868,1.51855,1.2442,-0.664938,0.180293,-0.701205,-0.197053,0.401934,0.541362,-0.150582,1.52698,-36.5932,1.41328,26.1813,-0.13306,1.56823,-0.170181,-0.0614116,-0.501506,-1.11793,0.556208,0.719727,-0.131978,-0.0984523,0.815798,-0.162576,-0.672083,0.161903,-0.189548,-0.21191,
-0.284071,0.0184176,0.192767,-1.67486,-0.272959,-0.0325774,0.445736,-0.558175,0.111006,-0.571575,-0.241293,0.709402,0.304775,-0.25977,0,0,0,0,0,0,0,-0.254572,0.0121811,0.222931,-1.66308,-0.303868,1.51855,1.2442,-0.664938,0.180293,-0.701205,-0.197053,0.401934,0.541362,-0.150582,1.52698,-36.5932,1.41328,26.1813,-0.13306,1.56823,-0.170181,-1.26754,-2.56121,-0.311405,1.7691,-0.428154,-1.35039,-1.32741,0.237312,-1.35838,-0.36794,-0.0054349,-0.306856,-0.207534,
-0.286254,0.018859,0.190532,-1.6758,-0.270165,-0.0314287,0.444738,-0.545912,0.110351,-0.558932,-0.235145,0.698589,0.287164,-0.249591,0,0,0,0,0,0,0,-0.254572,0.0121811,0.222931,-1.66308,-0.303868,1.51855,1.2442,-0.664938,0.180293,-0.701205,-0.197053,0.401934,0.541362,-0.150582,1.52698,-36.5932,1.41328,26.1813,-0.13306,1.56823,-0.170181,-1.26754,-2.56121,-0.311405,1.7691,-0.428154,-1.35039,-1.32741,0.237312,-1.35838,-0.36794,-0.0054349,-0.306856,-0.207534,
-0.288394,0.0192899,0.18834,-1.67673,-0.267409,-0.0303218,0.443754,-0.534889,0.107728,-0.54791,-0.232733,0.688961,0.276727,-0.24605,0,0,0,0,0,0,0,-0.275192,0.0185465,0.201622,-1.669,-0.289884,1.53505,1.23949,-0.648099,0.198914,-0.660145,-0.182334,0.476436,0.498761,-0.175921,3.1496,-37.216,2.93672,26.106,0.116879,1.48858,-0.224197,-1.53714,-1.85188,-0.28331,1.35084,-0.590879,-0.998059,-0.972314,0.123821,-1.00994,-0.386694,0.0549393,-0.331644,-0.201036,
-0.290494,0.0197078,0.186188,-1.67765,-0.264689,-0.0292381,0.442782,-0.524915,0.104462,-0.537929,-0.231571,0.680072,0.270925,-0.243039,0,0,0,0,0,0,0,-0.275192,0.0185465,0.201622,-1.669,-0.289884,1.53505,1.23949,-0.648099,0.198914,-0.660145,-0.182334,0.476436,0.498761,-0.175921,3.1496,-37.216,2.93672,26.106,0.116879,1.48858,-0.224197,-1.22278,0.121482,-0.472771,0.169708,-0.241815,0.0925727,0.126274,0.217244,0.0620698,-0.527585,0.188605,-0.340381,-0.202828,
-0.292557,0.0201117,0.184073,-1.67858,-0.262001,-0.0281608,0.441821,-0.515775,0.100986,-0.528772,-0.230905,0.671886,0.269325,-0.240138,0,0,0,0,0,0,0,-0.275192,0.0185465,0.201622,-1.669,-0.289884,1.53505,1.23949,-0.648099,0.198914,-0.660145,-0.182334,0.476436,0.498761,-0.175921,3.1496,-37.216,2.93672,26.106,0.116879,1.48858,-0.224197,-1.22278,0.121482,-0.472771,0.169708,-0.241815,0.0925727,0.126274,0.217244,0.0620698,-0.527585,0.188605,-0.340381,-0.202828,
-0.285263,0.018302,0.191503,-1.67567,-0.265826,-0.0339976,0.443791,-0.588963,0.112682,-0.603509,-0.26263,0.880171,0.267711,-0.297267,0,0,0,0,0,0,0,-0.275192,0.0185465,0.201622,-1.669,-0.289884,1.53505,1.23949,-0.648099,0.198914,-0.660145,-0.182334,0.476436,0.498761,-0.175921,3.1496,-37.216,2.93672,26.106,0.116879,1.48858,-0.224197,0.301426,0.0235835,-2.48679,0.474074,1.88815,0.105636,0.139923,1.85122,0.071093,-1.51152,0.305854,-0.475465,-0.202872,
-0.302493,0.0241538,0.173665,-1.68058,-0.257891,-0.0190187,0.44103,-0.507185,0.0878385,-0.520664,-0.235884,0.70549,0.270792,-0.260687,0,0,0,0,0,0,0,-0.275192,0.0185465,0.201622,-1.669,-0.289884,1.53505,1.23949,-0.648099,0.198914,-0.660145,-0.182334,0.476436,0.498761,-0.175921,3.1496,-37.216,2.93672,26.106,0.116879,1.48858,-0.224197,-0.393017,-2.07241,-2.27113,1.79042,1.31032,-1.11175,-1.09174,1.69854,-1.11519,-1.39692,0.211075,-0.517704,-0.197473,
-0.304473,0.024499,0.171632,-1.6815,-0.255123,-0.0179925,0.440027,-0.495023,0.0863114,-0.508131,-0.229448,0.692041,0.256568,-0.250766,0,0,0,0,0,0,0,-0.275192,0.0185465,0.201622,-1.669,-0.289884,1.53505,1.23949,-0.648099,0.198914,-0.660145,-0.182334,0.476436,0.498761,-0.175921,3.1496,-37.216,2.93672,26.106,0.116879,1.48858,-0.224197,-0.393017,-2.07241,-2.27113,1.79042,1.31032,-1.11175,-1.09174,1.69854,-1.11519,-1.39692,0.211075,-0.517704,-0.197473,
-0.306409,0.0248317,0.169643,-1.68241,-0.252408,-0.0170001,0.439038,-0.484001,0.0831623,-0.497138,-0.226454,0.678727,0.248084,-0.247362,0,0,0,0,0,0,0,-0.29367,0.0239797,0.1823,-1.674,-0.275245,1.54915,1.23394,-0.592866,0.178062,-0.615967,-0.151067,0.46066,0.42915,-0.182284,2.72113,-38.1166,2.73836,25.9314,0.19653,1.70006,-0.177505,-1.22257,-0.824691,-1.97649,1.02705,0.567929,-0.476704,-0.450833,1.15439,-0.490411,-1.22913,0.285773,-0.466808,-0.197383,
-0.308305,0.0251499,0.167695,-1.68331,-0.249747,-0.0160274,0.43806,-0.473991,0.0795532,-0.487147,-0.224682,0.665229,0.243189,-0.244477,0,0,0,0,0,0,0,-0.29367,0.0239797,0.1823,-1.674,-0.275245,1.54915,1.23394,-0.592866,0.178062,-0.615967,-0.151067,0.46066,0.42915,-0.182284,2.72113,-38.1166,2.73836,25.9314,0.19653,1.70006,-0.177505,-1.22257,-0.824691,-1.97649,1.02705,0.567929,-0.476704,-0.450833,1.15439,-0.490411,-1.22913,0.285773,-0.466808,-0.197383,
-0.310164,0.0254533,0.165783,-1.6842,-0.247141,-0.015061,0.437093,-0.464803,0.0758595,-0.477968,-0.223448,0.65156,0.241585,-0.241697,0,0,0,0,0,0,0,-0.29367,0.0239797,0.1823,-1.674,-0.275245,1.54915,1.23394,-0.592866,0.178062,-0.615967,-0.151067,0.46066,0.42915,-0.182284,2.72113,-38.1166,2.73836,25.9314,0.19653,1.70006,-0.177505,-1.5753,1.34375,-1.78438,-0.238278,0.21903,0.677559,0.71324,0.772073,0.641099,-1.15286,0.462729,-0.434039,-0.19548,
-0.311989,0.0257421,0.163905,-1.68509,-0.24459,-0.0140864,0.436137,-0.456299,0.0722001,-0.469465,-0.222575,0.637881,0.243658,-0.239023,0,0,0,0,0,0,0,-0.29367,0.0239797,0.1823,-1.674,-0.275245,1.54915,1.23394,-0.592866,0.178062,-0.615967,-0.151067,0.46066,0.42915,-0.182284,2.72113,-38.1166,2.73836,25.9314,0.19653,1.70006,-0.177505,-1.5753,1.34375,-1.78438,-0.238278,0.21903,0.677559,0.71324,0.772073,0.641099,-1.15286,0.462729,-0.434039,-0.19548,
-0.303721,0.0239981,0.172369,-1.68128,-0.248872,-0.0202915,0.439152,-0.537716,0.0880572,-0.552163,-0.254157,0.925566,0.234366,-0.296825,0,0,0,0,0,0,0,-0.29367,0.0239797,0.1823,-1.674,-0.275245,1.54915,1.23394,-0.592866,0.178062,-0.615967,-0.151067,0.46066,0.42915,-0.182284,2.72113,-38.1166,2.73836,25.9314,0.19653,1.70006,-0.177505,-1.3217,-0.303162,-2.29187,0.831891,0.617052,-0.214889,-0.183967,1.23133,-0.234082,-1.33977,0.38233,-0.44288,-0.191793,
-0.318641,0.028156,0.156671,-1.685,-0.243688,-0.00630926,0.435473,-0.459635,0.0597459,-0.473422,-0.22572,0.676489,0.261536,-0.260635,0,0,0,0,0,0,0,-0.3132,0.0295377,0.162089,-1.67922,-0.259767,1.5617,1.22844,-0.574099,0.144492,-0.582003,-0.171761,0.432582,0.335523,-0.150895,3.58203,-39.0132,3.63893,26.4551,0.581051,2.07818,-0.177505,-1.3217,-0.303162,-2.29187,0.831891,0.617052,-0.214889,-0.183967,1.23133,-0.234082,-1.33977,0.38233,-0.44288,-0.191793,
-0.320438,0.0283893,0.154819,-1.68588,-0.240999,-0.00530366,0.434466,-0.449322,0.0583443,-0.462894,-0.219914,0.672348,0.2514,-0.251804,0,0,0,0,0,0,0,-0.3132,0.0295377,0.162089,-1.67922,-0.259767,1.5617,1.22844,-0.574099,0.144492,-0.582003,-0.171761,0.432582,0.335523,-0.150895,3.58203,-39.0132,3.63893,26.4551,0.581051,2.07818,-0.177505,-1.77099,-2.09939,-1.99246,1.86633,0.0863179,-1.24083,-1.22088,1.00879,-1.23136,-1.10919,0.245849,-0.37571,-0.186943,
-0.322199,0.0286115,0.153003,-1.68675,-0.238306,-0.00432151,0.433471,-0.440323,0.0555447,-0.453991,-0.216985,0.673143,0.245537,-0.248635,0,0,0,0,0,0,0,-0.3132,0.0295377,0.162089,-1.67922,-0.259767,1.5617,1.22844,-0.574099,0.144492,-0.582003,-0.171761,0.432582,0.335523,-0.150895,3.58203,-39.0132,3.63893,26.4551,0.581051,2.07818,-0.177505,-2.93517,0.49716,-1.46904,0.236529,-0.987716,0.068582,0.0974619,0.119087,0.0523983,-0.856956,0.371559,-0.313701,-0.186375,
-0.323929,0.0288209,0.151218,-1.68761,-0.235592,-0.00335366,0.432488,-0.432473,0.0523441,-0.446218,-0.215044,0.678534,0.241963,-0.245914,0,0,0,0,0,0,0,-0.3132,0.0295377,0.162089,-1.67922,-0.259767,1.5617,1.22844,-0.574099,0.144492,-0.582003,-0.171761,0.432582,0.335523,-0.150895,3.58203,-39.0132,3.63893,26.4551,0.581051,2.07818,-0.177505,-2.93517,0.49716,-1.46904,0.236529,-0.987716,0.068582,0.0974619,0.119087,0.0523983,-0.856956,0.371559,-0.313701,-0.186375,
-0.325632,0.0290172,0.149461,-1.68846,-0.232838,-0.00239293,0.431514,-0.425564,0.0490748,-0.439368,-0.213496,0.688482,0.240183,-0.243278,0,0,0,0,0,0,0,-0.3132,0.0295377,0.162089,-1.67922,-0.259767,1.5617,1.22844,-0.574099,0.144492,-0.582003,-0.171761,0.432582,0.335523,-0.150895,3.58203,-39.0132,3.63893,26.4551,0.581051,2.07818,-0.177505,-2.39612,1.43306,-1.67215,-0.293818,-0.575589,0.638563,0.674036,0.269981,0.606346,-0.920193,0.431569,-0.260088,-0.18868,
-0.317641,0.0276415,0.157669,-1.6847,-0.238466,-0.00897505,0.43487,-0.492129,0.0580719,-0.506619,-0.245949,0.909454,0.219342,-0.295908,0,0,0,0,0,0,0,-0.330807,0.0340039,0.14366,-1.68495,-0.244973,1.57137,1.22352,-0.521942,0.126267,-0.569011,-0.183253,0.466094,0.268455,-0.159986,3.05042,-38.5649,3.08748,27.1017,0.880428,2.41692,-0.130813,-2.39612,1.43306,-1.67215,-0.293818,-0.575589,0.638563,0.674036,0.269981,0.606346,-0.920193,0.431569,-0.260088,-0.18868,
-0.334971,0.032478,0.139711,-1.6892,-0.22934,0.00215864,0.430911,-0.437088,0.0413292,-0.450789,-0.21998,0.777655,0.182669,-0.261455,0,0,0,0,0,0,0,-0.330807,0.0340039,0.14366,-1.68495,-0.244973,1.57137,1.22352,-0.521942,0.126267,-0.569011,-0.183253,0.466094,0.268455,-0.159986,3.05042,-38.5649,3.08748,27.1017,0.880428,2.41692,-0.130813,-1.22847,-0.811827,-2.31823,1.16463,0.460491,-0.467301,-0.440131,1.11658,-0.473852,-1.13754,0.342459,-0.226436,-0.186105,
-0.336679,0.03263,0.137948,-1.69007,-0.226232,0.00283804,0.429871,-0.427001,0.0380005,-0.440761,-0.217862,0.77717,0.169849,-0.259786,0,0,0,0,0,0,0,-0.330807,0.0340039,0.14366,-1.68495,-0.244973,1.57137,1.22352,-0.521942,0.126267,-0.569011,-0.183253,0.466094,0.268455,-0.159986,3.05042,-38.5649,3.08748,27.1017,0.880428,2.41692,-0.130813,-0.613097,-1.16506,-2.31308,1.34958,0.847681,-0.58547,-0.556525,1.31361,-0.593271,-1.12157,0.286024,-0.201166,-0.185279,
-0.338347,0.0327712,0.136224,-1.69093,-0.223127,0.00346552,0.428837,-0.417082,0.035304,-0.430932,-0.214934,0.776071,0.156872,-0.258583,0,0,0,0,0,0,0,-0.330807,0.0340039,0.14366,-1.68495,-0.244973,1.57137,1.22352,-0.521942,0.126267,-0.569011,-0.183253,0.466094,0.268455,-0.159986,3.05042,-38.5649,3.08748,27.1017,0.880428,2.41692,-0.130813,-0.613097,-1.16506,-2.31308,1.34958,0.847681,-0.58547,-0.556525,1.31361,-0.593271,-1.12157,0.286024,-0.201166,-0.185279,
-0.339975,0.0329092,0.134543,-1.69177,-0.220049,0.00403314,0.427833,-0.406832,0.0345035,-0.420437,-0.208908,0.769709,0.141905,-0.251133,0,0,0,0,0,0,0,-0.330807,0.0340039,0.14366,-1.68495,-0.244973,1.57137,1.22352,-0.521942,0.126267,-0.569011,-0.183253,0.466094,0.268455,-0.159986,3.05042,-38.5649,3.08748,27.1017,0.880428,2.41692,-0.130813,-0.710291,-2.01408,-1.84111,1.72211,0.571924,-1.06215,-1.03186,1.11814,-1.06445,-0.920592,0.142424,-0.204154,-0.183068,
-0.341564,0.0330384,0.132899,-1.69259,-0.217011,0.00455884,0.42684,-0.397249,0.0322923,-0.410854,-0.206062,0.759469,0.131424,-0.248092,0,0,0,0,0,0,0,-0.330807,0.0340039,0.14366,-1.68495,-0.244973,1.57137,1.22352,-0.521942,0.126267,-0.569011,-0.183253,0.466094,0.268455,-0.159986,3.05042,-38.5649,3.08748,27.1017,0.880428,2.41692,-0.130813,-0.710291,-2.01408,-1.84111,1.72211,0.571924,-1.06215,-1.03186,1.11814,-1.06445,-0.920592,0.142424,-0.204154,-0.183068,
-0.343117,0.0331571,0.131292,-1.69341,-0.214026,0.00505303,0.425858,-0.388315,0.0296786,-0.401927,-0.204377,0.746172,0.123548,-0.245432,0,0,0,0,0,0,0,-0.3524,0.0384134,0.121443,-1.69234,-0.224334,1.58025,1.21727,-0.51105,0.0967451,-0.528117,-0.173628,0.518605,0.158145,-0.164358,4.44294,-39.037,4.2856,27.3279,0.477596,2.17797,-0.210464,-0.125553,0.104048,-1.14518,0.399845,0.548988,0.166533,0.207737,0.704383,0.132896,-0.612848,0.286723,-0.122345,-0.180906,
-0.337602,0.0323331,0.136953,-1.69069,-0.218265,0.00219002,0.428152,-0.452448,0.0326619,-0.467321,-0.232829,1.02237,0.152371,-0.292934,0,0,0,0,0,0,0,-0.3524,0.0384134,0.121443,-1.69234,-0.224334,1.58025,1.21727,-0.51105,0.0967451,-0.528117,-0.173628,0.518605,0.158145,-0.164358,4.44294,-39.037,4.2856,27.3279,0.477596,2.17797,-0.210464,-0.125553,0.104048,-1.14518,0.399845,0.548988,0.166533,0.207737,0.704383,0.132896,-0.612848,0.286723,-0.122345,-0.180906,
-0.373537,0.0401076,0.0996395,-1.70283,-0.187147,0.0161157,0.41878,-0.381133,0.0154297,-0.394968,-0.215955,0.775029,0.144863,-0.259692,0,0,0,0,0,0,0,-0.3524,0.0384134,0.121443,-1.69234,-0.224334,1.58025,1.21727,-0.51105,0.0967451,-0.528117,-0.173628,0.518605,0.158145,-0.164358,4.44294,-39.037,4.2856,27.3279,0.477596,2.17797,-0.210464,-0.241691,-0.319832,-0.85516,0.633288,0.318634,-0.0871647,-0.0490796,0.558058,-0.111326,-0.481586,0.275502,-0.115897,-0.180568,
-0.375023,0.0401638,0.0980969,-1.70368,-0.184103,0.0167079,0.417744,-0.371724,0.0140428,-0.385659,-0.212489,0.761021,0.148042,-0.259078,0,0,0,0,0,0,0,-0.3524,0.0384134,0.121443,-1.69234,-0.224334,1.58025,1.21727,-0.51105,0.0967451,-0.528117,-0.173628,0.518605,0.158145,-0.164358,4.44294,-39.037,4.2856,27.3279,0.477596,2.17797,-0.210464,-0.67177,-1.40258,-1.14444,1.30879,0.200196,-0.739505,-0.702862,0.694711,-0.749699,-0.60284,0.202028,-0.149967,-0.17897,
-0.376473,0.0402199,0.0965928,-1.70451,-0.181116,0.0172917,0.416739,-0.362264,0.0140176,-0.376019,-0.2062,0.746644,0.145959,-0.251292,0,0,0,0,0,0,0,-0.3524,0.0384134,0.121443,-1.69234,-0.224334,1.58025,1.21727,-0.51105,0.0967451,-0.528117,-0.173628,0.518605,0.158145,-0.164358,4.44294,-39.037,4.2856,27.3279,0.477596,2.17797,-0.210464,-0.67177,-1.40258,-1.14444,1.30879,0.200196,-0.739505,-0.702862,0.694711,-0.749699,-0.60284,0.202028,-0.149967,-0.17897,
-0.377888,0.0402702,0.0951217,-1.70532,-0.178173,0.0178716,0.415745,-0.35388,0.0125799,-0.367778,-0.202603,0.735803,0.144967,-0.248422,0,0,0,0,0,0,0,-0.367126,0.0411478,0.105996,-1.6974,-0.20762,1.58399,1.21195,-0.465789,0.0709,-0.492263,-0.16068,0.585748,0.124274,-0.166502,1.78089,-38.3388,1.86159,26.4035,0.654293,2.17797,-0.204056,-0.372936,0.240486,-1.40967,0.37751,0.536649,0.201374,0.250609,0.780909,0.1595,-0.754984,0.289168,-0.165881,-0.18423,
-0.379274,0.0403127,0.0936796,-1.70612,-0.175261,0.018447,0.414761,-0.346495,0.0106297,-0.360512,-0.200047,0.728158,0.143845,-0.245939,0,0,0,0,0,0,0,-0.367126,0.0411478,0.105996,-1.6974,-0.20762,1.58399,1.21195,-0.465789,0.0709,-0.492263,-0.16068,0.585748,0.124274,-0.166502,1.78089,-38.3388,1.86159,26.4035,0.654293,2.17797,-0.204056,-0.372936,0.240486,-1.40967,0.37751,0.536649,0.201374,0.250609,0.780909,0.1595,-0.754984,0.289168,-0.165881,-0.18423,
-0.380633,0.0403468,0.0922644,-1.70691,-0.172377,0.0190172,0.413787,-0.339749,0.00852396,-0.353814,-0.197987,0.720821,0.142542,-0.243492,0,0,0,0,0,0,0,-0.367126,0.0411478,0.105996,-1.6974,-0.20762,1.58399,1.21195,-0.465789,0.0709,-0.492263,-0.16068,0.585748,0.124274,-0.166502,1.78089,-38.3388,1.86159,26.4035,0.654293,2.17797,-0.204056,-1.34859,-2.11095,-2.18824,1.90723,0.350937,-1.23382,-1.20151,1.18375,-1.22934,-1.10955,0.165754,-0.268269,-0.182173,
-0.373612,0.0396009,0.0995105,-1.70331,-0.18238,0.0162181,0.417238,-0.386505,0.00224773,-0.401397,-0.225631,1.01448,0.1485,-0.289617,0,0,0,0,0,0,0,-0.367126,0.0411478,0.105996,-1.6974,-0.20762,1.58399,1.21195,-0.465789,0.0709,-0.492263,-0.16068,0.585748,0.124274,-0.166502,1.78089,-38.3388,1.86159,26.4035,0.654293,2.17797,-0.204056,-1.34859,-2.11095,-2.18824,1.90723,0.350937,-1.23382,-1.20151,1.18375,-1.22934,-1.10955,0.165754,-0.268269,-0.182173,
-0.385707,0.0415891,0.0867498,-1.70738,-0.168518,0.0208495,0.413603,-0.323586,-0.00980563,-0.33767,-0.202464,0.814591,0.161323,-0.256418,0,0,0,0,0,0,0,-0.367126,0.0411478,0.105996,-1.6974,-0.20762,1.58399,1.21195,-0.465789,0.0709,-0.492263,-0.16068,0.585748,0.124274,-0.166502,1.78089,-38.3388,1.86159,26.4035,0.654293,2.17797,-0.204056,-1.53626,-0.667675,-2.20845,1.12687,0.124873,-0.484586,-0.451728,0.92512,-0.490697,-1.05246,0.32913,-0.184408,-0.181835,
-0.386962,0.041545,0.0854372,-1.70818,-0.165341,0.0215028,0.412582,-0.313939,-0.0110227,-0.328152,-0.199427,0.794255,0.163318,-0.255182,0,0,0,0,0,0,0,-0.367126,0.0411478,0.105996,-1.6974,-0.20762,1.58399,1.21195,-0.465789,0.0709,-0.492263,-0.16068,0.585748,0.124274,-0.166502,1.78089,-38.3388,1.86159,26.4035,0.654293,2.17797,-0.204056,-1.55959,0.319131,-2.26683,0.537674,0.108117,0.047099,0.0875266,0.822322,0.0226964,-1.06343,0.36252,-0.158475,-0.183816,
-0.38818,0.0415011,0.0841628,-1.70895,-0.162252,0.0221446,0.411588,-0.304468,-0.0109774,-0.318584,-0.193929,0.772404,0.160438,-0.248705,0,0,0,0,0,0,0,-0.381707,0.0433655,0.090569,-1.7025,-0.189048,1.5875,1.20686,-0.418123,0.0581025,-0.466341,-0.156731,0.561879,0.10141,-0.152055,2.43946,-38.438,2.41304,26.4551,0.91705,2.20452,-0.210464,-1.55959,0.319131,-2.26683,0.537674,0.108117,0.047099,0.0875266,0.822322,0.0226964,-1.06343,0.36252,-0.158475,-0.183816,
-0.389364,0.0414527,0.0829218,-1.70971,-0.159243,0.0227767,0.410604,-0.296007,-0.0121026,-0.31027,-0.190668,0.752243,0.158028,-0.246024,0,0,0,0,0,0,0,-0.381707,0.0433655,0.090569,-1.7025,-0.189048,1.5875,1.20686,-0.418123,0.0581025,-0.466341,-0.156731,0.561879,0.10141,-0.152055,2.43946,-38.438,2.41304,26.4551,0.91705,2.20452,-0.210464,-1.93425,-1.07053,-2.38176,1.35038,-0.0547221,-0.77158,-0.733355,0.920705,-0.777842,-1.10357,0.249229,-0.178359,-0.180872,
-0.390518,0.0413981,0.0817102,-1.71047,-0.156308,0.0233973,0.409629,-0.288488,-0.0136561,-0.30288,-0.188289,0.73374,0.155149,-0.243641,0,0,0,0,0,0,0,-0.381707,0.0433655,0.090569,-1.7025,-0.189048,1.5875,1.20686,-0.418123,0.0581025,-0.466341,-0.156731,0.561879,0.10141,-0.152055,2.43946,-38.438,2.41304,26.4551,0.91705,2.20452,-0.210464,-1.93425,-1.07053,-2.38176,1.35038,-0.0547221,-0.77158,-0.733355,0.920705,-0.777842,-1.10357,0.249229,-0.178359,-0.180872,
-0.391645,0.0413366,0.0805251,-1.71121,-0.153439,0.0240048,0.408664,-0.28178,-0.0153638,-0.296283,-0.186354,0.717071,0.15188,-0.241314,0,0,0,0,0,0,0,-0.381707,0.0433655,0.090569,-1.7025,-0.189048,1.5875,1.20686,-0.418123,0.0581025,-0.466341,-0.156731,0.561879,0.10141,-0.152055,2.43946,-38.438,2.41304,26.4551,0.91705,2.20452,-0.210464,-0.881575,-0.366833,-2.71565,1.07218,0.688101,-0.218487,-0.175183,1.26976,-0.238846,-1.18946,0.382464,-0.103907,-0.180581,
-0.385902,0.041061,0.0864876,-1.70792,-0.16524,0.0217983,0.412106,-0.333898,-0.0235216,-0.34939,-0.212605,1.012,0.183927,-0.285567,0,0,0,0,0,0,0,-0.381707,0.0433655,0.090569,-1.7025,-0.189048,1.5875,1.20686,-0.418123,0.0581025,-0.466341,-0.156731,0.561879,0.10141,-0.152055,2.43946,-38.438,2.41304,26.4551,0.91705,2.20452,-0.210464,-0.881575,-0.366833,-2.71565,1.07218,0.688101,-0.218487,-0.175183,1.26976,-0.238846,-1.18946,0.382464,-0.103907,-0.180581,
-0.398339,0.0429847,0.0732458,-1.71219,-0.150873,0.0241125,0.408673,-0.285708,-0.0283822,-0.300619,-0.193661,0.842144,0.148365,-0.253112,0,0,0,0,0,0,0,-0.394986,0.0445285,0.0767357,-1.70776,-0.170853,1.59014,1.20199,-0.400546,0.0253876,-0.408282,-0.163951,0.522371,0.0580918,-0.155392,3.40351,-38.315,3.28584,26.6534,1.06994,2.56249,-0.137222,-0.67629,-1.18064,-3.01387,1.6197,0.892342,-0.613235,-0.56939,1.50395,-0.624545,-1.23834,0.368589,-0.0406608,-0.180971,
-0.399447,0.042866,0.072078,-1.71296,-0.147535,0.0247075,0.407668,-0.277039,-0.0296714,-0.29194,-0.190778,0.834527,0.14876,-0.251315,0,0,0,0,0,0,0,-0.394986,0.0445285,0.0767357,-1.70776,-0.170853,1.59014,1.20199,-0.400546,0.0253876,-0.408282,-0.163951,0.522371,0.0580918,-0.155392,3.40351,-38.315,3.28584,26.6534,1.06994,2.56249,-0.137222,-1.14128,-0.614531,-2.62881,1.20772,0.372662,-0.398889,-0.352209,1.08388,-0.416511,-1.05619,0.381895,-0.0115357,-0.178763,
-0.40052,0.0427477,0.0709457,-1.7137,-0.144248,0.0252851,0.406684,-0.268323,-0.0295731,-0.283081,-0.185426,0.821657,0.144409,-0.246007,0,0,0,0,0,0,0,-0.394986,0.0445285,0.0767357,-1.70776,-0.170853,1.59014,1.20199,-0.400546,0.0253876,-0.408282,-0.163951,0.522371,0.0580918,-0.155392,3.40351,-38.315,3.28584,26.6534,1.06994,2.56249,-0.137222,-1.14128,-0.614531,-2.62881,1.20772,0.372662,-0.398889,-0.352209,1.08388,-0.416511,-1.05619,0.381895,-0.0115357,-0.178763,
-0.401562,0.0426255,0.0698451,-1.71443,-0.141019,0.0258475,0.40571,-0.260293,-0.0305555,-0.275136,-0.18228,0.807109,0.140587,-0.243494,0,0,0,0,0,0,0,-0.394986,0.0445285,0.0767357,-1.70776,-0.170853,1.59014,1.20199,-0.400546,0.0253876,-0.408282,-0.163951,0.522371,0.0580918,-0.155392,3.40351,-38.315,3.28584,26.6534,1.06994,2.56249,-0.137222,-0.409904,0.50938,-2.69464,0.566245,0.857673,0.333183,0.392345,1.20327,0.286481,-1.09475,0.440681,-0.0017179,-0.177883,
-0.402573,0.0424978,0.0687735,-1.71515,-0.137853,0.0263937,0.404745,-0.252976,-0.0319254,-0.267909,-0.180052,0.791669,0.136554,-0.241225,0,0,0,0,0,0,0,-0.394986,0.0445285,0.0767357,-1.70776,-0.170853,1.59014,1.20199,-0.400546,0.0253876,-0.408282,-0.163951,0.522371,0.0580918,-0.155392,3.40351,-38.315,3.28584,26.6534,1.06994,2.56249,-0.137222,-0.409904,0.50938,-2.69464,0.566245,0.857673,0.333183,0.392345,1.20327,0.286481,-1.09475,0.440681,-0.0017179,-0.177883,
-0.403559,0.0423641,0.0677282,-1.71586,-0.134749,0.026924,0.403789,-0.246317,-0.0334264,-0.261339,-0.178328,0.776056,0.132567,-0.239022,0,0,0,0,0,0,0,-0.394986,0.0445285,0.0767357,-1.70776,-0.170853,1.59014,1.20199,-0.400546,0.0253876,-0.408282,-0.163951,0.522371,0.0580918,-0.155392,3.40351,-38.315,3.28584,26.6534,1.06994,2.56249,-0.137222,-0.173726,-0.650553,-3.07923,1.33316,1.19842,-0.247083,-0.190484,1.59596,-0.279313,-1.24358,0.390512,-0.010067,-0.171662,
-0.398284,0.0424596,0.0732533,-1.7127,-0.147739,0.0254883,0.407248,-0.285537,-0.0419736,-0.301382,-0.202537,0.998027,0.181041,-0.280772,0,0,0,0,0,0,0,-0.406927,0.044924,0.0641127,-1.71292,-0.15341,1.59164,1.19656,-0.353345,0.00140171,-0.39532,-0.160888,0.566309,0.0291173,-0.179067,3.53046,-38.0135,3.58735,27.2763,1.19171,2.60918,-0.110672,-0.556429,-1.44873,-2.62654,1.74126,0.709737,-0.760346,-0.709749,1.32374,-0.774067,-1.0258,0.369742,0.0143046,-0.163906,
-0.420873,0.0430779,0.0494502,-1.72213,-0.114436,0.0269184,0.398527,-0.23395,-0.0494227,-0.249078,-0.183905,0.827174,0.14955,-0.250931,0,0,0,0,0,0,0,-0.406927,0.044924,0.0641127,-1.71292,-0.15341,1.59164,1.19656,-0.353345,0.00140171,-0.39532,-0.160888,0.566309,0.0291173,-0.179067,3.53046,-38.0135,3.58735,27.2763,1.19171,2.60918,-0.110672,-0.556429,-1.44873,-2.62654,1.74126,0.709737,-0.760346,-0.709749,1.32374,-0.774067,-1.0258,0.369742,0.0143046,-0.163906,
-0.421773,0.0428827,0.0484896,-1.72285,-0.111221,0.0275259,0.397544,-0.225111,-0.0488158,-0.240151,-0.179338,0.803788,0.151877,-0.245892,0,0,0,0,0,0,0,-0.406927,0.044924,0.0641127,-1.71292,-0.15341,1.59164,1.19656,-0.353345,0.00140171,-0.39532,-0.160888,0.566309,0.0291173,-0.179067,3.53046,-38.0135,3.58735,27.2763,1.19171,2.60918,-0.110672,-0.586252,-0.265151,-2.08236,0.973221,0.420231,-0.150467,-0.096259,0.919873,-0.179073,-0.827594,0.446153,0.00884507,-0.164862,
-0.422641,0.0426863,0.0475609,-1.72355,-0.108106,0.0281351,0.39657,-0.217016,-0.0490983,-0.232165,-0.176212,0.778728,0.152288,-0.243468,0,0,0,0,0,0,0,-0.406927,0.044924,0.0641127,-1.71292,-0.15341,1.59164,1.19656,-0.353345,0.00140171,-0.39532,-0.160888,0.566309,0.0291173,-0.179067,3.53046,-38.0135,3.58735,27.2763,1.19171,2.60918,-0.110672,-0.586252,-0.265151,-2.08236,0.973221,0.420231,-0.150467,-0.096259,0.919873,-0.179073,-0.827594,0.446153,0.00884507,-0.164862,
-0.42348,0.0424871,0.0466611,-1.72425,-0.105095,0.028738,0.395605,-0.209694,-0.0497949,-0.224952,-0.173749,0.752748,0.150732,-0.241255,0,0,0,0,0,0,0,-0.406927,0.044924,0.0641127,-1.71292,-0.15341,1.59164,1.19656,-0.353345,0.00140171,-0.39532,-0.160888,0.566309,0.0291173,-0.179067,3.53046,-38.0135,3.58735,27.2763,1.19171,2.60918,-0.110672,-0.71189,-0.204797,-1.55962,0.836045,0.101789,-0.150092,-0.0928591,0.621596,-0.181949,-0.624876,0.433006,0.0039247,-0.16664,
-0.424292,0.0422843,0.0457873,-1.72493,-0.102188,0.0293287,0.394648,-0.203093,-0.0507021,-0.218457,-0.171688,0.726616,0.147678,-0.239084,0,0,0,0,0,0,0,-0.418102,0.0449911,0.0522957,-1.71785,-0.135719,1.59214,1.19083,-0.33376,-0.000944686,-0.354783,-0.154433,0.590867,0.0119853,-0.156335,2.72113,-38.2634,2.71455,27.1017,1.11297,2.5158,-0.137222,-0.71189,-0.204797,-1.55962,0.836045,0.101789,-0.150092,-0.0928591,0.621596,-0.181949,-0.624876,0.433006,0.0039247,-0.16664,
-0.425081,0.0420774,0.0449368,-1.72561,-0.099384,0.0299039,0.393701,-0.197167,-0.0517161,-0.212634,-0.169957,0.701104,0.143789,-0.236946,0,0,0,0,0,0,0,-0.418102,0.0449911,0.0522957,-1.71785,-0.135719,1.59214,1.19083,-0.33376,-0.000944686,-0.354783,-0.154433,0.590867,0.0119853,-0.156335,2.72113,-38.2634,2.71455,27.1017,1.11297,2.5158,-0.137222,-1.22714,-1.25129,-1.41049,1.4262,-0.272787,-0.81228,-0.761108,0.537338,-0.823655,-0.571118,0.374894,-0.0163297,-0.169435,
-0.420685,0.0425046,0.0495945,-1.72266,-0.111985,0.0299289,0.397211,-0.232132,-0.0644942,-0.248433,-0.191785,0.995732,0.222999,-0.276722,0,0,0,0,0,0,0,-0.418102,0.0449911,0.0522957,-1.71785,-0.135719,1.59214,1.19083,-0.33376,-0.000944686,-0.354783,-0.154433,0.590867,0.0119853,-0.156335,2.72113,-38.2634,2.71455,27.1017,1.11297,2.5158,-0.137222,-1.22714,-1.25129,-1.41049,1.4262,-0.272787,-0.81228,-0.761108,0.537338,-0.823655,-0.571118,0.374894,-0.0163297,-0.169435,
-0.430119,0.0426549,0.039555,-1.72687,-0.0989277,0.028182,0.393022,-0.193643,-0.0625413,-0.209538,-0.177198,0.771749,0.165102,-0.246533,0,0,0,0,0,0,0,-0.418102,0.0449911,0.0522957,-1.71785,-0.135719,1.59214,1.19083,-0.33376,-0.000944686,-0.354783,-0.154433,0.590867,0.0119853,-0.156335,2.72113,-38.2634,2.71455,27.1017,1.11297,2.5158,-0.137222,-1.22714,-1.25129,-1.41049,1.4262,-0.272787,-0.81228,-0.761108,0.537338,-0.823655,-0.571118,0.374894,-0.0163297,-0.169435,
-0.430866,0.0424062,0.0387442,-1.72756,-0.0958481,0.0288426,0.392052,-0.186809,-0.0621627,-0.202713,-0.172443,0.769902,0.165149,-0.242477,0,0,0,0,0,0,0,-0.418102,0.0449911,0.0522957,-1.71785,-0.135719,1.59214,1.19083,-0.33376,-0.000944686,-0.354783,-0.154433,0.590867,0.0119853,-0.156335,2.72113,-38.2634,2.71455,27.1017,1.11297,2.5158,-0.137222,-1.0486,0.108167,-1.66776,0.770204,-0.119104,-0.0657756,-0.0143995,0.543973,-0.088466,-0.671128,0.541868,0.000212728,-0.185547,
-0.431587,0.0421559,0.03796,-1.72824,-0.0928048,0.0294947,0.391092,-0.180183,-0.0625771,-0.196054,-0.169118,0.760827,0.163037,-0.240144,0,0,0,0,0,0,0,-0.418102,0.0449911,0.0522957,-1.71785,-0.135719,1.59214,1.19083,-0.33376,-0.000944686,-0.354783,-0.154433,0.590867,0.0119853,-0.156335,2.72113,-38.2634,2.71455,27.1017,1.11297,2.5158,-0.137222,-1.0486,0.108167,-1.66776,0.770204,-0.119104,-0.0657756,-0.0143995,0.543973,-0.088466,-0.671128,0.541868,0.000212728,-0.185547,
-0.432282,0.0419025,0.0372011,-1.7289,-0.0898185,0.0301303,0.39014,-0.173845,-0.0633553,-0.189722,-0.166506,0.746589,0.158896,-0.237985,0,0,0,0,0,0,0,-0.430879,0.0449076,0.0386856,-1.72352,-0.112923,1.59262,1.18472,-0.284346,-0.00256428,-0.314378,-0.125793,0.548662,0.0165063,-0.150879,3.17737,-37.3906,3.0121,26.6534,1.3327,2.65496,-0.183914,-1.39875,-0.218739,-1.86188,0.943065,-0.213336,-0.299055,-0.244876,0.593226,-0.322096,-0.763041,0.453468,-0.0210428,-0.193139,
-0.432954,0.0416453,0.0364659,-1.72956,-0.0869031,0.0307435,0.389196,-0.167877,-0.0643101,-0.183787,-0.164361,0.728846,0.153311,-0.235884,0,0,0,0,0,0,0,-0.430879,0.0449076,0.0386856,-1.72352,-0.112923,1.59262,1.18472,-0.284346,-0.00256428,-0.314378,-0.125793,0.548662,0.0165063,-0.150879,3.17737,-37.3906,3.0121,26.6534,1.3327,2.65496,-0.183914,-1.91246,-0.87374,-2.34775,1.41578,-0.272141,-0.752456,-0.699504,0.804203,-0.765429,-0.989201,0.397044,-0.0653244,-0.196508,
-0.433603,0.0413839,0.0357528,-1.73021,-0.0840673,0.0313318,0.388261,-0.162328,-0.0653443,-0.178288,-0.162611,0.708938,0.147057,-0.233834,0,0,0,0,0,0,0,-0.430879,0.0449076,0.0386856,-1.72352,-0.112923,1.59262,1.18472,-0.284346,-0.00256428,-0.314378,-0.125793,0.548662,0.0165063,-0.150879,3.17737,-37.3906,3.0121,26.6534,1.3327,2.65496,-0.183914,-1.91246,-0.87374,-2.34775,1.41578,-0.272141,-0.752456,-0.699504,0.804203,-0.765429,-0.989201,0.397044,-0.0653244,-0.196508,
-0.429968,0.0420911,0.039667,-1.72741,-0.0945614,0.0317309,0.391763,-0.190865,-0.0770475,-0.207497,-0.184581,0.987693,0.248845,-0.270976,0,0,0,0,0,0,0,-0.430879,0.0449076,0.0386856,-1.72352,-0.112923,1.59262,1.18472,-0.284346,-0.00256428,-0.314378,-0.125793,0.548662,0.0165063,-0.150879,3.17737,-37.3906,3.0121,26.6534,1.3327,2.65496,-0.183914,-1.6868,-0.592573,-2.4749,1.29321,-0.127603,-0.556124,-0.50359,0.857115,-0.571521,-1.00168,0.439753,-0.0231811,-0.201648,
-0.440941,0.0419469,0.0278792,-1.73215,-0.0770904,0.0293306,0.387113,-0.153455,-0.0761656,-0.169616,-0.171037,0.729093,0.176817,-0.243356,0,0,0,0,0,0,0,-0.430879,0.0449076,0.0386856,-1.72352,-0.112923,1.59262,1.18472,-0.284346,-0.00256428,-0.314378,-0.125793,0.548662,0.0165063,-0.150879,3.17737,-37.3906,3.0121,26.6534,1.3327,2.65496,-0.183914,-1.6868,-0.592573,-2.4749,1.29321,-0.127603,-0.556124,-0.50359,0.857115,-0.571521,-1.00168,0.439753,-0.0231811,-0.201648,
-0.441526,0.0416431,0.0272305,-1.73282,-0.0742492,0.0300665,0.386156,-0.146054,-0.0759547,-0.162184,-0.167705,0.7103,0.183978,-0.239188,0,0,0,0,0,0,0,-0.439165,0.044771,0.0293506,-1.72693,-0.0967642,1.59274,1.18056,-0.265498,-0.00300568,-0.278748,-0.108468,0.495796,0.00309488,-0.122287,2.87189,-37.2398,2.78596,26.3797,1.28326,2.5689,-0.183914,-1.33324,-0.0051976,-2.66056,0.989482,0.110107,-0.165865,-0.107509,0.921892,-0.194424,-1.02575,0.487207,0.0330871,-0.209567,
-0.442082,0.0413387,0.0266093,-1.73348,-0.0715014,0.0308127,0.385208,-0.139113,-0.0761083,-0.155295,-0.164674,0.686936,0.18655,-0.236981,0,0,0,0,0,0,0,-0.439165,0.044771,0.0293506,-1.72693,-0.0967642,1.59274,1.18056,-0.265498,-0.00300568,-0.278748,-0.108468,0.495796,0.00309488,-0.122287,2.87189,-37.2398,2.78596,26.3797,1.28326,2.5689,-0.183914,-1.4518,0.255891,-2.62762,0.814327,-0.0111472,-0.0581437,0.00594713,0.812124,-0.0949719,-0.988466,0.488891,0.0577192,-0.211956,
-0.442613,0.0410325,0.0260134,-1.73413,-0.0688595,0.0315553,0.384268,-0.132713,-0.0765369,-0.148964,-0.161989,0.660472,0.185653,-0.23494,0,0,0,0,0,0,0,-0.439165,0.044771,0.0293506,-1.72693,-0.0967642,1.59274,1.18056,-0.265498,-0.00300568,-0.278748,-0.108468,0.495796,0.00309488,-0.122287,2.87189,-37.2398,2.78596,26.3797,1.28326,2.5689,-0.183914,-1.4518,0.255891,-2.62762,0.814327,-0.0111472,-0.0581437,0.00594713,0.812124,-0.0949719,-0.988466,0.488891,0.0577192,-0.211956,
-0.44312,0.0407239,0.0254406,-1.73477,-0.0663306,0.0322843,0.383337,-0.126883,-0.0771523,-0.143216,-0.159656,0.632228,0.182244,-0.23293,0,0,0,0,0,0,0,-0.439165,0.044771,0.0293506,-1.72693,-0.0967642,1.59274,1.18056,-0.265498,-0.00300568,-0.278748,-0.108468,0.495796,0.00309488,-0.122287,2.87189,-37.2398,2.78596,26.3797,1.28326,2.5689,-0.183914,-1.9412,-0.58255,-2.86558,1.3395,-0.187822,-0.601997,-0.540138,0.907567,-0.625851,-1.08866,0.422796,0.0428413,-0.217174,
-0.443607,0.0404124,0.0248883,-1.7354,-0.0639167,0.0329932,0.382413,-0.121642,-0.0778775,-0.138065,-0.157684,0.603479,0.177221,-0.230939,0,0,0,0,0,0,0,-0.439165,0.044771,0.0293506,-1.72693,-0.0967642,1.59274,1.18056,-0.265498,-0.00300568,-0.278748,-0.108468,0.495796,0.00309488,-0.122287,2.87189,-37.2398,2.78596,26.3797,1.28326,2.5689,-0.183914,-1.9412,-0.58255,-2.86558,1.3395,-0.187822,-0.601997,-0.540138,0.907567,-0.625851,-1.08866,0.422796,0.0428413,-0.217174,
-0.440752,0.0413782,0.0280296,-1.73271,-0.0725886,0.0335156,0.38591,-0.150535,-0.0906819,-0.167429,-0.178213,0.966375,0.275208,-0.26672,0,0,0,0,0,0,0,-0.439165,0.044771,0.0293506,-1.72693,-0.0967642,1.59274,1.18056,-0.265498,-0.00300568,-0.278748,-0.108468,0.495796,0.00309488,-0.122287,2.87189,-37.2398,2.78596,26.3797,1.28326,2.5689,-0.183914,-2.01839,-0.59337,-2.82528,1.34284,-0.325388,-0.626323,-0.570279,0.808604,-0.642465,-1.01363,0.448239,0.102089,-0.223541,
-0.447601,0.0413809,0.0201583,-1.73538,-0.0661488,0.0306808,0.383169,-0.121569,-0.0855709,-0.138513,-0.165136,0.63315,0.196,-0.238517,0,0,0,0,0,0,0,-0.447229,0.0443561,0.0207159,-1.73055,-0.0798647,1.59304,1.17608,-0.220812,-0.0144737,-0.243446,-0.114222,0.44669,0.00803232,-0.14284,2.84412,-37.1407,2.68678,26.4551,1.08184,2.61559,-0.258072,-2.01839,-0.59337,-2.82528,1.34284,-0.325388,-0.626323,-0.570279,0.808604,-0.642465,-1.01363,0.448239,0.102089,-0.223541,
-0.448068,0.04104,0.0196219,-1.73603,-0.0635549,0.0314626,0.382226,-0.116961,-0.0852095,-0.134093,-0.161295,0.648475,0.195456,-0.23575,0,0,0,0,0,0,0,-0.447229,0.0443561,0.0207159,-1.73055,-0.0798647,1.59304,1.17608,-0.220812,-0.0144737,-0.243446,-0.114222,0.44669,0.00803232,-0.14284,2.84412,-37.1407,2.68678,26.4551,1.08184,2.61559,-0.258072,-2.66334,-0.753186,-2.61795,1.36947,-0.820092,-0.863761,-0.809835,0.546798,-0.873572,-0.932344,0.412498,0.097682,-0.224851,
-0.448517,0.0406986,0.0191057,-1.73666,-0.0609497,0.0322288,0.381292,-0.112094,-0.0853508,-0.12907,-0.158205,0.651309,0.191531,-0.233616,0,0,0,0,0,0,0,-0.447229,0.0443561,0.0207159,-1.73055,-0.0798647,1.59304,1.17608,-0.220812,-0.0144737,-0.243446,-0.114222,0.44669,0.00803232,-0.14284,2.84412,-37.1407,2.68678,26.4551,1.08184,2.61559,-0.258072,-2.66334,-0.753186,-2.61795,1.36947,-0.820092,-0.863761,-0.809835,0.546798,-0.873572,-0.932344,0.412498,0.097682,-0.224851,
-0.448945,0.0403555,0.0186098,-1.73728,-0.0583701,0.0329691,0.380365,-0.107066,-0.0857894,-0.123952,-0.155654,0.644891,0.185085,-0.231593,0,0,0,0,0,0,0,-0.447229,0.0443561,0.0207159,-1.73055,-0.0798647,1.59304,1.17608,-0.220812,-0.0144737,-0.243446,-0.114222,0.44669,0.00803232,-0.14284,2.84412,-37.1407,2.68678,26.4551,1.08184,2.61559,-0.258072,-2.52546,-0.241821,-2.93318,1.13073,-0.527976,-0.566291,-0.50303,0.740749,-0.593342,-1.12717,0.396266,0.0304692,-0.230101,
-0.449353,0.0400099,0.0181341,-1.7379,-0.0558433,0.0336774,0.379447,-0.102085,-0.086401,-0.118935,-0.153567,0.631709,0.177066,-0.229631,0,0,0,0,0,0,0,-0.447229,0.0443561,0.0207159,-1.73055,-0.0798647,1.59304,1.17608,-0.220812,-0.0144737,-0.243446,-0.114222,0.44669,0.00803232,-0.14284,2.84412,-37.1407,2.68678,26.4551,1.08184,2.61559,-0.258072,-2.39769,0.139154,-2.73177,0.896694,-0.563911,-0.352111,-0.284896,0.624974,-0.386625,-1.04682,0.445997,0.0342153,-0.232302,
-0.449743,0.0396615,0.0176775,-1.7385,-0.0533884,0.0343514,0.378536,-0.0972941,-0.0871,-0.114145,-0.151934,0.613716,0.168518,-0.227722,0,0,0,0,0,0,0,-0.453934,0.0436756,0.0135446,-1.73428,-0.0656229,1.59402,1.17179,-0.204777,-0.025105,-0.206995,-0.117952,0.425958,0.0382801,-0.113027,2.84412,-36.9423,2.66298,26.3281,1.1734,2.69524,-0.250748,-2.39769,0.139154,-2.73177,0.896694,-0.563911,-0.352111,-0.284896,0.624974,-0.386625,-1.04682,0.445997,0.0342153,-0.232302,
-0.447549,0.0408174,0.0201716,-1.73597,-0.0582081,0.0351439,0.382002,-0.117344,-0.0998728,-0.134738,-0.172278,0.914615,0.298735,-0.260989,0,0,0,0,0,0,0,-0.453934,0.0436756,0.0135446,-1.73428,-0.0656229,1.59402,1.17179,-0.204777,-0.025105,-0.206995,-0.117952,0.425958,0.0382801,-0.113027,2.84412,-36.9423,2.66298,26.3281,1.1734,2.69524,-0.250748,-2.39783,0.0511226,-2.52662,0.920429,-0.697563,-0.403553,-0.339045,0.503877,-0.433243,-0.933862,0.469665,0.0664407,-0.236365,
-0.460286,0.0397048,0.00639674,-1.7425,-0.0346373,0.0321456,0.37457,-0.084412,-0.0945962,-0.101356,-0.159166,0.602313,0.199721,-0.234698,0,0,0,0,0,0,0,-0.453934,0.0436756,0.0135446,-1.73428,-0.0656229,1.59402,1.17179,-0.204777,-0.025105,-0.206995,-0.117952,0.425958,0.0382801,-0.113027,2.84412,-36.9423,2.66298,26.3281,1.1734,2.69524,-0.250748,-2.39783,0.0511226,-2.52662,0.920429,-0.697563,-0.403553,-0.339045,0.503877,-0.433243,-0.933862,0.469665,0.0664407,-0.236365,
-0.460599,0.0393255,0.00601637,-1.74312,-0.0323507,0.0329405,0.373639,-0.0781323,-0.0948275,-0.0950915,-0.156129,0.571633,0.198711,-0.232618,0,0,0,0,0,0,0,-0.453934,0.0436756,0.0135446,-1.73428,-0.0656229,1.59402,1.17179,-0.204777,-0.025105,-0.206995,-0.117952,0.425958,0.0382801,-0.113027,2.84412,-36.9423,2.66298,26.3281,1.1734,2.69524,-0.250748,-2.43639,-0.710978,-3.18097,1.52009,-0.36228,-0.798732,-0.738472,0.970667,-0.816843,-1.24471,0.416581,0.00963775,-0.24234,
-0.460888,0.0389442,0.00565917,-1.74374,-0.0302076,0.0337186,0.372717,-0.0723043,-0.0953091,-0.0892993,-0.153469,0.535786,0.194541,-0.230638,0,0,0,0,0,0,0,-0.453934,0.0436756,0.0135446,-1.73428,-0.0656229,1.59402,1.17179,-0.204777,-0.025105,-0.206995,-0.117952,0.425958,0.0382801,-0.113027,2.84412,-36.9423,2.66298,26.3281,1.1734,2.69524,-0.250748,-2.43639,-0.710978,-3.18097,1.52009,-0.36228,-0.798732,-0.738472,0.970667,-0.816843,-1.24471,0.416581,0.00963775,-0.24234,
-0.461156,0.0385604,0.00532299,-1.74434,-0.028222,0.0344723,0.371802,-0.0669993,-0.0959602,-0.084047,-0.151245,0.496406,0.188419,-0.228653,0,0,0,0,0,0,0,-0.459318,0.0427281,0.00713876,-1.73793,-0.0524776,1.59563,1.1688,-0.159855,-0.031279,-0.192735,-0.107852,0.4504,0.0674494,-0.0912595,2.51484,-37.3668,2.26228,26.6058,1.04522,2.42333,-0.311172,-3.0546,-0.219875,-2.74289,1.12963,-0.918547,-0.704585,-0.643463,0.557584,-0.726327,-1.1151,0.411061,-0.0324292,-0.245943,
-0.461405,0.0381736,0.00500538,-1.74494,-0.0264009,0.0351982,0.370896,-0.0622867,-0.0966985,-0.0794023,-0.14949,0.455257,0.181487,-0.22664,0,0,0,0,0,0,0,-0.459318,0.0427281,0.00713876,-1.73793,-0.0524776,1.59563,1.1688,-0.159855,-0.031279,-0.192735,-0.107852,0.4504,0.0674494,-0.0912595,2.51484,-37.3668,2.26228,26.6058,1.04522,2.42333,-0.311172,-2.7129,-0.20096,-2.79107,1.15089,-0.681378,-0.610943,-0.544671,0.681761,-0.639575,-1.14211,0.426025,-0.039152,-0.252796,
-0.459661,0.0396,0.00707557,-1.74239,-0.0317361,0.0360676,0.374512,-0.0805561,-0.107939,-0.097656,-0.168789,0.851764,0.320679,-0.259313,0,0,0,0,0,0,0,-0.459318,0.0427281,0.00713876,-1.73793,-0.0524776,1.59563,1.1688,-0.159855,-0.031279,-0.192735,-0.107852,0.4504,0.0674494,-0.0912595,2.51484,-37.3668,2.26228,26.6058,1.04522,2.42333,-0.311172,-2.7129,-0.20096,-2.79107,1.15089,-0.681378,-0.610943,-0.544671,0.681761,-0.639575,-1.14211,0.426025,-0.039152,-0.252796,
