PerkyPenguin/Analysis-on-Approximated-Derivatives/Code_and_Data/PaperData/Real_Robot/Scene_2/contact_change/18/trajectory.csv
Commanded Joint 0 Position,Commanded Joint 1 Position,Commanded Joint 2 Position,Commanded Joint 3 Position,Commanded Joint 4 Position,Commanded Joint 5 Position,Commanded Joint 6 Position,Commanded Joint 0 Velocity,Commanded Joint 1 Velocity,Commanded Joint 2 Velocity,Commanded Joint 3 Velocity,Commanded Joint 4 Velocity,Commanded Joint 5 Velocity,Commanded Joint 6 Velocity,Commanded Joint 0 Torque,Commanded Joint 1 Torque,Commanded Joint 2 Torque,Commanded Joint 3 Torque,Commanded Joint 4 Torque,Commanded Joint 5 Torque,Commanded Joint 6 Torque,Actual Joint 0 Position,Actual Joint 1 Position,Actual Joint 2 Position,Actual Joint 3 Position,Actual Joint 4 Position,Actual Joint 5 Position,Actual Joint 6 Position,Actual Joint 0 Velocity,Actual Joint 1 Velocity,Actual Joint 2 Velocity,Actual Joint 3 Velocity,Actual Joint 4 Velocity,Actual Joint 5 Velocity,Actual Joint 6 Velocity,Actual Joint 0 Torque,Actual Joint 1 Torque,Actual Joint 2 Torque,Actual Joint 3 Torque,Actual Joint 4 Torque,Actual Joint 5 Torque,Actual Joint 6 Torque,EE ext force 0,EE ext force 1,EE ext force 2,EE ext force 3,EE ext force 4,EE ext force 5,joint ext torque 0,joint ext torque 1,joint ext torque 2,joint ext torque 3,joint ext torque 4,joint ext torque 5,joint ext torque 6,
0.0198899,-0.0520792,0.510933,-1.56092,0.0390886,-0.0130218,0.53294,0.0109281,0.0295915,0.0150418,-0.143119,-0.0745749,0.20043,-0.00125064,0,0,0,0,0,0,0,0.0198151,-0.0522052,0.510826,-1.5595,0.0396932,1.55579,1.31836,-0.00156921,-0.000835239,3.29003e-06,-0.000150931,0.00143279,0.000551532,0.000249795,0.209842,-27.4327,-0.788561,26.951,1.05163,3.09258,0.0706026,2.29169,1.96791,2.12289,-0.988311,1.28843,0.183731,0.19406,0.531527,0.190421,0.187558,0.181799,-0.310446,0.0870388,
0.0199475,-0.051879,0.511011,-1.56154,0.0387183,-0.0121867,0.532934,0.0143967,0.0500509,0.0192648,-0.153995,-0.0925757,0.208791,-0.00133967,0,0,0,0,0,0,0,0.0198151,-0.0522052,0.510826,-1.5595,0.0396932,1.55579,1.31836,-0.00156921,-0.000835239,3.29003e-06,-0.000150931,0.00143279,0.000551532,0.000249795,0.209842,-27.4327,-0.788561,26.951,1.05163,3.09258,0.0706026,2.29169,1.96791,2.12289,-0.988311,1.28843,0.183731,0.19406,0.531527,0.190421,0.187558,0.181799,-0.310446,0.0870388,
0.0198088,-0.052211,0.51082,-1.5595,0.0396949,-0.0150041,0.53296,-0.000271452,-0.000277882,-0.000237051,0.000237104,-0.000239956,0.000213537,9.01162e-06,0,0,0,0,0,0,0,0.0198151,-0.0522052,0.510826,-1.5595,0.0396932,1.55579,1.31836,-0.00156921,-0.000835239,3.29003e-06,-0.000150931,0.00143279,0.000551532,0.000249795,0.209842,-27.4327,-0.788561,26.951,1.05163,3.09258,0.0706026,2.25309,1.90151,2.10474,-0.947698,1.2635,0.164966,0.175288,0.519102,0.170743,0.186791,0.175724,-0.310863,0.0860827,
0.0198079,-0.0522121,0.51082,-1.5595,0.0396935,-0.0150032,0.53296,-0.000227372,-0.000259057,-0.00018305,0.000206328,-0.0003321,0.00021175,6.66058e-06,0,0,0,0,0,0,0,0.0198151,-0.0522052,0.510826,-1.5595,0.0396932,1.55579,1.31836,-0.00156921,-0.000835239,3.29003e-06,-0.000150931,0.00143279,0.000551532,0.000249795,0.209842,-27.4327,-0.788561,26.951,1.05163,3.09258,0.0706026,2.14449,1.83226,2.13258,-0.86613,1.14325,0.163325,0.175318,0.434086,0.164608,0.245882,0.181079,-0.27584,0.0863289,
0.0198071,-0.052213,0.510819,-1.5595,0.039692,-0.0150025,0.53296,-0.000193245,-0.000246962,-0.000140732,0.000180609,-0.00038483,0.000197818,5.11332e-06,0,0,0,0,0,0,0,0.0198151,-0.0522052,0.510826,-1.5595,0.0396932,1.55579,1.31836,-0.00156921,-0.000835239,3.29003e-06,-0.000150931,0.00143279,0.000551532,0.000249795,0.209842,-27.4327,-0.788561,26.951,1.05163,3.09258,0.0706026,2.14449,1.83226,2.13258,-0.86613,1.14325,0.163325,0.175318,0.434086,0.164608,0.245882,0.181079,-0.27584,0.0863289,
0.0198065,-0.052214,0.510819,-1.5595,0.0396904,-0.0150018,0.53296,-0.00016629,-0.000239273,-0.000106961,0.000159914,-0.000411435,0.000175164,4.04247e-06,0,0,0,0,0,0,0,0.0198151,-0.0522052,0.510826,-1.5595,0.0396932,1.55579,1.31836,-0.00156921,-0.000835239,3.29003e-06,-0.000150931,0.00143279,0.000551532,0.000249795,0.209842,-27.4327,-0.788561,26.951,1.05163,3.09258,0.0706026,1.08844,1.22982,1.68959,-0.541317,0.505379,0.182051,0.191142,0.145263,0.17992,0.197758,0.154453,-0.283247,0.0868637,
0.0198059,-0.0522149,0.510818,-1.5595,0.0396887,-0.0150012,0.53296,-0.000144628,-0.000234702,-7.95807e-05,0.000143403,-0.000420792,0.000147003,3.28513e-06,0,0,0,0,0,0,0,0.019822,-0.0523063,0.510827,-1.56009,0.0396007,1.55645,1.31835,-0.00174036,0.00406393,-4.9304e-05,-0.0243612,-0.00586488,0.0158813,-0.000729999,0.158268,-27.4843,-0.76079,27.8754,1.17981,3.54394,0.0980684,1.08844,1.22982,1.68959,-0.541317,0.505379,0.182051,0.191142,0.145263,0.17992,0.197758,0.154453,-0.283247,0.0868637,
0.0198054,-0.0522159,0.510818,-1.55949,0.039687,-0.0150007,0.53296,-0.00012694,-0.000232405,-5.70523e-05,0.000130209,-0.000418974,0.000115825,2.74463e-06,0,0,0,0,0,0,0,0.019822,-0.0523063,0.510827,-1.56009,0.0396007,1.55645,1.31835,-0.00174036,0.00406393,-4.9304e-05,-0.0243612,-0.00586488,0.0158813,-0.000729999,0.158268,-27.4843,-0.76079,27.8754,1.17981,3.54394,0.0980684,1.39688,1.74374,1.15169,-1.02768,0.919734,0.329906,0.331039,0.462919,0.351213,-0.0225267,0.169345,-0.248976,0.0860918,
0.0203035,-0.0522892,0.511305,-1.55906,0.0273356,-0.022427,0.53292,0.00685712,-0.00604484,0.00698431,0.00292119,-0.365917,-0.227571,-0.00107138,0,0,0,0,0,0,0,0.019822,-0.0523063,0.510827,-1.56009,0.0396007,1.55645,1.31835,-0.00174036,0.00406393,-4.9304e-05,-0.0243612,-0.00586488,0.0158813,-0.000729999,0.158268,-27.4843,-0.76079,27.8754,1.17981,3.54394,0.0980684,1.39688,1.74374,1.15169,-1.02768,0.919734,0.329906,0.331039,0.462919,0.351213,-0.0225267,0.169345,-0.248976,0.0860918,
0.0202665,-0.0521275,0.511272,-1.55987,0.0276547,-0.0216077,0.53292,0.00577783,-0.00281171,0.00595681,0.000845825,-0.350016,-0.221228,-0.000986625,0,0,0,0,0,0,0,0.019822,-0.0523063,0.510827,-1.56009,0.0396007,1.55645,1.31835,-0.00174036,0.00406393,-4.9304e-05,-0.0243612,-0.00586488,0.0158813,-0.000729999,0.158268,-27.4843,-0.76079,27.8754,1.17981,3.54394,0.0980684,2.53485,2.16693,1.01973,-1.38557,1.80782,0.204471,0.206085,0.976242,0.236215,-0.183136,0.150931,-0.232611,0.0847877,
0.0202855,-0.0521395,0.511292,-1.55987,0.0262368,-0.0225077,0.532916,0.00474359,-0.00299446,0.00491575,0.00036482,-0.354461,-0.225,-0.000964921,0,0,0,0,0,0,0,0.019822,-0.0523063,0.510827,-1.56009,0.0396007,1.55645,1.31835,-0.00174036,0.00406393,-4.9304e-05,-0.0243612,-0.00586488,0.0158813,-0.000729999,0.158268,-27.4843,-0.76079,27.8754,1.17981,3.54394,0.0980684,2.57404,1.9712,1.54733,-1.0908,1.60375,0.105184,0.10287,0.754475,0.129164,0.0612543,0.152964,-0.192318,0.0838045,
0.0203006,-0.0521517,0.511308,-1.55987,0.0248057,-0.0234192,0.532912,0.00377959,-0.00304555,0.00394383,-4.95697e-05,-0.357792,-0.227863,-0.000943353,0,0,0,0,0,0,0,0.0198377,-0.0523023,0.510825,-1.56015,0.0394989,1.55645,1.31835,0.00129331,-0.000305813,0.000395386,-0.000447561,-0.0349967,-0.00812454,-0.000678051,-0.0718349,-27.7342,-0.911547,27.1771,0.538937,3.28484,0.0980684,2.57404,1.9712,1.54733,-1.0908,1.60375,0.105184,0.10287,0.754475,0.129164,0.0612543,0.152964,-0.192318,0.0838045,
0.0203122,-0.0521637,0.51132,-1.55987,0.0233648,-0.0243391,0.532908,0.00288803,-0.00299837,0.00304393,-0.000408751,-0.36022,-0.229976,-0.000922331,0,0,0,0,0,0,0,0.0198377,-0.0523023,0.510825,-1.56015,0.0394989,1.55645,1.31835,0.00129331,-0.000305813,0.000395386,-0.000447561,-0.0349967,-0.00812454,-0.000678051,-0.0718349,-27.7342,-0.911547,27.1771,0.538937,3.28484,0.0980684,2.41853,2.68048,1.46219,-1.59464,1.5392,0.470579,0.459788,0.746911,0.516126,0.0224939,0.212543,-0.184166,0.086465,
0.0203204,-0.0521752,0.511329,-1.55988,0.0219171,-0.0252649,0.532905,0.00206832,-0.00287948,0.00221585,-0.000721476,-0.36191,-0.231469,-0.000902082,0,0,0,0,0,0,0,0.0198377,-0.0523023,0.510825,-1.56015,0.0394989,1.55645,1.31835,0.00129331,-0.000305813,0.000395386,-0.000447561,-0.0349967,-0.00812454,-0.000678051,-0.0718349,-27.7342,-0.911547,27.1771,0.538937,3.28484,0.0980684,2.41853,2.68048,1.46219,-1.59464,1.5392,0.470579,0.459788,0.746911,0.516126,0.0224939,0.212543,-0.184166,0.086465,
0.0203257,-0.052186,0.511335,-1.55988,0.0204652,-0.0261947,0.532901,0.00131806,-0.00270978,0.00145744,-0.000994561,-0.362993,-0.232451,-0.000882718,0,0,0,0,0,0,0,0.0198377,-0.0523023,0.510825,-1.56015,0.0394989,1.55645,1.31835,0.00129331,-0.000305813,0.000395386,-0.000447561,-0.0349967,-0.00812454,-0.000678051,-0.0718349,-27.7342,-0.911547,27.1771,0.538937,3.28484,0.0980684,1.96907,2.24041,1.57675,-1.36482,1.10628,0.386008,0.363279,0.461715,0.438891,0.10429,0.0750393,-0.207226,0.08964,
0.0207675,-0.052171,0.511696,-1.55852,-0.00198823,-0.0563677,0.532429,0.00184408,-0.00758931,0.000935483,-0.0002572,-1.13766,-1.14939,-0.0108958,0,0,0,0,0,0,0,0.0198377,-0.0523023,0.510825,-1.56015,0.0394989,1.55645,1.31835,0.00129331,-0.000305813,0.000395386,-0.000447561,-0.0349967,-0.00812454,-0.000678051,-0.0718349,-27.7342,-0.911547,27.1771,0.538937,3.28484,0.0980684,1.58583,2.04792,1.82131,-1.26743,0.723071,0.402139,0.371578,0.205262,0.460976,0.188544,-0.0158007,-0.260543,0.0889427,
0.0208451,-0.0524226,0.511758,-1.55855,-0.00249346,-0.0524801,0.532487,0.00370469,-0.00966575,0.00294816,0.000973462,-1.14081,-1.04153,-0.00969195,0,0,0,0,0,0,0,0.0198377,-0.0523023,0.510825,-1.56015,0.0394989,1.55645,1.31835,0.00129331,-0.000305813,0.000395386,-0.000447561,-0.0349967,-0.00812454,-0.000678051,-0.0718349,-27.7342,-0.911547,27.1771,0.538937,3.28484,0.0980684,1.58583,2.04792,1.82131,-1.26743,0.723071,0.402139,0.371578,0.205262,0.460976,0.188544,-0.0158007,-0.260543,0.0889427,
0.0208475,-0.052454,0.511757,-1.55856,-0.00712405,-0.0566903,0.532448,0.000599854,-0.00785704,-0.000126158,-0.00229415,-1.15765,-1.05255,-0.0095554,0,0,0,0,0,0,0,0.0199389,-0.0523112,0.510951,-1.56011,0.0346219,1.55611,1.31836,0.00635111,-0.0015217,0.00466352,0.000842752,-0.174302,-0.00978759,0.000524104,-0.754208,-27.6073,-1.58599,27.0541,0.17181,2.95342,0.0706026,2.7532,2.19367,1.63041,-1.5308,1.67744,0.138494,0.108092,0.775442,0.208216,-0.0557922,-0.111996,-0.314129,0.0873364,
0.0208384,-0.0524776,0.511745,-1.55858,-0.0118108,-0.0609301,0.532411,-0.00228756,-0.00590946,-0.00299066,-0.00514418,-1.17169,-1.05994,-0.00941955,0,0,0,0,0,0,0,0.0199389,-0.0523112,0.510951,-1.56011,0.0346219,1.55611,1.31836,0.00635111,-0.0015217,0.00466352,0.000842752,-0.174302,-0.00978759,0.000524104,-0.754208,-27.6073,-1.58599,27.0541,0.17181,2.95342,0.0706026,2.7532,2.19367,1.63041,-1.5308,1.67744,0.138494,0.108092,0.775442,0.208216,-0.0557922,-0.111996,-0.314129,0.0873364,
0.0208185,-0.0524932,0.511723,-1.55861,-0.0165445,-0.0651873,0.532374,-0.00496019,-0.00390104,-0.00564662,-0.00762803,-1.18343,-1.0643,-0.00928503,0,0,0,0,0,0,0,0.0199389,-0.0523112,0.510951,-1.56011,0.0346219,1.55611,1.31836,0.00635111,-0.0015217,0.00466352,0.000842752,-0.174302,-0.00978759,0.000524104,-0.754208,-27.6073,-1.58599,27.0541,0.17181,2.95342,0.0706026,3.54826,3.41962,2.28922,-2.26534,1.98074,0.468262,0.438196,0.821195,0.554508,0.125133,-0.101047,-0.253539,0.090622,
0.0207888,-0.0525008,0.51169,-1.55865,-0.0213176,-0.0694519,0.532337,-0.00742484,-0.00189004,-0.00809984,-0.00978942,-1.19327,-1.06616,-0.00915221,0,0,0,0,0,0,0,0.0199389,-0.0523112,0.510951,-1.56011,0.0346219,1.55611,1.31836,0.00635111,-0.0015217,0.00466352,0.000842752,-0.174302,-0.00978759,0.000524104,-0.754208,-27.6073,-1.58599,27.0541,0.17181,2.95342,0.0706026,3.54826,3.41962,2.28922,-2.26534,1.98074,0.468262,0.438196,0.821195,0.554508,0.125133,-0.101047,-0.253539,0.090622,
0.02075,-0.0525005,0.511649,-1.5587,-0.0261237,-0.0737157,0.532301,-0.00969086,8.08916e-05,-0.0103589,-0.0116659,-1.20152,-1.06595,-0.00902124,0,0,0,0,0,0,0,0.0199389,-0.0523112,0.510951,-1.56011,0.0346219,1.55611,1.31836,0.00635111,-0.0015217,0.00466352,0.000842752,-0.174302,-0.00978759,0.000524104,-0.754208,-27.6073,-1.58599,27.0541,0.17181,2.95342,0.0706026,3.3247,3.53002,2.8008,-2.43097,1.70943,0.564191,0.522012,0.627124,0.668997,0.152712,-0.228049,-0.434933,0.0967274,
0.0150962,-0.0511797,0.505634,-1.56209,0.00460349,-0.0570836,0.528309,-0.161899,0.0543288,-0.171393,-0.0843525,-1.03544,-1.22523,-0.0915128,0,0,0,0,0,0,0,0.0202177,-0.0523561,0.511168,-1.55974,0.0263982,1.5529,1.31835,0.017793,-0.00137897,0.0216452,0.0325952,-0.599654,-0.278366,0.000301409,-1.49212,-27.3097,-2.26042,25.3323,-0.615543,1.62041,0.0641939,3.3247,3.53002,2.8008,-2.43097,1.70943,0.564191,0.522012,0.627124,0.668997,0.152712,-0.228049,-0.434933,0.0967274,
0.015231,-0.0516368,0.505784,-1.56173,-0.0164626,-0.0645057,0.528795,-0.163674,0.0518169,-0.172505,-0.0793234,-1.08218,-1.24717,-0.0808192,0,0,0,0,0,0,0,0.0202177,-0.0523561,0.511168,-1.55974,0.0263982,1.5529,1.31835,0.017793,-0.00137897,0.0216452,0.0325952,-0.599654,-0.278366,0.000301409,-1.49212,-27.3097,-2.26042,25.3323,-0.615543,1.62041,0.0641939,3.72186,2.56134,2.61291,-2.32739,2.14652,-0.0145203,-0.0626481,0.936432,0.1072,-0.268609,-0.704595,-0.788942,0.0967283,
0.014552,-0.0514045,0.505069,-1.56206,-0.0208758,-0.069572,0.528476,-0.16974,0.0580749,-0.178566,-0.0834021,-1.10329,-1.26656,-0.0797713,0,0,0,0,0,0,0,0.0202177,-0.0523561,0.511168,-1.55974,0.0263982,1.5529,1.31835,0.017793,-0.00137897,0.0216452,0.0325952,-0.599654,-0.278366,0.000301409,-1.49212,-27.3097,-2.26042,25.3323,-0.615543,1.62041,0.0641939,2.6991,2.25602,3.14932,-2.18282,1.23908,0.123252,0.0704932,0.369083,0.247866,-0.123161,-0.851318,-0.957267,0.0917534,
0.0138514,-0.0511488,0.504334,-1.56241,-0.0253642,-0.0747025,0.528161,-0.175155,0.0639184,-0.183974,-0.0869746,-1.12211,-1.28262,-0.0787331,0,0,0,0,0,0,0,0.0202177,-0.0523561,0.511168,-1.55974,0.0263982,1.5529,1.31835,0.017793,-0.00137897,0.0216452,0.0325952,-0.599654,-0.278366,0.000301409,-1.49212,-27.3097,-2.26042,25.3323,-0.615543,1.62041,0.0641939,2.6991,2.25602,3.14932,-2.18282,1.23908,0.123252,0.0704932,0.369083,0.247866,-0.123161,-0.851318,-0.957267,0.0917534,
0.0131315,-0.0508715,0.503578,-1.56277,-0.0299196,-0.0798861,0.52785,-0.179986,0.0693375,-0.188801,-0.0900828,-1.13885,-1.29591,-0.0777023,0,0,0,0,0,0,0,0.0202177,-0.0523561,0.511168,-1.55974,0.0263982,1.5529,1.31835,0.017793,-0.00137897,0.0216452,0.0325952,-0.599654,-0.278366,0.000301409,-1.49212,-27.3097,-2.26042,25.3323,-0.615543,1.62041,0.0641939,1.54639,2.75364,3.74913,-2.34323,0.257868,0.682406,0.635265,-0.2277,0.801982,0.129106,-0.721546,-1.01857,0.0764977,
0.0123943,-0.0505742,0.502806,-1.56314,-0.0345346,-0.0851135,0.527544,-0.184291,0.0743325,-0.193104,-0.0927671,-1.15373,-1.30685,-0.0766776,0,0,0,0,0,0,0,0.0202177,-0.0523561,0.511168,-1.55974,0.0263982,1.5529,1.31835,0.017793,-0.00137897,0.0216452,0.0325952,-0.599654,-0.278366,0.000301409,-1.49212,-27.3097,-2.26042,25.3323,-0.615543,1.62041,0.0641939,1.54639,2.75364,3.74913,-2.34323,0.257868,0.682406,0.635265,-0.2277,0.801982,0.129106,-0.721546,-1.01857,0.0764977,
0.0111261,-0.0510344,0.501567,-1.56443,-0.00607402,-0.0577546,0.525504,-0.306558,0.0968938,-0.319685,-0.150362,-0.953517,-1.18878,-0.159279,0,0,0,0,0,0,0,0.0209838,-0.0525236,0.511931,-1.55876,-0.00448388,1.53669,1.31806,-0.000397317,-0.00673758,-0.0025034,-0.00130314,-0.758042,-0.458796,-0.0330329,-3.92407,-25.3618,-5.03752,25.011,-1.07422,0.957571,0.00376909,1.8498,1.79621,3.8878,-1.73508,0.570725,0.171149,0.151202,-0.021509,0.250164,0.00136119,-0.786968,-1.21306,0.0515615,
0.0116942,-0.050997,0.502174,-1.56347,-0.0402543,-0.0770685,0.526005,-0.302527,0.0972499,-0.314735,-0.141828,-0.983652,-1.20911,-0.140952,0,0,0,0,0,0,0,0.0209838,-0.0525236,0.511931,-1.55876,-0.00448388,1.53669,1.31806,-0.000397317,-0.00673758,-0.0025034,-0.00130314,-0.758042,-0.458796,-0.0330329,-3.92407,-25.3618,-5.03752,25.011,-1.07422,0.957571,0.00376909,1.8498,1.79621,3.8878,-1.73508,0.570725,0.171149,0.151202,-0.021509,0.250164,0.00136119,-0.786968,-1.21306,0.0515615,
0.0104448,-0.0505682,0.500876,-1.56406,-0.044309,-0.0819833,0.525449,-0.312354,0.107193,-0.324618,-0.146317,-1.01367,-1.2287,-0.13898,0,0,0,0,0,0,0,0.0209838,-0.0525236,0.511931,-1.55876,-0.00448388,1.53669,1.31806,-0.000397317,-0.00673758,-0.0025034,-0.00130314,-0.758042,-0.458796,-0.0330329,-3.92407,-25.3618,-5.03752,25.011,-1.07422,0.957571,0.00376909,3.88228,0.275428,3.73589,-0.915425,2.21769,-1.08918,-1.09433,0.941875,-1.04,-0.379952,-1.0281,-1.4155,0.0306441,
0.00916076,-0.0501029,0.499543,-1.56466,-0.0484737,-0.0869632,0.524901,-0.321017,0.116325,-0.333327,-0.15025,-1.0412,-1.24498,-0.13703,0,0,0,0,0,0,0,0.0209838,-0.0525236,0.511931,-1.55876,-0.00448388,1.53669,1.31806,-0.000397317,-0.00673758,-0.0025034,-0.00130314,-0.758042,-0.458796,-0.0330329,-3.92407,-25.3618,-5.03752,25.011,-1.07422,0.957571,0.00376909,3.21756,-0.251168,3.55789,-0.60277,1.84784,-1.12972,-1.13295,0.790619,-1.0892,-0.439038,-1.03247,-1.49497,0.00790608,
0.00784613,-0.0496042,0.498179,-1.56527,-0.0527389,-0.0919971,0.524361,-0.328656,0.124675,-0.341006,-0.153658,-1.06629,-1.25848,-0.135095,0,0,0,0,0,0,0,0.0209838,-0.0525236,0.511931,-1.55876,-0.00448388,1.53669,1.31806,-0.000397317,-0.00673758,-0.0025034,-0.00130314,-0.758042,-0.458796,-0.0330329,-3.92407,-25.3618,-5.03752,25.011,-1.07422,0.957571,0.00376909,3.21756,-0.251168,3.55789,-0.60277,1.84784,-1.12972,-1.13295,0.790619,-1.0892,-0.439038,-1.03247,-1.49497,0.00790608,
0.00650458,-0.0490751,0.496787,-1.5659,-0.0570952,-0.0970757,0.523828,-0.335388,0.132278,-0.347775,-0.156575,-1.08908,-1.26964,-0.133173,0,0,0,0,0,0,0,0.0208376,-0.0529791,0.511703,-1.55903,-0.0286129,1.51981,1.31671,-0.0214478,-0.0102091,-0.0364358,-0.0251844,-0.67985,-0.517998,-0.0492618,-5.97912,-24.7112,-6.88628,24.3127,-0.658573,0.997854,-0.130813,1.07319,-0.00220296,2.88255,-0.811269,0.657948,-0.391642,-0.400873,0.317041,-0.339692,-0.579402,-0.814727,-1.569,-0.0235545,
0.00547479,-0.0496993,0.495836,-1.56707,-0.0385096,-0.0801006,0.521719,-0.453675,0.156794,-0.468193,-0.214711,-0.930536,-1.19438,-0.21157,0,0,0,0,0,0,0,0.0208376,-0.0529791,0.511703,-1.55903,-0.0286129,1.51981,1.31671,-0.0214478,-0.0102091,-0.0364358,-0.0251844,-0.67985,-0.517998,-0.0492618,-5.97912,-24.7112,-6.88628,24.3127,-0.658573,0.997854,-0.130813,1.07319,-0.00220296,2.88255,-0.811269,0.657948,-0.391642,-0.400873,0.317041,-0.339692,-0.579402,-0.814727,-1.569,-0.0235545,
0.00564514,-0.0501309,0.495981,-1.56655,-0.0631021,-0.0983343,0.521793,-0.436276,0.146776,-0.449389,-0.192139,-0.942978,-1.20162,-0.182025,0,0,0,0,0,0,0,0.0208376,-0.0529791,0.511703,-1.55903,-0.0286129,1.51981,1.31671,-0.0214478,-0.0102091,-0.0364358,-0.0251844,-0.67985,-0.517998,-0.0492618,-5.97912,-24.7112,-6.88628,24.3127,-0.658573,0.997854,-0.130813,0.779514,-0.109434,2.93012,-0.598689,0.495768,-0.33933,-0.350273,0.248532,-0.295088,-0.533776,-0.67053,-1.57348,-0.0514307,
0.00385623,-0.0494985,0.49414,-1.56734,-0.0670157,-0.103201,0.521076,-0.447227,0.15812,-0.460419,-0.195986,-0.978397,-1.2168,-0.179186,0,0,0,0,0,0,0,0.0208376,-0.0529791,0.511703,-1.55903,-0.0286129,1.51981,1.31671,-0.0214478,-0.0102091,-0.0364358,-0.0251844,-0.67985,-0.517998,-0.0492618,-5.97912,-24.7112,-6.88628,24.3127,-0.658573,0.997854,-0.130813,0.779514,-0.109434,2.93012,-0.598689,0.495768,-0.33933,-0.350273,0.248532,-0.295088,-0.533776,-0.67053,-1.57348,-0.0514307,
0.0020289,-0.0488248,0.492259,-1.56813,-0.0710591,-0.108119,0.520371,-0.456831,0.168418,-0.470093,-0.19928,-1.01085,-1.22936,-0.176369,0,0,0,0,0,0,0,0.0208376,-0.0529791,0.511703,-1.55903,-0.0286129,1.51981,1.31671,-0.0214478,-0.0102091,-0.0364358,-0.0251844,-0.67985,-0.517998,-0.0492618,-5.97912,-24.7112,-6.88628,24.3127,-0.658573,0.997854,-0.130813,1.86276,-0.261463,3.45801,-0.325894,1.02627,-0.683648,-0.691628,0.413688,-0.653155,-0.336364,-0.688377,-1.48136,-0.0830373,
0.000167928,-0.0481139,0.490345,-1.56894,-0.0752208,-0.113078,0.519677,-0.465244,0.17773,-0.478569,-0.202052,-1.04043,-1.23972,-0.173571,0,0,0,0,0,0,0,0.0183172,-0.0536967,0.508369,-1.56106,-0.0569571,1.49543,1.31438,-0.100921,-0.0298647,-0.116317,-0.0698454,-0.639894,-0.638941,-0.0774591,-6.8916,-22.9656,-7.88603,23.8406,-0.633854,1.79986,-0.197647,1.82009,0.667788,3.00663,-0.942924,1.13219,-0.212323,-0.229526,0.539165,-0.157291,-0.41482,-0.533226,-1.347,-0.112537,
-0.00172247,-0.0473694,0.488401,-1.56976,-0.07949,-0.118071,0.518994,-0.472598,0.18612,-0.485983,-0.204337,-1.0673,-1.24823,-0.170788,0,0,0,0,0,0,0,0.0183172,-0.0536967,0.508369,-1.56106,-0.0569571,1.49543,1.31438,-0.100921,-0.0298647,-0.116317,-0.0698454,-0.639894,-0.638941,-0.0774591,-6.8916,-22.9656,-7.88603,23.8406,-0.633854,1.79986,-0.197647,1.82009,0.667788,3.00663,-0.942924,1.13219,-0.212323,-0.229526,0.539165,-0.157291,-0.41482,-0.533226,-1.347,-0.112537,
-0.00363849,-0.0465948,0.486431,-1.57058,-0.0838565,-0.123091,0.518321,-0.479006,0.193649,-0.49245,-0.206172,-1.09163,-1.25517,-0.168017,0,0,0,0,0,0,0,0.0183172,-0.0536967,0.508369,-1.56106,-0.0569571,1.49543,1.31438,-0.100921,-0.0298647,-0.116317,-0.0698454,-0.639894,-0.638941,-0.0774591,-6.8916,-22.9656,-7.88603,23.8406,-0.633854,1.79986,-0.197647,2.03163,0.694964,1.86605,-1.0173,1.71108,-0.219096,-0.242799,1.0476,-0.155076,-0.746385,-0.356251,-1.2243,-0.14171,
0.00100126,-0.0493221,0.491303,-1.56935,-0.0577739,-0.096487,0.518197,-0.567791,0.193324,-0.582346,-0.255152,-0.867323,-1.16801,-0.25185,0,0,0,0,0,0,0,0.0183172,-0.0536967,0.508369,-1.56106,-0.0569571,1.49543,1.31438,-0.100921,-0.0298647,-0.116317,-0.0698454,-0.639894,-0.638941,-0.0774591,-6.8916,-22.9656,-7.88603,23.8406,-0.633854,1.79986,-0.197647,2.03163,0.694964,1.86605,-1.0173,1.71108,-0.219096,-0.242799,1.0476,-0.155076,-0.746385,-0.356251,-1.2243,-0.14171,
-0.00200857,-0.0498233,0.487529,-1.57037,-0.0892265,-0.123476,0.51776,-0.554565,0.185603,-0.567543,-0.227765,-0.913867,-1.17903,-0.212875,0,0,0,0,0,0,0,0.0183172,-0.0536967,0.508369,-1.56106,-0.0569571,1.49543,1.31438,-0.100921,-0.0298647,-0.116317,-0.0698454,-0.639894,-0.638941,-0.0774591,-6.8916,-22.9656,-7.88603,23.8406,-0.633854,1.79986,-0.197647,0.820711,0.436141,2.38004,-0.445701,0.533631,0.0295783,0.003748,0.264519,0.0702244,-0.238346,-0.163892,-1.03354,-0.173388,
-0.00427389,-0.0490301,0.485211,-1.5713,-0.0930379,-0.128243,0.516923,-0.56633,0.198293,-0.5794,-0.231337,-0.952855,-1.19171,-0.209197,0,0,0,0,0,0,0,0.0183172,-0.0536967,0.508369,-1.56106,-0.0569571,1.49543,1.31438,-0.100921,-0.0298647,-0.116317,-0.0698454,-0.639894,-0.638941,-0.0774591,-6.8916,-22.9656,-7.88603,23.8406,-0.633854,1.79986,-0.197647,0.820711,0.436141,2.38004,-0.445701,0.533631,0.0295783,0.003748,0.264519,0.0702244,-0.238346,-0.163892,-1.03354,-0.173388,
-0.00658022,-0.0481913,0.482852,-1.57224,-0.0969925,-0.133052,0.516101,-0.576583,0.209699,-0.589733,-0.234342,-0.988652,-1.2022,-0.205548,0,0,0,0,0,0,0,0.0141838,-0.0539673,0.503115,-1.5637,-0.0807061,1.47159,1.31149,-0.155248,-0.00509033,-0.199911,-0.0964422,-0.696802,-0.755746,-0.097141,-6.96698,-23.1639,-7.88603,23.9398,-0.591739,1.91247,-0.26448,0.419437,0.724057,2.52144,-0.454592,0.0743471,0.303552,0.27044,-0.0629739,0.346519,0.0189044,-0.0571812,-0.850487,-0.199159,
-0.00892221,-0.0473116,0.480458,-1.57318,-0.101078,-0.137895,0.515293,-0.585497,0.219912,-0.59872,-0.236811,-1.02135,-1.21083,-0.201922,0,0,0,0,0,0,0,0.0141838,-0.0539673,0.503115,-1.5637,-0.0807061,1.47159,1.31149,-0.155248,-0.00509033,-0.199911,-0.0964422,-0.696802,-0.755746,-0.097141,-6.96698,-23.1639,-7.88603,23.9398,-0.591739,1.91247,-0.26448,0.10034,1.37741,1.27337,-1.18487,0.347587,0.718761,0.679552,0.322722,0.793801,-0.455623,0.00834005,-0.846336,-0.223168,
-0.0112951,-0.0463956,0.478032,-1.57414,-0.105282,-0.142766,0.5145,-0.593221,0.229019,-0.606512,-0.238779,-1.0511,-1.21788,-0.198318,0,0,0,0,0,0,0,0.0141838,-0.0539673,0.503115,-1.5637,-0.0807061,1.47159,1.31149,-0.155248,-0.00509033,-0.199911,-0.0964422,-0.696802,-0.755746,-0.097141,-6.96698,-23.1639,-7.88603,23.9398,-0.591739,1.91247,-0.26448,0.10034,1.37741,1.27337,-1.18487,0.347587,0.718761,0.679552,0.322722,0.793801,-0.455623,0.00834005,-0.846336,-0.223168,
-0.00637754,-0.0490404,0.483597,-1.57307,-0.0844991,-0.121613,0.514278,-0.675015,0.229123,-0.68941,-0.288456,-0.841834,-1.14551,-0.280441,0,0,0,0,0,0,0,0.0141838,-0.0539673,0.503115,-1.5637,-0.0807061,1.47159,1.31149,-0.155248,-0.00509033,-0.199911,-0.0964422,-0.696802,-0.755746,-0.097141,-6.96698,-23.1639,-7.88603,23.9398,-0.591739,1.91247,-0.26448,-0.24731,0.649186,1.02372,-0.643705,0.0924019,0.506837,0.459805,0.178257,0.573608,-0.386135,0.00481715,-0.745934,-0.243342,
-0.0108548,-0.0486769,0.477591,-1.57466,-0.112584,-0.147986,0.513709,-0.660167,0.221327,-0.672777,-0.257601,-0.904466,-1.16005,-0.232664,0,0,0,0,0,0,0,0.0141838,-0.0539673,0.503115,-1.5637,-0.0807061,1.47159,1.31149,-0.155248,-0.00509033,-0.199911,-0.0964422,-0.696802,-0.755746,-0.097141,-6.96698,-23.1639,-7.88603,23.9398,-0.591739,1.91247,-0.26448,-0.24731,0.649186,1.02372,-0.643705,0.0924019,0.506837,0.459805,0.178257,0.573608,-0.386135,0.00481715,-0.745934,-0.243342,
-0.0135431,-0.04774,0.474852,-1.5757,-0.116365,-0.152667,0.512796,-0.672085,0.234217,-0.684793,-0.260585,-0.945293,-1.1703,-0.228232,0,0,0,0,0,0,0,0.00793557,-0.0540004,0.495736,-1.56711,-0.10146,1.44739,1.30862,-0.230783,0.00546592,-0.254384,-0.119526,-0.684766,-0.787709,-0.0791302,-6.94317,-23.4139,-7.88603,24.6857,-1.3974,1.70739,-0.311172,1.20707,0.453992,0.919631,-0.457667,1.13656,0.0514311,0.012076,0.736277,0.10488,-0.443881,0.00873371,-0.639902,-0.256958,
-0.0162726,-0.0467573,0.472071,-1.57676,-0.120297,-0.157382,0.511901,-0.682356,0.24568,-0.695147,-0.263011,-0.982881,-1.17874,-0.22384,0,0,0,0,0,0,0,0.00793557,-0.0540004,0.495736,-1.56711,-0.10146,1.44739,1.30862,-0.230783,0.00546592,-0.254384,-0.119526,-0.684766,-0.787709,-0.0791302,-6.94317,-23.4139,-7.88603,24.6857,-1.3974,1.70739,-0.311172,0.420807,1.78065,0.464189,-1.52521,0.803157,0.883416,0.849511,0.667978,0.964114,-0.649123,0.0835494,-0.677123,-0.271614,
-0.0190372,-0.045734,0.469255,-1.57782,-0.124366,-0.162125,0.511023,-0.691169,0.255821,-0.704032,-0.264904,-1.0173,-1.18565,-0.219487,0,0,0,0,0,0,0,0.00793557,-0.0540004,0.495736,-1.56711,-0.10146,1.44739,1.30862,-0.230783,0.00546592,-0.254384,-0.119526,-0.684766,-0.787709,-0.0791302,-6.94317,-23.4139,-7.88603,24.6857,-1.3974,1.70739,-0.311172,0.420807,1.78065,0.464189,-1.52521,0.803157,0.883416,0.849511,0.667978,0.964114,-0.649123,0.0835494,-0.677123,-0.271614,
-0.021832,-0.044675,0.466409,-1.57888,-0.128561,-0.16689,0.510162,-0.69868,0.26474,-0.71161,-0.266291,-1.04867,-1.19127,-0.21517,0,0,0,0,0,0,0,0.00793557,-0.0540004,0.495736,-1.56711,-0.10146,1.44739,1.30862,-0.230783,0.00546592,-0.254384,-0.119526,-0.684766,-0.787709,-0.0791302,-6.94317,-23.4139,-7.88603,24.6857,-1.3974,1.70739,-0.311172,-0.479921,1.91188,-0.226662,-1.828,0.44406,1.19046,1.15504,0.606344,1.28573,-0.899472,0.0597886,-0.736929,-0.280723,
-0.0246529,-0.0435872,0.463536,-1.57996,-0.132868,-0.171639,0.509319,-0.705224,0.27195,-0.718234,-0.268882,-1.07672,-1.1873,-0.21087,0,0,0,0,0,0,0,0.00793557,-0.0540004,0.495736,-1.56711,-0.10146,1.44739,1.30862,-0.230783,0.00546592,-0.254384,-0.119526,-0.684766,-0.787709,-0.0791302,-6.94317,-23.4139,-7.88603,24.6857,-1.3974,1.70739,-0.311172,-0.479921,1.91188,-0.226662,-1.828,0.44406,1.19046,1.15504,0.606344,1.28573,-0.899472,0.0597886,-0.736929,-0.280723,
-0.0125371,-0.047366,0.476967,-1.57717,-0.111046,-0.146457,0.510363,-0.716019,0.268088,-0.707175,-0.319007,-0.861687,-1.13434,-0.298249,0,0,0,0,0,0,0,0.00793557,-0.0540004,0.495736,-1.56711,-0.10146,1.44739,1.30862,-0.230783,0.00546592,-0.254384,-0.119526,-0.684766,-0.787709,-0.0791302,-6.94317,-23.4139,-7.88603,24.6857,-1.3974,1.70739,-0.311172,-0.164184,0.244402,-0.188008,-0.697786,0.6657,0.331815,0.295791,0.71923,0.397908,-0.914018,-0.0727177,-0.815019,-0.28493,
-0.0202282,-0.0475467,0.468141,-1.57917,-0.133665,-0.171526,0.510185,-0.733972,0.240875,-0.725291,-0.289007,-0.888317,-1.07853,-0.243218,0,0,0,0,0,0,0,-0.00111424,-0.0536983,0.485963,-1.57119,-0.120032,1.42395,1.30548,-0.29739,0.0253044,-0.339071,-0.135725,-0.617202,-0.735847,-0.111434,-7.22088,-23.6638,-8.15978,24.2612,-1.44593,1.58105,-0.318497,0.189662,-1.56714,0.279242,0.579425,0.677964,-0.599845,-0.63741,0.613674,-0.566611,-0.726589,-0.283774,-0.855214,-0.288504,
-0.0232253,-0.0465408,0.465177,-1.58036,-0.137361,-0.175653,0.509233,-0.749292,0.251467,-0.740908,-0.297319,-0.924002,-1.03167,-0.23808,0,0,0,0,0,0,0,-0.00111424,-0.0536983,0.485963,-1.57119,-0.120032,1.42395,1.30548,-0.29739,0.0253044,-0.339071,-0.135725,-0.617202,-0.735847,-0.111434,-7.22088,-23.6638,-8.15978,24.2612,-1.44593,1.58105,-0.318497,0.189662,-1.56714,0.279242,0.579425,0.677964,-0.599845,-0.63741,0.613674,-0.566611,-0.726589,-0.283774,-0.855214,-0.288504,
-0.0262684,-0.0454957,0.462152,-1.58158,-0.141192,-0.179535,0.508301,-0.760772,0.261289,-0.756482,-0.304425,-0.957556,-0.970488,-0.232916,0,0,0,0,0,0,0,-0.00111424,-0.0536983,0.485963,-1.57119,-0.120032,1.42395,1.30548,-0.29739,0.0253044,-0.339071,-0.135725,-0.617202,-0.735847,-0.111434,-7.22088,-23.6638,-8.15978,24.2612,-1.44593,1.58105,-0.318497,1.03694,-2.41673,-0.0801983,0.92436,1.42443,-1.19823,-1.22945,1.07875,-1.17309,-0.981081,-0.500274,-0.932418,-0.289706,
-0.0293458,-0.044413,0.459067,-1.58281,-0.145148,-0.183148,0.507389,-0.769344,0.27067,-0.771042,-0.309182,-0.989176,-0.9033,-0.22797,0,0,0,0,0,0,0,-0.00111424,-0.0536983,0.485963,-1.57119,-0.120032,1.42395,1.30548,-0.29739,0.0253044,-0.339071,-0.135725,-0.617202,-0.735847,-0.111434,-7.22088,-23.6638,-8.15978,24.2612,-1.44593,1.58105,-0.318497,1.03694,-2.41673,-0.0801983,0.92436,1.42443,-1.19823,-1.22945,1.07875,-1.17309,-0.981081,-0.500274,-0.932418,-0.289706,
-0.0324506,-0.0432967,0.455931,-1.58406,-0.149221,-0.186469,0.506497,-0.776204,0.279084,-0.784141,-0.312573,-1.01825,-0.830392,-0.223138,0,0,0,0,0,0,0,-0.00111424,-0.0536983,0.485963,-1.57119,-0.120032,1.42395,1.30548,-0.29739,0.0253044,-0.339071,-0.135725,-0.617202,-0.735847,-0.111434,-7.22088,-23.6638,-8.15978,24.2612,-1.44593,1.58105,-0.318497,0.781435,-1.10054,-0.461692,-0.147584,1.46884,-0.515102,-0.534118,1.20195,-0.469156,-1.22263,-0.468655,-0.986923,-0.294046,
-0.0171054,-0.0471148,0.47119,-1.58016,-0.130202,-0.166095,0.508154,-0.712025,0.282234,-0.703338,-0.336008,-0.850747,-1.10764,-0.31301,0,0,0,0,0,0,0,-0.0122969,-0.0527818,0.474304,-1.5763,-0.138119,1.40236,1.30159,-0.378606,0.0276281,-0.397894,-0.18255,-0.529209,-0.604769,-0.117336,-6.63769,-24.2391,-7.43773,24.2889,-0.988163,1.73394,-0.258072,0.781435,-1.10054,-0.461692,-0.147584,1.46884,-0.515102,-0.534118,1.20195,-0.469156,-1.22263,-0.468655,-0.986923,-0.294046,
-0.0400312,-0.0451697,0.447003,-1.58848,-0.168642,-0.204505,0.503651,-0.748261,0.261506,-0.740402,-0.331408,-0.894355,-0.669251,-0.257996,0,0,0,0,0,0,0,-0.0122969,-0.0527818,0.474304,-1.5763,-0.138119,1.40236,1.30159,-0.378606,0.0276281,-0.397894,-0.18255,-0.529209,-0.604769,-0.117336,-6.63769,-24.2391,-7.43773,24.2889,-0.988163,1.73394,-0.258072,0.025641,-0.679643,-0.612389,-0.403454,0.994582,-0.140126,-0.173673,0.974939,-0.0751436,-1.21025,-0.380504,-0.962696,-0.291689,
-0.0430824,-0.0440825,0.443982,-1.58984,-0.172347,-0.206776,0.502639,-0.762788,0.271805,-0.755182,-0.338569,-0.926292,-0.567736,-0.252943,0,0,0,0,0,0,0,-0.0122969,-0.0527818,0.474304,-1.5763,-0.138119,1.40236,1.30159,-0.378606,0.0276281,-0.397894,-0.18255,-0.529209,-0.604769,-0.117336,-6.63769,-24.2391,-7.43773,24.2889,-0.988163,1.73394,-0.258072,-1.62571,0.0942068,-0.635051,-0.968129,-0.16401,0.6088,0.568064,0.3571,0.694739,-1.14306,-0.340165,-0.992194,-0.290493,
-0.0461862,-0.0429601,0.440908,-1.59121,-0.176167,-0.208584,0.501647,-0.775951,0.280591,-0.768594,-0.344734,-0.954875,-0.451848,-0.248022,0,0,0,0,0,0,0,-0.0122969,-0.0527818,0.474304,-1.5763,-0.138119,1.40236,1.30159,-0.378606,0.0276281,-0.397894,-0.18255,-0.529209,-0.604769,-0.117336,-6.63769,-24.2391,-7.43773,24.2889,-0.988163,1.73394,-0.258072,-1.62571,0.0942068,-0.635051,-0.968129,-0.16401,0.6088,0.568064,0.3571,0.694739,-1.14306,-0.340165,-0.992194,-0.290493,
-0.0493346,-0.0417994,0.437788,-1.59259,-0.180094,-0.209986,0.500681,-0.787102,0.290183,-0.779947,-0.344173,-0.981727,-0.350551,-0.241363,0,0,0,0,0,0,0,-0.0122969,-0.0527818,0.474304,-1.5763,-0.138119,1.40236,1.30159,-0.378606,0.0276281,-0.397894,-0.18255,-0.529209,-0.604769,-0.117336,-6.63769,-24.2391,-7.43773,24.2889,-0.988163,1.73394,-0.258072,-0.898418,0.618887,-0.754796,-1.465,0.409509,0.697851,0.672368,0.676072,0.785648,-1.28368,-0.436141,-0.996315,-0.28971,
-0.0525216,-0.0406043,0.434629,-1.59395,-0.184118,-0.211049,0.499736,-0.796752,0.298775,-0.789823,-0.340432,-1.00605,-0.265769,-0.236256,0,0,0,0,0,0,0,-0.0122969,-0.0527818,0.474304,-1.5763,-0.138119,1.40236,1.30159,-0.378606,0.0276281,-0.397894,-0.18255,-0.529209,-0.604769,-0.117336,-6.63769,-24.2391,-7.43773,24.2889,-0.988163,1.73394,-0.258072,-0.898418,0.618887,-0.754796,-1.465,0.409509,0.697851,0.672368,0.676072,0.785648,-1.28368,-0.436141,-0.996315,-0.28971,
-0.0557428,-0.0393821,0.431434,-1.5953,-0.188228,-0.211822,0.498811,-0.805294,0.305547,-0.798609,-0.335684,-1.02755,-0.193323,-0.231358,0,0,0,0,0,0,0,-0.0259599,-0.0514172,0.460126,-1.58256,-0.15514,1.38547,1.29773,-0.44321,0.0388037,-0.461638,-0.217513,-0.529805,-0.459879,-0.14406,-5.37213,-24.7389,-6.11266,24.4635,-1.0614,2.15783,-0.23793,1.21546,-0.831245,-0.377147,-0.345287,1.66992,-0.468188,-0.495482,1.24535,-0.408867,-1.14715,-0.557581,-0.885419,-0.28111,
-0.0428666,-0.0425895,0.444164,-1.59181,-0.172568,-0.209577,0.499532,-0.758459,0.318562,-0.751203,-0.390053,-0.930238,-0.750447,-0.313615,0,0,0,0,0,0,0,-0.0259599,-0.0514172,0.460126,-1.58256,-0.15514,1.38547,1.29773,-0.44321,0.0388037,-0.461638,-0.217513,-0.529805,-0.459879,-0.14406,-5.37213,-24.7389,-6.11266,24.4635,-1.0614,2.15783,-0.23793,1.21546,-0.831245,-0.377147,-0.345287,1.66992,-0.468188,-0.495482,1.24535,-0.408867,-1.14715,-0.557581,-0.885419,-0.28111,
-0.0581757,-0.0423081,0.428335,-1.59745,-0.190582,-0.190923,0.498814,-0.774284,0.268352,-0.767057,-0.329079,-0.933533,0.107492,-0.253131,0,0,0,0,0,0,0,-0.0259599,-0.0514172,0.460126,-1.58256,-0.15514,1.38547,1.29773,-0.44321,0.0388037,-0.461638,-0.217513,-0.529805,-0.459879,-0.14406,-5.37213,-24.7389,-6.11266,24.4635,-1.0614,2.15783,-0.23793,0.26728,-0.856039,0.411404,-0.0804986,0.538175,-0.262036,-0.301539,0.434927,-0.205364,-0.622302,-0.519139,-0.74154,-0.277463,
-0.0613152,-0.0412157,0.425224,-1.59876,-0.194419,-0.190372,0.497813,-0.784869,0.273098,-0.777892,-0.328263,-0.959259,0.137698,-0.250213,0,0,0,0,0,0,0,-0.0259599,-0.0514172,0.460126,-1.58256,-0.15514,1.38547,1.29773,-0.44321,0.0388037,-0.461638,-0.217513,-0.529805,-0.459879,-0.14406,-5.37213,-24.7389,-6.11266,24.4635,-1.0614,2.15783,-0.23793,-0.707471,-0.0100182,1.22811,-0.498665,-0.565119,0.359036,0.32858,-0.350133,0.411679,-0.180095,-0.483511,-0.655393,-0.276298,
-0.0644863,-0.040082,0.42208,-1.60001,-0.19836,-0.189834,0.496859,-0.792774,0.283424,-0.785974,-0.31293,-0.985401,0.134473,-0.23843,0,0,0,0,0,0,0,-0.0259599,-0.0514172,0.460126,-1.58256,-0.15514,1.38547,1.29773,-0.44321,0.0388037,-0.461638,-0.217513,-0.529805,-0.459879,-0.14406,-5.37213,-24.7389,-6.11266,24.4635,-1.0614,2.15783,-0.23793,-0.707471,-0.0100182,1.22811,-0.498665,-0.565119,0.359036,0.32858,-0.350133,0.411679,-0.180095,-0.483511,-0.655393,-0.276298,
-0.0676912,-0.0389353,0.418901,-1.60125,-0.202383,-0.189209,0.495926,-0.801236,0.28668,-0.794765,-0.3096,-1.00574,0.156375,-0.233214,0,0,0,0,0,0,0,-0.0450658,-0.048764,0.440417,-1.59268,-0.178922,1.37315,1.29104,-0.504188,0.0758936,-0.514285,-0.26999,-0.609447,-0.183255,-0.173843,-3.39245,-25.5126,-4.11315,25.0586,-1.11634,2.72179,-0.26448,0.926137,-1.32479,1.46559,0.41469,0.414646,-0.617825,-0.646968,0.10383,-0.587695,-0.108702,-0.640066,-0.592452,-0.265446,
-0.0709092,-0.0377833,0.415676,-1.60249,-0.206483,-0.188444,0.495013,-0.804509,0.287986,-0.806243,-0.309229,-1.02485,0.191121,-0.228382,0,0,0,0,0,0,0,-0.0450658,-0.048764,0.440417,-1.59268,-0.178922,1.37315,1.29104,-0.504188,0.0758936,-0.514285,-0.26999,-0.609447,-0.183255,-0.173843,-3.39245,-25.5126,-4.11315,25.0586,-1.11634,2.72179,-0.26448,0.926137,-1.32479,1.46559,0.41469,0.414646,-0.617825,-0.646968,0.10383,-0.587695,-0.108702,-0.640066,-0.592452,-0.265446,
-0.0548214,-0.0419599,0.431628,-1.5974,-0.18734,-0.205252,0.497036,-0.758764,0.310292,-0.751646,-0.381368,-0.91712,-0.289844,-0.317013,0,0,0,0,0,0,0,-0.0450658,-0.048764,0.440417,-1.59268,-0.178922,1.37315,1.29104,-0.504188,0.0758936,-0.514285,-0.26999,-0.609447,-0.183255,-0.173843,-3.39245,-25.5126,-4.11315,25.0586,-1.11634,2.72179,-0.26448,0.388857,1.3556,0.425573,-1.46204,0.536579,0.800177,0.781111,0.35418,0.865938,-0.492406,-0.328885,-0.515625,-0.264708,
-0.0754212,-0.0398828,0.410416,-1.60651,-0.213193,-0.198098,0.493032,-0.777807,0.266168,-0.771318,-0.325378,-0.936501,0.161335,-0.259171,0,0,0,0,0,0,0,-0.0450658,-0.048764,0.440417,-1.59268,-0.178922,1.37315,1.29104,-0.504188,0.0758936,-0.514285,-0.26999,-0.609447,-0.183255,-0.173843,-3.39245,-25.5126,-4.11315,25.0586,-1.11634,2.72179,-0.26448,0.388857,1.3556,0.425573,-1.46204,0.536579,0.800177,0.781111,0.35418,0.865938,-0.492406,-0.328885,-0.515625,-0.264708,
-0.0785737,-0.0387995,0.407289,-1.60781,-0.217035,-0.197328,0.492013,-0.788118,0.270829,-0.781875,-0.324986,-0.960452,0.192556,-0.254774,0,0,0,0,0,0,0,-0.0450658,-0.048764,0.440417,-1.59268,-0.178922,1.37315,1.29104,-0.504188,0.0758936,-0.514285,-0.26999,-0.609447,-0.183255,-0.173843,-3.39245,-25.5126,-4.11315,25.0586,-1.11634,2.72179,-0.26448,1.1996,-0.176482,0.0401361,-0.422652,1.0797,-0.066559,-0.0994305,0.650773,-0.0111155,-0.474434,-0.442554,-0.341308,-0.256924,
-0.0817629,-0.0377038,0.404124,-1.6091,-0.220963,-0.196447,0.491009,-0.797291,0.273912,-0.791291,-0.324137,-0.982128,0.220177,-0.251155,0,0,0,0,0,0,0,-0.0450658,-0.048764,0.440417,-1.59268,-0.178922,1.37315,1.29104,-0.504188,0.0758936,-0.514285,-0.26999,-0.609447,-0.183255,-0.173843,-3.39245,-25.5126,-4.11315,25.0586,-1.11634,2.72179,-0.26448,2.01018,-0.554359,-0.37884,-0.225956,1.73165,-0.371725,-0.399068,1.03369,-0.323688,-0.578783,-0.50243,-0.231949,-0.251199,
-0.0849733,-0.0365972,0.400918,-1.61039,-0.224975,-0.195474,0.490015,-0.802619,0.276653,-0.801383,-0.321319,-1.0028,0.243279,-0.248368,0,0,0,0,0,0,0,-0.0632936,-0.0454473,0.421879,-1.60164,-0.201015,1.37256,1.28637,-0.549996,0.108213,-0.544292,-0.259756,-0.648815,0.0225331,-0.14132,-1.74603,-26.7345,-2.58574,24.2889,-0.914921,1.52154,-0.291031,2.01018,-0.554359,-0.37884,-0.225956,1.73165,-0.371725,-0.399068,1.03369,-0.323688,-0.578783,-0.50243,-0.231949,-0.251199,
-0.0881686,-0.0354523,0.397692,-1.61161,-0.229108,-0.194566,0.489071,-0.798817,0.286227,-0.806613,-0.304086,-1.03342,0.226954,-0.236056,0,0,0,0,0,0,0,-0.0632936,-0.0454473,0.421879,-1.60164,-0.201015,1.37256,1.28637,-0.549996,0.108213,-0.544292,-0.259756,-0.648815,0.0225331,-0.14132,-1.74603,-26.7345,-2.58574,24.2889,-0.914921,1.52154,-0.291031,3.09462,-0.0325739,-0.774342,-0.650212,2.71359,-0.296551,-0.309749,1.63333,-0.249813,-0.831674,-0.480066,-0.228583,-0.252868,
-0.0913682,-0.034298,0.39446,-1.6128,-0.23334,-0.193629,0.488147,-0.799894,0.288568,-0.808,-0.299437,-1.05787,0.234393,-0.230995,0,0,0,0,0,0,0,-0.0632936,-0.0454473,0.421879,-1.60164,-0.201015,1.37256,1.28637,-0.549996,0.108213,-0.544292,-0.259756,-0.648815,0.0225331,-0.14132,-1.74603,-26.7345,-2.58574,24.2889,-0.914921,1.52154,-0.291031,3.09462,-0.0325739,-0.774342,-0.650212,2.71359,-0.296551,-0.309749,1.63333,-0.249813,-0.831674,-0.480066,-0.228583,-0.252868,
-0.078387,-0.0375725,0.40745,-1.60962,-0.217402,-0.204463,0.489157,-0.786012,0.310523,-0.780009,-0.38023,-0.966996,0.0489072,-0.310323,0,0,0,0,0,0,0,-0.0632936,-0.0454473,0.421879,-1.60164,-0.201015,1.37256,1.28637,-0.549996,0.108213,-0.544292,-0.259756,-0.648815,0.0225331,-0.14132,-1.74603,-26.7345,-2.58574,24.2889,-0.914921,1.52154,-0.291031,1.12039,2.59039,-1.92545,-2.46692,1.82157,1.40297,1.37845,1.32405,1.49727,-1.12959,-0.189016,-0.136501,-0.253496,
-0.0976789,-0.0357103,0.387753,-1.61663,-0.240374,-0.186644,0.487581,-0.786544,0.25242,-0.795356,-0.315748,-0.976512,0.383052,-0.253183,0,0,0,0,0,0,0,-0.0632936,-0.0454473,0.421879,-1.60164,-0.201015,1.37256,1.28637,-0.549996,0.108213,-0.544292,-0.259756,-0.648815,0.0225331,-0.14132,-1.74603,-26.7345,-2.58574,24.2889,-0.914921,1.52154,-0.291031,1.12039,2.59039,-1.92545,-2.46692,1.82157,1.40297,1.37845,1.32405,1.49727,-1.12959,-0.189016,-0.136501,-0.253496,
-0.100833,-0.0346832,0.384561,-1.61788,-0.244401,-0.185026,0.486578,-0.788513,0.256776,-0.797978,-0.312964,-1.00676,0.404422,-0.250624,0,0,0,0,0,0,0,-0.0819669,-0.0413132,0.402383,-1.60957,-0.223552,1.37466,1.28206,-0.552189,0.14903,-0.585055,-0.230571,-0.720923,0.115191,-0.119648,-4.40808,-28.4325,-4.83519,25.4077,-1.2262,1.62041,-0.230606,0.13086,0.857163,-2.24241,-1.33574,1.22188,0.724536,0.692595,1.08901,0.800338,-1.15476,-0.300964,-0.174472,-0.250587,
-0.103973,-0.0336175,0.381383,-1.61907,-0.248572,-0.183473,0.485626,-0.78505,0.266442,-0.794403,-0.297639,-1.04279,0.38832,-0.238143,0,0,0,0,0,0,0,-0.0819669,-0.0413132,0.402383,-1.60957,-0.223552,1.37466,1.28206,-0.552189,0.14903,-0.585055,-0.230571,-0.720923,0.115191,-0.119648,-4.40808,-28.4325,-4.83519,25.4077,-1.2262,1.62041,-0.230606,0.499896,-1.88638,-1.074,0.644971,0.975701,-0.753233,-0.784829,0.807002,-0.720849,-0.729661,-0.50994,-0.273727,-0.245669,
-0.107104,-0.0325403,0.378215,-1.62024,-0.252853,-0.181914,0.484693,-0.782819,0.269294,-0.792092,-0.293236,-1.07015,0.389776,-0.233258,0,0,0,0,0,0,0,-0.0819669,-0.0413132,0.402383,-1.60957,-0.223552,1.37466,1.28206,-0.552189,0.14903,-0.585055,-0.230571,-0.720923,0.115191,-0.119648,-4.40808,-28.4325,-4.83519,25.4077,-1.2262,1.62041,-0.230606,0.499896,-1.88638,-1.074,0.644971,0.975701,-0.753233,-0.784829,0.807002,-0.720849,-0.729661,-0.50994,-0.273727,-0.245669,
-0.110227,-0.0314616,0.375055,-1.62141,-0.257222,-0.180312,0.483777,-0.780676,0.269662,-0.789895,-0.292113,-1.09235,0.40042,-0.228929,0,0,0,0,0,0,0,-0.0819669,-0.0413132,0.402383,-1.60957,-0.223552,1.37466,1.28206,-0.552189,0.14903,-0.585055,-0.230571,-0.720923,0.115191,-0.119648,-4.40808,-28.4325,-4.83519,25.4077,-1.2262,1.62041,-0.230606,-0.0599235,-0.679223,-0.416124,-0.0049011,0.35265,-0.0875859,-0.102142,0.349172,-0.0643426,-0.475845,-0.363173,-0.275335,-0.24447,
-0.11334,-0.0303859,0.371906,-1.62258,-0.261666,-0.178641,0.482878,-0.77821,0.268931,-0.787396,-0.291924,-1.111,0.41776,-0.224716,0,0,0,0,0,0,0,-0.0819669,-0.0413132,0.402383,-1.60957,-0.223552,1.37466,1.28206,-0.552189,0.14903,-0.585055,-0.230571,-0.720923,0.115191,-0.119648,-4.40808,-28.4325,-4.83519,25.4077,-1.2262,1.62041,-0.230606,-0.0599235,-0.679223,-0.416124,-0.0049011,0.35265,-0.0875859,-0.102142,0.349172,-0.0643426,-0.475845,-0.363173,-0.275335,-0.24447,
-0.0975389,-0.0344016,0.387947,-1.61824,-0.240737,-0.19325,0.484815,-0.794518,0.292594,-0.789341,-0.365882,-0.976841,0.238192,-0.307216,0,0,0,0,0,0,0,-0.0819669,-0.0413132,0.402383,-1.60957,-0.223552,1.37466,1.28206,-0.552189,0.14903,-0.585055,-0.230571,-0.720923,0.115191,-0.119648,-4.40808,-28.4325,-4.83519,25.4077,-1.2262,1.62041,-0.230606,-0.894288,1.22575,-0.384086,-1.23105,-0.240735,1.01253,0.997716,-0.0250501,1.05505,-0.409635,-0.211261,-0.211664,-0.246698,
-0.116763,-0.0315393,0.367592,-1.62431,-0.264492,-0.178738,0.483438,-0.776991,0.245216,-0.787419,-0.306574,-1.00383,0.487555,-0.252076,0,0,0,0,0,0,0,-0.100261,-0.0360921,0.383399,-1.61704,-0.246321,1.38135,1.27725,-0.611049,0.173394,-0.627334,-0.226222,-0.759367,0.277571,-0.169541,-2.22607,-29.8052,-2.7603,25.134,-1.08612,1.89232,-0.217789,-1.48051,0.704071,-1.10005,-1.01688,-0.285358,0.829494,0.816637,0.124292,0.867126,-0.714999,-0.274443,-0.294062,-0.244422,
-0.119872,-0.0305483,0.36444,-1.62552,-0.268517,-0.176733,0.482436,-0.777258,0.247759,-0.787938,-0.303917,-1.00645,0.501247,-0.250371,0,0,0,0,0,0,0,-0.100261,-0.0360921,0.383399,-1.61704,-0.246321,1.38135,1.27725,-0.611049,0.173394,-0.627334,-0.226222,-0.759367,0.277571,-0.169541,-2.22607,-29.8052,-2.7603,25.134,-1.08612,1.89232,-0.217789,-1.48051,0.704071,-1.10005,-1.01688,-0.285358,0.829494,0.816637,0.124292,0.867126,-0.714999,-0.274443,-0.294062,-0.244422,
-0.122972,-0.0295379,0.361298,-1.6267,-0.272507,-0.174701,0.481486,-0.774943,0.252595,-0.785443,-0.295247,-0.997301,0.507947,-0.237685,0,0,0,0,0,0,0,-0.100261,-0.0360921,0.383399,-1.61704,-0.246321,1.38135,1.27725,-0.611049,0.173394,-0.627334,-0.226222,-0.759367,0.277571,-0.169541,-2.22607,-29.8052,-2.7603,25.134,-1.08612,1.89232,-0.217789,-0.562111,-3.0677,-1.01615,1.35523,0.33284,-1.25879,-1.27341,0.55391,-1.25405,-0.777032,-0.649395,-0.449608,-0.238462,
-0.126068,-0.0285242,0.358161,-1.62787,-0.27639,-0.172614,0.480554,-0.773976,0.253415,-0.784308,-0.291763,-0.970898,0.521735,-0.232916,0,0,0,0,0,0,0,-0.100261,-0.0360921,0.383399,-1.61704,-0.246321,1.38135,1.27725,-0.611049,0.173394,-0.627334,-0.226222,-0.759367,0.277571,-0.169541,-2.22607,-29.8052,-2.7603,25.134,-1.08612,1.89232,-0.217789,-0.562111,-3.0677,-1.01615,1.35523,0.33284,-1.25879,-1.27341,0.55391,-1.25405,-0.777032,-0.649395,-0.449608,-0.238462,
-0.129161,-0.0275122,0.355027,-1.62902,-0.280121,-0.170482,0.479639,-0.773137,0.253009,-0.783359,-0.288558,-0.93278,0.532903,-0.228769,0,0,0,0,0,0,0,-0.100261,-0.0360921,0.383399,-1.61704,-0.246321,1.38135,1.27725,-0.611049,0.173394,-0.627334,-0.226222,-0.759367,0.277571,-0.169541,-2.22607,-29.8052,-2.7603,25.134,-1.08612,1.89232,-0.217789,0.771242,-0.939844,-1.80887,-0.12169,1.64308,-0.314191,-0.311305,1.32531,-0.30064,-1.15385,-0.512657,-0.349393,-0.242053,
-0.132248,-0.0265042,0.351899,-1.63016,-0.283666,-0.168327,0.47874,-0.771959,0.251987,-0.78211,-0.284778,-0.886137,0.538781,-0.224762,0,0,0,0,0,0,0,-0.119035,-0.0301222,0.364123,-1.6237,-0.26941,1.39296,1.27225,-0.61137,0.180147,-0.644124,-0.221055,-0.725519,0.416268,-0.172516,-1.86902,-30.5788,-2.18505,25.5069,-1.17127,2.13769,-0.157364,0.771242,-0.939844,-1.80887,-0.12169,1.64308,-0.314191,-0.311305,1.32531,-0.30064,-1.15385,-0.512657,-0.349393,-0.242053,
-0.116932,-0.0305396,0.367684,-1.626,-0.264536,-0.182422,0.480772,-0.802016,0.274664,-0.797696,-0.355923,-0.983718,0.418565,-0.304536,0,0,0,0,0,0,0,-0.119035,-0.0301222,0.364123,-1.6237,-0.26941,1.39296,1.27225,-0.61137,0.180147,-0.644124,-0.221055,-0.725519,0.416268,-0.172516,-1.86902,-30.5788,-2.18505,25.5069,-1.17127,2.13769,-0.157364,0.652092,1.01141,-2.40056,-1.38634,1.82144,0.73848,0.739145,1.46096,0.770287,-1.34191,-0.330648,-0.246023,-0.242148,
-0.154437,-0.020052,0.328291,-1.63802,-0.308139,-0.151139,0.473701,-0.778447,0.233853,-0.790553,-0.293755,-0.693536,0.571873,-0.251365,0,0,0,0,0,0,0,-0.119035,-0.0301222,0.364123,-1.6237,-0.26941,1.39296,1.27225,-0.61137,0.180147,-0.644124,-0.221055,-0.725519,0.416268,-0.172516,-1.86902,-30.5788,-2.18505,25.5069,-1.17127,2.13769,-0.157364,0.0173935,-0.61812,-2.26396,-0.365834,1.27073,-0.0190987,-0.0221951,1.17893,0.000957013,-1.22557,-0.522149,-0.27272,-0.23846,
-0.157544,-0.0191133,0.325134,-1.63918,-0.310723,-0.148869,0.472701,-0.77679,0.234673,-0.789222,-0.290771,-0.646089,0.567396,-0.250046,0,0,0,0,0,0,0,-0.119035,-0.0301222,0.364123,-1.6237,-0.26941,1.39296,1.27225,-0.61137,0.180147,-0.644124,-0.221055,-0.725519,0.416268,-0.172516,-1.86902,-30.5788,-2.18505,25.5069,-1.17127,2.13769,-0.157364,0.0173935,-0.61812,-2.26396,-0.365834,1.27073,-0.0190987,-0.0221951,1.17893,0.000957013,-1.22557,-0.522149,-0.27272,-0.23846,
-0.160631,-0.0181617,0.321998,-1.64031,-0.313139,-0.146632,0.471749,-0.771799,0.237904,-0.784052,-0.282865,-0.603861,0.559221,-0.23799,0,0,0,0,0,0,0,-0.119035,-0.0301222,0.364123,-1.6237,-0.26941,1.39296,1.27225,-0.61137,0.180147,-0.644124,-0.221055,-0.725519,0.416268,-0.172516,-1.86902,-30.5788,-2.18505,25.5069,-1.17127,2.13769,-0.157364,-1.14015,-2.80807,-1.94004,1.05634,0.27777,-1.05227,-1.06366,0.667986,-1.04324,-1.01431,-0.71833,-0.330866,-0.228506,
-0.1637,-0.0172104,0.31888,-1.64143,-0.315371,-0.144397,0.470815,-0.767345,0.237829,-0.779456,-0.279839,-0.558087,0.558773,-0.233495,0,0,0,0,0,0,0,-0.139477,-0.0234505,0.342667,-1.6306,-0.29209,1.4085,1.26771,-0.637619,0.199696,-0.637125,-0.212361,-0.625101,0.497442,-0.128993,-0.881161,-32.126,-1.23686,23.9398,-1.01288,1.60119,-0.183914,-1.14015,-2.80807,-1.94004,1.05634,0.27777,-1.05227,-1.06366,0.667986,-1.04324,-1.01431,-0.71833,-0.330866,-0.228506,
-0.166752,-0.0162649,0.315781,-1.64254,-0.317411,-0.142145,0.469897,-0.762965,0.236357,-0.774951,-0.278414,-0.51014,0.563093,-0.229606,0,0,0,0,0,0,0,-0.139477,-0.0234505,0.342667,-1.6306,-0.29209,1.4085,1.26771,-0.637619,0.199696,-0.637125,-0.212361,-0.625101,0.497442,-0.128993,-0.881161,-32.126,-1.23686,23.9398,-1.01288,1.60119,-0.183914,-0.813451,-0.700657,-2.38497,-0.264399,0.722645,0.0226399,0.0277004,0.911523,0.029383,-1.18356,-0.510928,-0.2334,-0.228889,
-0.155245,-0.0192242,0.327975,-1.63942,-0.309365,-0.152362,0.471238,-0.817241,0.258892,-0.830555,-0.332455,-0.752958,0.566036,-0.299693,0,0,0,0,0,0,0,-0.139477,-0.0234505,0.342667,-1.6306,-0.29209,1.4085,1.26771,-0.637619,0.199696,-0.637125,-0.212361,-0.625101,0.497442,-0.128993,-0.881161,-32.126,-1.23686,23.9398,-1.01288,1.60119,-0.183914,-0.813451,-0.700657,-2.38497,-0.264399,0.722645,0.0226399,0.0277004,0.911523,0.029383,-1.18356,-0.510928,-0.2334,-0.228889,
-0.174841,-0.0138532,0.306697,-1.64437,-0.305421,-0.133307,0.469313,-0.756824,0.214546,-0.769498,-0.28109,-0.0126972,0.589076,-0.250813,0,0,0,0,0,0,0,-0.139477,-0.0234505,0.342667,-1.6306,-0.29209,1.4085,1.26771,-0.637619,0.199696,-0.637125,-0.212361,-0.625101,0.497442,-0.128993,-0.881161,-32.126,-1.23686,23.9398,-1.01288,1.60119,-0.183914,-2.58055,0.583148,-1.71997,-0.890834,-0.826389,0.839448,0.839844,-0.0726261,0.850497,-0.791958,-0.301494,-0.168437,-0.231206,
-0.177845,-0.0129947,0.303642,-1.64548,-0.305326,-0.130987,0.468312,-0.75095,0.214633,-0.763873,-0.278813,0.0237229,0.580198,-0.250054,0,0,0,0,0,0,0,-0.139477,-0.0234505,0.342667,-1.6306,-0.29209,1.4085,1.26771,-0.637619,0.199696,-0.637125,-0.212361,-0.625101,0.497442,-0.128993,-0.881161,-32.126,-1.23686,23.9398,-1.01288,1.60119,-0.183914,-2.15401,-0.671676,-1.61926,0.016826,-0.586002,0.102309,0.0996606,0.097457,0.107153,-0.746031,-0.311707,-0.17589,-0.229385,
-0.180814,-0.012127,0.300622,-1.64657,-0.305115,-0.128712,0.46736,-0.742358,0.216918,-0.755029,-0.272005,0.052743,0.568629,-0.23811,0,0,0,0,0,0,0,-0.139477,-0.0234505,0.342667,-1.6306,-0.29209,1.4085,1.26771,-0.637619,0.199696,-0.637125,-0.212361,-0.625101,0.497442,-0.128993,-0.881161,-32.126,-1.23686,23.9398,-1.01288,1.60119,-0.183914,-2.15401,-0.671676,-1.61926,0.016826,-0.586002,0.102309,0.0996606,0.097457,0.107153,-0.746031,-0.311707,-0.17589,-0.229385,
-0.183753,-0.0112622,0.297633,-1.64765,-0.304781,-0.126452,0.466424,-0.73464,0.216203,-0.747153,-0.269711,0.0834805,0.56509,-0.233867,0,0,0,0,0,0,0,-0.159503,-0.01704,0.321539,-1.63748,-0.308811,1.42623,1.26311,-0.633751,0.212962,-0.687276,-0.209156,-0.46907,0.592796,-0.156495,-1.74603,-32.3244,-2.03826,25.5347,-1.27564,1.5078,-0.250748,-0.244417,-2.6181,-1.0506,1.32859,0.466606,-1.12766,-1.1267,0.616424,-1.13426,-0.595794,-0.43483,-0.199345,-0.22798,
-0.186662,-0.0104052,0.294674,-1.64873,-0.30432,-0.124185,0.465503,-0.727398,0.214239,-0.739771,-0.26888,0.115316,0.566808,-0.230239,0,0,0,0,0,0,0,-0.159503,-0.01704,0.321539,-1.63748,-0.308811,1.42623,1.26311,-0.633751,0.212962,-0.687276,-0.209156,-0.46907,0.592796,-0.156495,-1.74603,-32.3244,-2.03826,25.5347,-1.27564,1.5078,-0.250748,-0.244417,-2.6181,-1.0506,1.32859,0.466606,-1.12766,-1.1267,0.616424,-1.13426,-0.595794,-0.43483,-0.199345,-0.22798,
-0.189543,-0.0095562,0.291745,-1.64979,-0.303729,-0.121928,0.464596,-0.720134,0.212257,-0.732376,-0.266768,0.147779,0.564179,-0.22676,0,0,0,0,0,0,0,-0.159503,-0.01704,0.321539,-1.63748,-0.308811,1.42623,1.26311,-0.633751,0.212962,-0.687276,-0.209156,-0.46907,0.592796,-0.156495,-1.74603,-32.3244,-2.03826,25.5347,-1.27564,1.5078,-0.250748,1.18316,-1.12516,-0.848423,0.461825,1.37234,-0.445752,-0.433546,0.978794,-0.456819,-0.568025,-0.270543,-0.125774,-0.229707,
-0.17602,-0.0134392,0.305741,-1.64589,-0.3146,-0.133412,0.466947,-0.805162,0.23047,-0.819224,-0.316946,-0.208053,0.60411,-0.296527,0,0,0,0,0,0,0,-0.159503,-0.01704,0.321539,-1.63748,-0.308811,1.42623,1.26311,-0.633751,0.212962,-0.687276,-0.209156,-0.46907,0.592796,-0.156495,-1.74603,-32.3244,-2.03826,25.5347,-1.27564,1.5078,-0.250748,1.18316,-1.12516,-0.848423,0.461825,1.37234,-0.445752,-0.433546,0.978794,-0.456819,-0.568025,-0.270543,-0.125774,-0.229707,
-0.193966,-0.00808068,0.286438,-1.65097,-0.307476,-0.113765,0.464774,-0.708127,0.189474,-0.721054,-0.276327,0.232179,0.598516,-0.25129,0,0,0,0,0,0,0,-0.159503,-0.01704,0.321539,-1.63748,-0.308811,1.42623,1.26311,-0.633751,0.212962,-0.687276,-0.209156,-0.46907,0.592796,-0.156495,-1.74603,-32.3244,-2.03826,25.5347,-1.27564,1.5078,-0.250748,-0.0681736,0.225883,-0.194935,-0.175935,0.297543,0.292129,0.307805,0.297009,0.278131,-0.326581,0.0130058,-0.183349,-0.229705,
-0.196763,-0.00732731,0.283589,-1.65206,-0.306498,-0.111407,0.46377,-0.699219,0.188342,-0.712329,-0.274451,0.244431,0.589557,-0.250953,0,0,0,0,0,0,0,-0.18824,-0.00803484,0.291376,-1.64672,-0.316574,1.45365,1.2567,-0.679417,0.220205,-0.708718,-0.185283,-0.044585,0.645067,-0.146154,0.487552,-33.9232,0.314344,25.733,-0.0845373,2.2503,-0.204056,-0.43584,-0.706386,-1.46218,0.586454,0.798384,-0.25035,-0.240502,0.993002,-0.26135,-0.946152,0.197932,-0.362878,-0.230351,
-0.199515,-0.00656785,0.280785,-1.65313,-0.30549,-0.109119,0.462813,-0.68816,0.189865,-0.700963,-0.266689,0.252079,0.57195,-0.239239,0,0,0,0,0,0,0,-0.18824,-0.00803484,0.291376,-1.64672,-0.316574,1.45365,1.2567,-0.679417,0.220205,-0.708718,-0.185283,-0.044585,0.645067,-0.146154,0.487552,-33.9232,0.314344,25.733,-0.0845373,2.2503,-0.204056,-0.43584,-0.706386,-1.46218,0.586454,0.798384,-0.25035,-0.240502,0.993002,-0.26135,-0.946152,0.197932,-0.362878,-0.230351,
-0.202228,-0.00581324,0.278021,-1.65418,-0.304436,-0.106891,0.461872,-0.678293,0.188652,-0.690959,-0.26273,0.263404,0.557047,-0.23524,0,0,0,0,0,0,0,-0.18824,-0.00803484,0.291376,-1.64672,-0.316574,1.45365,1.2567,-0.679417,0.220205,-0.708718,-0.185283,-0.044585,0.645067,-0.146154,0.487552,-33.9232,0.314344,25.733,-0.0845373,2.2503,-0.204056,-0.429867,0.781767,-1.96353,-0.2123,0.988442,0.565378,0.582996,1.11974,0.549177,-1.07714,0.438318,-0.250165,-0.230992,
-0.204905,-0.00506815,0.275294,-1.65522,-0.303327,-0.104722,0.460945,-0.669211,0.186272,-0.681756,-0.259907,0.277432,0.542237,-0.231856,0,0,0,0,0,0,0,-0.18824,-0.00803484,0.291376,-1.64672,-0.316574,1.45365,1.2567,-0.679417,0.220205,-0.708718,-0.185283,-0.044585,0.645067,-0.146154,0.487552,-33.9232,0.314344,25.733,-0.0845373,2.2503,-0.204056,-0.429867,0.781767,-1.96353,-0.2123,0.988442,0.565378,0.582996,1.11974,0.549177,-1.07714,0.438318,-0.250165,-0.230992,
-0.207548,-0.00433506,0.272602,-1.65625,-0.302151,-0.102614,0.46003,-0.660671,0.183272,-0.673109,-0.257399,0.293861,0.526923,-0.228605,0,0,0,0,0,0,0,-0.18824,-0.00803484,0.291376,-1.64672,-0.316574,1.45365,1.2567,-0.679417,0.220205,-0.708718,-0.185283,-0.044585,0.645067,-0.146154,0.487552,-33.9232,0.314344,25.733,-0.0845373,2.2503,-0.204056,0.677456,1.46152,-2.71694,-0.574099,2.18241,0.879418,0.905662,1.89983,0.855831,-1.48787,0.561761,-0.288576,-0.235838,
-0.1957,-0.00753658,0.284655,-1.65216,-0.311643,-0.114172,0.462483,-0.764889,0.210651,-0.779206,-0.305683,0.141706,0.593498,-0.295523,0,0,0,0,0,0,0,-0.18824,-0.00803484,0.291376,-1.64672,-0.316574,1.45365,1.2567,-0.679417,0.220205,-0.708718,-0.185283,-0.044585,0.645067,-0.146154,0.487552,-33.9232,0.314344,25.733,-0.0845373,2.2503,-0.204056,-0.415939,0.72813,-2.7372,-0.0530072,1.53006,0.486058,0.514496,1.67202,0.458412,-1.54736,0.552966,-0.42094,-0.237025,
-0.221467,0.000533798,0.25748,-1.65955,-0.304995,-0.0888463,0.458336,-0.661473,0.171636,-0.675117,-0.263954,0.359673,0.472818,-0.254954,0,0,0,0,0,0,0,-0.209575,-0.00165669,0.269254,-1.65229,-0.316574,1.47422,1.25185,-0.669788,0.209675,-0.696977,-0.174454,0.0316844,0.665077,-0.141343,1.17389,-35.3713,1.16334,24.9356,0.025326,1.70739,-0.117081,-0.415939,0.72813,-2.7372,-0.0530072,1.53006,0.486058,0.514496,1.67202,0.458412,-1.54736,0.552966,-0.42094,-0.237025,
-0.224069,0.00122216,0.254825,-1.66058,-0.303554,-0.0870393,0.457359,-0.650528,0.172091,-0.663862,-0.257784,0.360084,0.451743,-0.244255,0,0,0,0,0,0,0,-0.209575,-0.00165669,0.269254,-1.65229,-0.316574,1.47422,1.25185,-0.669788,0.209675,-0.696977,-0.174454,0.0316844,0.665077,-0.141343,1.17389,-35.3713,1.16334,24.9356,0.025326,1.70739,-0.117081,-1.83772,-0.3232,-2.16805,0.632409,0.182256,-0.0480406,-0.027591,0.889054,-0.068056,-1.17545,0.464308,-0.369528,-0.228751,
-0.226633,0.00190244,0.252208,-1.6616,-0.302101,-0.0852844,0.456397,-0.640842,0.170069,-0.654075,-0.255631,0.363251,0.438739,-0.240402,0,0,0,0,0,0,0,-0.209575,-0.00165669,0.269254,-1.65229,-0.316574,1.47422,1.25185,-0.669788,0.209675,-0.696977,-0.174454,0.0316844,0.665077,-0.141343,1.17389,-35.3713,1.16334,24.9356,0.025326,1.70739,-0.117081,-1.83772,-0.3232,-2.16805,0.632409,0.182256,-0.0480406,-0.027591,0.889054,-0.068056,-1.17545,0.464308,-0.369528,-0.228751,
-0.229161,0.00257086,0.249627,-1.66262,-0.300628,-0.0835597,0.455449,-0.632058,0.167106,-0.645197,-0.254774,0.368404,0.431169,-0.2371,0,0,0,0,0,0,0,-0.209575,-0.00165669,0.269254,-1.65229,-0.316574,1.47422,1.25185,-0.669788,0.209675,-0.696977,-0.174454,0.0316844,0.665077,-0.141343,1.17389,-35.3713,1.16334,24.9356,0.025326,1.70739,-0.117081,-2.23356,1.65976,-2.24726,-0.569794,-0.0298896,1.02631,1.05292,0.692833,0.999467,-1.21644,0.612752,-0.341617,-0.228066,
-0.231657,0.0032257,0.247079,-1.66364,-0.299126,-0.0818447,0.454513,-0.623945,0.163709,-0.636995,-0.254408,0.375364,0.428734,-0.233922,0,0,0,0,0,0,0,-0.209575,-0.00165669,0.269254,-1.65229,-0.316574,1.47422,1.25185,-0.669788,0.209675,-0.696977,-0.174454,0.0316844,0.665077,-0.141343,1.17389,-35.3713,1.16334,24.9356,0.025326,1.70739,-0.117081,-2.23356,1.65976,-2.24726,-0.569794,-0.0298896,1.02631,1.05292,0.692833,0.999467,-1.21644,0.612752,-0.341617,-0.228066,
-0.234122,0.0038659,0.244562,-1.66466,-0.297589,-0.0801166,0.453589,-0.61636,0.16005,-0.629329,-0.254352,0.384249,0.43203,-0.230881,0,0,0,0,0,0,0,-0.231111,0.00501859,0.246755,-1.65794,-0.314747,1.49429,1.24782,-0.654278,0.195183,-0.699251,-0.18572,0.109008,0.599955,-0.119116,1.95942,-36.2679,2.11152,25.7568,-0.13306,1.74035,-0.170181,-1.31984,2.0362,-2.6605,-0.796099,0.785956,1.22324,1.24604,1.16635,1.1987,-1.41151,0.619784,-0.316984,-0.224685,
-0.223015,0.000762882,0.255866,-1.66069,-0.304435,-0.0889379,0.456171,-0.708524,0.183893,-0.723381,-0.291618,0.382597,0.474038,-0.296786,0,0,0,0,0,0,0,-0.231111,0.00501859,0.246755,-1.65794,-0.314747,1.49429,1.24782,-0.654278,0.195183,-0.699251,-0.18572,0.109008,0.599955,-0.119116,1.95942,-36.2679,2.11152,25.7568,-0.13306,1.74035,-0.170181,-1.41502,0.410156,-1.71823,0.108634,0.135409,0.350857,0.369323,0.647632,0.333286,-0.907384,0.377913,-0.22693,-0.217145,
-0.262439,0.0124154,0.214729,-1.67045,-0.296638,-0.0502797,0.449465,-0.617015,0.145715,-0.630908,-0.259984,0.490502,0.519091,-0.258537,0,0,0,0,0,0,0,-0.231111,0.00501859,0.246755,-1.65794,-0.314747,1.49429,1.24782,-0.654278,0.195183,-0.699251,-0.18572,0.109008,0.599955,-0.119116,1.95942,-36.2679,2.11152,25.7568,-0.13306,1.74035,-0.170181,-1.41502,0.410156,-1.71823,0.108634,0.135409,0.350857,0.369323,0.647632,0.333286,-0.907384,0.377913,-0.22693,-0.217145,
-0.264861,0.0129996,0.212253,-1.67146,-0.294679,-0.0482768,0.448477,-0.605591,0.146046,-0.619062,-0.252606,0.489602,0.500713,-0.247127,0,0,0,0,0,0,0,-0.231111,0.00501859,0.246755,-1.65794,-0.314747,1.49429,1.24782,-0.654278,0.195183,-0.699251,-0.18572,0.109008,0.599955,-0.119116,1.95942,-36.2679,2.11152,25.7568,-0.13306,1.74035,-0.170181,-0.83133,-1.34587,-2.49,1.12741,0.931345,-0.601022,-0.584001,1.33738,-0.614246,-1.26001,0.170301,-0.290384,-0.213635,
-0.267242,0.0135765,0.209819,-1.67245,-0.292718,-0.0463379,0.447503,-0.595162,0.144213,-0.608578,-0.248643,0.490284,0.484722,-0.243409,0,0,0,0,0,0,0,-0.231111,0.00501859,0.246755,-1.65794,-0.314747,1.49429,1.24782,-0.654278,0.195183,-0.699251,-0.18572,0.109008,0.599955,-0.119116,1.95942,-36.2679,2.11152,25.7568,-0.13306,1.74035,-0.170181,-0.83133,-1.34587,-2.49,1.12741,0.931345,-0.601022,-0.584001,1.33738,-0.614246,-1.26001,0.170301,-0.290384,-0.213635,
-0.269584,0.0141425,0.207423,-1.67343,-0.290749,-0.0444623,0.446542,-0.585558,0.141509,-0.598922,-0.245783,0.492185,0.468904,-0.240311,0,0,0,0,0,0,0,-0.231111,0.00501859,0.246755,-1.65794,-0.314747,1.49429,1.24782,-0.654278,0.195183,-0.699251,-0.18572,0.109008,0.599955,-0.119116,1.95942,-36.2679,2.11152,25.7568,-0.13306,1.74035,-0.170181,-0.293962,0.92442,-2.03036,-0.306056,1.06694,0.654152,0.683758,1.12889,0.621369,-1.09168,0.273576,-0.221545,-0.214155,
-0.271891,0.014696,0.205064,-1.67441,-0.288768,-0.0426513,0.445592,-0.576586,0.138384,-0.589899,-0.243296,0.495346,0.452767,-0.237347,0,0,0,0,0,0,0,-0.251494,0.0110715,0.22566,-1.66367,-0.308986,1.51136,1.24408,-0.645549,0.185871,-0.686877,-0.189657,0.238934,0.551239,-0.125334,1.37622,-36.3948,1.36171,26.0822,-0.365604,1.78612,-0.170181,-0.473228,-0.697228,-0.686983,0.584329,0.257833,-0.255954,-0.224847,0.491765,-0.283873,-0.509441,0.0705832,-0.219544,-0.212012,
-0.274163,0.0152361,0.202738,-1.67537,-0.286768,-0.0409058,0.444654,-0.568112,0.135001,-0.581378,-0.240975,0.500003,0.436373,-0.234527,0,0,0,0,0,0,0,-0.251494,0.0110715,0.22566,-1.66367,-0.308986,1.51136,1.24408,-0.645549,0.185871,-0.686877,-0.189657,0.238934,0.551239,-0.125334,1.37622,-36.3948,1.36171,26.0822,-0.365604,1.78612,-0.170181,-0.473228,-0.697228,-0.686983,0.584329,0.257833,-0.255954,-0.224847,0.491765,-0.283873,-0.509441,0.0705832,-0.219544,-0.212012,
-0.264042,0.0124691,0.213062,-1.67115,-0.28747,-0.0520446,0.447435,-0.659387,0.152685,-0.674286,-0.279412,0.725066,0.467696,-0.297684,0,0,0,0,0,0,0,-0.251494,0.0110715,0.22566,-1.66367,-0.308986,1.51136,1.24408,-0.645549,0.185871,-0.686877,-0.189657,0.238934,0.551239,-0.125334,1.37622,-36.3948,1.36171,26.0822,-0.365604,1.78612,-0.170181,-0.834423,-1.62006,-0.410817,1.13608,-0.0745719,-0.804536,-0.778372,0.352919,-0.822555,-0.432196,-0.00268704,-0.291765,-0.207593,
-0.28119,0.0174955,0.195277,-1.67549,-0.280819,-0.0379488,0.44571,-0.566057,0.119979,-0.579536,-0.238154,0.680658,0.324284,-0.250758,0,0,0,0,0,0,0,-0.251494,0.0110715,0.22566,-1.66367,-0.308986,1.51136,1.24408,-0.645549,0.185871,-0.686877,-0.189657,0.238934,0.551239,-0.125334,1.37622,-36.3948,1.36171,26.0822,-0.365604,1.78612,-0.170181,-0.834423,-1.62006,-0.410817,1.13608,-0.0745719,-0.804536,-0.778372,0.352919,-0.822555,-0.432196,-0.00268704,-0.291765,-0.207593,
-0.283411,0.0179667,0.193002,-1.67643,-0.278117,-0.0367058,0.444722,-0.555312,0.117784,-0.56877,-0.236061,0.675428,0.310737,-0.247227,0,0,0,0,0,0,0,-0.251494,0.0110715,0.22566,-1.66367,-0.308986,1.51136,1.24408,-0.645549,0.185871,-0.686877,-0.189657,0.238934,0.551239,-0.125334,1.37622,-36.3948,1.36171,26.0822,-0.365604,1.78612,-0.170181,-1.11522,-2.09562,-0.788369,1.44183,0.0104757,-1.10537,-1.08455,0.568317,-1.11521,-0.66452,-0.0391138,-0.399167,-0.204581,
-0.285593,0.0184263,0.190766,-1.67737,-0.275436,-0.0354975,0.443745,-0.545532,0.114894,-0.558966,-0.235196,0.670257,0.30207,-0.244196,0,0,0,0,0,0,0,-0.272361,0.0173287,0.203954,-1.67001,-0.298646,1.52937,1.23943,-0.630131,0.184841,-0.655645,-0.181347,0.347438,0.546521,-0.177654,2.49103,-37.216,2.53602,26.0822,-0.109257,1.75316,-0.224197,-1.11522,-2.09562,-0.788369,1.44183,0.0104757,-1.10537,-1.08455,0.568317,-1.11521,-0.66452,-0.0391138,-0.399167,-0.204581,
-0.287739,0.0188732,0.188567,-1.67831,-0.272775,-0.0343061,0.44278,-0.536524,0.111742,-0.549927,-0.234806,0.665274,0.297863,-0.241279,0,0,0,0,0,0,0,-0.272361,0.0173287,0.203954,-1.67001,-0.298646,1.52937,1.23943,-0.630131,0.184841,-0.655645,-0.181347,0.347438,0.546521,-0.177654,2.49103,-37.216,2.53602,26.0822,-0.109257,1.75316,-0.224197,-0.894022,-0.234562,-0.89448,0.312176,0.188323,-0.0607928,-0.0351669,0.531865,-0.0844906,-0.69854,0.0737036,-0.336004,-0.205725,
-0.289852,0.0193071,0.1864,-1.67925,-0.270132,-0.0331121,0.441826,-0.528154,0.108471,-0.541524,-0.234705,0.660768,0.298492,-0.238482,0,0,0,0,0,0,0,-0.272361,0.0173287,0.203954,-1.67001,-0.298646,1.52937,1.23943,-0.630131,0.184841,-0.655645,-0.181347,0.347438,0.546521,-0.177654,2.49103,-37.216,2.53602,26.0822,-0.109257,1.75316,-0.224197,-0.894022,-0.234562,-0.89448,0.312176,0.188323,-0.0607928,-0.0351669,0.531865,-0.0844906,-0.69854,0.0737036,-0.336004,-0.205725,
-0.291933,0.0197276,0.184266,-1.68019,-0.267503,-0.0318937,0.440882,-0.520315,0.105129,-0.533656,-0.234881,0.657112,0.304606,-0.23586,0,0,0,0,0,0,0,-0.272361,0.0173287,0.203954,-1.67001,-0.298646,1.52937,1.23943,-0.630131,0.184841,-0.655645,-0.181347,0.347438,0.546521,-0.177654,2.49103,-37.216,2.53602,26.0822,-0.109257,1.75316,-0.224197,-0.796864,-1.13369,-1.55094,0.994339,0.597633,-0.572218,-0.548725,1.0023,-0.587602,-0.993403,0.107552,-0.389043,-0.201044,
-0.282206,0.0172919,0.194198,-1.67635,-0.273425,-0.0388283,0.443782,-0.590865,0.1192,-0.605333,-0.260006,0.85692,0.302176,-0.287981,0,0,0,0,0,0,0,-0.272361,0.0173287,0.203954,-1.67001,-0.298646,1.52937,1.23943,-0.630131,0.184841,-0.655645,-0.181347,0.347438,0.546521,-0.177654,2.49103,-37.216,2.53602,26.0822,-0.109257,1.75316,-0.224197,-0.471821,-2.37099,-2.07133,1.87753,1.08583,-1.25333,-1.23415,1.50435,-1.25533,-1.23041,0.118615,-0.435897,-0.198466,
-0.299746,0.022781,0.175894,-1.68152,-0.268042,-0.0220613,0.441082,-0.512224,0.0915315,-0.525732,-0.233521,0.726617,0.329587,-0.252327,0,0,0,0,0,0,0,-0.272361,0.0173287,0.203954,-1.67001,-0.298646,1.52937,1.23943,-0.630131,0.184841,-0.655645,-0.181347,0.347438,0.546521,-0.177654,2.49103,-37.216,2.53602,26.0822,-0.109257,1.75316,-0.224197,-0.471821,-2.37099,-2.07133,1.87753,1.08583,-1.25333,-1.23415,1.50435,-1.25533,-1.23041,0.118615,-0.435897,-0.198466,
-0.301752,0.0231363,0.173834,-1.68245,-0.26514,-0.0207736,0.440086,-0.501407,0.088834,-0.514889,-0.230793,0.725482,0.321929,-0.248866,0,0,0,0,0,0,0,-0.292385,0.0233026,0.182873,-1.67552,-0.28419,1.54564,1.23339,-0.580224,0.176875,-0.60151,-0.153395,0.453835,0.457034,-0.174139,2.23713,-37.5176,2.23848,25.7092,0.299984,1.75316,-0.197647,-1.45468,-1.69188,-1.77165,1.49701,0.238732,-0.953299,-0.930959,0.96621,-0.957497,-1.05686,0.20153,-0.398626,-0.195781,
-0.303718,0.0234789,0.171815,-1.68336,-0.262253,-0.0195025,0.439102,-0.491375,0.0856515,-0.504837,-0.229263,0.721922,0.317766,-0.245945,0,0,0,0,0,0,0,-0.292385,0.0233026,0.182873,-1.67552,-0.28419,1.54564,1.23339,-0.580224,0.176875,-0.60151,-0.153395,0.453835,0.457034,-0.174139,2.23713,-37.5176,2.23848,25.7092,0.299984,1.75316,-0.197647,-1.45468,-1.69188,-1.77165,1.49701,0.238732,-0.953299,-0.930959,0.96621,-0.957497,-1.05686,0.20153,-0.398626,-0.195781,
-0.305645,0.0238087,0.169833,-1.68428,-0.259386,-0.018242,0.43813,-0.481974,0.0824389,-0.495415,-0.227914,0.716593,0.31514,-0.243142,0,0,0,0,0,0,0,-0.292385,0.0233026,0.182873,-1.67552,-0.28419,1.54564,1.23339,-0.580224,0.176875,-0.60151,-0.153395,0.453835,0.457034,-0.174139,2.23713,-37.5176,2.23848,25.7092,0.299984,1.75316,-0.197647,-0.727808,1.2309,-2.23405,-0.149335,0.899537,0.717333,0.751652,1.16743,0.680561,-1.24473,0.459585,-0.314921,-0.195734,
-0.307537,0.0241269,0.167887,-1.68518,-0.256546,-0.017006,0.437168,-0.47299,0.0795433,-0.486399,-0.225623,0.709979,0.308999,-0.240461,0,0,0,0,0,0,0,-0.292385,0.0233026,0.182873,-1.67552,-0.28419,1.54564,1.23339,-0.580224,0.176875,-0.60151,-0.153395,0.453835,0.457034,-0.174139,2.23713,-37.5176,2.23848,25.7092,0.299984,1.75316,-0.197647,-1.516,0.0263307,-2.2437,0.608832,0.423615,-0.0384187,-0.00468573,1.07313,-0.0627242,-1.27551,0.393787,-0.394635,-0.190905,
-0.309395,0.0244334,0.165976,-1.68607,-0.253735,-0.015803,0.436216,-0.464412,0.0766407,-0.477796,-0.223128,0.702861,0.300735,-0.237929,0,0,0,0,0,0,0,-0.292385,0.0233026,0.182873,-1.67552,-0.28419,1.54564,1.23339,-0.580224,0.176875,-0.60151,-0.153395,0.453835,0.457034,-0.174139,2.23713,-37.5176,2.23848,25.7092,0.299984,1.75316,-0.197647,-1.516,0.0263307,-2.2437,0.608832,0.423615,-0.0384187,-0.00468573,1.07313,-0.0627242,-1.27551,0.393787,-0.394635,-0.190905,
-0.301192,0.0227482,0.174383,-1.6821,-0.257491,-0.0230519,0.439192,-0.548429,0.0953826,-0.56281,-0.249326,0.990905,0.297104,-0.288673,0,0,0,0,0,0,0,-0.310631,0.0283397,0.163912,-1.68054,-0.269747,1.55818,1.2284,-0.581715,0.154706,-0.590603,-0.161954,0.450187,0.377871,-0.147105,3.32813,-38.5649,3.41279,26.2805,1.02142,2.00493,-0.137222,-1.68295,-0.616235,-2.24737,1.093,0.276228,-0.430114,-0.402658,1.07204,-0.439051,-1.2494,0.438842,-0.384259,-0.185616,
-0.335697,0.0324961,0.138173,-1.69142,-0.233587,0.00253965,0.430022,-0.464575,0.0686768,-0.477845,-0.217243,0.788961,0.218288,-0.253329,0,0,0,0,0,0,0,-0.310631,0.0283397,0.163912,-1.68054,-0.269747,1.55818,1.2284,-0.581715,0.154706,-0.590603,-0.161954,0.450187,0.377871,-0.147105,3.32813,-38.5649,3.41279,26.2805,1.02142,2.00493,-0.137222,-1.68295,-0.616235,-2.24737,1.093,0.276228,-0.430114,-0.402658,1.07204,-0.439051,-1.2494,0.438842,-0.384259,-0.185616,
-0.337513,0.0327619,0.136304,-1.69228,-0.230497,0.0033618,0.429022,-0.454022,0.0664452,-0.467344,-0.214724,0.772441,0.205539,-0.250091,0,0,0,0,0,0,0,-0.310631,0.0283397,0.163912,-1.68054,-0.269747,1.55818,1.2284,-0.581715,0.154706,-0.590603,-0.161954,0.450187,0.377871,-0.147105,3.32813,-38.5649,3.41279,26.2805,1.02142,2.00493,-0.137222,-1.9876,-0.801948,-1.90546,1.22128,-0.142397,-0.579957,-0.555372,0.795872,-0.580183,-1.06772,0.465279,-0.348972,-0.180656,
-0.33929,0.0330167,0.134473,-1.69314,-0.227478,0.00414772,0.428032,-0.444395,0.0637097,-0.457759,-0.213399,0.754947,0.196479,-0.247314,0,0,0,0,0,0,0,-0.310631,0.0283397,0.163912,-1.68054,-0.269747,1.55818,1.2284,-0.581715,0.154706,-0.590603,-0.161954,0.450187,0.377871,-0.147105,3.32813,-38.5649,3.41279,26.2805,1.02142,2.00493,-0.137222,-1.9876,-0.801948,-1.90546,1.22128,-0.142397,-0.579957,-0.555372,0.795872,-0.580183,-1.06772,0.465279,-0.348972,-0.180656,
-0.341033,0.0332601,0.132677,-1.69399,-0.224531,0.00491089,0.427054,-0.435535,0.0608418,-0.448927,-0.212587,0.73665,0.190792,-0.244639,0,0,0,0,0,0,0,-0.310631,0.0283397,0.163912,-1.68054,-0.269747,1.55818,1.2284,-0.581715,0.154706,-0.590603,-0.161954,0.450187,0.377871,-0.147105,3.32813,-38.5649,3.41279,26.2805,1.02142,2.00493,-0.137222,-2.77895,2.69911,-1.83267,-0.861547,-0.714004,1.25518,1.29536,0.212085,1.21362,-1.05938,0.68295,-0.322944,-0.185032,
-0.342742,0.0334919,0.130914,-1.69483,-0.22166,0.0056665,0.426086,-0.427323,0.0579602,-0.440735,-0.212118,0.71781,0.188903,-0.242072,0,0,0,0,0,0,0,-0.328464,0.0327374,0.14547,-1.68619,-0.255291,1.56925,1.22365,-0.544012,0.134843,-0.592041,-0.173371,0.501334,0.324074,-0.161277,2.08637,-38.1404,2.28609,26.9788,0.868527,2.15142,-0.0969389,-2.77895,2.69911,-1.83267,-0.861547,-0.714004,1.25518,1.29536,0.212085,1.21362,-1.05938,0.68295,-0.322944,-0.185032,
-0.344421,0.0337124,0.129182,-1.69568,-0.218865,0.00643271,0.425127,-0.419661,0.0551049,-0.43309,-0.211987,0.698728,0.191553,-0.239656,0,0,0,0,0,0,0,-0.328464,0.0327374,0.14547,-1.68619,-0.255291,1.56925,1.22365,-0.544012,0.134843,-0.592041,-0.173371,0.501334,0.324074,-0.161277,2.08637,-38.1404,2.28609,26.9788,0.868527,2.15142,-0.0969389,-2.07989,0.0791533,-2.33546,0.790943,-0.0309579,-0.122944,-0.0925777,0.893524,-0.133459,-1.2334,0.5491,-0.325787,-0.178939,
-0.336158,0.0320595,0.137652,-1.69198,-0.227021,0.00106233,0.428324,-0.478571,0.0583876,-0.492952,-0.230979,1.03262,0.181429,-0.286207,0,0,0,0,0,0,0,-0.328464,0.0327374,0.14547,-1.68619,-0.255291,1.56925,1.22365,-0.544012,0.134843,-0.592041,-0.173371,0.501334,0.324074,-0.161277,2.08637,-38.1404,2.28609,26.9788,0.868527,2.15142,-0.0969389,-0.149323,-0.390643,-2.44792,1.11835,1.21635,-0.152976,-0.122251,1.52328,-0.164519,-1.23303,0.553123,-0.234897,-0.178086,
-0.351312,0.0357836,0.121967,-1.69678,-0.21942,0.00996824,0.425349,-0.409577,0.0413353,-0.423138,-0.214266,0.754416,0.227977,-0.252984,0,0,0,0,0,0,0,-0.328464,0.0327374,0.14547,-1.68619,-0.255291,1.56925,1.22365,-0.544012,0.134843,-0.592041,-0.173371,0.501334,0.324074,-0.161277,2.08637,-38.1404,2.28609,26.9788,0.868527,2.15142,-0.0969389,-0.149323,-0.390643,-2.44792,1.11835,1.21635,-0.152976,-0.122251,1.52328,-0.164519,-1.23303,0.553123,-0.234897,-0.178086,
-0.352911,0.03594,0.120314,-1.69762,-0.216435,0.0108793,0.424349,-0.399521,0.0391003,-0.413231,-0.211019,0.746207,0.227754,-0.249956,0,0,0,0,0,0,0,-0.328464,0.0327374,0.14547,-1.68619,-0.255291,1.56925,1.22365,-0.544012,0.134843,-0.592041,-0.173371,0.501334,0.324074,-0.161277,2.08637,-38.1404,2.28609,26.9788,0.868527,2.15142,-0.0969389,-0.0254078,-1.45376,-1.76478,1.65662,0.931455,-0.723875,-0.699743,1.28114,-0.71804,-0.91184,0.464174,-0.200142,-0.174883,
-0.354473,0.036086,0.118696,-1.69846,-0.213471,0.0117883,0.423359,-0.390625,0.0365055,-0.404461,-0.208481,0.741161,0.22727,-0.247357,0,0,0,0,0,0,0,-0.328464,0.0327374,0.14547,-1.68619,-0.255291,1.56925,1.22365,-0.544012,0.134843,-0.592041,-0.173371,0.501334,0.324074,-0.161277,2.08637,-38.1404,2.28609,26.9788,0.868527,2.15142,-0.0969389,-0.0254078,-1.45376,-1.76478,1.65662,0.931455,-0.723875,-0.699743,1.28114,-0.71804,-0.91184,0.464174,-0.200142,-0.174883,
-0.356004,0.0362218,0.11711,-1.69928,-0.210513,0.0126827,0.42238,-0.38266,0.0339532,-0.396596,-0.205675,0.739429,0.223578,-0.24484,0,0,0,0,0,0,0,-0.350455,0.0373264,0.122433,-1.69349,-0.232407,1.57985,1.21673,-0.529461,0.0976169,-0.536212,-0.168583,0.617456,0.201283,-0.182398,3.53046,-38.3666,3.53578,26.705,0.27618,2.09832,-0.210464,0.0366187,-0.383092,-1.57241,0.907835,0.867376,-0.115074,-0.0829696,1.07119,-0.130165,-0.822936,0.428401,-0.168391,-0.172211,
-0.357506,0.0363472,0.115552,-1.70009,-0.207547,0.0135528,0.42141,-0.375521,0.0313598,-0.389546,-0.202898,0.74146,0.217545,-0.242388,0,0,0,0,0,0,0,-0.350455,0.0373264,0.122433,-1.69349,-0.232407,1.57985,1.21673,-0.529461,0.0976169,-0.536212,-0.168583,0.617456,0.201283,-0.182398,3.53046,-38.3666,3.53578,26.705,0.27618,2.09832,-0.210464,-0.347509,0.567711,-0.929313,0.197422,0.289858,0.361706,0.4027,0.514705,0.328958,-0.546919,0.407626,-0.140263,-0.176247,
-0.358982,0.0364621,0.114019,-1.70089,-0.204556,0.0143918,0.42045,-0.369102,0.0287292,-0.383208,-0.200249,0.747639,0.209733,-0.240015,0,0,0,0,0,0,0,-0.350455,0.0373264,0.122433,-1.69349,-0.232407,1.57985,1.21673,-0.529461,0.0976169,-0.536212,-0.168583,0.617456,0.201283,-0.182398,3.53046,-38.3666,3.53578,26.705,0.27618,2.09832,-0.210464,-0.347509,0.567711,-0.929313,0.197422,0.289858,0.361706,0.4027,0.514705,0.328958,-0.546919,0.407626,-0.140263,-0.176247,
-0.352081,0.0353886,0.121119,-1.69733,-0.212989,0.00977429,0.423683,-0.434523,0.0321889,-0.449359,-0.226211,1.02294,0.219993,-0.285149,0,0,0,0,0,0,0,-0.350455,0.0373264,0.122433,-1.69349,-0.232407,1.57985,1.21673,-0.529461,0.0976169,-0.536212,-0.168583,0.617456,0.201283,-0.182398,3.53046,-38.3666,3.53578,26.705,0.27618,2.09832,-0.210464,-0.746041,-1.51264,-1.17228,1.45042,0.146663,-0.825755,-0.794216,0.704159,-0.826973,-0.611995,0.273683,-0.151855,-0.173775,
-0.371517,0.0390136,0.100704,-1.70358,-0.190005,0.0182848,0.418483,-0.374567,0.0162846,-0.388278,-0.195599,0.963506,0.119383,-0.251306,0,0,0,0,0,0,0,-0.350455,0.0373264,0.122433,-1.69349,-0.232407,1.57985,1.21673,-0.529461,0.0976169,-0.536212,-0.168583,0.617456,0.201283,-0.182398,3.53046,-38.3666,3.53578,26.705,0.27618,2.09832,-0.210464,-0.746041,-1.51264,-1.17228,1.45042,0.146663,-0.825755,-0.794216,0.704159,-0.826973,-0.611995,0.273683,-0.151855,-0.173775,
-0.372972,0.0390709,0.0991931,-1.70435,-0.186214,0.0187133,0.417489,-0.36387,0.0143147,-0.377629,-0.192821,0.947647,0.107103,-0.248475,0,0,0,0,0,0,0,-0.366119,0.040334,0.106093,-1.69877,-0.214513,1.58571,1.21101,-0.485313,0.0931279,-0.487403,-0.150703,0.555597,0.169345,-0.147743,3.27655,-38.7395,3.26204,27.1533,0.612179,2.2503,-0.210464,-0.993388,0.164153,-1.56197,0.45524,0.154909,0.0681502,0.110252,0.636146,0.0381995,-0.765524,0.31111,-0.129392,-0.175942,
-0.374388,0.0391186,0.097722,-1.70511,-0.182501,0.0191028,0.416506,-0.353962,0.0119292,-0.367775,-0.191204,0.928371,0.0973949,-0.245965,0,0,0,0,0,0,0,-0.366119,0.040334,0.106093,-1.69877,-0.214513,1.58571,1.21101,-0.485313,0.0931279,-0.487403,-0.150703,0.555597,0.169345,-0.147743,3.27655,-38.7395,3.26204,27.1533,0.612179,2.2503,-0.210464,-0.993388,0.164153,-1.56197,0.45524,0.154909,0.0681502,0.110252,0.636146,0.0381995,-0.765524,0.31111,-0.129392,-0.175942,
-0.375767,0.0391564,0.0962875,-1.70587,-0.178874,0.0194634,0.415531,-0.344773,0.0094493,-0.358639,-0.190131,0.906566,0.0901311,-0.243553,0,0,0,0,0,0,0,-0.366119,0.040334,0.106093,-1.69877,-0.214513,1.58571,1.21101,-0.485313,0.0931279,-0.487403,-0.150703,0.555597,0.169345,-0.147743,3.27655,-38.7395,3.26204,27.1533,0.612179,2.2503,-0.210464,-1.13811,-1.3286,-1.65793,1.26164,0.148266,-0.757445,-0.718104,0.788928,-0.772268,-0.798377,0.12278,-0.150547,-0.173843,
-0.377112,0.0391843,0.0948868,-1.70663,-0.175342,0.0198069,0.414566,-0.33624,0.00697768,-0.350158,-0.189451,0.883005,0.0858733,-0.241247,0,0,0,0,0,0,0,-0.366119,0.040334,0.106093,-1.69877,-0.214513,1.58571,1.21101,-0.485313,0.0931279,-0.487403,-0.150703,0.555597,0.169345,-0.147743,3.27655,-38.7395,3.26204,27.1533,0.612179,2.2503,-0.210464,-0.691314,-0.861927,-2.11831,1.0854,0.639146,-0.436061,-0.393827,1.10206,-0.45986,-0.985586,0.178468,-0.139992,-0.172534,
-0.378425,0.0392025,0.0935177,-1.70739,-0.171909,0.020149,0.41361,-0.328299,0.00454899,-0.34227,-0.18917,0.85835,0.0855359,-0.239084,0,0,0,0,0,0,0,-0.366119,0.040334,0.106093,-1.69877,-0.214513,1.58571,1.21101,-0.485313,0.0931279,-0.487403,-0.150703,0.555597,0.169345,-0.147743,3.27655,-38.7395,3.26204,27.1533,0.612179,2.2503,-0.210464,-0.691314,-0.861927,-2.11831,1.0854,0.639146,-0.436061,-0.393827,1.10206,-0.45986,-0.985586,0.178468,-0.139992,-0.172534,
-0.371351,0.0385677,0.100827,-1.70407,-0.189655,0.0182192,0.416953,-0.371684,0.00455266,-0.386541,-0.20591,1.01105,0.122543,-0.281219,0,0,0,0,0,0,0,-0.366119,0.040334,0.106093,-1.69877,-0.214513,1.58571,1.21101,-0.485313,0.0931279,-0.487403,-0.150703,0.555597,0.169345,-0.147743,3.27655,-38.7395,3.26204,27.1533,0.612179,2.2503,-0.210464,-0.881239,-0.376775,-1.92982,0.819146,0.349925,-0.206371,-0.162607,0.855292,-0.232457,-0.859595,0.258996,-0.0840804,-0.175524,
-0.384617,0.0411357,0.0869349,-1.70841,-0.175241,0.0215654,0.41288,-0.316132,-0.0058577,-0.330102,-0.19578,0.84439,0.161119,-0.251123,0,0,0,0,0,0,0,-0.380829,0.0426288,0.0906664,-1.7036,-0.192885,1.5898,1.20647,-0.429158,0.06554,-0.468459,-0.146127,0.658755,0.0849598,-0.145625,3.05042,-38.9378,3.0359,26.705,1.08825,2.32995,-0.143631,-0.881239,-0.376775,-1.92982,0.819146,0.349925,-0.206371,-0.162607,0.855292,-0.232457,-0.859595,0.258996,-0.0840804,-0.175524,
-0.38584,0.0411065,0.0856553,-1.70918,-0.171918,0.0222304,0.411887,-0.305748,-0.00730421,-0.319907,-0.192054,0.830851,0.166256,-0.248414,0,0,0,0,0,0,0,-0.380829,0.0426288,0.0906664,-1.7036,-0.192885,1.5898,1.20647,-0.429158,0.06554,-0.468459,-0.146127,0.658755,0.0849598,-0.145625,3.05042,-38.9378,3.0359,26.705,1.08825,2.32995,-0.143631,-1.75061,-1.39035,-2.27316,1.50456,-0.0319065,-0.911763,-0.877345,0.902778,-0.911887,-1.00733,0.22804,-0.125934,-0.172733,
-0.387026,0.0410698,0.084412,-1.70994,-0.168642,0.0229099,0.410902,-0.296507,-0.00917448,-0.310836,-0.189168,0.818966,0.169879,-0.24609,0,0,0,0,0,0,0,-0.380829,0.0426288,0.0906664,-1.7036,-0.192885,1.5898,1.20647,-0.429158,0.06554,-0.468459,-0.146127,0.658755,0.0849598,-0.145625,3.05042,-38.9378,3.0359,26.705,1.08825,2.32995,-0.143631,-1.99574,-0.0732949,-1.76539,0.651423,-0.440111,-0.262426,-0.220476,0.446154,-0.282419,-0.820505,0.291759,-0.127196,-0.170595,
-0.388179,0.0410249,0.083201,-1.71068,-0.165406,0.0235992,0.409927,-0.288264,-0.0112158,-0.302745,-0.186755,0.809042,0.172312,-0.243832,0,0,0,0,0,0,0,-0.380829,0.0426288,0.0906664,-1.7036,-0.192885,1.5898,1.20647,-0.429158,0.06554,-0.468459,-0.146127,0.658755,0.0849598,-0.145625,3.05042,-38.9378,3.0359,26.705,1.08825,2.32995,-0.143631,-1.99574,-0.0732949,-1.76539,0.651423,-0.440111,-0.262426,-0.220476,0.446154,-0.282419,-0.820505,0.291759,-0.127196,-0.170595,
-0.389303,0.0409716,0.0820189,-1.71142,-0.162201,0.0242956,0.408961,-0.280892,-0.0133116,-0.295508,-0.184696,0.801346,0.174106,-0.241632,0,0,0,0,0,0,0,-0.380829,0.0426288,0.0906664,-1.7036,-0.192885,1.5898,1.20647,-0.429158,0.06554,-0.468459,-0.146127,0.658755,0.0849598,-0.145625,3.05042,-38.9378,3.0359,26.705,1.08825,2.32995,-0.143631,-1.19369,-0.696881,-2.44631,1.16414,0.453488,-0.465287,-0.421068,1.14399,-0.485038,-1.1487,0.272303,-0.181383,-0.17125,
-0.3904,0.0409101,0.080863,-1.71215,-0.159017,0.0249991,0.408003,-0.274264,-0.0153947,-0.288999,-0.182955,0.795995,0.17586,-0.239509,0,0,0,0,0,0,0,-0.393931,0.0441311,0.0768962,-1.70834,-0.172695,1.59213,1.20229,-0.396034,0.0273548,-0.422618,-0.155062,0.619437,0.0710724,-0.144157,3.45508,-38.188,3.51198,26.8518,0.971981,2.48925,-0.143631,-1.19369,-0.696881,-2.44631,1.16414,0.453488,-0.465287,-0.421068,1.14399,-0.485038,-1.1487,0.272303,-0.181383,-0.17125,
-0.38499,0.0406641,0.0864888,-1.70896,-0.172791,0.0228068,0.411377,-0.331599,-0.0179273,-0.347,-0.205719,1.00248,0.19061,-0.280359,0,0,0,0,0,0,0,-0.393931,0.0441311,0.0768962,-1.70834,-0.172695,1.59213,1.20229,-0.396034,0.0273548,-0.422618,-0.155062,0.619437,0.0710724,-0.144157,3.45508,-38.188,3.51198,26.8518,0.971981,2.48925,-0.143631,-0.606294,-0.87151,-3.19956,1.48043,1.17594,-0.46573,-0.421781,1.73206,-0.483572,-1.46916,0.34329,-0.198087,-0.167791,
-0.409685,0.0432304,0.0604326,-1.71754,-0.130652,0.0294474,0.404201,-0.271135,-0.0299843,-0.285811,-0.176257,0.920002,0.149184,-0.250014,0,0,0,0,0,0,0,-0.393931,0.0441311,0.0768962,-1.70834,-0.172695,1.59213,1.20229,-0.396034,0.0273548,-0.422618,-0.155062,0.619437,0.0710724,-0.144157,3.45508,-38.188,3.51198,26.8518,0.971981,2.48925,-0.143631,-0.532709,0.77555,-2.97545,0.532248,1.05763,0.416705,0.471979,1.44609,0.372243,-1.37637,0.485465,-0.174234,-0.168234,
-0.410734,0.0431055,0.0593251,-1.71824,-0.127039,0.0299987,0.403211,-0.262061,-0.0312155,-0.276875,-0.17322,0.903344,0.13781,-0.247468,0,0,0,0,0,0,0,-0.393931,0.0441311,0.0768962,-1.70834,-0.172695,1.59213,1.20229,-0.396034,0.0273548,-0.422618,-0.155062,0.619437,0.0710724,-0.144157,3.45508,-38.188,3.51198,26.8518,0.971981,2.48925,-0.143631,-0.532709,0.77555,-2.97545,0.532248,1.05763,0.416705,0.471979,1.44609,0.372243,-1.37637,0.485465,-0.174234,-0.168234,
-0.411749,0.0429742,0.0582497,-1.71892,-0.123494,0.0305065,0.40223,-0.253904,-0.0328234,-0.268848,-0.171181,0.886229,0.126954,-0.2452,0,0,0,0,0,0,0,-0.393931,0.0441311,0.0768962,-1.70834,-0.172695,1.59213,1.20229,-0.396034,0.0273548,-0.422618,-0.155062,0.619437,0.0710724,-0.144157,3.45508,-38.188,3.51198,26.8518,0.971981,2.48925,-0.143631,-1.00688,1.05709,-2.48748,0.285784,0.491542,0.463413,0.525156,1.0116,0.41279,-1.16038,0.499749,-0.155908,-0.16317,
-0.412735,0.0428361,0.0572032,-1.7196,-0.120017,0.0309729,0.401258,-0.246559,-0.0345238,-0.261621,-0.169636,0.869109,0.116597,-0.242994,0,0,0,0,0,0,0,-0.393931,0.0441311,0.0768962,-1.70834,-0.172695,1.59213,1.20229,-0.396034,0.0273548,-0.422618,-0.155062,0.619437,0.0710724,-0.144157,3.45508,-38.188,3.51198,26.8518,0.971981,2.48925,-0.143631,-1.00688,1.05709,-2.48748,0.285784,0.491542,0.463413,0.525156,1.0116,0.41279,-1.16038,0.499749,-0.155908,-0.16317,
-0.413695,0.0426913,0.0561828,-1.72027,-0.116608,0.0314018,0.400295,-0.239928,-0.0362106,-0.255097,-0.168452,0.852314,0.107241,-0.240847,0,0,0,0,0,0,0,-0.40617,0.044838,0.0642658,-1.71312,-0.155273,1.59406,1.1972,-0.367971,0.0146458,-0.408172,-0.147812,0.573821,0.0514771,-0.165217,2.79651,-38.2634,2.73836,26.9272,0.93536,2.50939,-0.130813,-0.672458,-1.05386,-2.84103,1.55052,0.883561,-0.590641,-0.530594,1.49446,-0.620191,-1.26075,0.347566,-0.135949,-0.157208,
-0.41463,0.04254,0.0551869,-1.72094,-0.113273,0.0318003,0.39934,-0.233762,-0.0378237,-0.248982,-0.167599,0.83373,0.0996191,-0.238746,0,0,0,0,0,0,0,-0.40617,0.044838,0.0642658,-1.71312,-0.155273,1.59406,1.1972,-0.367971,0.0146458,-0.408172,-0.147812,0.573821,0.0514771,-0.165217,2.79651,-38.2634,2.73836,26.9272,0.93536,2.50939,-0.130813,-0.672458,-1.05386,-2.84103,1.55052,0.883561,-0.590641,-0.530594,1.49446,-0.620191,-1.26075,0.347566,-0.135949,-0.157208,
-0.409237,0.0427524,0.0608566,-1.71791,-0.1303,0.0308388,0.402844,-0.261185,-0.0430692,-0.276807,-0.182052,1.00076,0.185871,-0.276625,0,0,0,0,0,0,0,-0.40617,0.044838,0.0642658,-1.71312,-0.155273,1.59406,1.1972,-0.367971,0.0146458,-0.408172,-0.147812,0.573821,0.0514771,-0.165217,2.79651,-38.2634,2.73836,26.9272,0.93536,2.50939,-0.130813,-0.318203,-0.9275,-2.08095,1.35483,0.668845,-0.45747,-0.39653,1.13037,-0.488785,-0.881951,0.384168,-0.0507735,-0.157347,
-0.419858,0.0432192,0.0498857,-1.7218,-0.117613,0.0281808,0.39928,-0.218094,-0.0472953,-0.232964,-0.175616,0.754029,0.138003,-0.247193,0,0,0,0,0,0,0,-0.40617,0.044838,0.0642658,-1.71312,-0.155273,1.59406,1.1972,-0.367971,0.0146458,-0.408172,-0.147812,0.573821,0.0514771,-0.165217,2.79651,-38.2634,2.73836,26.9272,0.93536,2.50939,-0.130813,-0.0812336,-1.18913,-1.84927,1.51237,0.63975,-0.55268,-0.49482,1.06269,-0.576204,-0.733384,0.432097,0.0068989,-0.158675,
-0.420693,0.0430288,0.048991,-1.72249,-0.114719,0.0287693,0.3983,-0.208634,-0.0476034,-0.223676,-0.172735,0.72361,0.147143,-0.244784,0,0,0,0,0,0,0,-0.40617,0.044838,0.0642658,-1.71312,-0.155273,1.59406,1.1972,-0.367971,0.0146458,-0.408172,-0.147812,0.573821,0.0514771,-0.165217,2.79651,-38.2634,2.73836,26.9272,0.93536,2.50939,-0.130813,-0.0812336,-1.18913,-1.84927,1.51237,0.63975,-0.55268,-0.49482,1.06269,-0.576204,-0.733384,0.432097,0.0068989,-0.158675,
-0.421493,0.0428361,0.0481296,-1.72317,-0.111948,0.0293773,0.39733,-0.200149,-0.0481612,-0.215354,-0.169955,0.692682,0.152,-0.242608,0,0,0,0,0,0,0,-0.417707,0.0449633,0.0523118,-1.71804,-0.135415,1.59495,1.19118,-0.34393,0.00100269,-0.354088,-0.144282,0.627233,0.00589381,-0.170643,3.1496,-38.2396,3.11128,27.3279,0.807186,2.56249,-0.224197,-0.719861,-2.0196,-1.37477,1.86084,-0.00287423,-1.10942,-1.05671,0.702687,-1.11647,-0.498751,0.343321,0.0407282,-0.165523,
-0.422263,0.0426404,0.0472979,-1.72384,-0.1093,0.0299921,0.396368,-0.192582,-0.0489337,-0.207943,-0.167417,0.662126,0.153687,-0.240457,0,0,0,0,0,0,0,-0.417707,0.0449633,0.0523118,-1.71804,-0.135415,1.59495,1.19118,-0.34393,0.00100269,-0.354088,-0.144282,0.627233,0.00589381,-0.170643,3.1496,-38.2396,3.11128,27.3279,0.807186,2.56249,-0.224197,-0.719861,-2.0196,-1.37477,1.86084,-0.00287423,-1.10942,-1.05671,0.702687,-1.11647,-0.498751,0.343321,0.0407282,-0.165523,
-0.423007,0.042441,0.0464922,-1.7245,-0.106768,0.0306045,0.395415,-0.18589,-0.0498563,-0.201403,-0.165169,0.633008,0.153109,-0.238318,0,0,0,0,0,0,0,-0.417707,0.0449633,0.0523118,-1.71804,-0.135415,1.59495,1.19118,-0.34393,0.00100269,-0.354088,-0.144282,0.627233,0.00589381,-0.170643,3.1496,-38.2396,3.11128,27.3279,0.807186,2.56249,-0.224197,-0.781293,-0.892977,-1.44184,1.24689,-0.0355675,-0.526996,-0.474104,0.596108,-0.544638,-0.543713,0.431179,0.0323089,-0.176088,
-0.419064,0.0428882,0.0506765,-1.72164,-0.118298,0.0304528,0.39903,-0.236824,-0.061867,-0.253361,-0.187478,0.97232,0.200407,-0.279361,0,0,0,0,0,0,0,-0.417707,0.0449633,0.0523118,-1.71804,-0.135415,1.59495,1.19118,-0.34393,0.00100269,-0.354088,-0.144282,0.627233,0.00589381,-0.170643,3.1496,-38.2396,3.11128,27.3279,0.807186,2.56249,-0.224197,-0.781293,-0.892977,-1.44184,1.24689,-0.0355675,-0.526996,-0.474104,0.596108,-0.544638,-0.543713,0.431179,0.0323089,-0.176088,
-0.428888,0.0429072,0.0404596,-1.72609,-0.101591,0.0310399,0.394267,-0.199221,-0.0602443,-0.215536,-0.171261,0.785676,0.170014,-0.249762,0,0,0,0,0,0,0,-0.417707,0.0449633,0.0523118,-1.71804,-0.135415,1.59495,1.19118,-0.34393,0.00100269,-0.354088,-0.144282,0.627233,0.00589381,-0.170643,3.1496,-38.2396,3.11128,27.3279,0.807186,2.56249,-0.224197,-0.927831,-0.168608,-1.56951,0.860128,-0.0741306,-0.175121,-0.11878,0.547613,-0.203076,-0.617224,0.472787,0.0140309,-0.185081,
-0.429662,0.0426622,0.0396192,-1.72676,-0.0983637,0.0316985,0.393277,-0.193501,-0.0612478,-0.210097,-0.16804,0.806866,0.164634,-0.24751,0,0,0,0,0,0,0,-0.417707,0.0449633,0.0523118,-1.71804,-0.135415,1.59495,1.19118,-0.34393,0.00100269,-0.354088,-0.144282,0.627233,0.00589381,-0.170643,3.1496,-38.2396,3.11128,27.3279,0.807186,2.56249,-0.224197,-1.18497,0.00251783,-1.87344,0.792531,-0.0750521,-0.131651,-0.0755313,0.621715,-0.161401,-0.759141,0.443205,-0.00906671,-0.191586,
-0.430418,0.0424181,0.0387956,-1.72741,-0.0950009,0.032318,0.392299,-0.189098,-0.061025,-0.205912,-0.162959,0.840697,0.154888,-0.244521,0,0,0,0,0,0,0,-0.43034,0.0449265,0.0388468,-1.72345,-0.112872,1.595,1.18558,-0.291691,-0.00102612,-0.315581,-0.12215,0.476524,-0.000891111,-0.143093,3.63361,-37.6921,3.41279,26.9788,0.93536,2.6751,-0.163772,-1.18497,0.00251783,-1.87344,0.792531,-0.0750521,-0.131651,-0.0755313,0.621715,-0.161401,-0.759141,0.443205,-0.00906671,-0.191586,
-0.431155,0.0421715,0.0379925,-1.72805,-0.0915635,0.032895,0.39133,-0.1842,-0.0616516,-0.200765,-0.159688,0.859356,0.144254,-0.242152,0,0,0,0,0,0,0,-0.43034,0.0449265,0.0388468,-1.72345,-0.112872,1.595,1.18558,-0.291691,-0.00102612,-0.315581,-0.12215,0.476524,-0.000891111,-0.143093,3.63361,-37.6921,3.41279,26.9788,0.93536,2.6751,-0.163772,-1.48299,-0.212175,-2.22022,0.943346,-0.0659969,-0.299676,-0.242557,0.755455,-0.329094,-0.919359,0.371032,-0.0371742,-0.197414,
-0.431871,0.041921,0.0372112,-1.72868,-0.088096,0.0334257,0.39037,-0.178915,-0.062626,-0.195322,-0.1573,0.866867,0.132662,-0.239925,0,0,0,0,0,0,0,-0.43034,0.0449265,0.0388468,-1.72345,-0.112872,1.595,1.18558,-0.291691,-0.00102612,-0.315581,-0.12215,0.476524,-0.000891111,-0.143093,3.63361,-37.6921,3.41279,26.9788,0.93536,2.6751,-0.163772,-1.48299,-0.212175,-2.22022,0.943346,-0.0659969,-0.299676,-0.242557,0.755455,-0.329094,-0.919359,0.371032,-0.0371742,-0.197414,
-0.429367,0.0421539,0.0398894,-1.7272,-0.0941165,0.034488,0.392028,-0.183937,-0.0743723,-0.200693,-0.173796,0.98528,0.229594,-0.271505,0,0,0,0,0,0,0,-0.43034,0.0449265,0.0388468,-1.72345,-0.112872,1.595,1.18558,-0.291691,-0.00102612,-0.315581,-0.12215,0.476524,-0.000891111,-0.143093,3.63361,-37.6921,3.41279,26.9788,0.93536,2.6751,-0.163772,-1.52783,-0.863563,-2.0945,1.28588,-0.159282,-0.645242,-0.589297,0.739411,-0.666532,-0.843784,0.325199,-0.0156752,-0.202773,
-0.440504,0.0420922,0.0279388,-1.7317,-0.0768651,0.0293526,0.387882,-0.149522,-0.0744398,-0.165458,-0.166877,0.7204,0.138749,-0.246628,0,0,0,0,0,0,0,-0.43034,0.0449265,0.0388468,-1.72345,-0.112872,1.595,1.18558,-0.291691,-0.00102612,-0.315581,-0.12215,0.476524,-0.000891111,-0.143093,3.63361,-37.6921,3.41279,26.9788,0.93536,2.6751,-0.163772,-1.15761,-0.390726,-2.34608,1.11892,0.127696,-0.319357,-0.258904,0.885607,-0.349129,-0.921288,0.418034,0.01236,-0.211879,
-0.441065,0.0417934,0.0273143,-1.73237,-0.0741468,0.0299947,0.386916,-0.140231,-0.0746874,-0.156131,-0.165577,0.679585,0.160517,-0.241469,0,0,0,0,0,0,0,-0.439533,0.0447379,0.0285151,-1.72722,-0.0947738,1.59513,1.18112,-0.26597,-0.0115159,-0.279948,-0.105566,0.539621,-0.000748885,-0.110906,2.66956,-36.9423,2.5638,26.6058,1.44897,2.68792,-0.278213,-1.15761,-0.390726,-2.34608,1.11892,0.127696,-0.319357,-0.258904,0.885607,-0.349129,-0.921288,0.418034,0.01236,-0.211879,
-0.441592,0.0414949,0.0267227,-1.73302,-0.0715972,0.0306894,0.385959,-0.131831,-0.0746398,-0.147902,-0.16284,0.637396,0.173678,-0.23925,0,0,0,0,0,0,0,-0.439533,0.0447379,0.0285151,-1.72722,-0.0947738,1.59513,1.18112,-0.26597,-0.0115159,-0.279948,-0.105566,0.539621,-0.000748885,-0.110906,2.66956,-36.9423,2.5638,26.6058,1.44897,2.68792,-0.278213,-0.895808,-1.04755,-3.09436,1.68932,0.62811,-0.600469,-0.539285,1.41152,-0.624337,-1.21392,0.41763,0.0114001,-0.21468,
-0.44209,0.0411959,0.0261603,-1.73366,-0.0692192,0.0314138,0.38501,-0.124379,-0.0747464,-0.140608,-0.159918,0.594503,0.181119,-0.237236,0,0,0,0,0,0,0,-0.439533,0.0447379,0.0285151,-1.72722,-0.0947738,1.59513,1.18112,-0.26597,-0.0115159,-0.279948,-0.105566,0.539621,-0.000748885,-0.110906,2.66956,-36.9423,2.5638,26.6058,1.44897,2.68792,-0.278213,-0.895808,-1.04755,-3.09436,1.68932,0.62811,-0.600469,-0.539285,1.41152,-0.624337,-1.21392,0.41763,0.0114001,-0.21468,
-0.442561,0.0408956,0.0256235,-1.73429,-0.0670124,0.0321522,0.38407,-0.117825,-0.0750743,-0.134203,-0.157226,0.551707,0.184591,-0.235223,0,0,0,0,0,0,0,-0.439533,0.0447379,0.0285151,-1.72722,-0.0947738,1.59513,1.18112,-0.26597,-0.0115159,-0.279948,-0.105566,0.539621,-0.000748885,-0.110906,2.66956,-36.9423,2.5638,26.6058,1.44897,2.68792,-0.278213,-1.73467,-1.01902,-2.63298,1.57769,-0.12686,-0.786415,-0.727631,0.940506,-0.803084,-1.02765,0.417272,0.010803,-0.216781,
-0.43982,0.0418503,0.0286368,-1.73161,-0.0775508,0.0327635,0.387745,-0.162859,-0.0879989,-0.180158,-0.175743,0.955285,0.227068,-0.272224,0,0,0,0,0,0,0,-0.439533,0.0447379,0.0285151,-1.72722,-0.0947738,1.59513,1.18112,-0.26597,-0.0115159,-0.279948,-0.105566,0.539621,-0.000748885,-0.110906,2.66956,-36.9423,2.5638,26.6058,1.44897,2.68792,-0.278213,-2.28063,-0.702701,-2.61087,1.39711,-0.494905,-0.757828,-0.702332,0.742107,-0.771137,-1.02726,0.438972,0.00109209,-0.218374,
-0.447464,0.0415658,0.0198818,-1.73483,-0.066479,0.0333756,0.384456,-0.126024,-0.0846712,-0.143024,-0.161509,0.580352,0.230908,-0.244474,0,0,0,0,0,0,0,-0.447108,0.0443566,0.0203631,-1.73041,-0.0783295,1.59536,1.17689,-0.218074,-0.0127982,-0.24103,-0.0988603,0.456324,0.0131688,-0.145528,3.1496,-37.3152,2.93672,26.4035,0.60577,2.4627,-0.23793,-2.28063,-0.702701,-2.61087,1.39711,-0.494905,-0.757828,-0.702332,0.742107,-0.771137,-1.02726,0.438972,0.00109209,-0.218374,
-0.447949,0.041222,0.019328,-1.73547,-0.0641399,0.0342986,0.383489,-0.121125,-0.0859593,-0.13844,-0.160051,0.584773,0.230739,-0.241822,0,0,0,0,0,0,0,-0.447108,0.0443566,0.0203631,-1.73041,-0.0783295,1.59536,1.17689,-0.218074,-0.0127982,-0.24103,-0.0988603,0.456324,0.0131688,-0.145528,3.1496,-37.3152,2.93672,26.4035,0.60577,2.4627,-0.23793,-2.5836,-0.498221,-2.55016,1.21376,-0.680846,-0.715993,-0.657224,0.617637,-0.735808,-1.02274,0.380456,-0.0183542,-0.22384,
-0.448421,0.0408758,0.0187849,-1.73611,-0.0617113,0.0352177,0.382532,-0.118129,-0.0865502,-0.135775,-0.158279,0.607135,0.229786,-0.239205,0,0,0,0,0,0,0,-0.447108,0.0443566,0.0203631,-1.73041,-0.0783295,1.59536,1.17689,-0.218074,-0.0127982,-0.24103,-0.0988603,0.456324,0.0131688,-0.145528,3.1496,-37.3152,2.93672,26.4035,0.60577,2.4627,-0.23793,-2.5836,-0.498221,-2.55016,1.21376,-0.680846,-0.715993,-0.657224,0.617637,-0.735808,-1.02274,0.380456,-0.0183542,-0.22384,
-0.44889,0.0405327,0.0182443,-1.73673,-0.0591034,0.0361115,0.381581,-0.117108,-0.0857749,-0.135144,-0.154546,0.651985,0.223457,-0.237891,0,0,0,0,0,0,0,-0.447108,0.0443566,0.0203631,-1.73041,-0.0783295,1.59536,1.17689,-0.218074,-0.0127982,-0.24103,-0.0988603,0.456324,0.0131688,-0.145528,3.1496,-37.3152,2.93672,26.4035,0.60577,2.4627,-0.23793,-2.15845,0.29507,-2.90468,0.832352,-0.2292,-0.203578,-0.13622,0.847242,-0.2435,-1.20668,0.40401,-0.056578,-0.231451,
-0.44935,0.0401903,0.0177139,-1.73733,-0.0563988,0.0369691,0.380638,-0.114983,-0.0855841,-0.132616,-0.151653,0.67614,0.2144,-0.235682,0,0,0,0,0,0,0,-0.447108,0.0443566,0.0203631,-1.73041,-0.0783295,1.59536,1.17689,-0.218074,-0.0127982,-0.24103,-0.0988603,0.456324,0.0131688,-0.145528,3.1496,-37.3152,2.93672,26.4035,0.60577,2.4627,-0.23793,-2.15845,0.29507,-2.90468,0.832352,-0.2292,-0.203578,-0.13622,0.847242,-0.2435,-1.20668,0.40401,-0.056578,-0.231451,
-0.449797,0.0398474,0.0171969,-1.73793,-0.0536592,0.0377821,0.379704,-0.111895,-0.0857369,-0.129249,-0.149311,0.684899,0.203238,-0.233511,0,0,0,0,0,0,0,-0.447108,0.0443566,0.0203631,-1.73041,-0.0783295,1.59536,1.17689,-0.218074,-0.0127982,-0.24103,-0.0988603,0.456324,0.0131688,-0.145528,3.1496,-37.3152,2.93672,26.4035,0.60577,2.4627,-0.23793,-2.49717,0.717904,-2.82267,0.615393,-0.507547,-0.083355,-0.0158915,0.666383,-0.123636,-1.18636,0.471175,-0.0679081,-0.233558,
-0.447683,0.0407167,0.0195716,-1.73595,-0.0571406,0.0378593,0.382335,-0.109892,-0.0990121,-0.127425,-0.165571,0.827118,0.311257,-0.26404,0,0,0,0,0,0,0,-0.453712,0.0437318,0.01333,-1.73378,-0.0651769,1.59651,1.17247,-0.204532,-0.0205648,-0.209401,-0.108244,0.373874,0.0485354,-0.120954,2.99884,-36.9939,2.88911,26.4035,1.13128,2.64214,-0.23793,-2.66651,-0.24241,-2.55692,1.11455,-0.790721,-0.617274,-0.558249,0.543085,-0.637075,-1.00551,0.444458,0.00417834,-0.239396,
-0.460291,0.0399038,0.00595342,-1.74173,-0.0340298,0.0342705,0.375091,-0.0901644,-0.0930657,-0.107011,-0.155008,0.633562,0.16076,-0.238807,0,0,0,0,0,0,0,-0.453712,0.0437318,0.01333,-1.73378,-0.0651769,1.59651,1.17247,-0.204532,-0.0205648,-0.209401,-0.108244,0.373874,0.0485354,-0.120954,2.99884,-36.9939,2.88911,26.4035,1.13128,2.64214,-0.23793,-2.66651,-0.24241,-2.55692,1.11455,-0.790721,-0.617274,-0.558249,0.543085,-0.637075,-1.00551,0.444458,0.00417834,-0.239396,
-0.460627,0.0395282,0.00554953,-1.74234,-0.0316013,0.0349287,0.374143,-0.0840183,-0.0938946,-0.100973,-0.154368,0.60711,0.164542,-0.236965,0,0,0,0,0,0,0,-0.453712,0.0437318,0.01333,-1.73378,-0.0651769,1.59651,1.17247,-0.204532,-0.0205648,-0.209401,-0.108244,0.373874,0.0485354,-0.120954,2.99884,-36.9939,2.88911,26.4035,1.13128,2.64214,-0.23793,-2.51881,-0.425107,-2.92928,1.30088,-0.539592,-0.672277,-0.614901,0.781221,-0.689514,-1.1419,0.434614,0.0142651,-0.244215,
-0.460941,0.0391545,0.00516823,-1.74295,-0.0292889,0.0356008,0.373208,-0.078347,-0.0934373,-0.0953253,-0.151997,0.578113,0.168038,-0.233707,0,0,0,0,0,0,0,-0.453712,0.0437318,0.01333,-1.73378,-0.0651769,1.59651,1.17247,-0.204532,-0.0205648,-0.209401,-0.108244,0.373874,0.0485354,-0.120954,2.99884,-36.9939,2.88911,26.4035,1.13128,2.64214,-0.23793,-2.51881,-0.425107,-2.92928,1.30088,-0.539592,-0.672277,-0.614901,0.781221,-0.689514,-1.1419,0.434614,0.0142651,-0.244215,
-0.461233,0.0387817,0.00480811,-1.74355,-0.0271138,0.0362677,0.372282,-0.0730341,-0.093199,-0.0900302,-0.149509,0.543767,0.166723,-0.231659,0,0,0,0,0,0,0,-0.453712,0.0437318,0.01333,-1.73378,-0.0651769,1.59651,1.17247,-0.204532,-0.0205648,-0.209401,-0.108244,0.373874,0.0485354,-0.120954,2.99884,-36.9939,2.88911,26.4035,1.13128,2.64214,-0.23793,-2.86353,-0.541509,-2.73066,1.30472,-0.809675,-0.811938,-0.755284,0.628009,-0.827093,-1.08897,0.389867,-0.0120087,-0.250638,
-0.461505,0.0384088,0.00446742,-1.74414,-0.0250916,0.0369165,0.371363,-0.0681429,-0.093219,-0.0851733,-0.147256,0.505569,0.162199,-0.2297,0,0,0,0,0,0,0,-0.458983,0.0428223,0.00702372,-1.73728,-0.0527739,1.59834,1.16942,-0.161536,-0.0401207,-0.191172,-0.117442,0.440742,0.0667049,-0.101776,2.51484,-37.1684,2.33766,26.6772,1.41784,2.50939,-0.278213,-2.86353,-0.541509,-2.73066,1.30472,-0.809675,-0.811938,-0.755284,0.628009,-0.827093,-1.08897,0.389867,-0.0120087,-0.250638,
-0.46176,0.038035,0.00414417,-1.74472,-0.0232316,0.0375395,0.370452,-0.063734,-0.0934439,-0.0808123,-0.145369,0.464979,0.155746,-0.227734,0,0,0,0,0,0,0,-0.458983,0.0428223,0.00702372,-1.73728,-0.0527739,1.59834,1.16942,-0.161536,-0.0401207,-0.191172,-0.117442,0.440742,0.0667049,-0.101776,2.51484,-37.1684,2.33766,26.6772,1.41784,2.50939,-0.278213,-2.51142,-0.616747,-2.79381,1.39283,-0.583056,-0.766414,-0.707945,0.755559,-0.783538,-1.10182,0.418994,0.000980744,-0.256884,
-0.460074,0.0393118,0.00614175,-1.74233,-0.0279839,0.0393876,0.374001,-0.0829242,-0.108185,-0.100209,-0.162073,0.866215,0.28237,-0.259852,0,0,0,0,0,0,0,-0.458983,0.0428223,0.00702372,-1.73728,-0.0527739,1.59834,1.16942,-0.161536,-0.0401207,-0.191172,-0.117442,0.440742,0.0667049,-0.101776,2.51484,-37.1684,2.33766,26.6772,1.41784,2.50939,-0.278213,-2.2209,0.16653,-2.97592,1.01837,-0.369101,-0.306409,-0.243954,0.811211,-0.335175,-1.16816,0.506217,0.00946706,-0.259597,
-0.463776,0.0384439,0.00142465,-1.74511,-0.0292422,0.0368857,0.372288,-0.060669,-0.102841,-0.078437,-0.15438,0.419699,0.200328,-0.231751,0,0,0,0,0,0,0,-0.458983,0.0428223,0.00702372,-1.73728,-0.0527739,1.59834,1.16942,-0.161536,-0.0401207,-0.191172,-0.117442,0.440742,0.0667049,-0.101776,2.51484,-37.1684,2.33766,26.6772,1.41784,2.50939,-0.278213,-2.2209,0.16653,-2.97592,1.01837,-0.369101,-0.306409,-0.243954,0.811211,-0.335175,-1.16816,0.506217,0.00946706,-0.259597,
