PerkyPenguin/Analysis-on-Approximated-Derivatives/Code_and_Data/PaperData/Real_Robot/Scene_2/set_interval/12/trajectory.csv
Commanded Joint 0 Position,Commanded Joint 1 Position,Commanded Joint 2 Position,Commanded Joint 3 Position,Commanded Joint 4 Position,Commanded Joint 5 Position,Commanded Joint 6 Position,Commanded Joint 0 Velocity,Commanded Joint 1 Velocity,Commanded Joint 2 Velocity,Commanded Joint 3 Velocity,Commanded Joint 4 Velocity,Commanded Joint 5 Velocity,Commanded Joint 6 Velocity,Commanded Joint 0 Torque,Commanded Joint 1 Torque,Commanded Joint 2 Torque,Commanded Joint 3 Torque,Commanded Joint 4 Torque,Commanded Joint 5 Torque,Commanded Joint 6 Torque,Actual Joint 0 Position,Actual Joint 1 Position,Actual Joint 2 Position,Actual Joint 3 Position,Actual Joint 4 Position,Actual Joint 5 Position,Actual Joint 6 Position,Actual Joint 0 Velocity,Actual Joint 1 Velocity,Actual Joint 2 Velocity,Actual Joint 3 Velocity,Actual Joint 4 Velocity,Actual Joint 5 Velocity,Actual Joint 6 Velocity,Actual Joint 0 Torque,Actual Joint 1 Torque,Actual Joint 2 Torque,Actual Joint 3 Torque,Actual Joint 4 Torque,Actual Joint 5 Torque,Actual Joint 6 Torque,EE ext force 0,EE ext force 1,EE ext force 2,EE ext force 3,EE ext force 4,EE ext force 5,joint ext torque 0,joint ext torque 1,joint ext torque 2,joint ext torque 3,joint ext torque 4,joint ext torque 5,joint ext torque 6,
0.0214785,-0.0516756,0.511396,-1.56747,0.0370282,-0.0147965,0.532168,0.0106859,0.0303965,0.0148077,-0.14402,-0.0756728,0.202357,-0.0012869,0,0,0,0,0,0,0,0.0213976,-0.0517867,0.511288,-1.56603,0.0377312,1.55401,1.31759,0.000486889,-0.000276902,0.000436637,0.000583839,-0.0110288,-0.00100637,0.000223242,0.233646,-27.6589,-0.76079,26.9272,0.617672,3.05321,0.0706026,2.16363,1.92108,2.07543,-0.984283,1.1804,0.190555,0.212421,0.467261,0.186713,0.198479,0.146475,-0.304475,0.0892948,
0.0215349,-0.051472,0.511472,-1.56809,0.036657,-0.0139513,0.532162,0.0140965,0.0508969,0.0189555,-0.154828,-0.092795,0.211307,-0.00137005,0,0,0,0,0,0,0,0.0213976,-0.0517867,0.511288,-1.56603,0.0377312,1.55401,1.31759,0.000486889,-0.000276902,0.000436637,0.000583839,-0.0110288,-0.00100637,0.000223242,0.233646,-27.6589,-0.76079,26.9272,0.617672,3.05321,0.0706026,2.16363,1.92108,2.07543,-0.984283,1.1804,0.190555,0.212421,0.467261,0.186713,0.198479,0.146475,-0.304475,0.0892948,
0.021396,-0.0517945,0.511288,-1.56603,0.0376358,-0.0167956,0.532187,-0.000227471,-0.000423436,-0.000169288,3.86574e-05,-0.00407048,-0.000219897,-7.56369e-06,0,0,0,0,0,0,0,0.0213976,-0.0517867,0.511288,-1.56603,0.0377312,1.55401,1.31759,0.000486889,-0.000276902,0.000436637,0.000583839,-0.0110288,-0.00100637,0.000223242,0.233646,-27.6589,-0.76079,26.9272,0.617672,3.05321,0.0706026,2.46993,2.03938,1.96523,-1.10451,1.45442,0.158556,0.182136,0.641025,0.157069,0.119571,0.142439,-0.308014,0.0890198,
0.021395,-0.051796,0.511287,-1.56603,0.0376225,-0.0167964,0.532187,-0.000255423,-0.000374553,-0.000195458,5.89882e-05,-0.00330844,-0.000195952,-3.59524e-06,0,0,0,0,0,0,0,0.0213976,-0.0517867,0.511288,-1.56603,0.0377312,1.55401,1.31759,0.000486889,-0.000276902,0.000436637,0.000583839,-0.0110288,-0.00100637,0.000223242,0.233646,-27.6589,-0.76079,26.9272,0.617672,3.05321,0.0706026,2.46993,2.03938,1.96523,-1.10451,1.45442,0.158556,0.182136,0.641025,0.157069,0.119571,0.142439,-0.308014,0.0890198,
0.021394,-0.0517973,0.511286,-1.56603,0.0376116,-0.0167971,0.532187,-0.000266105,-0.000334365,-0.000203542,7.25256e-05,-0.00272302,-0.000174957,-1.09412e-06,0,0,0,0,0,0,0,0.0213976,-0.0517867,0.511288,-1.56603,0.0377312,1.55401,1.31759,0.000486889,-0.000276902,0.000436637,0.000583839,-0.0110288,-0.00100637,0.000223242,0.233646,-27.6589,-0.76079,26.9272,0.617672,3.05321,0.0706026,2.05051,1.77258,2.36838,-0.794255,0.938941,0.154946,0.180212,0.260725,0.140795,0.369487,0.130811,-0.261461,0.0883016,
0.0213929,-0.0517985,0.511285,-1.56603,0.0376026,-0.0167977,0.532187,-0.000265599,-0.000302509,-0.000200016,8.03159e-05,-0.00226832,-0.000157702,5.0659e-07,0,0,0,0,0,0,0,0.0213982,-0.0518343,0.511288,-1.56643,0.0376824,1.55461,1.31759,-0.000212732,0.0124702,0.000792913,-0.0104601,0.00482064,0.0173009,0.000786408,0.209842,-27.5319,-0.76079,27.3001,0.575558,3.41759,0.0641939,1.1137,1.19742,1.58948,-0.545954,0.543819,0.15537,0.178059,0.176269,0.141002,0.171899,0.137343,-0.275018,0.0884177,
0.0213919,-0.0517996,0.511285,-1.56603,0.0375949,-0.0167983,0.532187,-0.000257977,-0.000277878,-0.000189212,8.40116e-05,-0.00191141,-0.000144956,1.52232e-06,0,0,0,0,0,0,0,0.0213982,-0.0518343,0.511288,-1.56643,0.0376824,1.55461,1.31759,-0.000212732,0.0124702,0.000792913,-0.0104601,0.00482064,0.0173009,0.000786408,0.209842,-27.5319,-0.76079,27.3001,0.575558,3.41759,0.0641939,1.1137,1.19742,1.58948,-0.545954,0.543819,0.15537,0.178059,0.176269,0.141002,0.171899,0.137343,-0.275018,0.0884177,
0.0213909,-0.0518007,0.511284,-1.56603,0.0375884,-0.0167988,0.532187,-0.00024601,-0.000259284,-0.000174068,8.50156e-05,-0.00162836,-0.000136929,2.1483e-06,0,0,0,0,0,0,0,0.0213982,-0.0518343,0.511288,-1.56643,0.0376824,1.55461,1.31759,-0.000212732,0.0124702,0.000792913,-0.0104601,0.00482064,0.0173009,0.000786408,0.209842,-27.5319,-0.76079,27.3001,0.575558,3.41759,0.0641939,1.08987,1.51001,1.03946,-0.901657,0.705781,0.302804,0.321334,0.351463,0.304891,-0.0172699,0.132325,-0.245156,0.08887,
0.02139,-0.0518017,0.511283,-1.56603,0.0375828,-0.0167994,0.532187,-0.000231584,-0.000245644,-0.000156576,8.43583e-05,-0.00140154,-0.00013337,2.51311e-06,0,0,0,0,0,0,0,0.0213982,-0.0518343,0.511288,-1.56643,0.0376824,1.55461,1.31759,-0.000212732,0.0124702,0.000792913,-0.0104601,0.00482064,0.0173009,0.000786408,0.209842,-27.5319,-0.76079,27.3001,0.575558,3.41759,0.0641939,1.08987,1.51001,1.03946,-0.901657,0.705781,0.302804,0.321334,0.351463,0.304891,-0.0172699,0.132325,-0.245156,0.08887,
0.0213891,-0.0518026,0.511283,-1.56603,0.0375779,-0.0167999,0.532187,-0.000215979,-0.000236023,-0.000138072,8.27531e-05,-0.00121794,-0.000133752,2.70379e-06,0,0,0,0,0,0,0,0.0213982,-0.0518343,0.511288,-1.56643,0.0376824,1.55461,1.31759,-0.000212732,0.0124702,0.000792913,-0.0104601,0.00482064,0.0173009,0.000786408,0.209842,-27.5319,-0.76079,27.3001,0.575558,3.41759,0.0641939,1.95768,1.82575,0.796816,-1.20452,1.4286,0.20299,0.222531,0.789484,0.213918,-0.186936,0.113095,-0.228548,0.0877255,
0.0213883,-0.0518035,0.511282,-1.56603,0.0375737,-0.0168005,0.532187,-0.000200045,-0.000229628,-0.000119442,8.0677e-05,-0.00106784,-0.000137418,2.77994e-06,0,0,0,0,0,0,0,0.0213982,-0.0518343,0.511288,-1.56643,0.0376824,1.55461,1.31759,-0.000212732,0.0124702,0.000792913,-0.0104601,0.00482064,0.0173009,0.000786408,0.209842,-27.5319,-0.76079,27.3001,0.575558,3.41759,0.0641939,1.95768,1.82575,0.796816,-1.20452,1.4286,0.20299,0.222531,0.789484,0.213918,-0.186936,0.113095,-0.228548,0.0877255,
0.0213876,-0.0518044,0.511282,-1.56603,0.0375699,-0.016801,0.532187,-0.000184341,-0.000225798,-0.000101251,7.84394e-05,-0.000943959,-0.000143689,2.78233e-06,0,0,0,0,0,0,0,0.0214082,-0.0518063,0.51129,-1.56643,0.0376715,1.55466,1.31758,-0.00158429,0.00255393,4.26804e-05,-0.000725076,0.0187806,0.0026543,-0.000405982,0.0828892,-27.881,-0.788561,27.0779,0.471188,3.07976,0.0843355,2.10203,1.79709,1.21586,-1.04974,1.35527,0.147956,0.154586,0.664592,0.163981,-0.00341072,0.131181,-0.191504,0.0891741,
0.0213869,-0.0518053,0.511282,-1.56603,0.0375665,-0.0168016,0.532187,-0.000169218,-0.000223988,-8.38522e-05,7.62338e-05,-0.000840797,-0.000151923,2.7388e-06,0,0,0,0,0,0,0,0.0214082,-0.0518063,0.51129,-1.56643,0.0376715,1.55466,1.31758,-0.00158429,0.00255393,4.26804e-05,-0.000725076,0.0187806,0.0026543,-0.000405982,0.0828892,-27.881,-0.788561,27.0779,0.471188,3.07976,0.0843355,2.36228,1.98141,1.0714,-1.23876,1.60533,0.158515,0.152395,0.830337,0.193057,-0.097304,0.117786,-0.198715,0.0883775,
0.0213863,-0.0518062,0.511281,-1.56603,0.0375635,-0.0168023,0.532187,-0.000154884,-0.000223748,-6.7446e-05,7.41748e-05,-0.000754162,-0.000161545,2.66816e-06,0,0,0,0,0,0,0,0.0214082,-0.0518063,0.51129,-1.56643,0.0376715,1.55466,1.31758,-0.00158429,0.00255393,4.26804e-05,-0.000725076,0.0187806,0.0026543,-0.000405982,0.0828892,-27.881,-0.788561,27.0779,0.471188,3.07976,0.0843355,2.36228,1.98141,1.0714,-1.23876,1.60533,0.158515,0.152395,0.830337,0.193057,-0.097304,0.117786,-0.198715,0.0883775,
0.0213857,-0.0518071,0.511281,-1.56602,0.0375608,-0.016803,0.532187,-0.000141455,-0.000224712,-5.21335e-05,7.23243e-05,-0.00068084,-0.000172064,2.58303e-06,0,0,0,0,0,0,0,0.0214082,-0.0518063,0.51129,-1.56643,0.0376715,1.55466,1.31758,-0.00158429,0.00255393,4.26804e-05,-0.000725076,0.0187806,0.0026543,-0.000405982,0.0828892,-27.881,-0.788561,27.0779,0.471188,3.07976,0.0843355,1.39768,1.87474,1.27124,-1.09584,0.841334,0.383392,0.37005,0.385109,0.419509,0.0471619,0.153055,-0.225047,0.0874019,
0.0213852,-0.051808,0.511281,-1.56602,0.0375583,-0.0168037,0.532187,-0.000128977,-0.000226583,-3.7948e-05,7.07098e-05,-0.000618343,-0.000183072,2.49171e-06,0,0,0,0,0,0,0,0.0214082,-0.0518063,0.51129,-1.56643,0.0376715,1.55466,1.31758,-0.00158429,0.00255393,4.26804e-05,-0.000725076,0.0187806,0.0026543,-0.000405982,0.0828892,-27.881,-0.788561,27.0779,0.471188,3.07976,0.0843355,1.39768,1.87474,1.27124,-1.09584,0.841334,0.383392,0.37005,0.385109,0.419509,0.0471619,0.153055,-0.225047,0.0874019,
0.0213847,-0.0518089,0.511281,-1.56602,0.0375561,-0.0168045,0.532187,-0.000117455,-0.000229121,-2.48786e-05,6.93364e-05,-0.000564726,-0.000194242,2.39955e-06,0,0,0,0,0,0,0,0.0214167,-0.0518125,0.511291,-1.56645,0.0375874,1.55465,1.31758,1.45715e-05,0.00179207,0.000105623,-0.00266001,0.00301283,0.000331459,0.00136508,-0.0202602,-27.7065,-0.812364,27.3755,0.97839,3.30498,0.0577852,1.87815,1.58589,1.37113,-0.88219,1.14137,0.116059,0.106359,0.522677,0.142869,0.058866,0.114629,-0.217854,0.0868439,
0.0213843,-0.0518099,0.511281,-1.56602,0.037554,-0.0168053,0.532187,-0.000106864,-0.000232134,-1.28868e-05,6.81958e-05,-0.00051846,-0.000205317,2.3099e-06,0,0,0,0,0,0,0,0.0214167,-0.0518125,0.511291,-1.56645,0.0375874,1.55465,1.31758,1.45715e-05,0.00179207,0.000105623,-0.00266001,0.00301283,0.000331459,0.00136508,-0.0202602,-27.7065,-0.812364,27.3755,0.97839,3.30498,0.0577852,1.82655,1.44309,1.31146,-0.797773,1.12315,0.0652995,0.0457101,0.520628,0.0997191,0.0440483,0.105926,-0.220622,0.0862319,
0.0213839,-0.0518108,0.511281,-1.56602,0.0375521,-0.0168062,0.532187,-9.71658e-05,-0.000235469,-1.91708e-06,6.72717e-05,-0.000478325,-0.000216103,2.22474e-06,0,0,0,0,0,0,0,0.0214167,-0.0518125,0.511291,-1.56645,0.0375874,1.55465,1.31758,1.45715e-05,0.00179207,0.000105623,-0.00266001,0.00301283,0.000331459,0.00136508,-0.0202602,-27.7065,-0.812364,27.3755,0.97839,3.30498,0.0577852,1.82655,1.44309,1.31146,-0.797773,1.12315,0.0652995,0.0457101,0.520628,0.0997191,0.0440483,0.105926,-0.220622,0.0862319,
0.0213835,-0.0518118,0.511281,-1.56602,0.0375503,-0.0168071,0.532188,-8.83077e-05,-0.000239007,8.09488e-06,6.65439e-05,-0.000443344,-0.000226461,2.14513e-06,0,0,0,0,0,0,0,0.0214167,-0.0518125,0.511291,-1.56645,0.0375874,1.55465,1.31758,1.45715e-05,0.00179207,0.000105623,-0.00266001,0.00301283,0.000331459,0.00136508,-0.0202602,-27.7065,-0.812364,27.3755,0.97839,3.30498,0.0577852,1.8559,1.61837,1.22717,-0.929278,1.1942,0.137023,0.110917,0.583279,0.181314,-0.00205885,0.13313,-0.224862,0.0868279,
0.0213832,-0.0518127,0.511281,-1.56602,0.0375486,-0.016808,0.532188,-8.02341e-05,-0.000242652,1.72175e-05,6.59904e-05,-0.000412728,-0.000236291,2.07156e-06,0,0,0,0,0,0,0,0.0214167,-0.0518125,0.511291,-1.56645,0.0375874,1.55465,1.31758,1.45715e-05,0.00179207,0.000105623,-0.00266001,0.00301283,0.000331459,0.00136508,-0.0202602,-27.7065,-0.812364,27.3755,0.97839,3.30498,0.0577852,1.8559,1.61837,1.22717,-0.929278,1.1942,0.137023,0.110917,0.583279,0.181314,-0.00205885,0.13313,-0.224862,0.0868279,
0.0213829,-0.0518137,0.511281,-1.56602,0.0375471,-0.016809,0.532188,-7.28874e-05,-0.000246333,2.55198e-05,6.55894e-05,-0.000385828,-0.000245531,2.00411e-06,0,0,0,0,0,0,0,0.0214167,-0.0518125,0.511291,-1.56645,0.0375874,1.55465,1.31758,1.45715e-05,0.00179207,0.000105623,-0.00266001,0.00301283,0.000331459,0.00136508,-0.0202602,-27.7065,-0.812364,27.3755,0.97839,3.30498,0.0577852,1.76396,1.66765,1.50427,-0.913653,1.01596,0.185394,0.168152,0.435187,0.219587,0.106278,0.120261,-0.228331,0.0870217,
0.0213827,-0.0518147,0.511281,-1.56602,0.0375457,-0.01681,0.532188,-6.62105e-05,-0.000249993,3.3069e-05,6.53201e-05,-0.000362114,-0.000254147,1.94262e-06,0,0,0,0,0,0,0,0.0213873,-0.0518308,0.511281,-1.56642,0.0375549,1.55467,1.31758,-0.00107191,-0.00185282,-0.000766959,-0.000457626,-0.00463274,-0.00109442,-0.00119395,0.309024,-27.5319,-0.661608,26.9272,1.20453,3.19237,0.11821,1.56929,1.8526,1.3966,-1.06652,0.931866,0.326165,0.319751,0.41819,0.35458,0.0633947,0.142161,-0.24115,0.086639,
0.0213824,-0.0518157,0.511281,-1.56602,0.0375443,-0.0168111,0.532188,-6.01483e-05,-0.000253591,3.99297e-05,6.51631e-05,-0.000341144,-0.000262126,1.88681e-06,0,0,0,0,0,0,0,0.0213873,-0.0518308,0.511281,-1.56642,0.0375549,1.55467,1.31758,-0.00107191,-0.00185282,-0.000766959,-0.000457626,-0.00463274,-0.00109442,-0.00119395,0.309024,-27.5319,-0.661608,26.9272,1.20453,3.19237,0.11821,1.56929,1.8526,1.3966,-1.06652,0.931866,0.326165,0.319751,0.41819,0.35458,0.0633947,0.142161,-0.24115,0.086639,
0.0213822,-0.0518168,0.511281,-1.56602,0.037543,-0.0168121,0.532188,-5.46481e-05,-0.000257095,4.61626e-05,6.51009e-05,-0.000322548,-0.00026947,1.8363e-06,0,0,0,0,0,0,0,0.0213873,-0.0518308,0.511281,-1.56642,0.0375549,1.55467,1.31758,-0.00107191,-0.00185282,-0.000766959,-0.000457626,-0.00463274,-0.00109442,-0.00119395,0.309024,-27.5319,-0.661608,26.9272,1.20453,3.19237,0.11821,1.99255,1.83048,1.18449,-1.11328,1.32868,0.19524,0.197366,0.675435,0.218189,-0.0600096,0.127621,-0.245151,0.0882434,
0.021382,-0.0518178,0.511282,-1.56602,0.0375418,-0.0168133,0.532188,-4.96607e-05,-0.000260486,5.18241e-05,6.51178e-05,-0.000306014,-0.000276197,1.7907e-06,0,0,0,0,0,0,0,0.0213873,-0.0518308,0.511281,-1.56642,0.0375549,1.55467,1.31758,-0.00107191,-0.00185282,-0.000766959,-0.000457626,-0.00463274,-0.00109442,-0.00119395,0.309024,-27.5319,-0.661608,26.9272,1.20453,3.19237,0.11821,1.99255,1.83048,1.18449,-1.11328,1.32868,0.19524,0.197366,0.675435,0.218189,-0.0600096,0.127621,-0.245151,0.0882434,
0.0213818,-0.0518189,0.511282,-1.56602,0.0375406,-0.0168144,0.532188,-4.51404e-05,-0.000263747,5.69667e-05,6.51999e-05,-0.000291281,-0.00028233,1.74958e-06,0,0,0,0,0,0,0,0.0213873,-0.0518308,0.511281,-1.56642,0.0375549,1.55467,1.31758,-0.00107191,-0.00185282,-0.000766959,-0.000457626,-0.00463274,-0.00109442,-0.00119395,0.309024,-27.5319,-0.661608,26.9272,1.20453,3.19237,0.11821,1.66309,1.61448,1.48989,-0.869677,0.93872,0.189002,0.192176,0.391566,0.202397,0.121896,0.121946,-0.218792,0.0883757,
0.02158,-0.0520529,0.511474,-1.5658,-0.0182049,-0.0516622,0.532032,-0.00517576,0.000906543,-0.0051432,-0.00226134,-0.332772,-0.210076,-0.000693153,0,0,0,0,0,0,0,0.0213757,-0.0518499,0.511271,-1.56642,0.0375637,1.55465,1.31758,0.00204364,-0.00270863,0.0011803,-0.00249288,-0.0136753,-0.00108181,-0.000953663,0.0551182,-27.3811,-0.76079,27.0541,1.1734,3.27843,0.124619,1.66309,1.61448,1.48989,-0.869677,0.93872,0.189002,0.192176,0.391566,0.202397,0.121896,0.121946,-0.218792,0.0883757,
0.0215683,-0.0521614,0.511481,-1.56623,-0.0082653,-0.0452764,0.532094,-0.00441765,0.000194274,-0.00430662,-0.00205409,-0.255098,-0.167902,-0.000337491,0,0,0,0,0,0,0,0.0213757,-0.0518499,0.511271,-1.56642,0.0375637,1.55465,1.31758,0.00204364,-0.00270863,0.0011803,-0.00249288,-0.0136753,-0.00108181,-0.000953663,0.0551182,-27.3811,-0.76079,27.0541,1.1734,3.27843,0.124619,1.87262,1.70731,1.36034,-0.96646,1.14778,0.172127,0.165244,0.531974,0.198455,0.0496232,0.126618,-0.218456,0.0883042,
0.0215504,-0.0521606,0.511464,-1.56623,-0.00927046,-0.0459395,0.532093,-0.00447758,0.000206802,-0.00436861,-0.00206805,-0.251291,-0.165774,-0.000335747,0,0,0,0,0,0,0,0.0213757,-0.0518499,0.511271,-1.56642,0.0375637,1.55465,1.31758,0.00204364,-0.00270863,0.0011803,-0.00249288,-0.0136753,-0.00108181,-0.000953663,0.0551182,-27.3811,-0.76079,27.0541,1.1734,3.27843,0.124619,2.37817,2.04686,1.23386,-1.26317,1.5843,0.184692,0.171824,0.803849,0.225889,-0.0714553,0.121478,-0.230316,0.0879156,
0.0215322,-0.0521597,0.511446,-1.56624,-0.0102594,-0.0465934,0.532092,-0.00453857,0.00021315,-0.00443142,-0.002088,-0.247244,-0.163488,-0.000335048,0,0,0,0,0,0,0,0.0213757,-0.0518499,0.511271,-1.56642,0.0375637,1.55465,1.31758,0.00204364,-0.00270863,0.0011803,-0.00249288,-0.0136753,-0.00108181,-0.000953663,0.0551182,-27.3811,-0.76079,27.0541,1.1734,3.27843,0.124619,2.37817,2.04686,1.23386,-1.26317,1.5843,0.184692,0.171824,0.803849,0.225889,-0.0714553,0.121478,-0.230316,0.0879156,
0.0215138,-0.0521588,0.511428,-1.56625,-0.0112311,-0.0472375,0.53209,-0.0046024,0.000213806,-0.00449678,-0.00211594,-0.242922,-0.161016,-0.000335478,0,0,0,0,0,0,0,0.0213757,-0.0518499,0.511271,-1.56642,0.0375637,1.55465,1.31758,0.00204364,-0.00270863,0.0011803,-0.00249288,-0.0136753,-0.00108181,-0.000953663,0.0551182,-27.3811,-0.76079,27.0541,1.1734,3.27843,0.124619,2.15173,2.32626,1.56936,-1.38454,1.29755,0.373875,0.351327,0.59288,0.425816,0.0604838,0.13789,-0.235521,0.0897237,
0.0214951,-0.052158,0.51141,-1.56626,-0.0121843,-0.0478708,0.532089,-0.00467118,0.000209263,-0.00456676,-0.00215425,-0.238286,-0.158323,-0.00033711,0,0,0,0,0,0,0,0.0213757,-0.0518499,0.511271,-1.56642,0.0375637,1.55465,1.31758,0.00204364,-0.00270863,0.0011803,-0.00249288,-0.0136753,-0.00108181,-0.000953663,0.0551182,-27.3811,-0.76079,27.0541,1.1734,3.27843,0.124619,2.15173,2.32626,1.56936,-1.38454,1.29755,0.373875,0.351327,0.59288,0.425816,0.0604838,0.13789,-0.235521,0.0897237,
0.0214761,-0.0521572,0.511391,-1.56627,-0.0131174,-0.0484923,0.532088,-0.00474744,0.000200066,-0.00464381,-0.00220571,-0.233286,-0.155368,-0.00034003,0,0,0,0,0,0,0,0.0214318,-0.0518768,0.511317,-1.56638,0.0362485,1.55462,1.31758,0.0121421,-0.00935572,0.00473069,-0.000909078,-0.123893,-0.00473574,0.000214149,-0.57568,-27.3573,-1.28844,26.5305,0.0866663,2.80785,0.0843355,2.37727,2.19136,1.60756,-1.39782,1.43799,0.243269,0.20592,0.659075,0.312379,0.00937906,0.0231776,-0.285444,0.0907792,
0.0214568,-0.0521565,0.511372,-1.56628,-0.0140289,-0.0491007,0.532086,-0.0048343,0.000186796,-0.00473097,-0.00227368,-0.22786,-0.152098,-0.000344176,0,0,0,0,0,0,0,0.0214318,-0.0518768,0.511317,-1.56638,0.0362485,1.55462,1.31758,0.0121421,-0.00935572,0.00473069,-0.000909078,-0.123893,-0.00473574,0.000214149,-0.57568,-27.3573,-1.28844,26.5305,0.0866663,2.80785,0.0843355,1.79963,2.22808,1.60603,-1.52628,1.0044,0.420437,0.369166,0.419962,0.508703,0.0092588,-0.0604216,-0.337867,0.0890036,
0.021437,-0.0521558,0.511353,-1.56629,-0.0149166,-0.0496945,0.532085,-0.00493567,0.000170116,-0.00483204,-0.00236212,-0.221933,-0.148455,-0.000349548,0,0,0,0,0,0,0,0.0214318,-0.0518768,0.511317,-1.56638,0.0362485,1.55462,1.31758,0.0121421,-0.00935572,0.00473069,-0.000909078,-0.123893,-0.00473574,0.000214149,-0.57568,-27.3573,-1.28844,26.5305,0.0866663,2.80785,0.0843355,1.79963,2.22808,1.60603,-1.52628,1.0044,0.420437,0.369166,0.419962,0.508703,0.0092588,-0.0604216,-0.337867,0.0890036,
0.0214168,-0.0521552,0.511333,-1.5663,-0.0157782,-0.0502719,0.532084,-0.00505652,0.00015077,-0.00495185,-0.00247576,-0.215413,-0.144364,-0.000355977,0,0,0,0,0,0,0,0.0214318,-0.0518768,0.511317,-1.56638,0.0362485,1.55462,1.31758,0.0121421,-0.00935572,0.00473069,-0.000909078,-0.123893,-0.00473574,0.000214149,-0.57568,-27.3573,-1.28844,26.5305,0.0866663,2.80785,0.0843355,1.48466,2.23807,2.06816,-1.42949,0.556075,0.513583,0.454236,0.0741718,0.604732,0.241307,-0.0813219,-0.310234,0.0871098,
0.021396,-0.0521547,0.511313,-1.56631,-0.016611,-0.0508309,0.532082,-0.00520322,0.000129602,-0.00509663,-0.00262021,-0.208182,-0.139738,-0.000363263,0,0,0,0,0,0,0,0.0214318,-0.0518768,0.511317,-1.56638,0.0362485,1.55462,1.31758,0.0121421,-0.00935572,0.00473069,-0.000909078,-0.123893,-0.00473574,0.000214149,-0.57568,-27.3573,-1.28844,26.5305,0.0866663,2.80785,0.0843355,2.56413,1.83103,2.08287,-1.24824,1.32586,0.0197339,-0.0334873,0.483627,0.102771,0.130293,-0.216261,-0.342506,0.087111,
0.0213745,-0.0521542,0.511291,-1.56632,-0.0174113,-0.0513688,0.532081,-0.00538405,0.000107552,-0.00527445,-0.00280216,-0.200094,-0.134473,-0.000370884,0,0,0,0,0,0,0,0.0215392,-0.0519096,0.511362,-1.56641,0.0295185,1.55355,1.31758,0.00625473,-0.00234841,8.00857e-05,0.00107141,-0.176438,-0.040141,-0.000333305,-0.603451,-27.2582,-1.36382,27.0026,0.477596,2.86736,0.0907442,2.56413,1.83103,2.08287,-1.24824,1.32586,0.0197339,-0.0334873,0.483627,0.102771,0.130293,-0.216261,-0.342506,0.087111,
0.021352,-0.0521539,0.511269,-1.56633,-0.0181752,-0.0518826,0.532079,-0.0056099,8.56627e-05,-0.00549591,-0.00302953,-0.190962,-0.128444,-0.000377998,0,0,0,0,0,0,0,0.0215392,-0.0519096,0.511362,-1.56641,0.0295185,1.55355,1.31758,0.00625473,-0.00234841,8.00857e-05,0.00107141,-0.176438,-0.040141,-0.000333305,-0.603451,-27.2582,-1.36382,27.0026,0.477596,2.86736,0.0907442,2.5375,1.71044,2.13885,-1.24515,1.32883,-0.028584,-0.081519,0.496257,0.0560546,0.0695381,-0.281074,-0.432137,0.0853536,
0.0213284,-0.0521536,0.511246,-1.56634,-0.0188974,-0.0523686,0.532078,-0.00589512,6.49823e-05,-0.00577505,-0.00331179,-0.180547,-0.121504,-0.000383154,0,0,0,0,0,0,0,0.0215392,-0.0519096,0.511362,-1.56641,0.0295185,1.55355,1.31758,0.00625473,-0.00234841,8.00857e-05,0.00107141,-0.176438,-0.040141,-0.000333305,-0.603451,-27.2582,-1.36382,27.0026,0.477596,2.86736,0.0907442,2.5375,1.71044,2.13885,-1.24515,1.32883,-0.028584,-0.081519,0.496257,0.0560546,0.0695381,-0.281074,-0.432137,0.0853536,
0.0213034,-0.0521534,0.511222,-1.56636,-0.0195715,-0.0528225,0.532076,-0.00625892,4.63156e-05,-0.00613067,-0.00366057,-0.168538,-0.113477,-0.000383869,0,0,0,0,0,0,0,0.0215392,-0.0519096,0.511362,-1.56641,0.0295185,1.55355,1.31758,0.00625473,-0.00234841,8.00857e-05,0.00107141,-0.176438,-0.040141,-0.000333305,-0.603451,-27.2582,-1.36382,27.0026,0.477596,2.86736,0.0907442,2.75778,1.5877,2.27405,-1.17885,1.46103,-0.146623,-0.197916,0.554568,-0.0647489,0.0606357,-0.323202,-0.476965,0.0835155,
0.0212765,-0.0521533,0.511196,-1.56638,-0.0201897,-0.0532391,0.532075,-0.00672741,2.94656e-05,-0.00658828,-0.00409125,-0.154532,-0.104153,-0.000375282,0,0,0,0,0,0,0,0.0215392,-0.0519096,0.511362,-1.56641,0.0295185,1.55355,1.31758,0.00625473,-0.00234841,8.00857e-05,0.00107141,-0.176438,-0.040141,-0.000333305,-0.603451,-27.2582,-1.36382,27.0026,0.477596,2.86736,0.0907442,2.75778,1.5877,2.27405,-1.17885,1.46103,-0.146623,-0.197916,0.554568,-0.0647489,0.0606357,-0.323202,-0.476965,0.0835155,
0.0212471,-0.0521533,0.511167,-1.56639,-0.0207416,-0.0536122,0.532073,-0.00733707,1.06943e-05,-0.00718356,-0.00462822,-0.137986,-0.0932716,-0.000346816,0,0,0,0,0,0,0,0.0214978,-0.0519015,0.511334,-1.56641,0.0249838,1.55284,1.31758,-0.000516184,-0.00112565,-0.00136365,-0.000448382,-0.138141,-0.0126689,0.000468612,-0.0718349,-27.4327,-1.01073,26.9272,0.740353,2.76757,0.0779268,2.77623,1.55366,2.32116,-1.18821,1.48457,-0.166551,-0.204575,0.572786,-0.0963809,0.0310981,-0.349804,-0.524197,0.0816622,
0.0212146,-0.0521534,0.511135,-1.56642,-0.0212142,-0.0539341,0.532072,-0.00814217,-2.5501e-05,-0.00796947,-0.0053219,-0.118154,-0.0804716,-0.000275002,0,0,0,0,0,0,0,0.0214978,-0.0519015,0.511334,-1.56641,0.0249838,1.55284,1.31758,-0.000516184,-0.00112565,-0.00136365,-0.000448382,-0.138141,-0.0126689,0.000468612,-0.0718349,-27.4327,-1.01073,26.9272,0.740353,2.76757,0.0779268,2.47665,1.75033,2.33979,-1.31782,1.3186,0.00766301,-0.0131145,0.508426,0.0645542,0.00759767,-0.303159,-0.57462,0.0826326,
0.0211776,-0.0521539,0.511099,-1.56644,-0.0215899,-0.0541946,0.532071,-0.00923282,-0.000133915,-0.00903442,-0.00630663,-0.0939246,-0.0651387,-0.000148038,0,0,0,0,0,0,0,0.0214978,-0.0519015,0.511334,-1.56641,0.0249838,1.55284,1.31758,-0.000516184,-0.00112565,-0.00136365,-0.000448382,-0.138141,-0.0126689,0.000468612,-0.0718349,-27.4327,-1.01073,26.9272,0.740353,2.76757,0.0779268,2.47665,1.75033,2.33979,-1.31782,1.3186,0.00766301,-0.0131145,0.508426,0.0645542,0.00759767,-0.303159,-0.57462,0.0826326,
0.0211398,-0.0521517,0.511061,-1.56646,-0.0218934,-0.0544097,0.532071,-0.00945367,0.000549369,-0.00934172,-0.00568568,-0.0758788,-0.0537732,-5.42547e-05,0,0,0,0,0,0,0,0.0214978,-0.0519015,0.511334,-1.56641,0.0249838,1.55284,1.31758,-0.000516184,-0.00112565,-0.00136365,-0.000448382,-0.138141,-0.0126689,0.000468612,-0.0718349,-27.4327,-1.01073,26.9272,0.740353,2.76757,0.0779268,2.70758,1.87442,2.47403,-1.37928,1.46593,-0.0012509,-0.00623393,0.579653,0.0415114,0.0110888,-0.291515,-0.595427,0.0830568,
0.0211027,-0.0521466,0.511024,-1.56648,-0.0221412,-0.0545883,0.532071,-0.00928253,0.00127907,-0.00923312,-0.00477768,-0.0619443,-0.04464,-1.53282e-05,0,0,0,0,0,0,0,0.0214978,-0.0519015,0.511334,-1.56641,0.0249838,1.55284,1.31758,-0.000516184,-0.00112565,-0.00136365,-0.000448382,-0.138141,-0.0126689,0.000468612,-0.0718349,-27.4327,-1.01073,26.9272,0.740353,2.76757,0.0779268,2.70758,1.87442,2.47403,-1.37928,1.46593,-0.0012509,-0.00623393,0.579653,0.0415114,0.0110888,-0.291515,-0.595427,0.0830568,
0.0210671,-0.0521391,0.510989,-1.5665,-0.0223451,-0.0547366,0.532071,-0.00890281,0.00187038,-0.00889542,-0.0039267,-0.050962,-0.037074,-1.38712e-06,0,0,0,0,0,0,0,0.0214978,-0.0519015,0.511334,-1.56641,0.0249838,1.55284,1.31758,-0.000516184,-0.00112565,-0.00136365,-0.000448382,-0.138141,-0.0126689,0.000468612,-0.0718349,-27.4327,-1.01073,26.9272,0.740353,2.76757,0.0779268,2.54166,1.89068,2.50985,-1.34169,1.35331,0.0540785,0.0597079,0.521657,0.0844881,0.0380935,-0.24279,-0.596836,0.0827492,
0.0210334,-0.0521299,0.510955,-1.56651,-0.0225138,-0.0548596,0.532071,-0.0084104,0.00229897,-0.00843044,-0.00319995,-0.0421837,-0.0307442,1.09528e-06,0,0,0,0,0,0,0,0.0213974,-0.0518937,0.511281,-1.5664,0.0206698,1.55271,1.31758,-0.00112571,-0.0005608,0.00106473,0.00107769,-0.134176,-0.00304252,-0.000718454,0.158268,-27.5319,-0.76079,26.7526,0.740353,2.82799,0.0980684,2.31132,2.09412,2.4489,-1.43019,1.23809,0.212773,0.223912,0.483668,0.238909,0.037968,-0.155699,-0.586825,0.0836523,
0.021002,-0.0521196,0.510924,-1.56652,-0.0226541,-0.0549613,0.532071,-0.00786215,0.00258312,-0.00789958,-0.00259188,-0.0350862,-0.0254346,-2.14378e-06,0,0,0,0,0,0,0,0.0213974,-0.0518937,0.511281,-1.5664,0.0206698,1.55271,1.31758,-0.00112571,-0.0005608,0.00106473,0.00107769,-0.134176,-0.00304252,-0.000718454,0.158268,-27.5319,-0.76079,26.7526,0.740353,2.82799,0.0980684,2.31132,2.09412,2.4489,-1.43019,1.23809,0.212773,0.223912,0.483668,0.238909,0.037968,-0.155699,-0.586825,0.0836523,
0.0209728,-0.0521086,0.510894,-1.56653,-0.0227713,-0.0550452,0.532071,-0.00729389,0.00274928,-0.00734194,-0.00208215,-0.029288,-0.0209793,-8.35261e-06,0,0,0,0,0,0,0,0.0213974,-0.0518937,0.511281,-1.5664,0.0206698,1.55271,1.31758,-0.00112571,-0.0005608,0.00106473,0.00107769,-0.134176,-0.00304252,-0.000718454,0.158268,-27.5319,-0.76079,26.7526,0.740353,2.82799,0.0980684,2.20903,2.11802,2.4041,-1.41365,1.18542,0.252856,0.272803,0.46475,0.269241,0.0461455,-0.113255,-0.570231,0.0842608,
0.0209459,-0.0520973,0.510867,-1.56654,-0.0228693,-0.0551142,0.532071,-0.00672859,0.00282255,-0.00678274,-0.001651,-0.0245055,-0.0172413,-1.60313e-05,0,0,0,0,0,0,0,0.0213974,-0.0518937,0.511281,-1.5664,0.0206698,1.55271,1.31758,-0.00112571,-0.0005608,0.00106473,0.00107769,-0.134176,-0.00304252,-0.000718454,0.158268,-27.5319,-0.76079,26.7526,0.740353,2.82799,0.0980684,2.20903,2.11802,2.4041,-1.41365,1.18542,0.252856,0.272803,0.46475,0.269241,0.0461455,-0.113255,-0.570231,0.0842608,
0.0195723,-0.0504908,0.509274,-1.5668,-0.154387,-0.195741,0.530567,-0.0347197,0.0200141,-0.0358397,-0.0193245,-1.16226,-0.986153,-0.00697815,0,0,0,0,0,0,0,0.0213974,-0.0518937,0.511281,-1.5664,0.0206698,1.55271,1.31758,-0.00112571,-0.0005608,0.00106473,0.00107769,-0.134176,-0.00304252,-0.000718454,0.158268,-27.5319,-0.76079,26.7526,0.740353,2.82799,0.0980684,2.00598,2.15078,2.34882,-1.36434,1.06734,0.328135,0.356107,0.413236,0.333802,0.0749696,-0.0309604,-0.537967,0.0835234,
0.0192814,-0.0509782,0.509059,-1.56654,-0.107797,-0.144667,0.531385,-0.026313,0.011773,-0.0269749,-0.010923,-0.572854,-0.703108,-0.00260936,0,0,0,0,0,0,0,0.0212121,-0.0518642,0.511093,-1.56642,0.0166899,1.5527,1.31758,-0.00390623,0.00106386,-0.00587329,-3.03275e-05,-0.109295,-1.36178e-05,0.000295778,0.233646,-27.8334,-0.812364,27.0541,0.715634,2.89391,0.0779268,2.367,1.94139,2.2089,-1.20862,1.38885,0.13108,0.167061,0.612952,0.124813,0.0157328,-0.0083045,-0.519281,0.0844287,
0.0191761,-0.0509326,0.508951,-1.56658,-0.110034,-0.147452,0.531374,-0.0263126,0.0114174,-0.0269812,-0.0108573,-0.559403,-0.696097,-0.00255261,0,0,0,0,0,0,0,0.0212121,-0.0518642,0.511093,-1.56642,0.0166899,1.5527,1.31758,-0.00390623,0.00106386,-0.00587329,-3.03275e-05,-0.109295,-1.36178e-05,0.000295778,0.233646,-27.8334,-0.812364,27.0541,0.715634,2.89391,0.0779268,2.367,1.94139,2.2089,-1.20862,1.38885,0.13108,0.167061,0.612952,0.124813,0.0157328,-0.0083045,-0.519281,0.0844287,
0.0190708,-0.0508885,0.508843,-1.56663,-0.112214,-0.150204,0.531364,-0.0263352,0.0110236,-0.0270098,-0.0108331,-0.545002,-0.688119,-0.00250203,0,0,0,0,0,0,0,0.0212121,-0.0518642,0.511093,-1.56642,0.0166899,1.5527,1.31758,-0.00390623,0.00106386,-0.00587329,-3.03275e-05,-0.109295,-1.36178e-05,0.000295778,0.233646,-27.8334,-0.812364,27.0541,0.715634,2.89391,0.0779268,2.53261,2.81872,2.96233,-1.57232,1.20866,0.481791,0.52502,0.380047,0.472583,0.325762,0.087763,-0.441767,0.0881288,
0.0189652,-0.0508461,0.508734,-1.56667,-0.114332,-0.15292,0.531355,-0.0263871,0.0105905,-0.027067,-0.0108611,-0.529493,-0.678951,-0.00245858,0,0,0,0,0,0,0,0.0212121,-0.0518642,0.511093,-1.56642,0.0166899,1.5527,1.31758,-0.00390623,0.00106386,-0.00587329,-3.03275e-05,-0.109295,-1.36178e-05,0.000295778,0.233646,-27.8334,-0.812364,27.0541,0.715634,2.89391,0.0779268,2.53261,2.81872,2.96233,-1.57232,1.20866,0.481791,0.52502,0.380047,0.472583,0.325762,0.087763,-0.441767,0.0881288,
0.0188593,-0.0508057,0.508626,-1.56671,-0.116383,-0.155593,0.531345,-0.0264754,0.010117,-0.0271597,-0.0109541,-0.512698,-0.66833,-0.00242252,0,0,0,0,0,0,0,0.0212121,-0.0518642,0.511093,-1.56642,0.0166899,1.5527,1.31758,-0.00390623,0.00106386,-0.00587329,-3.03275e-05,-0.109295,-1.36178e-05,0.000295778,0.233646,-27.8334,-0.812364,27.0541,0.715634,2.89391,0.0779268,3.8598,4.28774,3.07974,-2.62477,2.14917,0.767671,0.797407,0.89056,0.799693,0.21197,0.106285,-0.412965,0.0947587,
0.0187529,-0.0507672,0.508516,-1.56676,-0.118361,-0.158217,0.531335,-0.026608,0.00960177,-0.0272956,-0.0111273,-0.494413,-0.655939,-0.00239658,0,0,0,0,0,0,0,0.0212841,-0.0519746,0.511066,-1.56596,0.0056434,1.54703,1.31758,0.0068662,0.00135663,0.00271124,0.0229355,-0.570044,-0.368786,-0.000585941,-1.53973,-26.7107,-2.18505,24.9118,-0.750126,1.56823,0.0843355,3.8598,4.28774,3.07974,-2.62477,2.14917,0.767671,0.797407,0.89056,0.799693,0.21197,0.106285,-0.412965,0.0947587,
0.0186457,-0.0507311,0.508407,-1.5668,-0.120258,-0.160783,0.531326,-0.0267934,0.00904406,-0.0274833,-0.0113989,-0.474412,-0.641396,-0.00238184,0,0,0,0,0,0,0,0.0212841,-0.0519746,0.511066,-1.56596,0.0056434,1.54703,1.31758,0.0068662,0.00135663,0.00271124,0.0229355,-0.570044,-0.368786,-0.000585941,-1.53973,-26.7107,-2.18505,24.9118,-0.750126,1.56823,0.0843355,1.92877,4.09429,3.43451,-2.54713,0.615756,1.20949,1.20244,-0.000994008,1.2763,0.408482,0.0101269,-0.537082,0.0941464,
0.0185376,-0.0506973,0.508296,-1.56685,-0.122068,-0.16328,0.531316,-0.0270406,0.00844354,-0.0277314,-0.0117905,-0.452447,-0.624248,-0.00238082,0,0,0,0,0,0,0,0.0212841,-0.0519746,0.511066,-1.56596,0.0056434,1.54703,1.31758,0.0068662,0.00135663,0.00271124,0.0229355,-0.570044,-0.368786,-0.000585941,-1.53973,-26.7107,-2.18505,24.9118,-0.750126,1.56823,0.0843355,1.92877,4.09429,3.43451,-2.54713,0.615756,1.20949,1.20244,-0.000994008,1.2763,0.408482,0.0101269,-0.537082,0.0941464,
0.0184281,-0.0506661,0.508183,-1.5669,-0.123781,-0.165695,0.531307,-0.0273584,0.00780101,-0.0280489,-0.0123273,-0.42825,-0.603957,-0.00239667,0,0,0,0,0,0,0,0.0212841,-0.0519746,0.511066,-1.56596,0.0056434,1.54703,1.31758,0.0068662,0.00135663,0.00271124,0.0229355,-0.570044,-0.368786,-0.000585941,-1.53973,-26.7107,-2.18505,24.9118,-0.750126,1.56823,0.0843355,2.69853,3.22709,3.84592,-2.14625,1.06021,0.58291,0.573065,0.184553,0.647273,0.332993,-0.286334,-0.734603,0.0912372,
0.0183171,-0.0506376,0.50807,-1.56695,-0.125387,-0.168015,0.531297,-0.0277549,0.00711877,-0.0284436,-0.0130392,-0.401541,-0.579883,-0.0024335,0,0,0,0,0,0,0,0.0212841,-0.0519746,0.511066,-1.56596,0.0056434,1.54703,1.31758,0.0068662,0.00135663,0.00271124,0.0229355,-0.570044,-0.368786,-0.000585941,-1.53973,-26.7107,-2.18505,24.9118,-0.750126,1.56823,0.0843355,4.16312,2.07455,4.22393,-1.5453,2.03824,-0.368461,-0.383484,0.669822,-0.309574,0.190511,-0.593417,-0.93628,0.0886565,
0.0182042,-0.050612,0.507954,-1.56701,-0.126875,-0.17022,0.531287,-0.0282358,0.0064016,-0.028921,-0.0139607,-0.372045,-0.551275,-0.00249685,0,0,0,0,0,0,0,0.0212841,-0.0519746,0.511066,-1.56596,0.0056434,1.54703,1.31758,0.0068662,0.00135663,0.00271124,0.0229355,-0.570044,-0.368786,-0.000585941,-1.53973,-26.7107,-2.18505,24.9118,-0.750126,1.56823,0.0843355,4.16312,2.07455,4.22393,-1.5453,2.03824,-0.368461,-0.383484,0.669822,-0.309574,0.190511,-0.593417,-0.93628,0.0886565,
0.018089,-0.0505894,0.507836,-1.56707,-0.128233,-0.172289,0.531277,-0.0288023,0.0056581,-0.0294824,-0.0151312,-0.339511,-0.517252,-0.00259573,0,0,0,0,0,0,0,0.0214115,-0.0521343,0.511109,-1.56557,-0.0123779,1.53182,1.31758,0.0057032,-0.00477121,0.00279691,-0.000235758,-0.495583,-0.486353,0.0010935,-1.21045,-27.0836,-1.83592,25.9552,-0.597233,1.58745,0.050461,4.33408,1.57698,4.25622,-1.32978,2.22401,-0.650766,-0.67533,0.797278,-0.585305,0.0629134,-0.704539,-1.08301,0.0849253,
0.0179712,-0.0505698,0.507716,-1.56714,-0.129448,-0.174196,0.531266,-0.0294477,0.00490314,-0.030121,-0.0165938,-0.303748,-0.476793,-0.00274167,0,0,0,0,0,0,0,0.0214115,-0.0521343,0.511109,-1.56557,-0.0123779,1.53182,1.31758,0.0057032,-0.00477121,0.00279691,-0.000235758,-0.495583,-0.486353,0.0010935,-1.21045,-27.0836,-1.83592,25.9552,-0.597233,1.58745,0.050461,4.33408,1.57698,4.25622,-1.32978,2.22401,-0.650766,-0.67533,0.797278,-0.585305,0.0629134,-0.704539,-1.08301,0.0849253,
0.0178506,-0.0505531,0.507592,-1.56721,-0.130507,-0.175911,0.531254,-0.0301513,0.00416417,-0.0308163,-0.0183877,-0.264685,-0.428728,-0.00295097,0,0,0,0,0,0,0,0.0214115,-0.0521343,0.511109,-1.56557,-0.0123779,1.53182,1.31758,0.0057032,-0.00477121,0.00279691,-0.000235758,-0.495583,-0.486353,0.0010935,-1.21045,-27.0836,-1.83592,25.9552,-0.597233,1.58745,0.050461,2.60302,1.15419,4.42534,-1.02014,1.06068,-0.370235,-0.40119,0.206509,-0.307117,0.103967,-0.639898,-1.28496,0.0830802,
0.0177271,-0.0505391,0.507466,-1.56729,-0.131397,-0.177398,0.531241,-0.0308652,0.00349938,-0.0315211,-0.0205193,-0.222472,-0.371792,-0.00314006,0,0,0,0,0,0,0,0.0214115,-0.0521343,0.511109,-1.56557,-0.0123779,1.53182,1.31758,0.0057032,-0.00477121,0.00279691,-0.000235758,-0.495583,-0.486353,0.0010935,-1.21045,-27.0836,-1.83592,25.9552,-0.597233,1.58745,0.050461,2.71253,0.580534,4.32132,-0.783573,1.30146,-0.671835,-0.687071,0.410139,-0.626179,-0.111235,-0.731008,-1.47727,0.0793615,
0.0176012,-0.0505269,0.507338,-1.56738,-0.132108,-0.178618,0.531235,-0.0314758,0.00305856,-0.0321308,-0.0228561,-0.177715,-0.304863,-0.00150601,0,0,0,0,0,0,0,0.0214115,-0.0521343,0.511109,-1.56557,-0.0123779,1.53182,1.31758,0.0057032,-0.00477121,0.00279691,-0.000235758,-0.495583,-0.486353,0.0010935,-1.21045,-27.0836,-1.83592,25.9552,-0.597233,1.58745,0.050461,2.71253,0.580534,4.32132,-0.783573,1.30146,-0.671835,-0.687071,0.410139,-0.626179,-0.111235,-0.731008,-1.47727,0.0793615,
0.0174791,-0.0505081,0.507213,-1.56747,-0.132683,-0.179631,0.53123,-0.0305353,0.00469013,-0.0312708,-0.020694,-0.143818,-0.253271,-0.00135959,0,0,0,0,0,0,0,0.0213368,-0.0522657,0.511054,-1.56563,-0.030796,1.51298,1.31757,-0.00836298,-0.012096,-0.00477178,0.00139847,-0.375501,-0.431179,0.000630075,-0.246395,-26.909,-1.23686,26.4789,0.422665,1.75316,0.0641939,2.45005,0.615785,4.24648,-0.877345,1.16211,-0.586718,-0.587441,0.360427,-0.550809,-0.167554,-0.758657,-1.52807,0.0785309,
0.0173631,-0.0504824,0.507093,-1.56754,-0.133151,-0.180477,0.531224,-0.0289901,0.0064203,-0.0297833,-0.0176312,-0.117022,-0.211447,-0.00139729,0,0,0,0,0,0,0,0.0213368,-0.0522657,0.511054,-1.56563,-0.030796,1.51298,1.31757,-0.00836298,-0.012096,-0.00477178,0.00139847,-0.375501,-0.431179,0.000630075,-0.246395,-26.909,-1.23686,26.4789,0.422665,1.75316,0.0641939,2.45005,0.615785,4.24648,-0.877345,1.16211,-0.586718,-0.587441,0.360427,-0.550809,-0.167554,-0.758657,-1.52807,0.0785309,
0.0172543,-0.0504514,0.506981,-1.5676,-0.133533,-0.181184,0.531218,-0.0271986,0.00776021,-0.0280286,-0.0146703,-0.0953439,-0.176855,-0.00146702,0,0,0,0,0,0,0,0.0213368,-0.0522657,0.511054,-1.56563,-0.030796,1.51298,1.31757,-0.00836298,-0.012096,-0.00477178,0.00139847,-0.375501,-0.431179,0.000630075,-0.246395,-26.909,-1.23686,26.4789,0.422665,1.75316,0.0641939,3.14074,0.819005,3.62853,-1.1302,2.00526,-0.690185,-0.671517,0.977979,-0.663775,-0.526834,-0.676585,-1.58124,0.0770282,
0.017153,-0.0504168,0.506877,-1.56764,-0.133843,-0.181776,0.531212,-0.0253256,0.00865328,-0.0261777,-0.0120435,-0.0775516,-0.148019,-0.00154003,0,0,0,0,0,0,0,0.0213368,-0.0522657,0.511054,-1.56563,-0.030796,1.51298,1.31757,-0.00836298,-0.012096,-0.00477178,0.00139847,-0.375501,-0.431179,0.000630075,-0.246395,-26.909,-1.23686,26.4789,0.422665,1.75316,0.0641939,2.09211,0.483156,3.67795,-0.77469,1.32186,-0.555792,-0.522895,0.638855,-0.555545,-0.458668,-0.53463,-1.64392,0.0739103,
0.0170592,-0.0503802,0.506779,-1.56768,-0.134094,-0.182272,0.531206,-0.0234583,0.00915719,-0.0243225,-0.00976547,-0.0627894,-0.1239,-0.00160872,0,0,0,0,0,0,0,0.0213368,-0.0522657,0.511054,-1.56563,-0.030796,1.51298,1.31757,-0.00836298,-0.012096,-0.00477178,0.00139847,-0.375501,-0.431179,0.000630075,-0.246395,-26.909,-1.23686,26.4789,0.422665,1.75316,0.0641939,2.09211,0.483156,3.67795,-0.77469,1.32186,-0.555792,-0.522895,0.638855,-0.555545,-0.458668,-0.53463,-1.64392,0.0739103,
0.0169726,-0.0503428,0.506689,-1.56771,-0.134296,-0.182687,0.531199,-0.0216467,0.00935001,-0.0225165,-0.00779677,-0.0504294,-0.103695,-0.00167103,0,0,0,0,0,0,0,0.0213368,-0.0522657,0.511054,-1.56563,-0.030796,1.51298,1.31757,-0.00836298,-0.012096,-0.00477178,0.00139847,-0.375501,-0.431179,0.000630075,-0.246395,-26.909,-1.23686,26.4789,0.422665,1.75316,0.0641939,1.28142,0.396139,3.62615,-0.60227,0.795855,-0.373571,-0.335929,0.379794,-0.385247,-0.394992,-0.397905,-1.63939,0.0728743,
0.0168929,-0.0503055,0.506606,-1.56774,-0.134456,-0.183034,0.531192,-0.0199198,0.00930401,-0.0207913,-0.0060911,-0.039997,-0.0867471,-0.00172666,0,0,0,0,0,0,0,0.0210917,-0.0522516,0.510859,-1.5657,-0.0415476,1.5018,1.31757,-0.0118152,0.00479785,-0.00875181,-0.00191373,-0.306606,-0.287807,0.000315995,0.0313145,-27.9326,-1.0623,26.8518,0.281674,2.01226,0.050461,1.28142,0.396139,3.62615,-0.60227,0.795855,-0.373571,-0.335929,0.379794,-0.385247,-0.394992,-0.397905,-1.63939,0.0728743,
0.0168197,-0.0502692,0.506529,-1.56776,-0.13458,-0.183324,0.531185,-0.018294,0.00907993,-0.0191648,-0.00460711,-0.0311275,-0.0725177,-0.00177589,0,0,0,0,0,0,0,0.0210917,-0.0522516,0.510859,-1.5657,-0.0415476,1.5018,1.31757,-0.0118152,0.00479785,-0.00875181,-0.00191373,-0.306606,-0.287807,0.000315995,0.0313145,-27.9326,-1.0623,26.8518,0.281674,2.01226,0.050461,1.33951,0.383784,3.07551,-0.661478,1.05588,-0.395957,-0.354505,0.62181,-0.408295,-0.583452,-0.342052,-1.61493,0.0728378,
0.0167526,-0.0502343,0.506459,-1.56777,-0.134674,-0.183566,0.531178,-0.0167771,0.00872693,-0.0176459,-0.00331045,-0.023537,-0.0605578,-0.00181926,0,0,0,0,0,0,0,0.0210917,-0.0522516,0.510859,-1.5657,-0.0415476,1.5018,1.31757,-0.0118152,0.00479785,-0.00875181,-0.00191373,-0.306606,-0.287807,0.000315995,0.0313145,-27.9326,-1.0623,26.8518,0.281674,2.01226,0.050461,1.33951,0.383784,3.07551,-0.661478,1.05588,-0.395957,-0.354505,0.62181,-0.408295,-0.583452,-0.342052,-1.61493,0.0728378,
-0.00645371,-0.0402254,0.481934,-1.57974,-0.161086,-0.219497,0.519167,-0.201927,0.103605,-0.211131,-0.0950805,-1.24293,-1.31814,-0.0580684,0,0,0,0,0,0,0,0.0210917,-0.0522516,0.510859,-1.5657,-0.0415476,1.5018,1.31757,-0.0118152,0.00479785,-0.00875181,-0.00191373,-0.306606,-0.287807,0.000315995,0.0313145,-27.9326,-1.0623,26.8518,0.281674,2.01226,0.050461,0.760503,0.714322,3.14054,-0.571435,0.443369,-0.0700185,-0.0305227,0.197803,-0.0906921,-0.223456,-0.136467,-1.31754,0.0713919,
-0.000979166,-0.0447611,0.487756,-1.57593,-0.221119,-0.187064,0.525468,-0.166295,0.0548116,-0.172576,-0.0670875,-0.950644,0.0325501,-0.0213786,0,0,0,0,0,0,0,0.0210917,-0.0522516,0.510859,-1.5657,-0.0415476,1.5018,1.31757,-0.0118152,0.00479785,-0.00875181,-0.00191373,-0.306606,-0.287807,0.000315995,0.0313145,-27.9326,-1.0623,26.8518,0.281674,2.01226,0.050461,0.760503,0.714322,3.14054,-0.571435,0.443369,-0.0700185,-0.0305227,0.197803,-0.0906921,-0.223456,-0.136467,-1.31754,0.0713919,
-0.00165179,-0.0445479,0.487058,-1.5762,-0.224665,-0.18674,0.525385,-0.168156,0.0532971,-0.174471,-0.0659801,-0.886685,0.0809388,-0.0205919,0,0,0,0,0,0,0,0.020614,-0.0521589,0.510255,-1.5659,-0.0512933,1.49192,1.31756,-0.0232884,-0.00337464,-0.0267491,-0.00397141,-0.313694,-0.341623,0.00077265,0.360599,-27.6073,-0.812364,26.828,0.758663,2.68792,0.0641939,0.216507,1.88795,3.30083,-0.927286,-0.188983,0.633368,0.675251,-0.253999,0.608425,0.227722,0.211398,-0.922432,0.0703861,
-0.00233149,-0.044341,0.486353,-1.57645,-0.227934,-0.186217,0.525306,-0.169924,0.051723,-0.176271,-0.0649008,-0.817166,0.13082,-0.0198341,0,0,0,0,0,0,0,0.020614,-0.0521589,0.510255,-1.5659,-0.0512933,1.49192,1.31756,-0.0232884,-0.00337464,-0.0267491,-0.00397141,-0.313694,-0.341623,0.00077265,0.360599,-27.6073,-0.812364,26.828,0.758663,2.68792,0.0641939,-0.439045,4.51332,3.03736,-2.48245,-0.631085,2.02234,2.07399,-0.46229,2.02208,0.367544,0.617875,-0.618188,0.069478,
-0.00301791,-0.0441408,0.485641,-1.57671,-0.230901,-0.185488,0.525229,-0.171606,0.0500714,-0.17798,-0.0638655,-0.741864,0.182329,-0.0191139,0,0,0,0,0,0,0,0.020614,-0.0521589,0.510255,-1.5659,-0.0512933,1.49192,1.31756,-0.0232884,-0.00337464,-0.0267491,-0.00397141,-0.313694,-0.341623,0.00077265,0.360599,-27.6073,-0.812364,26.828,0.758663,2.68792,0.0641939,-0.439045,4.51332,3.03736,-2.48245,-0.631085,2.02234,2.07399,-0.46229,2.02208,0.367544,0.617875,-0.618188,0.069478,
-0.00371078,-0.0439475,0.484922,-1.57696,-0.233543,-0.184545,0.525156,-0.173217,0.0483257,-0.179611,-0.0628838,-0.660399,0.235585,-0.01843,0,0,0,0,0,0,0,0.020614,-0.0521589,0.510255,-1.5659,-0.0512933,1.49192,1.31756,-0.0232884,-0.00337464,-0.0267491,-0.00397141,-0.313694,-0.341623,0.00077265,0.360599,-27.6073,-0.812364,26.828,0.758663,2.68792,0.0641939,-1.0804,4.97672,1.57257,-2.94974,-0.506442,2.42443,2.46654,-0.118458,2.44876,-0.0762641,0.842727,-0.539931,0.0563528,
-0.00440987,-0.0437616,0.484198,-1.57721,-0.235832,-0.183383,0.525085,-0.174772,0.0464713,-0.18118,-0.0619613,-0.572275,0.290682,-0.0177886,0,0,0,0,0,0,0,0.020614,-0.0521589,0.510255,-1.5659,-0.0512933,1.49192,1.31756,-0.0232884,-0.00337464,-0.0267491,-0.00397141,-0.313694,-0.341623,0.00077265,0.360599,-27.6073,-0.812364,26.828,0.758663,2.68792,0.0641939,-1.0804,4.97672,1.57257,-2.94974,-0.506442,2.42443,2.46654,-0.118458,2.44876,-0.0762641,0.842727,-0.539931,0.0563528,
-0.00511502,-0.0435836,0.483467,-1.57745,-0.23774,-0.181992,0.525016,-0.176287,0.0444978,-0.182699,-0.0610972,-0.476914,0.347666,-0.0171998,0,0,0,0,0,0,0,0.0198143,-0.0522146,0.509221,-1.5665,-0.075038,1.47821,1.31715,-0.0194996,-0.00322553,-0.0208829,-0.0397072,-0.821588,-0.392313,-0.00986236,-3.01159,-26.1354,-4.03777,27.1017,-1.66657,3.88177,0.110886,0.152618,2.00495,1.90931,-1.11513,-0.130479,0.765937,0.806519,-0.171318,0.750107,0.182427,0.197913,-0.437287,0.0397434,
-0.00582607,-0.043414,0.48273,-1.57769,-0.239235,-0.180366,0.524949,-0.177763,0.0424007,-0.18417,-0.0602856,-0.373723,0.406497,-0.0166713,0,0,0,0,0,0,0,0.0198143,-0.0522146,0.509221,-1.5665,-0.075038,1.47821,1.31715,-0.0194996,-0.00322553,-0.0208829,-0.0397072,-0.821588,-0.392313,-0.00986236,-3.01159,-26.1354,-4.03777,27.1017,-1.66657,3.88177,0.110886,3.7102,0.962269,1.43378,-0.831054,2.26577,-0.643547,-0.59751,1.04114,-0.660935,-0.079921,-0.382859,-0.248626,0.0296848,
-0.0065428,-0.0432532,0.481988,-1.57793,-0.240283,-0.178498,0.524884,-0.179182,0.040186,-0.185575,-0.0595094,-0.262208,0.466988,-0.0162054,0,0,0,0,0,0,0,0.0198143,-0.0522146,0.509221,-1.5665,-0.075038,1.47821,1.31715,-0.0194996,-0.00322553,-0.0208829,-0.0397072,-0.821588,-0.392313,-0.00986236,-3.01159,-26.1354,-4.03777,27.1017,-1.66657,3.88177,0.110886,3.7102,0.962269,1.43378,-0.831054,2.26577,-0.643547,-0.59751,1.04114,-0.660935,-0.079921,-0.382859,-0.248626,0.0296848,
-0.00726472,-0.0431017,0.481241,-1.57817,-0.240852,-0.176383,0.524821,-0.18048,0.0378782,-0.186852,-0.0587316,-0.142178,0.52869,-0.0158198,0,0,0,0,0,0,0,0.0198143,-0.0522146,0.509221,-1.5665,-0.075038,1.47821,1.31715,-0.0194996,-0.00322553,-0.0208829,-0.0397072,-0.821588,-0.392313,-0.00986236,-3.01159,-26.1354,-4.03777,27.1017,-1.66657,3.88177,0.110886,3.46304,1.94239,0.937894,-1.47146,2.24131,-0.107327,-0.0722071,1.10437,-0.0985663,-0.15252,-0.205376,-0.107771,0.022751,
-0.00799081,-0.0429596,0.480489,-1.5784,-0.240909,-0.17402,0.524759,-0.181522,0.035534,-0.187864,-0.0578786,-0.0141055,0.590707,-0.0155329,0,0,0,0,0,0,0,0.0198143,-0.0522146,0.509221,-1.5665,-0.075038,1.47821,1.31715,-0.0194996,-0.00322553,-0.0208829,-0.0397072,-0.821588,-0.392313,-0.00986236,-3.01159,-26.1354,-4.03777,27.1017,-1.66657,3.88177,0.110886,3.12888,2.2388,1.18931,-1.53937,1.75287,0.15938,0.194855,0.726211,0.166609,0.133513,-0.188567,0.0695203,0.00465302,
-0.00871894,-0.0428265,0.479736,-1.57863,-0.240428,-0.171415,0.524697,-0.182033,0.0332651,-0.188343,-0.0568095,0.120249,0.651392,-0.0153775,0,0,0,0,0,0,0,0.0198143,-0.0522146,0.509221,-1.5665,-0.075038,1.47821,1.31715,-0.0194996,-0.00322553,-0.0208829,-0.0397072,-0.821588,-0.392313,-0.00986236,-3.01159,-26.1354,-4.03777,27.1017,-1.66657,3.88177,0.110886,3.12888,2.2388,1.18931,-1.53937,1.75287,0.15938,0.194855,0.726211,0.166609,0.133513,-0.188567,0.0695203,0.00465302,
-0.00944502,-0.0427014,0.478985,-1.57885,-0.2394,-0.168583,0.524636,-0.18152,0.0312743,-0.187802,-0.0552685,0.256845,0.70788,-0.0154067,0,0,0,0,0,0,0,0.0184186,-0.0527774,0.507485,-1.56825,-0.0984813,1.46875,1.31694,-0.0613305,-0.0129187,-0.0703474,-0.0778614,-0.612487,-0.219796,0.000655904,-2.86084,-25.7625,-3.88701,27.5739,-1.14106,3.7893,-0.0566557,3.82771,0.106419,1.90445,-0.130263,1.70107,-0.966952,-0.932552,0.428361,-0.993901,0.50918,-0.661723,0.133218,-0.00772032,
-0.0101616,-0.0425818,0.478243,-1.57906,-0.237848,-0.165561,0.524573,-0.179141,0.0299075,-0.185412,-0.0528096,0.387955,0.755484,-0.0157471,0,0,0,0,0,0,0,0.0184186,-0.0527774,0.507485,-1.56825,-0.0984813,1.46875,1.31694,-0.0613305,-0.0129187,-0.0703474,-0.0778614,-0.612487,-0.219796,0.000655904,-2.86084,-25.7625,-3.88701,27.5739,-1.14106,3.7893,-0.0566557,3.82771,0.106419,1.90445,-0.130263,1.70107,-0.966952,-0.932552,0.428361,-0.993901,0.50918,-0.661723,0.133218,-0.00772032,
-0.0108559,-0.0424629,0.477523,-1.57925,-0.235846,-0.162413,0.524506,-0.17357,0.0297371,-0.179861,-0.0486603,0.500548,0.786983,-0.0166673,0,0,0,0,0,0,0,0.0184186,-0.0527774,0.507485,-1.56825,-0.0984813,1.46875,1.31694,-0.0613305,-0.0129187,-0.0703474,-0.0778614,-0.612487,-0.219796,0.000655904,-2.86084,-25.7625,-3.88701,27.5739,-1.14106,3.7893,-0.0566557,4.0297,-0.469992,1.61661,0.0824884,1.91733,-1.27419,-1.24207,0.576985,-1.30016,0.368192,-0.817561,0.0914664,-0.00940337,
-0.0115073,-0.0423358,0.476847,-1.57942,-0.233547,-0.159247,0.524431,-0.162862,0.0317704,-0.169215,-0.0413228,0.5749,0.7916,-0.0187849,0,0,0,0,0,0,0,0.0184186,-0.0527774,0.507485,-1.56825,-0.0984813,1.46875,1.31694,-0.0613305,-0.0129187,-0.0703474,-0.0778614,-0.612487,-0.219796,0.000655904,-2.86084,-25.7625,-3.88701,27.5739,-1.14106,3.7893,-0.0566557,4.0297,-0.469992,1.61661,0.0824884,1.91733,-1.27419,-1.24207,0.576985,-1.30016,0.368192,-0.817561,0.0914664,-0.00940337,
-0.0120839,-0.0421828,0.476244,-1.57953,-0.231215,-0.156241,0.524341,-0.144144,0.0382415,-0.150606,-0.0270289,0.582965,0.751488,-0.0225809,0,0,0,0,0,0,0,0.0156724,-0.0529888,0.504183,-1.57072,-0.107695,1.4667,1.31686,-0.100553,-0.010244,-0.123526,-0.0670689,-0.100264,0.0202966,-0.001574,-1.76983,-25.7863,-2.83568,26.6058,0.819088,3.35168,0.0239107,3.82738,0.220078,1.19193,-0.425456,1.99506,-0.889813,-0.8555,0.726726,-0.903904,0.196194,-0.683212,0.0968741,-0.0190228,
-0.0125337,-0.0419603,0.475769,-1.5795,-0.229289,-0.153734,0.524287,-0.112453,0.0556153,-0.118683,0.00603637,0.481534,0.626813,-0.0134347,0,0,0,0,0,0,0,0.0156724,-0.0529888,0.504183,-1.57072,-0.107695,1.4667,1.31686,-0.100553,-0.010244,-0.123526,-0.0670689,-0.100264,0.0202966,-0.001574,-1.76983,-25.7863,-2.83568,26.6058,0.819088,3.35168,0.0239107,3.41179,-0.315765,0.0751999,-0.18815,2.23902,-1.01732,-0.984476,1.10802,-1.03311,-0.233027,-0.539399,0.0286112,-0.0243632,
-0.0129024,-0.0417383,0.475379,-1.57946,-0.22761,-0.151533,0.524232,-0.0921628,0.055501,-0.0976792,0.0105364,0.419764,0.550067,-0.0135967,0,0,0,0,0,0,0,0.0156724,-0.0529888,0.504183,-1.57072,-0.107695,1.4667,1.31686,-0.100553,-0.010244,-0.123526,-0.0670689,-0.100264,0.0202966,-0.001574,-1.76983,-25.7863,-2.83568,26.6058,0.819088,3.35168,0.0239107,1.77271,-1.05607,0.104859,0.48743,1.1242,-0.926589,-0.900395,0.53281,-0.958124,-0.0982332,-0.377416,-0.0291418,-0.0242905,
-0.0132131,-0.0415357,0.475048,-1.57943,-0.226087,-0.149554,0.524176,-0.0776881,0.0506691,-0.0826718,0.0077644,0.380645,0.494762,-0.0140103,0,0,0,0,0,0,0,0.0156724,-0.0529888,0.504183,-1.57072,-0.107695,1.4667,1.31686,-0.100553,-0.010244,-0.123526,-0.0670689,-0.100264,0.0202966,-0.001574,-1.76983,-25.7863,-2.83568,26.6058,0.819088,3.35168,0.0239107,1.77271,-1.05607,0.104859,0.48743,1.1242,-0.926589,-0.900395,0.53281,-0.958124,-0.0982332,-0.377416,-0.0291418,-0.0242905,
-0.0134803,-0.0413556,0.474762,-1.57941,-0.224664,-0.147748,0.524119,-0.0667868,0.0450066,-0.0713886,0.00386902,0.355773,0.451581,-0.0142683,0,0,0,0,0,0,0,0.0156724,-0.0529888,0.504183,-1.57072,-0.107695,1.4667,1.31686,-0.100553,-0.010244,-0.123526,-0.0670689,-0.100264,0.0202966,-0.001574,-1.76983,-25.7863,-2.83568,26.6058,0.819088,3.35168,0.0239107,1.16291,-0.425202,0.395801,0.293552,0.604796,-0.477335,-0.455913,0.216177,-0.505336,0.105006,-0.162305,0.038963,-0.0231364,
-0.0137135,-0.041197,0.474512,-1.57941,-0.223303,-0.146081,0.524062,-0.0583186,0.0396527,-0.0626489,0.00044107,0.340319,0.416705,-0.0144331,0,0,0,0,0,0,0,0.0156724,-0.0529888,0.504183,-1.57072,-0.107695,1.4667,1.31686,-0.100553,-0.010244,-0.123526,-0.0670689,-0.100264,0.0202966,-0.001574,-1.76983,-25.7863,-2.83568,26.6058,0.819088,3.35168,0.0239107,1.16291,-0.425202,0.395801,0.293552,0.604796,-0.477335,-0.455913,0.216177,-0.505336,0.105006,-0.162305,0.038963,-0.0231364,
-0.0139199,-0.0410574,0.474289,-1.57942,-0.221978,-0.144529,0.524003,-0.0516042,0.0348957,-0.0557414,-0.00225012,0.331207,0.388169,-0.0145458,0,0,0,0,0,0,0,0.0112203,-0.0522127,0.498466,-1.57228,-0.107418,1.47058,1.31682,-0.11988,0.0378263,-0.139762,-0.00180887,-0.00201345,0.0793478,0.00090166,0.868412,-28.0318,-0.185533,26.3043,0.776974,3.11272,-0.0429228,0.685474,0.586373,-0.527538,-0.418185,0.665519,0.124507,0.144574,0.440297,0.116581,-0.169098,0.0995352,0.121694,-0.0208936,
-0.0141047,-0.0409344,0.474088,-1.57944,-0.220672,-0.14307,0.523945,-0.0461945,0.0307626,-0.0501941,-0.00428149,0.326374,0.364713,-0.0146265,0,0,0,0,0,0,0,0.0112203,-0.0522127,0.498466,-1.57228,-0.107418,1.47058,1.31682,-0.11988,0.0378263,-0.139762,-0.00180887,-0.00201345,0.0793478,0.00090166,0.868412,-28.0318,-0.185533,26.3043,0.776974,3.11272,-0.0429228,0.685474,0.586373,-0.527538,-0.418185,0.665519,0.124507,0.144574,0.440297,0.116581,-0.169098,0.0995352,0.121694,-0.0208936,
-0.0142718,-0.0408256,0.473905,-1.57946,-0.219375,-0.141688,0.523886,-0.0417751,0.027204,-0.0456761,-0.00579262,0.324396,0.345404,-0.0146863,0,0,0,0,0,0,0,0.0112203,-0.0522127,0.498466,-1.57228,-0.107418,1.47058,1.31682,-0.11988,0.0378263,-0.139762,-0.00180887,-0.00201345,0.0793478,0.00090166,0.868412,-28.0318,-0.185533,26.3043,0.776974,3.11272,-0.0429228,0.143205,0.56871,-1.18181,-0.417158,0.6116,0.258049,0.283214,0.566957,0.245321,-0.389258,0.267025,0.100827,-0.0199299,
-0.0297707,-0.0288508,0.457564,-1.58708,-0.222308,-0.270615,0.513302,-0.335285,0.170957,-0.350006,-0.137805,-1.2355,-1.10291,-0.0734334,0,0,0,0,0,0,0,0.0112203,-0.0522127,0.498466,-1.57228,-0.107418,1.47058,1.31682,-0.11988,0.0378263,-0.139762,-0.00180887,-0.00201345,0.0793478,0.00090166,0.868412,-28.0318,-0.185533,26.3043,0.776974,3.11272,-0.0429228,-0.69092,0.656571,-1.23723,-0.428327,0.20833,0.49404,0.523275,0.44115,0.476295,-0.482193,0.42269,-0.0419192,-0.0180944,
-0.0229419,-0.0386449,0.462865,-1.58375,-0.223138,-0.161967,0.52272,-0.200862,0.0735583,-0.208378,-0.064313,0.026561,-0.22538,-0.0315188,0,0,0,0,0,0,0,0.0112203,-0.0522127,0.498466,-1.57228,-0.107418,1.47058,1.31682,-0.11988,0.0378263,-0.139762,-0.00180887,-0.00201345,0.0793478,0.00090166,0.868412,-28.0318,-0.185533,26.3043,0.776974,3.11272,-0.0429228,-0.69092,0.656571,-1.23723,-0.428327,0.20833,0.49404,0.523275,0.44115,0.476295,-0.482193,0.42269,-0.0419192,-0.0180944,
-0.0237468,-0.0383577,0.46203,-1.584,-0.222696,-0.162769,0.522596,-0.201218,0.0717857,-0.208727,-0.0637221,0.110641,-0.20036,-0.0308495,0,0,0,0,0,0,0,0.00719842,-0.0511648,0.49428,-1.57225,-0.108527,1.47365,1.31678,-0.136087,0.0304575,-0.135447,-0.0018249,-0.0846051,0.0579348,-0.00746702,0.793033,-27.7342,-0.237108,25.4315,0.226742,2.3034,-0.0905302,-1.15216,1.74304,-1.40095,-1.18622,0.0933555,1.09755,1.13289,0.482521,1.09303,-0.645936,0.587954,-0.134115,-0.0131532,
-0.0245535,-0.0380783,0.461193,-1.58426,-0.221891,-0.163464,0.522475,-0.201674,0.0698543,-0.209174,-0.0631592,0.201214,-0.173926,-0.0302068,0,0,0,0,0,0,0,0.00719842,-0.0511648,0.49428,-1.57225,-0.108527,1.47365,1.31678,-0.136087,0.0304575,-0.135447,-0.0018249,-0.0846051,0.0579348,-0.00746702,0.793033,-27.7342,-0.237108,25.4315,0.226742,2.3034,-0.0905302,-1.15216,1.74304,-1.40095,-1.18622,0.0933555,1.09755,1.13289,0.482521,1.09303,-0.645936,0.587954,-0.134115,-0.0131532,
-0.0253624,-0.0378073,0.460354,-1.58451,-0.220695,-0.164048,0.522357,-0.20224,0.0677555,-0.209728,-0.0626432,0.299002,-0.145871,-0.0295958,0,0,0,0,0,0,0,0.00719842,-0.0511648,0.49428,-1.57225,-0.108527,1.47365,1.31678,-0.136087,0.0304575,-0.135447,-0.0018249,-0.0846051,0.0579348,-0.00746702,0.793033,-27.7342,-0.237108,25.4315,0.226742,2.3034,-0.0905302,-3.94427,5.00562,-1.14573,-3.17479,-2.01542,3.35357,3.38726,-0.691455,3.39309,-0.298822,0.999127,0.0270505,-0.0176319,
-0.0261741,-0.0375454,0.459513,-1.58476,-0.219076,-0.164512,0.522241,-0.202917,0.0654824,-0.210391,-0.0621986,0.404704,-0.115939,-0.0290259,0,0,0,0,0,0,0,0.00719842,-0.0511648,0.49428,-1.57225,-0.108527,1.47365,1.31678,-0.136087,0.0304575,-0.135447,-0.0018249,-0.0846051,0.0579348,-0.00746702,0.793033,-27.7342,-0.237108,25.4315,0.226742,2.3034,-0.0905302,-2.37136,4.06544,-1.87407,-2.75275,-0.538122,2.50247,2.5218,0.257755,2.55106,-0.755913,0.888669,-0.0607718,-0.0180369,
-0.0269889,-0.0372932,0.458668,-1.585,-0.217,-0.164847,0.522127,-0.203693,0.0630326,-0.21115,-0.0618576,0.518914,-0.0838101,-0.0285085,0,0,0,0,0,0,0,0.00719842,-0.0511648,0.49428,-1.57225,-0.108527,1.47365,1.31678,-0.136087,0.0304575,-0.135447,-0.0018249,-0.0846051,0.0579348,-0.00746702,0.793033,-27.7342,-0.237108,25.4315,0.226742,2.3034,-0.0905302,-2.37136,4.06544,-1.87407,-2.75275,-0.538122,2.50247,2.5218,0.257755,2.55106,-0.755913,0.888669,-0.0607718,-0.0180369,
-0.0278061,-0.0370512,0.457821,-1.58525,-0.214442,-0.165044,0.522015,-0.204296,0.0605166,-0.211757,-0.0615962,0.639637,-0.0492317,-0.0280526,0,0,0,0,0,0,0,0.00719842,-0.0511648,0.49428,-1.57225,-0.108527,1.47365,1.31678,-0.136087,0.0304575,-0.135447,-0.0018249,-0.0846051,0.0579348,-0.00746702,0.793033,-27.7342,-0.237108,25.4315,0.226742,2.3034,-0.0905302,0.48588,1.36399,-0.933169,-1.06754,1.1082,0.502058,0.546659,0.949144,0.489456,-0.707186,0.322348,-0.246255,-0.0301651,
-0.0286113,-0.0368134,0.456985,-1.58549,-0.211514,-0.165098,0.521904,-0.201298,0.0594412,-0.209059,-0.060583,0.731983,-0.0136249,-0.0276182,0,0,0,0,0,0,0,0.00219797,-0.0504935,0.489044,-1.57262,-0.114967,1.47141,1.31635,-0.14172,0.00215297,-0.164893,-0.0221797,-0.0219397,-0.0555946,-0.0114771,-1.86902,-27.5081,-2.78807,25.9076,-0.0662268,2.07818,-0.00996382,0.48588,1.36399,-0.933169,-1.06754,1.1082,0.502058,0.546659,0.949144,0.489456,-0.707186,0.322348,-0.246255,-0.0301651,
-0.0293959,-0.0365792,0.456168,-1.58573,-0.2083,-0.164995,0.521795,-0.196161,0.0585599,-0.204107,-0.0601989,0.803488,0.0257676,-0.0273897,0,0,0,0,0,0,0,0.00219797,-0.0504935,0.489044,-1.57262,-0.114967,1.47141,1.31635,-0.14172,0.00215297,-0.164893,-0.0221797,-0.0219397,-0.0555946,-0.0114771,-1.86902,-27.5081,-2.78807,25.9076,-0.0662268,2.07818,-0.00996382,1.84992,-0.667415,-0.702561,0.130993,2.07086,-0.807343,-0.755722,1.45649,-0.851145,-0.874233,-0.00915888,-0.475876,-0.0392364,
-0.0301543,-0.0363494,0.455378,-1.58598,-0.204863,-0.164714,0.521685,-0.189596,0.057449,-0.197636,-0.0606553,0.859287,0.0702173,-0.0273801,0,0,0,0,0,0,0,0.00219797,-0.0504935,0.489044,-1.57262,-0.114967,1.47141,1.31635,-0.14172,0.00215297,-0.164893,-0.0221797,-0.0219397,-0.0555946,-0.0114771,-1.86902,-27.5081,-2.78807,25.9076,-0.0662268,2.07818,-0.00996382,1.84992,-0.667415,-0.702561,0.130993,2.07086,-0.807343,-0.755722,1.45649,-0.851145,-0.874233,-0.00915888,-0.475876,-0.0392364,
-0.0308823,-0.0361255,0.454618,-1.58622,-0.201251,-0.164234,0.521575,-0.182011,0.0559708,-0.190071,-0.0618377,0.902982,0.120196,-0.0276615,0,0,0,0,0,0,0,0.00219797,-0.0504935,0.489044,-1.57262,-0.114967,1.47141,1.31635,-0.14172,0.00215297,-0.164893,-0.0221797,-0.0219397,-0.0555946,-0.0114771,-1.86902,-27.5081,-2.78807,25.9076,-0.0662268,2.07818,-0.00996382,-0.100643,-1.48763,-0.683466,0.652353,0.813267,-0.715871,-0.682189,0.848025,-0.754819,-0.89382,0.00123547,-0.711062,-0.0445225,
-0.0315767,-0.035909,0.453891,-1.58648,-0.197502,-0.163533,0.521461,-0.17359,0.054126,-0.181598,-0.0634705,0.937061,0.175051,-0.0284033,0,0,0,0,0,0,0,0.00219797,-0.0504935,0.489044,-1.57262,-0.114967,1.47141,1.31635,-0.14172,0.00215297,-0.164893,-0.0221797,-0.0219397,-0.0555946,-0.0114771,-1.86902,-27.5081,-2.78807,25.9076,-0.0662268,2.07818,-0.00996382,-1.29564,-1.836,-0.00867194,0.981721,-0.322323,-0.581697,-0.552018,0.11102,-0.627544,-0.574891,-0.0577705,-0.767776,-0.0495891,
-0.0322339,-0.0357007,0.453203,-1.58674,-0.19365,-0.162605,0.521341,-0.164298,0.0520637,-0.172165,-0.0650133,0.963099,0.23208,-0.029954,0,0,0,0,0,0,0,-0.00255685,-0.0500708,0.483286,-1.57341,-0.111152,1.47117,1.31625,-0.163255,0.0132914,-0.196746,-0.032926,0.266488,-0.00141749,-0.00545851,-1.28582,-27.9088,-2.11363,25.8084,0.477596,2.13769,0.017502,-1.29564,-1.836,-0.00867194,0.981721,-0.322323,-0.581697,-0.552018,0.11102,-0.627544,-0.574891,-0.0577705,-0.767776,-0.0495891,
-0.0328492,-0.0354998,0.452557,-1.587,-0.189723,-0.161464,0.521209,-0.153818,0.0502381,-0.161418,-0.0653091,0.981784,0.285176,-0.0329546,0,0,0,0,0,0,0,-0.00255685,-0.0500708,0.483286,-1.57341,-0.111152,1.47117,1.31625,-0.163255,0.0132914,-0.196746,-0.032926,0.266488,-0.00141749,-0.00545851,-1.28582,-27.9088,-2.11363,25.8084,0.477596,2.13769,0.017502,-0.467204,-2.20423,-0.0261115,1.15871,0.292582,-0.965938,-0.941465,0.451019,-1.0088,-0.676752,-0.153876,-0.805484,-0.0500471,
-0.0334147,-0.0352999,0.451963,-1.58724,-0.185752,-0.160176,0.521059,-0.14138,0.0499757,-0.148538,-0.0614659,0.992724,0.322058,-0.0376017,0,0,0,0,0,0,0,-0.00255685,-0.0500708,0.483286,-1.57341,-0.111152,1.47117,1.31625,-0.163255,0.0132914,-0.196746,-0.032926,0.266488,-0.00141749,-0.00545851,-1.28582,-27.9088,-2.11363,25.8084,0.477596,2.13769,0.017502,-0.467204,-2.20423,-0.0261115,1.15871,0.292582,-0.965938,-0.941465,0.451019,-1.0088,-0.676752,-0.153876,-0.805484,-0.0500471,
-0.0338845,-0.035064,0.451465,-1.58741,-0.182102,-0.158938,0.520948,-0.117452,0.0589753,-0.124326,-0.0422822,0.912456,0.309618,-0.0277403,0,0,0,0,0,0,0,-0.00255685,-0.0500708,0.483286,-1.57341,-0.111152,1.47117,1.31625,-0.163255,0.0132914,-0.196746,-0.032926,0.266488,-0.00141749,-0.00545851,-1.28582,-27.9088,-2.11363,25.8084,0.477596,2.13769,0.017502,0.0615061,-1.32524,-0.559462,0.447454,0.98875,-0.68413,-0.657225,0.969283,-0.708531,-1.00999,-0.0599746,-0.848939,-0.0538286,
-0.0342881,-0.0348299,0.451036,-1.58756,-0.178659,-0.157686,0.520837,-0.100899,0.0585085,-0.107312,-0.0375731,0.860884,0.313056,-0.0276363,0,0,0,0,0,0,0,-0.00255685,-0.0500708,0.483286,-1.57341,-0.111152,1.47117,1.31625,-0.163255,0.0132914,-0.196746,-0.032926,0.266488,-0.00141749,-0.00545851,-1.28582,-27.9088,-2.11363,25.8084,0.477596,2.13769,0.017502,0.0615061,-1.32524,-0.559462,0.447454,0.98875,-0.68413,-0.657225,0.969283,-0.708531,-1.00999,-0.0599746,-0.848939,-0.0538286,
-0.0346423,-0.034609,0.450658,-1.58771,-0.175351,-0.156404,0.520725,-0.0885517,0.0552229,-0.0946302,-0.0365677,0.826917,0.320379,-0.0279824,0,0,0,0,0,0,0,-0.00255685,-0.0500708,0.483286,-1.57341,-0.111152,1.47117,1.31625,-0.163255,0.0132914,-0.196746,-0.032926,0.266488,-0.00141749,-0.00545851,-1.28582,-27.9088,-2.11363,25.8084,0.477596,2.13769,0.017502,0.129544,-0.847391,-1.34634,-0.00777103,1.43673,-0.469865,-0.444749,1.39204,-0.477549,-1.37683,0.0378747,-0.888426,-0.0583185,
-0.0349582,-0.0344041,0.450318,-1.58785,-0.172133,-0.155092,0.520613,-0.0789804,0.0512326,-0.084825,-0.0361985,0.804527,0.32804,-0.0282379,0,0,0,0,0,0,0,-0.00845136,-0.0499159,0.47697,-1.57432,-0.097796,1.47182,1.3162,-0.185555,0.00197394,-0.198531,-0.0137679,0.470195,0.0427572,-0.00133333,0.360599,-27.6311,-0.538622,25.0864,0.660702,2.34368,-0.0163725,-0.675525,-1.47848,-1.99838,0.339162,1.14128,-0.566922,-0.546753,1.36553,-0.576355,-1.56886,0.0631507,-0.929815,-0.0579898,
-0.0352437,-0.0342152,0.45001,-1.588,-0.168973,-0.153752,0.520499,-0.0713812,0.0472242,-0.0770645,-0.0357022,0.789993,0.335077,-0.0284191,0,0,0,0,0,0,0,-0.00845136,-0.0499159,0.47697,-1.57432,-0.097796,1.47182,1.3162,-0.185555,0.00197394,-0.198531,-0.0137679,0.470195,0.0427572,-0.00133333,0.360599,-27.6311,-0.538622,25.0864,0.660702,2.34368,-0.0163725,-0.675525,-1.47848,-1.99838,0.339162,1.14128,-0.566922,-0.546753,1.36553,-0.576355,-1.56886,0.0631507,-0.929815,-0.0579898,
-0.0355047,-0.0340415,0.449727,-1.58814,-0.16585,-0.152386,0.520385,-0.0652396,0.0434233,-0.070813,-0.0349721,0.780848,0.341304,-0.0285527,0,0,0,0,0,0,0,-0.00845136,-0.0499159,0.47697,-1.57432,-0.097796,1.47182,1.3162,-0.185555,0.00197394,-0.198531,-0.0137679,0.470195,0.0427572,-0.00133333,0.360599,-27.6311,-0.538622,25.0864,0.660702,2.34368,-0.0163725,-2.18299,-2.36865,-1.23572,1.2275,-0.305201,-0.624734,-0.607903,0.427993,-0.660479,-1.07126,0.105834,-0.89281,-0.0579725,
-0.0357455,-0.0338819,0.449464,-1.58827,-0.162748,-0.150999,0.52027,-0.0602014,0.0399015,-0.0657008,-0.0340636,0.775394,0.346751,-0.0286541,0,0,0,0,0,0,0,-0.00845136,-0.0499159,0.47697,-1.57432,-0.097796,1.47182,1.3162,-0.185555,0.00197394,-0.198531,-0.0137679,0.470195,0.0427572,-0.00133333,0.360599,-27.6311,-0.538622,25.0864,0.660702,2.34368,-0.0163725,-2.18299,-2.36865,-1.23572,1.2275,-0.305201,-0.624734,-0.607903,0.427993,-0.660479,-1.07126,0.105834,-0.89281,-0.0579725,
-0.0359695,-0.0337352,0.449218,-1.58841,-0.159658,-0.149593,0.520155,-0.0560128,0.0366748,-0.0614633,-0.033054,0.772443,0.351503,-0.0287327,0,0,0,0,0,0,0,-0.00845136,-0.0499159,0.47697,-1.57432,-0.097796,1.47182,1.3162,-0.185555,0.00197394,-0.198531,-0.0137679,0.470195,0.0427572,-0.00133333,0.360599,-27.6311,-0.538622,25.0864,0.660702,2.34368,-0.0163725,-3.25366,-1.67433,-0.787838,1.01214,-1.32338,-0.0365808,-0.0230459,-0.233012,-0.0711781,-0.69925,0.279563,-0.756699,-0.0553308,
-0.0361795,-0.0336003,0.448987,-1.58853,-0.156574,-0.148171,0.52004,-0.0524879,0.033738,-0.057907,-0.0320066,0.77116,0.355644,-0.0287946,0,0,0,0,0,0,0,-0.0136104,-0.0489729,0.470993,-1.57462,-0.0844559,1.47371,1.31617,-0.151798,0.0355136,-0.185119,-0.00458507,0.353914,0.0414915,0.000504806,1.63013,-28.6824,0.913405,25.1102,0.727535,2.82799,-0.0905302,-2.3295,-0.480076,-1.84114,0.112791,-0.322918,0.325919,0.336334,0.452557,0.318894,-1.03072,0.419337,-0.55556,-0.0538094,
-0.0363775,-0.033476,0.448767,-1.58866,-0.15349,-0.146734,0.519925,-0.049489,0.0310765,-0.0548885,-0.0309667,0.770958,0.359252,-0.0288441,0,0,0,0,0,0,0,-0.0136104,-0.0489729,0.470993,-1.57462,-0.0844559,1.47371,1.31617,-0.151798,0.0355136,-0.185119,-0.00458507,0.353914,0.0414915,0.000504806,1.63013,-28.6824,0.913405,25.1102,0.727535,2.82799,-0.0905302,-2.3295,-0.480076,-1.84114,0.112791,-0.322918,0.325919,0.336334,0.452557,0.318894,-1.03072,0.419337,-0.55556,-0.0538094,
-0.0365651,-0.0333613,0.448558,-1.58878,-0.150404,-0.145284,0.519809,-0.0469124,0.0286719,-0.0523006,-0.029964,0.771428,0.362393,-0.0288843,0,0,0,0,0,0,0,-0.0136104,-0.0489729,0.470993,-1.57462,-0.0844559,1.47371,1.31617,-0.151798,0.0355136,-0.185119,-0.00458507,0.353914,0.0414915,0.000504806,1.63013,-28.6824,0.913405,25.1102,0.727535,2.82799,-0.0905302,-1.78418,0.287509,-2.54457,-0.440436,0.201284,0.587474,0.59479,0.789867,0.597888,-1.1529,0.493244,-0.329509,-0.0578951,
-0.0441452,-0.0308246,0.440921,-1.59643,-0.290157,-0.288045,0.510626,-0.306972,0.130159,-0.318833,-0.143552,-1.2059,-0.787097,-0.0810026,0,0,0,0,0,0,0,-0.0136104,-0.0489729,0.470993,-1.57462,-0.0844559,1.47371,1.31617,-0.151798,0.0355136,-0.185119,-0.00458507,0.353914,0.0414915,0.000504806,1.63013,-28.6824,0.913405,25.1102,0.727535,2.82799,-0.0905302,-1.78418,0.287509,-2.54457,-0.440436,0.201284,0.587474,0.59479,0.789867,0.597888,-1.1529,0.493244,-0.329509,-0.0578951,
-0.0426147,-0.042704,0.44076,-1.58922,-0.190776,-0.0678573,0.520107,-0.153954,0.0231885,-0.160163,-0.0803503,-0.252338,0.78898,-0.0434014,0,0,0,0,0,0,0,-0.0136104,-0.0489729,0.470993,-1.57462,-0.0844559,1.47371,1.31617,-0.151798,0.0355136,-0.185119,-0.00458507,0.353914,0.0414915,0.000504806,1.63013,-28.6824,0.913405,25.1102,0.727535,2.82799,-0.0905302,-1.95416,0.86651,-2.19996,-0.674977,-0.210053,0.917561,0.924114,0.433681,0.929748,-0.838703,0.544645,-0.138284,-0.0588744,
-0.0432296,-0.0426114,0.44012,-1.58953,-0.191588,-0.0645518,0.519935,-0.153719,0.0231489,-0.159894,-0.0781554,-0.203054,0.826375,-0.0429166,0,0,0,0,0,0,0,-0.0185884,-0.0481391,0.465419,-1.57485,-0.075094,1.47387,1.31614,-0.160428,0.0244966,-0.164988,-0.0183633,0.28505,0.00333136,-9.86548e-05,1.90784,-28.9324,1.08797,26.106,0.6488,3.15209,-0.130813,-1.50024,1.51015,-1.83771,-0.97103,-0.150572,1.13138,1.14609,0.340005,1.13832,-0.59424,0.58622,0.0341646,-0.0628288,
-0.0438435,-0.0425193,0.439482,-1.58983,-0.192183,-0.0611268,0.519765,-0.153468,0.0230391,-0.159611,-0.0752352,-0.148685,0.856267,-0.042508,0,0,0,0,0,0,0,-0.0185884,-0.0481391,0.465419,-1.57485,-0.075094,1.47387,1.31614,-0.160428,0.0244966,-0.164988,-0.0183633,0.28505,0.00333136,-9.86548e-05,1.90784,-28.9324,1.08797,26.106,0.6488,3.15209,-0.130813,-1.62891,2.13801,-2.59118,-1.5013,0.104348,1.46341,1.47047,0.630277,1.49313,-0.895704,0.687242,0.0329571,-0.0633133,
-0.0444567,-0.042429,0.438844,-1.59012,-0.192536,-0.0576045,0.519596,-0.153316,0.0225779,-0.159429,-0.072305,-0.0881464,0.880562,-0.0421657,0,0,0,0,0,0,0,-0.0185884,-0.0481391,0.465419,-1.57485,-0.075094,1.47387,1.31614,-0.160428,0.0244966,-0.164988,-0.0183633,0.28505,0.00333136,-9.86548e-05,1.90784,-28.9324,1.08797,26.106,0.6488,3.15209,-0.130813,-2.08047,-0.614001,-2.76369,0.138638,-0.0433151,0.245343,0.241726,0.648949,0.251643,-1.10617,0.377201,-0.258027,-0.0768975,
-0.04507,-0.042342,0.438206,-1.5904,-0.192617,-0.0540029,0.519429,-0.153309,0.0217377,-0.159391,-0.0695782,-0.0204248,0.900416,-0.0418926,0,0,0,0,0,0,0,-0.0185884,-0.0481391,0.465419,-1.57485,-0.075094,1.47387,1.31614,-0.160428,0.0244966,-0.164988,-0.0183633,0.28505,0.00333136,-9.86548e-05,1.90784,-28.9324,1.08797,26.106,0.6488,3.15209,-0.130813,-2.08047,-0.614001,-2.76369,0.138638,-0.0433151,0.245343,0.241726,0.648949,0.251643,-1.10617,0.377201,-0.258027,-0.0768975,
-0.0456838,-0.0422598,0.437568,-1.59067,-0.192395,-0.0503362,0.519262,-0.153463,0.0205573,-0.159511,-0.0671227,0.0554873,0.916655,-0.0416956,0,0,0,0,0,0,0,-0.02454,-0.0476564,0.458959,-1.57691,-0.0773202,1.47689,1.31578,-0.10636,-0.00973687,-0.147138,-0.0984687,-0.15811,0.229462,-0.00436974,-1.97216,-28.1825,-2.63732,27.0026,0.0866663,4.963,-0.00996382,-0.194107,-2.16074,-2.33,0.875604,0.722362,-0.890172,-0.875777,0.791938,-0.910114,-0.850211,-0.290447,-0.0559464,-0.0781086,
-0.0462989,-0.0421834,0.436929,-1.59093,-0.191833,-0.0466165,0.519096,-0.153767,0.019089,-0.159779,-0.0649747,0.140469,0.929923,-0.0415919,0,0,0,0,0,0,0,-0.02454,-0.0476564,0.458959,-1.57691,-0.0773202,1.47689,1.31578,-0.10636,-0.00973687,-0.147138,-0.0984687,-0.15811,0.229462,-0.00436974,-1.97216,-28.1825,-2.63732,27.0026,0.0866663,4.963,-0.00996382,-0.194107,-2.16074,-2.33,0.875604,0.722362,-0.890172,-0.875777,0.791938,-0.910114,-0.850211,-0.290447,-0.0559464,-0.0781086,
-0.0469155,-0.0421139,0.436289,-1.59118,-0.190894,-0.0428536,0.518929,-0.154154,0.0173925,-0.16013,-0.0631726,0.234937,0.940726,-0.0415974,0,0,0,0,0,0,0,-0.02454,-0.0476564,0.458959,-1.57691,-0.0773202,1.47689,1.31578,-0.10636,-0.00973687,-0.147138,-0.0984687,-0.15811,0.229462,-0.00436974,-1.97216,-28.1825,-2.63732,27.0026,0.0866663,4.963,-0.00996382,-0.0325821,-2.21182,-2.41306,0.922435,0.527434,-0.919077,-0.91531,0.543798,-0.930596,-0.566083,-0.414945,0.274404,-0.0733409,
-0.0475333,-0.0420517,0.435647,-1.59143,-0.189541,-0.0390558,0.518762,-0.154447,0.0155498,-0.160398,-0.0617629,0.338202,0.94945,-0.0417448,0,0,0,0,0,0,0,-0.02454,-0.0476564,0.458959,-1.57691,-0.0773202,1.47689,1.31578,-0.10636,-0.00973687,-0.147138,-0.0984687,-0.15811,0.229462,-0.00436974,-1.97216,-28.1825,-2.63732,27.0026,0.0866663,4.963,-0.00996382,-0.0325821,-2.21182,-2.41306,0.922435,0.527434,-0.919077,-0.91531,0.543798,-0.930596,-0.566083,-0.414945,0.274404,-0.0733409,
-0.0481504,-0.0419969,0.435006,-1.59167,-0.187751,-0.0352305,0.518594,-0.154271,0.0137024,-0.160224,-0.0607723,0.447422,0.956325,-0.0421093,0,0,0,0,0,0,0,-0.02454,-0.0476564,0.458959,-1.57691,-0.0773202,1.47689,1.31578,-0.10636,-0.00973687,-0.147138,-0.0984687,-0.15811,0.229462,-0.00436974,-1.97216,-28.1825,-2.63732,27.0026,0.0866663,4.963,-0.00996382,-0.518629,-1.50602,-2.75504,0.425376,0.270505,-0.449785,-0.448711,0.442176,-0.447043,-0.603246,-0.338249,0.354384,-0.0831867,
-0.0487621,-0.0419483,0.43437,-1.59191,-0.185526,-0.0313852,0.518422,-0.152938,0.0121311,-0.158948,-0.0601023,0.556234,0.961339,-0.0428816,0,0,0,0,0,0,0,-0.02454,-0.0476564,0.458959,-1.57691,-0.0773202,1.47689,1.31578,-0.10636,-0.00973687,-0.147138,-0.0984687,-0.15811,0.229462,-0.00436974,-1.97216,-28.1825,-2.63732,27.0026,0.0866663,4.963,-0.00996382,0.723251,-2.19535,-2.65087,0.772217,0.960445,-1.04258,-1.03668,0.721736,-1.0492,-0.553254,-0.595811,0.449857,-0.0919975,
-0.0493594,-0.0419025,0.433749,-1.59215,-0.182913,-0.0275292,0.518244,-0.149321,0.0114543,-0.155475,-0.0591899,0.653374,0.963991,-0.0445581,0,0,0,0,0,0,0,-0.0283828,-0.0476924,0.454194,-1.58007,-0.0808409,1.48882,1.31567,-0.123745,-0.000867057,-0.148973,-0.107625,0.00618687,0.453293,-0.00114654,-0.829586,-28.3055,-1.56218,27.5739,-0.480961,4.79638,-0.0429228,0.723251,-2.19535,-2.65087,0.772217,0.960445,-1.04258,-1.03668,0.721736,-1.0492,-0.553254,-0.595811,0.449857,-0.0919975,
-0.049926,-0.0418496,0.433156,-1.59237,-0.180029,-0.0236793,0.518054,-0.141634,0.0132312,-0.14806,-0.055938,0.721054,0.962486,-0.0475827,0,0,0,0,0,0,0,-0.0283828,-0.0476924,0.454194,-1.58007,-0.0808409,1.48882,1.31567,-0.123745,-0.000867057,-0.148973,-0.107625,0.00618687,0.453293,-0.00114654,-0.829586,-28.3055,-1.56218,27.5739,-0.480961,4.79638,-0.0429228,1.91605,-2.17255,-2.17306,0.788315,1.37451,-1.28245,-1.27677,0.738919,-1.28963,-0.244459,-0.767348,0.683052,-0.0896213,
-0.0504247,-0.0417427,0.432632,-1.59248,-0.177129,-0.0201802,0.517898,-0.124679,0.0267113,-0.131101,-0.0275281,0.72495,0.874775,-0.0390748,0,0,0,0,0,0,0,-0.0283828,-0.0476924,0.454194,-1.58007,-0.0808409,1.48882,1.31567,-0.123745,-0.000867057,-0.148973,-0.107625,0.00618687,0.453293,-0.00114654,-0.829586,-28.3055,-1.56218,27.5739,-0.480961,4.79638,-0.0429228,1.91605,-2.17255,-2.17306,0.788315,1.37451,-1.28245,-1.27677,0.738919,-1.28963,-0.244459,-0.767348,0.683052,-0.0896213,
-0.0508766,-0.04163,0.432155,-1.59257,-0.174173,-0.0168925,0.517742,-0.112981,0.0281842,-0.119214,-0.0216997,0.738877,0.821925,-0.0389909,0,0,0,0,0,0,0,-0.0283828,-0.0476924,0.454194,-1.58007,-0.0808409,1.48882,1.31567,-0.123745,-0.000867057,-0.148973,-0.107625,0.00618687,0.453293,-0.00114654,-0.829586,-28.3055,-1.56218,27.5739,-0.480961,4.79638,-0.0429228,2.68571,-1.43577,-2.67416,0.226284,2.14733,-1.08886,-1.0783,1.24546,-1.0849,-0.485267,-0.692236,0.728545,-0.0956102,
-0.0512914,-0.0415241,0.431716,-1.59266,-0.171152,-0.0137558,0.517585,-0.103708,0.0264743,-0.109772,-0.0222624,0.755302,0.784161,-0.0392221,0,0,0,0,0,0,0,-0.0283828,-0.0476924,0.454194,-1.58007,-0.0808409,1.48882,1.31567,-0.123745,-0.000867057,-0.148973,-0.107625,0.00618687,0.453293,-0.00114654,-0.829586,-28.3055,-1.56218,27.5739,-0.480961,4.79638,-0.0429228,2.68571,-1.43577,-2.67416,0.226284,2.14733,-1.08886,-1.0783,1.24546,-1.0849,-0.485267,-0.692236,0.728545,-0.0956102,
-0.051675,-0.0414274,0.431309,-1.59276,-0.168065,-0.0107371,0.517427,-0.0958892,0.0241771,-0.10181,-0.0243827,0.771725,0.754687,-0.0393718,0,0,0,0,0,0,0,-0.0325195,-0.0477004,0.449713,-1.58281,-0.0776116,1.50496,1.31555,-0.138187,0.014774,-0.138027,-0.0737042,0.176656,0.557891,-0.00512094,-0.0202602,-29.456,-0.859972,27.55,0.617672,4.3789,-0.083206,2.26505,-2.06014,-2.91771,0.752727,1.98936,-1.30062,-1.29134,1.23785,-1.31004,-0.529252,-0.573669,0.717504,-0.0993967,
-0.0520315,-0.0413394,0.430929,-1.59286,-0.164916,-0.00781395,0.517269,-0.0891219,0.0220125,-0.0949208,-0.0266612,0.787273,0.730786,-0.0394748,0,0,0,0,0,0,0,-0.0325195,-0.0477004,0.449713,-1.58281,-0.0776116,1.50496,1.31555,-0.138187,0.014774,-0.138027,-0.0737042,0.176656,0.557891,-0.00512094,-0.0202602,-29.456,-0.859972,27.55,0.617672,4.3789,-0.083206,1.66205,-2.42483,-2.14206,1.34145,1.22378,-1.35315,-1.34303,0.6893,-1.38588,-0.10078,-0.418876,0.783988,-0.0986532,
-0.0523642,-0.0412588,0.430574,-1.59298,-0.16171,-0.00496955,0.517111,-0.0831941,0.0201422,-0.0888887,-0.0287288,0.801637,0.7111,-0.0395547,0,0,0,0,0,0,0,-0.0325195,-0.0477004,0.449713,-1.58281,-0.0776116,1.50496,1.31555,-0.138187,0.014774,-0.138027,-0.0737042,0.176656,0.557891,-0.00512094,-0.0202602,-29.456,-0.859972,27.55,0.617672,4.3789,-0.083206,1.66205,-2.42483,-2.14206,1.34145,1.22378,-1.35315,-1.34303,0.6893,-1.38588,-0.10078,-0.418876,0.783988,-0.0986532,
-0.0526761,-0.0411845,0.430239,-1.5931,-0.158451,-0.00219045,0.516953,-0.0779688,0.0185686,-0.0835737,-0.0305181,0.814722,0.694773,-0.0396213,0,0,0,0,0,0,0,-0.0325195,-0.0477004,0.449713,-1.58281,-0.0776116,1.50496,1.31555,-0.138187,0.014774,-0.138027,-0.0737042,0.176656,0.557891,-0.00512094,-0.0202602,-29.456,-0.859972,27.55,0.617672,4.3789,-0.083206,1.51773,-1.04304,-1.7589,0.61407,1.11365,-0.660682,-0.649824,0.618085,-0.681947,-0.0299274,-0.142114,0.745295,-0.100063,
-0.0529695,-0.0411155,0.429924,-1.59323,-0.155144,0.000534262,0.516794,-0.0733446,0.0172537,-0.0788716,-0.0320452,0.82653,0.681179,-0.0396785,0,0,0,0,0,0,0,-0.0325195,-0.0477004,0.449713,-1.58281,-0.0776116,1.50496,1.31555,-0.138187,0.014774,-0.138027,-0.0737042,0.176656,0.557891,-0.00512094,-0.0202602,-29.456,-0.859972,27.55,0.617672,4.3789,-0.083206,1.51773,-1.04304,-1.7589,0.61407,1.11365,-0.660682,-0.649824,0.618085,-0.681947,-0.0299274,-0.142114,0.745295,-0.100063,
-0.0532465,-0.0410509,0.429625,-1.59336,-0.151796,0.00321357,0.516635,-0.0692407,0.0161547,-0.0746998,-0.0333441,0.837104,0.669827,-0.0397285,0,0,0,0,0,0,0,-0.0325195,-0.0477004,0.449713,-1.58281,-0.0776116,1.50496,1.31555,-0.138187,0.014774,-0.138027,-0.0737042,0.176656,0.557891,-0.00512094,-0.0202602,-29.456,-0.859972,27.55,0.617672,4.3789,-0.083206,0.574857,-0.526842,-1.67807,0.456831,0.562638,-0.213762,-0.207721,0.381904,-0.231499,-0.0150413,0.12839,0.665192,-0.100395,
-0.0535088,-0.0409899,0.429341,-1.5935,-0.14841,0.00585484,0.516476,-0.0655907,0.0152329,-0.0709901,-0.0344495,0.846515,0.660318,-0.0397726,0,0,0,0,0,0,0,-0.0368303,-0.0471689,0.445064,-1.5848,-0.0705898,1.52324,1.31541,-0.131144,0.0339003,-0.151662,-0.0449873,0.231049,0.571966,-0.00762911,1.34845,-30.3526,0.512709,27.0541,1.36932,3.51006,-0.130813,0.574857,-0.526842,-1.67807,0.456831,0.562638,-0.213762,-0.207721,0.381904,-0.231499,-0.0150413,0.12839,0.665192,-0.100395,
-0.0537582,-0.0409321,0.42907,-1.59364,-0.144991,0.00846414,0.516317,-0.0623386,0.0144561,-0.0676854,-0.0353917,0.854842,0.652325,-0.0398116,0,0,0,0,0,0,0,-0.0368303,-0.0471689,0.445064,-1.5848,-0.0705898,1.52324,1.31541,-0.131144,0.0339003,-0.151662,-0.0449873,0.231049,0.571966,-0.00762911,1.34845,-30.3526,0.512709,27.0541,1.36932,3.51006,-0.130813,-0.721851,-0.510535,-2.12064,0.549954,-0.00588541,0.0721867,0.0749788,0.249594,0.0530805,-0.193987,0.386461,0.543437,-0.105596,
-0.0539959,-0.0408769,0.428811,-1.59379,-0.141542,0.0110465,0.516157,-0.0594368,0.0137975,-0.0647371,-0.0361964,0.86217,0.645579,-0.0398462,0,0,0,0,0,0,0,-0.0368303,-0.0471689,0.445064,-1.5848,-0.0705898,1.52324,1.31541,-0.131144,0.0339003,-0.151662,-0.0449873,0.231049,0.571966,-0.00762911,1.34845,-30.3526,0.512709,27.0541,1.36932,3.51006,-0.130813,-1.28439,0.00596399,-2.28754,0.308902,-0.132562,0.439187,0.441176,0.307863,0.424235,-0.360555,0.634675,0.409554,-0.108853,
-0.0461248,-0.0359002,0.437017,-1.59522,-0.269509,-0.23986,0.511898,-0.166469,0.067599,-0.174068,-0.121561,-1.19308,-0.145509,-0.0770886,0,0,0,0,0,0,0,-0.0368303,-0.0471689,0.445064,-1.5848,-0.0705898,1.52324,1.31541,-0.131144,0.0339003,-0.151662,-0.0449873,0.231049,0.571966,-0.00762911,1.34845,-30.3526,0.512709,27.0541,1.36932,3.51006,-0.130813,-1.28439,0.00596399,-2.28754,0.308902,-0.132562,0.439187,0.441176,0.307863,0.424235,-0.360555,0.634675,0.409554,-0.108853,
-0.0491242,-0.0419967,0.431909,-1.59626,-0.188129,-0.0461766,0.519169,-0.0421986,0.0249324,-0.0464998,-0.0673936,-0.87428,-0.0230322,-0.0491847,0,0,0,0,0,0,0,-0.0368303,-0.0471689,0.445064,-1.5848,-0.0705898,1.52324,1.31541,-0.131144,0.0339003,-0.151662,-0.0449873,0.231049,0.571966,-0.00762911,1.34845,-30.3526,0.512709,27.0541,1.36932,3.51006,-0.130813,-2.26608,0.817743,-2.47337,-0.2308,-0.444694,1.03545,1.03947,0.312041,1.03081,-0.645431,0.858735,0.138231,-0.113114,
-0.0492888,-0.0418995,0.431727,-1.59653,-0.191738,-0.0462343,0.518974,-0.0411497,0.0242996,-0.0454449,-0.0672801,-0.902219,-0.0144135,-0.0487189,0,0,0,0,0,0,0,-0.040843,-0.0462984,0.44022,-1.58576,-0.0639167,1.54316,1.31525,-0.123539,0.0237807,-0.147261,-0.0272672,0.21611,0.672321,-0.00124117,1.78089,-30.2535,0.988783,26.9034,1.58905,3.05962,-0.170181,-2.26608,0.817743,-2.47337,-0.2308,-0.444694,1.03545,1.03947,0.312041,1.03081,-0.645431,0.858735,0.138231,-0.113114,
-0.0494495,-0.0418051,0.431549,-1.5968,-0.195461,-0.0462537,0.518781,-0.0401604,0.0235897,-0.0444451,-0.0672591,-0.930747,-0.00485766,-0.04826,0,0,0,0,0,0,0,-0.040843,-0.0462984,0.44022,-1.58576,-0.0639167,1.54316,1.31525,-0.123539,0.0237807,-0.147261,-0.0272672,0.21611,0.672321,-0.00124117,1.78089,-30.2535,0.988783,26.9034,1.58905,3.05962,-0.170181,-1.94047,1.12551,-2.01434,-0.297058,-0.26424,1.11121,1.1167,0.385344,1.10255,-0.596417,0.978314,0.0501742,-0.115021,
-0.0496066,-0.041714,0.431375,-1.59707,-0.199297,-0.0462292,0.51859,-0.0392896,0.022783,-0.0435572,-0.0673707,-0.959054,0.00611926,-0.0478044,0,0,0,0,0,0,0,-0.040843,-0.0462984,0.44022,-1.58576,-0.0639167,1.54316,1.31525,-0.123539,0.0237807,-0.147261,-0.0272672,0.21611,0.672321,-0.00124117,1.78089,-30.2535,0.988783,26.9034,1.58905,3.05962,-0.170181,-1.94047,1.12551,-2.01434,-0.297058,-0.26424,1.11121,1.1167,0.385344,1.10255,-0.596417,0.978314,0.0501742,-0.115021,
-0.0497612,-0.0416266,0.431204,-1.59734,-0.203241,-0.0461525,0.5184,-0.0386304,0.0218521,-0.0428714,-0.067665,-0.985852,0.0191782,-0.0473411,0,0,0,0,0,0,0,-0.040843,-0.0462984,0.44022,-1.58576,-0.0639167,1.54316,1.31525,-0.123539,0.0237807,-0.147261,-0.0272672,0.21611,0.672321,-0.00124117,1.78089,-30.2535,0.988783,26.9034,1.58905,3.05962,-0.170181,-0.544962,2.80092,-2.11204,-1.2958,0.82435,1.64577,1.64995,0.990353,1.65854,-0.711656,1.2282,0.150493,-0.106671,
-0.0499145,-0.0415435,0.431034,-1.59761,-0.207278,-0.0460118,0.518213,-0.0383262,0.0207599,-0.0425267,-0.0681985,-1.00916,0.0351844,-0.0468552,0,0,0,0,0,0,0,-0.040843,-0.0462984,0.44022,-1.58576,-0.0639167,1.54316,1.31525,-0.123539,0.0237807,-0.147261,-0.0272672,0.21611,0.672321,-0.00124117,1.78089,-30.2535,0.988783,26.9034,1.58905,3.05962,-0.170181,0.391278,2.49821,-1.97648,-1.30485,1.42148,1.28703,1.29179,1.27027,1.30419,-0.795537,0.968641,0.0874516,-0.100158,
-0.0500688,-0.0414657,0.430863,-1.59789,-0.211381,-0.045791,0.518028,-0.0385916,0.0194574,-0.042732,-0.0690252,-1.02597,0.0552051,-0.0463219,0,0,0,0,0,0,0,-0.040843,-0.0462984,0.44022,-1.58576,-0.0639167,1.54316,1.31525,-0.123539,0.0237807,-0.147261,-0.0272672,0.21611,0.672321,-0.00124117,1.78089,-30.2535,0.988783,26.9034,1.58905,3.05962,-0.170181,0.391278,2.49821,-1.97648,-1.30485,1.42148,1.28703,1.29179,1.27027,1.30419,-0.795537,0.968641,0.0874516,-0.100158,
-0.0502278,-0.0413942,0.430687,-1.59817,-0.215509,-0.0454692,0.517845,-0.0397383,0.0178821,-0.0437913,-0.070176,-1.03188,0.0804408,-0.0456976,0,0,0,0,0,0,0,-0.0442264,-0.045663,0.436604,-1.58582,-0.0746155,1.55543,1.31491,-0.0897789,0.0229692,-0.0699521,0.0235087,-0.719359,0.231246,-0.0104949,1.88404,-31.0271,0.338148,24.039,-2.91809,1.5078,-0.0026396,-0.526695,0.364969,-1.96523,-0.741121,0.754827,0.379535,0.383247,0.902257,0.403905,-1.06416,0.0217978,-0.337513,-0.104005,
-0.0503966,-0.0413303,0.430503,-1.59845,-0.219591,-0.0450211,0.517665,-0.0422017,0.01596,-0.0461312,-0.0716194,-1.02057,0.112037,-0.0449189,0,0,0,0,0,0,0,-0.0442264,-0.045663,0.436604,-1.58582,-0.0746155,1.55543,1.31491,-0.0897789,0.0229692,-0.0699521,0.0235087,-0.719359,0.231246,-0.0104949,1.88404,-31.0271,0.338148,24.039,-2.91809,1.5078,-0.0026396,-0.526695,0.364969,-1.96523,-0.741121,0.754827,0.379535,0.383247,0.902257,0.403905,-1.06416,0.0217978,-0.337513,-0.104005,
-0.0505828,-0.0412759,0.430302,-1.59875,-0.223525,-0.044418,0.51749,-0.0465595,0.0136091,-0.0503201,-0.0732109,-0.983433,0.150769,-0.0438939,0,0,0,0,0,0,0,-0.0442264,-0.045663,0.436604,-1.58582,-0.0746155,1.55543,1.31491,-0.0897789,0.0229692,-0.0699521,0.0235087,-0.719359,0.231246,-0.0104949,1.88404,-31.0271,0.338148,24.039,-2.91809,1.5078,-0.0026396,-1.34719,-0.980357,-1.96313,-0.401621,0.185257,-0.165399,-0.181443,0.600465,-0.118325,-1.2455,-0.57897,-0.637839,-0.0960225,
-0.0507969,-0.0412329,0.430073,-1.59905,-0.227163,-0.0436311,0.51732,-0.053524,0.0107463,-0.0570651,-0.074652,-0.909396,0.196716,-0.0424992,0,0,0,0,0,0,0,-0.0442264,-0.045663,0.436604,-1.58582,-0.0746155,1.55543,1.31491,-0.0897789,0.0229692,-0.0699521,0.0235087,-0.719359,0.231246,-0.0104949,1.88404,-31.0271,0.338148,24.039,-2.91809,1.5078,-0.0026396,-1.59141,-0.00205841,-1.3656,-1.06303,-0.276077,0.36407,0.348507,0.205254,0.42434,-1.00716,-0.627321,-0.612103,-0.0998766,
-0.0510525,-0.0412037,0.429805,-1.59935,-0.230304,-0.0426345,0.517157,-0.0638928,0.00729524,-0.067168,-0.0755029,-0.785357,0.249167,-0.0406071,0,0,0,0,0,0,0,-0.0442264,-0.045663,0.436604,-1.58582,-0.0746155,1.55543,1.31491,-0.0897789,0.0229692,-0.0699521,0.0235087,-0.719359,0.231246,-0.0104949,1.88404,-31.0271,0.338148,24.039,-2.91809,1.5078,-0.0026396,-1.59141,-0.00205841,-1.3656,-1.06303,-0.276077,0.36407,0.348507,0.205254,0.42434,-1.00716,-0.627321,-0.612103,-0.0998766,
-0.0513664,-0.0411909,0.429479,-1.59965,-0.232693,-0.041407,0.517004,-0.0784642,0.00321247,-0.0814447,-0.0752273,-0.597158,0.306866,-0.0383679,0,0,0,0,0,0,0,-0.0457627,-0.0451006,0.43447,-1.58591,-0.0993651,1.56203,1.3148,-0.0482443,0.00145614,-0.0617022,-0.0201815,-0.926162,0.185145,-0.0024017,0.384403,-29.9519,-0.33629,26.5543,-1.26923,2.11114,-0.0566557,-0.69661,-0.969157,-0.790917,-0.58759,0.112749,-0.331699,-0.333512,0.302446,-0.290812,-0.93586,-0.968054,-0.720172,-0.104061,
-0.0517584,-0.0411965,0.429076,-1.59994,-0.234013,-0.0399358,0.516845,-0.098005,-0.00141243,-0.100659,-0.0730495,-0.330091,0.367798,-0.0397307,0,0,0,0,0,0,0,-0.0457627,-0.0451006,0.43447,-1.58591,-0.0993651,1.56203,1.3148,-0.0482443,0.00145614,-0.0617022,-0.0201815,-0.926162,0.185145,-0.0024017,0.384403,-29.9519,-0.33629,26.5543,-1.26923,2.11114,-0.0566557,-0.69661,-0.969157,-0.790917,-0.58759,0.112749,-0.331699,-0.333512,0.302446,-0.290812,-0.93586,-0.968054,-0.720172,-0.104061,
-0.0521874,-0.0411977,0.428632,-1.6002,-0.234539,-0.0382973,0.51669,-0.10726,-0.000287506,-0.111005,-0.0654238,-0.131629,0.409627,-0.0387671,0,0,0,0,0,0,0,-0.0457627,-0.0451006,0.43447,-1.58591,-0.0993651,1.56203,1.3148,-0.0482443,0.00145614,-0.0617022,-0.0201815,-0.926162,0.185145,-0.0024017,0.384403,-29.9519,-0.33629,26.5543,-1.26923,2.11114,-0.0566557,0.311654,-3.68984,-0.921788,0.833416,0.862714,-1.93806,-1.9294,0.739582,-1.92814,-1.17063,-1.53471,-0.924489,-0.102135,
-0.0526307,-0.0411885,0.428171,-1.60044,-0.234465,-0.0365303,0.516537,-0.110827,0.00227874,-0.115332,-0.0583552,0.0185018,0.441737,-0.0380699,0,0,0,0,0,0,0,-0.0457627,-0.0451006,0.43447,-1.58591,-0.0993651,1.56203,1.3148,-0.0482443,0.00145614,-0.0617022,-0.0201815,-0.926162,0.185145,-0.0024017,0.384403,-29.9519,-0.33629,26.5543,-1.26923,2.11114,-0.0566557,0.311654,-3.68984,-0.921788,0.833416,0.862714,-1.93806,-1.9294,0.739582,-1.92814,-1.17063,-1.53471,-0.924489,-0.102135,
-0.0530741,-0.0411687,0.427708,-1.60065,-0.233931,-0.0346599,0.516387,-0.110834,0.00495885,-0.115835,-0.053006,0.133651,0.467602,-0.0376431,0,0,0,0,0,0,0,-0.0457627,-0.0451006,0.43447,-1.58591,-0.0993651,1.56203,1.3148,-0.0482443,0.00145614,-0.0617022,-0.0201815,-0.926162,0.185145,-0.0024017,0.384403,-29.9519,-0.33629,26.5543,-1.26923,2.11114,-0.0566557,-0.298681,-4.66478,-1.1854,1.37692,0.486061,-2.30543,-2.29256,0.576968,-2.30927,-1.21219,-1.67441,-0.955374,-0.102995,
-0.0535085,-0.0411393,0.427252,-1.60085,-0.233039,-0.0327047,0.516237,-0.108614,0.00735616,-0.113929,-0.0492525,0.223082,0.488818,-0.0373928,0,0,0,0,0,0,0,-0.0474775,-0.0447252,0.432986,-1.58656,-0.12981,1.57153,1.31474,-0.0511106,-0.000302529,-0.0358593,-0.0221122,-0.38335,0.25735,0.00103108,-1.00811,-30.1027,-1.8637,26.2805,-0.50568,2.68792,-0.163772,-0.541743,-4.83567,-2.0145,1.43638,0.647868,-2.32317,-2.30929,0.819917,-2.32743,-1.47004,-1.60282,-0.922499,-0.111147,
-0.0539287,-0.0411018,0.42681,-1.60103,-0.231865,-0.0306793,0.516088,-0.105051,0.00937201,-0.110553,-0.0467198,0.293389,0.506332,-0.0372567,0,0,0,0,0,0,0,-0.0474775,-0.0447252,0.432986,-1.58656,-0.12981,1.57153,1.31474,-0.0511106,-0.000302529,-0.0358593,-0.0221122,-0.38335,0.25735,0.00103108,-1.00811,-30.1027,-1.8637,26.2805,-0.50568,2.68792,-0.163772,-0.541743,-4.83567,-2.0145,1.43638,0.647868,-2.32317,-2.30929,0.819917,-2.32743,-1.47004,-1.60282,-0.922499,-0.111147,
-0.0543317,-0.0410578,0.426384,-1.60121,-0.230468,-0.0285961,0.51594,-0.100738,0.011006,-0.106342,-0.0450579,0.349328,0.520819,-0.0371951,0,0,0,0,0,0,0,-0.0474775,-0.0447252,0.432986,-1.58656,-0.12981,1.57153,1.31474,-0.0511106,-0.000302529,-0.0358593,-0.0221122,-0.38335,0.25735,0.00103108,-1.00811,-30.1027,-1.8637,26.2805,-0.50568,2.68792,-0.163772,-0.652738,-5.6428,-1.38127,2.17855,0.190759,-2.69015,-2.67211,0.423246,-2.71951,-1.08169,-1.61931,-0.815496,-0.120088,
-0.054716,-0.0410086,0.425977,-1.60139,-0.22889,-0.0264648,0.515791,-0.0960716,0.0122906,-0.101723,-0.043996,0.394361,0.53281,-0.0371817,0,0,0,0,0,0,0,-0.0474775,-0.0447252,0.432986,-1.58656,-0.12981,1.57153,1.31474,-0.0511106,-0.000302529,-0.0358593,-0.0221122,-0.38335,0.25735,0.00103108,-1.00811,-30.1027,-1.8637,26.2805,-0.50568,2.68792,-0.163772,-0.652738,-5.6428,-1.38127,2.17855,0.190759,-2.69015,-2.67211,0.423246,-2.71951,-1.08169,-1.61931,-0.815496,-0.120088,
-0.0550812,-0.0409555,0.42559,-1.60156,-0.227166,-0.0242939,0.515642,-0.091317,0.0132685,-0.0969774,-0.0433386,0.431023,0.542735,-0.0371985,0,0,0,0,0,0,0,-0.0474775,-0.0447252,0.432986,-1.58656,-0.12981,1.57153,1.31474,-0.0511106,-0.000302529,-0.0358593,-0.0221122,-0.38335,0.25735,0.00103108,-1.00811,-30.1027,-1.8637,26.2805,-0.50568,2.68792,-0.163772,-0.0858009,-5.5303,-0.514271,2.37682,0.181779,-2.74186,-2.71893,0.237274,-2.78612,-0.688842,-1.52646,-0.7011,-0.128292,
-0.0554278,-0.0408996,0.42522,-1.60173,-0.225321,-0.0220901,0.515493,-0.0866446,0.0139836,-0.0922912,-0.0429484,0.461187,0.550949,-0.0372337,0,0,0,0,0,0,0,-0.0474775,-0.0447252,0.432986,-1.58656,-0.12981,1.57153,1.31474,-0.0511106,-0.000302529,-0.0358593,-0.0221122,-0.38335,0.25735,0.00103108,-1.00811,-30.1027,-1.8637,26.2805,-0.50568,2.68792,-0.163772,-0.0858009,-5.5303,-0.514271,2.37682,0.181779,-2.74186,-2.71893,0.237274,-2.78612,-0.688842,-1.52646,-0.7011,-0.128292,
-0.0557564,-0.0408417,0.424869,-1.6019,-0.223376,-0.0198591,0.515344,-0.0821611,0.014478,-0.0877801,-0.0427309,0.486243,0.557743,-0.0372789,0,0,0,0,0,0,0,-0.0491405,-0.0448601,0.431059,-1.58752,-0.132459,1.58081,1.31467,-0.0580725,-0.000751321,-0.07214,-0.0115007,-0.00356457,0.309657,-0.00290241,-0.0718349,-29.0791,-0.812364,25.9552,0.6488,2.94701,-0.0703886,0.615318,-4.43657,-1.29513,1.68237,1.20264,-2.333,-2.31017,1.00788,-2.36081,-1.1425,-1.22313,-0.754167,-0.133845,
-0.0560682,-0.0407825,0.424535,-1.60208,-0.221347,-0.0176057,0.515195,-0.0779289,0.0147899,-0.0835127,-0.042622,0.507236,0.563355,-0.0373288,0,0,0,0,0,0,0,-0.0491405,-0.0448601,0.431059,-1.58752,-0.132459,1.58081,1.31467,-0.0580725,-0.000751321,-0.07214,-0.0115007,-0.00356457,0.309657,-0.00290241,-0.0718349,-29.0791,-0.812364,25.9552,0.6488,2.94701,-0.0703886,-0.875811,-3.28738,-1.41706,1.2369,0.238036,-1.42862,-1.40855,0.53756,-1.45259,-1.01273,-0.786181,-0.656752,-0.132237,
-0.0603038,-0.0312413,0.420096,-1.60088,-0.24956,-0.21433,0.511663,-0.142012,0.110545,-0.150464,-0.114047,-1.19279,-0.794392,-0.0847553,0,0,0,0,0,0,0,-0.0491405,-0.0448601,0.431059,-1.58752,-0.132459,1.58081,1.31467,-0.0580725,-0.000751321,-0.07214,-0.0115007,-0.00356457,0.309657,-0.00290241,-0.0718349,-29.0791,-0.812364,25.9552,0.6488,2.94701,-0.0703886,-0.875811,-3.28738,-1.41706,1.2369,0.238036,-1.42862,-1.40855,0.53756,-1.45259,-1.01273,-0.786181,-0.656752,-0.132237,
-0.0664378,-0.0355989,0.412644,-1.59836,-0.210031,-0.0321755,0.518657,-0.115756,0.0651195,-0.122656,-0.0659687,0.0287309,-0.254851,-0.0494104,0,0,0,0,0,0,0,-0.0491405,-0.0448601,0.431059,-1.58752,-0.132459,1.58081,1.31467,-0.0580725,-0.000751321,-0.07214,-0.0115007,-0.00356457,0.309657,-0.00290241,-0.0718349,-29.0791,-0.812364,25.9552,0.6488,2.94701,-0.0703886,-1.59223,-1.88831,-0.758803,0.869484,-0.701142,-0.523839,-0.500763,-0.157391,-0.556994,-0.402871,-0.313651,-0.301394,-0.134973,
-0.0668984,-0.0353426,0.412156,-1.59863,-0.20983,-0.0332332,0.518462,-0.115147,0.0640612,-0.122041,-0.0653856,0.0503429,-0.264417,-0.0489509,0,0,0,0,0,0,0,-0.0491405,-0.0448601,0.431059,-1.58752,-0.132459,1.58081,1.31467,-0.0580725,-0.000751321,-0.07214,-0.0115007,-0.00356457,0.309657,-0.00290241,-0.0718349,-29.0791,-0.812364,25.9552,0.6488,2.94701,-0.0703886,-1.59223,-1.88831,-0.758803,0.869484,-0.701142,-0.523839,-0.500763,-0.157391,-0.556994,-0.402871,-0.313651,-0.301394,-0.134973,
-0.0673568,-0.035091,0.41167,-1.59889,-0.209535,-0.0343303,0.518268,-0.1146,0.0629162,-0.121488,-0.06479,0.0737,-0.274272,-0.0485023,0,0,0,0,0,0,0,-0.0511974,-0.0447949,0.428542,-1.58817,-0.133493,1.58719,1.31459,-0.0729755,0.00172723,-0.0944325,-0.00401444,-0.168519,0.00367107,-0.0040722,-0.67883,-28.5079,-1.38762,24.2612,0.392452,2.12487,-0.258072,-0.220582,0.697841,-0.935161,-0.354392,0.147194,0.582178,0.614097,0.214907,0.556743,-0.158617,0.278771,0.228466,-0.132545,
-0.0678133,-0.0348443,0.411186,-1.59914,-0.209139,-0.0354675,0.518075,-0.11412,0.0616757,-0.121001,-0.0641886,0.0990855,-0.284312,-0.0480679,0,0,0,0,0,0,0,-0.0511974,-0.0447949,0.428542,-1.58817,-0.133493,1.58719,1.31459,-0.0729755,0.00172723,-0.0944325,-0.00401444,-0.168519,0.00367107,-0.0040722,-0.67883,-28.5079,-1.38762,24.2612,0.392452,2.12487,-0.258072,-0.475504,3.18496,-1.72143,-1.76513,0.34079,1.9394,1.96847,0.462555,1.94219,-0.339668,0.839142,0.426781,-0.13731,
-0.0682681,-0.0346029,0.410703,-1.5994,-0.208631,-0.0366451,0.517885,-0.113709,0.0603295,-0.120584,-0.063593,0.126816,-0.294382,-0.0476508,0,0,0,0,0,0,0,-0.0511974,-0.0447949,0.428542,-1.58817,-0.133493,1.58719,1.31459,-0.0729755,0.00172723,-0.0944325,-0.00401444,-0.168519,0.00367107,-0.0040722,-0.67883,-28.5079,-1.38762,24.2612,0.392452,2.12487,-0.258072,-0.475504,3.18496,-1.72143,-1.76513,0.34079,1.9394,1.96847,0.462555,1.94219,-0.339668,0.839142,0.426781,-0.13731,
-0.0687216,-0.0343675,0.410222,-1.59965,-0.208003,-0.0378621,0.517696,-0.113373,0.0588655,-0.120241,-0.0630206,0.157242,-0.30425,-0.0472579,0,0,0,0,0,0,0,-0.0511974,-0.0447949,0.428542,-1.58817,-0.133493,1.58719,1.31459,-0.0729755,0.00172723,-0.0944325,-0.00401444,-0.168519,0.00367107,-0.0040722,-0.67883,-28.5079,-1.38762,24.2612,0.392452,2.12487,-0.258072,-1.01521,2.57891,-2.4849,-1.49374,0.658649,1.7002,1.72323,0.962566,1.70709,-0.960415,0.938216,0.0282698,-0.137242,
-0.0691741,-0.0341384,0.409742,-1.5999,-0.20724,-0.0391164,0.517508,-0.11312,0.0572706,-0.11998,-0.0624992,0.190749,-0.313574,-0.0468904,0,0,0,0,0,0,0,-0.0511974,-0.0447949,0.428542,-1.58817,-0.133493,1.58719,1.31459,-0.0729755,0.00172723,-0.0944325,-0.00401444,-0.168519,0.00367107,-0.0040722,-0.67883,-28.5079,-1.38762,24.2612,0.392452,2.12487,-0.258072,-1.01521,2.57891,-2.4849,-1.49374,0.658649,1.7002,1.72323,0.962566,1.70709,-0.960415,0.938216,0.0282698,-0.137242,
-0.0696259,-0.0339163,0.409263,-1.60015,-0.206329,-0.0404038,0.517322,-0.112956,0.0555301,-0.119808,-0.0620698,0.227742,-0.321856,-0.0465581,0,0,0,0,0,0,0,-0.0511974,-0.0447949,0.428542,-1.58817,-0.133493,1.58719,1.31459,-0.0729755,0.00172723,-0.0944325,-0.00401444,-0.168519,0.00367107,-0.0040722,-0.67883,-28.5079,-1.38762,24.2612,0.392452,2.12487,-0.258072,-0.29659,2.14243,-2.71792,-1.29759,1.41303,1.31222,1.34326,1.47912,1.31142,-1.25,0.895861,-0.130194,-0.13543,
-0.0700775,-0.0337018,0.408784,-1.60039,-0.205254,-0.0417173,0.517137,-0.112889,0.0536286,-0.119732,-0.0617928,0.26863,-0.328372,-0.0462679,0,0,0,0,0,0,0,-0.0536155,-0.0449975,0.425397,-1.58816,-0.14213,1.58525,1.31451,-0.0813712,-0.0101114,-0.105105,-0.0144722,-0.250995,-0.109054,-0.000132704,-0.627255,-27.2344,-1.28844,25.5069,1.87011,3.51006,-0.190323,0.0649772,2.34409,-1.91524,-1.12829,1.21678,1.36191,1.39202,1.17517,1.35035,-0.795056,1.0173,0.0568056,-0.134581,
-0.0705292,-0.0334956,0.408305,-1.60064,-0.203999,-0.0430456,0.516953,-0.11292,0.0515521,-0.119753,-0.0617545,0.313764,-0.332088,-0.0460353,0,0,0,0,0,0,0,-0.0536155,-0.0449975,0.425397,-1.58816,-0.14213,1.58525,1.31451,-0.0813712,-0.0101114,-0.105105,-0.0144722,-0.250995,-0.109054,-0.000132704,-0.627255,-27.2344,-1.28844,25.5069,1.87011,3.51006,-0.190323,0.0649772,2.34409,-1.91524,-1.12829,1.21678,1.36191,1.39202,1.17517,1.35035,-0.795056,1.0173,0.0568056,-0.134581,
-0.0709813,-0.0332984,0.407826,-1.60089,-0.202546,-0.0443719,0.516769,-0.113035,0.0492905,-0.11986,-0.0620742,0.363329,-0.331559,-0.0458802,0,0,0,0,0,0,0,-0.0536155,-0.0449975,0.425397,-1.58816,-0.14213,1.58525,1.31451,-0.0813712,-0.0101114,-0.105105,-0.0144722,-0.250995,-0.109054,-0.000132704,-0.627255,-27.2344,-1.28844,25.5069,1.87011,3.51006,-0.190323,-0.151184,2.58983,-1.51734,-1.29291,0.950113,1.51441,1.54083,0.975454,1.50957,-0.70648,0.991581,-0.0163247,-0.140595,
-0.0714341,-0.033111,0.407346,-1.60114,-0.200877,-0.0456711,0.516586,-0.113192,0.0468451,-0.120011,-0.0629088,0.417122,-0.324819,-0.0458266,0,0,0,0,0,0,0,-0.0536155,-0.0449975,0.425397,-1.58816,-0.14213,1.58525,1.31451,-0.0813712,-0.0101114,-0.105105,-0.0144722,-0.250995,-0.109054,-0.000132704,-0.627255,-27.2344,-1.28844,25.5069,1.87011,3.51006,-0.190323,-0.151184,2.58983,-1.51734,-1.29291,0.950113,1.51441,1.54083,0.975454,1.50957,-0.70648,0.991581,-0.0163247,-0.140595,
-0.0718872,-0.0329341,0.406865,-1.6014,-0.19898,-0.0469083,0.516402,-0.113284,0.0442409,-0.120101,-0.0644507,0.474172,-0.309302,-0.0459195,0,0,0,0,0,0,0,-0.0536155,-0.0449975,0.425397,-1.58816,-0.14213,1.58525,1.31451,-0.0813712,-0.0101114,-0.105105,-0.0144722,-0.250995,-0.109054,-0.000132704,-0.627255,-27.2344,-1.28844,25.5069,1.87011,3.51006,-0.190323,-0.0716923,3.09934,-1.59512,-1.78775,1.21087,1.72006,1.74251,1.1901,1.73408,-0.952879,0.954158,-0.209787,-0.139989,
-0.0723396,-0.0327679,0.406386,-1.60167,-0.196852,-0.0480357,0.516217,-0.113089,0.041546,-0.119914,-0.0669106,0.532144,-0.281852,-0.0462163,0,0,0,0,0,0,0,-0.056906,-0.045101,0.421573,-1.58817,-0.145848,1.58022,1.31446,-0.122418,-0.000839156,-0.136183,0.00129366,-0.0161858,-0.162692,0.000136656,0.309024,-28.2063,-0.360094,25.3601,0.880428,2.48284,-0.123489,-0.0716923,3.09934,-1.59512,-1.78775,1.21087,1.72006,1.74251,1.1901,1.73408,-0.952879,0.954158,-0.209787,-0.139989,
-0.0727884,-0.0326123,0.405909,-1.60195,-0.194505,-0.0489914,0.51603,-0.112218,0.038896,-0.119065,-0.0704768,0.58663,-0.238902,-0.0468124,0,0,0,0,0,0,0,-0.056906,-0.045101,0.421573,-1.58817,-0.145848,1.58022,1.31446,-0.122418,-0.000839156,-0.136183,0.00129366,-0.0161858,-0.162692,0.000136656,0.309024,-28.2063,-0.360094,25.3601,0.880428,2.48284,-0.123489,-1.05932,3.60395,-1.19671,-2.1351,0.468925,2.13412,2.15863,0.765978,2.15267,-0.890991,0.972379,-0.367504,-0.138314,
-0.0732287,-0.0324662,0.405442,-1.60225,-0.191983,-0.0496991,0.515839,-0.110072,0.0365178,-0.116958,-0.0752358,0.63066,-0.176925,-0.0478188,0,0,0,0,0,0,0,-0.056906,-0.045101,0.421573,-1.58817,-0.145848,1.58022,1.31446,-0.122418,-0.000839156,-0.136183,0.00129366,-0.0161858,-0.162692,0.000136656,0.309024,-28.2063,-0.360094,25.3601,0.880428,2.48284,-0.123489,-0.504419,3.07,-1.21855,-1.8417,0.997624,1.73813,1.77123,1.11535,1.74443,-1.07316,0.911235,-0.516584,-0.144165,
-0.0736522,-0.0323272,0.40499,-1.60257,-0.189363,-0.0500719,0.515643,-0.105858,0.0347571,-0.112797,-0.0810297,0.65487,-0.0932046,-0.0489589,0,0,0,0,0,0,0,-0.056906,-0.045101,0.421573,-1.58817,-0.145848,1.58022,1.31446,-0.122418,-0.000839156,-0.136183,0.00129366,-0.0161858,-0.162692,0.000136656,0.309024,-28.2063,-0.360094,25.3601,0.880428,2.48284,-0.123489,-0.504419,3.07,-1.21855,-1.8417,0.997624,1.73813,1.77123,1.11535,1.74443,-1.07316,0.911235,-0.516584,-0.144165,
-0.0740465,-0.0321904,0.404568,-1.60292,-0.186772,-0.0500201,0.51547,-0.0985736,0.0342043,-0.105585,-0.0871244,0.647714,0.012939,-0.0433745,0,0,0,0,0,0,0,-0.056906,-0.045101,0.421573,-1.58817,-0.145848,1.58022,1.31446,-0.122418,-0.000839156,-0.136183,0.00129366,-0.0161858,-0.162692,0.000136656,0.309024,-28.2063,-0.360094,25.3601,0.880428,2.48284,-0.123489,-0.177496,1.04776,-0.235238,-0.50784,0.741353,0.62336,0.657094,0.789886,0.599819,-0.715764,0.562278,-0.587239,-0.140249,
-0.0744141,-0.0320468,0.404173,-1.60327,-0.1842,-0.049641,0.515297,-0.0919146,0.035887,-0.0987618,-0.08584,0.643214,0.0947716,-0.0431841,0,0,0,0,0,0,0,-0.056906,-0.045101,0.421573,-1.58817,-0.145848,1.58022,1.31446,-0.122418,-0.000839156,-0.136183,0.00129366,-0.0161858,-0.162692,0.000136656,0.309024,-28.2063,-0.360094,25.3601,0.880428,2.48284,-0.123489,-0.177496,1.04776,-0.235238,-0.50784,0.741353,0.62336,0.657094,0.789886,0.599819,-0.715764,0.562278,-0.587239,-0.140249,
-0.0747585,-0.0318971,0.403802,-1.6036,-0.181634,-0.0489976,0.515123,-0.0860876,0.0374398,-0.0928176,-0.0824875,0.641468,0.160868,-0.0433953,0,0,0,0,0,0,0,-0.0610468,-0.0449765,0.417192,-1.58837,-0.143764,1.5755,1.31441,-0.124184,0.00451723,-0.127692,-0.0133648,0.189912,-0.126514,-0.00126884,0.384403,-29.7536,-0.213304,26.106,-0.212711,2.40319,-0.157364,-0.0605231,-0.208046,-0.163589,0.0792298,0.794175,-0.0548849,-0.0279375,0.813935,-0.0786377,-0.791056,0.219836,-0.727654,-0.145687,
