PerkyPenguin/Analysis-on-Approximated-Derivatives/Code_and_Data/PaperData/Real_Robot/Scene_1/contact_change/12/trajectory.csv
Commanded Joint 0 Position,Commanded Joint 1 Position,Commanded Joint 2 Position,Commanded Joint 3 Position,Commanded Joint 4 Position,Commanded Joint 5 Position,Commanded Joint 6 Position,Commanded Joint 0 Velocity,Commanded Joint 1 Velocity,Commanded Joint 2 Velocity,Commanded Joint 3 Velocity,Commanded Joint 4 Velocity,Commanded Joint 5 Velocity,Commanded Joint 6 Velocity,Commanded Joint 0 Torque,Commanded Joint 1 Torque,Commanded Joint 2 Torque,Commanded Joint 3 Torque,Commanded Joint 4 Torque,Commanded Joint 5 Torque,Commanded Joint 6 Torque,Actual Joint 0 Position,Actual Joint 1 Position,Actual Joint 2 Position,Actual Joint 3 Position,Actual Joint 4 Position,Actual Joint 5 Position,Actual Joint 6 Position,Actual Joint 0 Velocity,Actual Joint 1 Velocity,Actual Joint 2 Velocity,Actual Joint 3 Velocity,Actual Joint 4 Velocity,Actual Joint 5 Velocity,Actual Joint 6 Velocity,Actual Joint 0 Torque,Actual Joint 1 Torque,Actual Joint 2 Torque,Actual Joint 3 Torque,Actual Joint 4 Torque,Actual Joint 5 Torque,Actual Joint 6 Torque,EE ext force 0,EE ext force 1,EE ext force 2,EE ext force 3,EE ext force 4,EE ext force 5,joint ext torque 0,joint ext torque 1,joint ext torque 2,joint ext torque 3,joint ext torque 4,joint ext torque 5,joint ext torque 6,
0.0118521,-0.195477,-0.333324,-1.66075,-0.0919261,-0.0922575,-0.383138,-0.00234948,0.0162661,-0.0122568,-0.150335,0.00515973,0.200664,-0.00215211,0,0,0,0,0,0,0,0.0118574,-0.195485,-0.333227,-1.65924,-0.0919742,1.47653,0.402285,-0.000377938,0.000365431,-0.000137517,0.00193176,0.00299455,-0.0014954,0.000158035,-0.0440639,-25.5602,1.88936,25.856,0.410763,3.00652,-0.0301054,-1.03765,-0.0972804,-0.408021,0.0934583,-0.309696,-0.184922,-0.0942794,0.0291671,-0.270469,-0.343613,-0.165472,-0.315423,-0.0385671,
0.0118376,-0.195337,-0.333384,-1.66139,-0.091909,-0.0914267,-0.383146,-0.00361134,0.0348859,-0.0151538,-0.159496,0.00427168,0.207717,-0.00204651,0,0,0,0,0,0,0,0.0118574,-0.195485,-0.333227,-1.65924,-0.0919742,1.47653,0.402285,-0.000377938,0.000365431,-0.000137517,0.00193176,0.00299455,-0.0014954,0.000158035,-0.0440639,-25.5602,1.88936,25.856,0.410763,3.00652,-0.0301054,-1.03765,-0.0972804,-0.408021,0.0934583,-0.309696,-0.184922,-0.0942794,0.0291671,-0.270469,-0.343613,-0.165472,-0.315423,-0.0385671,
0.0118572,-0.19549,-0.333227,-1.65923,-0.09195,-0.0942714,-0.383113,4.29943e-05,-0.000378328,2.12897e-05,0.000223489,0.00100597,0.000155739,2.27646e-06,0,0,0,0,0,0,0,0.0118574,-0.195485,-0.333227,-1.65924,-0.0919742,1.47653,0.402285,-0.000377938,0.000365431,-0.000137517,0.00193176,0.00299455,-0.0014954,0.000158035,-0.0440639,-25.5602,1.88936,25.856,0.410763,3.00652,-0.0301054,-0.972502,-0.0581433,-0.336398,0.0585277,-0.29184,-0.156469,-0.0671329,0.0256645,-0.237197,-0.32034,-0.156961,-0.311259,-0.0379522,
0.0118574,-0.195492,-0.333227,-1.65923,-0.0919467,-0.0942708,-0.383113,5.31657e-05,-0.000363722,3.15736e-05,0.000196701,0.000802081,0.000148614,9.56652e-07,0,0,0,0,0,0,0,0.0118574,-0.195485,-0.333227,-1.65924,-0.0919742,1.47653,0.402285,-0.000377938,0.000365431,-0.000137517,0.00193176,0.00299455,-0.0014954,0.000158035,-0.0440639,-25.5602,1.88936,25.856,0.410763,3.00652,-0.0301054,-0.972502,-0.0581433,-0.336398,0.0585277,-0.29184,-0.156469,-0.0671329,0.0256645,-0.237197,-0.32034,-0.156961,-0.311259,-0.0379522,
0.0118577,-0.195493,-0.333227,-1.65923,-0.0919442,-0.0942702,-0.383113,5.79652e-05,-0.000347838,3.57272e-05,0.000180358,0.000642876,0.00013049,2.87134e-07,0,0,0,0,0,0,0,0.0118574,-0.195485,-0.333227,-1.65924,-0.0919742,1.47653,0.402285,-0.000377938,0.000365431,-0.000137517,0.00193176,0.00299455,-0.0014954,0.000158035,-0.0440639,-25.5602,1.88936,25.856,0.410763,3.00652,-0.0301054,-1.30298,0.121893,-0.443745,-0.0681195,-0.519097,-0.13274,-0.0421268,-0.0908012,-0.20178,-0.308007,-0.156047,-0.300551,-0.0383955,
0.0118579,-0.195494,-0.333227,-1.65923,-0.0919421,-0.0942698,-0.383113,5.94755e-05,-0.000333533,3.59954e-05,0.000168224,0.000516397,0.000108109,-5.12835e-08,0,0,0,0,0,0,0,0.0118578,-0.195544,-0.33322,-1.65947,-0.0919857,1.47682,0.402285,-0.000995646,-0.00944613,6.65238e-05,-0.0223397,-0.000784725,0.035601,-6.56957e-05,-0.0202602,-24.7389,1.78621,24.0866,0.514218,2.8875,-0.0301054,-1.30298,0.121893,-0.443745,-0.0681195,-0.519097,-0.13274,-0.0421268,-0.0908012,-0.20178,-0.308007,-0.156047,-0.300551,-0.0383955,
0.0118581,-0.195496,-0.333227,-1.65923,-0.0919404,-0.0942695,-0.383113,5.89157e-05,-0.000321474,3.3816e-05,0.000158187,0.00041447,8.39622e-05,-2.01913e-07,0,0,0,0,0,0,0,0.0118578,-0.195544,-0.33322,-1.65947,-0.0919857,1.47682,0.402285,-0.000995646,-0.00944613,6.65238e-05,-0.0223397,-0.000784725,0.035601,-6.56957e-05,-0.0202602,-24.7389,1.78621,24.0866,0.514218,2.8875,-0.0301054,-2.11974,0.169186,-1.39106,0.0256537,-0.790692,-0.254783,-0.157342,-0.0919414,-0.34861,-0.570866,-0.174155,-0.310083,-0.0374325,
0.0118584,-0.195497,-0.333227,-1.65923,-0.0919391,-0.0942692,-0.383113,5.70558e-05,-0.000311616,3.01396e-05,0.000149502,0.000331297,5.91308e-05,-2.38548e-07,0,0,0,0,0,0,0,0.0118578,-0.195544,-0.33322,-1.65947,-0.0919857,1.47682,0.402285,-0.000995646,-0.00944613,6.65238e-05,-0.0223397,-0.000784725,0.035601,-6.56957e-05,-0.0202602,-24.7389,1.78621,24.0866,0.514218,2.8875,-0.0301054,-1.47259,0.0361327,-1.37013,0.131474,-0.330085,-0.199191,-0.0996167,0.152246,-0.308379,-0.612456,-0.157692,-0.27908,-0.0367403,
0.0117332,-0.195432,-0.333322,-1.6591,-0.0903958,-0.0952571,-0.383112,-0.011701,0.00358465,-0.0104838,0.0104704,0.178514,-0.111411,0.000383278,0,0,0,0,0,0,0,0.0118578,-0.195544,-0.33322,-1.65947,-0.0919857,1.47682,0.402285,-0.000995646,-0.00944613,6.65238e-05,-0.0223397,-0.000784725,0.035601,-6.56957e-05,-0.0202602,-24.7389,1.78621,24.0866,0.514218,2.8875,-0.0301054,-1.47259,0.0361327,-1.37013,0.131474,-0.330085,-0.199191,-0.0996167,0.152246,-0.308379,-0.612456,-0.157692,-0.27908,-0.0367403,
0.0117284,-0.195496,-0.333327,-1.65939,-0.0904506,-0.0948051,-0.383113,-0.0121786,0.00441528,-0.0112616,0.00922004,0.174467,-0.102907,0.000364092,0,0,0,0,0,0,0,0.0118578,-0.195544,-0.33322,-1.65947,-0.0919857,1.47682,0.402285,-0.000995646,-0.00944613,6.65238e-05,-0.0223397,-0.000784725,0.035601,-6.56957e-05,-0.0202602,-24.7389,1.78621,24.0866,0.514218,2.8875,-0.0301054,-0.889774,-0.111104,-1.1937,0.205611,0.0187433,-0.161262,-0.0652398,0.306843,-0.273313,-0.578021,-0.157349,-0.237647,-0.0372551,
0.0116804,-0.195484,-0.333374,-1.65936,-0.0896253,-0.0953095,-0.383111,-0.0120011,0.00310912,-0.0117374,0.00816767,0.206347,-0.12608,0.000507299,0,0,0,0,0,0,0,0.0118689,-0.195464,-0.333218,-1.65956,-0.0919938,1.47711,0.402286,-0.000258799,0.00307779,0.000416287,-0.000783935,-0.00372599,0.002043,0.000144481,-0.147213,-25.8339,1.81398,26.1575,0.58746,2.98638,-0.0365141,-0.889774,-0.111104,-1.1937,0.205611,0.0187433,-0.161262,-0.0652398,0.306843,-0.273313,-0.578021,-0.157349,-0.237647,-0.0372551,
0.0116352,-0.195476,-0.33342,-1.65933,-0.0887015,-0.0958885,-0.383109,-0.0113037,0.00179679,-0.011468,0.00679246,0.230941,-0.14477,0.0005815,0,0,0,0,0,0,0,0.0118689,-0.195464,-0.333218,-1.65956,-0.0919938,1.47711,0.402286,-0.000258799,0.00307779,0.000416287,-0.000783935,-0.00372599,0.002043,0.000144481,-0.147213,-25.8339,1.81398,26.1575,0.58746,2.98638,-0.0365141,-0.836803,-0.0988245,-1.00873,0.163749,-0.0174988,-0.146604,-0.051533,0.253462,-0.25064,-0.505179,-0.158421,-0.227451,-0.0372301,
0.0115939,-0.195474,-0.333463,-1.65931,-0.0877012,-0.0965286,-0.383107,-0.0103262,0.000684744,-0.0107522,0.00548998,0.250084,-0.160018,0.000616989,0,0,0,0,0,0,0,0.0118689,-0.195464,-0.333218,-1.65956,-0.0919938,1.47711,0.402286,-0.000258799,0.00307779,0.000416287,-0.000783935,-0.00372599,0.002043,0.000144481,-0.147213,-25.8339,1.81398,26.1575,0.58746,2.98638,-0.0365141,-1.10579,-0.238517,-0.871106,0.261793,-0.273876,-0.256256,-0.151449,0.0853915,-0.376017,-0.428543,-0.153325,-0.234536,-0.0376903,
0.011557,-0.195474,-0.333502,-1.65929,-0.0866408,-0.0972185,-0.383104,-0.00921236,-0.000190881,-0.00978385,0.00435533,0.265081,-0.17247,0.000629223,0,0,0,0,0,0,0,0.0118689,-0.195464,-0.333218,-1.65956,-0.0919938,1.47711,0.402286,-0.000258799,0.00307779,0.000416287,-0.000783935,-0.00372599,0.002043,0.000144481,-0.147213,-25.8339,1.81398,26.1575,0.58746,2.98638,-0.0365141,-1.10579,-0.238517,-0.871106,0.261793,-0.273876,-0.256256,-0.151449,0.0853915,-0.376017,-0.428543,-0.153325,-0.234536,-0.0376903,
0.0115248,-0.195478,-0.333537,-1.65928,-0.0855333,-0.0979489,-0.383102,-0.0080514,-0.000848152,-0.00868975,0.00339173,0.276883,-0.182601,0.000626989,0,0,0,0,0,0,0,0.0118689,-0.195464,-0.333218,-1.65956,-0.0919938,1.47711,0.402286,-0.000258799,0.00307779,0.000416287,-0.000783935,-0.00372599,0.002043,0.000144481,-0.147213,-25.8339,1.81398,26.1575,0.58746,2.98638,-0.0365141,-1.37458,-0.305909,-0.733334,0.366183,-0.54837,-0.332998,-0.212812,-0.101562,-0.47973,-0.353319,-0.083826,-0.244166,-0.0373243,
0.0115572,-0.195399,-0.333438,-1.65907,-0.0874296,-0.0976246,-0.383083,-0.0274281,0.00939324,-0.0230186,0.0339983,0.521264,-0.417511,0.00328241,0,0,0,0,0,0,0,0.0118689,-0.195464,-0.333218,-1.65956,-0.0919938,1.47711,0.402286,-0.000258799,0.00307779,0.000416287,-0.000783935,-0.00372599,0.002043,0.000144481,-0.147213,-25.8339,1.81398,26.1575,0.58746,2.98638,-0.0365141,-1.37458,-0.305909,-0.733334,0.366183,-0.54837,-0.332998,-0.212812,-0.101562,-0.47973,-0.353319,-0.083826,-0.244166,-0.0373243,
0.011575,-0.195292,-0.333425,-1.65916,-0.0874633,-0.0972324,-0.383085,-0.0269163,0.010529,-0.0223615,0.0317002,0.520017,-0.399913,0.00310625,0,0,0,0,0,0,0,0.0118172,-0.195437,-0.333265,-1.65952,-0.0905431,1.4771,0.402281,0.00122638,-0.00167247,0.000946852,-0.00633621,0.0729137,0.000559031,-0.00139596,0.285221,-25.8617,2.11152,26.4789,1.18621,2.92687,0.0101778,-0.941867,-0.0894917,-0.441759,0.28068,-0.344158,-0.158544,-0.0325472,-0.0417292,-0.311024,-0.311296,0.0449998,-0.260629,-0.0365624,
0.0114726,-0.19527,-0.333516,-1.65906,-0.0849787,-0.0991243,-0.383071,-0.0255907,0.00531421,-0.0228747,0.0252647,0.621144,-0.472993,0.00344486,0,0,0,0,0,0,0,0.0118172,-0.195437,-0.333265,-1.65952,-0.0905431,1.4771,0.402281,0.00122638,-0.00167247,0.000946852,-0.00633621,0.0729137,0.000559031,-0.00139596,0.285221,-25.8617,2.11152,26.4789,1.18621,2.92687,0.0101778,-0.941867,-0.0894917,-0.441759,0.28068,-0.344158,-0.158544,-0.0325472,-0.0417292,-0.311024,-0.311296,0.0449998,-0.260629,-0.0365624,
0.0113806,-0.195266,-0.333602,-1.65898,-0.0821743,-0.101247,-0.383057,-0.0229974,0.000957256,-0.0214841,0.0190982,0.70111,-0.530779,0.00362656,0,0,0,0,0,0,0,0.0118172,-0.195437,-0.333265,-1.65952,-0.0905431,1.4771,0.402281,0.00122638,-0.00167247,0.000946852,-0.00633621,0.0729137,0.000559031,-0.00139596,0.285221,-25.8617,2.11152,26.4789,1.18621,2.92687,0.0101778,-0.994153,-0.172974,-0.409331,0.371277,-0.402173,-0.205173,-0.0717561,-0.0835649,-0.375023,-0.297887,0.0735213,-0.265537,-0.035773,
0.0113017,-0.195276,-0.333678,-1.65893,-0.0791143,-0.103553,-0.383042,-0.0197237,-0.00236982,-0.0189552,0.0137213,0.765005,-0.576485,0.00371405,0,0,0,0,0,0,0,0.0118172,-0.195437,-0.333265,-1.65952,-0.0905431,1.4771,0.402281,0.00122638,-0.00167247,0.000946852,-0.00633621,0.0729137,0.000559031,-0.00139596,0.285221,-25.8617,2.11152,26.4789,1.18621,2.92687,0.0101778,-0.877347,-0.418965,-0.20263,0.597544,-0.39113,-0.295053,-0.158431,-0.113318,-0.493744,-0.254505,0.134913,-0.283736,-0.0361553,
0.0112372,-0.195295,-0.333741,-1.65889,-0.0758481,-0.106003,-0.383027,-0.0161337,-0.0047575,-0.0157916,0.00917398,0.816534,-0.612393,0.00374146,0,0,0,0,0,0,0,0.0118172,-0.195437,-0.333265,-1.65952,-0.0905431,1.4771,0.402281,0.00122638,-0.00167247,0.000946852,-0.00633621,0.0729137,0.000559031,-0.00139596,0.285221,-25.8617,2.11152,26.4789,1.18621,2.92687,0.0101778,-0.877347,-0.418965,-0.20263,0.597544,-0.39113,-0.295053,-0.158431,-0.113318,-0.493744,-0.254505,0.134913,-0.283736,-0.0361553,
0.0124616,-0.195544,-0.332508,-1.65945,-0.0891187,-0.0991516,-0.382968,0.071661,-0.013895,0.0846162,0.00222336,0.347076,-0.632054,0.0119988,0,0,0,0,0,0,0,0.011571,-0.195347,-0.333462,-1.65927,-0.0833441,1.47593,0.402285,-0.0131975,-0.00174528,-0.00958149,0.0112844,0.284136,-0.0635546,0.000771287,0.816837,-25.6355,2.41304,25.6339,1.97357,2.35009,-0.0301054,-0.490646,-0.318546,0.4763,0.59826,-0.321473,-0.181669,-0.0411294,-0.173122,-0.392342,-0.121974,0.30041,-0.359518,-0.0363886,
0.0121841,-0.195548,-0.33277,-1.65916,-0.0783474,-0.100784,-0.38296,0.0759212,-0.0234712,0.0867409,0.00140899,0.483808,-0.661316,0.0125493,0,0,0,0,0,0,0,0.011571,-0.195347,-0.333462,-1.65927,-0.0833441,1.47593,0.402285,-0.0131975,-0.00174528,-0.00958149,0.0112844,0.284136,-0.0635546,0.000771287,0.816837,-25.6355,2.41304,25.6339,1.97357,2.35009,-0.0301054,-0.490646,-0.318546,0.4763,0.59826,-0.321473,-0.181669,-0.0411294,-0.173122,-0.392342,-0.121974,0.30041,-0.359518,-0.0363886,
0.0125665,-0.195656,-0.332333,-1.65919,-0.0761543,-0.103934,-0.382911,0.095595,-0.0271176,0.10929,-0.00781188,0.548274,-0.787565,0.0120541,0,0,0,0,0,0,0,0.011571,-0.195347,-0.333462,-1.65927,-0.0833441,1.47593,0.402285,-0.0131975,-0.00174528,-0.00958149,0.0112844,0.284136,-0.0635546,0.000771287,0.816837,-25.6355,2.41304,25.6339,1.97357,2.35009,-0.0301054,0.0549097,-0.311087,0.588514,0.783686,0.103865,-0.0803316,0.0671409,0.0680191,-0.335639,-0.252106,0.483695,-0.466135,-0.0365504,
0.0130158,-0.195771,-0.33182,-1.65925,-0.0737196,-0.107497,-0.382865,0.112323,-0.0287063,0.128179,-0.016513,0.608676,-0.890685,0.0116194,0,0,0,0,0,0,0,0.011571,-0.195347,-0.333462,-1.65927,-0.0833441,1.47593,0.402285,-0.0131975,-0.00174528,-0.00958149,0.0112844,0.284136,-0.0635546,0.000771287,0.816837,-25.6355,2.41304,25.6339,1.97357,2.35009,-0.0301054,0.147544,-0.617366,0.347014,1.20243,0.370942,-0.20477,-0.0412396,0.299702,-0.533219,-0.501667,0.581284,-0.613013,-0.0323581,
0.0135223,-0.195886,-0.331244,-1.65935,-0.0710623,-0.111398,-0.38282,0.126641,-0.028692,0.144146,-0.0244338,0.664319,-0.975154,0.0112372,0,0,0,0,0,0,0,0.011571,-0.195347,-0.333462,-1.65927,-0.0833441,1.47593,0.402285,-0.0131975,-0.00174528,-0.00958149,0.0112844,0.284136,-0.0635546,0.000771287,0.816837,-25.6355,2.41304,25.6339,1.97357,2.35009,-0.0301054,0.147544,-0.617366,0.347014,1.20243,0.370942,-0.20477,-0.0412396,0.299702,-0.533219,-0.501667,0.581284,-0.613013,-0.0323581,
0.0140782,-0.195996,-0.330613,-1.65948,-0.0682025,-0.115575,-0.382776,0.138967,-0.0274939,0.157752,-0.0315249,0.714945,-1.04445,0.0108956,0,0,0,0,0,0,0,0.011571,-0.195347,-0.333462,-1.65927,-0.0833441,1.47593,0.402285,-0.0131975,-0.00174528,-0.00958149,0.0112844,0.284136,-0.0635546,0.000771287,0.816837,-25.6355,2.41304,25.6339,1.97357,2.35009,-0.0301054,-0.571961,-0.574968,0.712153,1.13275,-0.239053,-0.32011,-0.152949,-0.0703811,-0.637907,-0.361422,0.569248,-0.698252,-0.0262583,
0.0188323,-0.197271,-0.325401,-1.66168,-0.0664099,-0.124072,-0.382628,0.291381,-0.0476829,0.326539,-0.0988776,0.696959,-1.13923,0.0117492,0,0,0,0,0,0,0,0.0114375,-0.195395,-0.333483,-1.65899,-0.0749065,1.47296,0.402285,0.00693315,-0.00338179,0.00689354,0.00538959,0.238937,-0.125119,0.00139071,1.27307,-25.3102,3.61116,25.5585,1.55243,1.83282,-0.0301054,-0.571961,-0.574968,0.712153,1.13275,-0.239053,-0.32011,-0.152949,-0.0703811,-0.637907,-0.361422,0.569248,-0.698252,-0.0262583,
0.0129171,-0.195917,-0.332028,-1.65972,-0.0796938,-0.100527,-0.382934,0.156876,-0.058124,0.172782,-0.0518215,0.344251,-0.642718,0.0144953,0,0,0,0,0,0,0,0.0114375,-0.195395,-0.333483,-1.65899,-0.0749065,1.47296,0.402285,0.00693315,-0.00338179,0.00689354,0.00538959,0.238937,-0.125119,0.00139071,1.27307,-25.3102,3.61116,25.5585,1.55243,1.83282,-0.0301054,-0.109962,-0.331042,1.19077,0.871113,0.0283714,-0.140087,-0.0225479,0.0485633,-0.384668,-0.316697,0.553276,-0.777313,-0.0200434,
0.0128771,-0.195947,-0.331934,-1.65951,-0.0714279,-0.103959,-0.38292,0.161903,-0.0557592,0.178811,-0.0568003,0.339164,-0.672414,0.0153113,0,0,0,0,0,0,0,0.0114375,-0.195395,-0.333483,-1.65899,-0.0749065,1.47296,0.402285,0.00693315,-0.00338179,0.00689354,0.00538959,0.238937,-0.125119,0.00139071,1.27307,-25.3102,3.61116,25.5585,1.55243,1.83282,-0.0301054,-0.109962,-0.331042,1.19077,0.871113,0.0283714,-0.140087,-0.0225479,0.0485633,-0.384668,-0.316697,0.553276,-0.777313,-0.0200434,
0.0136516,-0.196181,-0.33107,-1.65977,-0.0698216,-0.107147,-0.382862,0.193634,-0.058487,0.215873,-0.0663225,0.401579,-0.796989,0.0144611,0,0,0,0,0,0,0,0.0114375,-0.195395,-0.333483,-1.65899,-0.0749065,1.47296,0.402285,0.00693315,-0.00338179,0.00689354,0.00538959,0.238937,-0.125119,0.00139071,1.27307,-25.3102,3.61116,25.5585,1.55243,1.83282,-0.0301054,-0.165387,-0.0595821,1.47527,0.710416,-0.0337625,-0.0361865,0.0514286,0.00773803,-0.243804,-0.310604,0.620667,-0.887193,-0.0148344,
0.0145316,-0.196414,-0.330085,-1.66007,-0.067956,-0.110741,-0.382807,0.220001,-0.0583995,0.246237,-0.0746716,0.466385,-0.898519,0.0137647,0,0,0,0,0,0,0,0.0114375,-0.195395,-0.333483,-1.65899,-0.0749065,1.47296,0.402285,0.00693315,-0.00338179,0.00689354,0.00538959,0.238937,-0.125119,0.00139071,1.27307,-25.3102,3.61116,25.5585,1.55243,1.83282,-0.0301054,-0.0966223,1.09115,0.554196,0.113729,0.48463,0.493002,0.588032,0.504817,0.309561,-0.819956,0.740285,-1.05579,-0.0105724,
0.0155002,-0.19664,-0.329,-1.6604,-0.0658349,-0.114666,-0.382754,0.24214,-0.0564609,0.2714,-0.082161,0.530291,-0.981149,0.0131789,0,0,0,0,0,0,0,0.0118916,-0.195789,-0.332545,-1.65891,-0.0653969,1.46533,0.402292,0.0370825,-0.0169939,0.0292761,-0.0146015,0.173232,-0.216414,0.000232586,1.67774,-25.4848,4.21419,25.733,1.26495,2.21734,-0.00996382,-0.0966223,1.09115,0.554196,0.113729,0.48463,0.493002,0.588032,0.504817,0.309561,-0.819956,0.740285,-1.05579,-0.0105724,
0.0165437,-0.196853,-0.32783,-1.66075,-0.0634696,-0.118859,-0.382704,0.26088,-0.0533047,0.292457,-0.0888849,0.591327,-1.04838,0.0126748,0,0,0,0,0,0,0,0.0118916,-0.195789,-0.332545,-1.65891,-0.0653969,1.46533,0.402292,0.0370825,-0.0169939,0.0292761,-0.0146015,0.173232,-0.216414,0.000232586,1.67774,-25.4848,4.21419,25.733,1.26495,2.21734,-0.00996382,-1.66194,2.34087,1.04685,-0.928595,-0.872157,0.774026,0.843572,-0.321651,0.730258,-0.472129,0.740188,-1.09525,-0.00673039,
0.0176511,-0.197051,-0.326589,-1.66113,-0.060876,-0.123272,-0.382655,0.276838,-0.0493643,0.31022,-0.0948609,0.648392,-1.1031,0.0122349,0,0,0,0,0,0,0,0.0118916,-0.195789,-0.332545,-1.65891,-0.0653969,1.46533,0.402292,0.0370825,-0.0169939,0.0292761,-0.0146015,0.173232,-0.216414,0.000232586,1.67774,-25.4848,4.21419,25.733,1.26495,2.21734,-0.00996382,-1.66194,2.34087,1.04685,-0.928595,-0.872157,0.774026,0.843572,-0.321651,0.730258,-0.472129,0.740188,-1.09525,-0.00673039,
0.0135622,-0.196225,-0.33124,-1.66,-0.072678,-0.103716,-0.382923,0.237618,-0.0807774,0.259239,-0.104088,0.209595,-0.653997,0.0151649,0,0,0,0,0,0,0,0.0118916,-0.195789,-0.332545,-1.65891,-0.0653969,1.46533,0.402292,0.0370825,-0.0169939,0.0292761,-0.0146015,0.173232,-0.216414,0.000232586,1.67774,-25.4848,4.21419,25.733,1.26495,2.21734,-0.00996382,-2.35352,1.01444,1.42906,-0.27294,-1.49947,0.0510319,0.106459,-0.720422,-0.00758591,-0.206534,0.413823,-1.04297,-0.00201031,
0.0141456,-0.196645,-0.330145,-1.66003,-0.0633963,-0.112101,-0.382893,0.244416,-0.0802339,0.267322,-0.110569,0.204074,-0.704389,0.016616,0,0,0,0,0,0,0,0.0118916,-0.195789,-0.332545,-1.65891,-0.0653969,1.46533,0.402292,0.0370825,-0.0169939,0.0292761,-0.0146015,0.173232,-0.216414,0.000232586,1.67774,-25.4848,4.21419,25.733,1.26495,2.21734,-0.00996382,-1.73936,-0.288025,0.913222,0.628151,-0.754699,-0.42222,-0.34057,-0.187978,-0.586218,-0.501498,0.200126,-1.05666,0.000686461,
0.0152924,-0.196964,-0.328877,-1.66051,-0.0623285,-0.11539,-0.382831,0.286705,-0.0799878,0.316927,-0.120289,0.266945,-0.822183,0.0155102,0,0,0,0,0,0,0,0.0134816,-0.19638,-0.330512,-1.65942,-0.0583601,1.45723,0.402296,0.0699607,-0.0254343,0.0825082,-0.0150993,0.2685,-0.33102,-4.42228e-05,3.47889,-25.1119,5.83681,24.8364,2.31598,1.5609,-0.00996382,-1.73936,-0.288025,0.913222,0.628151,-0.754699,-0.42222,-0.34057,-0.187978,-0.586218,-0.501498,0.200126,-1.05666,0.000686461,
0.0165788,-0.197271,-0.327448,-1.66102,-0.0609797,-0.119062,-0.382773,0.321587,-0.0767376,0.357295,-0.128477,0.337186,-0.917972,0.0146289,0,0,0,0,0,0,0,0.0134816,-0.19638,-0.330512,-1.65942,-0.0583601,1.45723,0.402296,0.0699607,-0.0254343,0.0825082,-0.0150993,0.2685,-0.33102,-4.42228e-05,3.47889,-25.1119,5.83681,24.8364,2.31598,1.5609,-0.00996382,-1.55015,0.822863,0.221028,0.0518263,-0.347338,0.114294,0.196055,0.158808,-0.0211044,-0.833765,0.384261,-1.11867,-3.49805e-05,
0.0179815,-0.197558,-0.325886,-1.66156,-0.0593419,-0.123044,-0.382717,0.350674,-0.0717308,0.390538,-0.135749,0.409469,-0.995515,0.0139494,0,0,0,0,0,0,0,0.0134816,-0.19638,-0.330512,-1.65942,-0.0583601,1.45723,0.402296,0.0699607,-0.0254343,0.0825082,-0.0150993,0.2685,-0.33102,-4.42228e-05,3.47889,-25.1119,5.83681,24.8364,2.31598,1.5609,-0.00996382,-1.55015,0.822863,0.221028,0.0518263,-0.347338,0.114294,0.196055,0.158808,-0.0211044,-0.833765,0.384261,-1.11867,-3.49805e-05,
0.0194821,-0.197821,-0.324213,-1.66213,-0.0574199,-0.127277,-0.382664,0.37515,-0.0655752,0.418147,-0.141999,0.480483,-1.05839,0.0132777,0,0,0,0,0,0,0,0.0134816,-0.19638,-0.330512,-1.65942,-0.0583601,1.45723,0.402296,0.0699607,-0.0254343,0.0825082,-0.0150993,0.2685,-0.33102,-4.42228e-05,3.47889,-25.1119,5.83681,24.8364,2.31598,1.5609,-0.00996382,-1.87846,1.64383,-0.237237,-0.468902,-0.466898,0.424953,0.49142,0.152988,0.344778,-0.93982,0.452425,-1.10167,0.00200439,
0.0147464,-0.19691,-0.329543,-1.66049,-0.0644786,-0.111861,-0.382914,0.310611,-0.104275,0.33704,-0.154516,0.0921822,-0.685922,0.015292,0,0,0,0,0,0,0,0.0134816,-0.19638,-0.330512,-1.65942,-0.0583601,1.45723,0.402296,0.0699607,-0.0254343,0.0825082,-0.0150993,0.2685,-0.33102,-4.42228e-05,3.47889,-25.1119,5.83681,24.8364,2.31598,1.5609,-0.00996382,-1.87846,1.64383,-0.237237,-0.468902,-0.466898,0.424953,0.49142,0.152988,0.344778,-0.93982,0.452425,-1.10167,0.00200439,
0.0166576,-0.197544,-0.327144,-1.66104,-0.0563079,-0.120804,-0.38288,0.332403,-0.105824,0.360997,-0.157715,0.182692,-0.738644,0.0168941,0,0,0,0,0,0,0,0.0134816,-0.19638,-0.330512,-1.65942,-0.0583601,1.45723,0.402296,0.0699607,-0.0254343,0.0825082,-0.0150993,0.2685,-0.33102,-4.42228e-05,3.47889,-25.1119,5.83681,24.8364,2.31598,1.5609,-0.00996382,-3.35729,0.370637,-0.0480155,0.196964,-1.69767,-0.401634,-0.323639,-0.590029,-0.52065,-0.59808,0.161718,-0.998488,0.00635132,
0.0181857,-0.197956,-0.325466,-1.66172,-0.0553721,-0.124195,-0.382818,0.382027,-0.10276,0.419539,-0.168084,0.233958,-0.847699,0.0156864,0,0,0,0,0,0,0,0.0162343,-0.197534,-0.32725,-1.66036,-0.0538515,1.44797,0.402303,0.114071,-0.0423808,0.138018,-0.0496046,0.168855,-0.332466,0.000535321,4.29218,-24.7389,6.73738,24.7849,0.843807,2.22375,-0.0227812,-3.35729,0.370637,-0.0480155,0.196964,-1.69767,-0.401634,-0.323639,-0.590029,-0.52065,-0.59808,0.161718,-0.998488,0.00635132,
0.0198759,-0.198342,-0.323599,-1.66242,-0.0541771,-0.127925,-0.382759,0.422541,-0.0965114,0.466718,-0.176697,0.298748,-0.932599,0.0146692,0,0,0,0,0,0,0,0.0162343,-0.197534,-0.32725,-1.66036,-0.0538515,1.44797,0.402303,0.114071,-0.0423808,0.138018,-0.0496046,0.168855,-0.332466,0.000535321,4.29218,-24.7389,6.73738,24.7849,0.843807,2.22375,-0.0227812,-2.86918,-0.518685,-0.071327,0.593226,-1.4099,-0.708619,-0.62255,-0.467593,-0.848609,-0.489539,-0.0940373,-0.811423,0.00772802,
0.0216996,-0.198698,-0.321578,-1.66317,-0.052698,-0.131864,-0.382704,0.455921,-0.0891686,0.505204,-0.18656,0.369765,-0.984649,0.0138474,0,0,0,0,0,0,0,0.0162343,-0.197534,-0.32725,-1.66036,-0.0538515,1.44797,0.402303,0.114071,-0.0423808,0.138018,-0.0496046,0.168855,-0.332466,0.000535321,4.29218,-24.7389,6.73738,24.7849,0.843807,2.22375,-0.0227812,-1.7284,1.32231,-0.477708,-0.534313,-0.453209,0.312223,0.358764,0.120979,0.284861,-0.762072,0.190045,-0.809646,0.00574827,
0.0236341,-0.199024,-0.319431,-1.66396,-0.0509291,-0.135869,-0.382651,0.483634,-0.0813619,0.536825,-0.197878,0.442243,-1.00132,0.0132402,0,0,0,0,0,0,0,0.0162343,-0.197534,-0.32725,-1.66036,-0.0538515,1.44797,0.402303,0.114071,-0.0423808,0.138018,-0.0496046,0.168855,-0.332466,0.000535321,4.29218,-24.7389,6.73738,24.7849,0.843807,2.22375,-0.0227812,-1.7284,1.32231,-0.477708,-0.534313,-0.453209,0.312223,0.358764,0.120979,0.284861,-0.762072,0.190045,-0.809646,0.00574827,
0.0256617,-0.199313,-0.31718,-1.66479,-0.0488776,-0.139867,-0.3826,0.506899,-0.072289,0.562859,-0.206821,0.51286,-0.999417,0.0127071,0,0,0,0,0,0,0,0.0162343,-0.197534,-0.32725,-1.66036,-0.0538515,1.44797,0.402303,0.114071,-0.0423808,0.138018,-0.0496046,0.168855,-0.332466,0.000535321,4.29218,-24.7389,6.73738,24.7849,0.843807,2.22375,-0.0227812,-2.54028,0.487173,-0.623811,0.0962705,-1.02259,-0.201476,-0.145287,-0.185769,-0.295311,-0.718496,0.143156,-0.803805,0.00959426,
0.0174582,-0.197751,-0.327093,-1.66145,-0.0570578,-0.120567,-0.382917,0.407216,-0.124066,0.381007,-0.196849,0.106494,-0.718777,0.0144922,0,0,0,0,0,0,0,0.0209676,-0.199665,-0.321262,-1.66272,-0.0503797,1.43513,0.402307,0.161435,-0.0693091,0.209101,-0.0787256,0.0606817,-0.386949,0.00146503,5.30384,-24.9611,7.58638,24.5627,1.25946,2.19079,0.00376909,-2.54028,0.487173,-0.623811,0.0962705,-1.02259,-0.201476,-0.145287,-0.185769,-0.295311,-0.718496,0.143156,-0.803805,0.00959426,
0.0255695,-0.201067,-0.316928,-1.66488,-0.0497707,-0.143388,-0.38289,0.446549,-0.118781,0.4397,-0.200688,0.094606,-0.767783,0.0155317,0,0,0,0,0,0,0,0.0209676,-0.199665,-0.321262,-1.66272,-0.0503797,1.43513,0.402307,0.161435,-0.0693091,0.209101,-0.0787256,0.0606817,-0.386949,0.00146503,5.30384,-24.9611,7.58638,24.5627,1.25946,2.19079,0.00376909,-3.78699,-0.734436,-0.527704,0.806574,-2.02648,-0.940963,-0.822987,-0.785678,-1.12982,-0.474742,-0.0899104,-0.737519,0.0106873,
0.0275408,-0.201518,-0.31493,-1.66574,-0.0491068,-0.146762,-0.382832,0.492815,-0.11275,0.499548,-0.215185,0.165971,-0.843539,0.0145378,0,0,0,0,0,0,0,0.0209676,-0.199665,-0.321262,-1.66272,-0.0503797,1.43513,0.402307,0.161435,-0.0693091,0.209101,-0.0787256,0.0606817,-0.386949,0.00146503,5.30384,-24.9611,7.58638,24.5627,1.25946,2.19079,0.00376909,-3.15539,-0.460875,-0.618488,0.634657,-1.54466,-0.70709,-0.600151,-0.512669,-0.876571,-0.551288,-0.0407679,-0.704996,0.00876393,
0.0296639,-0.201937,-0.312734,-1.66666,-0.0481254,-0.150263,-0.382776,0.530798,-0.104675,0.548965,-0.229746,0.245349,-0.875286,0.013839,0,0,0,0,0,0,0,0.0209676,-0.199665,-0.321262,-1.66272,-0.0503797,1.43513,0.402307,0.161435,-0.0693091,0.209101,-0.0787256,0.0606817,-0.386949,0.00146503,5.30384,-24.9611,7.58638,24.5627,1.25946,2.19079,0.00376909,-3.15539,-0.460875,-0.618488,0.634657,-1.54466,-0.70709,-0.600151,-0.512669,-0.876571,-0.551288,-0.0407679,-0.704996,0.00876393,
0.0319134,-0.202314,-0.310374,-1.66762,-0.046819,-0.153798,-0.382723,0.562367,-0.0943034,0.590136,-0.240712,0.32661,-0.883683,0.0132456,0,0,0,0,0,0,0,0.0209676,-0.199665,-0.321262,-1.66272,-0.0503797,1.43513,0.402307,0.161435,-0.0693091,0.209101,-0.0787256,0.0606817,-0.386949,0.00146503,5.30384,-24.9611,7.58638,24.5627,1.25946,2.19079,0.00376909,-1.4302,2.10788,-0.0978913,-1.10507,-0.484162,0.724245,0.764781,0.000286257,0.756038,-0.559925,0.336097,-0.716533,0.00613775,
0.0342684,-0.202644,-0.307874,-1.66861,-0.0451953,-0.157312,-0.382672,0.588738,-0.0826353,0.624949,-0.24826,0.405915,-0.878555,0.0127326,0,0,0,0,0,0,0,0.0209676,-0.199665,-0.321262,-1.66272,-0.0503797,1.43513,0.402307,0.161435,-0.0693091,0.209101,-0.0787256,0.0606817,-0.386949,0.00146503,5.30384,-24.9611,7.58638,24.5627,1.25946,2.19079,0.00376909,-1.4302,2.10788,-0.0978913,-1.10507,-0.484162,0.724245,0.764781,0.000286257,0.756038,-0.559925,0.336097,-0.716533,0.00613775,
0.0367118,-0.202927,-0.305255,-1.66963,-0.0432712,-0.160773,-0.382623,0.61086,-0.070586,0.654759,-0.253214,0.481031,-0.865181,0.0122828,0,0,0,0,0,0,0,0.0272521,-0.202053,-0.314504,-1.6658,-0.0481235,1.42241,0.402317,0.234372,-0.0915785,0.205043,-0.111772,0.020838,-0.389944,0.000705335,2.51484,-25.3856,5.01161,25.3323,1.09466,2.36382,-0.0227812,-1.45037,1.21045,0.00527616,-0.498013,-0.498559,0.316266,0.348022,-0.0149498,0.302273,-0.540044,0.249912,-0.730247,0.00809176,
0.0260073,-0.201205,-0.317118,-1.66523,-0.0499701,-0.143112,-0.382941,0.489269,-0.131298,0.424276,-0.236832,0.0745946,-0.737295,0.0119174,0,0,0,0,0,0,0,0.0272521,-0.202053,-0.314504,-1.6658,-0.0481235,1.42241,0.402317,0.234372,-0.0915785,0.205043,-0.111772,0.020838,-0.389944,0.000705335,2.51484,-25.3856,5.01161,25.3323,1.09466,2.36382,-0.0227812,-1.45037,1.21045,0.00527616,-0.498013,-0.498559,0.316266,0.348022,-0.0149498,0.302273,-0.540044,0.249912,-0.730247,0.00809176,
0.0325142,-0.203646,-0.310122,-1.66846,-0.047694,-0.15535,-0.382897,0.503402,-0.133397,0.440578,-0.250488,0.0857637,-0.643371,0.0141654,0,0,0,0,0,0,0,0.0272521,-0.202053,-0.314504,-1.6658,-0.0481235,1.42241,0.402317,0.234372,-0.0915785,0.205043,-0.111772,0.020838,-0.389944,0.000705335,2.51484,-25.3856,5.01161,25.3323,1.09466,2.36382,-0.0227812,-2.97304,-0.359144,-0.259882,0.594376,-1.51133,-0.614558,-0.505353,-0.543382,-0.786387,-0.485876,0.050555,-0.752674,0.0104327,
0.0347245,-0.204142,-0.308131,-1.66952,-0.0470569,-0.158022,-0.382844,0.552592,-0.123984,0.497766,-0.265221,0.159273,-0.668016,0.0132821,0,0,0,0,0,0,0,0.0272521,-0.202053,-0.314504,-1.6658,-0.0481235,1.42241,0.402317,0.234372,-0.0915785,0.205043,-0.111772,0.020838,-0.389944,0.000705335,2.51484,-25.3856,5.01161,25.3323,1.09466,2.36382,-0.0227812,-3.90745,-0.291172,-0.664898,0.664834,-2.04509,-0.71852,-0.602771,-0.770833,-0.910845,-0.580317,0.110785,-0.810631,0.00947004,
0.0371,-0.204588,-0.305951,-1.67062,-0.0461027,-0.160729,-0.382794,0.593878,-0.111568,0.54516,-0.274432,0.238534,-0.676682,0.0125945,0,0,0,0,0,0,0,0.0272521,-0.202053,-0.314504,-1.6658,-0.0481235,1.42241,0.402317,0.234372,-0.0915785,0.205043,-0.111772,0.020838,-0.389944,0.000705335,2.51484,-25.3856,5.01161,25.3323,1.09466,2.36382,-0.0227812,-3.90745,-0.291172,-0.664898,0.664834,-2.04509,-0.71852,-0.602771,-0.770833,-0.910845,-0.580317,0.110785,-0.810631,0.00947004,
0.0396159,-0.20498,-0.303611,-1.67174,-0.0448294,-0.163428,-0.382746,0.628954,-0.0980227,0.585007,-0.280214,0.318336,-0.674807,0.0120391,0,0,0,0,0,0,0,0.0387567,-0.206063,-0.302417,-1.67153,-0.0474314,1.40626,0.40232,0.316069,-0.10494,0.251384,-0.156337,-0.00229112,-0.315208,-0.000209097,1.17389,-25.2626,3.41279,25.5069,1.39404,2.37664,0.0303194,-1.7077,3.92736,-0.59046,-2.15552,-0.453866,1.52172,1.56213,0.144796,1.62771,-0.837129,0.639821,-0.847693,-0.00093672,
0.042252,-0.205318,-0.301135,-1.67287,-0.0432472,-0.166092,-0.382699,0.659042,-0.084405,0.618908,-0.283778,0.395549,-0.665871,0.0115789,0,0,0,0,0,0,0,0.0387567,-0.206063,-0.302417,-1.67153,-0.0474314,1.40626,0.40232,0.316069,-0.10494,0.251384,-0.156337,-0.00229112,-0.315208,-0.000209097,1.17389,-25.2626,3.41279,25.5069,1.39404,2.37664,0.0303194,-1.7077,3.92736,-0.59046,-2.15552,-0.453866,1.52172,1.56213,0.144796,1.62771,-0.837129,0.639821,-0.847693,-0.00093672,
0.0449922,-0.205603,-0.298543,-1.67402,-0.0413737,-0.1687,-0.382654,0.685046,-0.07129,0.648024,-0.285839,0.468388,-0.652146,0.0111904,0,0,0,0,0,0,0,0.0387567,-0.206063,-0.302417,-1.67153,-0.0474314,1.40626,0.40232,0.316069,-0.10494,0.251384,-0.156337,-0.00229112,-0.315208,-0.000209097,1.17389,-25.2626,3.41279,25.5069,1.39404,2.37664,0.0303194,-1.47146,2.64418,-0.341028,-1.28,-0.362457,0.97277,0.989255,0.143046,1.01911,-0.75333,0.552661,-0.82003,0.000605579,
0.0325095,-0.203713,-0.310113,-1.66873,-0.0476813,-0.155364,-0.382949,0.502995,-0.138972,0.441139,-0.278536,0.0875706,-0.647204,0.0104201,0,0,0,0,0,0,0,0.0387567,-0.206063,-0.302417,-1.67153,-0.0474314,1.40626,0.40232,0.316069,-0.10494,0.251384,-0.156337,-0.00229112,-0.315208,-0.000209097,1.17389,-25.2626,3.41279,25.5069,1.39404,2.37664,0.0303194,-1.47146,2.64418,-0.341028,-1.28,-0.362457,0.97277,0.989255,0.143046,1.01911,-0.75333,0.552661,-0.82003,0.000605579,
0.0444754,-0.207639,-0.297511,-1.67467,-0.0466597,-0.169693,-0.382926,0.534381,-0.12667,0.47606,-0.285534,0.12661,-0.473081,0.0118263,0,0,0,0,0,0,0,0.0387567,-0.206063,-0.302417,-1.67153,-0.0474314,1.40626,0.40232,0.316069,-0.10494,0.251384,-0.156337,-0.00229112,-0.315208,-0.000209097,1.17389,-25.2626,3.41279,25.5069,1.39404,2.37664,0.0303194,-2.8198,-0.874968,-1.30502,1.23867,-1.02033,-0.798114,-0.669342,-0.1325,-1.0836,-0.902428,0.184535,-0.758963,0.00579523,
0.0467909,-0.208096,-0.295401,-1.67585,-0.0458441,-0.171676,-0.382882,0.578896,-0.11432,0.527496,-0.296035,0.203899,-0.495945,0.0110661,0,0,0,0,0,0,0,0.0387567,-0.206063,-0.302417,-1.67153,-0.0474314,1.40626,0.40232,0.316069,-0.10494,0.251384,-0.156337,-0.00229112,-0.315208,-0.000209097,1.17389,-25.2626,3.41279,25.5069,1.39404,2.37664,0.0303194,-3.45133,-1.293,-1.84159,1.66549,-1.31058,-1.07153,-0.915005,-0.231714,-1.4339,-1.03259,0.222368,-0.765206,0.00758741,
0.0492568,-0.208498,-0.293119,-1.67706,-0.0447098,-0.173705,-0.38284,0.616473,-0.100479,0.570494,-0.302424,0.283571,-0.507234,0.0104586,0,0,0,0,0,0,0,0.0498281,-0.20931,-0.292503,-1.67639,-0.0470311,1.3969,0.402331,0.374177,-0.0946129,0.340158,-0.161202,0.0166872,-0.276847,0.000243276,4.36756,-23.513,6.78895,24.162,2.11456,2.21734,-0.0227812,-3.45133,-1.293,-1.84159,1.66549,-1.31058,-1.07153,-0.915005,-0.231714,-1.4339,-1.03259,0.222368,-0.765206,0.00758741,
0.051851,-0.208844,-0.290691,-1.67829,-0.0432626,-0.175745,-0.382801,0.648539,-0.0864688,0.606875,-0.306398,0.361817,-0.5099,0.00994782,0,0,0,0,0,0,0,0.0498281,-0.20931,-0.292503,-1.67639,-0.0470311,1.3969,0.402331,0.374177,-0.0946129,0.340158,-0.161202,0.0166872,-0.276847,0.000243276,4.36756,-23.513,6.78895,24.162,2.11456,2.21734,-0.0227812,-3.05357,2.54169,-1.05532,-1.05205,-1.39916,0.72946,0.824296,-0.376663,0.680805,-0.762943,0.636582,-0.748595,1.80479e-05,
0.0545555,-0.209136,-0.288139,-1.67952,-0.041517,-0.17777,-0.382763,0.676129,-0.0729458,0.637962,-0.308789,0.436391,-0.50622,0.00949586,0,0,0,0,0,0,0,0.0498281,-0.20931,-0.292503,-1.67639,-0.0470311,1.3969,0.402331,0.374177,-0.0946129,0.340158,-0.161202,0.0166872,-0.276847,0.000243276,4.36756,-23.513,6.78895,24.162,2.11456,2.21734,-0.0227812,-3.05357,2.54169,-1.05532,-1.05205,-1.39916,0.72946,0.824296,-0.376663,0.680805,-0.762943,0.636582,-0.748595,1.80479e-05,
0.0423378,-0.207132,-0.299415,-1.67353,-0.0471661,-0.1678,-0.382974,0.480839,-0.134758,0.413635,-0.267117,0.0579703,-0.435356,0.0127919,0,0,0,0,0,0,0,0.0498281,-0.20931,-0.292503,-1.67639,-0.0470311,1.3969,0.402331,0.374177,-0.0946129,0.340158,-0.161202,0.0166872,-0.276847,0.000243276,4.36756,-23.513,6.78895,24.162,2.11456,2.21734,-0.0227812,-1.40901,2.0202,-1.05557,-0.725697,-0.177867,0.713825,0.74159,0.292224,0.682332,-0.887829,0.592003,-0.67,-0.00415654,
0.0561118,-0.210719,-0.286937,-1.67954,-0.0456054,-0.177968,-0.38291,0.573775,-0.111364,0.520953,-0.282496,0.190072,-0.375188,0.0121309,0,0,0,0,0,0,0,0.0498281,-0.20931,-0.292503,-1.67639,-0.0470311,1.3969,0.402331,0.374177,-0.0946129,0.340158,-0.161202,0.0166872,-0.276847,0.000243276,4.36756,-23.513,6.78895,24.162,2.11456,2.21734,-0.0227812,-2.69526,-0.453282,-1.31205,0.923976,-1.07541,-0.557512,-0.457527,-0.230968,-0.789083,-0.764185,0.278937,-0.602219,-0.000813468,
0.0585619,-0.211115,-0.284675,-1.6807,-0.0445297,-0.179568,-0.382865,0.612527,-0.0991217,0.565495,-0.290195,0.268941,-0.400063,0.0113101,0,0,0,0,0,0,0,0.061872,-0.212732,-0.281392,-1.6826,-0.0461589,1.38971,0.402335,0.395267,-0.111451,0.401906,-0.202646,0.0661719,-0.195599,0.000783316,4.08985,-23.8384,5.98756,24.2374,1.78405,2.39037,-0.0429228,-2.69526,-0.453282,-1.31205,0.923976,-1.07541,-0.557512,-0.457527,-0.230968,-0.789083,-0.764185,0.278937,-0.602219,-0.000813468,
0.0611436,-0.211459,-0.282263,-1.68188,-0.0431408,-0.181231,-0.382823,0.645423,-0.0861115,0.603031,-0.294776,0.347228,-0.4157,0.0106383,0,0,0,0,0,0,0,0.061872,-0.212732,-0.281392,-1.6826,-0.0461589,1.38971,0.402335,0.395267,-0.111451,0.401906,-0.202646,0.0661719,-0.195599,0.000783316,4.08985,-23.8384,5.98756,24.2374,1.78405,2.39037,-0.0429228,-2.42599,0.386286,-1.90642,0.394491,-0.654109,-0.125727,-0.00195568,0.111831,-0.339333,-1.01911,0.351418,-0.601189,-0.00390192,
0.0638381,-0.211753,-0.279723,-1.68307,-0.0414513,-0.182925,-0.382782,0.673625,-0.0733175,0.634989,-0.297649,0.422361,-0.423567,0.0101712,0,0,0,0,0,0,0,0.061872,-0.212732,-0.281392,-1.6826,-0.0461589,1.38971,0.402335,0.395267,-0.111451,0.401906,-0.202646,0.0661719,-0.195599,0.000783316,4.08985,-23.8384,5.98756,24.2374,1.78405,2.39037,-0.0429228,-2.42599,0.386286,-1.90642,0.394491,-0.654109,-0.125727,-0.00195568,0.111831,-0.339333,-1.01911,0.351418,-0.601189,-0.00390192,
0.06663,-0.211997,-0.277074,-1.68427,-0.0394798,-0.184626,-0.382743,0.697977,-0.0611637,0.662426,-0.299394,0.492886,-0.42521,0.00979732,0,0,0,0,0,0,0,0.061872,-0.212732,-0.281392,-1.6826,-0.0461589,1.38971,0.402335,0.395267,-0.111451,0.401906,-0.202646,0.0661719,-0.195599,0.000783316,4.08985,-23.8384,5.98756,24.2374,1.78405,2.39037,-0.0429228,-1.7752,1.94606,-1.20042,-0.728282,-0.418779,0.661144,0.689808,0.175985,0.636641,-0.863052,0.546278,-0.627304,-0.00871092,
0.0538167,-0.210273,-0.289021,-1.67841,-0.0463657,-0.176467,-0.382959,0.527425,-0.120467,0.467449,-0.267994,0.115,-0.340804,0.0131868,0,0,0,0,0,0,0,0.061872,-0.212732,-0.281392,-1.6826,-0.0461589,1.38971,0.402335,0.395267,-0.111451,0.401906,-0.202646,0.0661719,-0.195599,0.000783316,4.08985,-23.8384,5.98756,24.2374,1.78405,2.39037,-0.0429228,-1.7752,1.94606,-1.20042,-0.728282,-0.418779,0.661144,0.689808,0.175985,0.636641,-0.863052,0.546278,-0.627304,-0.00871092,
0.0684889,-0.214098,-0.275446,-1.68576,-0.0440698,-0.184395,-0.382901,0.597393,-0.104496,0.547362,-0.27674,0.245349,-0.313654,0.0125166,0,0,0,0,0,0,0,0.061872,-0.212732,-0.281392,-1.6826,-0.0461589,1.38971,0.402335,0.395267,-0.111451,0.401906,-0.202646,0.0661719,-0.195599,0.000783316,4.08985,-23.8384,5.98756,24.2374,1.78405,2.39037,-0.0429228,-2.79649,0.441165,-0.806109,0.215724,-1.33031,-0.124313,-0.0318728,-0.430224,-0.269758,-0.580024,0.348251,-0.614334,-0.00508261,
0.0710208,-0.214465,-0.273093,-1.68689,-0.042784,-0.185753,-0.382854,0.63298,-0.0918939,0.588343,-0.282265,0.321437,-0.339503,0.0117319,0,0,0,0,0,0,0,0.0748431,-0.215734,-0.269333,-1.68912,-0.0448503,1.38536,0.402345,0.412723,-0.0838987,0.399928,-0.194441,0.0917423,-0.114469,0.000692189,4.11365,-23.7392,5.66224,24.8087,1.44256,2.622,-0.0630644,-2.34057,-0.420515,-1.14946,0.782136,-0.875745,-0.438944,-0.277529,-0.156132,-0.699759,-0.705022,0.216103,-0.55704,-0.00743857,
0.0736739,-0.214782,-0.270601,-1.68804,-0.0411997,-0.187178,-0.382809,0.663273,-0.0791925,0.622978,-0.285805,0.396089,-0.356441,0.0111191,0,0,0,0,0,0,0,0.0748431,-0.215734,-0.269333,-1.68912,-0.0448503,1.38536,0.402345,0.412723,-0.0838987,0.399928,-0.194441,0.0917423,-0.114469,0.000692189,4.11365,-23.7392,5.66224,24.8087,1.44256,2.622,-0.0630644,-2.34057,-0.420515,-1.14946,0.782136,-0.875745,-0.438944,-0.277529,-0.156132,-0.699759,-0.705022,0.216103,-0.55704,-0.00743857,
0.076431,-0.21505,-0.267991,-1.68919,-0.0393307,-0.188642,-0.382767,0.68928,-0.0669796,0.652516,-0.288156,0.467228,-0.365874,0.0106134,0,0,0,0,0,0,0,0.0748431,-0.215734,-0.269333,-1.68912,-0.0448503,1.38536,0.402345,0.412723,-0.0838987,0.399928,-0.194441,0.0917423,-0.114469,0.000692189,4.11365,-23.7392,5.66224,24.8087,1.44256,2.622,-0.0630644,-0.59291,0.429155,-0.403206,0.195172,0.181913,0.126104,0.196065,0.345672,-0.0149671,-0.645505,0.386402,-0.566167,-0.00984929,
0.079278,-0.215272,-0.265279,-1.69035,-0.037196,-0.190119,-0.382726,0.711753,-0.0555025,0.677902,-0.289642,0.533689,-0.369209,0.0101879,0,0,0,0,0,0,0,0.0748431,-0.215734,-0.269333,-1.68912,-0.0448503,1.38536,0.402345,0.412723,-0.0838987,0.399928,-0.194441,0.0917423,-0.114469,0.000692189,4.11365,-23.7392,5.66224,24.8087,1.44256,2.622,-0.0630644,-0.59291,0.429155,-0.403206,0.195172,0.181913,0.126104,0.196065,0.345672,-0.0149671,-0.645505,0.386402,-0.566167,-0.00984929,
0.0660993,-0.21368,-0.277636,-1.68466,-0.0450512,-0.18314,-0.382951,0.555012,-0.115565,0.498404,-0.267089,0.171341,-0.278197,0.0136265,0,0,0,0,0,0,0,0.0748431,-0.215734,-0.269333,-1.68912,-0.0448503,1.38536,0.402345,0.412723,-0.0838987,0.399928,-0.194441,0.0917423,-0.114469,0.000692189,4.11365,-23.7392,5.66224,24.8087,1.44256,2.622,-0.0630644,-1.76312,0.612418,0.907165,-0.120954,-1.1929,0.0950355,0.119753,-0.612193,0.0660116,-0.0339733,0.335808,-0.581168,-0.00805348,
0.0815436,-0.216868,-0.263312,-1.69222,-0.0425267,-0.187823,-0.38288,0.603807,-0.0881218,0.553656,-0.27126,0.261663,-0.241445,0.0134061,0,0,0,0,0,0,0,0.0891266,-0.218273,-0.25581,-1.6958,-0.0418419,1.38284,0.402346,0.413364,-0.0576492,0.411436,-0.200377,0.122956,-0.0513149,0.00160371,4.44294,-24.5128,5.98756,24.9594,1.57714,2.45629,-0.0566557,-1.76312,0.612418,0.907165,-0.120954,-1.1929,0.0950355,0.119753,-0.612193,0.0660116,-0.0339733,0.335808,-0.581168,-0.00805348,
0.0840993,-0.217179,-0.260934,-1.69333,-0.0411855,-0.188913,-0.38283,0.638918,-0.0777966,0.594381,-0.276093,0.335308,-0.272378,0.0125166,0,0,0,0,0,0,0,0.0891266,-0.218273,-0.25581,-1.6958,-0.0418419,1.38284,0.402346,0.413364,-0.0576492,0.411436,-0.200377,0.122956,-0.0513149,0.00160371,4.44294,-24.5128,5.98756,24.9594,1.57714,2.45629,-0.0566557,-2.56337,0.0396723,-0.097592,0.264303,-1.40167,-0.217437,-0.128358,-0.57654,-0.335567,-0.316549,0.18095,-0.581947,-0.00768332,
0.0867742,-0.217448,-0.25842,-1.69444,-0.0395536,-0.190089,-0.382783,0.668725,-0.0670729,0.628702,-0.279054,0.40797,-0.293912,0.0118012,0,0,0,0,0,0,0,0.0891266,-0.218273,-0.25581,-1.6958,-0.0418419,1.38284,0.402346,0.413364,-0.0576492,0.411436,-0.200377,0.122956,-0.0513149,0.00160371,4.44294,-24.5128,5.98756,24.9594,1.57714,2.45629,-0.0566557,-2.56337,0.0396723,-0.097592,0.264303,-1.40167,-0.217437,-0.128358,-0.57654,-0.335567,-0.316549,0.18095,-0.581947,-0.00768332,
0.0895512,-0.217674,-0.255788,-1.69557,-0.0376437,-0.191318,-0.382738,0.694251,-0.0565869,0.657893,-0.280955,0.477471,-0.307362,0.0112094,0,0,0,0,0,0,0,0.0891266,-0.218273,-0.25581,-1.6958,-0.0418419,1.38284,0.402346,0.413364,-0.0576492,0.411436,-0.200377,0.122956,-0.0513149,0.00160371,4.44294,-24.5128,5.98756,24.9594,1.57714,2.45629,-0.0566557,-1.76555,1.73928,-1.09179,-0.745853,-0.359102,0.644993,0.733863,0.239441,0.586236,-0.871448,0.414082,-0.659469,-0.0109586,
0.0924162,-0.21786,-0.253056,-1.6967,-0.0354734,-0.192575,-0.382695,0.716259,-0.0466151,0.682916,-0.2821,0.542566,-0.314157,0.0107103,0,0,0,0,0,0,0,0.0891266,-0.218273,-0.25581,-1.6958,-0.0418419,1.38284,0.402346,0.413364,-0.0576492,0.411436,-0.200377,0.122956,-0.0513149,0.00160371,4.44294,-24.5128,5.98756,24.9594,1.57714,2.45629,-0.0566557,-1.877,1.0899,-0.570083,-0.25942,-0.599871,0.328395,0.376771,0.0118901,0.257246,-0.701963,0.442066,-0.701458,-0.00904811,
0.0791284,-0.216516,-0.265526,-1.69114,-0.0435733,-0.186858,-0.382934,0.561879,-0.096497,0.504849,-0.262253,0.190669,-0.2008,0.0145324,0,0,0,0,0,0,0,0.0891266,-0.218273,-0.25581,-1.6958,-0.0418419,1.38284,0.402346,0.413364,-0.0576492,0.411436,-0.200377,0.122956,-0.0513149,0.00160371,4.44294,-24.5128,5.98756,24.9594,1.57714,2.45629,-0.0566557,-1.877,1.0899,-0.570083,-0.25942,-0.599871,0.328395,0.376771,0.0118901,0.257246,-0.701963,0.442066,-0.701458,-0.00904811,
0.0959025,-0.219149,-0.249715,-1.6989,-0.0392639,-0.189696,-0.38287,0.609777,-0.0691758,0.559626,-0.269011,0.279225,-0.190531,0.0140664,0,0,0,0,0,0,0,0.103172,-0.219789,-0.242877,-1.70111,-0.0380495,1.38197,0.402341,0.44845,-0.0439222,0.437111,-0.174022,0.0978043,-0.000303806,-0.00076434,2.99884,-25.211,4.33717,24.6381,1.72363,1.98571,0.0239107,-2.43212,-1.48795,-0.939754,1.49399,-0.871882,-0.892044,-0.796082,-0.174119,-1.16583,-0.732083,0.163914,-0.674659,-0.00426818,
0.0984803,-0.219394,-0.247315,-1.69999,-0.0378634,-0.190592,-0.382818,0.644456,-0.0612101,0.600147,-0.272823,0.350116,-0.223879,0.0130923,0,0,0,0,0,0,0,0.103172,-0.219789,-0.242877,-1.70111,-0.0380495,1.38197,0.402341,0.44845,-0.0439222,0.437111,-0.174022,0.0978043,-0.000303806,-0.00076434,2.99884,-25.211,4.33717,24.6381,1.72363,1.98571,0.0239107,-2.43212,-1.48795,-0.939754,1.49399,-0.871882,-0.892044,-0.796082,-0.174119,-1.16583,-0.732083,0.163914,-0.674659,-0.00426818,
0.101176,-0.219604,-0.244778,-1.70109,-0.0361813,-0.191581,-0.382768,0.673822,-0.0525914,0.634202,-0.274989,0.420529,-0.247459,0.0123032,0,0,0,0,0,0,0,0.103172,-0.219789,-0.242877,-1.70111,-0.0380495,1.38197,0.402341,0.44845,-0.0439222,0.437111,-0.174022,0.0978043,-0.000303806,-0.00076434,2.99884,-25.211,4.33717,24.6381,1.72363,1.98571,0.0239107,-3.29072,-1.44691,-1.60925,1.49298,-1.26971,-0.920246,-0.785315,-0.293561,-1.22625,-0.888988,0.153594,-0.678218,-0.00604013,
0.103971,-0.21978,-0.242126,-1.70219,-0.0342286,-0.192632,-0.382722,0.698912,-0.0439619,0.663091,-0.276247,0.488175,-0.262658,0.0116474,0,0,0,0,0,0,0,0.103172,-0.219789,-0.242877,-1.70111,-0.0380495,1.38197,0.402341,0.44845,-0.0439222,0.437111,-0.174022,0.0978043,-0.000303806,-0.00076434,2.99884,-25.211,4.33717,24.6381,1.72363,1.98571,0.0239107,-2.68189,0.916996,-1.65055,-0.0577837,-0.785351,0.217592,0.28318,0.074598,0.100959,-1.02318,0.462827,-0.704653,-0.00882287,
0.106853,-0.219922,-0.239374,-1.7033,-0.0320217,-0.193716,-0.382677,0.720496,-0.0356193,0.687794,-0.276862,0.551723,-0.270956,0.0110926,0,0,0,0,0,0,0,0.103172,-0.219789,-0.242877,-1.70111,-0.0380495,1.38197,0.402341,0.44845,-0.0439222,0.437111,-0.174022,0.0978043,-0.000303806,-0.00076434,2.99884,-25.211,4.33717,24.6381,1.72363,1.98571,0.0239107,-2.68189,0.916996,-1.65055,-0.0577837,-0.785351,0.217592,0.28318,0.074598,0.100959,-1.02318,0.462827,-0.704653,-0.00882287,
0.10981,-0.220033,-0.236538,-1.70441,-0.0295798,-0.194811,-0.382635,0.739167,-0.0277109,0.709062,-0.276945,0.610474,-0.273678,0.0106173,0,0,0,0,0,0,0,0.118206,-0.220858,-0.228389,-1.70629,-0.0337441,1.38205,0.402349,0.483478,-0.0286474,0.453706,-0.170429,0.102358,0.00537368,0.000289564,0.562931,-25.5126,2.03615,24.5627,1.33819,1.5078,0.0101778,-2.87087,0.310788,-1.16567,0.312264,-1.07286,-0.0683124,-0.0286345,-0.168778,-0.186772,-0.846935,0.404185,-0.735221,-0.00473659,
0.0934634,-0.218872,-0.251954,-1.69782,-0.0403808,-0.188934,-0.382926,0.568255,-0.0749771,0.51095,-0.261418,0.211611,-0.146988,0.0152958,0,0,0,0,0,0,0,0.118206,-0.220858,-0.228389,-1.70629,-0.0337441,1.38205,0.402349,0.483478,-0.0286474,0.453706,-0.170429,0.102358,0.00537368,0.000289564,0.562931,-25.5126,2.03615,24.5627,1.33819,1.5078,0.0101778,-2.87087,0.310788,-1.16567,0.312264,-1.07286,-0.0683124,-0.0286345,-0.168778,-0.186772,-0.846935,0.404185,-0.735221,-0.00473659,
0.125382,-0.221489,-0.22181,-1.70924,-0.0309346,-0.189666,-0.382874,0.63695,-0.0511453,0.592949,-0.259551,0.308571,-0.123007,0.0136611,0,0,0,0,0,0,0,0.118206,-0.220858,-0.228389,-1.70629,-0.0337441,1.38205,0.402349,0.483478,-0.0286474,0.453706,-0.170429,0.102358,0.00537368,0.000289564,0.562931,-25.5126,2.03615,24.5627,1.33819,1.5078,0.0101778,-2.22963,1.02219,-1.67693,-0.235206,-0.420448,0.33601,0.425721,0.301698,0.221045,-1.07683,0.390331,-0.690224,-0.00984777,
0.128052,-0.221668,-0.219297,-1.71029,-0.0294011,-0.190301,-0.382823,0.667392,-0.0448273,0.62825,-0.264329,0.383372,-0.158879,0.0127842,0,0,0,0,0,0,0,0.118206,-0.220858,-0.228389,-1.70629,-0.0337441,1.38205,0.402349,0.483478,-0.0286474,0.453706,-0.170429,0.102358,0.00537368,0.000289564,0.562931,-25.5126,2.03615,24.5627,1.33819,1.5078,0.0101778,-2.22963,1.02219,-1.67693,-0.235206,-0.420448,0.33601,0.425721,0.301698,0.221045,-1.07683,0.390331,-0.690224,-0.00984777,
0.130825,-0.221819,-0.216664,-1.71136,-0.0275809,-0.191042,-0.382775,0.693345,-0.0376892,0.65818,-0.266988,0.455044,-0.185255,0.0120632,0,0,0,0,0,0,0,0.118206,-0.220858,-0.228389,-1.70629,-0.0337441,1.38205,0.402349,0.483478,-0.0286474,0.453706,-0.170429,0.102358,0.00537368,0.000289564,0.562931,-25.5126,2.03615,24.5627,1.33819,1.5078,0.0101778,-2.75875,0.545785,-2.24559,0.184204,-0.532441,0.0927915,0.201549,0.329131,-0.0914396,-1.29894,0.416348,-0.761181,-0.00990649,
0.133687,-0.221941,-0.213929,-1.71244,-0.025492,-0.191855,-0.382729,0.715647,-0.0304312,0.683763,-0.268513,0.522246,-0.203236,0.0114564,0,0,0,0,0,0,0,0.13361,-0.221698,-0.21372,-1.71161,-0.0281633,1.38214,0.402356,0.49117,-0.0165286,0.455916,-0.162087,0.168933,0.0176648,0.000166534,-0.551876,-25.9371,0.988783,25.4315,1.35101,1.50139,-0.0227812,-3.13013,0.0897334,-1.52875,0.557501,-0.993695,-0.142046,-0.0728182,-0.0360225,-0.325811,-1.08215,0.4846,-0.858862,-0.00661851,
0.136627,-0.222034,-0.211106,-1.71351,-0.0231548,-0.192712,-0.382685,0.734927,-0.0233626,0.705781,-0.269279,0.584292,-0.214193,0.0109372,0,0,0,0,0,0,0,0.13361,-0.221698,-0.21372,-1.71161,-0.0281633,1.38214,0.402356,0.49117,-0.0165286,0.455916,-0.162087,0.168933,0.0176648,0.000166534,-0.551876,-25.9371,0.988783,25.4315,1.35101,1.50139,-0.0227812,-3.13013,0.0897334,-1.52875,0.557501,-0.993695,-0.142046,-0.0728182,-0.0360225,-0.325811,-1.08215,0.4846,-0.858862,-0.00661851,
0.122834,-0.221284,-0.224182,-1.7082,-0.0321689,-0.189174,-0.382929,0.600794,-0.0549208,0.55094,-0.249886,0.232998,-0.0779485,0.0147261,0,0,0,0,0,0,0,0.13361,-0.221698,-0.21372,-1.71161,-0.0281633,1.38214,0.402356,0.49117,-0.0165286,0.455916,-0.162087,0.168933,0.0176648,0.000166534,-0.551876,-25.9371,0.988783,25.4315,1.35101,1.50139,-0.0227812,-2.45135,-0.116816,-1.47578,0.574724,-0.55728,-0.181497,-0.116003,0.177025,-0.356342,-1.05827,0.365142,-0.778929,-0.00668737,
0.140848,-0.222224,-0.207075,-1.71448,-0.0248034,-0.189298,-0.382863,0.641968,-0.0435167,0.598662,-0.25355,0.34587,-0.0961334,0.0140312,0,0,0,0,0,0,0,0.13361,-0.221698,-0.21372,-1.71161,-0.0281633,1.38214,0.402356,0.49117,-0.0165286,0.455916,-0.162087,0.168933,0.0176648,0.000166534,-0.551876,-25.9371,0.988783,25.4315,1.35101,1.50139,-0.0227812,-2.45135,-0.116816,-1.47578,0.574724,-0.55728,-0.181497,-0.116003,0.177025,-0.356342,-1.05827,0.365142,-0.778929,-0.00668737,
0.143536,-0.222376,-0.20454,-1.71551,-0.0231464,-0.189817,-0.38281,0.672197,-0.0379884,0.633928,-0.258077,0.414266,-0.129852,0.0130973,0,0,0,0,0,0,0,0.13361,-0.221698,-0.21372,-1.71161,-0.0281633,1.38214,0.402356,0.49117,-0.0165286,0.455916,-0.162087,0.168933,0.0176648,0.000166534,-0.551876,-25.9371,0.988783,25.4315,1.35101,1.50139,-0.0227812,-3.01401,-0.0726719,-1.55128,0.437312,-1.01246,-0.155645,-0.0587103,-0.0741788,-0.322492,-0.965311,0.273257,-0.716677,-0.00590045,
0.146328,-0.222502,-0.201885,-1.71655,-0.0212234,-0.190436,-0.382761,0.69787,-0.0315343,0.663705,-0.260475,0.480736,-0.15465,0.0123273,0,0,0,0,0,0,0,0.13361,-0.221698,-0.21372,-1.71161,-0.0281633,1.38214,0.402356,0.49117,-0.0165286,0.455916,-0.162087,0.168933,0.0176648,0.000166534,-0.551876,-25.9371,0.988783,25.4315,1.35101,1.50139,-0.0227812,-2.79867,2.55412,-0.743545,-1.33776,-1.17639,1.08624,1.14271,-0.168716,1.12646,-0.715969,0.577061,-0.709463,-0.00945909,
0.149207,-0.222602,-0.199129,-1.7176,-0.0190487,-0.191122,-0.382714,0.719853,-0.0248861,0.689059,-0.26177,0.543677,-0.171489,0.011679,0,0,0,0,0,0,0,0.154935,-0.221987,-0.193314,-1.71846,-0.020799,1.38278,0.402356,0.488024,-0.000546328,0.458308,-0.160377,0.140338,0.0257134,-0.0013029,-0.95654,-26.0362,0.488905,25.6339,1.10656,1.99853,0.017502,-2.79867,2.55412,-0.743545,-1.33776,-1.17639,1.08624,1.14271,-0.168716,1.12646,-0.715969,0.577061,-0.709463,-0.00945909,
0.152162,-0.222675,-0.196285,-1.71865,-0.0166399,-0.191848,-0.38267,0.738797,-0.0183684,0.710804,-0.262344,0.602205,-0.18165,0.0111246,0,0,0,0,0,0,0,0.154935,-0.221987,-0.193314,-1.71846,-0.020799,1.38278,0.402356,0.488024,-0.000546328,0.458308,-0.160377,0.140338,0.0257134,-0.0013029,-0.95654,-26.0362,0.488905,25.6339,1.10656,1.99853,0.017502,-1.98564,1.85793,-0.39819,-0.836005,-0.702948,0.786733,0.802874,-0.00729904,0.802882,-0.642088,0.565522,-0.683531,-0.0081879,
0.155183,-0.222724,-0.193367,-1.7197,-0.0140163,-0.192594,-0.382627,0.755202,-0.0121378,0.729568,-0.26236,0.655906,-0.186356,0.0106456,0,0,0,0,0,0,0,0.154935,-0.221987,-0.193314,-1.71846,-0.020799,1.38278,0.402356,0.488024,-0.000546328,0.458308,-0.160377,0.140338,0.0257134,-0.0013029,-0.95654,-26.0362,0.488905,25.6339,1.10656,1.99853,0.017502,-1.98564,1.85793,-0.39819,-0.836005,-0.702948,0.786733,0.802874,-0.00729904,0.802882,-0.642088,0.565522,-0.683531,-0.0081879,
0.13828,-0.22205,-0.20947,-1.71347,-0.0261869,-0.188913,-0.382919,0.605924,-0.046321,0.556506,-0.244002,0.278232,-0.0540579,0.0151542,0,0,0,0,0,0,0,0.154935,-0.221987,-0.193314,-1.71846,-0.020799,1.38278,0.402356,0.488024,-0.000546328,0.458308,-0.160377,0.140338,0.0257134,-0.0013029,-0.95654,-26.0362,0.488905,25.6339,1.10656,1.99853,0.017502,-2.07016,-1.53635,-1.06323,1.41594,-0.563126,-0.78027,-0.699035,-0.0272199,-1.02985,-0.763692,0.180598,-0.610881,-0.00220341,
0.162157,-0.222352,-0.18667,-1.7213,-0.0176688,-0.188443,-0.382857,0.640744,-0.031289,0.598533,-0.250563,0.330105,-0.0754147,0.0144846,0,0,0,0,0,0,0,0.154935,-0.221987,-0.193314,-1.71846,-0.020799,1.38278,0.402356,0.488024,-0.000546328,0.458308,-0.160377,0.140338,0.0257134,-0.0013029,-0.95654,-26.0362,0.488905,25.6339,1.10656,1.99853,0.017502,-2.07016,-1.53635,-1.06323,1.41594,-0.563126,-0.78027,-0.699035,-0.0272199,-1.02985,-0.763692,0.180598,-0.610881,-0.00220341,
0.164842,-0.222459,-0.184134,-1.72232,-0.0160658,-0.18887,-0.382803,0.671084,-0.0268955,0.633925,-0.254624,0.400768,-0.106747,0.0135038,0,0,0,0,0,0,0,0.171273,-0.221846,-0.176998,-1.72351,-0.0134021,1.38309,0.402359,0.533402,0.0142442,0.525534,-0.154777,0.279162,0.00145299,-0.00152167,2.18555,-27.0082,3.58735,25.2094,2.3526,1.69366,0.0239107,-2.63603,-2.07818,-1.51356,1.76505,-0.872143,-1.02258,-0.897557,-0.181416,-1.33488,-0.809903,0.110867,-0.554981,-0.00430624,
0.167629,-0.222545,-0.181479,-1.72335,-0.0141897,-0.189389,-0.382753,0.696882,-0.0214912,0.663859,-0.256579,0.469008,-0.129718,0.0126866,0,0,0,0,0,0,0,0.171273,-0.221846,-0.176998,-1.72351,-0.0134021,1.38309,0.402359,0.533402,0.0142442,0.525534,-0.154777,0.279162,0.00145299,-0.00152167,2.18555,-27.0082,3.58735,25.2094,2.3526,1.69366,0.0239107,-2.30448,0.631516,-1.4481,0.000276934,-0.646264,0.248186,0.321806,0.0796918,0.130076,-0.861245,0.457169,-0.551595,-0.00895176,
0.170505,-0.222608,-0.178721,-1.72438,-0.0120563,-0.189969,-0.382705,0.718988,-0.015808,0.689376,-0.257467,0.533364,-0.145165,0.0119945,0,0,0,0,0,0,0,0.171273,-0.221846,-0.176998,-1.72351,-0.0134021,1.38309,0.402359,0.533402,0.0142442,0.525534,-0.154777,0.279162,0.00145299,-0.00152167,2.18555,-27.0082,3.58735,25.2094,2.3526,1.69366,0.0239107,-2.30448,0.631516,-1.4481,0.000276934,-0.646264,0.248186,0.321806,0.0796918,0.130076,-0.861245,0.457169,-0.551595,-0.00895176,
0.173457,-0.222649,-0.175876,-1.72541,-0.00968412,-0.190587,-0.382659,0.738045,-0.0101732,0.711277,-0.257678,0.593042,-0.154281,0.0113978,0,0,0,0,0,0,0,0.171273,-0.221846,-0.176998,-1.72351,-0.0134021,1.38309,0.402359,0.533402,0.0142442,0.525534,-0.154777,0.279162,0.00145299,-0.00152167,2.18555,-27.0082,3.58735,25.2094,2.3526,1.69366,0.0239107,-2.28396,2.73498,-1.46189,-1.48309,-0.607354,1.24102,1.23588,0.254487,1.33295,-0.918741,0.619804,-0.564453,-0.0114337,
0.176475,-0.222668,-0.172955,-1.72644,-0.00709335,-0.191219,-0.382615,0.75455,-0.00474757,0.730184,-0.257373,0.647693,-0.15822,0.0108879,0,0,0,0,0,0,0,0.171273,-0.221846,-0.176998,-1.72351,-0.0134021,1.38309,0.402359,0.533402,0.0142442,0.525534,-0.154777,0.279162,0.00145299,-0.00152167,2.18555,-27.0082,3.58735,25.2094,2.3526,1.69366,0.0239107,-2.28396,2.73498,-1.46189,-1.48309,-0.607354,1.24102,1.23588,0.254487,1.33295,-0.918741,0.619804,-0.564453,-0.0114337,
0.159594,-0.222226,-0.189064,-1.7203,-0.0189893,-0.188141,-0.382915,0.604636,-0.0328781,0.556334,-0.24148,0.259469,-0.0364606,0.0156405,0,0,0,0,0,0,0,0.171273,-0.221846,-0.176998,-1.72351,-0.0134021,1.38309,0.402359,0.533402,0.0142442,0.525534,-0.154777,0.279162,0.00145299,-0.00152167,2.18555,-27.0082,3.58735,25.2094,2.3526,1.69366,0.0239107,-2.70544,-0.0149929,-1.78096,0.248925,-0.905371,-0.0154687,0.0355501,-0.051518,-0.110035,-0.849,0.235856,-0.461356,-0.00697263,
0.178959,-0.222056,-0.169806,-1.72631,-0.00882221,-0.188126,-0.382867,0.673991,-0.0190946,0.637507,-0.24706,0.441034,-0.0656214,0.0135396,0,0,0,0,0,0,0,0.188076,-0.221672,-0.161231,-1.72848,-0.00549722,1.38333,0.402365,0.549607,0.0103332,0.528016,-0.16015,0.28335,0.00898579,-0.00130027,1.30085,-26.6075,2.31386,25.1102,1.80877,1.97198,0.017502,-2.70544,-0.0149929,-1.78096,0.248925,-0.905371,-0.0154687,0.0355501,-0.051518,-0.110035,-0.849,0.235856,-0.461356,-0.00697263,
0.181759,-0.222117,-0.167135,-1.72731,-0.00681678,-0.188489,-0.382816,0.700002,-0.0153786,0.667843,-0.250814,0.501356,-0.090616,0.012685,0,0,0,0,0,0,0,0.188076,-0.221672,-0.161231,-1.72848,-0.00549722,1.38333,0.402365,0.549607,0.0103332,0.528016,-0.16015,0.28335,0.00898579,-0.00130027,1.30085,-26.6075,2.31386,25.1102,1.80877,1.97198,0.017502,-2.54687,-2.38712,-1.7366,1.89023,-0.842605,-1.11589,-1.01782,-0.207683,-1.40727,-0.765512,0.0568644,-0.416811,-0.00139317,
0.184647,-0.22216,-0.164361,-1.72832,-0.00457874,-0.188924,-0.382768,0.722117,-0.0106851,0.693525,-0.25241,0.55951,-0.108717,0.0119689,0,0,0,0,0,0,0,0.188076,-0.221672,-0.161231,-1.72848,-0.00549722,1.38333,0.402365,0.549607,0.0103332,0.528016,-0.16015,0.28335,0.00898579,-0.00130027,1.30085,-26.6075,2.31386,25.1102,1.80877,1.97198,0.017502,-2.00586,0.822695,-1.71112,-0.222246,-0.386342,0.387121,0.462502,0.263553,0.290849,-0.910555,0.429237,-0.456964,-0.00654479,
0.187611,-0.222183,-0.161499,-1.72933,-0.00212161,-0.189405,-0.382723,0.741067,-0.00573377,0.715432,-0.252943,0.614284,-0.120456,0.011368,0,0,0,0,0,0,0,0.188076,-0.221672,-0.161231,-1.72848,-0.00549722,1.38333,0.402365,0.549607,0.0103332,0.528016,-0.16015,0.28335,0.00898579,-0.00130027,1.30085,-26.6075,2.31386,25.1102,1.80877,1.97198,0.017502,-2.00586,0.822695,-1.71112,-0.222246,-0.386342,0.387121,0.462502,0.263553,0.290849,-0.910555,0.429237,-0.456964,-0.00654479,
0.190635,-0.222186,-0.158559,-1.73034,0.000540756,-0.189913,-0.38268,0.75596,-0.000795296,0.735074,-0.252841,0.665591,-0.126784,0.0107862,0,0,0,0,0,0,0,0.188076,-0.221672,-0.161231,-1.72848,-0.00549722,1.38333,0.402365,0.549607,0.0103332,0.528016,-0.16015,0.28335,0.00898579,-0.00130027,1.30085,-26.6075,2.31386,25.1102,1.80877,1.97198,0.017502,-2.23241,2.17827,-1.97933,-1.15029,-0.366505,1.02729,1.03958,0.454796,1.06687,-1.09397,0.571806,-0.535242,-0.00816254,
0.193698,-0.22217,-0.155545,-1.73135,0.00339599,-0.190427,-0.382639,0.765806,0.00402385,0.753582,-0.252282,0.713808,-0.128676,0.0102211,0,0,0,0,0,0,0,0.203989,-0.221606,-0.145597,-1.73332,0.00181403,1.38388,0.402371,0.521811,-4.28829e-06,0.511597,-0.163131,0.236691,0.0282251,0.00138516,2.11017,-26.7821,2.93672,24.884,0.966488,2.03148,-0.0301054,-2.23241,2.17827,-1.97933,-1.15029,-0.366505,1.02729,1.03958,0.454796,1.06687,-1.09397,0.571806,-0.535242,-0.00816254,
0.176263,-0.221979,-0.172357,-1.72532,-0.0105863,-0.187864,-0.382921,0.643012,-0.0200269,0.601397,-0.238091,0.380567,-0.0349197,0.0145511,0,0,0,0,0,0,0,0.203989,-0.221606,-0.145597,-1.73332,0.00181403,1.38388,0.402371,0.521811,-4.28829e-06,0.511597,-0.163131,0.236691,0.0282251,0.00138516,2.11017,-26.7821,2.93672,24.884,0.966488,2.03148,-0.0301054,-1.8185,0.771623,-2.05006,-0.349223,-0.106264,0.395757,0.46098,0.505707,0.328351,-1.06568,0.297091,-0.46095,-0.00583242,
0.211549,-0.221855,-0.138521,-1.73605,0.0059882,-0.187072,-0.382846,0.664917,-0.0201013,0.62954,-0.238676,0.41041,-0.0418504,0.0141434,0,0,0,0,0,0,0,0.203989,-0.221606,-0.145597,-1.73332,0.00181403,1.38388,0.402371,0.521811,-4.28829e-06,0.511597,-0.163131,0.236691,0.0282251,0.00138516,2.11017,-26.7821,2.93672,24.884,0.966488,2.03148,-0.0301054,-1.74919,-2.072,-2.00479,1.57197,-0.101985,-0.922213,-0.819329,0.278066,-1.19785,-0.980468,0.0468357,-0.437677,-0.00280754,
0.214318,-0.221917,-0.135876,-1.73702,0.00788163,-0.18733,-0.382793,0.692164,-0.0154644,0.661302,-0.242259,0.473357,-0.0645523,0.013223,0,0,0,0,0,0,0,0.203989,-0.221606,-0.145597,-1.73332,0.00181403,1.38388,0.402371,0.521811,-4.28829e-06,0.511597,-0.163131,0.236691,0.0282251,0.00138516,2.11017,-26.7821,2.93672,24.884,0.966488,2.03148,-0.0301054,-1.74919,-2.072,-2.00479,1.57197,-0.101985,-0.922213,-0.819329,0.278066,-1.19785,-0.980468,0.0468357,-0.437677,-0.00280754,
0.217173,-0.221957,-0.13312,-1.73799,0.0100194,-0.187653,-0.382744,0.71392,-0.0101626,0.689054,-0.243981,0.534454,-0.0807915,0.0123797,0,0,0,0,0,0,0,0.203989,-0.221606,-0.145597,-1.73332,0.00181403,1.38388,0.402371,0.521811,-4.28829e-06,0.511597,-0.163131,0.236691,0.0282251,0.00138516,2.11017,-26.7821,2.93672,24.884,0.966488,2.03148,-0.0301054,-1.47599,0.619508,-2.32002,-0.14525,0.356893,0.316491,0.360258,0.813325,0.21816,-1.27981,0.4337,-0.536317,-0.0081223,
0.220092,-0.221976,-0.130263,-1.73897,0.0123922,-0.188018,-0.382698,0.729508,-0.00473207,0.714292,-0.24474,0.593192,-0.091155,0.011598,0,0,0,0,0,0,0,0.22175,-0.221577,-0.127903,-1.7387,0.0122231,1.38473,0.402376,0.527809,0.00650562,0.51856,-0.158435,0.267125,0.04195,0.000655191,-0.325741,-26.8337,0.461134,25.8798,0.843807,2.10473,-0.0301054,-1.47599,0.619508,-2.32002,-0.14525,0.356893,0.316491,0.360258,0.813325,0.21816,-1.27981,0.4337,-0.536317,-0.0081223,
0.223059,-0.221974,-0.127319,-1.73995,0.0149847,-0.188404,-0.382654,0.74186,0.000531036,0.735978,-0.244848,0.648128,-0.0965649,0.010922,0,0,0,0,0,0,0,0.22175,-0.221577,-0.127903,-1.7387,0.0122231,1.38473,0.402376,0.527809,0.00650562,0.51856,-0.158435,0.267125,0.04195,0.000655191,-0.325741,-26.8337,0.461134,25.8798,0.843807,2.10473,-0.0301054,-1.79289,1.61481,-1.99058,-0.837551,0.00600183,0.800357,0.80933,0.654982,0.808027,-1.15456,0.516268,-0.546267,-0.00931449,
0.226065,-0.221952,-0.1243,-1.74093,0.0177797,-0.188795,-0.382612,0.751619,0.0054966,0.754645,-0.244468,0.698743,-0.0979109,0.0103473,0,0,0,0,0,0,0,0.22175,-0.221577,-0.127903,-1.7387,0.0122231,1.38473,0.402376,0.527809,0.00650562,0.51856,-0.158435,0.267125,0.04195,0.000655191,-0.325741,-26.8337,0.461134,25.8798,0.843807,2.10473,-0.0301054,-1.79289,1.61481,-1.99058,-0.837551,0.00600183,0.800357,0.80933,0.654982,0.808027,-1.15456,0.516268,-0.546267,-0.00931449,
0.208889,-0.221774,-0.141039,-1.73509,0.00434656,-0.186904,-0.382903,0.632576,-0.0226824,0.591813,-0.230787,0.346967,-0.0134448,0.0152216,0,0,0,0,0,0,0,0.22175,-0.221577,-0.127903,-1.7387,0.0122231,1.38473,0.402376,0.527809,0.00650562,0.51856,-0.158435,0.267125,0.04195,0.000655191,-0.325741,-26.8337,0.461134,25.8798,0.843807,2.10473,-0.0301054,-1.24525,0.171029,-2.02917,-0.0193404,0.296456,0.135201,0.190016,0.682087,0.0419946,-1.07822,0.227064,-0.42802,-0.00824825,
0.229359,-0.221751,-0.120752,-1.74136,0.0166753,-0.185967,-0.382842,0.667488,-0.0142062,0.635998,-0.233036,0.430372,-0.0174618,0.0141239,0,0,0,0,0,0,0,0.22175,-0.221577,-0.127903,-1.7387,0.0122231,1.38473,0.402376,0.527809,0.00650562,0.51856,-0.158435,0.267125,0.04195,0.000655191,-0.325741,-26.8337,0.461134,25.8798,0.843807,2.10473,-0.0301054,-1.65123,-0.999325,-1.49407,0.813567,-0.283662,-0.378902,-0.278424,0.142578,-0.570743,-0.751878,0.145742,-0.367133,-0.00630339,
0.232119,-0.22179,-0.118073,-1.74231,0.0186435,-0.18612,-0.382789,0.690066,-0.00988678,0.669645,-0.236509,0.492041,-0.0381969,0.0130777,0,0,0,0,0,0,0,0.22175,-0.221577,-0.127903,-1.7387,0.0122231,1.38473,0.402376,0.527809,0.00650562,0.51856,-0.158435,0.267125,0.04195,0.000655191,-0.325741,-26.8337,0.461134,25.8798,0.843807,2.10473,-0.0301054,-1.65123,-0.999325,-1.49407,0.813567,-0.283662,-0.378902,-0.278424,0.142578,-0.570743,-0.751878,0.145742,-0.367133,-0.00630339,
0.234952,-0.22181,-0.115281,-1.74326,0.0208519,-0.186332,-0.382741,0.708136,-0.00493388,0.698173,-0.238123,0.552104,-0.0530561,0.0121863,0,0,0,0,0,0,0,0.239428,-0.221329,-0.110576,-1.74366,0.0224661,1.38563,0.402377,0.573385,0.0118092,0.565233,-0.153452,0.361338,0.0171915,-0.00114366,0.919986,-26.6829,1.98854,25.1578,1.91864,1.9793,0.00376909,-1.56858,-0.90327,-1.48181,0.88028,-0.178948,-0.356586,-0.296955,0.191605,-0.53946,-0.78123,0.307605,-0.389192,-0.0048875,
0.237842,-0.22181,-0.112391,-1.74422,0.0232883,-0.186582,-0.382695,0.72263,7.9041e-05,0.722457,-0.23877,0.609109,-0.0625005,0.011435,0,0,0,0,0,0,0,0.239428,-0.221329,-0.110576,-1.74366,0.0224661,1.38563,0.402377,0.573385,0.0118092,0.565233,-0.153452,0.361338,0.0171915,-0.00114366,0.919986,-26.6829,1.98854,25.1578,1.91864,1.9793,0.00376909,-1.56858,-0.90327,-1.48181,0.88028,-0.178948,-0.356586,-0.296955,0.191605,-0.53946,-0.78123,0.307605,-0.389192,-0.0048875,
0.240779,-0.22179,-0.109418,-1.74517,0.0259372,-0.186852,-0.382652,0.734201,0.00490812,0.743237,-0.238791,0.662215,-0.067351,0.0107805,0,0,0,0,0,0,0,0.239428,-0.221329,-0.110576,-1.74366,0.0224661,1.38563,0.402377,0.573385,0.0118092,0.565233,-0.153452,0.361338,0.0171915,-0.00114366,0.919986,-26.6829,1.98854,25.1578,1.91864,1.9793,0.00376909,-2.1784,1.97574,-1.21019,-1.03318,-0.697509,1.01958,1.01432,0.120126,1.07786,-0.696672,0.600776,-0.404908,-0.00924083,
0.243752,-0.221752,-0.106373,-1.74613,0.0287812,-0.187125,-0.382611,0.743336,0.00944282,0.761116,-0.238339,0.711011,-0.0684308,0.0102033,0,0,0,0,0,0,0,0.239428,-0.221329,-0.110576,-1.74366,0.0224661,1.38563,0.402377,0.573385,0.0118092,0.565233,-0.153452,0.361338,0.0171915,-0.00114366,0.919986,-26.6829,1.98854,25.1578,1.91864,1.9793,0.00376909,-2.07618,0.0276624,-1.23343,0.145726,-0.748634,0.14092,0.181012,-0.0952939,0.0742704,-0.573554,0.282816,-0.302885,-0.0059733,
0.226689,-0.221694,-0.123296,-1.74043,0.0149538,-0.185898,-0.382898,0.63701,-0.016447,0.59786,-0.225319,0.369834,0.00827433,0.0152572,0,0,0,0,0,0,0,0.239428,-0.221329,-0.110576,-1.74366,0.0224661,1.38563,0.402377,0.573385,0.0118092,0.565233,-0.153452,0.361338,0.0171915,-0.00114366,0.919986,-26.6829,1.98854,25.1578,1.91864,1.9793,0.00376909,-2.07618,0.0276624,-1.23343,0.145726,-0.748634,0.14092,0.181012,-0.0952939,0.0742704,-0.573554,0.282816,-0.302885,-0.0059733,
0.247339,-0.221432,-0.102955,-1.74627,0.0279856,-0.185105,-0.382855,0.684439,-0.00808056,0.671299,-0.228721,0.514932,-0.0119027,0.0130682,0,0,0,0,0,0,0,0.262345,-0.220635,-0.0872481,-1.74996,0.0361149,1.38674,0.402383,0.552459,0.0118473,0.57332,-0.149539,0.353371,0.0221843,-0.000283078,1.12232,-26.909,1.7386,25.5823,2.34069,1.75316,-0.0163725,-1.42078,0.27859,-1.88048,-0.0982005,-0.0637917,0.228737,0.319478,0.395151,0.124495,-0.826731,0.260284,-0.239927,-0.00799515,
0.25015,-0.221447,-0.100154,-1.7472,0.0302663,-0.185211,-0.382806,0.70275,-0.00385236,0.700208,-0.231961,0.570169,-0.0267281,0.0121759,0,0,0,0,0,0,0,0.262345,-0.220635,-0.0872481,-1.74996,0.0361149,1.38674,0.402383,0.552459,0.0118473,0.57332,-0.149539,0.353371,0.0221843,-0.000283078,1.12232,-26.909,1.7386,25.5823,2.34069,1.75316,-0.0163725,-1.42078,0.27859,-1.88048,-0.0982005,-0.0637917,0.228737,0.319478,0.395151,0.124495,-0.826731,0.260284,-0.239927,-0.00799515,
0.253019,-0.221444,-0.0972554,-1.74813,0.0327596,-0.18536,-0.382761,0.71739,0.000873167,0.724701,-0.233341,0.623321,-0.0370154,0.0114064,0,0,0,0,0,0,0,0.262345,-0.220635,-0.0872481,-1.74996,0.0361149,1.38674,0.402383,0.552459,0.0118473,0.57332,-0.149539,0.353371,0.0221843,-0.000283078,1.12232,-26.909,1.7386,25.5823,2.34069,1.75316,-0.0163725,-1.13059,0.107555,-2.10099,0.115901,0.329336,0.110393,0.177167,0.639601,-0.0214914,-0.998369,0.388122,-0.301369,-0.00657775,
0.255935,-0.221422,-0.0942731,-1.74907,0.035453,-0.185531,-0.382718,0.729024,0.00556798,0.745584,-0.233763,0.673356,-0.0429746,0.0107359,0,0,0,0,0,0,0,0.262345,-0.220635,-0.0872481,-1.74996,0.0361149,1.38674,0.402383,0.552459,0.0118473,0.57332,-0.149539,0.353371,0.0221843,-0.000283078,1.12232,-26.909,1.7386,25.5823,2.34069,1.75316,-0.0163725,-1.13059,0.107555,-2.10099,0.115901,0.329336,0.110393,0.177167,0.639601,-0.0214914,-0.998369,0.388122,-0.301369,-0.00657775,
0.258888,-0.221382,-0.0912191,-1.75,0.0383318,-0.185712,-0.382677,0.738169,0.0100211,0.763493,-0.233582,0.71969,-0.045211,0.0101468,0,0,0,0,0,0,0,0.262345,-0.220635,-0.0872481,-1.74996,0.0361149,1.38674,0.402383,0.552459,0.0118473,0.57332,-0.149539,0.353371,0.0221843,-0.000283078,1.12232,-26.909,1.7386,25.5823,2.34069,1.75316,-0.0163725,-1.75925,0.628833,-1.98616,-0.226084,-0.159666,0.402735,0.4123,0.414933,0.363956,-0.926464,0.4617,-0.319919,-0.00754435,
0.261869,-0.221325,-0.0881034,-1.75093,0.0413801,-0.18589,-0.382639,0.745229,0.0141466,0.778931,-0.232953,0.762067,-0.0443781,0.0096255,0,0,0,0,0,0,0,0.262345,-0.220635,-0.0872481,-1.74996,0.0361149,1.38674,0.402383,0.552459,0.0118473,0.57332,-0.149539,0.353371,0.0221843,-0.000283078,1.12232,-26.909,1.7386,25.5823,2.34069,1.75316,-0.0163725,-1.75925,0.628833,-1.98616,-0.226084,-0.159666,0.402735,0.4123,0.414933,0.363956,-0.926464,0.4617,-0.319919,-0.00754435,
0.244601,-0.2214,-0.10564,-1.74536,0.0259259,-0.185057,-0.382907,0.661496,-0.0104373,0.637003,-0.221153,0.45926,0.00624036,0.0140856,0,0,0,0,0,0,0,0.279489,-0.220002,-0.0696092,-1.75401,0.0464667,1.38766,0.402384,0.551979,0.0190994,0.585591,-0.131803,0.389684,0.0261717,-0.000407482,1.50318,-27.1352,1.58784,25.2332,1.52221,2.11114,-0.0163725,-1.7243,-0.96709,-2.32445,0.684276,-0.108081,-0.300293,-0.247335,0.347798,-0.441415,-0.964667,0.179475,-0.260872,-0.00843666,
0.287289,-0.220058,-0.0618969,-1.75649,0.0522395,-0.18274,-0.382848,0.675038,-0.00456208,0.678283,-0.219957,0.532805,0.0202042,0.0129716,0,0,0,0,0,0,0,0.279489,-0.220002,-0.0696092,-1.75401,0.0464667,1.38766,0.402384,0.551979,0.0190994,0.585591,-0.131803,0.389684,0.0261717,-0.000407482,1.50318,-27.1352,1.58784,25.2332,1.52221,2.11114,-0.0163725,-1.67236,-0.450663,-2.22502,0.309877,-0.140412,-0.0449808,0.0388459,0.353799,-0.173676,-0.908955,0.192249,-0.225276,-0.0130053,
0.290061,-0.22006,-0.0590696,-1.75739,0.054579,-0.182712,-0.3828,0.693106,-0.000369114,0.706842,-0.223926,0.584892,0.00718835,0.0120711,0,0,0,0,0,0,0,0.279489,-0.220002,-0.0696092,-1.75401,0.0464667,1.38766,0.402384,0.551979,0.0190994,0.585591,-0.131803,0.389684,0.0261717,-0.000407482,1.50318,-27.1352,1.58784,25.2332,1.52221,2.11114,-0.0163725,-1.67236,-0.450663,-2.22502,0.309877,-0.140412,-0.0449808,0.0388459,0.353799,-0.173676,-0.908955,0.192249,-0.225276,-0.0130053,
0.292891,-0.220042,-0.0561454,-1.75829,0.0571198,-0.18272,-0.382755,0.70753,0.0043096,0.73103,-0.225736,0.635181,-0.0022039,0.0112877,0,0,0,0,0,0,0,0.279489,-0.220002,-0.0696092,-1.75401,0.0464667,1.38766,0.402384,0.551979,0.0190994,0.585591,-0.131803,0.389684,0.0261717,-0.000407482,1.50318,-27.1352,1.58784,25.2332,1.52221,2.11114,-0.0163725,-1.23353,1.13319,-2.57286,-0.704853,0.424578,0.622966,0.664209,0.893891,0.589438,-1.17099,0.444851,-0.27566,-0.0159128,
0.295767,-0.220007,-0.0531389,-1.7592,0.0598505,-0.182752,-0.382713,0.718964,0.00890721,0.751634,-0.226454,0.68267,-0.00785185,0.010604,0,0,0,0,0,0,0,0.279489,-0.220002,-0.0696092,-1.75401,0.0464667,1.38766,0.402384,0.551979,0.0190994,0.585591,-0.131803,0.389684,0.0261717,-0.000407482,1.50318,-27.1352,1.58784,25.2332,1.52221,2.11114,-0.0163725,-1.23353,1.13319,-2.57286,-0.704853,0.424578,0.622966,0.664209,0.893891,0.589438,-1.17099,0.444851,-0.27566,-0.0159128,
0.298679,-0.219954,-0.0500618,-1.7601,0.0627575,-0.182793,-0.382673,0.727922,0.013212,0.769281,-0.226495,0.726765,-0.0101738,0.0100035,0,0,0,0,0,0,0,0.297104,-0.21956,-0.0513498,-1.75837,0.058559,1.38913,0.40239,0.541347,0.0160771,0.592735,-0.137255,0.365566,0.0600764,0.000963352,1.95942,-27.4089,1.93696,24.5349,0.752255,2.20452,-0.0301054,-1.09893,0.454749,-2.6635,-0.231236,0.609569,0.286508,0.28703,0.956502,0.234334,-1.24857,0.447337,-0.31975,-0.0106893,
0.301618,-0.219885,-0.0469239,-1.76101,0.0658262,-0.182831,-0.382635,0.734811,0.0171479,0.78447,-0.226045,0.767181,-0.00970502,0.00947289,0,0,0,0,0,0,0,0.297104,-0.21956,-0.0513498,-1.75837,0.058559,1.38913,0.40239,0.541347,0.0160771,0.592735,-0.137255,0.365566,0.0600764,0.000963352,1.95942,-27.4089,1.93696,24.5349,0.752255,2.20452,-0.0301054,-1.57071,-1.18454,-2.49811,0.76026,0.0712635,-0.371888,-0.305499,0.457972,-0.533272,-1.04249,0.171029,-0.25704,-0.00725861,
0.284589,-0.22004,-0.0646101,-1.75561,0.0501083,-0.182821,-0.3829,0.652398,-0.00673907,0.644429,-0.210935,0.480423,0.0349558,0.0139797,0,0,0,0,0,0,0,0.297104,-0.21956,-0.0513498,-1.75837,0.058559,1.38913,0.40239,0.541347,0.0160771,0.592735,-0.137255,0.365566,0.0600764,0.000963352,1.95942,-27.4089,1.93696,24.5349,0.752255,2.20452,-0.0301054,-1.57071,-1.18454,-2.49811,0.76026,0.0712635,-0.371888,-0.305499,0.457972,-0.533272,-1.04249,0.171029,-0.25704,-0.00725861,
0.30477,-0.219591,-0.0435929,-1.7608,0.0641563,-0.180942,-0.382842,0.663354,-0.00175909,0.681204,-0.21438,0.521525,0.0470364,0.0129212,0,0,0,0,0,0,0,0.297104,-0.21956,-0.0513498,-1.75837,0.058559,1.38913,0.40239,0.541347,0.0160771,0.592735,-0.137255,0.365566,0.0600764,0.000963352,1.95942,-27.4089,1.93696,24.5349,0.752255,2.20452,-0.0301054,-1.4448,-0.943367,-2.58086,0.583674,0.174688,-0.266461,-0.173724,0.542361,-0.437562,-1.06384,0.191778,-0.227888,-0.00672215,
0.307494,-0.219581,-0.0407557,-1.76167,0.0664589,-0.180804,-0.382794,0.68113,0.00241002,0.709283,-0.218051,0.57564,0.0342615,0.0120146,0,0,0,0,0,0,0,0.297104,-0.21956,-0.0513498,-1.75837,0.058559,1.38913,0.40239,0.541347,0.0160771,0.592735,-0.137255,0.365566,0.0600764,0.000963352,1.95942,-27.4089,1.93696,24.5349,0.752255,2.20452,-0.0301054,-1.4448,-0.943367,-2.58086,0.583674,0.174688,-0.266461,-0.173724,0.542361,-0.437562,-1.06384,0.191778,-0.227888,-0.00672215,
0.310276,-0.219554,-0.0378232,-1.76255,0.0689682,-0.180704,-0.382749,0.695369,0.00691496,0.733131,-0.219767,0.627332,0.0250282,0.0112223,0,0,0,0,0,0,0,0.297104,-0.21956,-0.0513498,-1.75837,0.058559,1.38913,0.40239,0.541347,0.0160771,0.592735,-0.137255,0.365566,0.0600764,0.000963352,1.95942,-27.4089,1.93696,24.5349,0.752255,2.20452,-0.0301054,-1.58612,1.65112,-2.778,-1.07792,0.307269,0.90855,0.945423,0.95786,0.908905,-1.26945,0.56526,-0.307819,-0.0101581,
0.313102,-0.219509,-0.0348092,-1.76344,0.0716713,-0.180627,-0.382707,0.706691,0.0112778,0.753491,-0.220457,0.675782,0.0193815,0.0105286,0,0,0,0,0,0,0,0.314755,-0.219161,-0.0322883,-1.7631,0.0717617,1.39123,0.40239,0.558362,0.00900626,0.567914,-0.141223,0.364826,0.0776318,0.000303889,-0.67883,-26.8852,-0.387865,25.4831,1.06994,2.28417,-0.0227812,-1.58612,1.65112,-2.778,-1.07792,0.307269,0.90855,0.945423,0.95786,0.908905,-1.26945,0.56526,-0.307819,-0.0101581,
0.315965,-0.219447,-0.0317254,-1.76432,0.0745535,-0.180559,-0.382668,0.715587,0.0153239,0.770962,-0.220494,0.720532,0.0169063,0.00991828,0,0,0,0,0,0,0,0.314755,-0.219161,-0.0322883,-1.7631,0.0717617,1.39123,0.40239,0.558362,0.00900626,0.567914,-0.141223,0.364826,0.0776318,0.000303889,-0.67883,-26.8852,-0.387865,25.4831,1.06994,2.28417,-0.0227812,-1.70948,1.71938,-2.80002,-1.11373,0.261728,0.948478,0.930044,0.959544,0.997012,-1.29445,0.620105,-0.331646,-0.00875576,
0.318855,-0.219371,-0.0285813,-1.7652,0.077599,-0.180491,-0.38263,0.722449,0.0189947,0.786021,-0.220048,0.761389,0.0170909,0.00937855,0,0,0,0,0,0,0,0.314755,-0.219161,-0.0322883,-1.7631,0.0717617,1.39123,0.40239,0.558362,0.00900626,0.567914,-0.141223,0.364826,0.0776318,0.000303889,-0.67883,-26.8852,-0.387865,25.4831,1.06994,2.28417,-0.0227812,-1.02658,-0.277273,-2.60178,0.136426,0.543205,-0.0192071,0.00545733,0.824334,-0.109617,-1.14556,0.321034,-0.24403,-0.00513282,
0.302116,-0.219584,-0.0463177,-1.75995,0.0620702,-0.18113,-0.382894,0.641166,-0.00429087,0.648035,-0.206254,0.466225,0.0617911,0.0139349,0,0,0,0,0,0,0,0.314755,-0.219161,-0.0322883,-1.7631,0.0717617,1.39123,0.40239,0.558362,0.00900626,0.567914,-0.141223,0.364826,0.0776318,0.000303889,-0.67883,-26.8852,-0.387865,25.4831,1.06994,2.28417,-0.0227812,-1.02658,-0.277273,-2.60178,0.136426,0.543205,-0.0192071,0.00545733,0.824334,-0.109617,-1.14556,0.321034,-0.24403,-0.00513282,
0.322269,-0.219207,-0.024528,-1.76547,0.0773877,-0.178637,-0.382845,0.650387,-0.00188536,0.682147,-0.208314,0.522741,0.0654075,0.0129056,0,0,0,0,0,0,0,0.314755,-0.219161,-0.0322883,-1.7631,0.0717617,1.39123,0.40239,0.558362,0.00900626,0.567914,-0.141223,0.364826,0.0776318,0.000303889,-0.67883,-26.8852,-0.387865,25.4831,1.06994,2.28417,-0.0227812,-0.777415,-1.12439,-2.01436,0.763943,0.437329,-0.417868,-0.337854,0.531232,-0.604642,-0.869758,0.228176,-0.189411,-0.00434513,
0.324943,-0.219196,-0.0216865,-1.76632,0.0796911,-0.178419,-0.382797,0.668334,0.0026409,0.710388,-0.211751,0.575846,0.0544648,0.0119789,0,0,0,0,0,0,0,0.332555,-0.218577,-0.0128747,-1.76752,0.0838666,1.39371,0.402392,0.565695,0.0170996,0.61643,-0.141785,0.415766,0.0697357,0.000987307,1.2215,-26.7821,1.08797,25.6061,2.40753,1.9793,-0.0365141,-0.777415,-1.12439,-2.01436,0.763943,0.437329,-0.417868,-0.337854,0.531232,-0.604642,-0.869758,0.228176,-0.189411,-0.00434513,
0.327674,-0.219167,-0.018749,-1.76717,0.0821978,-0.178232,-0.382752,0.682721,0.00730633,0.734352,-0.213429,0.626682,0.0466523,0.0111652,0,0,0,0,0,0,0,0.332555,-0.218577,-0.0128747,-1.76752,0.0838666,1.39371,0.402392,0.565695,0.0170996,0.61643,-0.141785,0.415766,0.0697357,0.000987307,1.2215,-26.7821,1.08797,25.6061,2.40753,1.9793,-0.0365141,-0.580325,0.877473,-2.17157,-0.503084,0.767808,0.427781,0.482536,0.976688,0.345486,-1.03785,0.527923,-0.230339,-0.00808092,
0.33045,-0.21912,-0.0157299,-1.76803,0.0848954,-0.178064,-0.382711,0.694168,0.0117244,0.754794,-0.214147,0.674406,0.0420044,0.0104533,0,0,0,0,0,0,0,0.332555,-0.218577,-0.0128747,-1.76752,0.0838666,1.39371,0.402392,0.565695,0.0170996,0.61643,-0.141785,0.415766,0.0697357,0.000987307,1.2215,-26.7821,1.08797,25.6061,2.40753,1.9793,-0.0365141,-0.580325,0.877473,-2.17157,-0.503084,0.767808,0.427781,0.482536,0.976688,0.345486,-1.03785,0.527923,-0.230339,-0.00808092,
0.333263,-0.219057,-0.0126406,-1.76888,0.0877696,-0.177904,-0.382671,0.703167,0.0157621,0.772321,-0.21423,0.718541,0.0401612,0.0098287,0,0,0,0,0,0,0,0.332555,-0.218577,-0.0128747,-1.76752,0.0838666,1.39371,0.402392,0.565695,0.0170996,0.61643,-0.141785,0.415766,0.0697357,0.000987307,1.2215,-26.7821,1.08797,25.6061,2.40753,1.9793,-0.0365141,-1.77996,2.03159,-1.84694,-1.1495,-0.12387,1.11468,1.11623,0.601052,1.14964,-0.901714,0.760065,-0.293061,-0.00844677,
0.319668,-0.219199,-0.0272566,-1.76464,0.0752967,-0.178899,-0.382897,0.628076,-0.00519767,0.648706,-0.201007,0.468627,0.0781626,0.0138946,0,0,0,0,0,0,0,0.332555,-0.218577,-0.0128747,-1.76752,0.0838666,1.39371,0.402392,0.565695,0.0170996,0.61643,-0.141785,0.415766,0.0697357,0.000987307,1.2215,-26.7821,1.08797,25.6061,2.40753,1.9793,-0.0365141,-1.59923,-1.07601,-1.41086,0.883731,-0.31165,-0.253637,-0.209851,0.0277118,-0.40726,-0.618504,0.375202,-0.235192,-0.00579167,
0.340189,-0.218531,-0.00477779,-1.76988,0.090082,-0.176121,-0.382852,0.657034,0.00524612,0.705708,-0.206301,0.569932,0.0732984,0.0120872,0,0,0,0,0,0,0,0.332555,-0.218577,-0.0128747,-1.76752,0.0838666,1.39371,0.402392,0.565695,0.0170996,0.61643,-0.141785,0.415766,0.0697357,0.000987307,1.2215,-26.7821,1.08797,25.6061,2.40753,1.9793,-0.0365141,-1.59923,-1.07601,-1.41086,0.883731,-0.31165,-0.253637,-0.209851,0.0277118,-0.40726,-0.618504,0.375202,-0.235192,-0.00579167,
0.342878,-0.218495,-0.0018551,-1.77071,0.0925609,-0.175858,-0.382807,0.672291,0.00916772,0.730673,-0.209243,0.619724,0.0657693,0.0112543,0,0,0,0,0,0,0,0.350248,-0.217688,0.00664502,-1.77155,0.0951386,1.39604,0.402391,0.543771,0.0338692,0.635001,-0.130991,0.389095,0.0668828,-0.000555114,1.17389,-27.3335,0.536512,25.733,1.88202,2.09832,0.0101778,-0.758571,-1.07975,-1.49002,0.803212,0.260182,-0.376566,-0.295406,0.326466,-0.564856,-0.65916,0.282405,-0.172881,-0.00662007,
0.345616,-0.218442,0.00115262,-1.77156,0.0952281,-0.175616,-0.382765,0.684444,0.0132078,0.75193,-0.21049,0.6668,0.0606283,0.0105188,0,0,0,0,0,0,0,0.350248,-0.217688,0.00664502,-1.77155,0.0951386,1.39604,0.402391,0.543771,0.0338692,0.635001,-0.130991,0.389095,0.0668828,-0.000555114,1.17389,-27.3335,0.536512,25.733,1.88202,2.09832,0.0101778,-0.758571,-1.07975,-1.49002,0.803212,0.260182,-0.376566,-0.295406,0.326466,-0.564856,-0.65916,0.282405,-0.172881,-0.00662007,
0.348392,-0.218374,0.00423311,-1.7724,0.0980705,-0.175384,-0.382726,0.694013,0.0170031,0.77012,-0.210833,0.71061,0.0580309,0.00987461,0,0,0,0,0,0,0,0.350248,-0.217688,0.00664502,-1.77155,0.0951386,1.39604,0.402391,0.543771,0.0338692,0.635001,-0.130991,0.389095,0.0668828,-0.000555114,1.17389,-27.3335,0.536512,25.733,1.88202,2.09832,0.0101778,-0.430177,1.22132,-2.35436,-0.84607,0.975387,0.554387,0.574951,1.20198,0.527657,-1.15237,0.544953,-0.250407,-0.00910814,
0.351198,-0.218292,0.00737622,-1.77324,0.101074,-0.175153,-0.382689,0.701382,0.0204354,0.785778,-0.210597,0.750878,0.0577404,0.00931129,0,0,0,0,0,0,0,0.350248,-0.217688,0.00664502,-1.77155,0.0951386,1.39604,0.402391,0.543771,0.0338692,0.635001,-0.130991,0.389095,0.0668828,-0.000555114,1.17389,-27.3335,0.536512,25.733,1.88202,2.09832,0.0101778,-1.7001,1.11177,-2.24421,-0.739335,0.0489142,0.738595,0.728122,0.70656,0.757895,-1.05102,0.595189,-0.301078,-0.0111018,
0.340189,-0.218532,-0.00477774,-1.76988,0.0900812,-0.176121,-0.382852,0.65704,0.00524455,0.705714,-0.206302,0.569843,0.0733263,0.0120867,0,0,0,0,0,0,0,0.350248,-0.217688,0.00664502,-1.77155,0.0951386,1.39604,0.402391,0.543771,0.0338692,0.635001,-0.130991,0.389095,0.0668828,-0.000555114,1.17389,-27.3335,0.536512,25.733,1.88202,2.09832,0.0101778,-1.7001,1.11177,-2.24421,-0.739335,0.0489142,0.738595,0.728122,0.70656,0.757895,-1.05102,0.595189,-0.301078,-0.0111018,
0.357754,-0.217517,0.0147968,-1.77388,0.101156,-0.173652,-0.382857,0.645976,0.013964,0.709118,-0.204331,0.557336,0.0882623,0.0118976,0,0,0,0,0,0,0,0.367214,-0.216819,0.0254386,-1.77516,0.106948,1.39832,0.402395,0.536646,0.0378162,0.60877,-0.114439,0.396216,0.0890615,-0.000540287,2.2887,-27.881,1.28633,25.2094,1.87011,1.95275,0.0101778,-1.92552,-1.28393,-2.05468,0.862206,-0.30093,-0.231801,-0.166766,0.159321,-0.39483,-0.85999,0.354174,-0.257106,-0.00636443,
0.360397,-0.21745,0.0177308,-1.7747,0.103594,-0.173323,-0.382812,0.660865,0.0168222,0.733494,-0.20714,0.609432,0.082283,0.0110855,0,0,0,0,0,0,0,0.367214,-0.216819,0.0254386,-1.77516,0.106948,1.39832,0.402395,0.536646,0.0378162,0.60877,-0.114439,0.396216,0.0890615,-0.000540287,2.2887,-27.881,1.28633,25.2094,1.87011,1.95275,0.0101778,-1.92552,-1.28393,-2.05468,0.862206,-0.30093,-0.231801,-0.166766,0.159321,-0.39483,-0.85999,0.354174,-0.257106,-0.00636443,
0.363088,-0.21737,0.0207482,-1.77554,0.106226,-0.173011,-0.382771,0.672722,0.0199558,0.754354,-0.2081,0.658127,0.0781645,0.0103661,0,0,0,0,0,0,0,0.367214,-0.216819,0.0254386,-1.77516,0.106948,1.39832,0.402395,0.536646,0.0378162,0.60877,-0.114439,0.396216,0.0890615,-0.000540287,2.2887,-27.881,1.28633,25.2094,1.87011,1.95275,0.0101778,-1.28252,-0.683455,-2.21543,0.417182,0.221663,-0.0879311,-0.0218021,0.53347,-0.231084,-0.961777,0.389749,-0.227485,-0.00872619,
0.365818,-0.217278,0.0238384,-1.77637,0.10902,-0.172706,-0.382732,0.682523,0.0229335,0.772546,-0.20795,0.698535,0.0762267,0.00975494,0,0,0,0,0,0,0,0.367214,-0.216819,0.0254386,-1.77516,0.106948,1.39832,0.402395,0.536646,0.0378162,0.60877,-0.114439,0.396216,0.0890615,-0.000540287,2.2887,-27.881,1.28633,25.2094,1.87011,1.95275,0.0101778,-1.28252,-0.683455,-2.21543,0.417182,0.221663,-0.0879311,-0.0218021,0.53347,-0.231084,-0.961777,0.389749,-0.227485,-0.00872619,
0.368591,-0.217176,0.026985,-1.7772,0.111913,-0.172401,-0.382695,0.693141,0.025567,0.786642,-0.206863,0.723234,0.0762198,0.00918342,0,0,0,0,0,0,0,0.367214,-0.216819,0.0254386,-1.77516,0.106948,1.39832,0.402395,0.536646,0.0378162,0.60877,-0.114439,0.396216,0.0890615,-0.000540287,2.2887,-27.881,1.28633,25.2094,1.87011,1.95275,0.0101778,-0.75356,0.645981,-2.55903,-0.531008,0.818014,0.365975,0.374205,1.10972,0.328166,-1.20276,0.537167,-0.259452,-0.0105067,
0.371402,-0.217065,0.0301764,-1.77802,0.114856,-0.172089,-0.38266,0.702779,0.0277395,0.797851,-0.205322,0.735776,0.0779127,0.00864548,0,0,0,0,0,0,0,0.367214,-0.216819,0.0254386,-1.77516,0.106948,1.39832,0.402395,0.536646,0.0378162,0.60877,-0.114439,0.396216,0.0890615,-0.000540287,2.2887,-27.881,1.28633,25.2094,1.87011,1.95275,0.0101778,-0.908599,-0.153285,-2.62904,-0.0501848,0.678323,0.0639442,0.0714378,0.946109,-0.00273527,-1.18443,0.44071,-0.245715,-0.00844454,
0.357754,-0.217517,0.0147973,-1.77388,0.101148,-0.17365,-0.382857,0.646042,0.013948,0.709175,-0.204339,0.55638,0.0885383,0.0118929,0,0,0,0,0,0,0,0.390285,-0.215452,0.0522051,-1.77967,0.1241,1.40174,0.402391,0.514707,0.0332565,0.616223,-0.0990174,0.398567,0.0763591,-0.000784557,1.85627,-27.2582,0.762648,24.7372,1.56433,2.19811,0.0101778,-0.908599,-0.153285,-2.62904,-0.0501848,0.678323,0.0639442,0.0714378,0.946109,-0.00273527,-1.18443,0.44071,-0.245715,-0.00844454,
0.397496,-0.215335,0.0602194,-1.78181,0.130099,-0.167582,-0.382854,0.623702,0.00960543,0.700585,-0.192446,0.550822,0.122977,0.0121239,0,0,0,0,0,0,0,0.390285,-0.215452,0.0522051,-1.77967,0.1241,1.40174,0.402391,0.514707,0.0332565,0.616223,-0.0990174,0.398567,0.0763591,-0.000784557,1.85627,-27.2582,0.762648,24.7372,1.56433,2.19811,0.0101778,-2.11696,0.253512,-2.60182,-0.320551,-0.243745,0.509639,0.564207,0.517265,0.460599,-1.06248,0.468157,-0.223498,-0.0109937,
0.40006,-0.215282,0.0631292,-1.7826,0.132479,-0.167111,-0.382809,0.640782,0.0130827,0.727434,-0.196448,0.594982,0.117887,0.0112861,0,0,0,0,0,0,0,0.390285,-0.215452,0.0522051,-1.77967,0.1241,1.40174,0.402391,0.514707,0.0332565,0.616223,-0.0990174,0.398567,0.0763591,-0.000784557,1.85627,-27.2582,0.762648,24.7372,1.56433,2.19811,0.0101778,-2.11696,0.253512,-2.60182,-0.320551,-0.243745,0.509639,0.564207,0.517265,0.460599,-1.06248,0.468157,-0.223498,-0.0109937,
0.402689,-0.215215,0.0661238,-1.78339,0.134979,-0.166657,-0.382767,0.657437,0.0167687,0.748665,-0.197745,0.624963,0.113553,0.0105051,0,0,0,0,0,0,0,0.390285,-0.215452,0.0522051,-1.77967,0.1241,1.40174,0.402391,0.514707,0.0332565,0.616223,-0.0990174,0.398567,0.0763591,-0.000784557,1.85627,-27.2582,0.762648,24.7372,1.56433,2.19811,0.0101778,-0.973896,0.0762738,-2.74694,-0.182876,0.727488,0.178351,0.240997,1.03091,0.0645098,-1.2446,0.54397,-0.255788,-0.00802287,
0.405378,-0.215135,0.0691869,-1.78418,0.137554,-0.166213,-0.382728,0.672108,0.0200546,0.765776,-0.197836,0.643728,0.11081,0.00978473,0,0,0,0,0,0,0,0.390285,-0.215452,0.0522051,-1.77967,0.1241,1.40174,0.402391,0.514707,0.0332565,0.616223,-0.0990174,0.398567,0.0763591,-0.000784557,1.85627,-27.2582,0.762648,24.7372,1.56433,2.19811,0.0101778,-0.973896,0.0762738,-2.74694,-0.182876,0.727488,0.178351,0.240997,1.03091,0.0645098,-1.2446,0.54397,-0.255788,-0.00802287,
0.408113,-0.215044,0.0723061,-1.78497,0.140176,-0.165774,-0.382691,0.683906,0.0227928,0.779799,-0.19739,0.655569,0.10973,0.00913467,0,0,0,0,0,0,0,0.406605,-0.214599,0.0716597,-1.78299,0.135992,1.40485,0.402397,0.549092,0.0260819,0.627131,-0.112153,0.353558,0.124126,0.000247249,0.638309,-27.032,-0.463243,25.0864,1.5158,2.20452,-0.0026396,-0.993557,1.13784,-2.63991,-0.860139,0.745759,0.61958,0.63827,1.17963,0.593665,-1.25025,0.680627,-0.277722,-0.00960408,
0.410886,-0.214944,0.0754701,-1.78576,0.142831,-0.165334,-0.382657,0.693033,0.0250145,0.790979,-0.196667,0.663531,0.110125,0.00851946,0,0,0,0,0,0,0,0.406605,-0.214599,0.0716597,-1.78299,0.135992,1.40485,0.402397,0.549092,0.0260819,0.627131,-0.112153,0.353558,0.124126,0.000247249,0.638309,-27.032,-0.463243,25.0864,1.5158,2.20452,-0.0026396,-0.863389,-1.1405,-2.22718,0.673659,0.55276,-0.335862,-0.30181,0.653055,-0.485281,-1.0025,0.418733,-0.232839,-0.00683299,
0.397505,-0.215336,0.0602251,-1.78181,0.13,-0.167562,-0.382854,0.62448,0.00944357,0.701251,-0.19241,0.539305,0.125308,0.0120686,0,0,0,0,0,0,0,0.406605,-0.214599,0.0716597,-1.78299,0.135992,1.40485,0.402397,0.549092,0.0260819,0.627131,-0.112153,0.353558,0.124126,0.000247249,0.638309,-27.032,-0.463243,25.0864,1.5158,2.20452,-0.0026396,-0.863389,-1.1405,-2.22718,0.673659,0.55276,-0.335862,-0.30181,0.653055,-0.485281,-1.0025,0.418733,-0.232839,-0.00683299,
0.413879,-0.21448,0.079912,-1.78511,0.141604,-0.164098,-0.382857,0.627825,0.0107921,0.716116,-0.187623,0.511656,0.151141,0.0114867,0,0,0,0,0,0,0,0.406605,-0.214599,0.0716597,-1.78299,0.135992,1.40485,0.402397,0.549092,0.0260819,0.627131,-0.112153,0.353558,0.124126,0.000247249,0.638309,-27.032,-0.463243,25.0864,1.5158,2.20452,-0.0026396,-1.6807,-0.170228,-2.38772,-0.0233016,0.0226184,0.272129,0.346209,0.566233,0.168425,-1.01968,0.483898,-0.230471,-0.00855878,
0.416464,-0.214424,0.0828629,-1.78587,0.143758,-0.163518,-0.382815,0.646418,0.0142039,0.737739,-0.190567,0.538394,0.145019,0.0106722,0,0,0,0,0,0,0,0.406605,-0.214599,0.0716597,-1.78299,0.135992,1.40485,0.402397,0.549092,0.0260819,0.627131,-0.112153,0.353558,0.124126,0.000247249,0.638309,-27.032,-0.463243,25.0864,1.5158,2.20452,-0.0026396,-1.6807,-0.170228,-2.38772,-0.0233016,0.0226184,0.272129,0.346209,0.566233,0.168425,-1.01968,0.483898,-0.230471,-0.00855878,
0.419111,-0.214354,0.0858854,-1.78664,0.145989,-0.162958,-0.382775,0.661572,0.0174839,0.755615,-0.191725,0.557767,0.14004,0.0099175,0,0,0,0,0,0,0,0.423228,-0.213797,0.091312,-1.7866,0.147912,1.40938,0.402399,0.541898,0.0214998,0.62748,-0.116048,0.346818,0.160856,-0.000136169,-0.551876,-26.8099,-1.28844,25.3085,2.15667,1.89232,-0.0163725,-1.46245,0.2833,-2.37858,-0.28809,0.26409,0.400895,0.460762,0.765707,0.313185,-1.0799,0.601639,-0.263069,-0.00785547,
0.421805,-0.214272,0.0889657,-1.7874,0.14828,-0.162411,-0.382738,0.673576,0.0203253,0.770081,-0.192081,0.572842,0.136707,0.0092045,0,0,0,0,0,0,0,0.423228,-0.213797,0.091312,-1.7866,0.147912,1.40938,0.402399,0.541898,0.0214998,0.62748,-0.116048,0.346818,0.160856,-0.000136169,-0.551876,-26.8099,-1.28844,25.3085,2.15667,1.89232,-0.0163725,-1.13187,1.47772,-2.78509,-1.16988,0.73115,0.793174,0.79514,1.28976,0.807331,-1.32211,0.741545,-0.292603,-0.00960376,
0.424536,-0.214182,0.0920919,-1.78817,0.150621,-0.161871,-0.382703,0.682786,0.0226923,0.78154,-0.191989,0.585226,0.135001,0.00869574,0,0,0,0,0,0,0,0.423228,-0.213797,0.091312,-1.7866,0.147912,1.40938,0.402399,0.541898,0.0214998,0.62748,-0.116048,0.346818,0.160856,-0.000136169,-0.551876,-26.8099,-1.28844,25.3085,2.15667,1.89232,-0.0163725,-1.13187,1.47772,-2.78509,-1.16988,0.73115,0.793174,0.79514,1.28976,0.807331,-1.32211,0.741545,-0.292603,-0.00960376,
0.427297,-0.214083,0.0952541,-1.78894,0.152984,-0.161332,-0.382671,0.690256,0.0246559,0.790554,-0.191313,0.590834,0.134638,0.0080987,0,0,0,0,0,0,0,0.423228,-0.213797,0.091312,-1.7866,0.147912,1.40938,0.402399,0.541898,0.0214998,0.62748,-0.116048,0.346818,0.160856,-0.000136169,-0.551876,-26.8099,-1.28844,25.3085,2.15667,1.89232,-0.0163725,-0.771661,-0.341839,-3.06847,-0.116039,0.960214,-0.0183257,-0.0219517,1.20143,-0.0778399,-1.39455,0.492431,-0.271245,-0.00685744,
0.41394,-0.214489,0.0799543,-1.7851,0.140831,-0.164004,-0.382862,0.633698,0.00970788,0.721105,-0.186605,0.422659,0.162078,0.0110454,0,0,0,0,0,0,0,0.423228,-0.213797,0.091312,-1.7866,0.147912,1.40938,0.402399,0.541898,0.0214998,0.62748,-0.116048,0.346818,0.160856,-0.000136169,-0.551876,-26.8099,-1.28844,25.3085,2.15667,1.89232,-0.0163725,-0.771661,-0.341839,-3.06847,-0.116039,0.960214,-0.0183257,-0.0219517,1.20143,-0.0778399,-1.39455,0.492431,-0.271245,-0.00685744,
0.430501,-0.213691,0.0995971,-1.78863,0.15227,-0.159152,-0.382863,0.629775,0.00977803,0.718538,-0.179853,0.367872,0.187808,0.0108556,0,0,0,0,0,0,0,0.423228,-0.213797,0.091312,-1.7866,0.147912,1.40938,0.402399,0.541898,0.0214998,0.62748,-0.116048,0.346818,0.160856,-0.000136169,-0.551876,-26.8099,-1.28844,25.3085,2.15667,1.89232,-0.0163725,-1.03219,-1.05325,-2.5801,0.416889,0.513233,-0.206629,-0.141237,0.749215,-0.347124,-1.13176,0.371685,-0.233949,-0.00658259,
0.43309,-0.213641,0.102556,-1.78937,0.153761,-0.15842,-0.382823,0.647092,0.0126923,0.739647,-0.1831,0.372789,0.18293,0.00999123,0,0,0,0,0,0,0,0.439814,-0.213098,0.111135,-1.79014,0.158427,1.41464,0.4024,0.532373,0.0274152,0.649706,-0.11241,0.322593,0.171362,4.68722e-05,0.25745,-26.8852,-0.986925,25.8084,2.34069,1.80627,-0.0301054,-1.05116,0.456105,-2.38959,-0.519441,0.53924,0.400675,0.467131,0.962725,0.324046,-1.11589,0.558464,-0.255739,-0.0104513,
0.435732,-0.213579,0.105581,-1.79011,0.155276,-0.157706,-0.382785,0.660537,0.0155401,0.756362,-0.184791,0.378817,0.17865,0.00934875,0,0,0,0,0,0,0,0.439814,-0.213098,0.111135,-1.79014,0.158427,1.41464,0.4024,0.532373,0.0274152,0.649706,-0.11241,0.322593,0.171362,4.68722e-05,0.25745,-26.8852,-0.986925,25.8084,2.34069,1.80627,-0.0301054,-1.05116,0.456105,-2.38959,-0.519441,0.53924,0.400675,0.467131,0.962725,0.324046,-1.11589,0.558464,-0.255739,-0.0104513,
0.438418,-0.213506,0.108659,-1.79085,0.1568,-0.157004,-0.382751,0.671399,0.0180987,0.769551,-0.185391,0.380849,0.175444,0.00864015,0,0,0,0,0,0,0,0.439814,-0.213098,0.111135,-1.79014,0.158427,1.41464,0.4024,0.532373,0.0274152,0.649706,-0.11241,0.322593,0.171362,4.68722e-05,0.25745,-26.8852,-0.986925,25.8084,2.34069,1.80627,-0.0301054,-1.06114,1.6034,-2.66443,-1.35655,0.685116,0.845188,0.861884,1.29398,0.872953,-1.26483,0.675658,-0.271754,-0.0119522,
0.441134,-0.213425,0.111778,-1.79159,0.158337,-0.156309,-0.382718,0.679142,0.0202085,0.779712,-0.185665,0.384427,0.173619,0.00810141,0,0,0,0,0,0,0,0.439814,-0.213098,0.111135,-1.79014,0.158427,1.41464,0.4024,0.532373,0.0274152,0.649706,-0.11241,0.322593,0.171362,4.68722e-05,0.25745,-26.8852,-0.986925,25.8084,2.34069,1.80627,-0.0301054,-1.06114,1.6034,-2.66443,-1.35655,0.685116,0.845188,0.861884,1.29398,0.872953,-1.26483,0.675658,-0.271754,-0.0119522,
0.443875,-0.213337,0.114928,-1.79233,0.15987,-0.155618,-0.382688,0.685213,0.0219879,0.787452,-0.185304,0.383216,0.172941,0.00763515,0,0,0,0,0,0,0,0.439814,-0.213098,0.111135,-1.79014,0.158427,1.41464,0.4024,0.532373,0.0274152,0.649706,-0.11241,0.322593,0.171362,4.68722e-05,0.25745,-26.8852,-0.986925,25.8084,2.34069,1.80627,-0.0301054,-1.12947,-0.481591,-2.3065,0.040419,0.40033,0.0689222,0.0735024,0.750101,0.0146202,-1.07093,0.446313,-0.271979,-0.00857843,
0.430711,-0.213712,0.0997391,-1.78857,0.149487,-0.159002,-0.382879,0.64933,0.0066607,0.735057,-0.174132,0.0507183,0.20543,0.00948174,0,0,0,0,0,0,0,0.457588,-0.212234,0.132266,-1.79351,0.167259,1.42047,0.402404,0.52496,0.035899,0.640382,-0.0963893,0.249471,0.182434,0.000397761,1.93164,-27.3573,0.238966,25.5585,1.3327,1.97198,-0.0227812,-1.12947,-0.481591,-2.3065,0.040419,0.40033,0.0689222,0.0735024,0.750101,0.0146202,-1.07093,0.446313,-0.271979,-0.00857843,
0.464971,-0.212059,0.140645,-1.79539,0.167842,-0.147556,-0.382871,0.639251,0.0123476,0.728698,-0.169144,-0.0235455,0.234968,0.00973349,0,0,0,0,0,0,0,0.457588,-0.212234,0.132266,-1.79351,0.167259,1.42047,0.402404,0.52496,0.035899,0.640382,-0.0963893,0.249471,0.182434,0.000397761,1.93164,-27.3573,0.238966,25.5585,1.3327,1.97198,-0.0227812,-0.935884,-1.25725,-1.69499,0.624152,0.227441,-0.251279,-0.19539,0.39233,-0.382695,-0.794872,0.280595,-0.235984,-0.00551169,
0.467593,-0.212006,0.143644,-1.79609,0.167547,-0.146632,-0.382835,0.655531,0.0132051,0.749807,-0.173651,-0.0738616,0.231092,0.00894843,0,0,0,0,0,0,0,0.457588,-0.212234,0.132266,-1.79351,0.167259,1.42047,0.402404,0.52496,0.035899,0.640382,-0.0963893,0.249471,0.182434,0.000397761,1.93164,-27.3573,0.238966,25.5585,1.3327,1.97198,-0.0227812,-0.935884,-1.25725,-1.69499,0.624152,0.227441,-0.251279,-0.19539,0.39233,-0.382695,-0.794872,0.280595,-0.235984,-0.00551169,
0.470261,-0.211948,0.146706,-1.79679,0.167111,-0.145727,-0.382802,0.666956,0.0144537,0.765459,-0.176502,-0.109011,0.22626,0.00834753,0,0,0,0,0,0,0,0.457588,-0.212234,0.132266,-1.79351,0.167259,1.42047,0.402404,0.52496,0.035899,0.640382,-0.0963893,0.249471,0.182434,0.000397761,1.93164,-27.3573,0.238966,25.5585,1.3327,1.97198,-0.0227812,-0.439395,0.722979,-2.03213,-0.820634,0.770001,0.368935,0.419001,1.08123,0.339261,-1.02317,0.408993,-0.248596,-0.00768001,
0.472963,-0.211885,0.149813,-1.79751,0.166556,-0.144841,-0.38277,0.675461,0.0158246,0.776928,-0.178051,-0.138664,0.221462,0.00785507,0,0,0,0,0,0,0,0.457588,-0.212234,0.132266,-1.79351,0.167259,1.42047,0.402404,0.52496,0.035899,0.640382,-0.0963893,0.249471,0.182434,0.000397761,1.93164,-27.3573,0.238966,25.5585,1.3327,1.97198,-0.0227812,-0.871334,0.531626,-2.19543,-0.730643,0.574405,0.413474,0.439889,1.02327,0.401657,-1.10735,0.45974,-0.306221,-0.00384406,
0.475688,-0.211816,0.152954,-1.79822,0.165902,-0.143972,-0.382741,0.681275,0.0170759,0.78517,-0.178908,-0.163461,0.21732,0.00741821,0,0,0,0,0,0,0,0.457588,-0.212234,0.132266,-1.79351,0.167259,1.42047,0.402404,0.52496,0.035899,0.640382,-0.0963893,0.249471,0.182434,0.000397761,1.93164,-27.3573,0.238966,25.5585,1.3327,1.97198,-0.0227812,-0.871334,0.531626,-2.19543,-0.730643,0.574405,0.413474,0.439889,1.02327,0.401657,-1.10735,0.45974,-0.306221,-0.00384406,
0.465102,-0.212192,0.140665,-1.79538,0.162955,-0.14693,-0.382888,0.645528,-0.00322066,0.730014,-0.167727,-0.579097,0.301591,0.00877882,0,0,0,0,0,0,0,0.475716,-0.211314,0.153659,-1.79656,0.172023,1.4269,0.4024,0.569633,0.0352592,0.661938,-0.0781946,0.0176451,0.217372,-0.00109684,-0.500302,-27.6589,-1.83592,25.1102,0.397946,2.19079,0.0101778,-0.808825,-1.84075,-1.80157,0.851361,0.282566,-0.464196,-0.422784,0.380539,-0.587287,-0.858307,0.140616,-0.264061,-0.000447782,
0.483258,-0.211319,0.162202,-1.79836,0.166744,-0.14025,-0.38289,0.639152,-0.00714585,0.731814,-0.165627,-0.590744,0.317549,0.00880758,0,0,0,0,0,0,0,0.475716,-0.211314,0.153659,-1.79656,0.172023,1.4269,0.4024,0.569633,0.0352592,0.661938,-0.0781946,0.0176451,0.217372,-0.00109684,-0.500302,-27.6589,-1.83592,25.1102,0.397946,2.19079,0.0101778,-0.808825,-1.84075,-1.80157,0.851361,0.282566,-0.464196,-0.422784,0.380539,-0.587287,-0.858307,0.140616,-0.264061,-0.000447782,
0.485829,-0.211353,0.165166,-1.79905,0.164018,-0.138977,-0.382856,0.642798,-0.00855717,0.740922,-0.172385,-0.681598,0.318276,0.00847806,0,0,0,0,0,0,0,0.475716,-0.211314,0.153659,-1.79656,0.172023,1.4269,0.4024,0.569633,0.0352592,0.661938,-0.0781946,0.0176451,0.217372,-0.00109684,-0.500302,-27.6589,-1.83592,25.1102,0.397946,2.19079,0.0101778,-0.95808,-1.43534,-1.95218,0.419208,0.0674583,-0.230847,-0.172066,0.371424,-0.30369,-0.853083,-0.0185058,-0.206165,-0.00494214,
0.488402,-0.211387,0.168146,-1.79975,0.161035,-0.137714,-0.382823,0.643297,-0.00852358,0.745151,-0.176543,-0.745676,0.315722,0.00817001,0,0,0,0,0,0,0,0.475716,-0.211314,0.153659,-1.79656,0.172023,1.4269,0.4024,0.569633,0.0352592,0.661938,-0.0781946,0.0176451,0.217372,-0.00109684,-0.500302,-27.6589,-1.83592,25.1102,0.397946,2.19079,0.0101778,-1.1329,0.445539,-2.1578,-0.942389,0.0386011,0.522713,0.551113,0.743574,0.590851,-0.965862,0.0750276,-0.207914,-0.00704259,
0.490969,-0.211418,0.17113,-1.80047,0.157871,-0.136467,-0.382792,0.641609,-0.00778404,0.746043,-0.179231,-0.790915,0.31189,0.00788908,0,0,0,0,0,0,0,0.475716,-0.211314,0.153659,-1.79656,0.172023,1.4269,0.4024,0.569633,0.0352592,0.661938,-0.0781946,0.0176451,0.217372,-0.00109684,-0.500302,-27.6589,-1.83592,25.1102,0.397946,2.19079,0.0101778,-1.1329,0.445539,-2.1578,-0.942389,0.0386011,0.522713,0.551113,0.743574,0.590851,-0.965862,0.0750276,-0.207914,-0.00704259,
0.493523,-0.211445,0.174109,-1.8012,0.15458,-0.135236,-0.38276,0.638441,-0.00669812,0.74466,-0.18095,-0.822951,0.307717,0.00785994,0,0,0,0,0,0,0,0.49817,-0.209994,0.180385,-1.79971,0.168093,1.4362,0.402406,0.575532,0.0304519,0.672579,-0.0750067,-0.274609,0.243811,0.000328666,-0.246395,-27.5597,-1.8875,25.4593,0.17181,2.06536,-0.0365141,-1.17961,1.07244,-2.49382,-1.51489,0.104616,0.772418,0.78412,0.991007,0.906845,-1.12557,0.0682017,-0.226355,-0.0071758,
0.49606,-0.211467,0.177076,-1.80192,0.151197,-0.134021,-0.382731,0.634276,-0.00546367,0.741735,-0.181966,-0.845689,0.303652,0.00739847,0,0,0,0,0,0,0,0.49817,-0.209994,0.180385,-1.79971,0.168093,1.4362,0.402406,0.575532,0.0304519,0.672579,-0.0750067,-0.274609,0.243811,0.000328666,-0.246395,-27.5597,-1.8875,25.4593,0.17181,2.06536,-0.0365141,-1.17961,1.07244,-2.49382,-1.51489,0.104616,0.772418,0.78412,0.991007,0.906845,-1.12557,0.0682017,-0.226355,-0.0071758,
0.482914,-0.211378,0.161855,-1.79841,0.166786,-0.140313,-0.382898,0.602393,-0.0128915,0.691698,-0.168206,-0.613799,0.308421,0.00841423,0,0,0,0,0,0,0,0.49817,-0.209994,0.180385,-1.79971,0.168093,1.4362,0.402406,0.575532,0.0304519,0.672579,-0.0750067,-0.274609,0.243811,0.000328666,-0.246395,-27.5597,-1.8875,25.4593,0.17181,2.06536,-0.0365141,-1.20334,-0.273286,-2.578,-0.768636,-0.0413159,0.329606,0.384489,0.733035,0.393856,-1.12972,-0.184115,-0.234995,-0.00440709,
