PerkyPenguin/Analysis-on-Approximated-Derivatives/Code_and_Data/PaperData/Real_Robot/Scene_1/set_interval/9/trajectory.csv
Commanded Joint 0 Position,Commanded Joint 1 Position,Commanded Joint 2 Position,Commanded Joint 3 Position,Commanded Joint 4 Position,Commanded Joint 5 Position,Commanded Joint 6 Position,Commanded Joint 0 Velocity,Commanded Joint 1 Velocity,Commanded Joint 2 Velocity,Commanded Joint 3 Velocity,Commanded Joint 4 Velocity,Commanded Joint 5 Velocity,Commanded Joint 6 Velocity,Commanded Joint 0 Torque,Commanded Joint 1 Torque,Commanded Joint 2 Torque,Commanded Joint 3 Torque,Commanded Joint 4 Torque,Commanded Joint 5 Torque,Commanded Joint 6 Torque,Actual Joint 0 Position,Actual Joint 1 Position,Actual Joint 2 Position,Actual Joint 3 Position,Actual Joint 4 Position,Actual Joint 5 Position,Actual Joint 6 Position,Actual Joint 0 Velocity,Actual Joint 1 Velocity,Actual Joint 2 Velocity,Actual Joint 3 Velocity,Actual Joint 4 Velocity,Actual Joint 5 Velocity,Actual Joint 6 Velocity,Actual Joint 0 Torque,Actual Joint 1 Torque,Actual Joint 2 Torque,Actual Joint 3 Torque,Actual Joint 4 Torque,Actual Joint 5 Torque,Actual Joint 6 Torque,EE ext force 0,EE ext force 1,EE ext force 2,EE ext force 3,EE ext force 4,EE ext force 5,joint ext torque 0,joint ext torque 1,joint ext torque 2,joint ext torque 3,joint ext torque 4,joint ext torque 5,joint ext torque 6,
0.0123859,-0.196428,-0.333024,-1.66063,-0.091466,-0.0873982,-0.382521,-0.0014831,0.0164882,-0.0113148,-0.150668,0.00424299,0.199748,-0.00218029,0,0,0,0,0,0,0,0.0123803,-0.196438,-0.332942,-1.65911,-0.0914897,1.4814,0.402904,-0.000572504,-0.0033452,0.000338317,0.00107019,0.00983646,-0.000231421,0.000139784,-0.0440639,-25.5602,1.83778,25.8798,0.392452,2.95983,-0.050247,-1.4481,0.0338102,-0.489209,0.0534553,-0.575545,-0.199222,-0.094665,-0.100999,-0.296646,-0.359912,-0.128446,-0.3543,-0.0366488,
0.0123744,-0.196288,-0.333082,-1.66127,-0.0914526,-0.0865706,-0.382529,-0.00286694,0.035081,-0.0143647,-0.159783,0.0033576,0.206877,-0.002067,0,0,0,0,0,0,0,0.0123803,-0.196438,-0.332942,-1.65911,-0.0914897,1.4814,0.402904,-0.000572504,-0.0033452,0.000338317,0.00107019,0.00983646,-0.000231421,0.000139784,-0.0440639,-25.5602,1.83778,25.8798,0.392452,2.95983,-0.050247,-1.4481,0.0338102,-0.489209,0.0534553,-0.575545,-0.199222,-0.094665,-0.100999,-0.296646,-0.359912,-0.128446,-0.3543,-0.0366488,
0.0123827,-0.196476,-0.332939,-1.6591,-0.0913963,-0.0893949,-0.382494,0.0002099,-0.00193158,0.000233503,0.000974036,0.00417838,0.000253592,4.53069e-06,0,0,0,0,0,0,0,0.0123803,-0.196438,-0.332942,-1.65911,-0.0914897,1.4814,0.402904,-0.000572504,-0.0033452,0.000338317,0.00107019,0.00983646,-0.000231421,0.000139784,-0.0440639,-25.5602,1.83778,25.8798,0.392452,2.95983,-0.050247,-1.57426,0.0668941,-0.35581,0.00417965,-0.725739,-0.207557,-0.101804,-0.208788,-0.298094,-0.290357,-0.13126,-0.350415,-0.0358493,
0.0123836,-0.196483,-0.332938,-1.65909,-0.0913825,-0.0893935,-0.382494,0.000216651,-0.00171106,0.000241452,0.000882934,0.00344197,0.000341765,2.12781e-06,0,0,0,0,0,0,0,0.0123839,-0.196424,-0.33294,-1.65911,-0.0915201,1.4814,0.402902,0.000100108,0.001347,0.000522972,-0.00114931,-0.000228497,-0.00187476,0.000353447,-0.0956386,-25.7109,1.81398,25.5823,0.624081,2.9937,-0.0566557,-1.57426,0.0668941,-0.35581,0.00417965,-0.725739,-0.207557,-0.101804,-0.208788,-0.298094,-0.290357,-0.13126,-0.350415,-0.0358493,
0.0123844,-0.196489,-0.332937,-1.65909,-0.0913711,-0.089392,-0.382494,0.000214169,-0.00152127,0.000236763,0.000798202,0.00285054,0.000397199,5.69962e-07,0,0,0,0,0,0,0,0.0123839,-0.196424,-0.33294,-1.65911,-0.0915201,1.4814,0.402902,0.000100108,0.001347,0.000522972,-0.00114931,-0.000228497,-0.00187476,0.000353447,-0.0956386,-25.7109,1.81398,25.5823,0.624081,2.9937,-0.0566557,-1.47922,0.123279,-0.727009,0.0127725,-0.535344,-0.16184,-0.0578743,-0.0502044,-0.257476,-0.420147,-0.126524,-0.329805,-0.0379973,
0.0123852,-0.196494,-0.332936,-1.65909,-0.0913616,-0.0893903,-0.382494,0.000205896,-0.00135777,0.000224286,0.000720875,0.00237085,0.000425326,-3.86806e-07,0,0,0,0,0,0,0,0.0123839,-0.196424,-0.33294,-1.65911,-0.0915201,1.4814,0.402902,0.000100108,0.001347,0.000522972,-0.00114931,-0.000228497,-0.00187476,0.000353447,-0.0956386,-25.7109,1.81398,25.5823,0.624081,2.9937,-0.0566557,-3.01697,0.531398,-1.14608,-0.239071,-1.58992,-0.249151,-0.141271,-0.591265,-0.322592,-0.372226,-0.121156,-0.317691,-0.0376342,
0.012386,-0.196499,-0.332936,-1.65908,-0.0913537,-0.0893885,-0.382494,0.000194214,-0.0012169,0.000207327,0.00065099,0.00197816,0.000431633,-9.23754e-07,0,0,0,0,0,0,0,0.0123839,-0.196424,-0.33294,-1.65911,-0.0915201,1.4814,0.402902,0.000100108,0.001347,0.000522972,-0.00114931,-0.000228497,-0.00187476,0.000353447,-0.0956386,-25.7109,1.81398,25.5823,0.624081,2.9937,-0.0566557,-3.01697,0.531398,-1.14608,-0.239071,-1.58992,-0.249151,-0.141271,-0.591265,-0.322592,-0.372226,-0.121156,-0.317691,-0.0376342,
0.0123867,-0.196503,-0.332935,-1.65908,-0.0913471,-0.0893868,-0.382494,0.000180742,-0.00109555,0.000188102,0.000588189,0.0016539,0.000421056,-1.17272e-06,0,0,0,0,0,0,0,0.0123839,-0.196424,-0.33294,-1.65911,-0.0915201,1.4814,0.402902,0.000100108,0.001347,0.000522972,-0.00114931,-0.000228497,-0.00187476,0.000353447,-0.0956386,-25.7109,1.81398,25.5823,0.624081,2.9937,-0.0566557,-1.78565,0.170339,-1.52774,0.0721897,-0.5521,-0.190283,-0.0804974,0.0339365,-0.305118,-0.604062,-0.127001,-0.25227,-0.037889,
0.0123874,-0.196507,-0.332934,-1.65908,-0.0913416,-0.0893853,-0.382494,0.00016656,-0.000991013,0.000168073,0.00053197,0.00138404,0.000397824,-1.22782e-06,0,0,0,0,0,0,0,0.0123912,-0.196434,-0.33293,-1.65946,-0.0915217,1.48237,0.4029,-0.00146527,-0.00543812,0.0016448,0.00120663,-0.00192275,0.00121907,-0.000757981,-0.198788,-25.6593,1.71083,26.4313,0.654293,3.15941,-0.00996382,-1.78565,0.170339,-1.52774,0.0721897,-0.5521,-0.190283,-0.0804974,0.0339365,-0.305118,-0.604062,-0.127001,-0.25227,-0.037889,
0.012388,-0.196511,-0.332934,-1.65908,-0.0913369,-0.0893838,-0.382494,0.000152372,-0.000900962,0.000148183,0.00048178,0.00115786,0.000365455,-1.15552e-06,0,0,0,0,0,0,0,0.0123912,-0.196434,-0.33293,-1.65946,-0.0915217,1.48237,0.4029,-0.00146527,-0.00543812,0.0016448,0.00120663,-0.00192275,0.00121907,-0.000757981,-0.198788,-25.6593,1.71083,26.4313,0.654293,3.15941,-0.00996382,-0.852066,-0.166497,-1.60318,0.340908,0.17786,-0.176044,-0.0700957,0.451227,-0.319425,-0.726113,-0.123231,-0.228579,-0.0381579,
0.0123886,-0.196514,-0.332933,-1.65908,-0.0913331,-0.0893825,-0.382494,0.000138623,-0.000823376,0.000129018,0.000437065,0.000967101,0.000326816,-1.00236e-06,0,0,0,0,0,0,0,0.0123912,-0.196434,-0.33293,-1.65946,-0.0915217,1.48237,0.4029,-0.00146527,-0.00543812,0.0016448,0.00120663,-0.00192275,0.00121907,-0.000757981,-0.198788,-25.6593,1.71083,26.4313,0.654293,3.15941,-0.00996382,-0.852066,-0.166497,-1.60318,0.340908,0.17786,-0.176044,-0.0700957,0.451227,-0.319425,-0.726113,-0.123231,-0.228579,-0.0381579,
0.0123891,-0.196517,-0.332933,-1.65907,-0.0913298,-0.0893814,-0.382494,0.000125581,-0.00075651,0.000110921,0.000397289,0.000805325,0.000284206,-8.0075e-07,0,0,0,0,0,0,0,0.0123912,-0.196434,-0.33293,-1.65946,-0.0915217,1.48237,0.4029,-0.00146527,-0.00543812,0.0016448,0.00120663,-0.00192275,0.00121907,-0.000757981,-0.198788,-25.6593,1.71083,26.4313,0.654293,3.15941,-0.00996382,-1.30355,0.141075,-1.19765,0.0459633,-0.355689,-0.117017,-0.00920062,0.0702824,-0.224691,-0.486625,-0.107307,-0.1984,-0.0381723,
0.0123895,-0.19652,-0.332932,-1.65907,-0.0913272,-0.0893804,-0.382494,0.000113394,-0.000698862,9.40749e-05,0.000361953,0.000667465,0.000239435,-5.73048e-07,0,0,0,0,0,0,0,0.0123912,-0.196434,-0.33293,-1.65946,-0.0915217,1.48237,0.4029,-0.00146527,-0.00543812,0.0016448,0.00120663,-0.00192275,0.00121907,-0.000757981,-0.198788,-25.6593,1.71083,26.4313,0.654293,3.15941,-0.00996382,-1.4573,0.0910412,-1.42403,0.0972044,-0.365584,-0.167015,-0.0543181,0.110843,-0.28468,-0.570865,-0.137573,-0.216634,-0.037595,
0.0123899,-0.196523,-0.332932,-1.65907,-0.091325,-0.0893796,-0.382494,0.000102127,-0.000649143,7.85526e-05,0.000330592,0.000549492,0.000193908,-3.34509e-07,0,0,0,0,0,0,0,0.0123912,-0.196434,-0.33293,-1.65946,-0.0915217,1.48237,0.4029,-0.00146527,-0.00543812,0.0016448,0.00120663,-0.00192275,0.00121907,-0.000757981,-0.198788,-25.6593,1.71083,26.4313,0.654293,3.15941,-0.00996382,-1.4573,0.0910412,-1.42403,0.0972044,-0.365584,-0.167015,-0.0543181,0.110843,-0.28468,-0.570865,-0.137573,-0.216634,-0.037595,
0.0123903,-0.196525,-0.332932,-1.65907,-0.0913232,-0.089379,-0.382494,9.17952e-05,-0.000606242,6.4358e-05,0.000302781,0.000448167,0.000148688,-9.53794e-08,0,0,0,0,0,0,0,0.0123803,-0.196376,-0.332943,-1.65937,-0.0915123,1.48245,0.402901,0.00116906,0.0142377,0.0011634,0.00248804,-0.00609187,0.00482409,0.000215028,-0.0440639,-26.2346,1.88936,25.856,0.612179,2.86095,-0.0163725,-2.09756,0.276759,-1.13682,-0.0746741,-0.952645,-0.199577,-0.0849548,-0.261736,-0.295962,-0.403682,-0.128957,-0.237348,-0.035781,
0.0123906,-0.196527,-0.332931,-1.65907,-0.0913217,-0.0893786,-0.382494,8.23782e-05,-0.000569209,5.14509e-05,0.000278135,0.000360868,0.000104565,1.37623e-07,0,0,0,0,0,0,0,0.0123803,-0.196376,-0.332943,-1.65937,-0.0915123,1.48245,0.402901,0.00116906,0.0142377,0.0011634,0.00248804,-0.00609187,0.00482409,0.000215028,-0.0440639,-26.2346,1.88936,25.856,0.612179,2.86095,-0.0163725,-2.09756,0.276759,-1.13682,-0.0746741,-0.952645,-0.199577,-0.0849548,-0.261736,-0.295962,-0.403682,-0.128957,-0.237348,-0.035781,
0.0123909,-0.196529,-0.332931,-1.65907,-0.0913206,-0.0893784,-0.382494,7.3835e-05,-0.000537227,3.97648e-05,0.000256307,0.000285447,6.21054e-05,3.60257e-07,0,0,0,0,0,0,0,0.0123803,-0.196376,-0.332943,-1.65937,-0.0915123,1.48245,0.402901,0.00116906,0.0142377,0.0011634,0.00248804,-0.00609187,0.00482409,0.000215028,-0.0440639,-26.2346,1.88936,25.856,0.612179,2.86095,-0.0163725,-1.82764,0.122782,-0.798496,-0.00303787,-0.880783,-0.223324,-0.112546,-0.279828,-0.319868,-0.299951,-0.122321,-0.22575,-0.0346615,
0.0123912,-0.196532,-0.332931,-1.65907,-0.0913197,-0.0893783,-0.382494,6.61128e-05,-0.000509596,2.92189e-05,0.000236983,0.000220134,2.1697e-05,5.70008e-07,0,0,0,0,0,0,0,0.0123803,-0.196376,-0.332943,-1.65937,-0.0915123,1.48245,0.402901,0.00116906,0.0142377,0.0011634,0.00248804,-0.00609187,0.00482409,0.000215028,-0.0440639,-26.2346,1.88936,25.856,0.612179,2.86095,-0.0163725,-1.82764,0.122782,-0.798496,-0.00303787,-0.880783,-0.223324,-0.112546,-0.279828,-0.319868,-0.299951,-0.122321,-0.22575,-0.0346615,
0.0123914,-0.196533,-0.332931,-1.65907,-0.0913191,-0.0893783,-0.382494,5.91528e-05,-0.000485717,1.97256e-05,0.000219884,0.000163459,-1.64118e-05,7.65561e-07,0,0,0,0,0,0,0,0.0123803,-0.196376,-0.332943,-1.65937,-0.0915123,1.48245,0.402901,0.00116906,0.0142377,0.0011634,0.00248804,-0.00609187,0.00482409,0.000215028,-0.0440639,-26.2346,1.88936,25.856,0.612179,2.86095,-0.0163725,-1.27264,0.121818,-1.27257,0.0915315,-0.2507,-0.124158,-0.0147247,0.164358,-0.240911,-0.574888,-0.106473,-0.255278,-0.035359,
0.0123916,-0.196535,-0.332931,-1.65906,-0.0913186,-0.0893785,-0.382494,5.28938e-05,-0.000465073,1.11964e-05,0.000204758,0.000114193,-5.20824e-05,9.46421e-07,0,0,0,0,0,0,0,0.0123846,-0.196385,-0.332937,-1.65933,-0.0914948,1.4825,0.4029,0.00217818,0.00153671,0.00151876,0.00162904,-0.00258002,0.00459101,0.00029541,-0.119442,-25.6117,1.81398,25.5585,0.452877,2.90032,-0.0429228,-1.27264,0.121818,-1.27257,0.0915315,-0.2507,-0.124158,-0.0147247,0.164358,-0.240911,-0.574888,-0.106473,-0.255278,-0.035359,
0.0123918,-0.196537,-0.332931,-1.65906,-0.0913183,-0.0893789,-0.382494,4.72758e-05,-0.000447224,3.54455e-06,0.000191383,7.13017e-05,-8.52597e-05,1.11265e-06,0,0,0,0,0,0,0,0.0123846,-0.196385,-0.332937,-1.65933,-0.0914948,1.4825,0.4029,0.00217818,0.00153671,0.00151876,0.00162904,-0.00258002,0.00459101,0.00029541,-0.119442,-25.6117,1.81398,25.5585,0.452877,2.90032,-0.0429228,-2.08421,0.139539,-0.985979,0.0152247,-0.970131,-0.261985,-0.149254,-0.284147,-0.364125,-0.37815,-0.133133,-0.265863,-0.0344517,
0.012392,-0.196539,-0.332931,-1.65906,-0.0913182,-0.0893793,-0.382494,4.22405e-05,-0.000431789,-3.31264e-06,0.00017956,3.39103e-05,-0.000115952,1.26466e-06,0,0,0,0,0,0,0,0.0123846,-0.196385,-0.332937,-1.65933,-0.0914948,1.4825,0.4029,0.00217818,0.00153671,0.00151876,0.00162904,-0.00258002,0.00459101,0.00029541,-0.119442,-25.6117,1.81398,25.5585,0.452877,2.90032,-0.0429228,-2.25645,0.113146,-0.580851,-0.0503378,-1.26018,-0.305017,-0.194339,-0.515808,-0.38953,-0.191638,-0.155302,-0.25144,-0.0350108,
0.0123921,-0.196541,-0.332931,-1.65906,-0.0913182,-0.0893799,-0.382494,3.77329e-05,-0.000418442,-9.45267e-06,0.000169112,1.2761e-06,-0.000144214,1.40313e-06,0,0,0,0,0,0,0,0.0123846,-0.196385,-0.332937,-1.65933,-0.0914948,1.4825,0.4029,0.00217818,0.00153671,0.00151876,0.00162904,-0.00258002,0.00459101,0.00029541,-0.119442,-25.6117,1.81398,25.5585,0.452877,2.90032,-0.0429228,-2.25645,0.113146,-0.580851,-0.0503378,-1.26018,-0.305017,-0.194339,-0.515808,-0.38953,-0.191638,-0.155302,-0.25144,-0.0350108,
0.0123923,-0.196542,-0.332931,-1.65906,-0.0913183,-0.0893806,-0.382494,3.37019e-05,-0.000406902,-1.49474e-05,0.000159881,-2.72346e-05,-0.000170133,1.52882e-06,0,0,0,0,0,0,0,0.0123846,-0.196385,-0.332937,-1.65933,-0.0914948,1.4825,0.4029,0.00217818,0.00153671,0.00151876,0.00162904,-0.00258002,0.00459101,0.00029541,-0.119442,-25.6117,1.81398,25.5585,0.452877,2.90032,-0.0429228,-1.14739,-0.00137996,-1.11292,0.149174,-0.190062,-0.160003,-0.0645095,0.184002,-0.267536,-0.548264,-0.125185,-0.27175,-0.0360225,
0.0123924,-0.196544,-0.332931,-1.65906,-0.0913185,-0.0893814,-0.382494,3.01e-05,-0.000396927,-1.98626e-05,0.00015173,-5.21643e-05,-0.000193821,1.64262e-06,0,0,0,0,0,0,0,0.0123846,-0.196385,-0.332937,-1.65933,-0.0914948,1.4825,0.4029,0.00217818,0.00153671,0.00151876,0.00162904,-0.00258002,0.00459101,0.00029541,-0.119442,-25.6117,1.81398,25.5585,0.452877,2.90032,-0.0429228,-1.14739,-0.00137996,-1.11292,0.149174,-0.190062,-0.160003,-0.0645095,0.184002,-0.267536,-0.548264,-0.125185,-0.27175,-0.0360225,
0.0123925,-0.196545,-0.332931,-1.65906,-0.0913188,-0.0893822,-0.382494,2.68839e-05,-0.000388311,-2.42586e-05,0.000144534,-7.39791e-05,-0.000215403,1.7454e-06,0,0,0,0,0,0,0,0.0123879,-0.196379,-0.332918,-1.65933,-0.0914925,1.48256,0.402904,-0.00220016,-0.00217158,4.49296e-06,0.00251914,-0.000227232,0.00388992,0.000550387,-0.0956386,-25.5364,1.81398,25.9552,0.447384,3.08617,-0.050247,-1.40179,0.132255,-0.735425,-0.00130276,-0.549402,-0.145728,-0.0559663,-0.0889602,-0.227345,-0.356627,-0.107425,-0.253466,-0.0362403,
0.0123926,-0.196547,-0.332931,-1.65906,-0.0913192,-0.0893832,-0.382494,2.40138e-05,-0.000380872,-2.81899e-05,0.000138183,-9.30801e-05,-0.000235013,1.83804e-06,0,0,0,0,0,0,0,0.0123879,-0.196379,-0.332918,-1.65933,-0.0914925,1.48256,0.402904,-0.00220016,-0.00217158,4.49296e-06,0.00251914,-0.000227232,0.00388992,0.000550387,-0.0956386,-25.5364,1.81398,25.9552,0.447384,3.08617,-0.050247,-1.09371,-0.0355138,-0.751056,0.126779,-0.294991,-0.165698,-0.07377,0.0617935,-0.263201,-0.409086,-0.115509,-0.260836,-0.0372357,
0.0123927,-0.196548,-0.332932,-1.65906,-0.0913196,-0.0893842,-0.382494,2.14539e-05,-0.000374457,-3.17057e-05,0.00013258,-0.000109814,-0.000252788,1.92141e-06,0,0,0,0,0,0,0,0.0123879,-0.196379,-0.332918,-1.65933,-0.0914925,1.48256,0.402904,-0.00220016,-0.00217158,4.49296e-06,0.00251914,-0.000227232,0.00388992,0.000550387,-0.0956386,-25.5364,1.81398,25.9552,0.447384,3.08617,-0.050247,-1.09371,-0.0355138,-0.751056,0.126779,-0.294991,-0.165698,-0.07377,0.0617935,-0.263201,-0.409086,-0.115509,-0.260836,-0.0372357,
0.0123928,-0.19655,-0.332932,-1.65906,-0.0913201,-0.0893853,-0.382494,1.91717e-05,-0.000368931,-3.48506e-05,0.000127639,-0.00012448,-0.000268865,1.99631e-06,0,0,0,0,0,0,0,0.0123879,-0.196379,-0.332918,-1.65933,-0.0914925,1.48256,0.402904,-0.00220016,-0.00217158,4.49296e-06,0.00251914,-0.000227232,0.00388992,0.000550387,-0.0956386,-25.5364,1.81398,25.9552,0.447384,3.08617,-0.050247,-1.0899,-0.082007,-0.712227,0.147859,-0.307207,-0.185718,-0.0907344,0.0480329,-0.286513,-0.391812,-0.124876,-0.257255,-0.0371655,
0.0122634,-0.196416,-0.333031,-1.65898,-0.0899154,-0.0903101,-0.382493,-0.0110121,0.00148544,-0.00982994,0.0104452,0.175499,-0.103448,0.000349437,0,0,0,0,0,0,0,0.0123879,-0.196379,-0.332918,-1.65933,-0.0914925,1.48256,0.402904,-0.00220016,-0.00217158,4.49296e-06,0.00251914,-0.000227232,0.00388992,0.000550387,-0.0956386,-25.5364,1.81398,25.9552,0.447384,3.08617,-0.050247,-1.0899,-0.082007,-0.712227,0.147859,-0.307207,-0.185718,-0.0907344,0.0480329,-0.286513,-0.391812,-0.124876,-0.257255,-0.0371655,
0.0122623,-0.196353,-0.333016,-1.6592,-0.0900229,-0.0891033,-0.382493,-0.0116733,0.00172685,-0.0105358,0.0105606,0.167526,-0.0994734,0.000349422,0,0,0,0,0,0,0,0.0123819,-0.19639,-0.33292,-1.65929,-0.091519,1.48259,0.402904,0.00319253,0.00356004,-0.000683825,-0.000285513,-0.0026522,0.000760429,0.000272405,-0.0202602,-25.6117,1.88936,25.9552,0.642391,2.97997,-0.0429228,-1.26734,-0.0848085,-0.565181,0.112464,-0.514167,-0.218614,-0.124187,-0.099366,-0.310843,-0.296265,-0.135306,-0.238361,-0.0370975,
0.0122162,-0.19635,-0.333061,-1.65916,-0.0892286,-0.0895827,-0.382491,-0.01152,0.000617303,-0.0111044,0.00887453,0.198569,-0.119855,0.000476981,0,0,0,0,0,0,0,0.0123819,-0.19639,-0.33292,-1.65929,-0.091519,1.48259,0.402904,0.00319253,0.00356004,-0.000683825,-0.000285513,-0.0026522,0.000760429,0.000272405,-0.0202602,-25.6117,1.88936,25.9552,0.642391,2.97997,-0.0429228,-1.26734,-0.0848085,-0.565181,0.112464,-0.514167,-0.218614,-0.124187,-0.099366,-0.310843,-0.296265,-0.135306,-0.238361,-0.0370975,
0.0121727,-0.196352,-0.333104,-1.65913,-0.0883384,-0.0901293,-0.382489,-0.0108748,-0.000374547,-0.0109258,0.00727743,0.222534,-0.136645,0.000547907,0,0,0,0,0,0,0,0.0123819,-0.19639,-0.33292,-1.65929,-0.091519,1.48259,0.402904,0.00319253,0.00356004,-0.000683825,-0.000285513,-0.0026522,0.000760429,0.000272405,-0.0202602,-25.6117,1.88936,25.9552,0.642391,2.97997,-0.0429228,-0.892581,-0.167975,-0.705023,0.207056,-0.163757,-0.189971,-0.098485,0.125629,-0.293796,-0.405158,-0.128344,-0.24825,-0.0370237,
0.0121329,-0.196356,-0.333145,-1.65911,-0.0873737,-0.0907313,-0.382487,-0.00995281,-0.00116876,-0.0102905,0.00589186,0.24119,-0.150513,0.000583991,0,0,0,0,0,0,0,0.0123819,-0.19639,-0.33292,-1.65929,-0.091519,1.48259,0.402904,0.00319253,0.00356004,-0.000683825,-0.000285513,-0.0026522,0.000760429,0.000272405,-0.0202602,-25.6117,1.88936,25.9552,0.642391,2.97997,-0.0429228,-1.21644,-0.139664,-0.382635,0.168586,-0.558643,-0.235617,-0.141576,-0.161237,-0.334339,-0.231476,-0.0918536,-0.235551,-0.035805,
0.0120973,-0.196363,-0.333183,-1.65909,-0.0863504,-0.0913791,-0.382484,-0.00889058,-0.00176389,-0.00939175,0.0047208,0.255813,-0.161937,0.00059765,0,0,0,0,0,0,0,0.0123819,-0.19639,-0.33292,-1.65929,-0.091519,1.48259,0.402904,0.00319253,0.00356004,-0.000683825,-0.000285513,-0.0026522,0.000760429,0.000272405,-0.0202602,-25.6117,1.88936,25.9552,0.642391,2.97997,-0.0429228,-1.21644,-0.139664,-0.382635,0.168586,-0.558643,-0.235617,-0.141576,-0.161237,-0.334339,-0.231476,-0.0918536,-0.235551,-0.035805,
0.0120662,-0.196372,-0.333216,-1.65907,-0.0852811,-0.0920643,-0.382482,-0.00777588,-0.00218318,-0.00835767,0.0037364,0.267338,-0.171302,0.000596989,0,0,0,0,0,0,0,0.0123414,-0.196359,-0.332966,-1.65929,-0.090382,1.48257,0.402901,0.000157536,0.00797593,-0.000489942,-0.00260174,0.0701672,0.00166652,-0.000478761,0.285221,-25.9609,2.1631,26.2051,1.1615,2.9937,-0.00996382,-0.870738,-0.224457,-0.499169,0.300615,-0.266209,-0.209196,-0.110044,0.0144677,-0.333305,-0.315134,-0.0401962,-0.232682,-0.0374084,
0.0120396,-0.196382,-0.333246,-1.65906,-0.0841753,-0.09278,-0.382479,-0.00666463,-0.00245565,-0.00727237,0.00290739,0.276453,-0.178931,0.000587116,0,0,0,0,0,0,0,0.0123414,-0.196359,-0.332966,-1.65929,-0.090382,1.48257,0.402901,0.000157536,0.00797593,-0.000489942,-0.00260174,0.0701672,0.00166652,-0.000478761,0.285221,-25.9609,2.1631,26.2051,1.1615,2.9937,-0.00996382,-0.870738,-0.224457,-0.499169,0.300615,-0.266209,-0.209196,-0.110044,0.0144677,-0.333305,-0.315134,-0.0401962,-0.232682,-0.0374084,
0.0120172,-0.196392,-0.33327,-1.65905,-0.0830406,-0.0935204,-0.382477,-0.00559152,-0.00260951,-0.00618999,0.00220636,0.283674,-0.185102,0.000571671,0,0,0,0,0,0,0,0.0123414,-0.196359,-0.332966,-1.65929,-0.090382,1.48257,0.402901,0.000157536,0.00797593,-0.000489942,-0.00260174,0.0701672,0.00166652,-0.000478761,0.285221,-25.9609,2.1631,26.2051,1.1615,2.9937,-0.00996382,-0.91903,-0.297608,-0.403071,0.419646,-0.357359,-0.251458,-0.14575,-0.0622174,-0.398539,-0.280307,0.0358588,-0.240076,-0.035364,
0.0119989,-0.196403,-0.333291,-1.65905,-0.081883,-0.0942806,-0.382475,-0.00457704,-0.0026699,-0.00514429,0.00161098,0.289389,-0.190048,0.000553008,0,0,0,0,0,0,0,0.0123414,-0.196359,-0.332966,-1.65929,-0.090382,1.48257,0.402901,0.000157536,0.00797593,-0.000489942,-0.00260174,0.0701672,0.00166652,-0.000478761,0.285221,-25.9609,2.1631,26.2051,1.1615,2.9937,-0.00996382,-1.0203,-0.361115,-0.300222,0.488812,-0.479589,-0.298087,-0.188394,-0.151579,-0.456721,-0.235613,0.0693894,-0.246178,-0.0347241,
0.0119844,-0.196414,-0.333307,-1.65904,-0.0807074,-0.0950565,-0.382473,-0.00363219,-0.0026584,-0.00415523,0.00110337,0.293895,-0.19397,0.000532635,0,0,0,0,0,0,0,0.0123414,-0.196359,-0.332966,-1.65929,-0.090382,1.48257,0.402901,0.000157536,0.00797593,-0.000489942,-0.00260174,0.0701672,0.00166652,-0.000478761,0.285221,-25.9609,2.1631,26.2051,1.1615,2.9937,-0.00996382,-1.0203,-0.361115,-0.300222,0.488812,-0.479589,-0.298087,-0.188394,-0.151579,-0.456721,-0.235613,0.0693894,-0.246178,-0.0347241,
0.0119733,-0.196424,-0.33332,-1.65904,-0.0795178,-0.0958447,-0.382471,-0.00276167,-0.00259303,-0.0032335,0.000669311,0.297418,-0.197038,0.000511606,0,0,0,0,0,0,0,0.0123414,-0.196359,-0.332966,-1.65929,-0.090382,1.48257,0.402901,0.000157536,0.00797593,-0.000489942,-0.00260174,0.0701672,0.00166652,-0.000478761,0.285221,-25.9609,2.1631,26.2051,1.1615,2.9937,-0.00996382,-0.7472,-0.13686,-0.415812,0.415054,-0.233209,-0.146135,-0.0393338,0.00404827,-0.305742,-0.328051,0.153937,-0.263817,-0.0364141,
0.0119654,-0.196434,-0.33333,-1.65904,-0.0783172,-0.0966422,-0.382469,-0.00196611,-0.00248859,-0.0023837,0.000297351,0.300136,-0.199393,0.000490813,0,0,0,0,0,0,0,0.012316,-0.196382,-0.332998,-1.65928,-0.087537,1.48253,0.402903,-0.0014578,-0.000884624,-0.00230627,-0.000484703,0.1048,0.00055991,-8.52513e-05,0.463749,-25.5879,2.28609,25.9552,1.04522,2.92687,-0.0301054,-0.7472,-0.13686,-0.415812,0.415054,-0.233209,-0.146135,-0.0393338,0.00404827,-0.305742,-0.328051,0.153937,-0.263817,-0.0364141,
0.0119605,-0.196443,-0.333336,-1.65904,-0.0771085,-0.0974468,-0.382467,-0.00124352,-0.00235709,-0.00160642,-2.17713e-05,0.30219,-0.201155,0.000470544,0,0,0,0,0,0,0,0.012316,-0.196382,-0.332998,-1.65928,-0.087537,1.48253,0.402903,-0.0014578,-0.000884624,-0.00230627,-0.000484703,0.1048,0.00055991,-8.52513e-05,0.463749,-25.5879,2.28609,25.9552,1.04522,2.92687,-0.0301054,-1.13529,0.0742736,-0.140601,0.288741,-0.647517,-0.12015,-0.0108188,-0.280511,-0.270772,-0.189536,0.232264,-0.278181,-0.0354817,
0.0119581,-0.196452,-0.33334,-1.65904,-0.0758937,-0.0982565,-0.382465,-0.000590419,-0.0022081,-0.000899697,-0.000295637,0.303688,-0.202424,0.000451116,0,0,0,0,0,0,0,0.012316,-0.196382,-0.332998,-1.65928,-0.087537,1.48253,0.402903,-0.0014578,-0.000884624,-0.00230627,-0.000484703,0.1048,0.00055991,-8.52513e-05,0.463749,-25.5879,2.28609,25.9552,1.04522,2.92687,-0.0301054,-0.973396,0.106086,-0.215168,0.333199,-0.484182,-0.0766098,0.031821,-0.171701,-0.238196,-0.264406,0.284827,-0.30587,-0.0357046,
0.0119581,-0.19646,-0.333341,-1.65904,-0.0746748,-0.0990697,-0.382463,-2.37161e-06,-0.00204915,-0.000260107,-0.000530508,0.304721,-0.203284,0.000432634,0,0,0,0,0,0,0,0.012316,-0.196382,-0.332998,-1.65928,-0.087537,1.48253,0.402903,-0.0014578,-0.000884624,-0.00230627,-0.000484703,0.1048,0.00055991,-8.52513e-05,0.463749,-25.5879,2.28609,25.9552,1.04522,2.92687,-0.0301054,-0.973396,0.106086,-0.215168,0.333199,-0.484182,-0.0766098,0.031821,-0.171701,-0.238196,-0.264406,0.284827,-0.30587,-0.0357046,
0.0119602,-0.196468,-0.33334,-1.65904,-0.0734534,-0.0998849,-0.382462,0.000525422,-0.00188609,0.000316647,-0.000731623,0.30536,-0.203803,0.000415289,0,0,0,0,0,0,0,0.012316,-0.196382,-0.332998,-1.65928,-0.087537,1.48253,0.402903,-0.0014578,-0.000884624,-0.00230627,-0.000484703,0.1048,0.00055991,-8.52513e-05,0.463749,-25.5879,2.28609,25.9552,1.04522,2.92687,-0.0301054,-0.832313,0.266498,-0.194482,0.286556,-0.380694,0.0215809,0.130056,-0.115294,-0.143368,-0.299029,0.362749,-0.332626,-0.0358371,
0.0119642,-0.196475,-0.333336,-1.65905,-0.0722307,-0.100701,-0.38246,0.00099788,-0.00172336,0.000835252,-0.00090339,0.305665,-0.204039,0.000399096,0,0,0,0,0,0,0,0.0123246,-0.196381,-0.332997,-1.65927,-0.0840957,1.48248,0.402905,0.000589575,-0.00205601,0.000277708,0.00266565,0.114,0.000933394,0.000632736,0.336795,-25.6117,2.21467,25.9076,0.97839,2.9406,-0.0429228,-0.832313,0.266498,-0.194482,0.286556,-0.380694,0.0215809,0.130056,-0.115294,-0.143368,-0.299029,0.362749,-0.332626,-0.0358371,
0.0119699,-0.196481,-0.333331,-1.65905,-0.071008,-0.101517,-0.382459,0.00141983,-0.00156428,0.00130049,-0.00104953,0.305685,-0.204042,0.00038393,0,0,0,0,0,0,0,0.0123246,-0.196381,-0.332997,-1.65927,-0.0840957,1.48248,0.402905,0.000589575,-0.00205601,0.000277708,0.00266565,0.114,0.000933394,0.000632736,0.336795,-25.6117,2.21467,25.9076,0.97839,2.9406,-0.0429228,-1.06766,0.163311,-0.0808143,0.380423,-0.584368,-0.0681713,0.0404356,-0.241367,-0.242747,-0.258098,0.3835,-0.3627,-0.0346911,
0.0119771,-0.196487,-0.333324,-1.65906,-0.0697861,-0.102333,-0.382457,0.00179592,-0.00141124,0.00171705,-0.00117325,0.305459,-0.203849,0.000369796,0,0,0,0,0,0,0,0.0123246,-0.196381,-0.332997,-1.65927,-0.0840957,1.48248,0.402905,0.000589575,-0.00205601,0.000277708,0.00266565,0.114,0.000933394,0.000632736,0.336795,-25.6117,2.21467,25.9076,0.97839,2.9406,-0.0429228,-1.06766,0.163311,-0.0808143,0.380423,-0.584368,-0.0681713,0.0404356,-0.241367,-0.242747,-0.258098,0.3835,-0.3627,-0.0346911,
0.0119856,-0.196492,-0.333316,-1.65906,-0.0685661,-0.103147,-0.382456,0.0021305,-0.00126592,0.00208943,-0.00127728,0.305022,-0.203494,0.000356624,0,0,0,0,0,0,0,0.0123246,-0.196381,-0.332997,-1.65927,-0.0840957,1.48248,0.402905,0.000589575,-0.00205601,0.000277708,0.00266565,0.114,0.000933394,0.000632736,0.336795,-25.6117,2.21467,25.9076,0.97839,2.9406,-0.0429228,-0.653663,0.158161,-0.120977,0.439997,-0.230825,0.00281322,0.105794,-0.0260569,-0.180112,-0.355297,0.427081,-0.39415,-0.0349072,
0.0119953,-0.196496,-0.333306,-1.65907,-0.0673484,-0.103959,-0.382454,0.00242763,-0.00112944,0.00242184,-0.001364,0.304403,-0.203005,0.000344357,0,0,0,0,0,0,0,0.0123246,-0.196381,-0.332997,-1.65927,-0.0840957,1.48248,0.402905,0.000589575,-0.00205601,0.000277708,0.00266565,0.114,0.000933394,0.000632736,0.336795,-25.6117,2.21467,25.9076,0.97839,2.9406,-0.0429228,-0.549523,0.124028,0.017177,0.476318,-0.175874,0.0047063,0.100848,-0.00565815,-0.177387,-0.349815,0.449179,-0.427347,-0.0347549,
0.0120061,-0.1965,-0.333295,-1.65907,-0.0661339,-0.104768,-0.382453,0.00269103,-0.00100241,0.00271822,-0.00143546,0.303626,-0.202405,0.000332935,0,0,0,0,0,0,0,0.0123246,-0.196381,-0.332997,-1.65927,-0.0840957,1.48248,0.402905,0.000589575,-0.00205601,0.000277708,0.00266565,0.114,0.000933394,0.000632736,0.336795,-25.6117,2.21467,25.9076,0.97839,2.9406,-0.0429228,-0.549523,0.124028,0.017177,0.476318,-0.175874,0.0047063,0.100848,-0.00565815,-0.177387,-0.349815,0.449179,-0.427347,-0.0347549,
0.0120178,-0.196504,-0.333283,-1.65908,-0.0649231,-0.105575,-0.382452,0.00292411,-0.000885163,0.00298215,-0.00149346,0.302712,-0.201711,0.000322413,0,0,0,0,0,0,0,0.0123583,-0.196404,-0.332942,-1.65927,-0.0800887,1.4823,0.402902,-0.00108878,-0.0061339,-0.00115984,0.00141474,0.13649,-0.00625168,-0.00111468,0.00751081,-25.3618,1.83778,25.8322,0.831906,2.86095,-0.0163725,-0.634237,-0.116894,0.061782,0.629811,-0.220918,-0.119765,-0.0284123,-0.0230944,-0.309607,-0.351887,0.410547,-0.454319,-0.0351978,
0.0120303,-0.196507,-0.333271,-1.65909,-0.0637164,-0.106379,-0.38245,0.00312999,-0.000777731,0.00321694,-0.00153956,0.301679,-0.200941,0.000312543,0,0,0,0,0,0,0,0.0123583,-0.196404,-0.332942,-1.65927,-0.0800887,1.4823,0.402902,-0.00108878,-0.0061339,-0.00115984,0.00141474,0.13649,-0.00625168,-0.00111468,0.00751081,-25.3618,1.83778,25.8322,0.831906,2.86095,-0.0163725,-0.634237,-0.116894,0.061782,0.629811,-0.220918,-0.119765,-0.0284123,-0.0230944,-0.309607,-0.351887,0.410547,-0.454319,-0.0351978,
0.0120435,-0.19651,-0.333257,-1.65909,-0.0625142,-0.107179,-0.382449,0.00331147,-0.00067996,0.00342558,-0.00157514,0.300542,-0.200105,0.000303265,0,0,0,0,0,0,0,0.0123583,-0.196404,-0.332942,-1.65927,-0.0800887,1.4823,0.402902,-0.00108878,-0.0061339,-0.00115984,0.00141474,0.13649,-0.00625168,-0.00111468,0.00751081,-25.3618,1.83778,25.8322,0.831906,2.86095,-0.0163725,-0.554175,-0.179226,0.0538529,0.683964,-0.125566,-0.133793,-0.0501929,0.0456937,-0.323495,-0.395301,0.406431,-0.484275,-0.0360642,
0.0120574,-0.196512,-0.333242,-1.6591,-0.0613169,-0.107976,-0.382448,0.00347111,-0.000591555,0.00361078,-0.00160142,0.299314,-0.199217,0.000294624,0,0,0,0,0,0,0,0.0123583,-0.196404,-0.332942,-1.65927,-0.0800887,1.4823,0.402902,-0.00108878,-0.0061339,-0.00115984,0.00141474,0.13649,-0.00625168,-0.00111468,0.00751081,-25.3618,1.83778,25.8322,0.831906,2.86095,-0.0163725,-0.84408,-0.0750688,0.223035,0.569718,-0.389814,-0.13833,-0.0595879,-0.12071,-0.307909,-0.315456,0.392499,-0.503892,-0.0365183,
0.0120907,-0.196251,-0.33313,-1.65886,-0.0869453,-0.0920165,-0.382463,-0.0269246,0.00705376,-0.0225236,0.0363703,0.52067,-0.424787,0.003238,0,0,0,0,0,0,0,0.0123583,-0.196404,-0.332942,-1.65927,-0.0800887,1.4823,0.402902,-0.00108878,-0.0061339,-0.00115984,0.00141474,0.13649,-0.00625168,-0.00111468,0.00751081,-25.3618,1.83778,25.8322,0.831906,2.86095,-0.0163725,-0.84408,-0.0750688,0.223035,0.569718,-0.389814,-0.13833,-0.0595879,-0.12071,-0.307909,-0.315456,0.392499,-0.503892,-0.0365183,
0.0121105,-0.196321,-0.333117,-1.65884,-0.0745103,-0.0921501,-0.382468,-0.0221197,0.0041175,-0.0182246,0.0339925,0.587682,-0.408968,0.00307654,0,0,0,0,0,0,0,0.0123728,-0.196379,-0.332923,-1.65927,-0.0742411,1.48214,0.402902,0.00111635,0.00280622,0.00170545,-0.00233117,0.150396,-0.00371159,-0.000697271,-0.0718349,-25.6871,1.83778,25.983,1.14318,2.65496,-0.0227812,-0.66585,-0.155919,0.0875194,0.65071,-0.180018,-0.144166,-0.0697302,0.0293554,-0.32084,-0.408159,0.384304,-0.523323,-0.0355054,
0.0120287,-0.196321,-0.333189,-1.65873,-0.0718099,-0.0940778,-0.382455,-0.0204599,-0.000155725,-0.018059,0.0274666,0.675103,-0.481926,0.0033628,0,0,0,0,0,0,0,0.0123728,-0.196379,-0.332923,-1.65927,-0.0742411,1.48214,0.402902,0.00111635,0.00280622,0.00170545,-0.00233117,0.150396,-0.00371159,-0.000697271,-0.0718349,-25.6871,1.83778,25.983,1.14318,2.65496,-0.0227812,-0.66585,-0.155919,0.0875194,0.65071,-0.180018,-0.144166,-0.0697302,0.0293554,-0.32084,-0.408159,0.384304,-0.523323,-0.0355054,
0.0119575,-0.196336,-0.333255,-1.65864,-0.0688324,-0.0962363,-0.382441,-0.0177911,-0.00365643,-0.0163701,0.0211707,0.744385,-0.539612,0.00351203,0,0,0,0,0,0,0,0.0123728,-0.196379,-0.332923,-1.65927,-0.0742411,1.48214,0.402902,0.00111635,0.00280622,0.00170545,-0.00233117,0.150396,-0.00371159,-0.000697271,-0.0718349,-25.6871,1.83778,25.983,1.14318,2.65496,-0.0227812,-0.934237,-0.163452,0.441013,0.597441,-0.520239,-0.195461,-0.125715,-0.220522,-0.355702,-0.240183,0.378914,-0.520098,-0.0354107,
0.0118991,-0.196361,-0.33331,-1.65858,-0.065633,-0.0985775,-0.382427,-0.0146057,-0.00622141,-0.013789,0.0156399,0.799855,-0.58529,0.00358046,0,0,0,0,0,0,0,0.0123728,-0.196379,-0.332923,-1.65927,-0.0742411,1.48214,0.402902,0.00111635,0.00280622,0.00170545,-0.00233117,0.150396,-0.00371159,-0.000697271,-0.0718349,-25.6871,1.83778,25.983,1.14318,2.65496,-0.0227812,-0.934237,-0.163452,0.441013,0.597441,-0.520239,-0.195461,-0.125715,-0.220522,-0.355702,-0.240183,0.378914,-0.520098,-0.0354107,
0.0118543,-0.196393,-0.333353,-1.65854,-0.0622543,-0.101063,-0.382412,-0.0112035,-0.00794005,-0.0107285,0.0109265,0.844663,-0.621264,0.00359778,0,0,0,0,0,0,0,0.0123728,-0.196379,-0.332923,-1.65927,-0.0742411,1.48214,0.402902,0.00111635,0.00280622,0.00170545,-0.00233117,0.150396,-0.00371159,-0.000697271,-0.0718349,-25.6871,1.83778,25.983,1.14318,2.65496,-0.0227812,-0.598178,-0.625152,0.671486,0.88108,-0.335061,-0.342838,-0.278363,-0.14847,-0.52122,-0.195606,0.335931,-0.515675,-0.0369093,
0.0118232,-0.196428,-0.333383,-1.65851,-0.0587297,-0.10366,-0.382398,-0.00777207,-0.00896294,-0.00745905,0.00694731,0.881146,-0.649313,0.00358141,0,0,0,0,0,0,0,0.0123728,-0.196379,-0.332923,-1.65927,-0.0742411,1.48214,0.402902,0.00111635,0.00280622,0.00170545,-0.00233117,0.150396,-0.00371159,-0.000697271,-0.0718349,-25.6871,1.83778,25.983,1.14318,2.65496,-0.0227812,0.00909164,-0.89577,0.915413,1.10746,0.0554657,-0.352705,-0.285645,0.0380434,-0.56014,-0.206046,0.382321,-0.540065,-0.0390973,
0.0118055,-0.196466,-0.333399,-1.65849,-0.0550855,-0.106343,-0.382384,-0.00442848,-0.00943985,-0.0041568,0.0035946,0.911057,-0.670872,0.0035431,0,0,0,0,0,0,0,0.0122588,-0.196332,-0.333056,-1.65913,-0.0664004,1.48103,0.402899,-0.00228115,0.0011655,-0.00528843,0.00312999,0.348523,-0.0704629,2.89843e-06,0.892215,-25.9847,2.6114,25.8084,1.83349,2.13769,-0.0163725,0.00909164,-0.89577,0.915413,1.10746,0.0554657,-0.352705,-0.285645,0.0380434,-0.56014,-0.206046,0.382321,-0.540065,-0.0390973,
0.0118005,-0.196504,-0.333403,-1.65849,-0.0513426,-0.109092,-0.38237,-0.0012435,-0.00950156,-0.0009338,0.000768186,0.93573,-0.687113,0.00349062,0,0,0,0,0,0,0,0.0122588,-0.196332,-0.333056,-1.65913,-0.0664004,1.48103,0.402899,-0.00228115,0.0011655,-0.00528843,0.00312999,0.348523,-0.0704629,2.89843e-06,0.892215,-25.9847,2.6114,25.8084,1.83349,2.13769,-0.0163725,-0.372346,-0.814442,1.19539,1.11393,-0.274762,-0.378108,-0.291372,-0.166848,-0.607779,-0.15483,0.46254,-0.641195,-0.038522,
0.0118075,-0.196541,-0.333395,-1.6585,-0.0475179,-0.111888,-0.382356,0.00174262,-0.00925648,0.00214119,-0.00161709,0.956185,-0.699001,0.00342874,0,0,0,0,0,0,0,0.0122588,-0.196332,-0.333056,-1.65913,-0.0664004,1.48103,0.402899,-0.00228115,0.0011655,-0.00528843,0.00312999,0.348523,-0.0704629,2.89843e-06,0.892215,-25.9847,2.6114,25.8084,1.83349,2.13769,-0.0163725,-0.372346,-0.814442,1.19539,1.11393,-0.274762,-0.378108,-0.291372,-0.166848,-0.607779,-0.15483,0.46254,-0.641195,-0.038522,
0.0118255,-0.196576,-0.333374,-1.65851,-0.043625,-0.114717,-0.382343,0.00451012,-0.0087922,0.00502876,-0.00363174,0.973213,-0.707329,0.00336188,0,0,0,0,0,0,0,0.0122588,-0.196332,-0.333056,-1.65913,-0.0664004,1.48103,0.402899,-0.00228115,0.0011655,-0.00528843,0.00312999,0.348523,-0.0704629,2.89843e-06,0.892215,-25.9847,2.6114,25.8084,1.83349,2.13769,-0.0163725,-0.155583,-0.617419,1.0063,1.10651,0.0309717,-0.244276,-0.141318,0.0650043,-0.501979,-0.351151,0.551975,-0.742342,-0.0381815,
0.0118537,-0.196609,-0.333344,-1.65853,-0.0396753,-0.117568,-0.382329,0.00705261,-0.00817814,0.00770932,-0.00533368,0.987432,-0.712749,0.0032924,0,0,0,0,0,0,0,0.0122588,-0.196332,-0.333056,-1.65913,-0.0664004,1.48103,0.402899,-0.00228115,0.0011655,-0.00528843,0.00312999,0.348523,-0.0704629,2.89843e-06,0.892215,-25.9847,2.6114,25.8084,1.83349,2.13769,-0.0163725,-0.232265,-0.356995,1.54656,0.930001,-0.207316,-0.134979,-0.0201413,-0.14743,-0.387079,-0.190605,0.646842,-0.79554,-0.0357704,
0.0118912,-0.196639,-0.333303,-1.65856,-0.035678,-0.120431,-0.382317,0.00937257,-0.00746864,0.0101763,-0.00677066,0.999328,-0.715796,0.00322177,0,0,0,0,0,0,0,0.0119605,-0.196359,-0.33346,-1.65894,-0.0511518,1.47741,0.402906,-0.0136135,-0.00515551,-0.0149287,0.000805212,0.567516,-0.14962,0.000975394,1.24927,-25.5879,2.93672,25.5347,1.90673,2.02508,-0.0566557,-0.232265,-0.356995,1.54656,0.930001,-0.207316,-0.134979,-0.0201413,-0.14743,-0.387079,-0.190605,0.646842,-0.79554,-0.0357704,
0.0119371,-0.196666,-0.333253,-1.65859,-0.0316408,-0.123299,-0.382304,0.0114779,-0.00670554,0.0124317,-0.00798202,1.00929,-0.71691,0.00315175,0,0,0,0,0,0,0,0.0119605,-0.196359,-0.33346,-1.65894,-0.0511518,1.47741,0.402906,-0.0136135,-0.00515551,-0.0149287,0.000805212,0.567516,-0.14962,0.000975394,1.24927,-25.5879,2.93672,25.5347,1.90673,2.02508,-0.0566557,-0.559002,-0.22327,2.00479,0.842331,-0.617558,-0.126098,0.00380282,-0.449339,-0.382167,-0.0170997,0.721398,-0.834348,-0.0341548,
0.0119907,-0.196689,-0.333195,-1.65863,-0.0275703,-0.126165,-0.382292,0.0133798,-0.0059206,0.0144829,-0.00900047,1.01763,-0.716452,0.00308275,0,0,0,0,0,0,0,0.0119605,-0.196359,-0.33346,-1.65894,-0.0511518,1.47741,0.402906,-0.0136135,-0.00515551,-0.0149287,0.000805212,0.567516,-0.14962,0.000975394,1.24927,-25.5879,2.93672,25.5347,1.90673,2.02508,-0.0566557,-0.559002,-0.22327,2.00479,0.842331,-0.617558,-0.126098,0.00380282,-0.449339,-0.382167,-0.0170997,0.721398,-0.834348,-0.0341548,
0.012051,-0.19671,-0.33313,-1.65867,-0.0234719,-0.129024,-0.38228,0.0150915,-0.00513748,0.0163405,-0.00985327,1.0246,-0.714717,0.00301582,0,0,0,0,0,0,0,0.0119605,-0.196359,-0.33346,-1.65894,-0.0511518,1.47741,0.402906,-0.0136135,-0.00515551,-0.0149287,0.000805212,0.567516,-0.14962,0.000975394,1.24927,-25.5879,2.93672,25.5347,1.90673,2.02508,-0.0566557,-0.09684,-0.116743,1.8684,0.891523,-0.16309,0.0124602,0.154425,-0.150477,-0.273616,-0.201702,0.813286,-0.912537,-0.0336338,
0.0121175,-0.196728,-0.333058,-1.65871,-0.0193503,-0.131871,-0.382268,0.0166268,-0.0043734,0.018017,-0.0105632,1.0304,-0.711951,0.00295075,0,0,0,0,0,0,0,0.0119605,-0.196359,-0.33346,-1.65894,-0.0511518,1.47741,0.402906,-0.0136135,-0.00515551,-0.0149287,0.000805212,0.567516,-0.14962,0.000975394,1.24927,-25.5879,2.93672,25.5347,1.90673,2.02508,-0.0566557,-0.09684,-0.116743,1.8684,0.891523,-0.16309,0.0124602,0.154425,-0.150477,-0.273616,-0.201702,0.813286,-0.912537,-0.0336338,
0.0121895,-0.196742,-0.33298,-1.65875,-0.0152094,-0.134705,-0.382256,0.0179996,-0.00364051,0.0195256,-0.0111496,1.03521,-0.708352,0.00288746,0,0,0,0,0,0,0,0.0115568,-0.196379,-0.333833,-1.65889,-0.0318222,1.47123,0.402905,-0.0130614,-0.00228493,-0.0105852,0.002537,0.643139,-0.217679,0.000488578,1.40003,-25.4372,3.0121,25.5069,1.97357,1.99212,-0.0429228,-0.383679,0.100573,2.04433,0.772131,-0.398021,0.0654684,0.214487,-0.289755,-0.218131,-0.173119,0.868701,-0.986888,-0.0302859,
0.0122664,-0.196754,-0.332896,-1.6588,-0.0110527,-0.137521,-0.382245,0.0192238,-0.00294701,0.0208794,-0.0116285,1.03917,-0.704087,0.00282667,0,0,0,0,0,0,0,0.0115568,-0.196379,-0.333833,-1.65889,-0.0318222,1.47123,0.402905,-0.0130614,-0.00228493,-0.0105852,0.002537,0.643139,-0.217679,0.000488578,1.40003,-25.4372,3.0121,25.5069,1.97357,1.99212,-0.0429228,-0.340957,0.311426,2.05761,0.662317,-0.335662,0.176304,0.33411,-0.241734,-0.109232,-0.221855,0.91198,-1.03761,-0.0296516,
0.0123477,-0.196763,-0.332808,-1.65885,-0.00688314,-0.140318,-0.382234,0.0203123,-0.00229808,0.0220916,-0.0120141,1.0424,-0.699291,0.00276823,0,0,0,0,0,0,0,0.0115568,-0.196379,-0.333833,-1.65889,-0.0318222,1.47123,0.402905,-0.0130614,-0.00228493,-0.0105852,0.002537,0.643139,-0.217679,0.000488578,1.40003,-25.4372,3.0121,25.5069,1.97357,1.99212,-0.0429228,-0.340957,0.311426,2.05761,0.662317,-0.335662,0.176304,0.33411,-0.241734,-0.109232,-0.221855,0.91198,-1.03761,-0.0296516,
0.0124328,-0.19677,-0.332715,-1.6589,-0.00270319,-0.143095,-0.382223,0.0212774,-0.00169662,0.0231744,-0.0123183,1.04499,-0.694076,0.00271178,0,0,0,0,0,0,0,0.0115568,-0.196379,-0.333833,-1.65889,-0.0318222,1.47123,0.402905,-0.0130614,-0.00228493,-0.0105852,0.002537,0.643139,-0.217679,0.000488578,1.40003,-25.4372,3.0121,25.5069,1.97357,1.99212,-0.0429228,-0.100141,0.396976,1.93637,0.667402,-0.073002,0.264591,0.427896,-0.0599002,-0.0342346,-0.342298,0.953647,-1.08423,-0.0278362,
0.0125213,-0.196774,-0.332619,-1.65895,0.00148491,-0.145849,-0.382212,0.0221307,-0.00114383,0.0241397,-0.0125519,1.04702,-0.688532,0.00265775,0,0,0,0,0,0,0,0.0115568,-0.196379,-0.333833,-1.65889,-0.0318222,1.47123,0.402905,-0.0130614,-0.00228493,-0.0105852,0.002537,0.643139,-0.217679,0.000488578,1.40003,-25.4372,3.0121,25.5069,1.97357,1.99212,-0.0429228,-0.100141,0.396976,1.93637,0.667402,-0.073002,0.264591,0.427896,-0.0599002,-0.0342346,-0.342298,0.953647,-1.08423,-0.0278362,
0.0126128,-0.196777,-0.332519,-1.659,0.00567924,-0.14858,-0.382202,0.0228827,-0.00063963,0.0249983,-0.0127244,1.04858,-0.682731,0.00260544,0,0,0,0,0,0,0,0.0115568,-0.196379,-0.333833,-1.65889,-0.0318222,1.47123,0.402905,-0.0130614,-0.00228493,-0.0105852,0.002537,0.643139,-0.217679,0.000488578,1.40003,-25.4372,3.0121,25.5069,1.97357,1.99212,-0.0429228,-0.141917,0.199392,1.7669,0.838837,0.00128594,0.17638,0.350862,0.0265025,-0.150886,-0.44268,0.929493,-1.12322,-0.0264204,
0.012707,-0.196778,-0.332415,-1.65905,0.00987814,-0.151287,-0.382192,0.0235432,-0.000182977,0.0257602,-0.0128439,1.04972,-0.676731,0.00255505,0,0,0,0,0,0,0,0.0111707,-0.196402,-0.333965,-1.65886,-0.0105115,1.46348,0.402906,-0.0118656,-0.000217103,-0.00332948,0.00201601,0.697859,-0.259536,0.000774003,1.32465,-25.211,2.96449,25.4831,2.10815,1.95916,-0.0566557,-0.118167,0.307191,1.80466,0.732758,-0.00171023,0.235403,0.409041,0.0164651,-0.0786559,-0.418686,0.91795,-1.11145,-0.0264654,
0.0128035,-0.196777,-0.33231,-1.6591,0.0140801,-0.153969,-0.382182,0.0241211,0.000227883,0.0264348,-0.0129178,1.0505,-0.670577,0.00250634,0,0,0,0,0,0,0,0.0111707,-0.196402,-0.333965,-1.65886,-0.0105115,1.46348,0.402906,-0.0118656,-0.000217103,-0.00332948,0.00201601,0.697859,-0.259536,0.000774003,1.32465,-25.211,2.96449,25.4831,2.10815,1.95916,-0.0566557,-0.118167,0.307191,1.80466,0.732758,-0.00171023,0.235403,0.409041,0.0164651,-0.0786559,-0.418686,0.91795,-1.11145,-0.0264654,
0.012902,-0.196774,-0.332202,-1.65915,0.018284,-0.156626,-0.382172,0.0246245,0.000595202,0.0270304,-0.0129523,1.05095,-0.664307,0.0024598,0,0,0,0,0,0,0,0.0111707,-0.196402,-0.333965,-1.65886,-0.0105115,1.46348,0.402906,-0.0118656,-0.000217103,-0.00332948,0.00201601,0.697859,-0.259536,0.000774003,1.32465,-25.211,2.96449,25.4831,2.10815,1.95916,-0.0566557,-0.213884,0.125952,1.79922,0.787144,-0.0603967,0.140399,0.307171,-0.00975477,-0.164847,-0.396855,0.831104,-1.09602,-0.0245989,
0.0130022,-0.196771,-0.332091,-1.65921,0.0224885,-0.159258,-0.382162,0.0250609,0.000921618,0.0275549,-0.0129526,1.05113,-0.657949,0.0024142,0,0,0,0,0,0,0,0.0111707,-0.196402,-0.333965,-1.65886,-0.0105115,1.46348,0.402906,-0.0118656,-0.000217103,-0.00332948,0.00201601,0.697859,-0.259536,0.000774003,1.32465,-25.211,2.96449,25.4831,2.10815,1.95916,-0.0566557,-0.213884,0.125952,1.79922,0.787144,-0.0603967,0.140399,0.307171,-0.00975477,-0.164847,-0.396855,0.831104,-1.09602,-0.0245989,
0.0130075,-0.196581,-0.332212,-1.65914,-0.0761672,-0.0940214,-0.38235,0.0772158,-0.0210515,0.0877226,0.00355931,0.414773,-0.635776,0.0121114,0,0,0,0,0,0,0,0.0111707,-0.196402,-0.333965,-1.65886,-0.0105115,1.46348,0.402906,-0.0118656,-0.000217103,-0.00332948,0.00201601,0.697859,-0.259536,0.000774003,1.32465,-25.211,2.96449,25.4831,2.10815,1.95916,-0.0566557,-0.479369,-0.0507428,1.73561,0.821667,-0.223351,0.0191903,0.176727,-0.0834231,-0.27092,-0.374103,0.718808,-1.07847,-0.0246382,
0.0119749,-0.196622,-0.333135,-1.65892,-0.00241287,-0.114683,-0.382334,0.0934904,-0.0242336,0.101176,-0.0119018,0.684341,-0.754268,0.0126551,0,0,0,0,0,0,0,0.0110738,-0.196374,-0.333969,-1.65886,0.0116773,1.45458,0.402906,0.00216021,0.00641614,0.000893907,-0.00253506,0.763329,-0.3183,0.00113823,0.892215,-25.6117,2.81373,25.6061,1.99188,2.09832,-0.0566557,-0.479369,-0.0507428,1.73561,0.821667,-0.223351,0.0191903,0.176727,-0.0834231,-0.27092,-0.374103,0.718808,-1.07847,-0.0246382,
0.0124281,-0.196728,-0.332636,-1.659,0.000417686,-0.118125,-0.382286,0.11328,-0.0265924,0.124774,-0.019364,0.707639,-0.860609,0.0120169,0,0,0,0,0,0,0,0.0110738,-0.196374,-0.333969,-1.65886,0.0116773,1.45458,0.402906,0.00216021,0.00641614,0.000893907,-0.00253506,0.763329,-0.3183,0.00113823,0.892215,-25.6117,2.81373,25.6061,1.99188,2.09832,-0.0566557,-0.586322,-0.0126298,1.59234,0.735294,-0.279509,0.0197337,0.162413,-0.102192,-0.243339,-0.365486,0.655998,-1.02948,-0.0250458,
0.0129464,-0.196836,-0.33206,-1.65911,0.00335959,-0.121916,-0.38224,0.129577,-0.0270392,0.143878,-0.0264757,0.735476,-0.947676,0.0114891,0,0,0,0,0,0,0,0.0110738,-0.196374,-0.333969,-1.65886,0.0116773,1.45458,0.402906,0.00216021,0.00641614,0.000893907,-0.00253506,0.763329,-0.3183,0.00113823,0.892215,-25.6117,2.81373,25.6061,1.99188,2.09832,-0.0566557,-0.904107,0.0660841,1.27068,0.658297,-0.436682,-0.006394,0.136441,-0.153026,-0.259164,-0.398249,0.603807,-0.981282,-0.0193302,
0.0135189,-0.196941,-0.331422,-1.65924,0.00641985,-0.125992,-0.382195,0.143142,-0.0261046,0.159538,-0.033048,0.765064,-1.01916,0.0110448,0,0,0,0,0,0,0,0.0110738,-0.196374,-0.333969,-1.65886,0.0116773,1.45458,0.402906,0.00216021,0.00641614,0.000893907,-0.00253506,0.763329,-0.3183,0.00113823,0.892215,-25.6117,2.81373,25.6061,1.99188,2.09832,-0.0566557,-0.904107,0.0660841,1.27068,0.658297,-0.436682,-0.006394,0.136441,-0.153026,-0.259164,-0.398249,0.603807,-0.981282,-0.0193302,
0.0141371,-0.197038,-0.330732,-1.65939,0.00959832,-0.130304,-0.382153,0.154538,-0.0242101,0.172519,-0.0390133,0.794618,-1.07794,0.0106628,0,0,0,0,0,0,0,0.0110738,-0.196374,-0.333969,-1.65886,0.0116773,1.45458,0.402906,0.00216021,0.00641614,0.000893907,-0.00253506,0.763329,-0.3183,0.00113823,0.892215,-25.6117,2.81373,25.6061,1.99188,2.09832,-0.0566557,-1.58446,-0.430524,1.3485,0.862517,-1.00389,-0.357631,-0.2219,-0.493725,-0.604613,-0.227554,0.4413,-0.912935,-0.0110154,
0.0147938,-0.197124,-0.329998,-1.65957,0.0128905,-0.13481,-0.382111,0.164185,-0.0216787,0.183385,-0.0443604,0.823045,-1.12635,0.0103256,0,0,0,0,0,0,0,0.0110738,-0.196374,-0.333969,-1.65886,0.0116773,1.45458,0.402906,0.00216021,0.00641614,0.000893907,-0.00253506,0.763329,-0.3183,0.00113823,0.892215,-25.6117,2.81373,25.6061,1.99188,2.09832,-0.0566557,-1.58446,-0.430524,1.3485,0.862517,-1.00389,-0.357631,-0.2219,-0.493725,-0.604613,-0.227554,0.4413,-0.912935,-0.0110154,
0.0154834,-0.197199,-0.329228,-1.65977,0.0162893,-0.139475,-0.382071,0.172401,-0.0187537,0.192554,-0.0491069,0.849711,-1.16622,0.0100225,0,0,0,0,0,0,0,0.0118716,-0.196434,-0.332807,-1.65893,0.0389998,1.44028,0.402907,0.04292,-0.00434931,0.045971,0.00304879,0.568956,-0.388324,0.000370202,1.83246,-25.0603,4.13881,25.3085,0.752255,2.03148,-0.0301054,-1.24443,-1.27162,1.126,1.20742,-0.640616,-0.680348,-0.572956,-0.242648,-0.9104,-0.269614,0.11168,-0.817143,-0.00813927,
0.0162011,-0.197262,-0.328427,-1.65998,0.0197865,-0.144271,-0.382032,0.179427,-0.0156156,0.20034,-0.0532848,0.874292,-1.19908,0.00974313,0,0,0,0,0,0,0,0.0118716,-0.196434,-0.332807,-1.65893,0.0389998,1.44028,0.402907,0.04292,-0.00434931,0.045971,0.00304879,0.568956,-0.388324,0.000370202,1.83246,-25.0603,4.13881,25.3085,0.752255,2.03148,-0.0301054,-1.24443,-1.27162,1.126,1.20742,-0.640616,-0.680348,-0.572956,-0.242648,-0.9104,-0.269614,0.11168,-0.817143,-0.00813927,
0.0169429,-0.197311,-0.327599,-1.66021,0.0233732,-0.149175,-0.381994,0.185451,-0.0123971,0.206982,-0.0569331,0.896664,-1.22613,0.00948459,0,0,0,0,0,0,0,0.0118716,-0.196434,-0.332807,-1.65893,0.0389998,1.44028,0.402907,0.04292,-0.00434931,0.045971,0.00304879,0.568956,-0.388324,0.000370202,1.83246,-25.0603,4.13881,25.3085,0.752255,2.03148,-0.0301054,-1.03208,-1.2591,1.30269,0.977955,-0.550265,-0.636128,-0.554704,-0.218828,-0.801206,-0.160732,-0.0622948,-0.749516,-0.00672588,
0.0177054,-0.197349,-0.326748,-1.66045,0.0270405,-0.154161,-0.381957,0.190626,-0.00931767,0.212686,-0.0604861,0.91684,-1.24641,0.00924982,0,0,0,0,0,0,0,0.0118716,-0.196434,-0.332807,-1.65893,0.0389998,1.44028,0.402907,0.04292,-0.00434931,0.045971,0.00304879,0.568956,-0.388324,0.000370202,1.83246,-25.0603,4.13881,25.3085,0.752255,2.03148,-0.0301054,-0.74452,-0.756655,1.16824,0.6615,-0.223598,-0.351054,-0.28783,0.0148838,-0.477633,-0.309485,-0.018886,-0.82253,-0.00633599,
0.0184858,-0.197376,-0.325877,-1.66071,0.0307803,-0.159168,-0.381921,0.19509,-0.00691178,0.217676,-0.0655642,0.934946,-1.25176,0.00907433,0,0,0,0,0,0,0,0.0118716,-0.196434,-0.332807,-1.65893,0.0389998,1.44028,0.402907,0.04292,-0.00434931,0.045971,0.00304879,0.568956,-0.388324,0.000370202,1.83246,-25.0603,4.13881,25.3085,0.752255,2.03148,-0.0301054,-0.74452,-0.756655,1.16824,0.6615,-0.223598,-0.351054,-0.28783,0.0148838,-0.477633,-0.309485,-0.018886,-0.82253,-0.00633599,
0.0192816,-0.197394,-0.32499,-1.66099,0.0345846,-0.164162,-0.381886,0.198952,-0.00438211,0.221908,-0.0700975,0.951068,-1.24841,0.00889549,0,0,0,0,0,0,0,0.0135242,-0.196588,-0.330825,-1.65888,0.0569379,1.42508,0.402904,0.0600078,-0.00731158,0.0750972,0.000487281,0.567095,-0.529627,-0.000450223,2.18555,-24.8619,4.21419,24.6857,1.64398,1.64696,0.00376909,-1.04493,-0.386243,1.10108,0.442573,-0.366943,-0.223222,-0.162176,-0.0273324,-0.331639,-0.3753,0.0209807,-0.906079,-0.00601727,
0.0200906,-0.197401,-0.324088,-1.66129,0.0384457,-0.16912,-0.381851,0.202256,-0.00168058,0.225503,-0.0736994,0.96529,-1.23947,0.00871687,0,0,0,0,0,0,0,0.0135242,-0.196588,-0.330825,-1.65888,0.0569379,1.42508,0.402904,0.0600078,-0.00731158,0.0750972,0.000487281,0.567095,-0.529627,-0.000450223,2.18555,-24.8619,4.21419,24.6857,1.64398,1.64696,0.00376909,-1.04493,-0.386243,1.10108,0.442573,-0.366943,-0.223222,-0.162176,-0.0273324,-0.331639,-0.3753,0.0209807,-0.906079,-0.00601727,
0.0209109,-0.197396,-0.323174,-1.66159,0.0423567,-0.174027,-0.381817,0.205068,0.00108159,0.228559,-0.0764306,0.977732,-1.22678,0.00854091,0,0,0,0,0,0,0,0.0135242,-0.196588,-0.330825,-1.65888,0.0569379,1.42508,0.402904,0.0600078,-0.00731158,0.0750972,0.000487281,0.567095,-0.529627,-0.000450223,2.18555,-24.8619,4.21419,24.6857,1.64398,1.64696,0.00376909,-1.17013,-0.93714,0.712893,0.880236,-0.277438,-0.486176,-0.418438,0.0997431,-0.644963,-0.536899,-0.042505,-0.927376,-0.00428001,
0.0217407,-0.197381,-0.322249,-1.66191,0.0463108,-0.178873,-0.381783,0.207446,0.00379239,0.231156,-0.0784426,0.98854,-1.2115,0.00836653,0,0,0,0,0,0,0,0.0135242,-0.196588,-0.330825,-1.65888,0.0569379,1.42508,0.402904,0.0600078,-0.00731158,0.0750972,0.000487281,0.567095,-0.529627,-0.000450223,2.18555,-24.8619,4.21419,24.6857,1.64398,1.64696,0.00376909,-1.5869,-1.06367,0.55638,1.02074,-0.447306,-0.597701,-0.532061,0.0669639,-0.771609,-0.643687,-0.0531443,-1.02325,-0.00383212,
0.0225785,-0.197356,-0.321316,-1.66223,0.0503023,-0.18365,-0.38175,0.209442,0.00637183,0.233352,-0.0798803,0.99787,-1.19444,0.00819655,0,0,0,0,0,0,0,0.0135242,-0.196588,-0.330825,-1.65888,0.0569379,1.42508,0.402904,0.0600078,-0.00731158,0.0750972,0.000487281,0.567095,-0.529627,-0.000450223,2.18555,-24.8619,4.21419,24.6857,1.64398,1.64696,0.00376909,-1.5869,-1.06367,0.55638,1.02074,-0.447306,-0.597701,-0.532061,0.0669639,-0.771609,-0.643687,-0.0531443,-1.02325,-0.00383212,
0.0234228,-0.197321,-0.320375,-1.66255,0.0543258,-0.188355,-0.381718,0.211097,0.00877154,0.235196,-0.0808617,1.00588,-1.17616,0.00803102,0,0,0,0,0,0,0,0.0135242,-0.196588,-0.330825,-1.65888,0.0569379,1.42508,0.402904,0.0600078,-0.00731158,0.0750972,0.000487281,0.567095,-0.529627,-0.000450223,2.18555,-24.8619,4.21419,24.6857,1.64398,1.64696,0.00376909,-2.17836,-1.00935,0.916606,0.980553,-1.00347,-0.657066,-0.593967,-0.29235,-0.822311,-0.488663,-0.00993203,-1.07434,-0.00440032,
0.0242726,-0.197277,-0.319428,-1.66288,0.0583766,-0.192983,-0.381687,0.212449,0.0109663,0.236726,-0.08148,1.0127,-1.15705,0.00786873,0,0,0,0,0,0,0,0.0158663,-0.196709,-0.327836,-1.65897,0.0767512,1.40665,0.402909,0.0842461,0.000516151,0.104662,-0.0120888,0.623821,-0.587248,0.000534948,1.90784,-24.8381,3.91267,24.8602,2.24273,1.59386,-0.0365141,-2.17836,-1.00935,0.916606,0.980553,-1.00347,-0.657066,-0.593967,-0.29235,-0.822311,-0.488663,-0.00993203,-1.07434,-0.00440032,
0.0251268,-0.197225,-0.318476,-1.6632,0.0624506,-0.197533,-0.381656,0.213528,0.0129476,0.237974,-0.0818066,1.01849,-1.13741,0.00771156,0,0,0,0,0,0,0,0.0158663,-0.196709,-0.327836,-1.65897,0.0767512,1.40665,0.402909,0.0842461,0.000516151,0.104662,-0.0120888,0.623821,-0.587248,0.000534948,1.90784,-24.8381,3.91267,24.8602,2.24273,1.59386,-0.0365141,-1.99783,-0.639732,0.80775,0.847449,-0.832825,-0.456594,-0.399179,-0.181964,-0.619236,-0.580027,0.130443,-1.10924,-0.00416262,
0.0259842,-0.197166,-0.31752,-1.66353,0.066544,-0.202003,-0.381626,0.214363,0.0147169,0.238971,-0.0818979,1.02335,-1.11744,0.00755812,0,0,0,0,0,0,0,0.0158663,-0.196709,-0.327836,-1.65897,0.0767512,1.40665,0.402909,0.0842461,0.000516151,0.104662,-0.0120888,0.623821,-0.587248,0.000534948,1.90784,-24.8381,3.91267,24.8602,2.24273,1.59386,-0.0365141,-1.99783,-0.639732,0.80775,0.847449,-0.832825,-0.456594,-0.399179,-0.181964,-0.619236,-0.580027,0.130443,-1.10924,-0.00416262,
0.0268441,-0.197101,-0.316561,-1.66386,0.0706536,-0.206392,-0.381596,0.214978,0.0162828,0.239741,-0.0817975,1.0274,-1.09729,0.00740803,0,0,0,0,0,0,0,0.0158663,-0.196709,-0.327836,-1.65897,0.0767512,1.40665,0.402909,0.0842461,0.000516151,0.104662,-0.0120888,0.623821,-0.587248,0.000534948,1.90784,-24.8381,3.91267,24.8602,2.24273,1.59386,-0.0365141,-1.69579,-0.152953,0.663255,0.623548,-0.55518,-0.188284,-0.149055,-0.00318555,-0.329121,-0.695762,0.269486,-1.14305,-0.00271788,
0.0277057,-0.19703,-0.3156,-1.66418,0.0747765,-0.2107,-0.381567,0.215397,0.0176574,0.240306,-0.0815402,1.03073,-1.07707,0.00726097,0,0,0,0,0,0,0,0.0158663,-0.196709,-0.327836,-1.65897,0.0767512,1.40665,0.402909,0.0842461,0.000516151,0.104662,-0.0120888,0.623821,-0.587248,0.000534948,1.90784,-24.8381,3.91267,24.8602,2.24273,1.59386,-0.0365141,-1.77709,0.5555,0.499842,0.252592,-0.60439,0.111301,0.144294,-0.0231236,-0.00346008,-0.74144,0.439759,-1.14946,-0.00344875,
0.0285683,-0.196955,-0.314637,-1.66451,0.0789101,-0.214928,-0.381538,0.21564,0.0188551,0.240688,-0.0811531,1.03341,-1.05686,0.00711952,0,0,0,0,0,0,0,0.0186613,-0.1967,-0.323945,-1.65924,0.0961326,1.38664,0.402912,0.085696,0.00845931,0.12933,-0.0135536,0.588736,-0.6357,0.000289218,1.67774,-25.0365,3.48817,24.761,2.89642,1.75316,-0.0301054,-1.77709,0.5555,0.499842,0.252592,-0.60439,0.111301,0.144294,-0.0231236,-0.00346008,-0.74144,0.439759,-1.14946,-0.00344875,
0.0294312,-0.196875,-0.313674,-1.66483,0.0830523,-0.219074,-0.381511,0.215724,0.0198908,0.240904,-0.0806589,1.03554,-1.03672,0.00697936,0,0,0,0,0,0,0,0.0186613,-0.1967,-0.323945,-1.65924,0.0961326,1.38664,0.402912,0.085696,0.00845931,0.12933,-0.0135536,0.588736,-0.6357,0.000289218,1.67774,-25.0365,3.48817,24.761,2.89642,1.75316,-0.0301054,-1.5982,0.951921,0.337203,0.146786,-0.515935,0.297963,0.331762,0.00469413,0.17362,-0.764892,0.646457,-1.09486,-0.00372967,
0.0302938,-0.196792,-0.31271,-1.66515,0.087201,-0.223141,-0.381483,0.215665,0.0207796,0.240973,-0.0800757,1.03717,-1.01669,0.00684411,0,0,0,0,0,0,0,0.0186613,-0.1967,-0.323945,-1.65924,0.0961326,1.38664,0.402912,0.085696,0.00845931,0.12933,-0.0135536,0.588736,-0.6357,0.000289218,1.67774,-25.0365,3.48817,24.761,2.89642,1.75316,-0.0301054,-1.5982,0.951921,0.337203,0.146786,-0.515935,0.297963,0.331762,0.00469413,0.17362,-0.764892,0.646457,-1.09486,-0.00372967,
0.0311557,-0.196706,-0.311746,-1.66547,0.0913544,-0.227128,-0.381456,0.215481,0.021536,0.240908,-0.0794182,1.03835,-0.996806,0.00671047,0,0,0,0,0,0,0,0.0186613,-0.1967,-0.323945,-1.65924,0.0961326,1.38664,0.402912,0.085696,0.00845931,0.12933,-0.0135536,0.588736,-0.6357,0.000289218,1.67774,-25.0365,3.48817,24.761,2.89642,1.75316,-0.0301054,-1.84149,0.441479,-0.0121796,0.666484,-0.597153,0.0168563,0.0648865,-0.00404292,-0.182134,-0.867785,0.717048,-1.0819,-0.00278321,
0.0127229,-0.196988,-0.33238,-1.65947,-0.00375169,-0.114326,-0.382319,0.175965,-0.0584727,0.188809,-0.0636327,0.545507,-0.725113,0.0138786,0,0,0,0,0,0,0,0.0186613,-0.1967,-0.323945,-1.65924,0.0961326,1.38664,0.402912,0.085696,0.00845931,0.12933,-0.0135536,0.588736,-0.6357,0.000289218,1.67774,-25.0365,3.48817,24.761,2.89642,1.75316,-0.0301054,-1.84149,0.441479,-0.0121796,0.666484,-0.597153,0.0168563,0.0648865,-0.00404292,-0.182134,-0.867785,0.717048,-1.0819,-0.00278321,
0.0210104,-0.19708,-0.321389,-1.66015,0.102888,-0.19379,-0.382323,0.229342,-0.0377635,0.252359,-0.0884418,0.575763,-0.886843,0.0130891,0,0,0,0,0,0,0,0.0186613,-0.1967,-0.323945,-1.65924,0.0961326,1.38664,0.402912,0.085696,0.00845931,0.12933,-0.0135536,0.588736,-0.6357,0.000289218,1.67774,-25.0365,3.48817,24.761,2.89642,1.75316,-0.0301054,-1.90482,0.744525,-0.192445,0.551459,-0.665283,0.126018,0.181778,-0.0523122,-0.0786418,-0.867127,0.835051,-1.02385,-0.00471791,
0.0220266,-0.19723,-0.320263,-1.66053,0.105306,-0.197617,-0.382273,0.254032,-0.0375609,0.281494,-0.0947315,0.604528,-0.956678,0.0125314,0,0,0,0,0,0,0,0.0220714,-0.196633,-0.319338,-1.65977,0.115162,1.36545,0.402909,0.114587,0.0071982,0.14494,-0.0258151,0.580879,-0.634759,-0.000255171,1.4278,-25.5364,3.26204,24.9832,2.82318,1.85937,-0.0026396,-1.90482,0.744525,-0.192445,0.551459,-0.665283,0.126018,0.181778,-0.0523122,-0.0786418,-0.867127,0.835051,-1.02385,-0.00471791,
0.0231238,-0.197372,-0.319042,-1.66093,0.107859,-0.201678,-0.382225,0.274312,-0.0355297,0.305171,-0.0997475,0.638434,-1.01537,0.0120432,0,0,0,0,0,0,0,0.0220714,-0.196633,-0.319338,-1.65977,0.115162,1.36545,0.402909,0.114587,0.0071982,0.14494,-0.0258151,0.580879,-0.634759,-0.000255171,1.4278,-25.5364,3.26204,24.9832,2.82318,1.85937,-0.0026396,-1.89141,1.57556,-0.455874,0.0299694,-0.631416,0.484186,0.532282,-0.0177292,0.326601,-0.911132,0.949356,-0.981727,-0.00503203,
0.0242884,-0.197502,-0.317743,-1.66135,0.110557,-0.205935,-0.382178,0.291141,-0.0325187,0.324618,-0.104091,0.674327,-1.06426,0.0116039,0,0,0,0,0,0,0,0.0220714,-0.196633,-0.319338,-1.65977,0.115162,1.36545,0.402909,0.114587,0.0071982,0.14494,-0.0258151,0.580879,-0.634759,-0.000255171,1.4278,-25.5364,3.26204,24.9832,2.82318,1.85937,-0.0026396,-2.76221,2.3116,-0.346223,-0.569958,-1.38789,0.672065,0.711102,-0.475722,0.589752,-0.71483,0.956144,-0.944422,-0.00325582,
0.0255092,-0.197618,-0.316381,-1.66178,0.113398,-0.210355,-0.382134,0.305208,-0.0289903,0.340728,-0.107934,0.710187,-1.10485,0.0112041,0,0,0,0,0,0,0,0.0220714,-0.196633,-0.319338,-1.65977,0.115162,1.36545,0.402909,0.114587,0.0071982,0.14494,-0.0258151,0.580879,-0.634759,-0.000255171,1.4278,-25.5364,3.26204,24.9832,2.82318,1.85937,-0.0026396,-2.76221,2.3116,-0.346223,-0.569958,-1.38789,0.672065,0.711102,-0.475722,0.589752,-0.71483,0.956144,-0.944422,-0.00325582,
0.0267776,-0.197721,-0.314963,-1.66223,0.116377,-0.214885,-0.38209,0.317096,-0.0256309,0.354266,-0.112484,0.744744,-1.1325,0.0108676,0,0,0,0,0,0,0,0.0220714,-0.196633,-0.319338,-1.65977,0.115162,1.36545,0.402909,0.114587,0.0071982,0.14494,-0.0258151,0.580879,-0.634759,-0.000255171,1.4278,-25.5364,3.26204,24.9832,2.82318,1.85937,-0.0026396,-2.37174,1.34062,-0.602576,-0.0266047,-1.02794,0.295158,0.33663,-0.251883,0.174146,-0.755987,0.728318,-0.825176,-0.0017222,
0.0280865,-0.197811,-0.313501,-1.6627,0.119485,-0.219467,-0.382048,0.327218,-0.0224933,0.365722,-0.117664,0.77724,-1.14552,0.0105807,0,0,0,0,0,0,0,0.0262373,-0.196751,-0.31438,-1.66077,0.129063,1.34714,0.402909,0.144057,-0.0105652,0.174761,-0.0465658,0.384872,-0.544154,-0.000468535,2.43946,-24.8381,4.43635,25.0586,2.19329,2.06536,0.00376909,-2.37174,1.34062,-0.602576,-0.0266047,-1.02794,0.295158,0.33663,-0.251883,0.174146,-0.755987,0.728318,-0.825176,-0.0017222,
0.0294296,-0.197887,-0.311999,-1.66319,0.122715,-0.224066,-0.382007,0.335795,-0.019056,0.375343,-0.121895,0.807266,-1.1497,0.0102651,0,0,0,0,0,0,0,0.0262373,-0.196751,-0.31438,-1.66077,0.129063,1.34714,0.402909,0.144057,-0.0105652,0.174761,-0.0465658,0.384872,-0.544154,-0.000468535,2.43946,-24.8381,4.43635,25.0586,2.19329,2.06536,0.00376909,-2.35064,0.920032,-0.459609,0.120964,-1.13796,0.104583,0.158391,-0.37052,-0.0242157,-0.591448,0.593527,-0.703629,0.00133231,
0.0308022,-0.197951,-0.310465,-1.66369,0.126053,-0.228623,-0.381967,0.34314,-0.0160133,0.383582,-0.126718,0.834609,-1.13923,0.010016,0,0,0,0,0,0,0,0.0262373,-0.196751,-0.31438,-1.66077,0.129063,1.34714,0.402909,0.144057,-0.0105652,0.174761,-0.0465658,0.384872,-0.544154,-0.000468535,2.43946,-24.8381,4.43635,25.0586,2.19329,2.06536,0.00376909,-1.94771,0.931214,-0.765204,0.106605,-0.688383,0.176127,0.213457,-0.0545333,0.0604706,-0.761253,0.550061,-0.711952,0.00146134,
0.0321996,-0.198002,-0.308903,-1.66421,0.12949,-0.233107,-0.381928,0.349352,-0.0127372,0.390509,-0.130407,0.85924,-1.12103,0.00976972,0,0,0,0,0,0,0,0.0262373,-0.196751,-0.31438,-1.66077,0.129063,1.34714,0.402909,0.144057,-0.0105652,0.174761,-0.0465658,0.384872,-0.544154,-0.000468535,2.43946,-24.8381,4.43635,25.0586,2.19329,2.06536,0.00376909,-1.94771,0.931214,-0.765204,0.106605,-0.688383,0.176127,0.213457,-0.0545333,0.0604706,-0.761253,0.550061,-0.711952,0.00146134,
0.0336178,-0.198039,-0.307318,-1.66475,0.133015,-0.2375,-0.38189,0.354542,-0.00929554,0.396305,-0.132838,0.881228,-1.09844,0.00952821,0,0,0,0,0,0,0,0.0262373,-0.196751,-0.31438,-1.66077,0.129063,1.34714,0.402909,0.144057,-0.0105652,0.174761,-0.0465658,0.384872,-0.544154,-0.000468535,2.43946,-24.8381,4.43635,25.0586,2.19329,2.06536,0.00376909,-1.8655,0.447011,-0.744224,0.375159,-0.592509,-0.0116721,0.0243535,0.0101121,-0.143977,-0.775629,0.441075,-0.716361,0.000491329,
0.0350531,-0.198063,-0.305713,-1.66528,0.136618,-0.241794,-0.381852,0.358835,-0.00586105,0.401125,-0.134242,0.900709,-1.07333,0.00929654,0,0,0,0,0,0,0,0.0311377,-0.196921,-0.30825,-1.66219,0.142129,1.32879,0.402914,0.157521,-0.00263598,0.214439,-0.0468949,0.472761,-0.567324,0.000146183,2.23713,-25.0127,4.26179,24.5349,2.06512,1.91887,-0.0365141,-1.8655,0.447011,-0.744224,0.375159,-0.592509,-0.0116721,0.0243535,0.0101121,-0.143977,-0.775629,0.441075,-0.716361,0.000491329,
0.0365025,-0.198073,-0.304093,-1.66582,0.140289,-0.245981,-0.381816,0.362342,-0.00257213,0.405101,-0.134871,0.917861,-1.04678,0.00907204,0,0,0,0,0,0,0,0.0311377,-0.196921,-0.30825,-1.66219,0.142129,1.32879,0.402914,0.157521,-0.00263598,0.214439,-0.0468949,0.472761,-0.567324,0.000146183,2.23713,-25.0127,4.26179,24.5349,2.06512,1.91887,-0.0365141,-2.18149,-0.307397,-1.05693,0.826961,-0.702826,-0.385245,-0.336984,-0.00306727,-0.559759,-0.828425,0.26597,-0.676425,-0.00126371,
0.0379631,-0.198071,-0.302459,-1.66636,0.144021,-0.250059,-0.381781,0.365161,0.000485803,0.40834,-0.134929,0.932877,-1.01949,0.00885782,0,0,0,0,0,0,0,0.0311377,-0.196921,-0.30825,-1.66219,0.142129,1.32879,0.402914,0.157521,-0.00263598,0.214439,-0.0468949,0.472761,-0.567324,0.000146183,2.23713,-25.0127,4.26179,24.5349,2.06512,1.91887,-0.0365141,-2.18149,-0.307397,-1.05693,0.826961,-0.702826,-0.385245,-0.336984,-0.00306727,-0.559759,-0.828425,0.26597,-0.676425,-0.00126371,
0.0394326,-0.198058,-0.300816,-1.6669,0.147804,-0.254026,-0.381746,0.367376,0.00326964,0.410934,-0.134566,0.945954,-0.991897,0.00865413,0,0,0,0,0,0,0,0.0311377,-0.196921,-0.30825,-1.66219,0.142129,1.32879,0.402914,0.157521,-0.00263598,0.214439,-0.0468949,0.472761,-0.567324,0.000146183,2.23713,-25.0127,4.26179,24.5349,2.06512,1.91887,-0.0365141,-2.2689,0.158002,-1.45363,0.52854,-0.546289,-0.168295,-0.119948,0.186076,-0.320144,-1.03902,0.267213,-0.759011,-0.00212465,
0.0409089,-0.198035,-0.299164,-1.66744,0.151634,-0.257883,-0.381712,0.369059,0.00576436,0.41296,-0.133889,0.957281,-0.964284,0.00845865,0,0,0,0,0,0,0,0.0311377,-0.196921,-0.30825,-1.66219,0.142129,1.32879,0.402914,0.157521,-0.00263598,0.214439,-0.0468949,0.472761,-0.567324,0.000146183,2.23713,-25.0127,4.26179,24.5349,2.06512,1.91887,-0.0365141,-2.64259,0.718308,-1.25996,0.123861,-0.829275,0.0601176,0.11046,0.0342234,-0.0542065,-1.01013,0.311065,-0.858422,-0.00245964,
0.04239,-0.198003,-0.297506,-1.66797,0.155502,-0.261631,-0.381679,0.370274,0.00797343,0.414486,-0.132976,0.967037,-0.936829,0.00827339,0,0,0,0,0,0,0,0.0311377,-0.196921,-0.30825,-1.66219,0.142129,1.32879,0.402914,0.157521,-0.00263598,0.214439,-0.0468949,0.472761,-0.567324,0.000146183,2.23713,-25.0127,4.26179,24.5349,2.06512,1.91887,-0.0365141,-2.64259,0.718308,-1.25996,0.123861,-0.829275,0.0601176,0.11046,0.0342234,-0.0542065,-1.01013,0.311065,-0.858422,-0.00245964,
0.0438742,-0.197963,-0.295844,-1.6685,0.159403,-0.265269,-0.381647,0.371074,0.00991019,0.41557,-0.131884,0.975388,-0.909644,0.00809657,0,0,0,0,0,0,0,0.0364541,-0.196995,-0.301024,-1.66369,0.159419,1.31041,0.402915,0.175155,-0.0085484,0.232155,-0.0518858,0.563061,-0.545342,-0.000892684,2.59418,-24.8619,4.33717,24.6619,2.32788,1.93261,-0.0026396,-2.81569,0.184293,-0.902381,0.452655,-1.10471,-0.195288,-0.139605,-0.190244,-0.336999,-0.84075,0.27519,-0.831571,-0.00101473,
0.0453603,-0.197917,-0.294179,-1.66902,0.163333,-0.268801,-0.381615,0.371509,0.0115943,0.416263,-0.130653,0.982483,-0.8828,0.00792823,0,0,0,0,0,0,0,0.0364541,-0.196995,-0.301024,-1.66369,0.159419,1.31041,0.402915,0.175155,-0.0085484,0.232155,-0.0518858,0.563061,-0.545342,-0.000892684,2.59418,-24.8619,4.33717,24.6619,2.32788,1.93261,-0.0026396,-2.81569,0.184293,-0.902381,0.452655,-1.10471,-0.195288,-0.139605,-0.190244,-0.336999,-0.84075,0.27519,-0.831571,-0.00101473,
0.0468468,-0.197865,-0.292512,-1.66954,0.167287,-0.272226,-0.381584,0.371622,0.0130477,0.416611,-0.129316,0.98846,-0.856337,0.00776453,0,0,0,0,0,0,0,0.0364541,-0.196995,-0.301024,-1.66369,0.159419,1.31041,0.402915,0.175155,-0.0085484,0.232155,-0.0518858,0.563061,-0.545342,-0.000892684,2.59418,-24.8619,4.33717,24.6619,2.32788,1.93261,-0.0026396,-2.82792,-0.606665,-0.834392,1.05439,-1.15308,-0.560035,-0.501626,-0.24956,-0.76267,-0.801594,0.273899,-0.799142,0.00159674,
0.0483326,-0.197808,-0.290845,-1.67005,0.171261,-0.275547,-0.381553,0.371451,0.0142928,0.416653,-0.127894,0.993443,-0.830281,0.00761177,0,0,0,0,0,0,0,0.0364541,-0.196995,-0.301024,-1.66369,0.159419,1.31041,0.402915,0.175155,-0.0085484,0.232155,-0.0518858,0.563061,-0.545342,-0.000892684,2.59418,-24.8619,4.33717,24.6619,2.32788,1.93261,-0.0026396,-2.82792,-0.606665,-0.834392,1.05439,-1.15308,-0.560035,-0.501626,-0.24956,-0.76267,-0.801594,0.273899,-0.799142,0.00159674,
0.0498167,-0.197746,-0.28918,-1.67055,0.175251,-0.278766,-0.381524,0.371028,0.0153514,0.416426,-0.126407,0.997542,-0.804643,0.00746127,0,0,0,0,0,0,0,0.0364541,-0.196995,-0.301024,-1.66369,0.159419,1.31041,0.402915,0.175155,-0.0085484,0.232155,-0.0518858,0.563061,-0.545342,-0.000892684,2.59418,-24.8619,4.33717,24.6619,2.32788,1.93261,-0.0026396,-3.07968,-0.320021,-0.97484,0.984506,-1.24705,-0.462035,-0.401718,-0.262713,-0.672759,-0.900474,0.400141,-0.874894,0.00194186,
0.0512982,-0.197681,-0.287516,-1.67105,0.179254,-0.281883,-0.381494,0.370384,0.0162444,0.41596,-0.124869,1.00086,-0.77943,0.00732015,0,0,0,0,0,0,0,0.0433766,-0.19693,-0.293082,-1.66553,0.178189,1.29382,0.402917,0.220583,0.00146082,0.26368,-0.0563357,0.578187,-0.481483,0.000347525,2.11017,-25.4848,3.68654,24.6857,3.07312,1.77331,-0.0365141,-2.78119,0.298038,-0.953996,0.67991,-1.0716,-0.159348,-0.0969002,-0.184473,-0.358898,-0.917826,0.592954,-0.868837,0.00020255,
0.0527764,-0.197613,-0.285855,-1.67155,0.183268,-0.284902,-0.381466,0.369546,0.0169909,0.415285,-0.123292,1.00348,-0.754641,0.00718199,0,0,0,0,0,0,0,0.0433766,-0.19693,-0.293082,-1.66553,0.178189,1.29382,0.402917,0.220583,0.00146082,0.26368,-0.0563357,0.578187,-0.481483,0.000347525,2.11017,-25.4848,3.68654,24.6857,3.07312,1.77331,-0.0365141,-2.78119,0.298038,-0.953996,0.67991,-1.0716,-0.159348,-0.0969002,-0.184473,-0.358898,-0.917826,0.592954,-0.868837,0.00020255,
0.0542506,-0.197543,-0.284197,-1.67203,0.18729,-0.287823,-0.381437,0.368537,0.0176081,0.414424,-0.121684,1.00549,-0.730276,0.0070507,0,0,0,0,0,0,0,0.0433766,-0.19693,-0.293082,-1.66553,0.178189,1.29382,0.402917,0.220583,0.00146082,0.26368,-0.0563357,0.578187,-0.481483,0.000347525,2.11017,-25.4848,3.68654,24.6857,3.07312,1.77331,-0.0365141,-2.40008,1.2216,-0.927747,0.142333,-0.852426,0.288881,0.353899,-0.0833288,0.122406,-0.92407,0.795435,-0.850235,-0.00245418,
0.0557201,-0.19747,-0.282543,-1.67251,0.191318,-0.290648,-0.38141,0.367378,0.0181122,0.413401,-0.120054,1.00695,-0.706332,0.00692275,0,0,0,0,0,0,0,0.0433766,-0.19693,-0.293082,-1.66553,0.178189,1.29382,0.402917,0.220583,0.00146082,0.26368,-0.0563357,0.578187,-0.481483,0.000347525,2.11017,-25.4848,3.68654,24.6857,3.07312,1.77331,-0.0365141,-2.40008,1.2216,-0.927747,0.142333,-0.852426,0.288881,0.353899,-0.0833288,0.122406,-0.92407,0.795435,-0.850235,-0.00245418,
0.0216353,-0.197385,-0.320737,-1.66063,0.101841,-0.193058,-0.382339,0.298838,-0.0671548,0.328004,-0.136982,0.46684,-0.791408,0.0119537,0,0,0,0,0,0,0,0.0433766,-0.19693,-0.293082,-1.66553,0.178189,1.29382,0.402917,0.220583,0.00146082,0.26368,-0.0563357,0.578187,-0.481483,0.000347525,2.11017,-25.4848,3.68654,24.6857,3.07312,1.77331,-0.0365141,-2.37142,1.81834,-0.88964,-0.215101,-0.870654,0.556049,0.632598,-0.105278,0.405893,-0.906574,0.915931,-0.848754,-0.00244871,
0.0473101,-0.197373,-0.288731,-1.66704,0.184821,-0.283944,-0.382347,0.363879,-0.0421069,0.405026,-0.140816,0.563678,-0.62749,0.0110156,0,0,0,0,0,0,0,0.0433766,-0.19693,-0.293082,-1.66553,0.178189,1.29382,0.402917,0.220583,0.00146082,0.26368,-0.0563357,0.578187,-0.481483,0.000347525,2.11017,-25.4848,3.68654,24.6857,3.07312,1.77331,-0.0365141,-2.37142,1.81834,-0.88964,-0.215101,-0.870654,0.556049,0.632598,-0.105278,0.405893,-0.906574,0.915931,-0.848754,-0.00244871,
0.0488717,-0.197536,-0.286986,-1.66763,0.187184,-0.286591,-0.382304,0.390385,-0.0406843,0.436333,-0.147713,0.590745,-0.661805,0.0107041,0,0,0,0,0,0,0,0.0531029,-0.196786,-0.281054,-1.66823,0.202526,1.27547,0.402918,0.249251,0.00851099,0.283687,-0.0565704,0.548643,-0.392318,0.000976085,1.63013,-25.8855,3.11128,24.8602,3.10333,1.7669,-0.0365141,-2.52994,1.68725,-0.833419,-0.0505216,-1.01401,0.46898,0.541723,-0.20277,0.301233,-0.877826,0.988024,-0.849727,-0.00203987,
0.0505193,-0.197685,-0.28514,-1.66824,0.189677,-0.289346,-0.382263,0.411898,-0.0372999,0.461555,-0.152178,0.623269,-0.688716,0.0103867,0,0,0,0,0,0,0,0.0531029,-0.196786,-0.281054,-1.66823,0.202526,1.27547,0.402918,0.249251,0.00851099,0.283687,-0.0565704,0.548643,-0.392318,0.000976085,1.63013,-25.8855,3.11128,24.8602,3.10333,1.7669,-0.0365141,-2.04391,2.50475,-0.868614,-0.558457,-0.666287,0.886191,0.955772,-0.00512303,0.756705,-0.926944,1.12701,-0.837922,-0.00292101,
0.0522376,-0.197818,-0.283211,-1.66886,0.192309,-0.292166,-0.382222,0.429571,-0.0333405,0.482118,-0.156135,0.658021,-0.704965,0.0100977,0,0,0,0,0,0,0,0.0531029,-0.196786,-0.281054,-1.66823,0.202526,1.27547,0.402918,0.249251,0.00851099,0.283687,-0.0565704,0.548643,-0.392318,0.000976085,1.63013,-25.8855,3.11128,24.8602,3.10333,1.7669,-0.0365141,-2.04391,2.50475,-0.868614,-0.558457,-0.666287,0.886191,0.955772,-0.00512303,0.756705,-0.926944,1.12701,-0.837922,-0.00292101,
0.0540144,-0.197936,-0.281215,-1.6695,0.195081,-0.295003,-0.382183,0.444204,-0.0293108,0.499028,-0.160039,0.692877,-0.709323,0.00989062,0,0,0,0,0,0,0,0.0531029,-0.196786,-0.281054,-1.66823,0.202526,1.27547,0.402918,0.249251,0.00851099,0.283687,-0.0565704,0.548643,-0.392318,0.000976085,1.63013,-25.8855,3.11128,24.8602,3.10333,1.7669,-0.0365141,-2.35437,1.66304,-0.904594,-0.0405383,-0.896442,0.470181,0.525127,-0.145149,0.316276,-0.866683,0.995745,-0.785031,-0.000821429,
0.0558393,-0.198035,-0.279164,-1.67015,0.197987,-0.297837,-0.382144,0.456238,-0.0248214,0.512862,-0.162472,0.72653,-0.708411,0.00960696,0,0,0,0,0,0,0,0.0531029,-0.196786,-0.281054,-1.66823,0.202526,1.27547,0.402918,0.249251,0.00851099,0.283687,-0.0565704,0.548643,-0.392318,0.000976085,1.63013,-25.8855,3.11128,24.8602,3.10333,1.7669,-0.0365141,-2.35437,1.66304,-0.904594,-0.0405383,-0.896442,0.470181,0.525127,-0.145149,0.316276,-0.866683,0.995745,-0.785031,-0.000821429,
0.0577044,-0.198118,-0.277066,-1.67081,0.201019,-0.300621,-0.382107,0.466277,-0.0208044,0.524357,-0.165287,0.758139,-0.695973,0.00939586,0,0,0,0,0,0,0,0.061066,-0.196846,-0.270918,-1.67032,0.214554,1.26582,0.402918,0.262083,-0.0028205,0.341224,-0.071018,0.354949,-0.276989,0.00014428,1.63013,-25.5364,3.11128,24.5627,2.57873,1.5078,-0.0301054,-2.71375,-0.369729,-1.19007,1.19866,-1.03601,-0.459102,-0.354142,-0.20322,-0.746889,-0.883083,0.623576,-0.705827,0.00214305,
0.0596025,-0.198185,-0.274931,-1.67148,0.204169,-0.303333,-0.38207,0.474526,-0.0167227,0.533798,-0.167065,0.787283,-0.678075,0.00919541,0,0,0,0,0,0,0,0.061066,-0.196846,-0.270918,-1.67032,0.214554,1.26582,0.402918,0.262083,-0.0028205,0.341224,-0.071018,0.354949,-0.276989,0.00014428,1.63013,-25.5364,3.11128,24.5627,2.57873,1.5078,-0.0301054,-2.71375,-0.369729,-1.19007,1.19866,-1.03601,-0.459102,-0.354142,-0.20322,-0.746889,-0.883083,0.623576,-0.705827,0.00214305,
0.0615274,-0.198236,-0.272765,-1.67215,0.207424,-0.305963,-0.382034,0.481224,-0.0126535,0.541495,-0.167789,0.813792,-0.657422,0.00900111,0,0,0,0,0,0,0,0.061066,-0.196846,-0.270918,-1.67032,0.214554,1.26582,0.402918,0.262083,-0.0028205,0.341224,-0.071018,0.354949,-0.276989,0.00014428,1.63013,-25.5364,3.11128,24.5627,2.57873,1.5078,-0.0301054,-3.07007,-0.332687,-0.82833,1.04768,-1.44874,-0.45122,-0.352058,-0.490516,-0.703591,-0.687704,0.55038,-0.694056,-0.00116591,
0.0634738,-0.198271,-0.270574,-1.67282,0.210774,-0.308504,-0.381999,0.486594,-0.00874803,0.547713,-0.167707,0.837649,-0.635368,0.00882046,0,0,0,0,0,0,0,0.061066,-0.196846,-0.270918,-1.67032,0.214554,1.26582,0.402918,0.262083,-0.0028205,0.341224,-0.071018,0.354949,-0.276989,0.00014428,1.63013,-25.5364,3.11128,24.5627,2.57873,1.5078,-0.0301054,-2.74628,-0.226033,-1.30119,0.976012,-0.924191,-0.335313,-0.261363,-0.0736354,-0.566275,-0.983389,0.512739,-0.779968,-0.00271946,
0.0654371,-0.198291,-0.268364,-1.67349,0.21421,-0.310955,-0.381964,0.490826,-0.00511464,0.552674,-0.167054,0.858934,-0.61264,0.00864866,0,0,0,0,0,0,0,0.061066,-0.196846,-0.270918,-1.67032,0.214554,1.26582,0.402918,0.262083,-0.0028205,0.341224,-0.071018,0.354949,-0.276989,0.00014428,1.63013,-25.5364,3.11128,24.5627,2.57873,1.5078,-0.0301054,-2.74628,-0.226033,-1.30119,0.976012,-0.924191,-0.335313,-0.261363,-0.0736354,-0.566275,-0.983389,0.512739,-0.779968,-0.00271946,
0.0674134,-0.198298,-0.266137,-1.67415,0.217721,-0.313313,-0.38193,0.494083,-0.0018097,0.556559,-0.166002,0.877781,-0.589654,0.00848749,0,0,0,0,0,0,0,0.061066,-0.196846,-0.270918,-1.67032,0.214554,1.26582,0.402918,0.262083,-0.0028205,0.341224,-0.071018,0.354949,-0.276989,0.00014428,1.63013,-25.5364,3.11128,24.5627,2.57873,1.5078,-0.0301054,-2.81328,-0.039478,-1.42763,0.744376,-0.862061,-0.208482,-0.136103,0.0196692,-0.408692,-1.0671,0.418384,-0.835395,-0.00526346,
0.0693994,-0.198294,-0.263899,-1.67481,0.221299,-0.31558,-0.381897,0.4965,0.00114844,0.559522,-0.164669,0.894356,-0.56665,0.00833818,0,0,0,0,0,0,0,0.0702516,-0.196886,-0.260013,-1.67257,0.227617,1.25793,0.402916,0.286113,-0.00387931,0.354786,-0.0721028,0.479519,-0.225692,-0.000417665,2.36408,-25.2348,3.93648,24.2889,2.31598,1.46844,-0.0163725,-2.81328,-0.039478,-1.42763,0.744376,-0.862061,-0.208482,-0.136103,0.0196692,-0.408692,-1.0671,0.418384,-0.835395,-0.00526346,
0.0713922,-0.198279,-0.261653,-1.67546,0.224934,-0.317755,-0.381864,0.498192,0.00376468,0.561689,-0.163135,0.908841,-0.543768,0.00819602,0,0,0,0,0,0,0,0.0702516,-0.196886,-0.260013,-1.67257,0.227617,1.25793,0.402916,0.286113,-0.00387931,0.354786,-0.0721028,0.479519,-0.225692,-0.000417665,2.36408,-25.2348,3.93648,24.2889,2.31598,1.46844,-0.0163725,-2.3263,0.0924849,-1.8061,0.537487,-0.332946,-0.0661895,0.00106248,0.395723,-0.238049,-1.24594,0.294548,-0.826508,-0.00742093,
0.0733892,-0.198254,-0.2594,-1.67611,0.22862,-0.319839,-0.381832,0.499256,0.00605794,0.563169,-0.161452,0.92142,-0.521096,0.00806432,0,0,0,0,0,0,0,0.0702516,-0.196886,-0.260013,-1.67257,0.227617,1.25793,0.402916,0.286113,-0.00387931,0.354786,-0.0721028,0.479519,-0.225692,-0.000417665,2.36408,-25.2348,3.93648,24.2889,2.31598,1.46844,-0.0163725,-2.47806,0.523377,-1.86204,0.196533,-0.390553,0.14285,0.201008,0.402333,0.0130783,-1.28415,0.292053,-0.871804,-0.00790064,
0.0753883,-0.198222,-0.257144,-1.67675,0.232349,-0.321834,-0.3818,0.499774,0.00805308,0.564053,-0.159659,0.932272,-0.498685,0.00794052,0,0,0,0,0,0,0,0.0702516,-0.196886,-0.260013,-1.67257,0.227617,1.25793,0.402916,0.286113,-0.00387931,0.354786,-0.0721028,0.479519,-0.225692,-0.000417665,2.36408,-25.2348,3.93648,24.2889,2.31598,1.46844,-0.0163725,-2.47806,0.523377,-1.86204,0.196533,-0.390553,0.14285,0.201008,0.402333,0.0130783,-1.28415,0.292053,-0.871804,-0.00790064,
0.0773876,-0.198183,-0.254886,-1.67738,0.236115,-0.32374,-0.381769,0.499818,0.00977841,0.56442,-0.15778,0.941572,-0.476567,0.00782626,0,0,0,0,0,0,0,0.0702516,-0.196886,-0.260013,-1.67257,0.227617,1.25793,0.402916,0.286113,-0.00387931,0.354786,-0.0721028,0.479519,-0.225692,-0.000417665,2.36408,-25.2348,3.93648,24.2889,2.31598,1.46844,-0.0163725,-2.75545,0.809372,-1.51573,-0.0345877,-0.723821,0.272381,0.340733,0.171019,0.161316,-1.13999,0.322995,-0.894896,-0.00717721,
0.0793854,-0.198138,-0.252629,-1.678,0.239913,-0.32556,-0.381738,0.499448,0.0112619,0.564337,-0.155836,0.949481,-0.454767,0.00771275,0,0,0,0,0,0,0,0.0795026,-0.19688,-0.248853,-1.67475,0.244077,1.25258,0.402919,0.310717,0.00103143,0.364435,-0.0672756,0.559173,-0.132983,0.000716715,2.36408,-25.5879,3.58735,24.4873,2.98156,1.46203,-0.0429228,-2.75545,0.809372,-1.51573,-0.0345877,-0.723821,0.272381,0.340733,0.171019,0.161316,-1.13999,0.322995,-0.894896,-0.00717721,
0.0813803,-0.198088,-0.250373,-1.67862,0.243738,-0.327293,-0.381707,0.49872,0.0125304,0.563862,-0.153841,0.956148,-0.433299,0.00761279,0,0,0,0,0,0,0,0.0795026,-0.19688,-0.248853,-1.67475,0.244077,1.25258,0.402919,0.310717,0.00103143,0.364435,-0.0672756,0.559173,-0.132983,0.000716715,2.36408,-25.5879,3.58735,24.4873,2.98156,1.46203,-0.0429228,-2.40027,-0.0983321,-1.69033,0.653158,-0.392666,-0.12076,-0.0399646,0.350125,-0.313283,-1.22616,0.298648,-0.852865,-0.0046447,
0.083371,-0.198033,-0.248121,-1.67923,0.247584,-0.328941,-0.381677,0.497677,0.0136088,0.563045,-0.151807,0.961712,-0.412175,0.00751104,0,0,0,0,0,0,0,0.0795026,-0.19688,-0.248853,-1.67475,0.244077,1.25258,0.402919,0.310717,0.00103143,0.364435,-0.0672756,0.559173,-0.132983,0.000716715,2.36408,-25.5879,3.58735,24.4873,2.98156,1.46203,-0.0429228,-2.53364,-1.22033,-1.66822,1.53732,-0.486551,-0.66178,-0.579822,0.255266,-0.943572,-1.21581,0.316747,-0.837796,-0.00151612,
0.0853564,-0.197975,-0.245873,-1.67983,0.25145,-0.330507,-0.381648,0.496362,0.0145199,0.561931,-0.149744,0.966296,-0.391404,0.00741998,0,0,0,0,0,0,0,0.0795026,-0.19688,-0.248853,-1.67475,0.244077,1.25258,0.402919,0.310717,0.00103143,0.364435,-0.0672756,0.559173,-0.132983,0.000716715,2.36408,-25.5879,3.58735,24.4873,2.98156,1.46203,-0.0429228,-2.53364,-1.22033,-1.66822,1.53732,-0.486551,-0.66178,-0.579822,0.255266,-0.943572,-1.21581,0.316747,-0.837796,-0.00151612,
0.0873357,-0.197914,-0.243631,-1.68042,0.25533,-0.331991,-0.381618,0.494809,0.0152842,0.560558,-0.147659,0.970014,-0.370992,0.00732963,0,0,0,0,0,0,0,0.0795026,-0.19688,-0.248853,-1.67475,0.244077,1.25258,0.402919,0.310717,0.00103143,0.364435,-0.0672756,0.559173,-0.132983,0.000716715,2.36408,-25.5879,3.58735,24.4873,2.98156,1.46203,-0.0429228,-2.91033,-0.960082,-1.53243,1.45789,-0.832861,-0.582346,-0.492565,0.0302147,-0.86977,-1.1345,0.459848,-0.844693,-0.00328646,
0.0893118,-0.197852,-0.241393,-1.681,0.259186,-0.333394,-0.38159,0.494027,0.0156473,0.559452,-0.145184,0.964031,-0.350849,0.00713032,0,0,0,0,0,0,0,0.0795026,-0.19688,-0.248853,-1.67475,0.244077,1.25258,0.402919,0.310717,0.00103143,0.364435,-0.0672756,0.559173,-0.132983,0.000716715,2.36408,-25.5879,3.58735,24.4873,2.98156,1.46203,-0.0429228,-2.91033,-0.960082,-1.53243,1.45789,-0.832861,-0.582346,-0.492565,0.0302147,-0.86977,-1.1345,0.459848,-0.844693,-0.00328646,
0.0912847,-0.197789,-0.239159,-1.68157,0.262993,-0.334719,-0.381562,0.493231,0.015754,0.558582,-0.142576,0.951866,-0.33106,0.00694717,0,0,0,0,0,0,0,0.089676,-0.196809,-0.236246,-1.67716,0.261436,1.24965,0.402918,0.328047,0.00737294,0.419735,-0.0789026,0.547693,-0.0596252,0.000340622,2.16175,-26.1592,3.18666,24.5627,3.7387,1.26977,-0.0301054,-2.48667,-0.287261,-1.44465,1.09503,-0.576281,-0.257219,-0.163924,0.153877,-0.529178,-1.13407,0.64,-0.828129,-0.00507139,
0.0932536,-0.197726,-0.236928,-1.68213,0.266737,-0.335965,-0.381535,0.492236,0.0157095,0.557689,-0.139961,0.935979,-0.311687,0.00678853,0,0,0,0,0,0,0,0.089676,-0.196809,-0.236246,-1.67716,0.261436,1.24965,0.402918,0.328047,0.00737294,0.419735,-0.0789026,0.547693,-0.0596252,0.000340622,2.16175,-26.1592,3.18666,24.5627,3.7387,1.26977,-0.0301054,-2.48667,-0.287261,-1.44465,1.09503,-0.576281,-0.257219,-0.163924,0.153877,-0.529178,-1.13407,0.64,-0.828129,-0.00507139,
0.0478055,-0.197686,-0.28821,-1.66761,0.18408,-0.281151,-0.382352,0.418319,-0.0687258,0.464543,-0.190081,0.485773,-0.322332,0.0105795,0,0,0,0,0,0,0,0.089676,-0.196809,-0.236246,-1.67716,0.261436,1.24965,0.402918,0.328047,0.00737294,0.419735,-0.0789026,0.547693,-0.0596252,0.000340622,2.16175,-26.1592,3.18666,24.5627,3.7387,1.26977,-0.0301054,-2.4575,-0.0505922,-1.12421,1.01012,-0.695743,-0.157451,-0.0798676,0.0226146,-0.414527,-1.01014,0.77575,-0.815698,-0.0051497,
0.0949887,-0.197202,-0.230273,-1.67909,0.267968,-0.321756,-0.382363,0.476191,-0.0363189,0.53657,-0.174106,0.560409,-0.0678008,0.00976212,0,0,0,0,0,0,0,0.089676,-0.196809,-0.236246,-1.67716,0.261436,1.24965,0.402918,0.328047,0.00737294,0.419735,-0.0789026,0.547693,-0.0596252,0.000340622,2.16175,-26.1592,3.18666,24.5627,3.7387,1.26977,-0.0301054,-2.4575,-0.0505922,-1.12421,1.01012,-0.695743,-0.157451,-0.0798676,0.0226146,-0.414527,-1.01014,0.77575,-0.815698,-0.0051497,
0.0969902,-0.197337,-0.228012,-1.6798,0.27032,-0.322098,-0.382325,0.500396,-0.0338181,0.565218,-0.178187,0.588017,-0.0853441,0.00956252,0,0,0,0,0,0,0,0.089676,-0.196809,-0.236246,-1.67716,0.261436,1.24965,0.402918,0.328047,0.00737294,0.419735,-0.0789026,0.547693,-0.0596252,0.000340622,2.16175,-26.1592,3.18666,24.5627,3.7387,1.26977,-0.0301054,-2.22663,1.43262,-1.2011,0.0374848,-0.481077,0.546094,0.608877,0.204446,0.378551,-1.09281,0.963046,-0.859615,-0.00799646,
0.0990702,-0.197459,-0.225659,-1.68052,0.272797,-0.322479,-0.382287,0.519991,-0.0303608,0.588281,-0.181022,0.619345,-0.0953299,0.00950865,0,0,0,0,0,0,0,0.100803,-0.196696,-0.223089,-1.67989,0.278763,1.24899,0.402922,0.341778,0.00762366,0.414798,-0.0870386,0.517175,0.000949239,0.000459645,1.72931,-26.2862,2.53602,24.5627,3.76342,1.07751,-0.0429228,-1.80185,3.44181,-0.820385,-1.2825,-0.342848,1.49436,1.55124,0.26716,1.43893,-0.991391,1.24265,-0.873178,-0.0112531,
0.101213,-0.197563,-0.223231,-1.68125,0.275405,-0.322893,-0.382249,0.53575,-0.0260439,0.60679,-0.181967,0.651933,-0.103478,0.00932271,0,0,0,0,0,0,0,0.100803,-0.196696,-0.223089,-1.67989,0.278763,1.24899,0.402922,0.341778,0.00762366,0.414798,-0.0870386,0.517175,0.000949239,0.000459645,1.72931,-26.2862,2.53602,24.5627,3.76342,1.07751,-0.0429228,-1.80185,3.44181,-0.820385,-1.2825,-0.342848,1.49436,1.55124,0.26716,1.43893,-0.991391,1.24265,-0.873178,-0.0112531,
0.103408,-0.197651,-0.220744,-1.68198,0.278141,-0.323302,-0.382213,0.548646,-0.0221021,0.621828,-0.1833,0.684104,-0.102296,0.00920186,0,0,0,0,0,0,0,0.100803,-0.196696,-0.223089,-1.67989,0.278763,1.24899,0.402922,0.341778,0.00762366,0.414798,-0.0870386,0.517175,0.000949239,0.000459645,1.72931,-26.2862,2.53602,24.5627,3.76342,1.07751,-0.0429228,-2.50932,0.415209,-0.980308,0.776909,-0.76624,0.0645273,0.105136,-0.0317567,-0.149289,-0.971491,0.947871,-0.830919,-0.00527367,
0.105644,-0.197724,-0.218208,-1.68272,0.281001,-0.32369,-0.382176,0.55904,-0.0181179,0.633968,-0.183818,0.714829,-0.0968368,0.00909329,0,0,0,0,0,0,0,0.100803,-0.196696,-0.223089,-1.67989,0.278763,1.24899,0.402922,0.341778,0.00762366,0.414798,-0.0870386,0.517175,0.000949239,0.000459645,1.72931,-26.2862,2.53602,24.5627,3.76342,1.07751,-0.0429228,-2.50932,0.415209,-0.980308,0.776909,-0.76624,0.0645273,0.105136,-0.0317567,-0.149289,-0.971491,0.947871,-0.830919,-0.00527367,
0.107913,-0.197781,-0.215633,-1.68345,0.283975,-0.324046,-0.38214,0.567329,-0.0141951,0.643695,-0.183539,0.743534,-0.0891303,0.00898437,0,0,0,0,0,0,0,0.100803,-0.196696,-0.223089,-1.67989,0.278763,1.24899,0.402922,0.341778,0.00762366,0.414798,-0.0870386,0.517175,0.000949239,0.000459645,1.72931,-26.2862,2.53602,24.5627,3.76342,1.07751,-0.0429228,-2.92188,-1.5557,-1.51043,2.04735,-0.849602,-0.842129,-0.737424,-0.0525851,-1.21346,-1.10363,0.660511,-0.78699,-0.00228902,
0.11021,-0.197823,-0.213027,-1.68418,0.287039,-0.324366,-0.382105,0.574259,-0.0105847,0.651609,-0.182503,0.766192,-0.0800495,0.00883979,0,0,0,0,0,0,0,0.116084,-0.196773,-0.204505,-1.6836,0.293793,1.25011,0.402923,0.375943,-0.00185476,0.460156,-0.0930557,0.34707,0.0588477,0.00071386,1.4516,-25.6593,2.71455,23.5907,2.85339,0.99053,-0.050247,-2.99162,-0.43516,-1.60168,1.21627,-0.876019,-0.304385,-0.198641,-0.00865202,-0.598303,-1.12693,0.710307,-0.802358,-0.00573148,
0.112534,-0.197853,-0.210393,-1.68491,0.290138,-0.324646,-0.382071,0.580802,-0.00760647,0.658528,-0.180568,0.774629,-0.069974,0.00858522,0,0,0,0,0,0,0,0.116084,-0.196773,-0.204505,-1.6836,0.293793,1.25011,0.402923,0.375943,-0.00185476,0.460156,-0.0930557,0.34707,0.0588477,0.00071386,1.4516,-25.6593,2.71455,23.5907,2.85339,0.99053,-0.050247,-2.99162,-0.43516,-1.60168,1.21627,-0.876019,-0.304385,-0.198641,-0.00865202,-0.598303,-1.12693,0.710307,-0.802358,-0.00573148,
0.114878,-0.197874,-0.207735,-1.68562,0.293235,-0.324883,-0.382037,0.586166,-0.00513401,0.664512,-0.178277,0.77425,-0.0592724,0.00836414,0,0,0,0,0,0,0,0.116084,-0.196773,-0.204505,-1.6836,0.293793,1.25011,0.402923,0.375943,-0.00185476,0.460156,-0.0930557,0.34707,0.0588477,0.00071386,1.4516,-25.6593,2.71455,23.5907,2.85339,0.99053,-0.050247,-3.75941,0.113372,-1.6601,0.727687,-1.39269,-0.0412042,0.00722892,-0.233144,-0.225276,-1.1074,0.666682,-0.865979,-0.00814131,
0.11724,-0.197886,-0.205057,-1.68632,0.296308,-0.325076,-0.382004,0.590332,-0.00305888,0.669405,-0.175858,0.768249,-0.0481822,0.00817579,0,0,0,0,0,0,0,0.116084,-0.196773,-0.204505,-1.6836,0.293793,1.25011,0.402923,0.375943,-0.00185476,0.460156,-0.0930557,0.34707,0.0588477,0.00071386,1.4516,-25.6593,2.71455,23.5907,2.85339,0.99053,-0.050247,-3.75941,0.113372,-1.6601,0.727687,-1.39269,-0.0412042,0.00722892,-0.233144,-0.225276,-1.1074,0.666682,-0.865979,-0.00814131,
0.119613,-0.197891,-0.202365,-1.68702,0.299342,-0.325223,-0.381972,0.593378,-0.00129876,0.673187,-0.173415,0.758586,-0.0368465,0.00800422,0,0,0,0,0,0,0,0.116084,-0.196773,-0.204505,-1.6836,0.293793,1.25011,0.402923,0.375943,-0.00185476,0.460156,-0.0930557,0.34707,0.0588477,0.00071386,1.4516,-25.6593,2.71455,23.5907,2.85339,0.99053,-0.050247,-2.57154,1.54488,-2.12852,-0.441517,-0.351261,0.707831,0.73391,0.491113,0.646969,-1.36077,0.61262,-0.838893,-0.0116556,
0.121995,-0.197891,-0.199661,-1.6877,0.302328,-0.325325,-0.381941,0.595417,0.000207111,0.675916,-0.17099,0.746488,-0.0253543,0.00784919,0,0,0,0,0,0,0,0.116084,-0.196773,-0.204505,-1.6836,0.293793,1.25011,0.402923,0.375943,-0.00185476,0.460156,-0.0930557,0.34707,0.0588477,0.00071386,1.4516,-25.6593,2.71455,23.5907,2.85339,0.99053,-0.050247,-2.57154,1.54488,-2.12852,-0.441517,-0.351261,0.707831,0.73391,0.491113,0.646969,-1.36077,0.61262,-0.838893,-0.0116556,
0.124381,-0.197885,-0.19695,-1.68838,0.305259,-0.32538,-0.38191,0.596565,0.00150272,0.677691,-0.168598,0.732751,-0.0137616,0.00770297,0,0,0,0,0,0,0,0.128416,-0.196724,-0.189994,-1.68674,0.308019,1.25242,0.40292,0.384453,0.00154237,0.462723,-0.0846383,0.494513,0.0676896,0.000957784,2.18555,-26.31,3.11128,24.1898,3.03009,1.23589,-0.050247,-2.41335,0.753233,-2.54862,-0.00863523,-0.102047,0.355765,0.385937,0.663929,0.260251,-1.47484,0.431957,-0.770792,-0.00888988,
0.126769,-0.197874,-0.194236,-1.68904,0.308131,-0.325388,-0.38188,0.596937,0.00262217,0.678619,-0.166244,0.71792,-0.00210919,0.00757206,0,0,0,0,0,0,0,0.128416,-0.196724,-0.189994,-1.68674,0.308019,1.25242,0.40292,0.384453,0.00154237,0.462723,-0.0846383,0.494513,0.0676896,0.000957784,2.18555,-26.31,3.11128,24.1898,3.03009,1.23589,-0.050247,-2.27889,0.0595051,-2.85758,0.442533,0.111363,0.0372885,0.0772141,0.800577,-0.107897,-1.57841,0.34948,-0.731046,-0.00523135,
0.129155,-0.19786,-0.19152,-1.6897,0.310941,-0.32535,-0.38185,0.596635,0.00359255,0.678803,-0.163927,0.702409,0.00956887,0.00743557,0,0,0,0,0,0,0,0.128416,-0.196724,-0.189994,-1.68674,0.308019,1.25242,0.40292,0.384453,0.00154237,0.462723,-0.0846383,0.494513,0.0676896,0.000957784,2.18555,-26.31,3.11128,24.1898,3.03009,1.23589,-0.050247,-2.27889,0.0595051,-2.85758,0.442533,0.111363,0.0372885,0.0772141,0.800577,-0.107897,-1.57841,0.34948,-0.731046,-0.00523135,
0.131538,-0.197842,-0.188807,-1.69034,0.313687,-0.325265,-0.381821,0.595746,0.00443782,0.678336,-0.161647,0.686594,0.0212416,0.00731692,0,0,0,0,0,0,0,0.128416,-0.196724,-0.189994,-1.68674,0.308019,1.25242,0.40292,0.384453,0.00154237,0.462723,-0.0846383,0.494513,0.0676896,0.000957784,2.18555,-26.31,3.11128,24.1898,3.03009,1.23589,-0.050247,-2.40888,-0.658038,-2.31615,0.926766,-0.282143,-0.308699,-0.249304,0.417285,-0.502832,-1.26764,0.312086,-0.626769,-0.00186412,
0.133916,-0.197821,-0.186098,-1.69098,0.316371,-0.325134,-0.381792,0.594333,0.00518272,0.677292,-0.159411,0.670925,0.0328751,0.00718955,0,0,0,0,0,0,0,0.128416,-0.196724,-0.189994,-1.68674,0.308019,1.25242,0.40292,0.384453,0.00154237,0.462723,-0.0846383,0.494513,0.0676896,0.000957784,2.18555,-26.31,3.11128,24.1898,3.03009,1.23589,-0.050247,-2.40888,-0.658038,-2.31615,0.926766,-0.282143,-0.308699,-0.249304,0.417285,-0.502832,-1.26764,0.312086,-0.626769,-0.00186412,
0.136285,-0.197798,-0.183395,-1.69161,0.318995,-0.324956,-0.381764,0.592422,0.00585789,0.675712,-0.157241,0.656116,0.0444296,0.00707421,0,0,0,0,0,0,0,0.141141,-0.196557,-0.17462,-1.68947,0.322328,1.2544,0.402916,0.420083,0.012869,0.512725,-0.0832607,0.442527,0.0525506,-0.000646576,1.57856,-27.0082,2.41304,24.5627,3.48236,1.43548,-0.00996382,-2.22482,-1.39269,-2.34545,1.40025,-0.238141,-0.671296,-0.610035,0.364668,-0.903937,-1.17376,0.233881,-0.487967,-0.00135116,
0.138645,-0.197772,-0.180701,-1.69223,0.321569,-0.324732,-0.381736,0.589936,0.00650943,0.673617,-0.155194,0.643521,0.055856,0.00706157,0,0,0,0,0,0,0,0.141141,-0.196557,-0.17462,-1.68947,0.322328,1.2544,0.402916,0.420083,0.012869,0.512725,-0.0832607,0.442527,0.0525506,-0.000646576,1.57856,-27.0082,2.41304,24.5627,3.48236,1.43548,-0.00996382,-2.64905,0.229963,-2.08703,0.341464,-0.750514,0.0440763,0.0884853,0.0683182,-0.0779415,-0.964695,0.454899,-0.430187,-0.00416087,
0.140997,-0.197744,-0.178015,-1.69284,0.324067,-0.324463,-0.381708,0.587953,0.00691537,0.671484,-0.152767,0.62441,0.0672478,0.00693989,0,0,0,0,0,0,0,0.141141,-0.196557,-0.17462,-1.68947,0.322328,1.2544,0.402916,0.420083,0.012869,0.512725,-0.0832607,0.442527,0.0525506,-0.000646576,1.57856,-27.0082,2.41304,24.5627,3.48236,1.43548,-0.00996382,-2.64905,0.229963,-2.08703,0.341464,-0.750514,0.0440763,0.0884853,0.0683182,-0.0779415,-0.964695,0.454899,-0.430187,-0.00416087,
0.14334,-0.197716,-0.175337,-1.69344,0.326474,-0.324149,-0.381681,0.585805,0.00714416,0.669374,-0.150282,0.601858,0.0785586,0.00680147,0,0,0,0,0,0,0,0.141141,-0.196557,-0.17462,-1.68947,0.322328,1.2544,0.402916,0.420083,0.012869,0.512725,-0.0832607,0.442527,0.0525506,-0.000646576,1.57856,-27.0082,2.41304,24.5627,3.48236,1.43548,-0.00996382,-2.81825,0.158268,-1.96317,0.470991,-0.965207,-0.0166526,0.0222044,-0.105705,-0.148524,-0.858508,0.542726,-0.376132,-0.00307215,
0.145674,-0.197686,-0.172669,-1.69403,0.328785,-0.32379,-0.381654,0.583393,0.00726726,0.667116,-0.147851,0.577786,0.0897226,0.00668457,0,0,0,0,0,0,0,0.141141,-0.196557,-0.17462,-1.68947,0.322328,1.2544,0.402916,0.420083,0.012869,0.512725,-0.0832607,0.442527,0.0525506,-0.000646576,1.57856,-27.0082,2.41304,24.5627,3.48236,1.43548,-0.00996382,-2.81825,0.158268,-1.96317,0.470991,-0.965207,-0.0166526,0.0222044,-0.105705,-0.148524,-0.858508,0.542726,-0.376132,-0.00307215,
0.147996,-0.197657,-0.17001,-1.69462,0.330998,-0.323388,-0.381628,0.580718,0.00733281,0.664631,-0.145503,0.553184,0.100695,0.00657053,0,0,0,0,0,0,0,0.141141,-0.196557,-0.17462,-1.68947,0.322328,1.2544,0.402916,0.420083,0.012869,0.512725,-0.0832607,0.442527,0.0525506,-0.000646576,1.57856,-27.0082,2.41304,24.5627,3.48236,1.43548,-0.00996382,-2.55346,0.45897,-2.18509,0.284607,-0.717455,0.106168,0.133622,0.0632185,-0.00624568,-0.924693,0.598737,-0.322609,-0.0035619,
0.150308,-0.197628,-0.167363,-1.69519,0.333112,-0.322942,-0.381602,0.577808,0.00736911,0.661906,-0.143236,0.528557,0.111456,0.00647415,0,0,0,0,0,0,0,0.155015,-0.19612,-0.158291,-1.69187,0.3345,1.2556,0.402917,0.432082,0.0145863,0.518882,-0.0755023,0.349972,0.0442002,-0.000825678,1.83246,-27.0836,2.31386,24.3604,3.35418,1.52794,-0.00996382,-2.90166,1.83073,-2.20402,-0.629382,-0.998143,0.736617,0.769952,-0.0293105,0.699853,-0.885344,0.755955,-0.319316,-0.00545108,
0.152606,-0.197598,-0.164727,-1.69575,0.335129,-0.322454,-0.381576,0.574685,0.00739293,0.658963,-0.141042,0.504161,0.121994,0.00637647,0,0,0,0,0,0,0,0.155015,-0.19612,-0.158291,-1.69187,0.3345,1.2556,0.402917,0.432082,0.0145863,0.518882,-0.0755023,0.349972,0.0442002,-0.000825678,1.83246,-27.0836,2.31386,24.3604,3.35418,1.52794,-0.00996382,-2.90166,1.83073,-2.20402,-0.629382,-0.998143,0.736617,0.769952,-0.0293105,0.699853,-0.885344,0.755955,-0.319316,-0.00545108,
0.0954071,-0.19741,-0.229847,-1.67939,0.266354,-0.319585,-0.382363,0.521182,-0.0537742,0.585255,-0.197325,0.37637,0.166639,0.00965884,0,0,0,0,0,0,0,0.155015,-0.19612,-0.158291,-1.69187,0.3345,1.2556,0.402917,0.432082,0.0145863,0.518882,-0.0755023,0.349972,0.0442002,-0.000825678,1.83246,-27.0836,2.31386,24.3604,3.35418,1.52794,-0.00996382,-2.67042,0.81386,-2.41248,0.101304,-0.748008,0.249501,0.289252,0.0780423,0.136113,-0.959328,0.706421,-0.270418,-0.00315666,
0.161348,-0.196466,-0.151099,-1.69399,0.338389,-0.31296,-0.382366,0.558701,-0.0315051,0.635647,-0.19071,0.317979,0.215931,0.009701,0,0,0,0,0,0,0,0.155015,-0.19612,-0.158291,-1.69187,0.3345,1.2556,0.402917,0.432082,0.0145863,0.518882,-0.0755023,0.349972,0.0442002,-0.000825678,1.83246,-27.0836,2.31386,24.3604,3.35418,1.52794,-0.00996382,-2.67042,0.81386,-2.41248,0.101304,-0.748008,0.249501,0.289252,0.0780423,0.136113,-0.959328,0.706421,-0.270418,-0.00315666,
0.163672,-0.196577,-0.14845,-1.69475,0.339656,-0.312056,-0.382328,0.581078,-0.0275892,0.662273,-0.191791,0.316737,0.226124,0.00938174,0,0,0,0,0,0,0,0.155015,-0.19612,-0.158291,-1.69187,0.3345,1.2556,0.402917,0.432082,0.0145863,0.518882,-0.0755023,0.349972,0.0442002,-0.000825678,1.83246,-27.0836,2.31386,24.3604,3.35418,1.52794,-0.00996382,-3.02439,1.48945,-2.3033,-0.30569,-1.03932,0.573455,0.596402,-0.0640754,0.508591,-0.902061,0.841309,-0.292061,-0.0073997,
0.166068,-0.19667,-0.145715,-1.69552,0.340924,-0.311107,-0.382292,0.599071,-0.0233505,0.683568,-0.191809,0.3171,0.23724,0.00911368,0,0,0,0,0,0,0,0.168626,-0.195569,-0.141812,-1.69389,0.343621,1.25693,0.402916,0.432603,0.0190761,0.534468,-0.0622068,0.258367,0.0593533,-0.000626201,0.336795,-27.5319,0.588087,24.4635,2.66388,1.74676,-0.0163725,-2.24153,2.03466,-2.51957,-0.719326,-0.377194,0.822326,0.838447,0.37069,0.789308,-1.04493,0.861354,-0.268203,-0.00893157,
0.168521,-0.196746,-0.142913,-1.69628,0.342198,-0.310118,-0.382256,0.613292,-0.0189983,0.700493,-0.1909,0.318411,0.247297,0.0088769,0,0,0,0,0,0,0,0.168626,-0.195569,-0.141812,-1.69389,0.343621,1.25693,0.402916,0.432603,0.0190761,0.534468,-0.0622068,0.258367,0.0593533,-0.000626201,0.336795,-27.5319,0.588087,24.4635,2.66388,1.74676,-0.0163725,-2.24153,2.03466,-2.51957,-0.719326,-0.377194,0.822326,0.838447,0.37069,0.789308,-1.04493,0.861354,-0.268203,-0.00893157,
0.171018,-0.196805,-0.140058,-1.69704,0.343482,-0.309094,-0.382222,0.62427,-0.0147722,0.71375,-0.189515,0.321152,0.255983,0.0086928,0,0,0,0,0,0,0,0.168626,-0.195569,-0.141812,-1.69389,0.343621,1.25693,0.402916,0.432603,0.0190761,0.534468,-0.0622068,0.258367,0.0593533,-0.000626201,0.336795,-27.5319,0.588087,24.4635,2.66388,1.74676,-0.0163725,-1.56973,-0.791086,-2.88711,1.13994,0.261938,-0.501205,-0.500018,0.618255,-0.685885,-1.19417,0.556192,-0.185681,-0.00482296,
0.17355,-0.196849,-0.137162,-1.69779,0.344773,-0.30804,-0.382187,0.632812,-0.0108809,0.724077,-0.187771,0.322602,0.263491,0.00859795,0,0,0,0,0,0,0,0.168626,-0.195569,-0.141812,-1.69389,0.343621,1.25693,0.402916,0.432603,0.0190761,0.534468,-0.0622068,0.258367,0.0593533,-0.000626201,0.336795,-27.5319,0.588087,24.4635,2.66388,1.74676,-0.0163725,-1.56973,-0.791086,-2.88711,1.13994,0.261938,-0.501205,-0.500018,0.618255,-0.685885,-1.19417,0.556192,-0.185681,-0.00482296,
0.17611,-0.196879,-0.134232,-1.69853,0.34603,-0.306959,-0.382154,0.640143,-0.00758859,0.732415,-0.18538,0.314401,0.2702,0.00839853,0,0,0,0,0,0,0,0.168626,-0.195569,-0.141812,-1.69389,0.343621,1.25693,0.402916,0.432603,0.0190761,0.534468,-0.0622068,0.258367,0.0593533,-0.000626201,0.336795,-27.5319,0.588087,24.4635,2.66388,1.74676,-0.0163725,-2.87364,-0.545842,-2.83491,0.918483,-0.740267,-0.31938,-0.225282,0.0774964,-0.541319,-1.05499,0.5326,-0.214937,-0.00421875,
0.178693,-0.196898,-0.131276,-1.69927,0.347235,-0.305854,-0.382121,0.645721,-0.00483359,0.739075,-0.182909,0.301206,0.276331,0.00821381,0,0,0,0,0,0,0,0.168626,-0.195569,-0.141812,-1.69389,0.343621,1.25693,0.402916,0.432603,0.0190761,0.534468,-0.0622068,0.258367,0.0593533,-0.000626201,0.336795,-27.5319,0.588087,24.4635,2.66388,1.74676,-0.0163725,-2.87364,-0.545842,-2.83491,0.918483,-0.740267,-0.31938,-0.225282,0.0774964,-0.541319,-1.05499,0.5326,-0.214937,-0.00421875,
0.181292,-0.196908,-0.1283,-1.69999,0.348377,-0.304725,-0.382089,0.649711,-0.00251291,0.744112,-0.180513,0.285417,0.282024,0.00805806,0,0,0,0,0,0,0,0.18265,-0.195595,-0.124902,-1.69638,0.348519,1.26012,0.402917,0.459989,-0.00350524,0.563734,-0.0864291,0.120062,0.147839,-0.00127087,0.717655,-27.0082,1.23872,24.4873,2.71881,1.95916,-0.00996382,-2.63389,-0.310205,-2.98801,0.688674,-0.50988,-0.20135,-0.130291,0.250298,-0.382468,-1.12508,0.507571,-0.204973,-0.00397165,
0.183901,-0.19691,-0.125309,-1.7007,0.34945,-0.303576,-0.382057,0.652323,-0.000538462,0.747671,-0.178221,0.268303,0.287397,0.00791308,0,0,0,0,0,0,0,0.18265,-0.195595,-0.124902,-1.69638,0.348519,1.26012,0.402917,0.459989,-0.00350524,0.563734,-0.0864291,0.120062,0.147839,-0.00127087,0.717655,-27.0082,1.23872,24.4873,2.71881,1.95916,-0.00996382,-3.32426,0.383472,-3.09577,0.126885,-0.995169,0.16416,0.171806,0.0615661,0.10289,-1.10244,0.510039,-0.228844,-0.00565912,
0.186516,-0.196906,-0.122309,-1.70141,0.350452,-0.302406,-0.382026,0.653764,0.00115654,0.749935,-0.176015,0.250536,0.292546,0.00778249,0,0,0,0,0,0,0,0.18265,-0.195595,-0.124902,-1.69638,0.348519,1.26012,0.402917,0.459989,-0.00350524,0.563734,-0.0864291,0.120062,0.147839,-0.00127087,0.717655,-27.0082,1.23872,24.4873,2.71881,1.95916,-0.00996382,-3.32426,0.383472,-3.09577,0.126885,-0.995169,0.16416,0.171806,0.0615661,0.10289,-1.10244,0.510039,-0.228844,-0.00565912,
0.189133,-0.196895,-0.119305,-1.7021,0.351382,-0.301215,-0.381995,0.654215,0.00262036,0.751088,-0.173874,0.232478,0.297547,0.00765212,0,0,0,0,0,0,0,0.18265,-0.195595,-0.124902,-1.69638,0.348519,1.26012,0.402917,0.459989,-0.00350524,0.563734,-0.0864291,0.120062,0.147839,-0.00127087,0.717655,-27.0082,1.23872,24.4873,2.71881,1.95916,-0.00996382,-2.43295,0.131,-3.36928,0.136263,-0.307267,0.0237034,0.0167223,0.458612,-0.023261,-1.2031,0.343815,-0.134046,-0.00551693,
0.191749,-0.19688,-0.1163,-1.70279,0.352239,-0.300006,-0.381965,0.653839,0.00388974,0.751303,-0.171776,0.214334,0.302453,0.00754361,0,0,0,0,0,0,0,0.18265,-0.195595,-0.124902,-1.69638,0.348519,1.26012,0.402917,0.459989,-0.00350524,0.563734,-0.0864291,0.120062,0.147839,-0.00127087,0.717655,-27.0082,1.23872,24.4873,2.71881,1.95916,-0.00996382,-2.43295,0.131,-3.36928,0.136263,-0.307267,0.0237034,0.0167223,0.458612,-0.023261,-1.2031,0.343815,-0.134046,-0.00551693,
0.19436,-0.19686,-0.113297,-1.70347,0.353024,-0.298776,-0.381935,0.652772,0.00499326,0.750728,-0.169705,0.196243,0.307299,0.00741724,0,0,0,0,0,0,0,0.203301,-0.195614,-0.100627,-1.69998,0.353076,1.26837,0.40292,0.4796,0.00105137,0.580786,-0.0808089,0.0799572,0.208308,-0.000200989,1.67774,-26.7583,1.81398,24.3604,3.14636,1.82,-0.0365141,-1.9437,0.110529,-3.58251,0.0584371,0.0814698,-0.00672549,-0.0103851,0.695295,-0.0491515,-1.26989,0.268381,-0.0669331,-0.00457095,
