PerkyPenguin/Analysis-on-Approximated-Derivatives/Code_and_Data/PaperData/Real_Robot/Scene_2/set_interval/13/trajectory.csv
Commanded Joint 0 Position,Commanded Joint 1 Position,Commanded Joint 2 Position,Commanded Joint 3 Position,Commanded Joint 4 Position,Commanded Joint 5 Position,Commanded Joint 6 Position,Commanded Joint 0 Velocity,Commanded Joint 1 Velocity,Commanded Joint 2 Velocity,Commanded Joint 3 Velocity,Commanded Joint 4 Velocity,Commanded Joint 5 Velocity,Commanded Joint 6 Velocity,Commanded Joint 0 Torque,Commanded Joint 1 Torque,Commanded Joint 2 Torque,Commanded Joint 3 Torque,Commanded Joint 4 Torque,Commanded Joint 5 Torque,Commanded Joint 6 Torque,Actual Joint 0 Position,Actual Joint 1 Position,Actual Joint 2 Position,Actual Joint 3 Position,Actual Joint 4 Position,Actual Joint 5 Position,Actual Joint 6 Position,Actual Joint 0 Velocity,Actual Joint 1 Velocity,Actual Joint 2 Velocity,Actual Joint 3 Velocity,Actual Joint 4 Velocity,Actual Joint 5 Velocity,Actual Joint 6 Velocity,Actual Joint 0 Torque,Actual Joint 1 Torque,Actual Joint 2 Torque,Actual Joint 3 Torque,Actual Joint 4 Torque,Actual Joint 5 Torque,Actual Joint 6 Torque,EE ext force 0,EE ext force 1,EE ext force 2,EE ext force 3,EE ext force 4,EE ext force 5,joint ext torque 0,joint ext torque 1,joint ext torque 2,joint ext torque 3,joint ext torque 4,joint ext torque 5,joint ext torque 6,
0.0223991,-0.0540617,0.513775,-1.56748,0.0393128,-0.0126806,0.532535,0.0109559,0.0299165,0.0152909,-0.144001,-0.0742623,0.202143,-0.00128507,0,0,0,0,0,0,0,0.0223204,-0.0541898,0.51366,-1.56605,0.0399489,1.55612,1.31795,-0.00115472,-0.000761524,-0.00113098,-0.000440763,0.0115069,0.000481652,0.00145756,0.25745,-27.4327,-0.736986,27.0026,0.440975,3.03948,0.0577852,2.08398,1.89369,2.18408,-0.946011,1.09579,0.195857,0.202769,0.408411,0.20557,0.232062,0.146189,-0.318131,0.0876753,
0.0224565,-0.0538605,0.513853,-1.5681,0.0389457,-0.0118373,0.532529,0.0143592,0.0503039,0.019476,-0.154859,-0.0917659,0.210806,-0.00136822,0,0,0,0,0,0,0,0.0223198,-0.0541882,0.513662,-1.56605,0.0399208,1.55612,1.31795,-0.00197891,0.000419919,-0.000540136,-0.000282814,0.0196361,0.00102199,0.000594062,0.233646,-27.4565,-0.76079,27.0026,0.635983,3.03307,0.0641939,2.20092,1.92464,2.15529,-0.990694,1.1891,0.176408,0.183686,0.463559,0.187461,0.206485,0.130563,-0.320473,0.0875095,
0.0223174,-0.0541786,0.513659,-1.56604,0.0400829,-0.0146732,0.53255,0.000148001,0.00044606,0.000172992,0.000123334,0.00654685,0.000354223,1.84952e-05,0,0,0,0,0,0,0,0.0223198,-0.0541882,0.513662,-1.56605,0.0399208,1.55612,1.31795,-0.00197891,0.000419919,-0.000540136,-0.000282814,0.0196361,0.00102199,0.000594062,0.233646,-27.4565,-0.76079,27.0026,0.635983,3.03307,0.0641939,2.20092,1.92464,2.15529,-0.990694,1.1891,0.176408,0.183686,0.463559,0.187461,0.206485,0.130563,-0.320473,0.0875095,
0.0223183,-0.0541772,0.513661,-1.56604,0.0401034,-0.014672,0.53255,0.000225626,0.000332971,0.000268252,7.04704e-05,0.00511647,0.000305272,1.03532e-05,0,0,0,0,0,0,0,0.0223198,-0.0541882,0.513662,-1.56605,0.0399208,1.55612,1.31795,-0.00197891,0.000419919,-0.000540136,-0.000282814,0.0196361,0.00102199,0.000594062,0.233646,-27.4565,-0.76079,27.0026,0.635983,3.03307,0.0641939,1.93751,1.83341,2.20616,-0.884609,0.971315,0.211696,0.218159,0.331911,0.219667,0.267064,0.152701,-0.308044,0.0859703,
0.0223193,-0.0541763,0.513662,-1.56604,0.0401195,-0.014671,0.53255,0.000267114,0.000233634,0.0003227,3.62967e-05,0.00402861,0.000243658,5.14798e-06,0,0,0,0,0,0,0,0.0223198,-0.0541882,0.513662,-1.56605,0.0399208,1.55612,1.31795,-0.00197891,0.000419919,-0.000540136,-0.000282814,0.0196361,0.00102199,0.000594062,0.233646,-27.4565,-0.76079,27.0026,0.635983,3.03307,0.0641939,1.93751,1.83341,2.20616,-0.884609,0.971315,0.211696,0.218159,0.331911,0.219667,0.267064,0.152701,-0.308044,0.0859703,
0.0223205,-0.0541757,0.513663,-1.56604,0.0401322,-0.0146703,0.532551,0.000284692,0.000148134,0.000349867,1.64812e-05,0.00319351,0.000177292,1.812e-06,0,0,0,0,0,0,0,0.0223198,-0.0541882,0.513662,-1.56605,0.0399208,1.55612,1.31795,-0.00197891,0.000419919,-0.000540136,-0.000282814,0.0196361,0.00102199,0.000594062,0.233646,-27.4565,-0.76079,27.0026,0.635983,3.03307,0.0641939,1.53787,1.33625,1.63453,-0.659928,0.872955,0.0980548,0.106777,0.365355,0.100833,0.112483,0.132126,-0.304242,0.08539,
0.0223216,-0.0541754,0.513665,-1.56604,0.0401424,-0.0146698,0.532551,0.00028667,7.52665e-05,0.000359003,6.71236e-06,0.00254655,0.000111888,-2.8251e-07,0,0,0,0,0,0,0,0.0223198,-0.0541882,0.513662,-1.56605,0.0399208,1.55612,1.31795,-0.00197891,0.000419919,-0.000540136,-0.000282814,0.0196361,0.00102199,0.000594062,0.233646,-27.4565,-0.76079,27.0026,0.635983,3.03307,0.0641939,1.03358,1.38276,1.03771,-0.810765,0.698466,0.260308,0.263599,0.36174,0.275318,-0.0379285,0.145945,-0.274289,0.0859736,
0.0223227,-0.0541754,0.513666,-1.56604,0.0401506,-0.0146696,0.53255,0.000278748,1.35221e-05,0.000356485,3.62082e-06,0.00204063,5.08893e-05,-1.54157e-06,0,0,0,0,0,0,0,0.0223175,-0.0542502,0.513659,-1.56653,0.0398845,1.55679,1.31794,-0.000118059,-0.000372973,-0.00107758,-0.00262202,-0.00850561,0.0036351,-0.00105558,0.285221,-27.4843,-0.713182,27.6254,0.855709,3.34435,0.110886,1.03358,1.38276,1.03771,-0.810765,0.698466,0.260308,0.263599,0.36174,0.275318,-0.0379285,0.145945,-0.274289,0.0859736,
0.0223238,-0.0541755,0.513668,-1.56604,0.0401572,-0.0146696,0.53255,0.00026483,-3.85926e-05,0.000346702,4.77461e-06,0.00164122,-3.95488e-06,-2.23936e-06,0,0,0,0,0,0,0,0.0223175,-0.0542502,0.513659,-1.56653,0.0398845,1.55679,1.31794,-0.000118059,-0.000372973,-0.00107758,-0.00262202,-0.00850561,0.0036351,-0.00105558,0.285221,-27.4843,-0.713182,27.6254,0.855709,3.34435,0.110886,1.93796,2.01992,0.895302,-1.30698,1.41,0.291828,0.296537,0.778347,0.320233,-0.172863,0.149252,-0.243634,0.0878452,
0.0223248,-0.0541758,0.513669,-1.56604,0.0401624,-0.0146698,0.53255,0.000247574,-8.24522e-05,0.00033266,8.48151e-06,0.00132283,-5.20175e-05,-2.56412e-06,0,0,0,0,0,0,0,0.0223175,-0.0542502,0.513659,-1.56653,0.0398845,1.55679,1.31794,-0.000118059,-0.000372973,-0.00107758,-0.00262202,-0.00850561,0.0036351,-0.00105558,0.285221,-27.4843,-0.713182,27.6254,0.855709,3.34435,0.110886,1.93796,2.01992,0.895302,-1.30698,1.41,0.291828,0.296537,0.778347,0.320233,-0.172863,0.149252,-0.243634,0.0878452,
0.0223257,-0.0541763,0.51367,-1.56604,0.0401667,-0.0146702,0.53255,0.000228765,-0.000119282,0.000316392,1.35914e-05,0.00106659,-9.33593e-05,-2.64562e-06,0,0,0,0,0,0,0,0.0223175,-0.0542502,0.513659,-1.56653,0.0398845,1.55679,1.31794,-0.000118059,-0.000372973,-0.00107758,-0.00262202,-0.00850561,0.0036351,-0.00105558,0.285221,-27.4843,-0.713182,27.6254,0.855709,3.34435,0.110886,2.48243,2.10173,1.3829,-1.2545,1.6001,0.174433,0.179691,0.785305,0.198127,-0.0123868,0.128361,-0.21312,0.0878421,
0.0223265,-0.0541769,0.513671,-1.56604,0.0401701,-0.0146707,0.53255,0.00020958,-0.000150155,0.000299252,1.93393e-05,0.000858427,-0.00012843,-2.57303e-06,0,0,0,0,0,0,0,0.0223175,-0.0542502,0.513659,-1.56653,0.0398845,1.55679,1.31794,-0.000118059,-0.000372973,-0.00107758,-0.00262202,-0.00850561,0.0036351,-0.00105558,0.285221,-27.4843,-0.713182,27.6254,0.855709,3.34435,0.110886,2.48243,2.10173,1.3829,-1.2545,1.6001,0.174433,0.179691,0.785305,0.198127,-0.0123868,0.128361,-0.21312,0.0878421,
0.0223273,-0.0541776,0.513672,-1.56604,0.0401729,-0.0146714,0.53255,0.000190773,-0.000176001,0.000282126,2.52295e-05,0.000687769,-0.000157873,-2.40726e-06,0,0,0,0,0,0,0,0.0223279,-0.0542552,0.513664,-1.56647,0.0399068,1.55681,1.31795,0.000620849,-0.000748808,0.00052382,0.00675441,-0.00148472,-0.000248934,-0.000638281,0.106693,-27.4565,-0.812364,26.6772,0.624081,3.09899,0.0980684,2.40179,2.09873,1.60379,-1.1751,1.45674,0.196522,0.186476,0.666623,0.230741,0.0906974,0.15127,-0.201461,0.0874791,
0.022328,-0.0541784,0.513673,-1.56604,0.0401751,-0.0146721,0.53255,0.00017281,-0.000197615,0.000265568,3.09522e-05,0.000546651,-0.000182399,-2.18945e-06,0,0,0,0,0,0,0,0.0223279,-0.0542552,0.513664,-1.56647,0.0399068,1.55681,1.31795,0.000620849,-0.000748808,0.00052382,0.00675441,-0.00148472,-0.000248934,-0.000638281,0.106693,-27.4565,-0.812364,26.6772,0.624081,3.09899,0.0980684,2.29969,2.00013,1.59878,-1.1225,1.39166,0.178753,0.161939,0.634927,0.218393,0.0832759,0.138888,-0.220615,0.0887903,
0.0223286,-0.0541793,0.513674,-1.56604,0.0401768,-0.0146729,0.53255,0.000155954,-0.000215679,0.000249911,3.63246e-05,0.000429015,-0.000202716,-1.94698e-06,0,0,0,0,0,0,0,0.0223279,-0.0542552,0.513664,-1.56647,0.0399068,1.55681,1.31795,0.000620849,-0.000748808,0.00052382,0.00675441,-0.00148472,-0.000248934,-0.000638281,0.106693,-27.4565,-0.812364,26.6772,0.624081,3.09899,0.0980684,2.29969,2.00013,1.59878,-1.1225,1.39166,0.178753,0.161939,0.634927,0.218393,0.0832759,0.138888,-0.220615,0.0887903,
0.0223292,-0.0541802,0.513675,-1.56604,0.0401781,-0.0146738,0.53255,0.000140338,-0.000230768,0.000235335,4.12493e-05,0.000330218,-0.000219482,-1.69774e-06,0,0,0,0,0,0,0,0.0223279,-0.0542552,0.513664,-1.56647,0.0399068,1.55681,1.31795,0.000620849,-0.000748808,0.00052382,0.00675441,-0.00148472,-0.000248934,-0.000638281,0.106693,-27.4565,-0.812364,26.6772,0.624081,3.09899,0.0980684,2.10154,1.77663,1.72461,-0.947975,1.19485,0.131736,0.10883,0.501653,0.172004,0.146376,0.118332,-0.233125,0.0895381,
0.0223297,-0.0541812,0.513676,-1.56604,0.0401791,-0.0146747,0.53255,0.000126003,-0.00024337,0.000221917,4.56854e-05,0.000246679,-0.00023329,-1.45303e-06,0,0,0,0,0,0,0,0.0223279,-0.0542552,0.513664,-1.56647,0.0399068,1.55681,1.31795,0.000620849,-0.000748808,0.00052382,0.00675441,-0.00148472,-0.000248934,-0.000638281,0.106693,-27.4565,-0.812364,26.6772,0.624081,3.09899,0.0980684,2.10154,1.77663,1.72461,-0.947975,1.19485,0.131736,0.10883,0.501653,0.172004,0.146376,0.118332,-0.233125,0.0895381,
0.0223301,-0.0541822,0.513677,-1.56604,0.0401798,-0.0146757,0.53255,0.000112936,-0.000253896,0.000209668,4.96284e-05,0.000175604,-0.000244657,-1.2197e-06,0,0,0,0,0,0,0,0.0223328,-0.0542525,0.513666,-1.5665,0.0399287,1.55681,1.31795,-0.000587756,0.000207059,-0.00059628,0.00212213,0.0088738,0.00159976,0.000243424,0.0828892,-27.4843,-0.812364,27.1771,0.477596,3.17223,0.0706026,2.08117,1.80878,1.80588,-0.932877,1.1552,0.15357,0.119115,0.467854,0.203549,0.182446,0.139826,-0.228525,0.088392,
0.0223305,-0.0541832,0.513678,-1.56604,0.0401803,-0.0146767,0.53255,0.000101085,-0.000262691,0.000198558,5.30963e-05,0.000114804,-0.000254025,-1.00157e-06,0,0,0,0,0,0,0,0.0223328,-0.0542525,0.513666,-1.5665,0.0399287,1.55681,1.31795,-0.000587756,0.000207059,-0.00059628,0.00212213,0.0088738,0.00159976,0.000243424,0.0828892,-27.4843,-0.812364,27.1771,0.477596,3.17223,0.0706026,2.27919,1.92808,1.66725,-1.06559,1.35629,0.152559,0.113328,0.60495,0.211839,0.102043,0.131381,-0.232795,0.0869207,
0.0223309,-0.0541843,0.513679,-1.56604,0.0401805,-0.0146778,0.53255,9.03794e-05,-0.000270044,0.000188528,5.61202e-05,6.25389e-05,-0.000261766,-8.00454e-07,0,0,0,0,0,0,0,0.0223328,-0.0542525,0.513666,-1.5665,0.0399287,1.55681,1.31795,-0.000587756,0.000207059,-0.00059628,0.00212213,0.0088738,0.00159976,0.000243424,0.0828892,-27.4843,-0.812364,27.1771,0.477596,3.17223,0.0706026,2.27919,1.92808,1.66725,-1.06559,1.35629,0.152559,0.113328,0.60495,0.211839,0.102043,0.131381,-0.232795,0.0869207,
0.0223312,-0.0541854,0.513679,-1.56604,0.0401806,-0.0146788,0.53255,8.07366e-05,-0.000276197,0.000179508,5.87383e-05,1.74199e-05,-0.00026819,-6.16856e-07,0,0,0,0,0,0,0,0.0223328,-0.0542525,0.513666,-1.5665,0.0399287,1.55681,1.31795,-0.000587756,0.000207059,-0.00059628,0.00212213,0.0088738,0.00159976,0.000243424,0.0828892,-27.4843,-0.812364,27.1771,0.477596,3.17223,0.0706026,2.01883,1.74078,1.80416,-0.891332,1.1057,0.142408,0.105226,0.438635,0.193978,0.188448,0.130374,-0.230605,0.0858609,
0.0223315,-0.0541865,0.51368,-1.56604,0.0401805,-0.0146799,0.53255,7.20707e-05,-0.000281353,0.000171419,6.0991e-05,-2.16746e-05,-0.000273551,-4.50456e-07,0,0,0,0,0,0,0,0.0223328,-0.0542525,0.513666,-1.5665,0.0399287,1.55681,1.31795,-0.000587756,0.000207059,-0.00059628,0.00212213,0.0088738,0.00159976,0.000243424,0.0828892,-27.4843,-0.812364,27.1771,0.477596,3.17223,0.0706026,2.01883,1.74078,1.80416,-0.891332,1.1057,0.142408,0.105226,0.438635,0.193978,0.188448,0.130374,-0.230605,0.0858609,
0.0223318,-0.0541877,0.513681,-1.56604,0.0401803,-0.014681,0.53255,6.42959e-05,-0.000285681,0.000164183,6.29191e-05,-5.56574e-05,-0.000278057,-3.00436e-07,0,0,0,0,0,0,0,0.0223328,-0.0542525,0.513666,-1.5665,0.0399287,1.55681,1.31795,-0.000587756,0.000207059,-0.00059628,0.00212213,0.0088738,0.00159976,0.000243424,0.0828892,-27.4843,-0.812364,27.1771,0.477596,3.17223,0.0706026,1.95468,2.03024,1.74721,-1.11702,1.10084,0.293089,0.268983,0.458395,0.338898,0.145219,0.147523,-0.246583,0.0861862,
0.022332,-0.0541888,0.513681,-1.56604,0.0401799,-0.0146822,0.53255,5.73291e-05,-0.000289321,0.000157722,6.45613e-05,-8.52777e-05,-0.000281875,-1.65702e-07,0,0,0,0,0,0,0,0.0222913,-0.0542601,0.513637,-1.56647,0.0398934,1.55682,1.31795,-0.0060271,0.00141368,-0.00256105,0.00192,0.0198716,0.00254005,-0.000672991,0.539127,-27.4327,-0.487047,26.8042,0.709225,3.05962,0.0980684,1.95468,2.03024,1.74721,-1.11702,1.10084,0.293089,0.268983,0.458395,0.338898,0.145219,0.147523,-0.246583,0.0861862,
0.0223322,-0.05419,0.513682,-1.56604,0.0401795,-0.0146833,0.53255,5.10923e-05,-0.000292392,0.000151961,6.59539e-05,-0.000111155,-0.000285141,-4.5028e-08,0,0,0,0,0,0,0,0.0222913,-0.0542601,0.513637,-1.56647,0.0398934,1.55682,1.31795,-0.0060271,0.00141368,-0.00256105,0.00192,0.0198716,0.00254005,-0.000672991,0.539127,-27.4327,-0.487047,26.8042,0.709225,3.05962,0.0980684,2.06177,1.90955,1.50402,-1.11765,1.27993,0.206869,0.194544,0.603127,0.243554,0.0252522,0.120064,-0.269034,0.0868427,
0.0223324,-0.0541912,0.513683,-1.56604,0.040179,-0.0146845,0.53255,4.55126e-05,-0.000294991,0.000146831,6.71301e-05,-0.000133807,-0.000287962,6.28449e-08,0,0,0,0,0,0,0,0.0222913,-0.0542601,0.513637,-1.56647,0.0398934,1.55682,1.31795,-0.0060271,0.00141368,-0.00256105,0.00192,0.0198716,0.00254005,-0.000672991,0.539127,-27.4327,-0.487047,26.8042,0.709225,3.05962,0.0980684,1.89078,1.76369,1.59086,-0.958814,1.1157,0.189461,0.179083,0.493442,0.218611,0.0966721,0.142761,-0.252623,0.087218,
0.0223325,-0.0541924,0.513683,-1.56604,0.0401783,-0.0146856,0.53255,4.0523e-05,-0.0002972,0.000142268,6.81198e-05,-0.000153667,-0.000290424,1.59152e-07,0,0,0,0,0,0,0,0.0222913,-0.0542601,0.513637,-1.56647,0.0398934,1.55682,1.31795,-0.0060271,0.00141368,-0.00256105,0.00192,0.0198716,0.00254005,-0.000672991,0.539127,-27.4327,-0.487047,26.8042,0.709225,3.05962,0.0980684,1.89078,1.76369,1.59086,-0.958814,1.1157,0.189461,0.179083,0.493442,0.218611,0.0966721,0.142761,-0.252623,0.087218,
0.022534,-0.0544319,0.513878,-1.56581,-0.015922,-0.0500273,0.532394,-0.00517825,0.000908568,-0.00515046,-0.00229256,-0.334964,-0.213136,-0.000697606,0,0,0,0,0,0,0,0.0222913,-0.0542601,0.513637,-1.56647,0.0398934,1.55682,1.31795,-0.0060271,0.00141368,-0.00256105,0.00192,0.0198716,0.00254005,-0.000672991,0.539127,-27.4327,-0.487047,26.8042,0.709225,3.05962,0.0980684,1.96881,1.87307,1.64729,-1.03374,1.14404,0.216413,0.2015,0.496495,0.251854,0.111139,0.13358,-0.247756,0.0872468,
0.0224009,-0.0544861,0.513758,-1.56625,-0.00594338,-0.0434006,0.532464,-0.00445109,0.000261895,-0.00435251,-0.00210368,-0.256961,-0.170606,-0.000339542,0,0,0,0,0,0,0,0.0223092,-0.054283,0.513646,-1.56648,0.0398339,1.55681,1.31795,-0.000420394,-0.00014943,-0.00113866,-3.84415e-05,0.0147774,0.00136954,-6.66221e-05,0.0551182,-27.3335,-0.713182,27.0264,1.05163,3.15941,0.0779268,1.96881,1.87307,1.64729,-1.03374,1.14404,0.216413,0.2015,0.496495,0.251854,0.111139,0.13358,-0.247756,0.0872468,
0.0223829,-0.054485,0.51374,-1.56626,-0.00695589,-0.0440744,0.532463,-0.00451012,0.000273325,-0.00441372,-0.00211747,-0.25313,-0.168451,-0.000337835,0,0,0,0,0,0,0,0.0223092,-0.054283,0.513646,-1.56648,0.0398339,1.55681,1.31795,-0.000420394,-0.00014943,-0.00113866,-3.84415e-05,0.0147774,0.00136954,-6.66221e-05,0.0551182,-27.3335,-0.713182,27.0264,1.05163,3.15941,0.0779268,2.01943,1.86648,1.41807,-1.10116,1.2827,0.199894,0.171167,0.61951,0.252131,-0.00119794,0.125941,-0.268662,0.085512,
0.0223646,-0.0544839,0.513723,-1.56627,-0.00795212,-0.0447389,0.532461,-0.00457037,0.000278638,-0.00447589,-0.00213737,-0.249057,-0.166136,-0.000337127,0,0,0,0,0,0,0,0.0223092,-0.054283,0.513646,-1.56648,0.0398339,1.55681,1.31795,-0.000420394,-0.00014943,-0.00113866,-3.84415e-05,0.0147774,0.00136954,-6.66221e-05,0.0551182,-27.3335,-0.713182,27.0264,1.05163,3.15941,0.0779268,2.01943,1.86648,1.41807,-1.10116,1.2827,0.199894,0.171167,0.61951,0.252131,-0.00119794,0.125941,-0.268662,0.085512,
0.022346,-0.0544828,0.513704,-1.56628,-0.00893095,-0.0453934,0.53246,-0.0046336,0.000278309,-0.00454076,-0.00216545,-0.244708,-0.163633,-0.000337605,0,0,0,0,0,0,0,0.0223092,-0.054283,0.513646,-1.56648,0.0398339,1.55681,1.31795,-0.000420394,-0.00014943,-0.00113866,-3.84415e-05,0.0147774,0.00136954,-6.66221e-05,0.0551182,-27.3335,-0.713182,27.0264,1.05163,3.15941,0.0779268,1.70561,2.18543,1.56743,-1.26801,1.02575,0.432297,0.389659,0.468037,0.501066,0.0599495,0.180202,-0.280805,0.087802,
0.0223272,-0.0544817,0.513686,-1.56629,-0.00989113,-0.0460371,0.532459,-0.00470195,0.000272834,-0.00461038,-0.0022041,-0.240044,-0.160904,-0.000339229,0,0,0,0,0,0,0,0.0223092,-0.054283,0.513646,-1.56648,0.0398339,1.55681,1.31795,-0.000420394,-0.00014943,-0.00113866,-3.84415e-05,0.0147774,0.00136954,-6.66221e-05,0.0551182,-27.3335,-0.713182,27.0264,1.05163,3.15941,0.0779268,1.81349,2.07998,1.72058,-1.26912,1.05083,0.34695,0.289258,0.457569,0.432025,0.0509641,0.0804338,-0.341925,0.0902984,
0.0223081,-0.0544806,0.513667,-1.5663,-0.0108312,-0.0466687,0.532457,-0.00477794,0.000262753,-0.00468721,-0.00225617,-0.235012,-0.157909,-0.000342086,0,0,0,0,0,0,0,0.0223092,-0.054283,0.513646,-1.56648,0.0398339,1.55681,1.31795,-0.000420394,-0.00014943,-0.00113866,-3.84415e-05,0.0147774,0.00136954,-6.66221e-05,0.0551182,-27.3335,-0.713182,27.0264,1.05163,3.15941,0.0779268,1.81349,2.07998,1.72058,-1.26912,1.05083,0.34695,0.289258,0.457569,0.432025,0.0509641,0.0804338,-0.341925,0.0902984,
0.0222887,-0.0544797,0.513648,-1.5663,-0.0117494,-0.0472871,0.532456,-0.00486471,0.000248656,-0.0047743,-0.00232507,-0.229553,-0.154595,-0.000346115,0,0,0,0,0,0,0,0.0224137,-0.0542878,0.513726,-1.56644,0.0372309,1.55678,1.31795,0.00793342,-6.42695e-05,0.00187419,-0.000688794,-0.167053,-0.00214314,0.000996771,-0.881161,-27.3573,-1.58599,26.5781,0.434567,2.78771,0.0641939,1.33381,2.25693,1.68532,-1.49626,0.716381,0.560254,0.487761,0.28623,0.668295,0.0196974,0.0171081,-0.398088,0.0894735,
0.0222688,-0.0544787,0.513629,-1.56631,-0.0126438,-0.0478907,0.532455,-0.00496621,0.000231214,-0.00487547,-0.00241482,-0.22359,-0.150901,-0.000351512,0,0,0,0,0,0,0,0.0224137,-0.0542878,0.513726,-1.56644,0.0372309,1.55678,1.31795,0.00793342,-6.42695e-05,0.00187419,-0.000688794,-0.167053,-0.00214314,0.000996771,-0.881161,-27.3573,-1.58599,26.5781,0.434567,2.78771,0.0641939,1.52364,2.11456,1.87967,-1.40907,0.734176,0.439216,0.360537,0.2397,0.551193,0.0920651,-0.0671777,-0.387341,0.087843,
0.0222485,-0.0544779,0.513609,-1.56632,-0.0135119,-0.0484777,0.532453,-0.00508741,0.00021118,-0.00499556,-0.00253023,-0.217029,-0.146753,-0.000357961,0,0,0,0,0,0,0,0.0224137,-0.0542878,0.513726,-1.56644,0.0372309,1.55678,1.31795,0.00793342,-6.42695e-05,0.00187419,-0.000688794,-0.167053,-0.00214314,0.000996771,-0.881161,-27.3573,-1.58599,26.5781,0.434567,2.78771,0.0641939,1.52364,2.11456,1.87967,-1.40907,0.734176,0.439216,0.360537,0.2397,0.551193,0.0920651,-0.0671777,-0.387341,0.087843,
0.0222275,-0.0544771,0.513588,-1.56633,-0.0143509,-0.0490459,0.532452,-0.00523473,0.000189413,-0.00514083,-0.00267704,-0.209753,-0.142061,-0.000365295,0,0,0,0,0,0,0,0.0224137,-0.0542878,0.513726,-1.56644,0.0372309,1.55678,1.31795,0.00793342,-6.42695e-05,0.00187419,-0.000688794,-0.167053,-0.00214314,0.000996771,-0.881161,-27.3573,-1.58599,26.5781,0.434567,2.78771,0.0641939,1.90276,1.8214,2.08347,-1.20614,0.925763,0.1979,0.125759,0.302868,0.298236,0.126627,-0.135812,-0.406334,0.0857313,
0.0222059,-0.0544765,0.513567,-1.56635,-0.0151573,-0.0495928,0.53245,-0.00541651,0.000166891,-0.0053194,-0.00286205,-0.201613,-0.13672,-0.000372841,0,0,0,0,0,0,0,0.0224137,-0.0542878,0.513726,-1.56644,0.0372309,1.55678,1.31795,0.00793342,-6.42695e-05,0.00187419,-0.000688794,-0.167053,-0.00214314,0.000996771,-0.881161,-27.3573,-1.58599,26.5781,0.434567,2.78771,0.0641939,1.90276,1.8214,2.08347,-1.20614,0.925763,0.1979,0.125759,0.302868,0.298236,0.126627,-0.135812,-0.406334,0.0857313,
0.0221833,-0.0544759,0.513545,-1.56636,-0.015927,-0.0501152,0.532449,-0.00564369,0.000144681,-0.00554191,-0.00309334,-0.192422,-0.130603,-0.000379918,0,0,0,0,0,0,0,0.0224924,-0.0542886,0.513748,-1.56647,0.0298809,1.55589,1.31794,-0.000651394,-1.11379e-05,-0.000305514,0.000899323,-0.166507,-0.0236439,-0.000390027,-0.603451,-27.3811,-1.43523,26.951,-0.0479162,2.60186,0.0980684,2.3501,1.6369,2.25505,-1.11114,1.1947,-0.0150299,-0.0880017,0.42204,0.0844683,0.116898,-0.21249,-0.446586,0.0847647,
0.0221596,-0.0544754,0.513521,-1.56637,-0.0166548,-0.0506095,0.532447,-0.00593072,0.00012387,-0.00582247,-0.00338057,-0.181938,-0.123559,-0.000385028,0,0,0,0,0,0,0,0.0224924,-0.0542886,0.513748,-1.56647,0.0298809,1.55589,1.31794,-0.000651394,-1.11379e-05,-0.000305514,0.000899323,-0.166507,-0.0236439,-0.000390027,-0.603451,-27.3811,-1.43523,26.951,-0.0479162,2.60186,0.0980684,2.3501,1.6369,2.25505,-1.11114,1.1947,-0.0150299,-0.0880017,0.42204,0.0844683,0.116898,-0.21249,-0.446586,0.0847647,
0.0221344,-0.054475,0.513497,-1.56639,-0.0173342,-0.0510711,0.532446,-0.00629692,0.000105315,-0.00617996,-0.00373563,-0.16985,-0.115411,-0.000385638,0,0,0,0,0,0,0,0.0224924,-0.0542886,0.513748,-1.56647,0.0298809,1.55589,1.31794,-0.000651394,-1.11379e-05,-0.000305514,0.000899323,-0.166507,-0.0236439,-0.000390027,-0.603451,-27.3811,-1.43523,26.951,-0.0479162,2.60186,0.0980684,2.51058,1.43593,2.4203,-1.02654,1.26799,-0.154573,-0.226464,0.441467,-0.0570398,0.105829,-0.29758,-0.513708,0.0837456,
0.0221073,-0.0544746,0.51347,-1.5664,-0.0179572,-0.0514949,0.532444,-0.00676857,8.88478e-05,-0.00664002,-0.00417425,-0.155749,-0.105945,-0.000376774,0,0,0,0,0,0,0,0.0224924,-0.0542886,0.513748,-1.56647,0.0298809,1.55589,1.31794,-0.000651394,-1.11379e-05,-0.000305514,0.000899323,-0.166507,-0.0236439,-0.000390027,-0.603451,-27.3811,-1.43523,26.951,-0.0479162,2.60186,0.0980684,2.30036,1.54801,2.42486,-1.11628,1.14671,-0.0430813,-0.101471,0.391765,0.0443327,0.0859594,-0.282797,-0.550571,0.0827414,
0.0220778,-0.0544743,0.513441,-1.56642,-0.0185135,-0.0518745,0.532443,-0.00738244,7.06888e-05,-0.00723857,-0.0047214,-0.139091,-0.0948943,-0.000347713,0,0,0,0,0,0,0,0.0224924,-0.0542886,0.513748,-1.56647,0.0298809,1.55589,1.31794,-0.000651394,-1.11379e-05,-0.000305514,0.000899323,-0.166507,-0.0236439,-0.000390027,-0.603451,-27.3811,-1.43523,26.951,-0.0479162,2.60186,0.0980684,2.30036,1.54801,2.42486,-1.11628,1.14671,-0.0430813,-0.101471,0.391765,0.0443327,0.0859594,-0.282797,-0.550571,0.0827414,
0.022045,-0.0544742,0.513409,-1.56644,-0.01899,-0.052202,0.532442,-0.00819331,3.50068e-05,-0.00802901,-0.00542879,-0.119122,-0.0818916,-0.000274569,0,0,0,0,0,0,0,0.0224924,-0.0542886,0.513748,-1.56647,0.0298809,1.55589,1.31794,-0.000651394,-1.11379e-05,-0.000305514,0.000899323,-0.166507,-0.0236439,-0.000390027,-0.603451,-27.3811,-1.43523,26.951,-0.0479162,2.60186,0.0980684,2.62609,1.45152,2.47183,-1.06749,1.39679,-0.179628,-0.215058,0.533668,-0.11496,0.0401465,-0.304305,-0.587588,0.0826875,
0.0220078,-0.0544745,0.513373,-1.56647,-0.0193689,-0.0524673,0.532441,-0.00929261,-7.4413e-05,-0.0091009,-0.0064344,-0.0947178,-0.0663086,-0.000149353,0,0,0,0,0,0,0,0.0224237,-0.0542894,0.513697,-1.56647,0.0251328,1.5555,1.31795,-0.00483104,0.00060221,-2.95421e-05,0.000220917,-0.142016,-0.00706542,0.00103018,0.209842,-27.3811,-0.887743,26.9034,0.434567,2.70165,0.0641939,2.62609,1.45152,2.47183,-1.06749,1.39679,-0.179628,-0.215058,0.533668,-0.11496,0.0401465,-0.304305,-0.587588,0.0826875,
0.0219698,-0.054472,0.513335,-1.56649,-0.0196751,-0.0526863,0.532441,-0.00951024,0.000620307,-0.00941026,-0.00580692,-0.0765543,-0.0547565,-5.39575e-05,0,0,0,0,0,0,0,0.0224237,-0.0542894,0.513697,-1.56647,0.0251328,1.5555,1.31795,-0.00483104,0.00060221,-2.95421e-05,0.000220917,-0.142016,-0.00706542,0.00103018,0.209842,-27.3811,-0.887743,26.9034,0.434567,2.70165,0.0641939,2.61375,1.62148,2.63205,-1.15202,1.35739,-0.0989508,-0.113185,0.499606,-0.053128,0.0716539,-0.284455,-0.611009,0.0830996,
0.0219324,-0.0544666,0.513298,-1.56651,-0.0199252,-0.0528682,0.532441,-0.00933424,0.00136145,-0.00930059,-0.0048863,-0.0625317,-0.0454732,-1.42928e-05,0,0,0,0,0,0,0,0.0224237,-0.0542894,0.513697,-1.56647,0.0251328,1.5555,1.31795,-0.00483104,0.00060221,-2.95421e-05,0.000220917,-0.142016,-0.00706542,0.00103018,0.209842,-27.3811,-0.887743,26.9034,0.434567,2.70165,0.0641939,2.61375,1.62148,2.63205,-1.15202,1.35739,-0.0989508,-0.113185,0.499606,-0.053128,0.0716539,-0.284455,-0.611009,0.0830996,
0.0218966,-0.0544587,0.513262,-1.56653,-0.0201312,-0.0530193,0.532441,-0.00894971,0.0019614,-0.00896061,-0.00402241,-0.0514802,-0.0377831,-5.01789e-08,0,0,0,0,0,0,0,0.0224237,-0.0542894,0.513697,-1.56647,0.0251328,1.5555,1.31795,-0.00483104,0.00060221,-2.95421e-05,0.000220917,-0.142016,-0.00706542,0.00103018,0.209842,-27.3811,-0.887743,26.9034,0.434567,2.70165,0.0641939,2.57179,1.72557,2.65439,-1.16961,1.35066,-0.037452,-0.0397426,0.506774,-0.00391193,0.0795038,-0.219725,-0.611281,0.0824692,
0.0218628,-0.0544491,0.513228,-1.56654,-0.0203017,-0.0531447,0.532441,-0.00845293,0.00239568,-0.00849292,-0.00328385,-0.0426463,-0.0313497,2.56171e-06,0,0,0,0,0,0,0,0.0224237,-0.0542894,0.513697,-1.56647,0.0251328,1.5555,1.31795,-0.00483104,0.00060221,-2.95421e-05,0.000220917,-0.142016,-0.00706542,0.00103018,0.209842,-27.3811,-0.887743,26.9034,0.434567,2.70165,0.0641939,2.46143,1.96512,2.46049,-1.35078,1.37153,0.105119,0.114133,0.566942,0.133031,0.00341078,-0.164162,-0.614292,0.0814198,
0.0218312,-0.0544384,0.513196,-1.56655,-0.0204438,-0.0532485,0.532441,-0.00790082,0.00268303,-0.00795926,-0.00266527,-0.0355035,-0.0259535,-6.20166e-07,0,0,0,0,0,0,0,0.0222655,-0.0542862,0.513636,-1.56647,0.0205524,1.55546,1.31794,-0.00902252,0.00127947,-0.00263597,-0.000270351,-0.124521,-0.000274241,-0.00120663,0.360599,-27.4565,-0.661608,26.9034,0.929867,2.86095,0.104477,2.46143,1.96512,2.46049,-1.35078,1.37153,0.105119,0.114133,0.566942,0.133031,0.00341078,-0.164162,-0.614292,0.0814198,
0.0218019,-0.054427,0.513166,-1.56656,-0.0205624,-0.0533342,0.532441,-0.00732915,0.00285046,-0.00739888,-0.00214624,-0.0296682,-0.0214258,-6.80541e-06,0,0,0,0,0,0,0,0.0222655,-0.0542862,0.513636,-1.56647,0.0205524,1.55546,1.31794,-0.00902252,0.00127947,-0.00263597,-0.000270351,-0.124521,-0.000274241,-0.00120663,0.360599,-27.4565,-0.661608,26.9034,0.929867,2.86095,0.104477,1.95152,2.29755,2.57443,-1.47515,0.971292,0.405215,0.421331,0.336953,0.426991,0.107952,-0.0623515,-0.586953,0.0796508,
0.0217749,-0.0544153,0.513139,-1.56657,-0.0206618,-0.0534047,0.532441,-0.00676083,0.00292354,-0.00683707,-0.00170683,-0.024855,-0.0176271,-1.44772e-05,0,0,0,0,0,0,0,0.0222655,-0.0542862,0.513636,-1.56647,0.0205524,1.55546,1.31794,-0.00902252,0.00127947,-0.00263597,-0.000270351,-0.124521,-0.000274241,-0.00120663,0.360599,-27.4565,-0.661608,26.9034,0.929867,2.86095,0.104477,1.95152,2.29755,2.57443,-1.47515,0.971292,0.405215,0.421331,0.336953,0.426991,0.107952,-0.0623515,-0.586953,0.0796508,
0.0206126,-0.0528229,0.51176,-1.56673,-0.147541,-0.194909,0.530955,-0.032729,0.0208501,-0.0338239,-0.0202255,-1.19572,-1.03439,-0.00719179,0,0,0,0,0,0,0,0.0222655,-0.0542862,0.513636,-1.56647,0.0205524,1.55546,1.31794,-0.00902252,0.00127947,-0.00263597,-0.000270351,-0.124521,-0.000274241,-0.00120663,0.360599,-27.4565,-0.661608,26.9034,0.929867,2.86095,0.104477,2.16683,2.23173,2.64669,-1.33996,1.10579,0.316838,0.341893,0.397451,0.324172,0.153217,-0.00510651,-0.551613,0.0792896,
0.0202237,-0.0532211,0.511482,-1.56658,-0.111827,-0.146638,0.531734,-0.0263662,0.013246,-0.0270723,-0.0114536,-0.62175,-0.758907,-0.00276957,0,0,0,0,0,0,0,0.0222655,-0.0542862,0.513636,-1.56647,0.0205524,1.55546,1.31794,-0.00902252,0.00127947,-0.00263597,-0.000270351,-0.124521,-0.000274241,-0.00120663,0.360599,-27.4565,-0.661608,26.9034,0.929867,2.86095,0.104477,2.16683,2.23173,2.64669,-1.33996,1.10579,0.316838,0.341893,0.397451,0.324172,0.153217,-0.00510651,-0.551613,0.0792896,
0.0201184,-0.0531694,0.511374,-1.56662,-0.114266,-0.149651,0.531723,-0.0263245,0.0129268,-0.0270396,-0.0113181,-0.609756,-0.753259,-0.002703,0,0,0,0,0,0,0,0.0222655,-0.0542862,0.513636,-1.56647,0.0205524,1.55546,1.31794,-0.00902252,0.00127947,-0.00263597,-0.000270351,-0.124521,-0.000274241,-0.00120663,0.360599,-27.4565,-0.661608,26.9034,0.929867,2.86095,0.104477,2.49721,2.11789,2.6547,-1.22726,1.34015,0.171245,0.205039,0.520461,0.166272,0.152716,0.00846955,-0.528882,0.08029,
0.0200132,-0.0531191,0.511266,-1.56667,-0.116654,-0.152639,0.531712,-0.0262984,0.0125711,-0.0270222,-0.01121,-0.597059,-0.746925,-0.00264057,0,0,0,0,0,0,0,0.0221044,-0.0542874,0.513433,-1.56649,0.0168719,1.55545,1.31794,-0.00638185,-0.00105196,-0.00505027,5.09252e-05,-0.113919,-0.00498561,-0.00113834,0.463749,-27.4089,-0.661608,27.0779,0.9967,2.70165,0.11821,2.84016,3.08038,3.05372,-1.74111,1.45025,0.508785,0.550424,0.521648,0.506903,0.288991,0.113178,-0.469954,0.0850686,
0.019908,-0.0530704,0.511158,-1.56671,-0.118988,-0.155598,0.531702,-0.0262931,0.0121778,-0.0270248,-0.0111369,-0.583534,-0.739743,-0.00258275,0,0,0,0,0,0,0,0.0221044,-0.0542874,0.513433,-1.56649,0.0168719,1.55545,1.31794,-0.00638185,-0.00105196,-0.00505027,5.09252e-05,-0.113919,-0.00498561,-0.00113834,0.463749,-27.4089,-0.661608,27.0779,0.9967,2.70165,0.11821,2.84016,3.08038,3.05372,-1.74111,1.45025,0.508785,0.550424,0.521648,0.506903,0.288991,0.113178,-0.469954,0.0850686,
0.0198027,-0.0530234,0.51105,-1.56676,-0.121264,-0.158524,0.531692,-0.0263146,0.0117456,-0.0270536,-0.011108,-0.569039,-0.731517,-0.0025313,0,0,0,0,0,0,0,0.0221044,-0.0542874,0.513433,-1.56649,0.0168719,1.55545,1.31794,-0.00638185,-0.00105196,-0.00505027,5.09252e-05,-0.113919,-0.00498561,-0.00113834,0.463749,-27.4089,-0.661608,27.0779,0.9967,2.70165,0.11821,4.54343,4.86267,3.354,-2.97439,2.55426,0.825049,0.857691,1.07293,0.865342,0.246516,0.116339,-0.388861,0.0921625,
0.0196973,-0.0529784,0.510941,-1.5668,-0.123478,-0.161412,0.531682,-0.0263697,0.0112728,-0.0271152,-0.0111342,-0.553407,-0.722011,-0.00248631,0,0,0,0,0,0,0,0.0221044,-0.0542874,0.513433,-1.56649,0.0168719,1.55545,1.31794,-0.00638185,-0.00105196,-0.00505027,5.09252e-05,-0.113919,-0.00498561,-0.00113834,0.463749,-27.4089,-0.661608,27.0779,0.9967,2.70165,0.11821,4.54343,4.86267,3.354,-2.97439,2.55426,0.825049,0.857691,1.07293,0.865342,0.246516,0.116339,-0.388861,0.0921625,
0.0195914,-0.0529353,0.510832,-1.56685,-0.125624,-0.164255,0.531672,-0.026466,0.0107578,-0.0272171,-0.0112285,-0.536451,-0.710945,-0.00244911,0,0,0,0,0,0,0,0.0221044,-0.0542874,0.513433,-1.56649,0.0168719,1.55545,1.31794,-0.00638185,-0.00105196,-0.00505027,5.09252e-05,-0.113919,-0.00498561,-0.00113834,0.463749,-27.4089,-0.661608,27.0779,0.9967,2.70165,0.11821,2.87268,4.6587,3.52525,-2.91199,1.26118,1.1914,1.18776,0.335581,1.26688,0.381531,0.024595,-0.482272,0.0931011,
0.019485,-0.0528945,0.510723,-1.56689,-0.127696,-0.167047,0.531662,-0.0266123,0.0101989,-0.0273681,-0.0114067,-0.517957,-0.697978,-0.00242112,0,0,0,0,0,0,0,0.0223154,-0.0543442,0.51349,-1.56568,0.00113682,1.54521,1.31794,0.00577663,0.000262882,0.000761561,0.0291699,-0.60693,-0.469395,0.000864733,-1.21045,-26.8575,-2.01048,25.2094,-0.780338,1.24962,0.0706026,2.88202,3.60784,3.66001,-2.47035,1.24578,0.692838,0.679143,0.314599,0.773665,0.254981,-0.294631,-0.704128,0.0916243,
0.0193777,-0.0528562,0.510613,-1.56694,-0.129686,-0.169778,0.531653,-0.0268183,0.00959469,-0.0275776,-0.0116874,-0.497682,-0.682707,-0.00240444,0,0,0,0,0,0,0,0.0223154,-0.0543442,0.51349,-1.56568,0.00113682,1.54521,1.31794,0.00577663,0.000262882,0.000761561,0.0291699,-0.60693,-0.469395,0.000864733,-1.21045,-26.8575,-2.01048,25.2094,-0.780338,1.24962,0.0706026,2.88202,3.60784,3.66001,-2.47035,1.24578,0.692838,0.679143,0.314599,0.773665,0.254981,-0.294631,-0.704128,0.0916243,
0.0192693,-0.0528204,0.510501,-1.56699,-0.131588,-0.172437,0.531643,-0.0270946,0.00894409,-0.0278561,-0.012093,-0.475359,-0.664649,-0.00240056,0,0,0,0,0,0,0,0.0223154,-0.0543442,0.51349,-1.56568,0.00113682,1.54521,1.31794,0.00577663,0.000262882,0.000761561,0.0291699,-0.60693,-0.469395,0.000864733,-1.21045,-26.8575,-2.01048,25.2094,-0.780338,1.24962,0.0706026,3.92559,2.27436,4.05366,-1.78686,1.88689,-0.223508,-0.241578,0.602487,-0.150577,0.146487,-0.65987,-0.923717,0.0877842,
0.0191595,-0.0527874,0.510388,-1.56704,-0.133391,-0.17501,0.531634,-0.0274521,0.00824714,-0.0282144,-0.0126494,-0.450694,-0.643231,-0.00241267,0,0,0,0,0,0,0,0.0223154,-0.0543442,0.51349,-1.56568,0.00113682,1.54521,1.31794,0.00577663,0.000262882,0.000761561,0.0291699,-0.60693,-0.469395,0.000864733,-1.21045,-26.8575,-2.01048,25.2094,-0.780338,1.24962,0.0706026,3.92559,2.27436,4.05366,-1.78686,1.88689,-0.223508,-0.241578,0.602487,-0.150577,0.146487,-0.65987,-0.923717,0.0877842,
0.0190479,-0.0527574,0.510274,-1.56709,-0.135084,-0.177481,0.531624,-0.0279016,0.00750524,-0.028663,-0.0133875,-0.423373,-0.617774,-0.00244444,0,0,0,0,0,0,0,0.0223154,-0.0543442,0.51349,-1.56568,0.00113682,1.54521,1.31794,0.00577663,0.000262882,0.000761561,0.0291699,-0.60693,-0.469395,0.000864733,-1.21045,-26.8575,-2.01048,25.2094,-0.780338,1.24962,0.0706026,3.85275,1.56533,4.5739,-1.298,1.71418,-0.538265,-0.572336,0.44779,-0.462911,0.225121,-0.768055,-1.08123,0.0866988,
0.0189341,-0.0527305,0.510157,-1.56715,-0.136656,-0.179831,0.531614,-0.0284524,0.00672202,-0.0292112,-0.0143433,-0.393075,-0.587479,-0.00250105,0,0,0,0,0,0,0,0.0225295,-0.0545397,0.513617,-1.56535,-0.0168144,1.52847,1.31794,-0.000471151,-0.00611965,0.00204603,-0.000796443,-0.534036,-0.537613,-0.000346688,-1.05969,-26.8099,-1.93511,26.1298,-0.145878,1.26244,0.0779268,3.85275,1.56533,4.5739,-1.298,1.71418,-0.538265,-0.572336,0.44779,-0.462911,0.225121,-0.768055,-1.08123,0.0866988,
0.0188176,-0.0527069,0.510037,-1.56721,-0.138094,-0.182036,0.531603,-0.0291106,0.00590455,-0.0298651,-0.0155585,-0.35949,-0.551409,-0.00259011,0,0,0,0,0,0,0,0.0225295,-0.0545397,0.513617,-1.56535,-0.0168144,1.52847,1.31794,-0.000471151,-0.00611965,0.00204603,-0.000796443,-0.534036,-0.537613,-0.000346688,-1.05969,-26.8099,-1.93511,26.1298,-0.145878,1.26244,0.0779268,2.66432,1.47344,4.65211,-1.28231,1.01995,-0.25805,-0.302855,0.149301,-0.171756,0.13386,-0.708811,-1.31708,0.0841318,
0.0186981,-0.0526866,0.509915,-1.56728,-0.139384,-0.18407,0.531592,-0.0298764,0.00506513,-0.0306248,-0.0170801,-0.322347,-0.50847,-0.00272174,0,0,0,0,0,0,0,0.0225295,-0.0545397,0.513617,-1.56535,-0.0168144,1.52847,1.31794,-0.000471151,-0.00611965,0.00204603,-0.000796443,-0.534036,-0.537613,-0.000346688,-1.05969,-26.8099,-1.93511,26.1298,-0.145878,1.26244,0.0779268,2.58511,0.767149,4.46902,-1.03864,1.14282,-0.568308,-0.608902,0.298257,-0.48666,-0.121775,-0.86566,-1.5435,0.07972,
0.0185752,-0.0526697,0.509789,-1.56735,-0.14051,-0.1859,0.531581,-0.0307393,0.00422565,-0.0314797,-0.0189573,-0.281458,-0.457395,-0.00290669,0,0,0,0,0,0,0,0.0225295,-0.0545397,0.513617,-1.56535,-0.0168144,1.52847,1.31794,-0.000471151,-0.00611965,0.00204603,-0.000796443,-0.534036,-0.537613,-0.000346688,-1.05969,-26.8099,-1.93511,26.1298,-0.145878,1.26244,0.0779268,2.58511,0.767149,4.46902,-1.03864,1.14282,-0.568308,-0.608902,0.298257,-0.48666,-0.121775,-0.86566,-1.5435,0.07972,
0.0184485,-0.052656,0.509659,-1.56744,-0.141457,-0.187487,0.531569,-0.0316691,0.00342923,-0.0324003,-0.0212255,-0.236795,-0.396758,-0.00305336,0,0,0,0,0,0,0,0.0225295,-0.0545397,0.513617,-1.56535,-0.0168144,1.52847,1.31794,-0.000471151,-0.00611965,0.00204603,-0.000796443,-0.534036,-0.537613,-0.000346688,-1.05969,-26.8099,-1.93511,26.1298,-0.145878,1.26244,0.0779268,2.89094,0.389195,4.24684,-0.922488,1.46833,-0.833233,-0.858324,0.522658,-0.765713,-0.287773,-0.963792,-1.61504,0.0807663,
0.0183182,-0.0526449,0.509526,-1.56753,-0.142211,-0.188787,0.531563,-0.0325859,0.00277902,-0.0333211,-0.023843,-0.188646,-0.325094,-0.00142437,0,0,0,0,0,0,0,0.0225295,-0.0545397,0.513617,-1.56535,-0.0168144,1.52847,1.31794,-0.000471151,-0.00611965,0.00204603,-0.000796443,-0.534036,-0.537613,-0.000346688,-1.05969,-26.8099,-1.93511,26.1298,-0.145878,1.26244,0.0779268,2.89094,0.389195,4.24684,-0.922488,1.46833,-0.833233,-0.858324,0.522658,-0.765713,-0.287773,-0.963792,-1.61504,0.0807663,
0.0181911,-0.052627,0.509396,-1.56762,-0.142821,-0.189867,0.531558,-0.0317522,0.00446334,-0.0325878,-0.0215531,-0.152293,-0.269939,-0.00127511,0,0,0,0,0,0,0,0.0224835,-0.0545838,0.51358,-1.56538,-0.032293,1.51258,1.31793,-0.00422481,-0.00450782,-0.00266126,0.00118738,-0.413719,-0.482344,-0.00149202,-0.40112,-27.0082,-1.53838,26.2805,-0.151371,1.28899,0.110886,3.42031,0.645572,3.72704,-1.21933,2.18399,-0.871716,-0.875334,1.0673,-0.813903,-0.637816,-0.887483,-1.7082,0.0796976,
0.0180702,-0.0526018,0.509271,-1.56769,-0.143315,-0.190768,0.531553,-0.0302241,0.00630298,-0.0311309,-0.0182813,-0.123634,-0.225254,-0.00131553,0,0,0,0,0,0,0,0.0224835,-0.0545838,0.51358,-1.56538,-0.032293,1.51258,1.31793,-0.00422481,-0.00450782,-0.00266126,0.00118738,-0.413719,-0.482344,-0.00149202,-0.40112,-27.0082,-1.53838,26.2805,-0.151371,1.28899,0.110886,3.42031,0.645572,3.72704,-1.21933,2.18399,-0.871716,-0.875334,1.0673,-0.813903,-0.637816,-0.887483,-1.7082,0.0796976,
0.0179566,-0.0525708,0.509154,-1.56775,-0.143717,-0.191521,0.531547,-0.028402,0.00774916,-0.0293541,-0.015121,-0.100506,-0.1883,-0.00139012,0,0,0,0,0,0,0,0.0224835,-0.0545838,0.51358,-1.56538,-0.032293,1.51258,1.31793,-0.00422481,-0.00450782,-0.00266126,0.00118738,-0.413719,-0.482344,-0.00149202,-0.40112,-27.0082,-1.53838,26.2805,-0.151371,1.28899,0.110886,2.24342,0.51585,3.6752,-1.00929,1.42841,-0.602913,-0.586515,0.700232,-0.573329,-0.574613,-0.721917,-1.74076,0.076066,
0.0178508,-0.0525359,0.509044,-1.5678,-0.144043,-0.192151,0.531541,-0.0264719,0.00873016,-0.027451,-0.0123246,-0.0815629,-0.157494,-0.00146842,0,0,0,0,0,0,0,0.0224835,-0.0545838,0.51358,-1.56538,-0.032293,1.51258,1.31793,-0.00422481,-0.00450782,-0.00266126,0.00118738,-0.413719,-0.482344,-0.00149202,-0.40112,-27.0082,-1.53838,26.2805,-0.151371,1.28899,0.110886,1.22153,0.301469,3.89272,-0.698792,0.569994,-0.412819,-0.388948,0.177014,-0.40292,-0.333074,-0.639835,-1.68617,0.073927,
0.0177526,-0.0524987,0.508942,-1.56784,-0.144307,-0.192678,0.531535,-0.024533,0.00930207,-0.0255267,-0.00990662,-0.065875,-0.131726,-0.00154222,0,0,0,0,0,0,0,0.0224835,-0.0545838,0.51358,-1.56538,-0.032293,1.51258,1.31793,-0.00422481,-0.00450782,-0.00266126,0.00118738,-0.413719,-0.482344,-0.00149202,-0.40112,-27.0082,-1.53838,26.2805,-0.151371,1.28899,0.110886,1.22153,0.301469,3.89272,-0.698792,0.569994,-0.412819,-0.388948,0.177014,-0.40292,-0.333074,-0.639835,-1.68617,0.073927,
0.017662,-0.0524605,0.508847,-1.56787,-0.144518,-0.193119,0.531529,-0.0226427,0.00954511,-0.023643,-0.00782314,-0.0527607,-0.110138,-0.00160924,0,0,0,0,0,0,0,0.0220904,-0.0546381,0.513282,-1.56548,-0.0478535,1.49538,1.31793,-0.014524,0.000843494,-0.00970335,-0.0017232,-0.300597,-0.326926,-3.82281e-05,0.182071,-27.7342,-0.911547,26.7526,0.624081,2.03148,0.110886,1.03569,0.469378,3.5864,-0.84591,0.586284,-0.283981,-0.252992,0.257312,-0.276332,-0.446714,-0.573365,-1.69328,0.0698364,
0.0175787,-0.0524224,0.50876,-1.5679,-0.144685,-0.193487,0.531522,-0.0208351,0.00953449,-0.021837,-0.00602291,-0.0417068,-0.0920297,-0.00166909,0,0,0,0,0,0,0,0.0220904,-0.0546381,0.513282,-1.56548,-0.0478535,1.49538,1.31793,-0.014524,0.000843494,-0.00970335,-0.0017232,-0.300597,-0.326926,-3.82281e-05,0.182071,-27.7342,-0.911547,26.7526,0.624081,2.03148,0.110886,1.03569,0.469378,3.5864,-0.84591,0.586284,-0.283981,-0.252992,0.257312,-0.276332,-0.446714,-0.573365,-1.69328,0.0698364,
-0.00588981,-0.0420342,0.48392,-1.58017,-0.161177,-0.216918,0.519497,-0.2033,0.10717,-0.21291,-0.0973446,-1.24244,-1.31985,-0.0582317,0,0,0,0,0,0,0,0.0220904,-0.0546381,0.513282,-1.56548,-0.0478535,1.49538,1.31793,-0.014524,0.000843494,-0.00970335,-0.0017232,-0.300597,-0.326926,-3.82281e-05,0.182071,-27.7342,-0.911547,26.7526,0.624081,2.03148,0.110886,1.10428,0.607082,3.39838,-0.829439,0.676787,-0.240365,-0.202213,0.323562,-0.243078,-0.41803,-0.448216,-1.58152,0.072936,
-0.000231711,-0.0468757,0.489876,-1.57592,-0.226693,-0.19578,0.525804,-0.167689,0.056341,-0.174303,-0.0673897,-0.941725,0.0332163,-0.0213745,0,0,0,0,0,0,0,0.0220904,-0.0546381,0.513282,-1.56548,-0.0478535,1.49538,1.31793,-0.014524,0.000843494,-0.00970335,-0.0017232,-0.300597,-0.326926,-3.82281e-05,0.182071,-27.7342,-0.911547,26.7526,0.624081,2.03148,0.110886,1.04815,1.35584,3.84688,-0.901357,0.256121,0.142203,0.185788,-0.0821845,0.12478,0.103435,-0.21773,-1.20019,0.0635344,
-0.00090972,-0.0466567,0.489171,-1.57619,-0.230203,-0.195453,0.525722,-0.169502,0.0547679,-0.176152,-0.0662364,-0.877451,0.0816598,-0.0205805,0,0,0,0,0,0,0,0.0220904,-0.0546381,0.513282,-1.56548,-0.0478535,1.49538,1.31793,-0.014524,0.000843494,-0.00970335,-0.0017232,-0.300597,-0.326926,-3.82281e-05,0.182071,-27.7342,-0.911547,26.7526,0.624081,2.03148,0.110886,1.04815,1.35584,3.84688,-0.901357,0.256121,0.142203,0.185788,-0.0821845,0.12478,0.103435,-0.21773,-1.20019,0.0635344,
-0.00159461,-0.0464441,0.48846,-1.57645,-0.233434,-0.194927,0.525643,-0.171223,0.0531326,-0.177906,-0.0651174,-0.807645,0.131617,-0.0198183,0,0,0,0,0,0,0,0.0220904,-0.0546381,0.513282,-1.56548,-0.0478535,1.49538,1.31793,-0.014524,0.000843494,-0.00970335,-0.0017232,-0.300597,-0.326926,-3.82281e-05,0.182071,-27.7342,-0.911547,26.7526,0.624081,2.03148,0.110886,0.59267,3.99024,3.9013,-2.28731,-0.228639,1.48027,1.5296,-0.402775,1.48433,0.461087,0.240412,-0.779879,0.0646353,
-0.00228605,-0.0462385,0.487741,-1.5767,-0.236362,-0.194194,0.525567,-0.172859,0.0514167,-0.179571,-0.0640476,-0.732065,0.183236,-0.0190886,0,0,0,0,0,0,0,0.0213909,-0.0545759,0.512517,-1.56582,-0.0583145,1.48331,1.31782,-0.0315216,0.00612423,-0.0450297,0.00554657,-0.588552,-0.584935,-0.0126995,-4.53503,-25.4848,-5.5612,22.9916,-0.85358,2.11114,0.0303194,0.59267,3.99024,3.9013,-2.28731,-0.228639,1.48027,1.5296,-0.402775,1.48433,0.461087,0.240412,-0.779879,0.0646353,
-0.00298375,-0.0460401,0.487017,-1.57696,-0.238963,-0.193247,0.525493,-0.174426,0.0496034,-0.181161,-0.0630354,-0.650322,0.236645,-0.0183997,0,0,0,0,0,0,0,0.0213909,-0.0545759,0.512517,-1.56582,-0.0583145,1.48331,1.31782,-0.0315216,0.00612423,-0.0450297,0.00554657,-0.588552,-0.584935,-0.0126995,-4.53503,-25.4848,-5.5612,22.9916,-0.85358,2.11114,0.0303194,-0.242387,6.14185,2.27467,-3.7676,-0.191165,2.69943,2.74319,-0.0710549,2.74818,0.058118,0.732784,-0.537762,0.0621205,
-0.00368752,-0.0458494,0.486286,-1.5772,-0.241211,-0.192079,0.525422,-0.175944,0.0476779,-0.182691,-0.0620849,-0.561908,0.291951,-0.0177502,0,0,0,0,0,0,0,0.0213909,-0.0545759,0.512517,-1.56582,-0.0583145,1.48331,1.31782,-0.0315216,0.00612423,-0.0450297,0.00554657,-0.588552,-0.584935,-0.0126995,-4.53503,-25.4848,-5.5612,22.9916,-0.85358,2.11114,0.0303194,0.175877,3.03486,1.98982,-1.87131,-0.00119701,1.20784,1.24613,-0.0406118,1.21689,0.0486733,0.274381,-0.548359,0.0370308,
-0.00439722,-0.0456668,0.485549,-1.57745,-0.243076,-0.190683,0.525353,-0.177424,0.0456292,-0.184176,-0.0611957,-0.466236,0.349212,-0.0171515,0,0,0,0,0,0,0,0.0213909,-0.0545759,0.512517,-1.56582,-0.0583145,1.48331,1.31782,-0.0315216,0.00612423,-0.0450297,0.00554657,-0.588552,-0.584935,-0.0126995,-4.53503,-25.4848,-5.5612,22.9916,-0.85358,2.11114,0.0303194,0.175877,3.03486,1.98982,-1.87131,-0.00119701,1.20784,1.24613,-0.0406118,1.21689,0.0486733,0.274381,-0.548359,0.0370308,
-0.0051127,-0.045493,0.484807,-1.57769,-0.244527,-0.189049,0.525287,-0.17887,0.0434525,-0.185617,-0.0603607,-0.362707,0.408397,-0.0166088,0,0,0,0,0,0,0,0.0213909,-0.0545759,0.512517,-1.56582,-0.0583145,1.48331,1.31782,-0.0315216,0.00612423,-0.0450297,0.00554657,-0.588552,-0.584935,-0.0126995,-4.53503,-25.4848,-5.5612,22.9916,-0.85358,2.11114,0.0303194,3.48054,1.35721,1.79329,-1.11958,2.0201,-0.412206,-0.365393,0.875697,-0.420606,-0.0318566,-0.416994,-0.334169,0.0237003,
-0.00583375,-0.0453284,0.484059,-1.57793,-0.24553,-0.187172,0.525222,-0.180262,0.0411539,-0.186996,-0.0595626,-0.250823,0.469329,-0.0161312,0,0,0,0,0,0,0,0.0204696,-0.0548626,0.511392,-1.5669,-0.0851376,1.46793,1.3174,-0.0339472,-0.0148982,-0.0422656,-0.048,-0.767265,-0.409186,-0.0125085,-3.64636,-25.0881,-4.75981,26.1575,-0.212711,3.96783,0.0980684,3.48054,1.35721,1.79329,-1.11958,2.0201,-0.412206,-0.365393,0.875697,-0.420606,-0.0318566,-0.416994,-0.334169,0.0237003,
-0.0065599,-0.0451734,0.483306,-1.57816,-0.246051,-0.185045,0.525159,-0.181539,0.0387584,-0.188249,-0.0587641,-0.130393,0.531563,-0.0157247,0,0,0,0,0,0,0,0.0204696,-0.0548626,0.511392,-1.5669,-0.0851376,1.46793,1.3174,-0.0339472,-0.0148982,-0.0422656,-0.048,-0.767265,-0.409186,-0.0125085,-3.64636,-25.0881,-4.75981,26.1575,-0.212711,3.96783,0.0980684,3.96323,2.07479,1.13101,-1.64469,2.48373,-0.184634,-0.148888,1.18364,-0.167336,-0.138203,-0.340841,-0.110275,0.0168408,
-0.00729014,-0.0450281,0.482549,-1.57839,-0.246059,-0.182669,0.525098,-0.182558,0.0363239,-0.189238,-0.0578905,-0.0018986,0.594202,-0.0154171,0,0,0,0,0,0,0,0.0204696,-0.0548626,0.511392,-1.5669,-0.0851376,1.46793,1.3174,-0.0339472,-0.0148982,-0.0422656,-0.048,-0.767265,-0.409186,-0.0125085,-3.64636,-25.0881,-4.75981,26.1575,-0.212711,3.96783,0.0980684,3.96323,2.07479,1.13101,-1.64469,2.48373,-0.184634,-0.148888,1.18364,-0.167336,-0.138203,-0.340841,-0.110275,0.0168408,
-0.00802232,-0.0448922,0.48179,-1.57862,-0.245528,-0.180046,0.525037,-0.183045,0.0339649,-0.189692,-0.0568009,0.132878,0.655583,-0.0152309,0,0,0,0,0,0,0,0.0204696,-0.0548626,0.511392,-1.5669,-0.0851376,1.46793,1.3174,-0.0339472,-0.0148982,-0.0422656,-0.048,-0.767265,-0.409186,-0.0125085,-3.64636,-25.0881,-4.75981,26.1575,-0.212711,3.96783,0.0980684,3.18837,2.88738,1.27227,-1.98341,1.75972,0.435411,0.464709,0.718292,0.46268,0.152454,-0.169039,0.098665,0.000354618,
-0.00875231,-0.0447647,0.481034,-1.57884,-0.244448,-0.177195,0.524976,-0.182498,0.0318893,-0.189117,-0.0552388,0.269851,0.71281,-0.0152289,0,0,0,0,0,0,0,0.0204696,-0.0548626,0.511392,-1.5669,-0.0851376,1.46793,1.3174,-0.0339472,-0.0148982,-0.0422656,-0.048,-0.767265,-0.409186,-0.0125085,-3.64636,-25.0881,-4.75981,26.1575,-0.212711,3.96783,0.0980684,3.69585,1.54124,1.81902,-1.06408,1.64345,-0.27061,-0.242017,0.423276,-0.267313,0.507118,-0.511793,0.227409,-0.0120064,
-0.00947256,-0.0446429,0.480287,-1.57905,-0.242843,-0.17415,0.524914,-0.180063,0.0304522,-0.186673,-0.0527568,0.401213,0.761129,-0.015528,0,0,0,0,0,0,0,0.0204696,-0.0548626,0.511392,-1.5669,-0.0851376,1.46793,1.3174,-0.0339472,-0.0148982,-0.0422656,-0.048,-0.767265,-0.409186,-0.0125085,-3.64636,-25.0881,-4.75981,26.1575,-0.212711,3.96783,0.0980684,3.69585,1.54124,1.81902,-1.06408,1.64345,-0.27061,-0.242017,0.423276,-0.267313,0.507118,-0.511793,0.227409,-0.0120064,
-0.0101701,-0.0445219,0.479563,-1.57925,-0.240788,-0.170978,0.524848,-0.174397,0.0302404,-0.181031,-0.0485805,0.513799,0.793214,-0.0164015,0,0,0,0,0,0,0,0.0186205,-0.0554154,0.508965,-1.56911,-0.105287,1.45886,1.31727,-0.0831538,-0.0084162,-0.0952052,-0.0771802,-0.421921,-0.200002,-0.000849393,-2.53155,-26.0362,-3.53789,27.2763,-0.829777,3.62359,0.017502,4.2733,0.160136,1.83597,-0.273871,1.93493,-1.03598,-1.00544,0.516056,-1.0524,0.507429,-0.803824,0.205316,-0.0151811,
-0.0108243,-0.0443928,0.478882,-1.57941,-0.238437,-0.167785,0.524774,-0.163529,0.0322831,-0.170233,-0.0412077,0.5877,0.798132,-0.0184582,0,0,0,0,0,0,0,0.0186205,-0.0554154,0.508965,-1.56911,-0.105287,1.45886,1.31727,-0.0831538,-0.0084162,-0.0952052,-0.0771802,-0.421921,-0.200002,-0.000849393,-2.53155,-26.0362,-3.53789,27.2763,-0.829777,3.62359,0.017502,4.2733,0.160136,1.83597,-0.273871,1.93493,-1.03598,-1.00544,0.516056,-1.0524,0.507429,-0.803824,0.205316,-0.0151811,
-0.0114025,-0.0442374,0.478276,-1.57952,-0.236059,-0.164754,0.524686,-0.144552,0.038849,-0.151375,-0.0268593,0.594653,0.757822,-0.0221887,0,0,0,0,0,0,0,0.0186205,-0.0554154,0.508965,-1.56911,-0.105287,1.45886,1.31727,-0.0831538,-0.0084162,-0.0952052,-0.0771802,-0.421921,-0.200002,-0.000849393,-2.53155,-26.0362,-3.53789,27.2763,-0.829777,3.62359,0.017502,4.27991,-0.0134697,1.50045,-0.141824,2.12473,-1.11282,-1.07854,0.702446,-1.13677,0.37814,-0.704685,0.193923,-0.0178971,
-0.0118523,-0.0440115,0.4778,-1.5795,-0.234094,-0.162225,0.524633,-0.112455,0.0564677,-0.119066,0.00629723,0.491262,0.632147,-0.0132448,0,0,0,0,0,0,0,0.0186205,-0.0554154,0.508965,-1.56911,-0.105287,1.45886,1.31727,-0.0831538,-0.0084162,-0.0952052,-0.0771802,-0.421921,-0.200002,-0.000849393,-2.53155,-26.0362,-3.53789,27.2763,-0.829777,3.62359,0.017502,4.63398,-0.399787,0.262757,-0.0241164,2.93427,-1.36946,-1.33356,1.39442,-1.3943,-0.112336,-0.570286,0.185414,-0.0246067,
-0.0122202,-0.0437859,0.477409,-1.57945,-0.232381,-0.160006,0.524579,-0.0919763,0.0563981,-0.0978097,0.0107766,0.428065,0.554738,-0.0134102,0,0,0,0,0,0,0,0.0186205,-0.0554154,0.508965,-1.56911,-0.105287,1.45886,1.31727,-0.0831538,-0.0084162,-0.0952052,-0.0771802,-0.421921,-0.200002,-0.000849393,-2.53155,-26.0362,-3.53789,27.2763,-0.829777,3.62359,0.017502,4.63398,-0.399787,0.262757,-0.0241164,2.93427,-1.36946,-1.33356,1.39442,-1.3943,-0.112336,-0.570286,0.185414,-0.0246067,
-0.0125298,-0.0435798,0.477078,-1.57942,-0.23083,-0.15801,0.524524,-0.0774027,0.051532,-0.0826567,0.00796585,0.387887,0.498963,-0.0138165,0,0,0,0,0,0,0,0.0153184,-0.0557315,0.505101,-1.57164,-0.109808,1.4578,1.3172,-0.106686,0.00193666,-0.1417,-0.0587955,0.0130837,0.0353906,0.00065385,-1.05969,-26.4607,-2.11363,26.3281,0.269772,3.21252,-0.0429228,1.68649,-0.822857,-0.0078027,0.356571,0.994568,-0.77116,-0.743843,0.432688,-0.801235,-0.0140703,-0.369233,0.104412,-0.0276066,
-0.0127956,-0.0433966,0.476793,-1.5794,-0.229381,-0.156189,0.524467,-0.0664537,0.0458052,-0.0712935,0.00404316,0.362216,0.45543,-0.0140683,0,0,0,0,0,0,0,0.0153184,-0.0557315,0.505101,-1.57164,-0.109808,1.4578,1.3172,-0.106686,0.00193666,-0.1417,-0.0587955,0.0130837,0.0353906,0.00065385,-1.05969,-26.4607,-2.11363,26.3281,0.269772,3.21252,-0.0429228,1.68649,-0.822857,-0.0078027,0.356571,0.994568,-0.77116,-0.743843,0.432688,-0.801235,-0.0140703,-0.369233,0.104412,-0.0276066,
-0.0130275,-0.043235,0.476543,-1.5794,-0.227996,-0.154508,0.524411,-0.0579693,0.0403773,-0.0625148,0.000604107,0.346144,0.420281,-0.0142282,0,0,0,0,0,0,0,0.0153184,-0.0557315,0.505101,-1.57164,-0.109808,1.4578,1.3172,-0.106686,0.00193666,-0.1417,-0.0587955,0.0130837,0.0353906,0.00065385,-1.05969,-26.4607,-2.11363,26.3281,0.269772,3.21252,-0.0429228,0.992341,-0.340916,0.504796,0.334694,0.344473,-0.37899,-0.357247,0.0117619,-0.411342,0.276664,-0.137899,0.159602,-0.0220323,
-0.0132325,-0.0430929,0.476321,-1.57941,-0.22665,-0.152941,0.524353,-0.051258,0.0355454,-0.0555946,-0.00208478,0.336548,0.39153,-0.0143369,0,0,0,0,0,0,0,0.0153184,-0.0557315,0.505101,-1.57164,-0.109808,1.4578,1.3172,-0.106686,0.00193666,-0.1417,-0.0587955,0.0130837,0.0353906,0.00065385,-1.05969,-26.4607,-2.11363,26.3281,0.269772,3.21252,-0.0429228,0.992341,-0.340916,0.504796,0.334694,0.344473,-0.37899,-0.357247,0.0117619,-0.411342,0.276664,-0.137899,0.159602,-0.0220323,
-0.013416,-0.0429675,0.47612,-1.57943,-0.225325,-0.15147,0.524296,-0.0458633,0.0313406,-0.0500512,-0.00410463,0.331326,0.367903,-0.0144145,0,0,0,0,0,0,0,0.0153184,-0.0557315,0.505101,-1.57164,-0.109808,1.4578,1.3172,-0.106686,0.00193666,-0.1417,-0.0587955,0.0130837,0.0353906,0.00065385,-1.05969,-26.4607,-2.11363,26.3281,0.269772,3.21252,-0.0429228,0.868101,0.814043,-0.539337,-0.555822,0.758198,0.191892,0.215481,0.473058,0.184444,-0.138127,0.108713,0.185611,-0.0264887,
-0.0135818,-0.0428566,0.475938,-1.57945,-0.224009,-0.150076,0.524238,-0.0414658,0.0277154,-0.0455474,-0.00559862,0.329032,0.348457,-0.0144715,0,0,0,0,0,0,0,0.0115891,-0.0548775,0.500339,-1.5726,-0.109507,1.45977,1.31714,-0.118086,0.032899,-0.145306,-0.00101194,-0.0194848,0.0386721,-0.00478209,1.07074,-27.758,0.0366345,26.0544,1.09466,2.97997,0.0303194,0.868101,0.814043,-0.539337,-0.555822,0.758198,0.191892,0.215481,0.473058,0.184444,-0.138127,0.108713,0.185611,-0.0264887,
-0.0277446,-0.031571,0.460983,-1.58678,-0.223072,-0.272345,0.513904,-0.338314,0.174517,-0.353626,-0.14032,-1.23312,-1.11818,-0.0751115,0,0,0,0,0,0,0,0.0115891,-0.0548775,0.500339,-1.5726,-0.109507,1.45977,1.31714,-0.118086,0.032899,-0.145306,-0.00101194,-0.0194848,0.0386721,-0.00478209,1.07074,-27.758,0.0366345,26.0544,1.09466,2.97997,0.0303194,0.326745,1.56684,-1.59301,-1.2046,0.94591,0.673402,0.699319,0.844867,0.684468,-0.605648,0.340649,0.105139,-0.0262017,
-0.0224786,-0.0413204,0.464777,-1.58422,-0.227286,-0.168922,0.523023,-0.200827,0.0767167,-0.208739,-0.0658861,-0.107529,-0.228739,-0.0326773,0,0,0,0,0,0,0,0.0115891,-0.0548775,0.500339,-1.5726,-0.109507,1.45977,1.31714,-0.118086,0.032899,-0.145306,-0.00101194,-0.0194848,0.0386721,-0.00478209,1.07074,-27.758,0.0366345,26.0544,1.09466,2.97997,0.0303194,-0.538146,1.3922,-1.57451,-1.05511,0.515236,0.791238,0.820029,0.700655,0.794428,-0.704732,0.460374,-0.088134,-0.0249196,
-0.0232826,-0.0410197,0.463941,-1.58448,-0.227424,-0.169743,0.522895,-0.200991,0.0751769,-0.208901,-0.0652841,-0.0345591,-0.20519,-0.0319602,0,0,0,0,0,0,0,0.0115891,-0.0548775,0.500339,-1.5726,-0.109507,1.45977,1.31714,-0.118086,0.032899,-0.145306,-0.00101194,-0.0194848,0.0386721,-0.00478209,1.07074,-27.758,0.0366345,26.0544,1.09466,2.97997,0.0303194,-0.538146,1.3922,-1.57451,-1.05511,0.515236,0.791238,0.820029,0.700655,0.794428,-0.704732,0.460374,-0.088134,-0.0249196,
-0.0240875,-0.0407257,0.463104,-1.58474,-0.22725,-0.170465,0.52277,-0.201232,0.0735034,-0.209136,-0.0646885,0.0435833,-0.180415,-0.0312639,0,0,0,0,0,0,0,0.0115891,-0.0548775,0.500339,-1.5726,-0.109507,1.45977,1.31714,-0.118086,0.032899,-0.145306,-0.00101194,-0.0194848,0.0386721,-0.00478209,1.07074,-27.758,0.0366345,26.0544,1.09466,2.97997,0.0303194,-2.31027,2.78541,-0.791647,-1.75627,-0.939799,1.87948,1.91503,-0.162601,1.88703,-0.372918,0.700645,-0.145246,-0.027587,
-0.0248938,-0.0404389,0.462267,-1.585,-0.22674,-0.171082,0.522647,-0.201565,0.0716857,-0.20946,-0.0641101,0.12755,-0.154279,-0.0305875,0,0,0,0,0,0,0,0.0115891,-0.0548775,0.500339,-1.5726,-0.109507,1.45977,1.31714,-0.118086,0.032899,-0.145306,-0.00101194,-0.0194848,0.0386721,-0.00478209,1.07074,-27.758,0.0366345,26.0544,1.09466,2.97997,0.0303194,-2.31027,2.78541,-0.791647,-1.75627,-0.939799,1.87948,1.91503,-0.162601,1.88703,-0.372918,0.700645,-0.145246,-0.027587,
-0.0257018,-0.0401601,0.461427,-1.58525,-0.225868,-0.171588,0.522528,-0.202004,0.0697138,-0.209887,-0.0635624,0.218043,-0.126619,-0.0299403,0,0,0,0,0,0,0,0.0058417,-0.0533552,0.494077,-1.57257,-0.115685,1.46093,1.31677,-0.152585,0.0266581,-0.157106,-0.0202648,-0.298309,-0.0405978,-0.0210131,-1.97216,-26.5599,-3.03801,25.1102,-0.652164,2.05163,-0.0301054,-3.34993,4.12959,-1.50615,-2.76428,-1.30927,2.76809,2.78503,-0.184374,2.8215,-0.640582,0.912918,-0.168909,-0.0280018,
-0.026512,-0.0398898,0.460585,-1.58551,-0.224604,-0.171977,0.52241,-0.202558,0.0675787,-0.210427,-0.0630635,0.315785,-0.0972294,-0.029324,0,0,0,0,0,0,0,0.0058417,-0.0533552,0.494077,-1.57257,-0.115685,1.46093,1.31677,-0.152585,0.0266581,-0.157106,-0.0202648,-0.298309,-0.0405978,-0.0210131,-1.97216,-26.5599,-3.03801,25.1102,-0.652164,2.05163,-0.0301054,0.123216,2.38227,-1.10561,-1.77319,1.00193,1.05519,1.08393,0.965998,1.07778,-0.816513,0.465721,-0.273437,-0.0341651,
-0.0273249,-0.0396287,0.459741,-1.58576,-0.222918,-0.17224,0.522295,-0.203229,0.0652733,-0.211081,-0.0626369,0.421479,-0.0658603,-0.0287457,0,0,0,0,0,0,0,0.0058417,-0.0533552,0.494077,-1.57257,-0.115685,1.46093,1.31677,-0.152585,0.0266581,-0.157106,-0.0202648,-0.298309,-0.0405978,-0.0210131,-1.97216,-26.5599,-3.03801,25.1102,-0.652164,2.05163,-0.0301054,0.123216,2.38227,-1.10561,-1.77319,1.00193,1.05519,1.08393,0.965998,1.07778,-0.816513,0.465721,-0.273437,-0.0341651,
-0.0281409,-0.0393775,0.458894,-1.586,-0.220776,-0.172369,0.522182,-0.204001,0.0627955,-0.211834,-0.0623124,0.535724,-0.0322065,-0.0282196,0,0,0,0,0,0,0,0.0058417,-0.0533552,0.494077,-1.57257,-0.115685,1.46093,1.31677,-0.152585,0.0266581,-0.157106,-0.0202648,-0.298309,-0.0405978,-0.0210131,-1.97216,-26.5599,-3.03801,25.1102,-0.652164,2.05163,-0.0301054,1.12343,0.898101,-0.583332,-0.927516,1.52183,0.107502,0.152871,1.15084,0.0969205,-0.81433,0.10236,-0.450061,-0.0452317,
-0.0289581,-0.0391359,0.458045,-1.58625,-0.218162,-0.172354,0.522071,-0.204296,0.0603964,-0.212161,-0.0619826,0.65339,0.00377667,-0.0277485,0,0,0,0,0,0,0,0.0058417,-0.0533552,0.494077,-1.57257,-0.115685,1.46093,1.31677,-0.152585,0.0266581,-0.157106,-0.0202648,-0.298309,-0.0405978,-0.0210131,-1.97216,-26.5599,-3.03801,25.1102,-0.652164,2.05163,-0.0301054,1.12343,0.898101,-0.583332,-0.927516,1.52183,0.107502,0.152871,1.15084,0.0969205,-0.81433,0.10236,-0.450061,-0.0452317,
-0.0297627,-0.0388986,0.457208,-1.5865,-0.215188,-0.17219,0.521962,-0.201131,0.0593315,-0.209305,-0.0610343,0.743539,0.0409977,-0.0273254,0,0,0,0,0,0,0,0.000929902,-0.0527826,0.488867,-1.57326,-0.119061,1.46021,1.31659,-0.146704,0.0238975,-0.185325,-0.0157873,0.0164123,-0.00322669,0.000691792,-0.702633,-27.5319,-1.63756,25.3839,-0.109257,1.74035,-0.083206,1.23738,-1.0303,-0.496964,0.228001,1.63381,-0.830695,-0.792316,1.22311,-0.860309,-0.92227,-0.154796,-0.670625,-0.0503275,
-0.0305463,-0.0386648,0.456391,-1.58674,-0.211934,-0.171862,0.521854,-0.195906,0.0584352,-0.204269,-0.0607159,0.813425,0.0820022,-0.0270899,0,0,0,0,0,0,0,0.000929902,-0.0527826,0.488867,-1.57326,-0.119061,1.46021,1.31659,-0.146704,0.0238975,-0.185325,-0.0157873,0.0164123,-0.00322669,0.000691792,-0.702633,-27.5319,-1.63756,25.3839,-0.109257,1.74035,-0.083206,1.23738,-1.0303,-0.496964,0.228001,1.63381,-0.830695,-0.792316,1.22311,-0.860309,-0.92227,-0.154796,-0.670625,-0.0503275,
-0.0313035,-0.0384356,0.4556,-1.58698,-0.208462,-0.171351,0.521745,-0.189302,0.0573096,-0.197758,-0.0611998,0.868006,0.127913,-0.0270641,0,0,0,0,0,0,0,0.000929902,-0.0527826,0.488867,-1.57326,-0.119061,1.46021,1.31659,-0.146704,0.0238975,-0.185325,-0.0157873,0.0164123,-0.00322669,0.000691792,-0.702633,-27.5319,-1.63756,25.3839,-0.109257,1.74035,-0.083206,0.00767926,-0.285659,-0.267115,-0.275783,0.74364,-0.180264,-0.146755,0.74193,-0.192669,-0.854577,-0.0904286,-0.763409,-0.0537498,
-0.0320303,-0.0382123,0.454839,-1.58723,-0.204819,-0.170634,0.521636,-0.181704,0.0558266,-0.190177,-0.0623525,0.910763,0.179017,-0.0273122,0,0,0,0,0,0,0,0.000929902,-0.0527826,0.488867,-1.57326,-0.119061,1.46021,1.31659,-0.146704,0.0238975,-0.185325,-0.0157873,0.0164123,-0.00322669,0.000691792,-0.702633,-27.5319,-1.63756,25.3839,-0.109257,1.74035,-0.083206,-0.33083,-0.863681,0.166063,0.163189,0.306904,-0.368207,-0.341127,0.417648,-0.387032,-0.667874,-0.179448,-0.797429,-0.0533392,
-0.0327234,-0.0379963,0.454112,-1.58749,-0.201043,-0.169697,0.521524,-0.173282,0.0539949,-0.181695,-0.0638769,0.944095,0.234386,-0.0279997,0,0,0,0,0,0,0,0.000929902,-0.0527826,0.488867,-1.57326,-0.119061,1.46021,1.31659,-0.146704,0.0238975,-0.185325,-0.0157873,0.0164123,-0.00322669,0.000691792,-0.702633,-27.5319,-1.63756,25.3839,-0.109257,1.74035,-0.083206,-0.33083,-0.863681,0.166063,0.163189,0.306904,-0.368207,-0.341127,0.417648,-0.387032,-0.667874,-0.179448,-0.797429,-0.0533392,
-0.0333794,-0.0377884,0.453423,-1.58775,-0.197165,-0.168533,0.521406,-0.163983,0.0519731,-0.17224,-0.0652002,0.969504,0.290924,-0.0294803,0,0,0,0,0,0,0,0.000929902,-0.0527826,0.488867,-1.57326,-0.119061,1.46021,1.31659,-0.146704,0.0238975,-0.185325,-0.0157873,0.0164123,-0.00322669,0.000691792,-0.702633,-27.5319,-1.63756,25.3839,-0.109257,1.74035,-0.083206,1.07775,-1.88,0.382668,0.830784,1.20484,-1.19476,-1.16555,0.847902,-1.23138,-0.678752,-0.348452,-0.811591,-0.0552461,
-0.0339933,-0.0375875,0.452778,-1.58801,-0.193214,-0.167165,0.521277,-0.153472,0.0502334,-0.16144,-0.065115,0.987617,0.341981,-0.0323942,0,0,0,0,0,0,0,-0.0042496,-0.0521626,0.48285,-1.57415,-0.113184,1.46025,1.31655,-0.177958,0.0115806,-0.189713,-0.0349142,0.342127,0.00631601,0.000944073,-0.627255,-27.2066,-1.4868,25.4593,0.263363,1.98571,-0.0969389,1.07775,-1.88,0.382668,0.830784,1.20484,-1.19476,-1.16555,0.847902,-1.23138,-0.678752,-0.348452,-0.811591,-0.0552461,
-0.0345571,-0.0373869,0.452184,-1.58825,-0.189222,-0.165667,0.521129,-0.140953,0.0501428,-0.148444,-0.0606369,0.997981,0.374569,-0.0369771,0,0,0,0,0,0,0,-0.0042496,-0.0521626,0.48285,-1.57415,-0.113184,1.46025,1.31655,-0.177958,0.0115806,-0.189713,-0.0349142,0.342127,0.00631601,0.000944073,-0.627255,-27.2066,-1.4868,25.4593,0.263363,1.98571,-0.0969389,1.93229,-2.37304,-0.192563,1.01809,2.09753,-1.6327,-1.60196,1.45686,-1.67079,-1.00793,-0.395493,-0.866495,-0.0597896,
-0.0350247,-0.037149,0.451687,-1.58841,-0.18555,-0.164249,0.521019,-0.116904,0.0594867,-0.124119,-0.0404055,0.918062,0.354517,-0.0273524,0,0,0,0,0,0,0,-0.0042496,-0.0521626,0.48285,-1.57415,-0.113184,1.46025,1.31655,-0.177958,0.0115806,-0.189713,-0.0349142,0.342127,0.00631601,0.000944073,-0.627255,-27.2066,-1.4868,25.4593,0.263363,1.98571,-0.0969389,0.491225,-1.81844,-1.21189,0.565229,1.61404,-1.01669,-0.992925,1.4512,-1.03468,-1.37352,-0.145976,-0.946397,-0.0628427,
-0.0354262,-0.0369132,0.451259,-1.58856,-0.182082,-0.162839,0.52091,-0.100379,0.0589315,-0.107099,-0.0355444,0.866914,0.352398,-0.027255,0,0,0,0,0,0,0,-0.0042496,-0.0521626,0.48285,-1.57415,-0.113184,1.46025,1.31655,-0.177958,0.0115806,-0.189713,-0.0349142,0.342127,0.00631601,0.000944073,-0.627255,-27.2066,-1.4868,25.4593,0.263363,1.98571,-0.0969389,0.491225,-1.81844,-1.21189,0.565229,1.61404,-1.01669,-0.992925,1.4512,-1.03468,-1.37352,-0.145976,-0.946397,-0.0628427,
-0.0357785,-0.0366914,0.450881,-1.5887,-0.178749,-0.161418,0.5208,-0.088088,0.0554687,-0.0944474,-0.0346555,0.833297,0.355357,-0.0275886,0,0,0,0,0,0,0,-0.0042496,-0.0521626,0.48285,-1.57415,-0.113184,1.46025,1.31655,-0.177958,0.0115806,-0.189713,-0.0349142,0.342127,0.00631601,0.000944073,-0.627255,-27.2066,-1.4868,25.4593,0.263363,1.98571,-0.0969389,-1.66893,-1.39376,-1.35161,0.427837,0.204338,-0.291153,-0.273691,0.760537,-0.304322,-1.28599,0.111324,-0.978452,-0.0664069,
-0.0360928,-0.0364861,0.450542,-1.58883,-0.175505,-0.15998,0.520689,-0.0785742,0.0513128,-0.0846807,-0.0344705,0.811159,0.359474,-0.0278319,0,0,0,0,0,0,0,-0.0101644,-0.0515886,0.47646,-1.57487,-0.0993646,1.46208,1.31651,-0.186765,0.029544,-0.205142,-0.0219965,0.442754,0.0974956,0.00189485,1.01917,-28.3571,0.211195,25.856,1.00311,2.46911,-0.117081,-1.66893,-1.39376,-1.35161,0.427837,0.204338,-0.291153,-0.273691,0.760537,-0.304322,-1.28599,0.111324,-0.978452,-0.0664069,
-0.036377,-0.0362974,0.450235,-1.58897,-0.172317,-0.158526,0.520577,-0.0710269,0.0471738,-0.0769578,-0.0341638,0.796797,0.363591,-0.0280032,0,0,0,0,0,0,0,-0.0101644,-0.0515886,0.47646,-1.57487,-0.0993646,1.46208,1.31651,-0.186765,0.029544,-0.205142,-0.0219965,0.442754,0.0974956,0.00189485,1.01917,-28.3571,0.211195,25.856,1.00311,2.46911,-0.117081,-3.15186,-1.27493,-0.58944,0.676564,-1.19642,0.121799,0.136153,-0.143212,0.0957122,-0.796656,0.274641,-0.905703,-0.0672929,
-0.0366367,-0.0361243,0.449952,-1.5891,-0.169166,-0.157056,0.520464,-0.0649309,0.0432785,-0.0707412,-0.0336102,0.787761,0.367394,-0.0281289,0,0,0,0,0,0,0,-0.0101644,-0.0515886,0.47646,-1.57487,-0.0993646,1.46208,1.31651,-0.186765,0.029544,-0.205142,-0.0219965,0.442754,0.0974956,0.00189485,1.01917,-28.3571,0.211195,25.856,1.00311,2.46911,-0.117081,-3.15186,-1.27493,-0.58944,0.676564,-1.19642,0.121799,0.136153,-0.143212,0.0957122,-0.796656,0.274641,-0.905703,-0.0672929,
-0.0368764,-0.0359655,0.449689,-1.58924,-0.166037,-0.155573,0.520351,-0.0599328,0.0396931,-0.065661,-0.032861,0.782371,0.370823,-0.0282241,0,0,0,0,0,0,0,-0.0101644,-0.0515886,0.47646,-1.57487,-0.0993646,1.46208,1.31651,-0.186765,0.029544,-0.205142,-0.0219965,0.442754,0.0974956,0.00189485,1.01917,-28.3571,0.211195,25.856,1.00311,2.46911,-0.117081,-1.75707,-1.23544,-0.942287,0.686901,-0.0940139,-0.194877,-0.17898,0.495588,-0.222587,-0.936393,0.33209,-0.785746,-0.0639303,
-0.0370995,-0.0358198,0.449443,-1.58936,-0.162919,-0.154077,0.520238,-0.0557798,0.0364276,-0.0614529,-0.0319935,0.77945,0.373889,-0.0282978,0,0,0,0,0,0,0,-0.0101644,-0.0515886,0.47646,-1.57487,-0.0993646,1.46208,1.31651,-0.186765,0.029544,-0.205142,-0.0219965,0.442754,0.0974956,0.00189485,1.01917,-28.3571,0.211195,25.856,1.00311,2.46911,-0.117081,-0.634994,-0.493573,-1.74033,0.213782,0.886524,-0.0875762,-0.0773922,1.09917,-0.097754,-1.09929,0.472759,-0.513718,-0.0637739,
-0.041303,-0.0343174,0.445269,-1.59552,-0.277679,-0.286218,0.511767,-0.319594,0.141131,-0.332184,-0.149502,-1.20985,-0.862259,-0.0859847,0,0,0,0,0,0,0,-0.0101644,-0.0515886,0.47646,-1.57487,-0.0993646,1.46208,1.31651,-0.186765,0.029544,-0.205142,-0.0219965,0.442754,0.0974956,0.00189485,1.01917,-28.3571,0.211195,25.856,1.00311,2.46911,-0.117081,-0.634994,-0.493573,-1.74033,0.213782,0.886524,-0.0875762,-0.0773922,1.09917,-0.097754,-1.09929,0.472759,-0.513718,-0.0637739,
-0.040434,-0.0437218,0.444873,-1.58919,-0.204418,-0.098093,0.520557,-0.160485,0.0320011,-0.167435,-0.0799762,-0.41843,0.547315,-0.0467892,0,0,0,0,0,0,0,-0.0153051,-0.0504979,0.470105,-1.57532,-0.0875498,1.46477,1.31645,-0.161274,0.0199936,-0.186421,-0.0114968,0.299328,0.0309769,-0.00274342,2.16175,-28.607,1.36171,25.6061,1.44897,3.33153,-0.0026396,-0.821315,1.2621,-2.44172,-0.912453,0.901054,0.817592,0.823139,1.16611,0.837812,-1.14911,0.71966,-0.240914,-0.0648344,
-0.0410744,-0.0435975,0.444205,-1.58951,-0.205958,-0.0957589,0.520373,-0.160098,0.0310697,-0.167049,-0.0797866,-0.385039,0.58352,-0.0460913,0,0,0,0,0,0,0,-0.0153051,-0.0504979,0.470105,-1.57532,-0.0875498,1.46477,1.31645,-0.161274,0.0199936,-0.186421,-0.0114968,0.299328,0.0309769,-0.00274342,2.16175,-28.607,1.36171,25.6061,1.44897,3.33153,-0.0026396,-0.821315,1.2621,-2.44172,-0.912453,0.901054,0.817592,0.823139,1.16611,0.837812,-1.14911,0.71966,-0.240914,-0.0648344,
-0.0417134,-0.043477,0.443538,-1.58983,-0.207356,-0.0932726,0.520191,-0.159765,0.0301435,-0.166714,-0.0796499,-0.349498,0.621572,-0.045414,0,0,0,0,0,0,0,-0.0153051,-0.0504979,0.470105,-1.57532,-0.0875498,1.46477,1.31645,-0.161274,0.0199936,-0.186421,-0.0114968,0.299328,0.0309769,-0.00274342,2.16175,-28.607,1.36171,25.6061,1.44897,3.33153,-0.0026396,-1.66801,3.04514,-1.99751,-1.93467,0.0127724,1.88072,1.88985,0.551645,1.91539,-0.797271,0.891458,-0.0610162,-0.0668339,
-0.0423514,-0.0433601,0.442872,-1.59015,-0.208602,-0.0906264,0.520012,-0.159496,0.0292169,-0.166439,-0.0795655,-0.31144,0.661545,-0.0447622,0,0,0,0,0,0,0,-0.0153051,-0.0504979,0.470105,-1.57532,-0.0875498,1.46477,1.31645,-0.161274,0.0199936,-0.186421,-0.0114968,0.299328,0.0309769,-0.00274342,2.16175,-28.607,1.36171,25.6061,1.44897,3.33153,-0.0026396,-1.66801,3.04514,-1.99751,-1.93467,0.0127724,1.88072,1.88985,0.551645,1.91539,-0.797271,0.891458,-0.0610162,-0.0668339,
-0.0429886,-0.043247,0.442207,-1.59046,-0.209683,-0.0878124,0.519836,-0.159298,0.0282849,-0.166232,-0.0795321,-0.270437,0.703502,-0.0441399,0,0,0,0,0,0,0,-0.0153051,-0.0504979,0.470105,-1.57532,-0.0875498,1.46477,1.31645,-0.161274,0.0199936,-0.186421,-0.0114968,0.299328,0.0309769,-0.00274342,2.16175,-28.607,1.36171,25.6061,1.44897,3.33153,-0.0026396,-2.3882,3.56415,-2.19251,-2.31254,-0.430478,2.30067,2.3002,0.342441,2.35449,-0.818781,0.943956,-0.0512292,-0.0674479,
-0.0436254,-0.0431376,0.441543,-1.59078,-0.210587,-0.0848225,0.519662,-0.159182,0.0273426,-0.166104,-0.0795483,-0.225998,0.747484,-0.0435496,0,0,0,0,0,0,0,-0.0205025,-0.0498685,0.46442,-1.57591,-0.0848669,1.46412,1.31622,-0.156896,0.00138933,-0.164145,-0.0497237,-0.226172,0.0307969,-0.00848217,-1.36517,-28.1072,-2.08586,26.4313,-0.54871,3.07244,-0.0969389,-1.75814,1.07263,-2.48795,-0.876848,0.210057,0.963415,0.958249,0.784888,0.993002,-1.11456,0.615654,-0.276881,-0.0785273,
-0.044262,-0.043032,0.440878,-1.5911,-0.211298,-0.0816484,0.51949,-0.159158,0.0263859,-0.166062,-0.0796108,-0.177556,0.793507,-0.0429994,0,0,0,0,0,0,0,-0.0205025,-0.0498685,0.46442,-1.57591,-0.0848669,1.46412,1.31622,-0.156896,0.00138933,-0.164145,-0.0497237,-0.226172,0.0307969,-0.00848217,-1.36517,-28.1072,-2.08586,26.4313,-0.54871,3.07244,-0.0969389,-1.75814,1.07263,-2.48795,-0.876848,0.210057,0.963415,0.958249,0.784888,0.993002,-1.11456,0.615654,-0.276881,-0.0785273,
-0.0448977,-0.0429278,0.440215,-1.59141,-0.211798,-0.0783219,0.519319,-0.15893,0.0260711,-0.165801,-0.0777056,-0.125062,0.831623,-0.0425123,0,0,0,0,0,0,0,-0.0205025,-0.0498685,0.46442,-1.57591,-0.0848669,1.46412,1.31622,-0.156896,0.00138933,-0.164145,-0.0497237,-0.226172,0.0307969,-0.00848217,-1.36517,-28.1072,-2.08586,26.4313,-0.54871,3.07244,-0.0969389,-0.0275253,-1.41216,-2.11236,0.408898,0.883195,-0.572305,-0.562385,0.891632,-0.577721,-0.899583,-0.186446,-0.144955,-0.084902,
-0.0455323,-0.0428245,0.439553,-1.59171,-0.212067,-0.0748743,0.519151,-0.158644,0.0258207,-0.165481,-0.0748404,-0.0673978,0.861911,-0.0420983,0,0,0,0,0,0,0,-0.0205025,-0.0498685,0.46442,-1.57591,-0.0848669,1.46412,1.31622,-0.156896,0.00138933,-0.164145,-0.0497237,-0.226172,0.0307969,-0.00848217,-1.36517,-28.1072,-2.08586,26.4313,-0.54871,3.07244,-0.0969389,0.138603,-2.63965,-2.26899,1.10121,0.690345,-1.15732,-1.15993,0.650217,-1.16459,-0.672259,-0.528719,0.111536,-0.080122,
-0.0461661,-0.0427234,0.438892,-1.592,-0.212081,-0.0713285,0.518984,-0.158444,0.0252582,-0.165248,-0.0718918,-0.00343202,0.886463,-0.0417533,0,0,0,0,0,0,0,-0.0205025,-0.0498685,0.46442,-1.57591,-0.0848669,1.46412,1.31622,-0.156896,0.00138933,-0.164145,-0.0497237,-0.226172,0.0307969,-0.00848217,-1.36517,-28.1072,-2.08586,26.4313,-0.54871,3.07244,-0.0969389,0.138603,-2.63965,-2.26899,1.10121,0.690345,-1.15732,-1.15993,0.650217,-1.16459,-0.672259,-0.528719,0.111536,-0.080122,
-0.0467996,-0.0426261,0.438232,-1.59227,-0.21181,-0.0677025,0.518818,-0.158378,0.0243258,-0.165148,-0.0691215,0.067826,0.906494,-0.041477,0,0,0,0,0,0,0,-0.0261436,-0.049759,0.457973,-1.5792,-0.0956864,1.47258,1.31602,-0.12992,-0.00250464,-0.169294,-0.103028,-0.238869,0.295513,-0.00137991,-0.551876,-28.3333,-1.38762,26.9272,-1.04309,3.91472,-0.130813,-0.816074,-1.07136,-2.24264,0.1667,-0.203325,-0.154357,-0.159376,0.0641983,-0.14086,-0.370867,-0.381775,0.38393,-0.0827935,
-0.0474334,-0.0425339,0.437571,-1.59254,-0.211221,-0.0640111,0.518653,-0.158462,0.0230531,-0.165194,-0.0666119,0.147307,0.922849,-0.0412785,0,0,0,0,0,0,0,-0.0261436,-0.049759,0.457973,-1.5792,-0.0956864,1.47258,1.31602,-0.12992,-0.00250464,-0.169294,-0.103028,-0.238869,0.295513,-0.00137991,-0.551876,-28.3333,-1.38762,26.9272,-1.04309,3.91472,-0.130813,-0.816074,-1.07136,-2.24264,0.1667,-0.203325,-0.154357,-0.159376,0.0641983,-0.14086,-0.370867,-0.381775,0.38393,-0.0827935,
-0.0480681,-0.042448,0.436909,-1.5928,-0.210278,-0.0602664,0.518488,-0.158673,0.0214914,-0.165366,-0.0644027,0.235746,0.936175,-0.0411716,0,0,0,0,0,0,0,-0.0261436,-0.049759,0.457973,-1.5792,-0.0956864,1.47258,1.31602,-0.12992,-0.00250464,-0.169294,-0.103028,-0.238869,0.295513,-0.00137991,-0.551876,-28.3333,-1.38762,26.9272,-1.04309,3.91472,-0.130813,0.378068,-1.57376,-2.29985,0.361359,0.560318,-0.644034,-0.649029,0.430455,-0.630972,-0.416345,-0.603637,0.448412,-0.0924965,
-0.0487038,-0.0423691,0.436247,-1.59305,-0.208944,-0.0564785,0.518324,-0.158925,0.0197036,-0.16558,-0.0625342,0.333325,0.946978,-0.0411774,0,0,0,0,0,0,0,-0.0261436,-0.049759,0.457973,-1.5792,-0.0956864,1.47258,1.31602,-0.12992,-0.00250464,-0.169294,-0.103028,-0.238869,0.295513,-0.00137991,-0.551876,-28.3333,-1.38762,26.9272,-1.04309,3.91472,-0.130813,0.378068,-1.57376,-2.29985,0.361359,0.560318,-0.644034,-0.649029,0.430455,-0.630972,-0.416345,-0.603637,0.448412,-0.0924965,
-0.0493399,-0.042298,0.435585,-1.59329,-0.207188,-0.0526559,0.518158,-0.159013,0.0177787,-0.165643,-0.0610563,0.438988,0.955632,-0.0413306,0,0,0,0,0,0,0,-0.0261436,-0.049759,0.457973,-1.5792,-0.0956864,1.47258,1.31602,-0.12992,-0.00250464,-0.169294,-0.103028,-0.238869,0.295513,-0.00137991,-0.551876,-28.3333,-1.38762,26.9272,-1.04309,3.91472,-0.130813,2.32442,-2.67855,-2.24962,0.870301,1.80263,-1.60165,-1.60181,1.02817,-1.59851,-0.498747,-0.987078,0.476369,-0.0945606,
-0.0499739,-0.0422345,0.434924,-1.59353,-0.204991,-0.0488065,0.517992,-0.15852,0.0158698,-0.165153,-0.0600024,0.549345,0.962353,-0.0417102,0,0,0,0,0,0,0,-0.0261436,-0.049759,0.457973,-1.5792,-0.0956864,1.47258,1.31602,-0.12992,-0.00250464,-0.169294,-0.103028,-0.238869,0.295513,-0.00137991,-0.551876,-28.3333,-1.38762,26.9272,-1.04309,3.91472,-0.130813,3.63851,-2.22695,-2.74148,0.397188,2.89629,-1.66576,-1.65647,1.67433,-1.65449,-0.752766,-1.06151,0.543387,-0.0953948,
-0.0506007,-0.0421774,0.43427,-1.59377,-0.202362,-0.0449381,0.517821,-0.1567,0.0142751,-0.163391,-0.0592864,0.657264,0.967113,-0.0425164,0,0,0,0,0,0,0,-0.030224,-0.0499155,0.453187,-1.58217,-0.0979994,1.48447,1.31596,-0.137162,-0.00388915,-0.145167,-0.0787591,-0.00563644,0.428746,-0.00183428,-0.95654,-27.9802,-1.68517,26.7764,0.233151,4.3322,-0.123489,3.63851,-2.22695,-2.74148,0.397188,2.89629,-1.66576,-1.65647,1.67433,-1.65449,-0.752766,-1.06151,0.543387,-0.0953948,
-0.0512082,-0.0421221,0.433635,-1.594,-0.19938,-0.0410617,0.517645,-0.15186,0.0138493,-0.158753,-0.058223,0.745484,0.969099,-0.0442021,0,0,0,0,0,0,0,-0.030224,-0.0499155,0.453187,-1.58217,-0.0979994,1.48447,1.31596,-0.137162,-0.00388915,-0.145167,-0.0787591,-0.00563644,0.428746,-0.00183428,-0.95654,-27.9802,-1.68517,26.7764,0.233151,4.3322,-0.123489,2.78919,-2.18496,-2.89298,0.497837,2.34878,-1.45006,-1.44468,1.41291,-1.44119,-0.690088,-0.903865,0.591351,-0.0998733,
-0.0517817,-0.0420598,0.433034,-1.59422,-0.196154,-0.0371922,0.517455,-0.143369,0.0155671,-0.150457,-0.0552185,0.806558,0.96736,-0.0473743,0,0,0,0,0,0,0,-0.030224,-0.0499155,0.453187,-1.58217,-0.0979994,1.48447,1.31596,-0.137162,-0.00388915,-0.145167,-0.0787591,-0.00563644,0.428746,-0.00183428,-0.95654,-27.9802,-1.68517,26.7764,0.233151,4.3322,-0.123489,2.78919,-2.18496,-2.89298,0.497837,2.34878,-1.45006,-1.44468,1.41291,-1.44119,-0.690088,-0.903865,0.591351,-0.0998733,
-0.0522817,-0.0419429,0.432505,-1.59433,-0.192961,-0.0336686,0.5173,-0.125007,0.0292087,-0.132109,-0.0274593,0.798145,0.880919,-0.0387238,0,0,0,0,0,0,0,-0.030224,-0.0499155,0.453187,-1.58217,-0.0979994,1.48447,1.31596,-0.137162,-0.00388915,-0.145167,-0.0787591,-0.00563644,0.428746,-0.00183428,-0.95654,-27.9802,-1.68517,26.7764,0.233151,4.3322,-0.123489,1.65252,-2.36055,-2.33588,0.836664,1.32982,-1.28865,-1.28483,0.781812,-1.29311,-0.37905,-0.788382,0.584334,-0.105327,
-0.0527315,-0.0418202,0.432028,-1.59442,-0.18975,-0.0303518,0.517146,-0.11246,0.0306997,-0.119301,-0.0220263,0.802822,0.829183,-0.0386652,0,0,0,0,0,0,0,-0.030224,-0.0499155,0.453187,-1.58217,-0.0979994,1.48447,1.31596,-0.137162,-0.00388915,-0.145167,-0.0787591,-0.00563644,0.428746,-0.00183428,-0.95654,-27.9802,-1.68517,26.7764,0.233151,4.3322,-0.123489,1.65252,-2.36055,-2.33588,0.836664,1.32982,-1.28865,-1.28483,0.781812,-1.29311,-0.37905,-0.788382,0.584334,-0.105327,
-0.0531422,-0.0417045,0.431591,-1.59451,-0.186501,-0.0271822,0.51699,-0.10268,0.0289249,-0.109302,-0.0228289,0.812324,0.792409,-0.0389315,0,0,0,0,0,0,0,-0.0347603,-0.0498075,0.448381,-1.58481,-0.0949384,1.50128,1.31587,-0.157358,0.00174781,-0.164376,-0.094131,0.185537,0.60967,-0.00192857,0.0828892,-29.3807,-0.713182,27.6492,1.28326,3.90832,-0.0703886,1.36336,-1.52784,-1.89978,0.494819,1.04305,-0.83501,-0.829566,0.589055,-0.838277,-0.227699,-0.56346,0.574675,-0.107474,
-0.0535206,-0.0415984,0.431187,-1.59461,-0.183206,-0.024127,0.516833,-0.0945852,0.0265222,-0.10103,-0.025078,0.823539,0.763801,-0.0391091,0,0,0,0,0,0,0,-0.0347603,-0.0498075,0.448381,-1.58481,-0.0949384,1.50128,1.31587,-0.157358,0.00174781,-0.164376,-0.094131,0.185537,0.60967,-0.00192857,0.0828892,-29.3807,-0.713182,27.6492,1.28326,3.90832,-0.0703886,0.759472,-0.99905,-1.48091,0.44959,0.569347,-0.461363,-0.456745,0.321139,-0.470749,-0.0554276,-0.255085,0.552822,-0.10939,
-0.0538714,-0.0415014,0.430811,-1.59472,-0.179866,-0.0211644,0.516676,-0.0876958,0.0242357,-0.0939975,-0.0274068,0.835133,0.740653,-0.0392319,0,0,0,0,0,0,0,-0.0347603,-0.0498075,0.448381,-1.58481,-0.0949384,1.50128,1.31587,-0.157358,0.00174781,-0.164376,-0.094131,0.185537,0.60967,-0.00192857,0.0828892,-29.3807,-0.713182,27.6492,1.28326,3.90832,-0.0703886,0.759472,-0.99905,-1.48091,0.44959,0.569347,-0.461363,-0.456745,0.321139,-0.470749,-0.0554276,-0.255085,0.552822,-0.10939,
-0.0541984,-0.0414125,0.430459,-1.59484,-0.17648,-0.0182779,0.516519,-0.0817469,0.0222402,-0.0879313,-0.0294718,0.846458,0.721618,-0.0393256,0,0,0,0,0,0,0,-0.0347603,-0.0498075,0.448381,-1.58481,-0.0949384,1.50128,1.31587,-0.157358,0.00174781,-0.164376,-0.094131,0.185537,0.60967,-0.00192857,0.0828892,-29.3807,-0.713182,27.6492,1.28326,3.90832,-0.0703886,0.277856,-0.88536,-1.00552,0.74072,0.118851,-0.307197,-0.300473,0.0437089,-0.334974,0.185175,0.0499712,0.573439,-0.115031,
-0.0634363,-0.0266721,0.420552,-1.60398,-0.347562,-0.244397,0.505547,-0.103343,0.0671151,-0.111561,-0.0586574,-0.315177,-0.0952096,-0.0597159,0,0,0,0,0,0,0,-0.0347603,-0.0498075,0.448381,-1.58481,-0.0949384,1.50128,1.31587,-0.157358,0.00174781,-0.164376,-0.094131,0.185537,0.60967,-0.00192857,0.0828892,-29.3807,-0.713182,27.6492,1.28326,3.90832,-0.0703886,0.277856,-0.88536,-1.00552,0.74072,0.118851,-0.307197,-0.300473,0.0437089,-0.334974,0.185175,0.0499712,0.573439,-0.115031,
-0.0468333,-0.0345309,0.438051,-1.59513,-0.272426,-0.244732,0.512404,-0.194081,0.0968543,-0.20342,-0.123193,-1.19548,-0.311625,-0.0811328,0,0,0,0,0,0,0,-0.0347603,-0.0498075,0.448381,-1.58481,-0.0949384,1.50128,1.31587,-0.157358,0.00174781,-0.164376,-0.094131,0.185537,0.60967,-0.00192857,0.0828892,-29.3807,-0.713182,27.6492,1.28326,3.90832,-0.0703886,0.517916,0.182224,-1.31954,0.217027,0.579944,0.154528,0.162569,0.418404,0.134595,0.002873,0.416248,0.568804,-0.112783,
-0.0520793,-0.0418259,0.430026,-1.59592,-0.181646,-0.0753211,0.519739,-0.0656522,0.044266,-0.0709919,-0.0635975,-0.457101,-0.275924,-0.0513927,0,0,0,0,0,0,0,-0.0392205,-0.0493099,0.443255,-1.58668,-0.0887844,1.5199,1.31576,-0.139838,0.0172318,-0.164464,-0.0346964,0.197708,0.57299,-0.00514114,1.50318,-30.0035,0.711073,26.828,1.52771,3.40478,-0.150955,-0.00710112,0.631105,-1.86488,-0.0144853,0.626104,0.480201,0.4862,0.636266,0.46625,-0.289292,0.687448,0.454632,-0.113684,
-0.0523371,-0.041652,0.429747,-1.59617,-0.183528,-0.0764489,0.519535,-0.0644388,0.0434856,-0.069772,-0.0631746,-0.470472,-0.28195,-0.0509208,0,0,0,0,0,0,0,-0.0392205,-0.0493099,0.443255,-1.58668,-0.0887844,1.5199,1.31576,-0.139838,0.0172318,-0.164464,-0.0346964,0.197708,0.57299,-0.00514114,1.50318,-30.0035,0.711073,26.828,1.52771,3.40478,-0.150955,-0.00710112,0.631105,-1.86488,-0.0144853,0.626104,0.480201,0.4862,0.636266,0.46625,-0.289292,0.687448,0.454632,-0.113684,
-0.05259,-0.0414814,0.429473,-1.59642,-0.185467,-0.0776016,0.519333,-0.063242,0.0426431,-0.0685691,-0.062737,-0.48468,-0.288185,-0.0504599,0,0,0,0,0,0,0,-0.0392205,-0.0493099,0.443255,-1.58668,-0.0887844,1.5199,1.31576,-0.139838,0.0172318,-0.164464,-0.0346964,0.197708,0.57299,-0.00514114,1.50318,-30.0035,0.711073,26.828,1.52771,3.40478,-0.150955,-0.903514,4.09457,-1.63873,-2.09988,0.099248,2.37321,2.37698,0.369954,2.40295,-0.259554,1.20506,0.445888,-0.116041,
-0.0528383,-0.0413145,0.429204,-1.59667,-0.187465,-0.0787797,0.519133,-0.0620632,0.041729,-0.0673836,-0.0622988,-0.499609,-0.294522,-0.0500115,0,0,0,0,0,0,0,-0.0392205,-0.0493099,0.443255,-1.58668,-0.0887844,1.5199,1.31576,-0.139838,0.0172318,-0.164464,-0.0346964,0.197708,0.57299,-0.00514114,1.50318,-30.0035,0.711073,26.828,1.52771,3.40478,-0.150955,-0.903514,4.09457,-1.63873,-2.09988,0.099248,2.37321,2.37698,0.369954,2.40295,-0.259554,1.20506,0.445888,-0.116041,
-0.0530819,-0.0411516,0.428939,-1.59692,-0.189526,-0.0799828,0.518935,-0.0609084,0.0407317,-0.0662215,-0.0618794,-0.51508,-0.300778,-0.049575,0,0,0,0,0,0,0,-0.0392205,-0.0493099,0.443255,-1.58668,-0.0887844,1.5199,1.31576,-0.139838,0.0172318,-0.164464,-0.0346964,0.197708,0.57299,-0.00514114,1.50318,-30.0035,0.711073,26.828,1.52771,3.40478,-0.150955,1.5398,4.0752,-2.55446,-2.31901,2.31691,1.82844,1.8237,1.76156,1.88031,-0.873259,1.14666,0.391886,-0.0955236,
-0.0533211,-0.040993,0.428678,-1.59717,-0.191649,-0.0812095,0.518738,-0.0597917,0.0396368,-0.0650956,-0.0615059,-0.530812,-0.306669,-0.0491519,0,0,0,0,0,0,0,-0.0433628,-0.0484372,0.43864,-1.58654,-0.0971811,1.52877,1.31535,-0.116735,0.0259351,-0.106546,0.00359732,-0.583942,0.0745839,-0.00488482,2.72113,-29.456,1.86159,25.6339,-0.994572,0.646292,-0.331314,1.5398,4.0752,-2.55446,-2.31901,2.31691,1.82844,1.8237,1.76156,1.88031,-0.873259,1.14666,0.391886,-0.0955236,
-0.0535561,-0.0408393,0.428422,-1.59741,-0.193834,-0.0824566,0.518543,-0.0587382,0.0384257,-0.0640307,-0.0612164,-0.546375,-0.311761,-0.0487435,0,0,0,0,0,0,0,-0.0433628,-0.0484372,0.43864,-1.58654,-0.0971811,1.52877,1.31535,-0.116735,0.0259351,-0.106546,0.00359732,-0.583942,0.0745839,-0.00488482,2.72113,-29.456,1.86159,25.6339,-0.994572,0.646292,-0.331314,0.975632,1.91889,-1.32311,-1.27159,1.51501,0.845328,0.85081,1.1613,0.871448,-0.713364,0.465108,-0.044189,-0.104988,
-0.0537872,-0.040691,0.42817,-1.59765,-0.196079,-0.0837182,0.51835,-0.0577906,0.0370748,-0.0630676,-0.0610641,-0.561113,-0.315419,-0.0483451,0,0,0,0,0,0,0,-0.0433628,-0.0484372,0.43864,-1.58654,-0.0971811,1.52877,1.31535,-0.116735,0.0259351,-0.106546,0.00359732,-0.583942,0.0745839,-0.00488482,2.72113,-29.456,1.86159,25.6339,-0.994572,0.646292,-0.331314,1.11105,0.815766,-1.48745,-1.11919,1.99457,0.221374,0.22424,1.5846,0.261464,-1.29124,-0.0142491,-0.587807,-0.113279,
-0.0540153,-0.0405488,0.427921,-1.5979,-0.198375,-0.0849852,0.518158,-0.0570169,0.0355539,-0.0622729,-0.0611208,-0.574033,-0.316739,-0.0479556,0,0,0,0,0,0,0,-0.0433628,-0.0484372,0.43864,-1.58654,-0.0971811,1.52877,1.31535,-0.116735,0.0259351,-0.106546,0.00359732,-0.583942,0.0745839,-0.00488482,2.72113,-29.456,1.86159,25.6339,-0.994572,0.646292,-0.331314,1.11105,0.815766,-1.48745,-1.11919,1.99457,0.221374,0.22424,1.5846,0.261464,-1.29124,-0.0142491,-0.587807,-0.113279,
-0.0542414,-0.0404135,0.427674,-1.59814,-0.200709,-0.086243,0.517968,-0.0565226,0.0338241,-0.0617485,-0.0614807,-0.58365,-0.314465,-0.0475627,0,0,0,0,0,0,0,-0.0433628,-0.0484372,0.43864,-1.58654,-0.0971811,1.52877,1.31535,-0.116735,0.0259351,-0.106546,0.00359732,-0.583942,0.0745839,-0.00488482,2.72113,-29.456,1.86159,25.6339,-0.994572,0.646292,-0.331314,-1.09383,0.733843,-0.715773,-0.986706,0.148536,0.619282,0.614751,0.477816,0.658205,-0.930081,-0.0325958,-0.713353,-0.114146,
-0.0544672,-0.0402862,0.427427,-1.59839,-0.203061,-0.0874707,0.517779,-0.0564655,0.0318373,-0.0616492,-0.0622602,-0.587769,-0.306915,-0.0471525,0,0,0,0,0,0,0,-0.0433628,-0.0484372,0.43864,-1.58654,-0.0971811,1.52877,1.31535,-0.116735,0.0259351,-0.106546,0.00359732,-0.583942,0.0745839,-0.00488482,2.72113,-29.456,1.86159,25.6339,-0.994572,0.646292,-0.331314,-1.09383,0.733843,-0.715773,-0.986706,0.148536,0.619282,0.614751,0.477816,0.658205,-0.930081,-0.0325958,-0.713353,-0.114146,
-0.0546955,-0.040168,0.427178,-1.59865,-0.205393,-0.0886385,0.517593,-0.0570756,0.0295363,-0.0621998,-0.063588,-0.583202,-0.291955,-0.0466975,0,0,0,0,0,0,0,-0.0465737,-0.0478335,0.434973,-1.5865,-0.113659,1.53005,1.31514,-0.100888,0.0216456,-0.111647,-0.00985671,-0.528213,0.00925571,-0.00329423,1.63013,-30.0273,0.86183,25.5069,-0.859989,1.58105,-0.150955,-1.50423,-0.0339821,0.00788546,-0.584926,-0.405016,0.297349,0.301886,0.0676525,0.319953,-0.757653,-0.294301,-0.880774,-0.11806,
-0.0549302,-0.0400606,0.426924,-1.59891,-0.207655,-0.0897068,0.517408,-0.0586739,0.0268594,-0.0637153,-0.0655805,-0.565437,-0.267059,-0.0461548,0,0,0,0,0,0,0,-0.0465737,-0.0478335,0.434973,-1.5865,-0.113659,1.53005,1.31514,-0.100888,0.0216456,-0.111647,-0.00985671,-0.528213,0.00925571,-0.00329423,1.63013,-30.0273,0.86183,25.5069,-0.859989,1.58105,-0.150955,-0.770992,-2.0919,0.393898,0.425247,0.0478791,-0.923327,-0.912022,0.291048,-0.920918,-0.905446,-0.825422,-1.19204,-0.115397,
-0.055177,-0.0399656,0.426657,-1.59918,-0.209768,-0.0906249,0.517226,-0.0616847,0.0237488,-0.066614,-0.0683,-0.528349,-0.229524,-0.0454598,0,0,0,0,0,0,0,-0.0465737,-0.0478335,0.434973,-1.5865,-0.113659,1.53005,1.31514,-0.100888,0.0216456,-0.111647,-0.00985671,-0.528213,0.00925571,-0.00329423,1.63013,-30.0273,0.86183,25.5069,-0.859989,1.58105,-0.150955,-0.770992,-2.0919,0.393898,0.425247,0.0478791,-0.923327,-0.912022,0.291048,-0.920918,-0.905446,-0.825422,-1.19204,-0.115397,
-0.0554435,-0.0398849,0.426371,-1.59947,-0.211625,-0.091332,0.517048,-0.0666255,0.0201622,-0.0714095,-0.0717122,-0.464133,-0.176787,-0.0445212,0,0,0,0,0,0,0,-0.0465737,-0.0478335,0.434973,-1.5865,-0.113659,1.53005,1.31514,-0.100888,0.0216456,-0.111647,-0.00985671,-0.528213,0.00925571,-0.00329423,1.63013,-30.0273,0.86183,25.5069,-0.859989,1.58105,-0.150955,0.230212,-3.38898,0.225299,0.953705,0.887406,-1.80266,-1.78664,0.801138,-1.80759,-1.19923,-1.201,-1.38611,-0.114136,
-0.0557397,-0.0398206,0.426057,-1.59977,-0.21308,-0.0917585,0.516875,-0.0740595,0.0160753,-0.0786681,-0.0756946,-0.363728,-0.106634,-0.0432179,0,0,0,0,0,0,0,-0.0465737,-0.0478335,0.434973,-1.5865,-0.113659,1.53005,1.31514,-0.100888,0.0216456,-0.111647,-0.00985671,-0.528213,0.00925571,-0.00329423,1.63013,-30.0273,0.86183,25.5069,-0.859989,1.58105,-0.150955,0.230212,-3.38898,0.225299,0.953705,0.887406,-1.80266,-1.78664,0.801138,-1.80759,-1.19923,-1.201,-1.38611,-0.114136,
-0.0560778,-0.0397748,0.425701,-1.60009,-0.213951,-0.0918264,0.516709,-0.0845295,0.0114521,-0.088946,-0.0801631,-0.21767,-0.0169522,-0.0414629,0,0,0,0,0,0,0,-0.0497394,-0.0469102,0.431645,-1.58656,-0.132455,1.53023,1.31505,-0.0587328,0.0100068,-0.0783812,0.00266776,-0.425958,0.000581167,-0.00342474,0.106693,-29.9281,-0.661608,25.1102,-1.01838,1.52154,-0.0566557,0.4522,-3.02723,-0.220174,0.56197,1.26282,-1.67036,-1.65162,1.08879,-1.66483,-1.43692,-1.23366,-1.42086,-0.118699,
-0.0564722,-0.0397504,0.42529,-1.60044,-0.214016,-0.0914454,0.516547,-0.098583,0.00611087,-0.102828,-0.0854041,-0.0162401,0.095239,-0.0404871,0,0,0,0,0,0,0,-0.0497394,-0.0469102,0.431645,-1.58656,-0.132455,1.53023,1.31505,-0.0587328,0.0100068,-0.0783812,0.00266776,-0.425958,0.000581167,-0.00342474,0.106693,-29.9281,-0.661608,25.1102,-1.01838,1.52154,-0.0566557,0.800635,-2.85164,-0.963873,0.239705,1.87183,-1.65615,-1.63582,1.5678,-1.63905,-1.81561,-1.27764,-1.47875,-0.121988,
-0.0568899,-0.039719,0.424852,-1.60076,-0.213483,-0.0907403,0.516388,-0.104422,0.00784346,-0.109374,-0.079891,0.133251,0.176262,-0.0397865,0,0,0,0,0,0,0,-0.0497394,-0.0469102,0.431645,-1.58656,-0.132455,1.53023,1.31505,-0.0587328,0.0100068,-0.0783812,0.00266776,-0.425958,0.000581167,-0.00342474,0.106693,-29.9281,-0.661608,25.1102,-1.01838,1.52154,-0.0566557,0.800635,-2.85164,-0.963873,0.239705,1.87183,-1.65615,-1.63582,1.5678,-1.63905,-1.81561,-1.27764,-1.47875,-0.121988,
-0.0573136,-0.0396748,0.424407,-1.60105,-0.212495,-0.0897807,0.51623,-0.105935,0.0110493,-0.111381,-0.0728722,0.246944,0.239921,-0.0394429,0,0,0,0,0,0,0,-0.0497394,-0.0469102,0.431645,-1.58656,-0.132455,1.53023,1.31505,-0.0587328,0.0100068,-0.0783812,0.00266776,-0.425958,0.000581167,-0.00342474,0.106693,-29.9281,-0.661608,25.1102,-1.01838,1.52154,-0.0566557,0.609018,-2.91127,-0.767909,0.313835,1.57968,-1.64041,-1.61908,1.3424,-1.62691,-1.6593,-1.30915,-1.41515,-0.124768,
-0.057733,-0.0396184,0.423964,-1.60131,-0.211155,-0.0886136,0.516073,-0.104854,0.0141,-0.110625,-0.0667068,0.334857,0.291765,-0.039289,0,0,0,0,0,0,0,-0.0497394,-0.0469102,0.431645,-1.58656,-0.132455,1.53023,1.31505,-0.0587328,0.0100068,-0.0783812,0.00266776,-0.425958,0.000581167,-0.00342474,0.106693,-29.9281,-0.661608,25.1102,-1.01838,1.52154,-0.0566557,0.609018,-2.91127,-0.767909,0.313835,1.57968,-1.64041,-1.61908,1.3424,-1.62691,-1.6593,-1.30915,-1.41515,-0.124768,
-0.0581418,-0.0395521,0.423531,-1.60156,-0.20954,-0.0872753,0.515916,-0.102202,0.0165869,-0.108178,-0.061763,0.403752,0.334587,-0.0392377,0,0,0,0,0,0,0,-0.0497394,-0.0469102,0.431645,-1.58656,-0.132455,1.53023,1.31505,-0.0587328,0.0100068,-0.0783812,0.00266776,-0.425958,0.000581167,-0.00342474,0.106693,-29.9281,-0.661608,25.1102,-1.01838,1.52154,-0.0566557,0.0422457,-2.53887,-0.464337,0.282381,0.960461,-1.32262,-1.30316,0.916715,-1.3125,-1.36347,-1.15629,-1.26815,-0.127497,
-0.0585363,-0.0394782,0.423113,-1.60179,-0.207707,-0.0857946,0.515759,-0.0986326,0.0184691,-0.104732,-0.0578951,0.458402,0.370154,-0.039245,0,0,0,0,0,0,0,-0.0515545,-0.0468662,0.429207,-1.587,-0.142048,1.53026,1.315,-0.0692896,-0.00339587,-0.0871598,-0.0193631,-0.153852,0.0105918,-4.35671e-05,-0.0440639,-29.3291,-0.836168,25.4831,0.104977,2.23748,-0.163772,-0.666085,-2.90779,-0.856712,0.644711,0.606225,-1.34227,-1.32112,0.810876,-1.34487,-1.39098,-1.01,-1.21779,-0.136483,
-0.0589147,-0.0393989,0.42271,-1.60201,-0.205698,-0.0841956,0.515602,-0.0945784,0.0198102,-0.100747,-0.0548714,0.502251,0.39976,-0.0392859,0,0,0,0,0,0,0,-0.0515545,-0.0468662,0.429207,-1.587,-0.142048,1.53026,1.315,-0.0692896,-0.00339587,-0.0871598,-0.0193631,-0.153852,0.0105918,-4.35671e-05,-0.0440639,-29.3291,-0.836168,25.4831,0.104977,2.23748,-0.163772,-0.666085,-2.90779,-0.856712,0.644711,0.606225,-1.34227,-1.32112,0.810876,-1.34487,-1.39098,-1.01,-1.21779,-0.136483,
-0.059276,-0.0393162,0.422323,-1.60222,-0.203546,-0.0824979,0.515445,-0.090328,0.0206964,-0.0965282,-0.0524862,0.537817,0.424433,-0.0393455,0,0,0,0,0,0,0,-0.0515545,-0.0468662,0.429207,-1.587,-0.142048,1.53026,1.315,-0.0692896,-0.00339587,-0.0871598,-0.0193631,-0.153852,0.0105918,-4.35671e-05,-0.0440639,-29.3291,-0.836168,25.4831,0.104977,2.23748,-0.163772,-1.24722,-3.76978,-0.353442,1.59244,-0.149818,-1.63497,-1.60845,0.284267,-1.67451,-0.937686,-0.85081,-1.03815,-0.135333,
-0.0737295,-0.0269888,0.407299,-1.60456,-0.27036,-0.25101,0.508377,-0.232633,0.159308,-0.244835,-0.134586,-1.19864,-1.13175,-0.101105,0,0,0,0,0,0,0,-0.0515545,-0.0468662,0.429207,-1.587,-0.142048,1.53026,1.315,-0.0692896,-0.00339587,-0.0871598,-0.0193631,-0.153852,0.0105918,-4.35671e-05,-0.0440639,-29.3291,-0.836168,25.4831,0.104977,2.23748,-0.163772,-1.24722,-3.76978,-0.353442,1.59244,-0.149818,-1.63497,-1.60845,0.284267,-1.67451,-0.937686,-0.85081,-1.03815,-0.135333,
-0.0806657,-0.0339289,0.398563,-1.60065,-0.22115,-0.113099,0.51688,-0.19466,0.0839233,-0.204121,-0.0778113,0.278588,-0.178648,-0.0570036,0,0,0,0,0,0,0,-0.0515545,-0.0468662,0.429207,-1.587,-0.142048,1.53026,1.315,-0.0692896,-0.00339587,-0.0871598,-0.0193631,-0.153852,0.0105918,-4.35671e-05,-0.0440639,-29.3291,-0.836168,25.4831,0.104977,2.23748,-0.163772,-0.611342,-2.90767,0.720868,1.62814,-0.421723,-1.27788,-1.24755,-0.181388,-1.33721,-0.147571,-0.498461,-0.569749,-0.138945,
-0.0814431,-0.0335997,0.397747,-1.60095,-0.219816,-0.113815,0.516654,-0.194348,0.0822879,-0.203796,-0.0771028,0.333352,-0.178827,-0.0563579,0,0,0,0,0,0,0,-0.053724,-0.0468222,0.426565,-1.58807,-0.142409,1.53118,1.31495,-0.0752225,-0.00200431,-0.0912111,-0.0538767,0.0133382,0.00309184,-0.00619511,0.463749,-29.7298,-0.185533,26.8796,1.08825,3.85522,-0.0703886,-0.611342,-2.90767,0.720868,1.62814,-0.421723,-1.27788,-1.24755,-0.181388,-1.33721,-0.147571,-0.498461,-0.569749,-0.138945,
-0.0822198,-0.0332775,0.396933,-1.60126,-0.218245,-0.114529,0.516431,-0.194165,0.0805559,-0.2036,-0.0764126,0.392774,-0.178721,-0.0557319,0,0,0,0,0,0,0,-0.053724,-0.0468222,0.426565,-1.58807,-0.142409,1.53118,1.31495,-0.0752225,-0.00200431,-0.0912111,-0.0538767,0.0133382,0.00309184,-0.00619511,0.463749,-29.7298,-0.185533,26.8796,1.08825,3.85522,-0.0703886,-0.783803,-0.152203,0.475516,0.219374,-0.656696,0.198395,0.226662,-0.385361,0.162136,0.149905,0.0703924,-0.0858529,-0.138605,
-0.0829963,-0.0329626,0.396119,-1.60156,-0.216416,-0.115242,0.516211,-0.194117,0.0787175,-0.203536,-0.075747,0.457442,-0.178199,-0.0551293,0,0,0,0,0,0,0,-0.053724,-0.0468222,0.426565,-1.58807,-0.142409,1.53118,1.31495,-0.0752225,-0.00200431,-0.0912111,-0.0538767,0.0133382,0.00309184,-0.00619511,0.463749,-29.7298,-0.185533,26.8796,1.08825,3.85522,-0.0703886,-1.32882,3.11763,-1.17423,-1.87676,-0.398914,2.00045,2.01632,-0.00285681,2.02236,-0.265183,0.645493,0.210714,-0.144024,
-0.0837731,-0.0326556,0.395304,-1.60186,-0.214304,-0.115951,0.515992,-0.19421,0.0767615,-0.203613,-0.0751174,0.527981,-0.177087,-0.0545549,0,0,0,0,0,0,0,-0.053724,-0.0468222,0.426565,-1.58807,-0.142409,1.53118,1.31495,-0.0752225,-0.00200431,-0.0912111,-0.0538767,0.0133382,0.00309184,-0.00619511,0.463749,-29.7298,-0.185533,26.8796,1.08825,3.85522,-0.0703886,-1.32882,3.11763,-1.17423,-1.87676,-0.398914,2.00045,2.01632,-0.00285681,2.02236,-0.265183,0.645493,0.210714,-0.144024,
-0.0845509,-0.0323569,0.394489,-1.60216,-0.211883,-0.116651,0.515776,-0.194449,0.0746763,-0.203834,-0.0745421,0.605042,-0.175154,-0.0540156,0,0,0,0,0,0,0,-0.053724,-0.0468222,0.426565,-1.58807,-0.142409,1.53118,1.31495,-0.0752225,-0.00200431,-0.0912111,-0.0538767,0.0133382,0.00309184,-0.00619511,0.463749,-29.7298,-0.185533,26.8796,1.08825,3.85522,-0.0703886,0.618387,2.59564,-1.86011,-1.54255,1.37657,1.36499,1.38281,1.1303,1.38158,-0.703638,0.71329,0.179186,-0.15386,
-0.0853302,-0.0320671,0.393672,-1.60246,-0.209126,-0.11734,0.515562,-0.194832,0.0724505,-0.204198,-0.0740494,0.689269,-0.172078,-0.0535241,0,0,0,0,0,0,0,-0.0571886,-0.0469265,0.422514,-1.589,-0.144034,1.52601,1.31469,-0.124536,-0.0122147,-0.125798,-0.0194019,0.0100356,-0.215399,-0.00913322,-0.984311,-26.5837,-1.8875,26.0068,1.21002,2.80144,-0.23793,0.618387,2.59564,-1.86011,-1.54255,1.37657,1.36499,1.38281,1.1303,1.38158,-0.703638,0.71329,0.179186,-0.15386,
-0.0861108,-0.0317865,0.392854,-1.60275,-0.20601,-0.11801,0.51535,-0.195156,0.0701523,-0.204517,-0.073632,0.779196,-0.167523,-0.0530801,0,0,0,0,0,0,0,-0.0571886,-0.0469265,0.422514,-1.589,-0.144034,1.52601,1.31469,-0.124536,-0.0122147,-0.125798,-0.0194019,0.0100356,-0.215399,-0.00913322,-0.984311,-26.5837,-1.8875,26.0068,1.21002,2.80144,-0.23793,3.117,1.74152,-1.98059,-0.910714,3.33325,0.445137,0.483478,2.27291,0.430219,-0.9914,0.738694,0.115473,-0.160984,
-0.0868822,-0.0315113,0.392045,-1.60304,-0.202619,-0.118659,0.51514,-0.192832,0.0687889,-0.202384,-0.0727291,0.847638,-0.162254,-0.0525809,0,0,0,0,0,0,0,-0.0571886,-0.0469265,0.422514,-1.589,-0.144034,1.52601,1.31469,-0.124536,-0.0122147,-0.125798,-0.0194019,0.0100356,-0.215399,-0.00913322,-0.984311,-26.5837,-1.8875,26.0068,1.21002,2.80144,-0.23793,3.117,1.74152,-1.98059,-0.910714,3.33325,0.445137,0.483478,2.27291,0.430219,-0.9914,0.738694,0.115473,-0.160984,
-0.0876377,-0.0312412,0.39125,-1.60333,-0.199018,-0.119274,0.514931,-0.188892,0.0675329,-0.198566,-0.072312,0.900268,-0.153865,-0.05226,0,0,0,0,0,0,0,-0.0571886,-0.0469265,0.422514,-1.589,-0.144034,1.52601,1.31469,-0.124536,-0.0122147,-0.125798,-0.0194019,0.0100356,-0.215399,-0.00913322,-0.984311,-26.5837,-1.8875,26.0068,1.21002,2.80144,-0.23793,2.86401,1.26481,-2.27076,-0.506206,3.31912,0.262137,0.294794,2.35685,0.241779,-1.08502,0.845789,0.0934062,-0.16557,
-0.0883732,-0.0309769,0.390476,-1.60362,-0.195254,-0.119837,0.514722,-0.183875,0.0660841,-0.193618,-0.0726005,0.941029,-0.140636,-0.0521452,0,0,0,0,0,0,0,-0.0571886,-0.0469265,0.422514,-1.589,-0.144034,1.52601,1.31469,-0.124536,-0.0122147,-0.125798,-0.0194019,0.0100356,-0.215399,-0.00913322,-0.984311,-26.5837,-1.8875,26.0068,1.21002,2.80144,-0.23793,2.86401,1.26481,-2.27076,-0.506206,3.31912,0.262137,0.294794,2.35685,0.241779,-1.08502,0.845789,0.0934062,-0.16557,
-0.0890857,-0.0307196,0.389724,-1.60392,-0.191363,-0.12032,0.514513,-0.17812,0.0643154,-0.187893,-0.073655,0.972746,-0.120799,-0.0522858,0,0,0,0,0,0,0,-0.0571886,-0.0469265,0.422514,-1.589,-0.144034,1.52601,1.31469,-0.124536,-0.0122147,-0.125798,-0.0194019,0.0100356,-0.215399,-0.00913322,-0.984311,-26.5837,-1.8875,26.0068,1.21002,2.80144,-0.23793,0.827169,1.80037,-1.74,-0.722754,1.60664,0.927707,0.950237,1.32136,0.915379,-0.707199,0.943114,0.114618,-0.172748,
-0.089773,-0.0304709,0.388998,-1.60422,-0.187373,-0.120689,0.514302,-0.171832,0.0621627,-0.181604,-0.0755346,0.997455,-0.092376,-0.0527906,0,0,0,0,0,0,0,-0.0617297,-0.047074,0.417652,-1.58927,-0.141422,1.51715,1.31446,-0.155524,-0.000907208,-0.178061,-0.0132582,0.187711,-0.289215,-0.012405,-0.655026,-28.1548,-1.463,25.9314,1.27136,2.88018,-0.117081,-0.111375,2.54241,-1.30908,-1.11378,0.757922,1.47371,1.49045,0.776414,1.47154,-0.476572,1.03856,0.125181,-0.174711,
-0.0904335,-0.0302325,0.388299,-1.60453,-0.183307,-0.120903,0.514086,-0.165108,0.059601,-0.174838,-0.0782968,1.01659,-0.0533416,-0.0538679,0,0,0,0,0,0,0,-0.0617297,-0.047074,0.417652,-1.58927,-0.141422,1.51715,1.31446,-0.155524,-0.000907208,-0.178061,-0.0132582,0.187711,-0.289215,-0.012405,-0.655026,-28.1548,-1.463,25.9314,1.27136,2.88018,-0.117081,-0.111375,2.54241,-1.30908,-1.11378,0.757922,1.47371,1.49045,0.776414,1.47154,-0.476572,1.03856,0.125181,-0.174711,
-0.0910652,-0.0300059,0.387628,-1.60486,-0.179183,-0.120911,0.513863,-0.157918,0.0566711,-0.167546,-0.0819022,1.03104,-0.00213816,-0.0558751,0,0,0,0,0,0,0,-0.0617297,-0.047074,0.417652,-1.58927,-0.141422,1.51715,1.31446,-0.155524,-0.000907208,-0.178061,-0.0132582,0.187711,-0.289215,-0.012405,-0.655026,-28.1548,-1.463,25.9314,1.27136,2.88018,-0.117081,-0.226793,2.69237,-1.00148,-1.1311,0.585158,1.56219,1.57516,0.6437,1.56156,-0.380706,1.09297,0.095622,-0.178691,
-0.0916654,-0.0297915,0.38699,-1.6052,-0.175018,-0.120666,0.513625,-0.150051,0.0535947,-0.159482,-0.0859505,1.04118,0.0613264,-0.0593591,0,0,0,0,0,0,0,-0.0617297,-0.047074,0.417652,-1.58927,-0.141422,1.51715,1.31446,-0.155524,-0.000907208,-0.178061,-0.0132582,0.187711,-0.289215,-0.012405,-0.655026,-28.1548,-1.463,25.9314,1.27136,2.88018,-0.117081,-0.226793,2.69237,-1.00148,-1.1311,0.585158,1.56219,1.57516,0.6437,1.56156,-0.380706,1.09297,0.095622,-0.178691,
-0.0922294,-0.0295869,0.38639,-1.60556,-0.170831,-0.120132,0.513369,-0.141,0.0511354,-0.150094,-0.0889177,1.04663,0.13349,-0.0641564,0,0,0,0,0,0,0,-0.0617297,-0.047074,0.417652,-1.58927,-0.141422,1.51715,1.31446,-0.155524,-0.000907208,-0.178061,-0.0132582,0.187711,-0.289215,-0.012405,-0.655026,-28.1548,-1.463,25.9314,1.27136,2.88018,-0.117081,-0.406335,2.53667,-1.20783,-1.10364,0.79706,1.48033,1.49322,0.912621,1.48232,-0.706476,1.12448,-0.176892,-0.181711,
-0.0927446,-0.0293785,0.385841,-1.6059,-0.166686,-0.119332,0.513154,-0.128803,0.0521095,-0.137316,-0.0854041,1.03623,0.199999,-0.05377,0,0,0,0,0,0,0,-0.0672197,-0.0470512,0.410941,-1.58993,-0.130117,1.50892,1.31439,-0.17899,0.00490263,-0.221471,-0.0280871,0.456611,-0.187252,-0.00394397,0.384403,-28.2579,-0.260912,25.6339,1.08825,2.64855,-0.123489,-0.406335,2.53667,-1.20783,-1.10364,0.79706,1.48033,1.49322,0.912621,1.48232,-0.706476,1.12448,-0.176892,-0.181711,
-0.0932188,-0.0291704,0.385333,-1.60623,-0.162558,-0.118309,0.51294,-0.118566,0.0520207,-0.126899,-0.0819851,1.03211,0.255801,-0.0533311,0,0,0,0,0,0,0,-0.0672197,-0.0470512,0.410941,-1.58993,-0.130117,1.50892,1.31439,-0.17899,0.00490263,-0.221471,-0.0280871,0.456611,-0.187252,-0.00394397,0.384403,-28.2579,-0.260912,25.6339,1.08825,2.64855,-0.123489,-0.975493,1.03319,-0.91072,-0.196437,0.388996,0.79829,0.808315,0.722291,0.784299,-0.732005,0.921362,-0.418933,-0.181863,
-0.0936587,-0.0289655,0.38486,-1.60654,-0.15843,-0.117099,0.512726,-0.109966,0.0512299,-0.118178,-0.0786634,1.03206,0.302576,-0.0535579,0,0,0,0,0,0,0,-0.0672197,-0.0470512,0.410941,-1.58993,-0.130117,1.50892,1.31439,-0.17899,0.00490263,-0.221471,-0.0280871,0.456611,-0.187252,-0.00394397,0.384403,-28.2579,-0.260912,25.6339,1.08825,2.64855,-0.123489,-1.0858,-0.517353,-0.412673,0.744374,0.10598,0.0263677,0.0380044,0.507323,-0.00885312,-0.606045,0.64442,-0.544416,-0.184232,
