PerkyPenguin/Analysis-on-Approximated-Derivatives/Code_and_Data/PaperData/Real_Robot/Scene_2/contact_change/8/trajectory.csv
Commanded Joint 0 Position,Commanded Joint 1 Position,Commanded Joint 2 Position,Commanded Joint 3 Position,Commanded Joint 4 Position,Commanded Joint 5 Position,Commanded Joint 6 Position,Commanded Joint 0 Velocity,Commanded Joint 1 Velocity,Commanded Joint 2 Velocity,Commanded Joint 3 Velocity,Commanded Joint 4 Velocity,Commanded Joint 5 Velocity,Commanded Joint 6 Velocity,Commanded Joint 0 Torque,Commanded Joint 1 Torque,Commanded Joint 2 Torque,Commanded Joint 3 Torque,Commanded Joint 4 Torque,Commanded Joint 5 Torque,Commanded Joint 6 Torque,Actual Joint 0 Position,Actual Joint 1 Position,Actual Joint 2 Position,Actual Joint 3 Position,Actual Joint 4 Position,Actual Joint 5 Position,Actual Joint 6 Position,Actual Joint 0 Velocity,Actual Joint 1 Velocity,Actual Joint 2 Velocity,Actual Joint 3 Velocity,Actual Joint 4 Velocity,Actual Joint 5 Velocity,Actual Joint 6 Velocity,Actual Joint 0 Torque,Actual Joint 1 Torque,Actual Joint 2 Torque,Actual Joint 3 Torque,Actual Joint 4 Torque,Actual Joint 5 Torque,Actual Joint 6 Torque,EE ext force 0,EE ext force 1,EE ext force 2,EE ext force 3,EE ext force 4,EE ext force 5,joint ext torque 0,joint ext torque 1,joint ext torque 2,joint ext torque 3,joint ext torque 4,joint ext torque 5,joint ext torque 6,
0.0226506,-0.0524301,0.514815,-1.5579,0.0469198,-0.0116795,0.533038,0.0108938,0.0310414,0.0150781,-0.143689,-0.0716405,0.199396,-0.00125538,0,0,0,0,0,0,0,0.02258,-0.0525819,0.514715,-1.55647,0.0474123,1.55713,1.31845,0.000660971,-0.00128917,0.000942718,0.000197035,-0.00886868,-0.00052137,-0.00083948,0.158268,-27.2582,-0.836168,26.7764,1.3327,3.12554,0.11821,1.79075,1.66031,1.60999,-0.831863,1.13831,0.177205,0.196679,0.548282,0.172477,0.048994,0.234215,-0.311465,0.0907391,
0.0227084,-0.0522255,0.514893,-1.55852,0.0465558,-0.0108498,0.533032,0.0144533,0.0511529,0.0194103,-0.154552,-0.0909833,0.207432,-0.00134732,0,0,0,0,0,0,0,0.02258,-0.0525819,0.514715,-1.55647,0.0474123,1.55713,1.31845,0.000660971,-0.00128917,0.000942718,0.000197035,-0.00886868,-0.00052137,-0.00083948,0.158268,-27.2582,-0.836168,26.7764,1.3327,3.12554,0.11821,1.86983,1.68861,1.61642,-0.859052,1.19287,0.16696,0.186754,0.576917,0.162801,0.0413276,0.226322,-0.312647,0.0910978,
0.0225843,-0.052598,0.51472,-1.55646,0.0473389,-0.0136685,0.533048,0.000101375,-0.000833148,0.00016861,0.000204907,-0.00292494,-0.000194745,-9.68134e-06,0,0,0,0,0,0,0,0.02258,-0.0525819,0.514715,-1.55647,0.0474123,1.55713,1.31845,0.000660971,-0.00128917,0.000942718,0.000197035,-0.00886868,-0.00052137,-0.00083948,0.158268,-27.2582,-0.836168,26.7764,1.3327,3.12554,0.11821,1.86983,1.68861,1.61642,-0.859052,1.19287,0.16696,0.186754,0.576917,0.162801,0.0413276,0.226322,-0.312647,0.0910978,
0.0225844,-0.052601,0.51472,-1.55646,0.0473298,-0.0136691,0.533048,4.57785e-05,-0.000741594,0.000115601,0.000211984,-0.002266,-0.000152986,-5.8963e-06,0,0,0,0,0,0,0,0.02258,-0.0525819,0.514715,-1.55647,0.0474123,1.55713,1.31845,0.000660971,-0.00128917,0.000942718,0.000197035,-0.00886868,-0.00052137,-0.00083948,0.158268,-27.2582,-0.836168,26.7764,1.3327,3.12554,0.11821,1.94196,1.50548,1.62257,-0.726124,1.22423,0.0640858,0.0859515,0.582828,0.0542906,0.058992,0.208207,-0.298112,0.0894946,
0.0225845,-0.0526037,0.514721,-1.55646,0.0473227,-0.0136696,0.533048,8.87066e-06,-0.000665127,8.19672e-05,0.000211789,-0.00176984,-0.000119002,-3.34292e-06,0,0,0,0,0,0,0,0.02258,-0.0525819,0.514715,-1.55647,0.0474123,1.55713,1.31845,0.000660971,-0.00128917,0.000942718,0.000197035,-0.00886868,-0.00052137,-0.00083948,0.158268,-27.2582,-0.836168,26.7764,1.3327,3.12554,0.11821,1.94196,1.50548,1.62257,-0.726124,1.22423,0.0640858,0.0859515,0.582828,0.0542906,0.058992,0.208207,-0.298112,0.0894946,
0.0225844,-0.0526061,0.514721,-1.55646,0.0473172,-0.01367,0.533048,-1.50732e-05,-0.000601683,6.16095e-05,0.0002068,-0.00139376,-9.36436e-05,-1.6022e-06,0,0,0,0,0,0,0,0.0225783,-0.0527111,0.51471,-1.55703,0.0474538,1.5578,1.31845,-0.00684077,0.00130885,-0.00460064,-0.0309087,0.0100222,0.0424346,2.32726e-06,0.182071,-26.909,-0.76079,27.1255,0.752255,3.15941,0.0843355,1.09639,1.02472,1.20606,-0.444233,0.729503,0.084836,0.108262,0.366992,0.0675452,0.0224964,0.216539,-0.279993,0.0892279,
0.0225843,-0.0526083,0.514721,-1.55646,0.0473127,-0.0136703,0.533048,-3.0049e-05,-0.000549268,5.02904e-05,0.000198934,-0.0011068,-7.68332e-05,-4.15371e-07,0,0,0,0,0,0,0,0.0225783,-0.0527111,0.51471,-1.55703,0.0474538,1.5578,1.31845,-0.00684077,0.00130885,-0.00460064,-0.0309087,0.0100222,0.0424346,2.32726e-06,0.182071,-26.909,-0.76079,27.1255,0.752255,3.15941,0.0843355,1.09639,1.02472,1.20606,-0.444233,0.729503,0.084836,0.108262,0.366992,0.0675452,0.0224964,0.216539,-0.279993,0.0892279,
0.0225841,-0.0526103,0.514721,-1.55646,0.0473092,-0.0136706,0.533048,-3.88588e-05,-0.000506107,4.50566e-05,0.000189548,-0.000886344,-6.78586e-05,3.90762e-07,0,0,0,0,0,0,0,0.0225783,-0.0527111,0.51471,-1.55703,0.0474538,1.5578,1.31845,-0.00684077,0.00130885,-0.00460064,-0.0309087,0.0100222,0.0424346,2.32726e-06,0.182071,-26.909,-0.76079,27.1255,0.752255,3.15941,0.0843355,0.669939,1.41856,0.674838,-0.863319,0.611447,0.384215,0.400097,0.397223,0.388693,-0.155147,0.226781,-0.281939,0.0881445,
0.0230793,-0.0526904,0.515205,-1.55601,0.0349149,-0.0212181,0.533008,0.00682094,-0.00640883,0.00695276,0.00311158,-0.367352,-0.231402,-0.00107906,0,0,0,0,0,0,0,0.0225783,-0.0527111,0.51471,-1.55703,0.0474538,1.5578,1.31845,-0.00684077,0.00130885,-0.00460064,-0.0309087,0.0100222,0.0424346,2.32726e-06,0.182071,-26.909,-0.76079,27.1255,0.752255,3.15941,0.0843355,1.78907,1.79092,0.389213,-1.21481,1.53356,0.235787,0.247084,0.951563,0.256051,-0.359387,0.20716,-0.253449,0.0866696,
0.0229623,-0.0525133,0.515093,-1.55678,0.03553,-0.0200371,0.533019,0.00517003,-0.00278407,0.00533694,0.00126989,-0.352087,-0.222226,-0.000983945,0,0,0,0,0,0,0,0.0225783,-0.0527111,0.51471,-1.55703,0.0474538,1.5578,1.31845,-0.00684077,0.00130885,-0.00460064,-0.0309087,0.0100222,0.0424346,2.32726e-06,0.182071,-26.909,-0.76079,27.1255,0.752255,3.15941,0.0843355,1.78907,1.79092,0.389213,-1.21481,1.53356,0.235787,0.247084,0.951563,0.256051,-0.359387,0.20716,-0.253449,0.0866696,
0.0229791,-0.0525253,0.51511,-1.55678,0.0341037,-0.0209431,0.533015,0.00420312,-0.00299254,0.00436608,0.000724052,-0.356569,-0.226489,-0.000963143,0,0,0,0,0,0,0,0.0225793,-0.052697,0.514718,-1.55722,0.0473811,1.55793,1.31845,-0.000869134,0.00097582,-0.000114295,-0.00480088,0.00393286,0.00498504,-0.000227168,0.0313145,-27.5597,-0.911547,27.2287,0.575558,3.09258,0.0907442,2.04107,1.58116,0.874539,-0.917066,1.48803,0.0665005,0.0734643,0.816856,0.0794006,-0.133584,0.198663,-0.195366,0.088594,
0.0229923,-0.0525375,0.515124,-1.55678,0.0326641,-0.0218621,0.533011,0.00329773,-0.00306066,0.00345524,0.000253683,-0.359908,-0.22976,-0.000942315,0,0,0,0,0,0,0,0.0225793,-0.052697,0.514718,-1.55722,0.0473811,1.55793,1.31845,-0.000869134,0.00097582,-0.000114295,-0.00480088,0.00393286,0.00498504,-0.000227168,0.0313145,-27.5597,-0.911547,27.2287,0.575558,3.09258,0.0907442,2.04107,1.58116,0.874539,-0.917066,1.48803,0.0665005,0.0734643,0.816856,0.0794006,-0.133584,0.198663,-0.195366,0.088594,
0.0230021,-0.0525496,0.515134,-1.55678,0.0312148,-0.022791,0.533008,0.00245739,-0.00302401,0.0026087,-0.000153916,-0.362324,-0.232211,-0.000921907,0,0,0,0,0,0,0,0.0225793,-0.052697,0.514718,-1.55722,0.0473811,1.55793,1.31845,-0.000869134,0.00097582,-0.000114295,-0.00480088,0.00393286,0.00498504,-0.000227168,0.0313145,-27.5597,-0.911547,27.2287,0.575558,3.09258,0.0907442,1.96334,2.05039,0.930142,-1.25727,1.42937,0.301315,0.302816,0.788081,0.328727,-0.142602,0.213907,-0.213325,0.0890538,
0.0230089,-0.0525613,0.515142,-1.55678,0.0297588,-0.0237269,0.533004,0.00168255,-0.00291079,0.00182736,-0.000508575,-0.363989,-0.233984,-0.000902172,0,0,0,0,0,0,0,0.0225793,-0.052697,0.514718,-1.55722,0.0473811,1.55793,1.31845,-0.000869134,0.00097582,-0.000114295,-0.00480088,0.00393286,0.00498504,-0.000227168,0.0313145,-27.5597,-0.911547,27.2287,0.575558,3.09258,0.0907442,1.96334,2.05039,0.930142,-1.25727,1.42937,0.301315,0.302816,0.788081,0.328727,-0.142602,0.213907,-0.213325,0.0890538,
0.0230128,-0.0525722,0.515146,-1.55679,0.0282987,-0.0246677,0.533001,0.000971697,-0.00274323,0.00110998,-0.000818009,-0.365037,-0.235196,-0.000883242,0,0,0,0,0,0,0,0.0225793,-0.052697,0.514718,-1.55722,0.0473811,1.55793,1.31845,-0.000869134,0.00097582,-0.000114295,-0.00480088,0.00393286,0.00498504,-0.000227168,0.0313145,-27.5597,-0.911547,27.2287,0.575558,3.09258,0.0907442,1.45086,1.96635,1.02345,-1.24542,0.992508,0.40351,0.397332,0.522172,0.439195,-0.0806796,0.144796,-0.240148,0.090255,
0.023444,-0.0525715,0.515496,-1.55539,0.00581922,-0.0554816,0.532529,0.00103385,-0.00790934,9.17936e-05,0.000485263,-1.14156,-1.1705,-0.010887,0,0,0,0,0,0,0,0.0225793,-0.052697,0.514718,-1.55722,0.0473811,1.55793,1.31845,-0.000869134,0.00097582,-0.000114295,-0.00480088,0.00393286,0.00498504,-0.000227168,0.0313145,-27.5597,-0.911547,27.2287,0.575558,3.09258,0.0907442,1.34288,1.84257,1.35347,-1.20387,0.776302,0.372329,0.363003,0.341808,0.41117,0.0013591,0.0274089,-0.298808,0.091189,
0.0236007,-0.0527776,0.515663,-1.55558,0.00581203,-0.0517202,0.532584,0.00397935,-0.00991067,0.00321662,0.0013969,-1.14078,-1.06589,-0.00970857,0,0,0,0,0,0,0,0.0227089,-0.0526939,0.514822,-1.55721,0.043347,1.55771,1.31845,0.00118532,-0.000268966,-0.00200096,-0.00029768,-0.17151,-0.0124956,0.000813931,-0.57568,-27.5597,-1.51061,27.0541,0.459286,2.9406,0.0706026,1.34288,1.84257,1.35347,-1.20387,0.776302,0.372329,0.363003,0.341808,0.41117,0.0013591,0.0274089,-0.298808,0.091189,
0.0236042,-0.0528101,0.515663,-1.55559,0.00117941,-0.0560308,0.532546,0.000856409,-0.00811538,0.000126948,-0.00194725,-1.15815,-1.07763,-0.00957296,0,0,0,0,0,0,0,0.0227089,-0.0526939,0.514822,-1.55721,0.043347,1.55771,1.31845,0.00118532,-0.000268966,-0.00200096,-0.00029768,-0.17151,-0.0124956,0.000813931,-0.57568,-27.5597,-1.51061,27.0541,0.459286,2.9406,0.0706026,1.55766,1.83713,1.48267,-1.25202,0.890659,0.305977,0.298589,0.38598,0.345653,-0.0133063,-0.0443673,-0.341596,0.091062,
0.023596,-0.0528347,0.515652,-1.5556,-0.00351113,-0.0603733,0.532508,-0.00204887,-0.00616701,-0.00275294,-0.00486602,-1.17263,-1.08563,-0.00943794,0,0,0,0,0,0,0,0.0227089,-0.0526939,0.514822,-1.55721,0.043347,1.55771,1.31845,0.00118532,-0.000268966,-0.00200096,-0.00029768,-0.17151,-0.0124956,0.000813931,-0.57568,-27.5597,-1.51061,27.0541,0.459286,2.9406,0.0706026,1.55766,1.83713,1.48267,-1.25202,0.890659,0.305977,0.298589,0.38598,0.345653,-0.0133063,-0.0443673,-0.341596,0.091062,
0.023577,-0.0528513,0.515631,-1.55563,-0.00825009,-0.0647353,0.532471,-0.00473914,-0.00414759,-0.0054243,-0.00741174,-1.18474,-1.09052,-0.00930418,0,0,0,0,0,0,0,0.0227089,-0.0526939,0.514822,-1.55721,0.043347,1.55771,1.31845,0.00118532,-0.000268966,-0.00200096,-0.00029768,-0.17151,-0.0124956,0.000813931,-0.57568,-27.5597,-1.51061,27.0541,0.459286,2.9406,0.0706026,2.88451,2.86664,1.92581,-1.89169,1.63336,0.384999,0.381511,0.694325,0.436493,0.0799845,-0.0631314,-0.241979,0.0990117,
0.0235481,-0.0528598,0.515599,-1.55567,-0.0130296,-0.0691066,0.532434,-0.00722117,-0.00211849,-0.0078929,-0.0096289,-1.19489,-1.09282,-0.00917205,0,0,0,0,0,0,0,0.0227089,-0.0526939,0.514822,-1.55721,0.043347,1.55771,1.31845,0.00118532,-0.000268966,-0.00200096,-0.00029768,-0.17151,-0.0124956,0.000813931,-0.57568,-27.5597,-1.51061,27.0541,0.459286,2.9406,0.0706026,3.00719,3.20411,2.33958,-2.21283,1.59797,0.489981,0.482299,0.62317,0.5564,0.101343,-0.188741,-0.349787,0.103806,
0.0184941,-0.0517858,0.510217,-1.55888,0.0170788,-0.0506604,0.528769,-0.153774,0.0469236,-0.163346,-0.0802352,-1.00193,-1.19913,-0.0926499,0,0,0,0,0,0,0,0.0231646,-0.0527159,0.515247,-1.55661,0.0295819,1.55188,1.31845,0.0198078,-0.000354991,0.0305064,0.034124,-0.67222,-0.331068,0.000200911,-1.36517,-27.3811,-2.26042,25.4831,-1.49536,1.04363,0.0779268,3.00719,3.20411,2.33958,-2.21283,1.59797,0.489981,0.482299,0.62317,0.5564,0.101343,-0.188741,-0.349787,0.103806,
0.0187875,-0.0522389,0.510508,-1.55848,-0.00980999,-0.0613684,0.529162,-0.15871,0.0457227,-0.167664,-0.0778919,-1.06405,-1.23121,-0.0829439,0,0,0,0,0,0,0,0.0231646,-0.0527159,0.515247,-1.55661,0.0295819,1.55188,1.31845,0.0198078,-0.000354991,0.0305064,0.034124,-0.67222,-0.331068,0.000200911,-1.36517,-27.3811,-2.26042,25.4831,-1.49536,1.04363,0.0779268,2.99865,2.38097,2.60221,-2.05556,1.59061,0.101178,0.0896366,0.621367,0.17768,-0.11842,-0.596121,-0.70565,0.101125,
0.0181256,-0.0520291,0.50981,-1.55881,-0.0141578,-0.0663824,0.528834,-0.165478,0.0524663,-0.17443,-0.0824011,-1.08695,-1.25349,-0.0818856,0,0,0,0,0,0,0,0.0231646,-0.0527159,0.515247,-1.55661,0.0295819,1.55188,1.31845,0.0198078,-0.000354991,0.0305064,0.034124,-0.67222,-0.331068,0.000200911,-1.36517,-27.3811,-2.26042,25.4831,-1.49536,1.04363,0.0779268,2.99865,2.38097,2.60221,-2.05556,1.59061,0.101178,0.0896366,0.621367,0.17768,-0.11842,-0.596121,-0.70565,0.101125,
0.0174395,-0.0517939,0.509088,-1.55915,-0.0185877,-0.0714702,0.528511,-0.171509,0.0587949,-0.180456,-0.0863779,-1.10747,-1.27197,-0.0808401,0,0,0,0,0,0,0,0.0231646,-0.0527159,0.515247,-1.55661,0.0295819,1.55188,1.31845,0.0198078,-0.000354991,0.0305064,0.034124,-0.67222,-0.331068,0.000200911,-1.36517,-27.3811,-2.26042,25.4831,-1.49536,1.04363,0.0779268,2.70336,2.11122,2.86365,-2.14584,1.31396,0.051505,0.0404768,0.447929,0.137369,-0.201936,-0.879537,-0.928559,0.0949249,
0.016732,-0.0515351,0.508345,-1.55951,-0.0230909,-0.0766193,0.528192,-0.176885,0.0646898,-0.185828,-0.0898625,-1.1258,-1.28727,-0.0798045,0,0,0,0,0,0,0,0.0231646,-0.0527159,0.515247,-1.55661,0.0295819,1.55188,1.31845,0.0198078,-0.000354991,0.0305064,0.034124,-0.67222,-0.331068,0.000200911,-1.36517,-27.3811,-2.26042,25.4831,-1.49536,1.04363,0.0779268,1.19285,2.51179,3.49684,-2.23447,0.0168382,0.679825,0.681161,-0.346439,0.752158,0.125119,-0.773856,-0.968054,0.073206,
0.0160053,-0.0512546,0.507582,-1.55989,-0.0276595,-0.0818189,0.527877,-0.181677,0.070145,-0.190616,-0.0928942,-1.14215,-1.2999,-0.0787767,0,0,0,0,0,0,0,0.0231646,-0.0527159,0.515247,-1.55661,0.0295819,1.55188,1.31845,0.0198078,-0.000354991,0.0305064,0.034124,-0.67222,-0.331068,0.000200911,-1.36517,-27.3811,-2.26042,25.4831,-1.49536,1.04363,0.0779268,1.19285,2.51179,3.49684,-2.23447,0.0168382,0.679825,0.681161,-0.346439,0.752158,0.125119,-0.773856,-0.968054,0.073206,
0.0139913,-0.0514266,0.505567,-1.5615,-0.00370222,-0.0596221,0.525549,-0.309494,0.0977303,-0.322686,-0.153493,-0.958233,-1.19633,-0.160313,0,0,0,0,0,0,0,0.0236889,-0.0528656,0.515598,-1.5561,0.00780527,1.53949,1.31809,0.00116407,-0.0113539,0.00337685,-0.0143222,-0.724654,-0.45856,-0.0315407,-3.67016,-25.461,-4.81139,25.134,-0.597233,0.971304,-0.050247,1.57775,1.95754,3.71812,-1.84092,0.374279,0.332835,0.35751,-0.121681,0.372393,0.0277134,-0.769401,-1.13704,0.0509098,
0.0144651,-0.0513669,0.505908,-1.56095,-0.0274098,-0.0746631,0.525989,-0.302798,0.0969176,-0.315039,-0.144161,-0.979932,-1.21597,-0.142072,0,0,0,0,0,0,0,0.0236889,-0.0528656,0.515598,-1.5561,0.00780527,1.53949,1.31809,0.00116407,-0.0113539,0.00337685,-0.0143222,-0.724654,-0.45856,-0.0315407,-3.67016,-25.461,-4.81139,25.134,-0.597233,0.971304,-0.050247,1.57775,1.95754,3.71812,-1.84092,0.374279,0.332835,0.35751,-0.121681,0.372393,0.0277134,-0.769401,-1.13704,0.0509098,
0.0132137,-0.0509391,0.504608,-1.56155,-0.0314538,-0.0796034,0.525429,-0.312846,0.106941,-0.325147,-0.148616,-1.01099,-1.23506,-0.140101,0,0,0,0,0,0,0,0.0236889,-0.0528656,0.515598,-1.5561,0.00780527,1.53949,1.31809,0.00116407,-0.0113539,0.00337685,-0.0143222,-0.724654,-0.45856,-0.0315407,-3.67016,-25.461,-4.81139,25.134,-0.597233,0.971304,-0.050247,3.37164,0.230875,3.28665,-0.974911,1.99868,-0.950231,-0.905833,0.898446,-0.944546,-0.494713,-1.02193,-1.4048,0.0245627,
0.0119269,-0.0504745,0.503272,-1.56216,-0.0356116,-0.0846068,0.524876,-0.321708,0.116156,-0.334058,-0.152521,-1.03944,-1.25087,-0.138152,0,0,0,0,0,0,0,0.0236889,-0.0528656,0.515598,-1.5561,0.00780527,1.53949,1.31809,0.00116407,-0.0113539,0.00337685,-0.0143222,-0.724654,-0.45856,-0.0315407,-3.67016,-25.461,-4.81139,25.134,-0.597233,0.971304,-0.050247,3.37164,0.230875,3.28665,-0.974911,1.99868,-0.950231,-0.905833,0.898446,-0.944546,-0.494713,-1.02193,-1.4048,0.0245627,
0.0106088,-0.0499761,0.501904,-1.56278,-0.0398731,-0.0896626,0.524331,-0.329527,0.124588,-0.34192,-0.155906,-1.06537,-1.26393,-0.13622,0,0,0,0,0,0,0,0.0236889,-0.0528656,0.515598,-1.5561,0.00780527,1.53949,1.31809,0.00116407,-0.0113539,0.00337685,-0.0143222,-0.724654,-0.45856,-0.0315407,-3.67016,-25.461,-4.81139,25.134,-0.597233,0.971304,-0.050247,2.85888,-0.476991,2.76346,-0.63532,1.86567,-1.10666,-1.06203,0.933707,-1.10644,-0.6979,-1.05473,-1.49271,-0.00224226,
0.00926309,-0.049447,0.500509,-1.56342,-0.0442287,-0.0947614,0.523794,-0.33642,0.132272,-0.348853,-0.158803,-1.0889,-1.27471,-0.1343,0,0,0,0,0,0,0,0.0235688,-0.0533122,0.515267,-1.55639,-0.0150111,1.52314,1.31666,-0.0179976,-0.0122621,-0.0376626,-0.022126,-0.642466,-0.507505,-0.0602309,-6.20923,-24.612,-7.16002,23.7891,-0.731815,1.13061,-0.0767973,1.05547,-0.163639,1.95104,-0.927711,0.984754,-0.425096,-0.394843,0.657063,-0.402194,-0.925414,-0.835556,-1.56958,-0.0366301,
0.00824731,-0.0501209,0.499563,-1.56463,-0.0256309,-0.0777773,0.521696,-0.454024,0.155437,-0.468728,-0.218255,-0.927603,-1.20186,-0.212736,0,0,0,0,0,0,0,0.0235688,-0.0533122,0.515267,-1.55639,-0.0150111,1.52314,1.31666,-0.0179976,-0.0122621,-0.0376626,-0.022126,-0.642466,-0.507505,-0.0602309,-6.20923,-24.612,-7.16002,23.7891,-0.731815,1.13061,-0.0767973,1.05547,-0.163639,1.95104,-0.927711,0.984754,-0.425096,-0.394843,0.657063,-0.402194,-0.925414,-0.835556,-1.56958,-0.0366301,
0.00838695,-0.0506099,0.499545,-1.56398,-0.0489203,-0.0950413,0.521683,-0.436947,0.144622,-0.450227,-0.194468,-0.941555,-1.20556,-0.183221,0,0,0,0,0,0,0,0.0235688,-0.0533122,0.515267,-1.55639,-0.0150111,1.52314,1.31666,-0.0179976,-0.0122621,-0.0376626,-0.022126,-0.642466,-0.507505,-0.0602309,-6.20923,-24.612,-7.16002,23.7891,-0.731815,1.13061,-0.0767973,0.719108,-0.514572,2.34931,-0.55022,0.647959,-0.463153,-0.439172,0.425547,-0.447613,-0.775433,-0.785528,-1.61796,-0.0748805,
0.00659479,-0.0499853,0.4977,-1.56478,-0.0528318,-0.0999241,0.520961,-0.448039,0.156151,-0.461394,-0.19839,-0.97786,-1.22071,-0.180383,0,0,0,0,0,0,0,0.0235688,-0.0533122,0.515267,-1.55639,-0.0150111,1.52314,1.31666,-0.0179976,-0.0122621,-0.0376626,-0.022126,-0.642466,-0.507505,-0.0602309,-6.20923,-24.612,-7.16002,23.7891,-0.731815,1.13061,-0.0767973,0.719108,-0.514572,2.34931,-0.55022,0.647959,-0.463153,-0.439172,0.425547,-0.447613,-0.775433,-0.785528,-1.61796,-0.0748805,
0.00476369,-0.0493188,0.495815,-1.56558,-0.0568761,-0.104857,0.520251,-0.457776,0.166628,-0.471195,-0.201748,-1.01109,-1.23322,-0.177568,0,0,0,0,0,0,0,0.0235688,-0.0533122,0.515267,-1.55639,-0.0150111,1.52314,1.31666,-0.0179976,-0.0122621,-0.0376626,-0.022126,-0.642466,-0.507505,-0.0602309,-6.20923,-24.612,-7.16002,23.7891,-0.731815,1.13061,-0.0767973,1.43004,-0.050232,2.57976,-0.793796,1.06642,-0.425456,-0.407201,0.608759,-0.399415,-0.719426,-0.755095,-1.55868,-0.107202,
0.00289844,-0.0486143,0.493896,-1.5664,-0.0610416,-0.109831,0.519552,-0.466312,0.176112,-0.47979,-0.204573,-1.04138,-1.24351,-0.174771,0,0,0,0,0,0,0,0.0235688,-0.0533122,0.515267,-1.55639,-0.0150111,1.52314,1.31666,-0.0179976,-0.0122621,-0.0376626,-0.022126,-0.642466,-0.507505,-0.0602309,-6.20923,-24.612,-7.16002,23.7891,-0.731815,1.13061,-0.0767973,1.43004,-0.050232,2.57976,-0.793796,1.06642,-0.425456,-0.407201,0.608759,-0.399415,-0.719426,-0.755095,-1.55868,-0.107202,
0.00100332,-0.0478757,0.491946,-1.56723,-0.0653171,-0.114839,0.518864,-0.47378,0.184666,-0.487314,-0.206903,-1.06887,-1.25192,-0.171989,0,0,0,0,0,0,0,0.0218314,-0.0538876,0.512941,-1.55784,-0.0368974,1.50487,1.31502,-0.0812706,-0.0215749,-0.107839,-0.0727303,-0.616718,-0.57335,-0.0533784,-7.32403,-22.914,-8.31053,23.8129,-0.750126,1.60119,-0.190323,1.84496,0.910435,1.94775,-1.4715,1.57168,-0.0694027,-0.0633128,0.982403,-0.0132184,-0.894696,-0.603339,-1.40839,-0.13628,
-0.000917859,-0.0471063,0.489971,-1.56806,-0.0696921,-0.119874,0.518187,-0.480294,0.192349,-0.493882,-0.208775,-1.09374,-1.25876,-0.169219,0,0,0,0,0,0,0,0.0218314,-0.0538876,0.512941,-1.55784,-0.0368974,1.50487,1.31502,-0.0812706,-0.0215749,-0.107839,-0.0727303,-0.616718,-0.57335,-0.0533784,-7.32403,-22.914,-8.31053,23.8129,-0.750126,1.60119,-0.190323,1.35931,0.69622,1.21088,-1.24325,1.44298,0.00738046,0.00402482,1.01061,0.0639295,-0.959226,-0.416396,-1.24838,-0.165759,
0.00372514,-0.0498209,0.494851,-1.56681,-0.0435434,-0.0932554,0.518094,-0.568951,0.190891,-0.583662,-0.258156,-0.865133,-1.17295,-0.252907,0,0,0,0,0,0,0,0.0218314,-0.0538876,0.512941,-1.55784,-0.0368974,1.50487,1.31502,-0.0812706,-0.0215749,-0.107839,-0.0727303,-0.616718,-0.57335,-0.0533784,-7.32403,-22.914,-8.31053,23.8129,-0.750126,1.60119,-0.190323,1.35931,0.69622,1.21088,-1.24325,1.44298,0.00738046,0.00402482,1.01061,0.0639295,-0.959226,-0.416396,-1.24838,-0.165759,
0.00171218,-0.0500567,0.492308,-1.56728,-0.0683855,-0.113485,0.518348,-0.553863,0.183173,-0.566961,-0.230373,-0.908722,-1.18365,-0.214024,0,0,0,0,0,0,0,0.0218314,-0.0538876,0.512941,-1.55784,-0.0368974,1.50487,1.31502,-0.0812706,-0.0215749,-0.107839,-0.0727303,-0.616718,-0.57335,-0.0533784,-7.32403,-22.914,-8.31053,23.8129,-0.750126,1.60119,-0.190323,0.533764,-0.706415,2.15705,0.1353,0.316097,-0.378972,-0.385104,0.139826,-0.367234,-0.289426,-0.410382,-1.08013,-0.186225,
-0.000551702,-0.0492728,0.489991,-1.56822,-0.0721824,-0.118273,0.517506,-0.565972,0.195986,-0.579163,-0.234001,-0.949212,-1.19689,-0.210342,0,0,0,0,0,0,0,0.0218314,-0.0538876,0.512941,-1.55784,-0.0368974,1.50487,1.31502,-0.0812706,-0.0215749,-0.107839,-0.0727303,-0.616718,-0.57335,-0.0533784,-7.32403,-22.914,-8.31053,23.8129,-0.750126,1.60119,-0.190323,0.533764,-0.706415,2.15705,0.1353,0.316097,-0.378972,-0.385104,0.139826,-0.367234,-0.289426,-0.410382,-1.08013,-0.186225,
-0.00285784,-0.0484426,0.487632,-1.56917,-0.0761278,-0.123104,0.516679,-0.576535,0.207541,-0.589808,-0.23706,-0.986372,-1.20776,-0.20669,0,0,0,0,0,0,0,0.0164331,-0.054568,0.506612,-1.56151,-0.0654528,1.47501,1.3114,-0.165254,-0.0188617,-0.193931,-0.118641,-0.647985,-0.76002,-0.0900463,-7.1455,-22.4419,-8.13597,24.1382,-0.145878,2.16424,-0.258072,0.632434,-0.168459,2.55402,-0.052583,0.115153,-0.130174,-0.136103,-0.0937521,-0.117984,0.00212393,-0.359088,-0.901337,-0.211035,
-0.00520078,-0.0475709,0.485236,-1.57013,-0.0802091,-0.12797,0.515867,-0.585733,0.217921,-0.599079,-0.239581,-1.02031,-1.21664,-0.203062,0,0,0,0,0,0,0,0.0164331,-0.054568,0.506612,-1.56151,-0.0654528,1.47501,1.3114,-0.165254,-0.0188617,-0.193931,-0.118641,-0.647985,-0.76002,-0.0900463,-7.1455,-22.4419,-8.13597,24.1382,-0.145878,2.16424,-0.258072,0.632434,-0.168459,2.55402,-0.052583,0.115153,-0.130174,-0.136103,-0.0937521,-0.117984,0.00212393,-0.359088,-0.901337,-0.211035,
-0.00757563,-0.0466621,0.482807,-1.57109,-0.0844138,-0.132866,0.515069,-0.593715,0.227206,-0.607129,-0.241599,-1.05117,-1.22384,-0.199457,0,0,0,0,0,0,0,0.0164331,-0.054568,0.506612,-1.56151,-0.0654528,1.47501,1.3114,-0.165254,-0.0188617,-0.193931,-0.118641,-0.647985,-0.76002,-0.0900463,-7.1455,-22.4419,-8.13597,24.1382,-0.145878,2.16424,-0.258072,0.34957,0.725732,1.58179,-0.769695,0.30595,0.380629,0.364529,0.197129,0.423992,-0.311552,-0.17617,-0.827958,-0.231404,
-0.00267413,-0.0493189,0.488476,-1.57003,-0.063637,-0.111699,0.514842,-0.674269,0.225305,-0.688712,-0.292003,-0.83441,-1.15159,-0.282052,0,0,0,0,0,0,0,0.0164331,-0.054568,0.506612,-1.56151,-0.0654528,1.47501,1.3114,-0.165254,-0.0188617,-0.193931,-0.118641,-0.647985,-0.76002,-0.0900463,-7.1455,-22.4419,-8.13597,24.1382,-0.145878,2.16424,-0.258072,0.34957,0.725732,1.58179,-0.769695,0.30595,0.380629,0.364529,0.197129,0.423992,-0.311552,-0.17617,-0.827958,-0.231404,
-0.00864944,-0.0494201,0.481047,-1.57272,-0.0966601,-0.145287,0.51354,-0.662505,0.219782,-0.675133,-0.261629,-0.902291,-1.16916,-0.234197,0,0,0,0,0,0,0,0.0164331,-0.054568,0.506612,-1.56151,-0.0654528,1.47501,1.3114,-0.165254,-0.0188617,-0.193931,-0.118641,-0.647985,-0.76002,-0.0900463,-7.1455,-22.4419,-8.13597,24.1382,-0.145878,2.16424,-0.258072,-0.342193,1.03529,1.25654,-0.896714,-0.103003,0.730064,0.70542,0.0175751,0.782305,-0.280949,-0.0205393,-0.720978,-0.248978,
-0.011348,-0.0484887,0.478297,-1.57378,-0.100437,-0.150001,0.512621,-0.674639,0.232859,-0.687368,-0.264554,-0.944187,-1.17851,-0.229753,0,0,0,0,0,0,0,0.0164331,-0.054568,0.506612,-1.56151,-0.0654528,1.47501,1.3114,-0.165254,-0.0188617,-0.193931,-0.118641,-0.647985,-0.76002,-0.0900463,-7.1455,-22.4419,-8.13597,24.1382,-0.145878,2.16424,-0.258072,1.1352,0.930906,0.837418,-0.95495,1.09532,0.311006,0.290352,0.723625,0.364873,-0.527371,-0.10013,-0.675277,-0.26493,
-0.0140884,-0.0475106,0.475506,-1.57484,-0.104368,-0.154746,0.511719,-0.685111,0.244504,-0.697926,-0.26693,-0.982726,-1.18612,-0.22535,0,0,0,0,0,0,0,0.00968475,-0.0546242,0.498418,-1.56537,-0.086663,1.44937,1.30838,-0.242434,-0.0081049,-0.26797,-0.13701,-0.621818,-0.775958,-0.0812732,-7.55017,-22.8148,-8.43749,24.0628,-0.46265,2.13128,-0.26448,1.1352,0.930906,0.837418,-0.95495,1.09532,0.311006,0.290352,0.723625,0.364873,-0.527371,-0.10013,-0.675277,-0.26493,
-0.0168649,-0.0464913,0.472678,-1.57592,-0.10844,-0.159515,0.510835,-0.694112,0.254823,-0.707002,-0.268779,-1.01799,-1.19227,-0.220983,0,0,0,0,0,0,0,0.00968475,-0.0546242,0.498418,-1.56537,-0.086663,1.44937,1.30838,-0.242434,-0.0081049,-0.26797,-0.13701,-0.621818,-0.775958,-0.0812732,-7.55017,-22.8148,-8.43749,24.0628,-0.46265,2.13128,-0.26448,0.499462,0.512564,0.477914,-0.764315,0.780259,0.301903,0.279125,0.617796,0.354906,-0.629623,-0.128759,-0.716748,-0.278053,
-0.0196721,-0.0454357,0.469819,-1.577,-0.11264,-0.164304,0.509969,-0.701802,0.263916,-0.71476,-0.270131,-1.05012,-1.19719,-0.216652,0,0,0,0,0,0,0,0.00968475,-0.0546242,0.498418,-1.56537,-0.086663,1.44937,1.30838,-0.242434,-0.0081049,-0.26797,-0.13701,-0.621818,-0.775958,-0.0812732,-7.55017,-22.8148,-8.43749,24.0628,-0.46265,2.13128,-0.26448,0.499462,0.512564,0.477914,-0.764315,0.780259,0.301903,0.279125,0.617796,0.354906,-0.629623,-0.128759,-0.716748,-0.278053,
-0.0225054,-0.0443482,0.466933,-1.57808,-0.116957,-0.169108,0.509119,-0.708315,0.271876,-0.721337,-0.271015,-1.07929,-1.20108,-0.212354,0,0,0,0,0,0,0,0.00968475,-0.0546242,0.498418,-1.56537,-0.086663,1.44937,1.30838,-0.242434,-0.0081049,-0.26797,-0.13701,-0.621818,-0.775958,-0.0812732,-7.55017,-22.8148,-8.43749,24.0628,-0.46265,2.13128,-0.26448,-0.42144,1.28265,-0.256557,-1.41382,0.470359,0.902838,0.876363,0.614383,0.979364,-0.891853,0.0026788,-0.746009,-0.286726,
-0.0102033,-0.0481362,0.480561,-1.57529,-0.0952393,-0.143767,0.510187,-0.714554,0.265671,-0.705476,-0.324581,-0.861399,-1.14448,-0.299936,0,0,0,0,0,0,0,0.00968475,-0.0546242,0.498418,-1.56537,-0.086663,1.44937,1.30838,-0.242434,-0.0081049,-0.26797,-0.13701,-0.621818,-0.775958,-0.0812732,-7.55017,-22.8148,-8.43749,24.0628,-0.46265,2.13128,-0.26448,-0.42144,1.28265,-0.256557,-1.41382,0.470359,0.902838,0.876363,0.614383,0.979364,-0.891853,0.0026788,-0.746009,-0.286726,
-0.0185675,-0.0482533,0.470736,-1.5776,-0.118466,-0.170148,0.509874,-0.733206,0.241892,-0.724303,-0.287331,-0.893859,-1.12752,-0.244826,0,0,0,0,0,0,0,-8.4824e-06,-0.0541844,0.488164,-1.56977,-0.105736,1.4253,1.30504,-0.311823,0.0271213,-0.35937,-0.139436,-0.644231,-0.750954,-0.105951,-7.52636,-23.3147,-8.40972,23.7891,-1.63544,1.49499,-0.210464,-1.03768,0.805912,0.124724,-1.01254,-0.0945331,0.83313,0.808037,0.2511,0.895268,-0.732172,-0.020416,-0.807106,-0.293329,
-0.0215613,-0.0472451,0.467777,-1.57878,-0.122187,-0.174535,0.508915,-0.748443,0.252056,-0.739869,-0.29567,-0.930066,-1.09679,-0.239722,0,0,0,0,0,0,0,-8.4824e-06,-0.0541844,0.488164,-1.56977,-0.105736,1.4253,1.30504,-0.311823,0.0271213,-0.35937,-0.139436,-0.644231,-0.750954,-0.105951,-7.52636,-23.3147,-8.40972,23.7891,-1.63544,1.49499,-0.210464,-0.305961,-1.41364,0.334438,0.43371,0.287841,-0.384926,-0.411433,0.388637,-0.3575,-0.688224,-0.315372,-0.876394,-0.290858,
-0.0246101,-0.0462003,0.464761,-1.57999,-0.12604,-0.178727,0.507976,-0.762199,0.261195,-0.753915,-0.303502,-0.96328,-1.04802,-0.234613,0,0,0,0,0,0,0,-8.4824e-06,-0.0541844,0.488164,-1.56977,-0.105736,1.4253,1.30504,-0.311823,0.0271213,-0.35937,-0.139436,-0.644231,-0.750954,-0.105951,-7.52636,-23.3147,-8.40972,23.7891,-1.63544,1.49499,-0.210464,-0.305961,-1.41364,0.334438,0.43371,0.287841,-0.384926,-0.411433,0.388637,-0.3575,-0.688224,-0.315372,-0.876394,-0.290858,
-0.0276986,-0.0451215,0.461688,-1.58124,-0.130017,-0.182666,0.507059,-0.772145,0.269699,-0.768206,-0.310186,-0.99439,-0.984595,-0.22947,0,0,0,0,0,0,0,-8.4824e-06,-0.0541844,0.488164,-1.56977,-0.105736,1.4253,1.30504,-0.311823,0.0271213,-0.35937,-0.139436,-0.644231,-0.750954,-0.105951,-7.52636,-23.3147,-8.40972,23.7891,-1.63544,1.49499,-0.210464,1.56182,-2.56292,-0.327991,0.944407,1.90203,-1.37872,-1.3996,1.38159,-1.36165,-1.12404,-0.539319,-0.941757,-0.291422,
-0.0308165,-0.04401,0.458562,-1.58249,-0.134112,-0.186326,0.50616,-0.779461,0.277881,-0.781538,-0.314547,-1.02358,-0.91496,-0.224548,0,0,0,0,0,0,0,-8.4824e-06,-0.0541844,0.488164,-1.56977,-0.105736,1.4253,1.30504,-0.311823,0.0271213,-0.35937,-0.139436,-0.644231,-0.750954,-0.105951,-7.52636,-23.3147,-8.40972,23.7891,-1.63544,1.49499,-0.210464,1.56182,-2.56292,-0.327991,0.944407,1.90203,-1.37872,-1.3996,1.38159,-1.36165,-1.12404,-0.539319,-0.941757,-0.291422,
-0.0339573,-0.0428692,0.455388,-1.58376,-0.138313,-0.189683,0.505281,-0.7852,0.285205,-0.793552,-0.317573,-1.05029,-0.839388,-0.219742,0,0,0,0,0,0,0,-8.4824e-06,-0.0541844,0.488164,-1.56977,-0.105736,1.4253,1.30504,-0.311823,0.0271213,-0.35937,-0.139436,-0.644231,-0.750954,-0.105951,-7.52636,-23.3147,-8.40972,23.7891,-1.63544,1.49499,-0.210464,-0.0244682,-0.801381,-0.502916,-0.201317,0.901216,-0.174412,-0.197188,0.903868,-0.128095,-1.11351,-0.29145,-0.925198,-0.292692,
-0.0183612,-0.0466254,0.470901,-1.58001,-0.118528,-0.168931,0.506609,-0.728543,0.297451,-0.719976,-0.344862,-0.893861,-1.1268,-0.308727,0,0,0,0,0,0,0,-0.0107857,-0.0532287,0.477063,-1.5746,-0.122871,1.40467,1.3012,-0.405722,0.0377684,-0.408579,-0.176725,-0.567171,-0.633683,-0.12424,-6.30841,-24.3382,-7.36235,23.7653,-1.8982,1.46844,-0.204056,-0.787225,0.146211,-0.560276,-0.92633,0.369666,0.461005,0.434044,0.61838,0.531783,-1.11093,-0.291436,-0.921461,-0.293835,
-0.0420281,-0.0444414,0.446285,-1.58829,-0.15842,-0.204315,0.502448,-0.767156,0.271317,-0.759467,-0.341671,-0.945228,-0.53549,-0.248945,0,0,0,0,0,0,0,-0.0107857,-0.0532287,0.477063,-1.5746,-0.122871,1.40467,1.3012,-0.405722,0.0377684,-0.408579,-0.176725,-0.567171,-0.633683,-0.12424,-6.30841,-24.3382,-7.36235,23.7653,-1.8982,1.46844,-0.204056,-0.787225,0.146211,-0.560276,-0.92633,0.369666,0.461005,0.434044,0.61838,0.531783,-1.11093,-0.291436,-0.921461,-0.293835,
-0.0451466,-0.0433205,0.443196,-1.58968,-0.162311,-0.205995,0.501471,-0.779621,0.280218,-0.772163,-0.346663,-0.972748,-0.419971,-0.244064,0,0,0,0,0,0,0,-0.0107857,-0.0532287,0.477063,-1.5746,-0.122871,1.40467,1.3012,-0.405722,0.0377684,-0.408579,-0.176725,-0.567171,-0.633683,-0.12424,-6.30841,-24.3382,-7.36235,23.7653,-1.8982,1.46844,-0.204056,-0.702597,-0.642884,-0.570845,-0.532515,0.431343,0.0672636,0.0403968,0.649952,0.131681,-1.17283,-0.485645,-1.00178,-0.289126,
-0.0483067,-0.0421599,0.440065,-1.59105,-0.166307,-0.2073,0.500521,-0.79004,0.290146,-0.782764,-0.344059,-0.998817,-0.326373,-0.237456,0,0,0,0,0,0,0,-0.0107857,-0.0532287,0.477063,-1.5746,-0.122871,1.40467,1.3012,-0.405722,0.0377684,-0.408579,-0.176725,-0.567171,-0.633683,-0.12424,-6.30841,-24.3382,-7.36235,23.7653,-1.8982,1.46844,-0.204056,-0.702597,-0.642884,-0.570845,-0.532515,0.431343,0.0672636,0.0403968,0.649952,0.131681,-1.17283,-0.485645,-1.00178,-0.289126,
-0.0515036,-0.0409664,0.436897,-1.59241,-0.170395,-0.208287,0.499592,-0.799226,0.298375,-0.792178,-0.339746,-1.022,-0.246755,-0.232413,0,0,0,0,0,0,0,-0.0107857,-0.0532287,0.477063,-1.5746,-0.122871,1.40467,1.3012,-0.405722,0.0377684,-0.408579,-0.176725,-0.567171,-0.633683,-0.12424,-6.30841,-24.3382,-7.36235,23.7653,-1.8982,1.46844,-0.204056,0.315447,-0.155252,-1.02114,-0.948494,1.39301,0.054023,0.035028,1.26274,0.124127,-1.44855,-0.457282,-0.994701,-0.283091,
-0.0547333,-0.0397479,0.433694,-1.59375,-0.174564,-0.209,0.498681,-0.807425,0.304637,-0.800621,-0.334869,-1.04237,-0.178174,-0.227571,0,0,0,0,0,0,0,-0.0250488,-0.0518549,0.46223,-1.58121,-0.141293,1.38651,1.29705,-0.455185,0.0437001,-0.466309,-0.22616,-0.574079,-0.462419,-0.147207,-4.91589,-24.5882,-5.81114,24.2612,-1.58051,2.05804,-0.284622,0.315447,-0.155252,-1.02114,-0.948494,1.39301,0.054023,0.035028,1.26274,0.124127,-1.44855,-0.457282,-0.994701,-0.283091,
-0.0579924,-0.0385118,0.430461,-1.59507,-0.178805,-0.209475,0.49779,-0.814767,0.30901,-0.808217,-0.329841,-1.06019,-0.11869,-0.222821,0,0,0,0,0,0,0,-0.0250488,-0.0518549,0.46223,-1.58121,-0.141293,1.38651,1.29705,-0.455185,0.0437001,-0.466309,-0.22616,-0.574079,-0.462419,-0.147207,-4.91589,-24.5882,-5.81114,24.2612,-1.58051,2.05804,-0.284622,0.401096,0.061161,-0.74027,-0.986588,1.28046,0.148007,0.125977,1.11806,0.218892,-1.26545,-0.434373,-0.899906,-0.284783,
-0.0418039,-0.042888,0.446474,-1.59024,-0.158634,-0.207801,0.49933,-0.762711,0.319521,-0.755394,-0.392905,-0.949542,-0.751127,-0.309855,0,0,0,0,0,0,0,-0.0250488,-0.0518549,0.46223,-1.58121,-0.141293,1.38651,1.29705,-0.455185,0.0437001,-0.466309,-0.22616,-0.574079,-0.462419,-0.147207,-4.91589,-24.5882,-5.81114,24.2612,-1.58051,2.05804,-0.284622,-0.166211,-0.87819,-0.150654,-0.223881,0.483114,-0.15582,-0.188912,0.519463,-0.0979936,-0.855177,-0.549791,-0.797506,-0.283676,
-0.0574821,-0.0426326,0.430228,-1.59618,-0.177853,-0.191115,0.498291,-0.776704,0.267922,-0.769375,-0.329699,-0.947886,0.0716071,-0.250037,0,0,0,0,0,0,0,-0.0250488,-0.0518549,0.46223,-1.58121,-0.141293,1.38651,1.29705,-0.455185,0.0437001,-0.466309,-0.22616,-0.574079,-0.462419,-0.147207,-4.91589,-24.5882,-5.81114,24.2612,-1.58051,2.05804,-0.284622,-0.166211,-0.87819,-0.150654,-0.223881,0.483114,-0.15582,-0.188912,0.519463,-0.0979936,-0.855177,-0.549791,-0.797506,-0.283676,
-0.0606303,-0.0415431,0.427108,-1.5975,-0.181744,-0.190706,0.497303,-0.787067,0.272378,-0.779985,-0.32877,-0.972866,0.102146,-0.247157,0,0,0,0,0,0,0,-0.0250488,-0.0518549,0.46223,-1.58121,-0.141293,1.38651,1.29705,-0.455185,0.0437001,-0.466309,-0.22616,-0.574079,-0.462419,-0.147207,-4.91589,-24.5882,-5.81114,24.2612,-1.58051,2.05804,-0.284622,-0.88311,-0.227331,1.01708,-0.418471,-0.608411,0.309852,0.2839,-0.334305,0.357812,-0.25733,-0.521334,-0.677428,-0.279543,
-0.0638122,-0.0404203,0.423954,-1.59877,-0.185733,-0.190208,0.496362,-0.795475,0.280707,-0.788597,-0.318123,-0.997051,0.124612,-0.235162,0,0,0,0,0,0,0,-0.0401146,-0.0498407,0.446759,-1.58907,-0.16041,1.37715,1.2921,-0.496407,0.0734723,-0.51118,-0.278798,-0.649005,-0.21024,-0.161372,-5.37213,-25.1119,-6.13646,25.5347,-1.50727,2.01867,-0.270889,-0.88311,-0.227331,1.01708,-0.418471,-0.608411,0.309852,0.2839,-0.334305,0.357812,-0.25733,-0.521334,-0.677428,-0.279543,
-0.0670228,-0.039281,0.420764,-1.60002,-0.189803,-0.189599,0.495442,-0.802654,0.284808,-0.797631,-0.313094,-1.01756,0.152172,-0.229955,0,0,0,0,0,0,0,-0.0401146,-0.0498407,0.446759,-1.58907,-0.16041,1.37715,1.2921,-0.496407,0.0734723,-0.51118,-0.278798,-0.649005,-0.21024,-0.161372,-5.37213,-25.1119,-6.13646,25.5347,-1.50727,2.01867,-0.270889,2.00685,-0.792915,1.24466,0.0119959,1.26868,-0.563059,-0.583479,0.587629,-0.529184,-0.251946,-0.625713,-0.540121,-0.272641,
-0.0702398,-0.038132,0.417527,-1.60126,-0.193952,-0.188877,0.494541,-0.804252,0.287266,-0.809099,-0.309575,-1.03736,0.180654,-0.225201,0,0,0,0,0,0,0,-0.0401146,-0.0498407,0.446759,-1.58907,-0.16041,1.37715,1.2921,-0.496407,0.0734723,-0.51118,-0.278798,-0.649005,-0.21024,-0.161372,-5.37213,-25.1119,-6.13646,25.5347,-1.50727,2.01867,-0.270889,2.00685,-0.792915,1.24466,0.0119959,1.26868,-0.563059,-0.583479,0.587629,-0.529184,-0.251946,-0.625713,-0.540121,-0.272641,
-0.073468,-0.0369766,0.414266,-1.60249,-0.198183,-0.188041,0.493659,-0.807031,0.288848,-0.815187,-0.306337,-1.05764,0.208975,-0.220511,0,0,0,0,0,0,0,-0.0401146,-0.0498407,0.446759,-1.58907,-0.16041,1.37715,1.2921,-0.496407,0.0734723,-0.51118,-0.278798,-0.649005,-0.21024,-0.161372,-5.37213,-25.1119,-6.13646,25.5347,-1.50727,2.01867,-0.270889,1.29768,1.49772,0.662495,-1.5587,1.01212,0.715024,0.700036,0.525216,0.780323,-0.403808,-0.394555,-0.438182,-0.271079,
-0.0572238,-0.0410192,0.430452,-1.59771,-0.178369,-0.206362,0.49526,-0.773944,0.317552,-0.766975,-0.386601,-0.959536,-0.278136,-0.309031,0,0,0,0,0,0,0,-0.0401146,-0.0498407,0.446759,-1.58907,-0.16041,1.37715,1.2921,-0.496407,0.0734723,-0.51118,-0.278798,-0.649005,-0.21024,-0.161372,-5.37213,-25.1119,-6.13646,25.5347,-1.50727,2.01867,-0.270889,1.01557,0.0602508,0.45856,-0.600809,0.723005,0.110038,0.0801807,0.350676,0.166452,-0.28957,-0.526924,-0.320889,-0.26453,
-0.0736015,-0.0402575,0.413676,-1.60416,-0.199118,-0.193096,0.493468,-0.788035,0.258865,-0.781402,-0.319606,-0.967926,0.184531,-0.249993,0,0,0,0,0,0,0,-0.0401146,-0.0498407,0.446759,-1.58907,-0.16041,1.37715,1.2921,-0.496407,0.0734723,-0.51118,-0.278798,-0.649005,-0.21024,-0.161372,-5.37213,-25.1119,-6.13646,25.5347,-1.50727,2.01867,-0.270889,1.01557,0.0602508,0.45856,-0.600809,0.723005,0.110038,0.0801807,0.350676,0.166452,-0.28957,-0.526924,-0.320889,-0.26453,
-0.076742,-0.0391806,0.410507,-1.60538,-0.203118,-0.192381,0.492515,-0.785115,0.269222,-0.792478,-0.30535,-1.00009,0.178736,-0.238107,0,0,0,0,0,0,0,-0.0570483,-0.0468738,0.429443,-1.59776,-0.181361,1.37425,1.28767,-0.537289,0.113232,-0.55193,-0.250453,-0.65888,0.00923464,-0.114028,-5.06665,-26.2862,-5.78734,25.0348,-1.28754,2.43615,-0.183914,0.870585,-0.658247,-0.072134,-0.151546,0.744685,-0.189827,-0.225593,0.430073,-0.137395,-0.367857,-0.556392,-0.231812,-0.257846,
-0.079897,-0.0380877,0.40732,-1.60658,-0.207227,-0.191607,0.491583,-0.788768,0.273223,-0.796623,-0.301659,-1.0271,0.193446,-0.23303,0,0,0,0,0,0,0,-0.0570483,-0.0468738,0.429443,-1.59776,-0.181361,1.37425,1.28767,-0.537289,0.113232,-0.55193,-0.250453,-0.65888,0.00923464,-0.114028,-5.06665,-26.2862,-5.78734,25.0348,-1.28754,2.43615,-0.183914,0.870585,-0.658247,-0.072134,-0.151546,0.744685,-0.189827,-0.225593,0.430073,-0.137395,-0.367857,-0.556392,-0.231812,-0.257846,
-0.0830624,-0.0369867,0.404123,-1.60779,-0.211434,-0.190743,0.490669,-0.791348,0.275263,-0.799342,-0.300413,-1.05173,0.215989,-0.228471,0,0,0,0,0,0,0,-0.0570483,-0.0468738,0.429443,-1.59776,-0.181361,1.37425,1.28767,-0.537289,0.113232,-0.55193,-0.250453,-0.65888,0.00923464,-0.114028,-5.06665,-26.2862,-5.78734,25.0348,-1.28754,2.43615,-0.183914,2.9424,-0.0769098,-0.654242,-0.615413,2.52045,-0.284863,-0.303373,1.49288,-0.234165,-0.750722,-0.504902,-0.207705,-0.254322,
-0.0862317,-0.035879,0.400921,-1.60898,-0.215734,-0.189801,0.489773,-0.792321,0.276915,-0.800422,-0.298177,-1.07498,0.23545,-0.224084,0,0,0,0,0,0,0,-0.0570483,-0.0468738,0.429443,-1.59776,-0.181361,1.37425,1.28767,-0.537289,0.113232,-0.55193,-0.250453,-0.65888,0.00923464,-0.114028,-5.06665,-26.2862,-5.78734,25.0348,-1.28754,2.43615,-0.183914,2.56865,1.64097,-1.74583,-1.86981,2.809,0.657948,0.647402,1.85059,0.729506,-1.20207,-0.306862,-0.206479,-0.25653,
-0.0893991,-0.0347676,0.397721,-1.61016,-0.220121,-0.18879,0.488893,-0.791853,0.277847,-0.80006,-0.295686,-1.09674,0.252976,-0.219872,0,0,0,0,0,0,0,-0.0570483,-0.0468738,0.429443,-1.59776,-0.181361,1.37425,1.28767,-0.537289,0.113232,-0.55193,-0.250453,-0.65888,0.00923464,-0.114028,-5.06665,-26.2862,-5.78734,25.0348,-1.28754,2.43615,-0.183914,2.56865,1.64097,-1.74583,-1.86981,2.809,0.657948,0.647402,1.85059,0.729506,-1.20207,-0.306862,-0.206479,-0.25653,
-0.0733919,-0.038936,0.413857,-1.60593,-0.199537,-0.203076,0.490557,-0.78567,0.301038,-0.779311,-0.376715,-0.976495,-0.0340899,-0.306622,0,0,0,0,0,0,0,-0.0808747,-0.041551,0.404935,-1.60793,-0.210861,1.37615,1.28267,-0.565257,0.157772,-0.588255,-0.222503,-0.71226,0.103887,-0.114599,-3.59478,-29.0038,-4.33531,25.0864,-1.51368,1.52154,-0.170181,0.334275,1.14566,-2.03707,-1.49634,1.27818,0.829228,0.809077,1.07389,0.896397,-1.08806,-0.277538,-0.167213,-0.251995,
-0.115866,-0.0310274,0.370061,-1.6226,-0.252148,-0.183841,0.484191,-0.782339,0.266208,-0.792971,-0.301992,-1.01768,0.296746,-0.242435,0,0,0,0,0,0,0,-0.0808747,-0.041551,0.404935,-1.60793,-0.210861,1.37615,1.28267,-0.565257,0.157772,-0.588255,-0.222503,-0.71226,0.103887,-0.114599,-3.59478,-29.0038,-4.33531,25.0864,-1.51368,1.52154,-0.170181,0.334275,1.14566,-2.03707,-1.49634,1.27818,0.829228,0.809077,1.07389,0.896397,-1.08806,-0.277538,-0.167213,-0.251995,
-0.118995,-0.0299466,0.366889,-1.62379,-0.256331,-0.182636,0.483241,-0.782195,0.270211,-0.792766,-0.298322,-1.04579,0.301345,-0.237455,0,0,0,0,0,0,0,-0.0808747,-0.041551,0.404935,-1.60793,-0.210861,1.37615,1.28267,-0.565257,0.157772,-0.588255,-0.222503,-0.71226,0.103887,-0.114599,-3.59478,-29.0038,-4.33531,25.0864,-1.51368,1.52154,-0.170181,-0.649786,-1.3746,-1.49243,0.233081,0.376919,-0.301906,-0.328804,0.571488,-0.266041,-0.862944,-0.465779,-0.315379,-0.246185,
-0.122122,-0.0288594,0.36372,-1.62498,-0.260609,-0.181377,0.482309,-0.781764,0.271791,-0.79229,-0.297582,-1.06937,0.31466,-0.233062,0,0,0,0,0,0,0,-0.0808747,-0.041551,0.404935,-1.60793,-0.210861,1.37615,1.28267,-0.565257,0.157772,-0.588255,-0.222503,-0.71226,0.103887,-0.114599,-3.59478,-29.0038,-4.33531,25.0864,-1.51368,1.52154,-0.170181,-0.649786,-1.3746,-1.49243,0.233081,0.376919,-0.301906,-0.328804,0.571488,-0.266041,-0.862944,-0.465779,-0.315379,-0.246185,
-0.125245,-0.0277707,0.360555,-1.62617,-0.264968,-0.180039,0.481394,-0.780735,0.272194,-0.791229,-0.297665,-1.0897,0.334464,-0.228801,0,0,0,0,0,0,0,-0.0808747,-0.041551,0.404935,-1.60793,-0.210861,1.37615,1.28267,-0.565257,0.157772,-0.588255,-0.222503,-0.71226,0.103887,-0.114599,-3.59478,-29.0038,-4.33531,25.0864,-1.51368,1.52154,-0.170181,-1.37731,-0.609519,-0.324215,-0.0718012,-0.572824,0.148808,0.138022,-0.139126,0.168087,-0.423115,-0.366129,-0.355544,-0.245481,
-0.128361,-0.0266833,0.357398,-1.62736,-0.269398,-0.178598,0.480495,-0.778991,0.271833,-0.789467,-0.297964,-1.10751,0.360276,-0.224676,0,0,0,0,0,0,0,-0.0808747,-0.041551,0.404935,-1.60793,-0.210861,1.37615,1.28267,-0.565257,0.157772,-0.588255,-0.222503,-0.71226,0.103887,-0.114599,-3.59478,-29.0038,-4.33531,25.0864,-1.51368,1.52154,-0.170181,-0.405425,1.18365,-0.730295,-1.22192,0.348869,0.895629,0.892968,0.39979,0.927702,-0.652067,-0.162122,-0.294405,-0.24773,
-0.115883,-0.0298679,0.370186,-1.6242,-0.252273,-0.185946,0.481479,-0.800942,0.300186,-0.796643,-0.349425,-0.996598,0.276509,-0.295867,0,0,0,0,0,0,0,-0.0999405,-0.0359723,0.385311,-1.61532,-0.235408,1.38257,1.27857,-0.62646,0.178059,-0.650835,-0.229813,-0.795188,0.252615,-0.16171,-3.46783,-30.0273,-3.88701,25.5347,-1.92292,1.48858,-0.230606,-0.405425,1.18365,-0.730295,-1.22192,0.348869,0.895629,0.892968,0.39979,0.927702,-0.652067,-0.162122,-0.294405,-0.24773,
-0.135919,-0.0252748,0.349169,-1.6298,-0.279663,-0.167043,0.480241,-0.775182,0.258335,-0.78646,-0.296604,-1.04163,0.540152,-0.241717,0,0,0,0,0,0,0,-0.0999405,-0.0359723,0.385311,-1.61532,-0.235408,1.38257,1.27857,-0.62646,0.178059,-0.650835,-0.229813,-0.795188,0.252615,-0.16171,-3.46783,-30.0273,-3.88701,25.5347,-1.92292,1.48858,-0.230606,-1.26798,1.43705,-0.965423,-1.44623,-0.099116,1.14769,1.14297,0.219925,1.18401,-0.755138,-0.163806,-0.355388,-0.249824,
-0.139017,-0.0242368,0.346028,-1.63097,-0.28375,-0.16482,0.479293,-0.774289,0.259499,-0.785369,-0.29377,-1.02181,0.555619,-0.236936,0,0,0,0,0,0,0,-0.0999405,-0.0359723,0.385311,-1.61532,-0.235408,1.38257,1.27857,-0.62646,0.178059,-0.650835,-0.229813,-0.795188,0.252615,-0.16171,-3.46783,-30.0273,-3.88701,25.5347,-1.92292,1.48858,-0.230606,-1.26798,1.43705,-0.965423,-1.44623,-0.099116,1.14769,1.14297,0.219925,1.18401,-0.755138,-0.163806,-0.355388,-0.249824,
-0.142112,-0.0231996,0.342889,-1.63214,-0.287694,-0.162544,0.478362,-0.773879,0.259308,-0.784831,-0.29108,-0.985941,0.569081,-0.232775,0,0,0,0,0,0,0,-0.0999405,-0.0359723,0.385311,-1.61532,-0.235408,1.38257,1.27857,-0.62646,0.178059,-0.650835,-0.229813,-0.795188,0.252615,-0.16171,-3.46783,-30.0273,-3.88701,25.5347,-1.92292,1.48858,-0.230606,-0.329628,-2.51719,-0.708457,1.06798,0.377307,-1.0161,-1.01978,0.509403,-1.01882,-0.676861,-0.573849,-0.439021,-0.241272,
-0.145205,-0.0221656,0.339752,-1.63329,-0.291448,-0.160235,0.477447,-0.7733,0.258486,-0.784168,-0.287553,-0.93852,0.57707,-0.228753,0,0,0,0,0,0,0,-0.0999405,-0.0359723,0.385311,-1.61532,-0.235408,1.38257,1.27857,-0.62646,0.178059,-0.650835,-0.229813,-0.795188,0.252615,-0.16171,-3.46783,-30.0273,-3.88701,25.5347,-1.92292,1.48858,-0.230606,-0.0465247,-1.84179,-1.47046,0.517585,0.972724,-0.703946,-0.691665,0.970399,-0.711146,-1.03722,-0.542104,-0.45667,-0.242712,
-0.148295,-0.0211377,0.33662,-1.63442,-0.294978,-0.157912,0.476547,-0.772298,0.256986,-0.783115,-0.283731,-0.882368,0.5809,-0.224864,0,0,0,0,0,0,0,-0.118389,-0.0300695,0.366458,-1.62197,-0.259451,1.39321,1.2736,-0.614084,0.199688,-0.631185,-0.221346,-0.793506,0.421793,-0.175806,-2.4046,-30.305,-2.96263,26.0068,-1.11084,2.29058,-0.270889,-0.0465247,-1.84179,-1.47046,0.517585,0.972724,-0.703946,-0.691665,0.970399,-0.711146,-1.03722,-0.542104,-0.45667,-0.242712,
-0.151377,-0.0201183,0.333494,-1.63554,-0.298255,-0.155586,0.475663,-0.770701,0.254845,-0.781492,-0.279881,-0.819426,0.581568,-0.221151,0,0,0,0,0,0,0,-0.118389,-0.0300695,0.366458,-1.62197,-0.259451,1.39321,1.2736,-0.614084,0.199688,-0.631185,-0.221346,-0.793506,0.421793,-0.175806,-2.4046,-30.305,-2.96263,26.0068,-1.11084,2.29058,-0.270889,0.916351,-0.71415,-2.31535,-0.250424,2.02044,-0.218041,-0.204571,1.64156,-0.213556,-1.38019,-0.428492,-0.363809,-0.24506,
-0.136334,-0.0244498,0.349057,-1.63141,-0.279444,-0.169155,0.477642,-0.806538,0.282123,-0.818263,-0.341876,-1.02196,0.510739,-0.29306,0,0,0,0,0,0,0,-0.118389,-0.0300695,0.366458,-1.62197,-0.259451,1.39321,1.2736,-0.614084,0.199688,-0.631185,-0.221346,-0.793506,0.421793,-0.175806,-2.4046,-30.305,-2.96263,26.0068,-1.11084,2.29058,-0.270889,0.916351,-0.71415,-2.31535,-0.250424,2.02044,-0.218041,-0.204571,1.64156,-0.213556,-1.38019,-0.428492,-0.363809,-0.24506,
-0.153579,-0.0199548,0.330723,-1.63609,-0.293386,-0.149122,0.475331,-0.765353,0.231129,-0.777298,-0.281021,-0.468418,0.606159,-0.24196,0,0,0,0,0,0,0,-0.118389,-0.0300695,0.366458,-1.62197,-0.259451,1.39321,1.2736,-0.614084,0.199688,-0.631185,-0.221346,-0.793506,0.421793,-0.175806,-2.4046,-30.305,-2.96263,26.0068,-1.11084,2.29058,-0.270889,0.079503,0.376769,-2.46249,-0.961263,1.44192,0.482737,0.48953,1.29397,0.499735,-1.32441,-0.373816,-0.263524,-0.241986,
-0.156626,-0.0190275,0.32763,-1.6372,-0.29506,-0.146693,0.474381,-0.761652,0.231828,-0.773473,-0.278096,-0.41839,0.607253,-0.237434,0,0,0,0,0,0,0,-0.118389,-0.0300695,0.366458,-1.62197,-0.259451,1.39321,1.2736,-0.614084,0.199688,-0.631185,-0.221346,-0.793506,0.421793,-0.175806,-2.4046,-30.305,-2.96263,26.0068,-1.11084,2.29058,-0.270889,0.079503,0.376769,-2.46249,-0.961263,1.44192,0.482737,0.48953,1.29397,0.499735,-1.32441,-0.373816,-0.263524,-0.241986,
-0.159656,-0.0181011,0.324553,-1.6383,-0.296531,-0.144273,0.473447,-0.757563,0.231609,-0.769271,-0.275306,-0.367782,0.60513,-0.233542,0,0,0,0,0,0,0,-0.118389,-0.0300695,0.366458,-1.62197,-0.259451,1.39321,1.2736,-0.614084,0.199688,-0.631185,-0.221346,-0.793506,0.421793,-0.175806,-2.4046,-30.305,-2.96263,26.0068,-1.11084,2.29058,-0.270889,-0.271481,-2.19067,-2.34452,0.663614,1.0737,-0.811332,-0.809749,1.14406,-0.809284,-1.20707,-0.632591,-0.292228,-0.234908,
-0.162668,-0.0171783,0.321494,-1.63939,-0.297798,-0.141874,0.472528,-0.753033,0.230699,-0.764641,-0.27241,-0.316776,0.599565,-0.229792,0,0,0,0,0,0,0,-0.139379,-0.0233063,0.344567,-1.6291,-0.283774,1.40986,1.26843,-0.653004,0.213174,-0.662942,-0.219348,-0.688655,0.539604,-0.134681,-1.03589,-31.9991,-1.33605,24.5111,-0.786747,1.98571,-0.183914,0.0574245,-1.58392,-2.7101,0.28893,1.41095,-0.504772,-0.493426,1.34308,-0.508031,-1.286,-0.572357,-0.182341,-0.231564,
-0.16566,-0.0162618,0.318456,-1.64047,-0.298859,-0.139508,0.471623,-0.74808,0.229135,-0.7596,-0.269547,-0.265234,0.591486,-0.226174,0,0,0,0,0,0,0,-0.139379,-0.0233063,0.344567,-1.6291,-0.283774,1.40986,1.26843,-0.653004,0.213174,-0.662942,-0.219348,-0.688655,0.539604,-0.134681,-1.03589,-31.9991,-1.33605,24.5111,-0.786747,1.98571,-0.183914,0.0574245,-1.58392,-2.7101,0.28893,1.41095,-0.504772,-0.493426,1.34308,-0.508031,-1.286,-0.572357,-0.182341,-0.231564,
-0.168631,-0.0153539,0.315439,-1.64154,-0.299711,-0.137182,0.470732,-0.742715,0.226969,-0.754164,-0.266782,-0.212856,0.58165,-0.22273,0,0,0,0,0,0,0,-0.139379,-0.0233063,0.344567,-1.6291,-0.283774,1.40986,1.26843,-0.653004,0.213174,-0.662942,-0.219348,-0.688655,0.539604,-0.134681,-1.03589,-31.9991,-1.33605,24.5111,-0.786747,1.98571,-0.183914,-0.940125,-0.221774,-2.21555,-0.432186,0.438691,0.308054,0.324264,0.666867,0.302538,-0.963749,-0.394345,-0.0703042,-0.231832,
-0.154562,-0.0192329,0.330215,-1.63762,-0.299465,-0.151152,0.472835,-0.806704,0.254944,-0.820094,-0.322338,-0.731976,0.577621,-0.290613,0,0,0,0,0,0,0,-0.139379,-0.0233063,0.344567,-1.6291,-0.283774,1.40986,1.26843,-0.653004,0.213174,-0.662942,-0.219348,-0.688655,0.539604,-0.134681,-1.03589,-31.9991,-1.33605,24.5111,-0.786747,1.98571,-0.183914,-0.940125,-0.221774,-2.21555,-0.432186,0.438691,0.308054,0.324264,0.666867,0.302538,-0.963749,-0.394345,-0.0703042,-0.231832,
-0.174544,-0.013576,0.308805,-1.64274,-0.298374,-0.131996,0.470208,-0.735316,0.212467,-0.747925,-0.27288,-0.0491098,0.552255,-0.24324,0,0,0,0,0,0,0,-0.139379,-0.0233063,0.344567,-1.6291,-0.283774,1.40986,1.26843,-0.653004,0.213174,-0.662942,-0.219348,-0.688655,0.539604,-0.134681,-1.03589,-31.9991,-1.33605,24.5111,-0.786747,1.98571,-0.183914,-1.38298,-0.607899,-1.93901,0.00946014,0.0215007,0.0998254,0.117828,0.445932,0.0855468,-0.820495,-0.264779,-0.0776303,-0.233419,
-0.177456,-0.0127276,0.305843,-1.64382,-0.298452,-0.12981,0.469252,-0.727997,0.212078,-0.740456,-0.270628,-0.0195379,0.546405,-0.23898,0,0,0,0,0,0,0,-0.160113,-0.0168245,0.323062,-1.63604,-0.298011,1.42824,1.26415,-0.652122,0.217324,-0.68489,-0.220417,-0.339983,0.602976,-0.141881,-1.26202,-32.5505,-1.41142,26.0544,0.025326,2.00493,-0.177505,-1.38298,-0.607899,-1.93901,0.00946014,0.0215007,0.0998254,0.117828,0.445932,0.0855468,-0.820495,-0.264779,-0.0776303,-0.233419,
-0.18034,-0.0118861,0.302909,-1.6449,-0.29841,-0.127627,0.46831,-0.721061,0.210395,-0.733385,-0.269875,0.0104794,0.545836,-0.235321,0,0,0,0,0,0,0,-0.160113,-0.0168245,0.323062,-1.63604,-0.298011,1.42824,1.26415,-0.652122,0.217324,-0.68489,-0.220417,-0.339983,0.602976,-0.141881,-1.26202,-32.5505,-1.41142,26.0544,0.025326,2.00493,-0.177505,-0.566719,-1.97988,-1.56328,1.04291,0.386563,-0.732767,-0.716763,0.631513,-0.753346,-0.66305,-0.250777,-0.0638267,-0.231767,
-0.183198,-0.0110539,0.300003,-1.64598,-0.298247,-0.125426,0.467383,-0.714332,0.208029,-0.726536,-0.269658,0.0409457,0.550138,-0.23179,0,0,0,0,0,0,0,-0.160113,-0.0168245,0.323062,-1.63604,-0.298011,1.42824,1.26415,-0.652122,0.217324,-0.68489,-0.220417,-0.339983,0.602976,-0.141881,-1.26202,-32.5505,-1.41142,26.0544,0.025326,2.00493,-0.177505,0.377568,-0.996219,-0.790716,0.499926,0.719411,-0.312562,-0.288175,0.614061,-0.337543,-0.427989,-0.154151,-0.0512642,-0.232726,
-0.186027,-0.0102303,0.297125,-1.64705,-0.29796,-0.123229,0.46647,-0.70737,0.205919,-0.719463,-0.267657,0.0715966,0.549263,-0.228414,0,0,0,0,0,0,0,-0.160113,-0.0168245,0.323062,-1.63604,-0.298011,1.42824,1.26415,-0.652122,0.217324,-0.68489,-0.220417,-0.339983,0.602976,-0.141881,-1.26202,-32.5505,-1.41142,26.0544,0.025326,2.00493,-0.177505,0.377568,-0.996219,-0.790716,0.499926,0.719411,-0.312562,-0.288175,0.614061,-0.337543,-0.427989,-0.154151,-0.0512642,-0.232726,
-0.188828,-0.00941616,0.294276,-1.64811,-0.297548,-0.12105,0.465569,-0.700258,0.203526,-0.712258,-0.265056,0.103135,0.544935,-0.225233,0,0,0,0,0,0,0,-0.160113,-0.0168245,0.323062,-1.63604,-0.298011,1.42824,1.26415,-0.652122,0.217324,-0.68489,-0.220417,-0.339983,0.602976,-0.141881,-1.26202,-32.5505,-1.41142,26.0544,0.025326,2.00493,-0.177505,-0.433803,1.19127,-0.429725,-0.778619,0.183839,0.839206,0.86595,0.254253,0.816833,-0.426568,0.106954,-0.184062,-0.235378,
-0.176112,-0.0129951,0.307373,-1.64418,-0.308156,-0.132474,0.467804,-0.792315,0.234027,-0.806407,-0.307585,-0.26392,0.554786,-0.289594,0,0,0,0,0,0,0,-0.188036,-0.00781135,0.294197,-1.64459,-0.306724,1.45429,1.25856,-0.6762,0.218884,-0.710091,-0.189878,-0.0838916,0.66134,-0.130001,0.689884,-34.1969,0.639662,25.6339,0.434567,1.58105,-0.230606,-0.319125,-0.0851285,-0.509202,0.168774,0.400979,0.0823142,0.104831,0.524739,0.0597376,-0.551897,0.167105,-0.319497,-0.232901,
-0.19401,-0.00763972,0.288531,-1.64945,-0.297235,-0.113236,0.46589,-0.689885,0.191762,-0.702862,-0.269229,0.178841,0.554408,-0.245827,0,0,0,0,0,0,0,-0.188036,-0.00781135,0.294197,-1.64459,-0.306724,1.45429,1.25856,-0.6762,0.218884,-0.710091,-0.189878,-0.0838916,0.66134,-0.130001,0.689884,-34.1969,0.639662,25.6339,0.434567,1.58105,-0.230606,-0.319125,-0.0851285,-0.509202,0.168774,0.400979,0.0823142,0.104831,0.524739,0.0597376,-0.551897,0.167105,-0.319497,-0.232901,
-0.196734,-0.00687771,0.285755,-1.65051,-0.296468,-0.11105,0.464923,-0.681213,0.190501,-0.694052,-0.266511,0.191754,0.54644,-0.241708,0,0,0,0,0,0,0,-0.188036,-0.00781135,0.294197,-1.64459,-0.306724,1.45429,1.25856,-0.6762,0.218884,-0.710091,-0.189878,-0.0838916,0.66134,-0.130001,0.689884,-34.1969,0.639662,25.6339,0.434567,1.58105,-0.230606,-0.488513,0.642474,-1.53872,-0.162676,0.844362,0.464049,0.490959,0.998149,0.438132,-1.00886,0.385924,-0.362487,-0.235281,
-0.199426,-0.00612354,0.283012,-1.65157,-0.295643,-0.108906,0.46397,-0.673031,0.188543,-0.685744,-0.263888,0.206182,0.536075,-0.238213,0,0,0,0,0,0,0,-0.188036,-0.00781135,0.294197,-1.64459,-0.306724,1.45429,1.25856,-0.6762,0.218884,-0.710091,-0.189878,-0.0838916,0.66134,-0.130001,0.689884,-34.1969,0.639662,25.6339,0.434567,1.58105,-0.230606,-0.488513,0.642474,-1.53872,-0.162676,0.844362,0.464049,0.490959,0.998149,0.438132,-1.00886,0.385924,-0.362487,-0.235281,
-0.202087,-0.00537931,0.280301,-1.65261,-0.294755,-0.106811,0.463031,-0.665208,0.186058,-0.677808,-0.261269,0.222076,0.523748,-0.234836,0,0,0,0,0,0,0,-0.188036,-0.00781135,0.294197,-1.64459,-0.306724,1.45429,1.25856,-0.6762,0.218884,-0.710091,-0.189878,-0.0838916,0.66134,-0.130001,0.689884,-34.1969,0.639662,25.6339,0.434567,1.58105,-0.230606,-0.303289,2.26727,-2.17263,-1.10659,1.3627,1.31594,1.34837,1.36293,1.28561,-1.34971,0.584358,-0.401357,-0.235252,
-0.204718,-0.00464675,0.27762,-1.65365,-0.293797,-0.104771,0.462104,-0.65765,0.183141,-0.670148,-0.258654,0.239595,0.509934,-0.23157,0,0,0,0,0,0,0,-0.188036,-0.00781135,0.294197,-1.64459,-0.306724,1.45429,1.25856,-0.6762,0.218884,-0.710091,-0.189878,-0.0838916,0.66134,-0.130001,0.689884,-34.1969,0.639662,25.6339,0.434567,1.58105,-0.230606,-0.303289,2.26727,-2.17263,-1.10659,1.3627,1.31594,1.34837,1.36293,1.28561,-1.34971,0.584358,-0.401357,-0.235252,
-0.207319,-0.00392735,0.274969,-1.65467,-0.29276,-0.102791,0.461191,-0.650277,0.17985,-0.662691,-0.256075,0.259047,0.495099,-0.228464,0,0,0,0,0,0,0,-0.2102,-0.00077465,0.271497,-1.65004,-0.307943,1.47534,1.25385,-0.670179,0.208633,-0.693079,-0.160815,-0.00952932,0.657948,-0.158878,1.90784,-35.4942,1.88936,25.3839,0.447384,1.6076,-0.177505,0.38504,0.554412,-2.81674,-0.0705698,2.19043,0.364347,0.397571,2.04105,0.331918,-1.68742,0.424946,-0.497363,-0.234534,
-0.195544,-0.00719021,0.286918,-1.65078,-0.304165,-0.113709,0.463581,-0.743126,0.209902,-0.757626,-0.301456,0.0216515,0.551892,-0.2904,0,0,0,0,0,0,0,-0.2102,-0.00077465,0.271497,-1.65004,-0.307943,1.47534,1.25385,-0.670179,0.208633,-0.693079,-0.160815,-0.00952932,0.657948,-0.158878,1.90784,-35.4942,1.88936,25.3839,0.447384,1.6076,-0.177505,-0.734222,-1.20042,-2.36906,1.07578,1.14732,-0.56435,-0.539081,1.50539,-0.588618,-1.41147,0.312681,-0.500208,-0.231603,
-0.242558,0.00736295,0.238443,-1.66253,-0.29916,-0.0675214,0.455534,-0.644133,0.167328,-0.657907,-0.257645,0.271584,0.456035,-0.247972,0,0,0,0,0,0,0,-0.2102,-0.00077465,0.271497,-1.65004,-0.307943,1.47534,1.25385,-0.670179,0.208633,-0.693079,-0.160815,-0.00952932,0.657948,-0.158878,1.90784,-35.4942,1.88936,25.3839,0.447384,1.6076,-0.177505,-0.734222,-1.20042,-2.36906,1.07578,1.14732,-0.56435,-0.539081,1.50539,-0.588618,-1.41147,0.312681,-0.500208,-0.231603,
-0.245098,0.00802651,0.235848,-1.66355,-0.298059,-0.0657541,0.454558,-0.635161,0.16589,-0.648846,-0.25582,0.275057,0.441819,-0.244068,0,0,0,0,0,0,0,-0.2102,-0.00077465,0.271497,-1.65004,-0.307943,1.47534,1.25385,-0.670179,0.208633,-0.693079,-0.160815,-0.00952932,0.657948,-0.158878,1.90784,-35.4942,1.88936,25.3839,0.447384,1.6076,-0.177505,-1.73001,0.572588,-1.65819,-0.0100315,0.0997879,0.413428,0.444616,0.699646,0.382102,-1.07186,0.417653,-0.438401,-0.233237,
-0.247606,0.00868042,0.233285,-1.66457,-0.296938,-0.0640216,0.453595,-0.626988,0.163479,-0.640586,-0.255265,0.28037,0.433127,-0.240727,0,0,0,0,0,0,0,-0.2102,-0.00077465,0.271497,-1.65004,-0.307943,1.47534,1.25385,-0.670179,0.208633,-0.693079,-0.160815,-0.00952932,0.657948,-0.158878,1.90784,-35.4942,1.88936,25.3839,0.447384,1.6076,-0.177505,-1.73001,0.572588,-1.65819,-0.0100315,0.0997879,0.413428,0.444616,0.699646,0.382102,-1.07186,0.417653,-0.438401,-0.233237,
-0.250084,0.00932283,0.230754,-1.66559,-0.295789,-0.0623033,0.452645,-0.619396,0.160601,-0.632909,-0.255172,0.287309,0.429583,-0.23751,0,0,0,0,0,0,0,-0.232419,0.00651528,0.248445,-1.65578,-0.306636,1.49588,1.24951,-0.67613,0.21608,-0.691834,-0.18777,0.0797813,0.607104,-0.128697,0.285221,-35.8672,0.211195,24.9594,-0.21912,1.80627,-0.170181,-2.30016,2.95628,-1.10447,-1.60949,-0.618006,1.75055,1.78874,0.000433944,1.70767,-0.777917,0.429884,-0.317899,-0.236177,
-0.252533,0.00995255,0.228251,-1.66662,-0.294605,-0.0605765,0.451707,-0.612252,0.15743,-0.625682,-0.255356,0.295948,0.431696,-0.234426,0,0,0,0,0,0,0,-0.232419,0.00651528,0.248445,-1.65578,-0.306636,1.49588,1.24951,-0.67613,0.21608,-0.691834,-0.18777,0.0797813,0.607104,-0.128697,0.285221,-35.8672,0.211195,24.9594,-0.21912,1.80627,-0.170181,-2.30016,2.95628,-1.10447,-1.60949,-0.618006,1.75055,1.78874,0.000433944,1.70767,-0.777917,0.429884,-0.317899,-0.236177,
-0.254955,0.0105687,0.225776,-1.66764,-0.293379,-0.0588154,0.450781,-0.605455,0.154033,-0.618812,-0.255815,0.306535,0.440267,-0.231539,0,0,0,0,0,0,0,-0.232419,0.00651528,0.248445,-1.65578,-0.306636,1.49588,1.24951,-0.67613,0.21608,-0.691834,-0.18777,0.0797813,0.607104,-0.128697,0.285221,-35.8672,0.211195,24.9594,-0.21912,1.80627,-0.170181,-2.51391,0.647608,-1.78839,-0.269886,-0.492036,0.506172,0.532871,0.322975,0.477876,-0.986292,0.162028,-0.319842,-0.226347,
-0.244228,0.00757413,0.236722,-1.66331,-0.293206,-0.0695591,0.453406,-0.69176,0.178609,-0.706372,-0.278853,0.438466,0.402154,-0.289051,0,0,0,0,0,0,0,-0.232419,0.00651528,0.248445,-1.65578,-0.306636,1.49588,1.24951,-0.67613,0.21608,-0.691834,-0.18777,0.0797813,0.607104,-0.128697,0.285221,-35.8672,0.211195,24.9594,-0.21912,1.80627,-0.170181,-0.716982,-1.69246,-2.55669,1.15793,1.08328,-0.763863,-0.739035,1.42744,-0.785998,-1.32803,-0.0369438,-0.333398,-0.220292,
-0.263698,0.01421,0.216484,-1.66812,-0.287157,-0.0507881,0.451193,-0.609628,0.145991,-0.623004,-0.252046,0.550463,0.442402,-0.250081,0,0,0,0,0,0,0,-0.232419,0.00651528,0.248445,-1.65578,-0.306636,1.49588,1.24951,-0.67613,0.21608,-0.691834,-0.18777,0.0797813,0.607104,-0.128697,0.285221,-35.8672,0.211195,24.9594,-0.21912,1.80627,-0.170181,-0.716982,-1.69246,-2.55669,1.15793,1.08328,-0.763863,-0.739035,1.42744,-0.785998,-1.32803,-0.0369438,-0.333398,-0.220292,
-0.266094,0.014786,0.214035,-1.66911,-0.284926,-0.0490685,0.450208,-0.599062,0.143988,-0.612369,-0.248303,0.557608,0.429899,-0.246291,0,0,0,0,0,0,0,-0.232419,0.00651528,0.248445,-1.65578,-0.306636,1.49588,1.24951,-0.67613,0.21608,-0.691834,-0.18777,0.0797813,0.607104,-0.128697,0.285221,-35.8672,0.211195,24.9594,-0.21912,1.80627,-0.170181,0.579481,-0.433813,-2.29144,0.393262,1.79719,-0.0456592,-0.0105359,1.61569,-0.0827734,-1.22622,0.0404052,-0.245911,-0.221698,
-0.268451,0.0153511,0.211625,-1.67009,-0.282671,-0.0474025,0.449235,-0.589189,0.141275,-0.602434,-0.245388,0.563974,0.416519,-0.243111,0,0,0,0,0,0,0,-0.252738,0.0124929,0.227503,-1.66182,-0.302323,1.51411,1.24548,-0.643752,0.177676,-0.669218,-0.205627,0.166797,0.554999,-0.129864,1.67774,-36.5178,1.58784,26.0306,-0.0662268,1.62774,-0.123489,0.579481,-0.433813,-2.29144,0.393262,1.79719,-0.0456592,-0.0105359,1.61569,-0.0827734,-1.22622,0.0404052,-0.245911,-0.221698,
-0.27077,0.0159038,0.209253,-1.67106,-0.280391,-0.0457939,0.448275,-0.579883,0.138188,-0.593068,-0.242772,0.569959,0.40213,-0.240049,0,0,0,0,0,0,0,-0.252738,0.0124929,0.227503,-1.66182,-0.302323,1.51411,1.24548,-0.643752,0.177676,-0.669218,-0.205627,0.166797,0.554999,-0.129864,1.67774,-36.5178,1.58784,26.0306,-0.0662268,1.62774,-0.123489,-0.524946,-0.376464,-0.852668,0.283312,0.298928,-0.0513469,-0.0121021,0.498466,-0.0903982,-0.565866,-0.0175134,-0.202097,-0.215229,
-0.273054,0.0164432,0.206916,-1.67203,-0.278087,-0.0442462,0.447327,-0.57105,0.134859,-0.584179,-0.240295,0.576032,0.386948,-0.237096,0,0,0,0,0,0,0,-0.252738,0.0124929,0.227503,-1.66182,-0.302323,1.51411,1.24548,-0.643752,0.177676,-0.669218,-0.205627,0.166797,0.554999,-0.129864,1.67774,-36.5178,1.58784,26.0306,-0.0662268,1.62774,-0.123489,-0.524946,-0.376464,-0.852668,0.283312,0.298928,-0.0513469,-0.0121021,0.498466,-0.0903982,-0.565866,-0.0175134,-0.202097,-0.215229,
-0.275305,0.0169686,0.204613,-1.67298,-0.275756,-0.042761,0.446389,-0.562607,0.131346,-0.575687,-0.237927,0.582699,0.371282,-0.234299,0,0,0,0,0,0,0,-0.252738,0.0124929,0.227503,-1.66182,-0.302323,1.51411,1.24548,-0.643752,0.177676,-0.669218,-0.205627,0.166797,0.554999,-0.129864,1.67774,-36.5178,1.58784,26.0306,-0.0662268,1.62774,-0.123489,-2.02573,-2.57,0.035734,1.574,-1.06259,-1.36294,-1.32852,-0.184971,-1.38409,-0.243783,-0.197282,-0.35127,-0.209011,
-0.264772,0.0140771,0.215349,-1.66904,-0.282345,-0.0522918,0.449172,-0.638739,0.14705,-0.65312,-0.275609,0.670454,0.406594,-0.289123,0,0,0,0,0,0,0,-0.252738,0.0124929,0.227503,-1.66182,-0.302323,1.51411,1.24548,-0.643752,0.177676,-0.669218,-0.205627,0.166797,0.554999,-0.129864,1.67774,-36.5178,1.58784,26.0306,-0.0662268,1.62774,-0.123489,-0.923956,-2.48042,-0.596639,1.65199,0.0292592,-1.30011,-1.26456,0.547607,-1.32211,-0.572586,-0.0811071,-0.382809,-0.21029,
-0.281653,0.0185761,0.197917,-1.67364,-0.276984,-0.036477,0.447155,-0.545864,0.110309,-0.559044,-0.237805,0.603808,0.297869,-0.250548,0,0,0,0,0,0,0,-0.273106,0.0188537,0.206626,-1.66788,-0.292722,1.53092,1.2413,-0.63469,0.19498,-0.638592,-0.181243,0.357241,0.511579,-0.130979,2.64179,-36.8669,2.6114,26.4313,0.116879,1.88592,-0.210464,-0.923956,-2.48042,-0.596639,1.65199,0.0292592,-1.30011,-1.26456,0.547607,-1.32211,-0.572586,-0.0811071,-0.382809,-0.21029,
-0.283793,0.0190075,0.195725,-1.67459,-0.274601,-0.0353344,0.446167,-0.534798,0.107865,-0.547989,-0.23562,0.595852,0.285653,-0.246994,0,0,0,0,0,0,0,-0.273106,0.0188537,0.206626,-1.66788,-0.292722,1.53092,1.2413,-0.63469,0.19498,-0.638592,-0.181243,0.357241,0.511579,-0.130979,2.64179,-36.8669,2.6114,26.4313,0.116879,1.88592,-0.210464,0.0395757,-0.120443,-0.848804,0.30845,0.764899,0.0501026,0.0903031,0.796498,0.0109202,-0.680085,0.152735,-0.296657,-0.212241,
-0.285892,0.0194266,0.193573,-1.67552,-0.272247,-0.0342206,0.445191,-0.52481,0.104765,-0.538003,-0.234687,0.588488,0.278438,-0.243954,0,0,0,0,0,0,0,-0.273106,0.0188537,0.206626,-1.66788,-0.292722,1.53092,1.2413,-0.63469,0.19498,-0.638592,-0.181243,0.357241,0.511579,-0.130979,2.64179,-36.8669,2.6114,26.4313,0.116879,1.88592,-0.210464,0.0395757,-0.120443,-0.848804,0.30845,0.764899,0.0501026,0.0903031,0.796498,0.0109202,-0.680085,0.152735,-0.296657,-0.212241,
-0.287955,0.0198324,0.191458,-1.67646,-0.269921,-0.0331176,0.444227,-0.515672,0.101454,-0.528855,-0.234239,0.581547,0.275762,-0.241021,0,0,0,0,0,0,0,-0.273106,0.0188537,0.206626,-1.66788,-0.292722,1.53092,1.2413,-0.63469,0.19498,-0.638592,-0.181243,0.357241,0.511579,-0.130979,2.64179,-36.8669,2.6114,26.4313,0.116879,1.88592,-0.210464,0.648799,-0.301349,-1.92928,0.565524,1.81271,-0.0376136,0.00502532,1.66305,-0.079961,-1.24866,0.217806,-0.423004,-0.212681,
-0.289983,0.0202247,0.189376,-1.6774,-0.267621,-0.0320057,0.443274,-0.507225,0.0980725,-0.520394,-0.234092,0.575083,0.277988,-0.238199,0,0,0,0,0,0,0,-0.273106,0.0188537,0.206626,-1.66788,-0.292722,1.53092,1.2413,-0.63469,0.19498,-0.638592,-0.181243,0.357241,0.511579,-0.130979,2.64179,-36.8669,2.6114,26.4313,0.116879,1.88592,-0.210464,0.648799,-0.301349,-1.92928,0.565524,1.81271,-0.0376136,0.00502532,1.66305,-0.079961,-1.24866,0.217806,-0.423004,-0.212681,
-0.291981,0.0206034,0.187326,-1.67833,-0.265343,-0.0308626,0.442332,-0.499349,0.0946693,-0.512503,-0.234233,0.569289,0.285763,-0.235543,0,0,0,0,0,0,0,-0.273106,0.0188537,0.206626,-1.66788,-0.292722,1.53092,1.2413,-0.63469,0.19498,-0.638592,-0.181243,0.357241,0.511579,-0.130979,2.64179,-36.8669,2.6114,26.4313,0.116879,1.88592,-0.210464,-1.04745,-1.55724,-2.12078,1.44052,0.850555,-0.875347,-0.845357,1.41496,-0.891189,-1.37137,0.218153,-0.564673,-0.203537,
-0.283156,0.0186452,0.196344,-1.67431,-0.268627,-0.0376987,0.445166,-0.585436,0.117312,-0.599678,-0.255941,0.807992,0.263099,-0.288874,0,0,0,0,0,0,0,-0.292793,0.024659,0.1863,-1.67319,-0.280562,1.54637,1.23585,-0.592162,0.19011,-0.605966,-0.148868,0.373308,0.462999,-0.171565,3.3797,-38.7871,3.36122,26.8796,0.233151,1.6607,-0.163772,-1.95426,-1.58469,-1.35811,1.45007,-0.178547,-0.972283,-0.941697,0.723631,-0.982306,-1.00155,0.244575,-0.527496,-0.198682,
-0.319108,0.0299252,0.159301,-1.68447,-0.250583,-0.00687742,0.437462,-0.501238,0.0900395,-0.514971,-0.230203,0.687064,0.301327,-0.253018,0,0,0,0,0,0,0,-0.292793,0.024659,0.1863,-1.67319,-0.280562,1.54637,1.23585,-0.592162,0.19011,-0.605966,-0.148868,0.373308,0.462999,-0.171565,3.3797,-38.7871,3.36122,26.8796,0.233151,1.6607,-0.163772,-1.95426,-1.58469,-1.35811,1.45007,-0.178547,-0.972283,-0.941697,0.723631,-0.982306,-1.00155,0.244575,-0.527496,-0.198682,
-0.321078,0.0302755,0.157276,-1.68538,-0.247809,-0.00570176,0.436464,-0.492599,0.087569,-0.506353,-0.227503,0.693496,0.293915,-0.249593,0,0,0,0,0,0,0,-0.292793,0.024659,0.1863,-1.67319,-0.280562,1.54637,1.23585,-0.592162,0.19011,-0.605966,-0.148868,0.373308,0.462999,-0.171565,3.3797,-38.7871,3.36122,26.8796,0.233151,1.6607,-0.163772,-1.83988,1.33885,-1.44104,-0.248821,-0.0993208,0.646418,0.684957,0.548772,0.608663,-1.03297,0.479315,-0.45715,-0.200249,
-0.323016,0.0306145,0.155284,-1.68628,-0.245031,-0.00454565,0.435478,-0.484282,0.084754,-0.497954,-0.225837,0.694643,0.289027,-0.246597,0,0,0,0,0,0,0,-0.292793,0.024659,0.1863,-1.67319,-0.280562,1.54637,1.23585,-0.592162,0.19011,-0.605966,-0.148868,0.373308,0.462999,-0.171565,3.3797,-38.7871,3.36122,26.8796,0.233151,1.6607,-0.163772,-1.83988,1.33885,-1.44104,-0.248821,-0.0993208,0.646418,0.684957,0.548772,0.608663,-1.03297,0.479315,-0.45715,-0.200249,
-0.324921,0.0309419,0.153324,-1.68718,-0.242263,-0.00339924,0.434503,-0.476254,0.0818516,-0.489862,-0.224663,0.691965,0.286603,-0.243719,0,0,0,0,0,0,0,-0.292793,0.024659,0.1863,-1.67319,-0.280562,1.54637,1.23585,-0.592162,0.19011,-0.605966,-0.148868,0.373308,0.462999,-0.171565,3.3797,-38.7871,3.36122,26.8796,0.233151,1.6607,-0.163772,-1.23076,1.45112,-2.07917,-0.201321,0.5877,0.756544,0.797467,1.03593,0.714325,-1.28683,0.540452,-0.433844,-0.199446,
-0.326795,0.0312578,0.151396,-1.68808,-0.239516,-0.002254,0.433539,-0.468513,0.078983,-0.482071,-0.223673,0.686649,0.286311,-0.240959,0,0,0,0,0,0,0,-0.310915,0.0299659,0.16748,-1.678,-0.26949,1.55863,1.23082,-0.58706,0.152444,-0.60787,-0.161136,0.395029,0.366466,-0.158787,1.27307,-38.7633,1.53627,25.9076,0.452877,1.6607,-0.230606,-1.23076,1.45112,-2.07917,-0.201321,0.5877,0.756544,0.797467,1.03593,0.714325,-1.28683,0.540452,-0.433844,-0.199446,
-0.328638,0.0315639,0.149499,-1.68896,-0.236798,-0.00112519,0.432585,-0.460896,0.0765129,-0.474403,-0.221571,0.679461,0.282201,-0.238363,0,0,0,0,0,0,0,-0.310915,0.0299659,0.16748,-1.678,-0.26949,1.55863,1.23082,-0.58706,0.152444,-0.60787,-0.161136,0.395029,0.366466,-0.158787,1.27307,-38.7633,1.53627,25.9076,0.452877,1.6607,-0.230606,-1.86502,0.487185,-2.00803,0.418543,0.0863542,0.163386,0.198992,0.853302,0.138799,-1.2051,0.51302,-0.417382,-0.199772,
-0.31997,0.0295135,0.158378,-1.68505,-0.239732,-0.00915773,0.435653,-0.519302,0.0823075,-0.533851,-0.246196,0.954645,0.239458,-0.287804,0,0,0,0,0,0,0,-0.310915,0.0299659,0.16748,-1.678,-0.26949,1.55863,1.23082,-0.58706,0.152444,-0.60787,-0.161136,0.395029,0.366466,-0.158787,1.27307,-38.7633,1.53627,25.9076,0.452877,1.6607,-0.230606,-2.69397,-1.0665,-1.5157,1.35494,-0.782529,-0.792455,-0.765616,0.427317,-0.787792,-0.913079,0.456728,-0.372581,-0.19422,
-0.33572,0.0337812,0.14201,-1.68881,-0.23576,0.00162796,0.432504,-0.453904,0.0592675,-0.467503,-0.216642,0.768243,0.205605,-0.252066,0,0,0,0,0,0,0,-0.310915,0.0299659,0.16748,-1.678,-0.26949,1.55863,1.23082,-0.58706,0.152444,-0.60787,-0.161136,0.395029,0.366466,-0.158787,1.27307,-38.7633,1.53627,25.9076,0.452877,1.6607,-0.230606,-2.69397,-1.0665,-1.5157,1.35494,-0.782529,-0.792455,-0.765616,0.427317,-0.787792,-0.913079,0.456728,-0.372581,-0.19422,
-0.337497,0.0340087,0.14018,-1.68966,-0.232679,0.00241373,0.431509,-0.444026,0.0568582,-0.457685,-0.214065,0.770085,0.196443,-0.248881,0,0,0,0,0,0,0,-0.310915,0.0299659,0.16748,-1.678,-0.26949,1.55863,1.23082,-0.58706,0.152444,-0.60787,-0.161136,0.395029,0.366466,-0.158787,1.27307,-38.7633,1.53627,25.9076,0.452877,1.6607,-0.230606,-0.988177,0.732924,-2.41342,0.405451,0.70783,0.385239,0.419103,1.19144,0.361533,-1.25976,0.606079,-0.275233,-0.191965,
-0.339235,0.0342251,0.138386,-1.69052,-0.229613,0.00317435,0.430524,-0.434665,0.0541088,-0.448289,-0.21257,0.766597,0.190154,-0.246055,0,0,0,0,0,0,0,-0.310915,0.0299659,0.16748,-1.678,-0.26949,1.55863,1.23082,-0.58706,0.152444,-0.60787,-0.161136,0.395029,0.366466,-0.158787,1.27307,-38.7633,1.53627,25.9076,0.452877,1.6607,-0.230606,-0.988177,0.732924,-2.41342,0.405451,0.70783,0.385239,0.419103,1.19144,0.361533,-1.25976,0.606079,-0.275233,-0.191965,
-0.340938,0.0344303,0.136629,-1.69136,-0.226576,0.00392048,0.429551,-0.425769,0.0512993,-0.439372,-0.211564,0.759229,0.186534,-0.243341,0,0,0,0,0,0,0,-0.32992,0.0346654,0.14786,-1.68416,-0.255022,1.57061,1.22551,-0.546417,0.112527,-0.578739,-0.189559,0.468467,0.330547,-0.157025,2.84412,-37.8667,2.91292,26.0544,0.855709,1.79345,-0.183914,-0.812404,-0.344631,-2.52369,1.04552,0.846881,-0.18356,-0.152761,1.36175,-0.194774,-1.26721,0.514687,-0.253399,-0.189769,
-0.342608,0.0346244,0.134905,-1.6922,-0.223579,0.0046641,0.428588,-0.417329,0.0485139,-0.430924,-0.210873,0.749189,0.185904,-0.240739,0,0,0,0,0,0,0,-0.32992,0.0346654,0.14786,-1.68416,-0.255022,1.57061,1.22551,-0.546417,0.112527,-0.578739,-0.189559,0.468467,0.330547,-0.157025,2.84412,-37.8667,2.91292,26.0544,0.855709,1.79345,-0.183914,-0.812404,-0.344631,-2.52369,1.04552,0.846881,-0.18356,-0.152761,1.36175,-0.194774,-1.26721,0.514687,-0.253399,-0.189769,
-0.344245,0.0348075,0.133214,-1.69305,-0.220629,0.00541923,0.427635,-0.409324,0.0457773,-0.422921,-0.210462,0.737496,0.188784,-0.238279,0,0,0,0,0,0,0,-0.32992,0.0346654,0.14786,-1.68416,-0.255022,1.57061,1.22551,-0.546417,0.112527,-0.578739,-0.189559,0.468467,0.330547,-0.157025,2.84412,-37.8667,2.91292,26.0544,0.855709,1.79345,-0.183914,-1.30305,-0.550768,-2.46499,1.20766,0.488925,-0.369159,-0.333749,1.21243,-0.379218,-1.24246,0.533658,-0.269249,-0.186906,
-0.336684,0.0334641,0.140973,-1.68937,-0.228026,0.000680263,0.43074,-0.481256,0.053163,-0.495877,-0.230136,1.02395,0.178308,-0.286012,0,0,0,0,0,0,0,-0.32992,0.0346654,0.14786,-1.68416,-0.255022,1.57061,1.22551,-0.546417,0.112527,-0.578739,-0.189559,0.468467,0.330547,-0.157025,2.84412,-37.8667,2.91292,26.0544,0.855709,1.79345,-0.183914,-0.597617,-1.39042,-2.27016,1.65496,0.830685,-0.740528,-0.70427,1.37313,-0.746014,-1.13301,0.443448,-0.23207,-0.187058,
-0.352822,0.0372907,0.124289,-1.69456,-0.216803,0.0106444,0.427231,-0.412451,0.0352504,-0.426149,-0.20682,0.851413,0.170547,-0.25214,0,0,0,0,0,0,0,-0.32992,0.0346654,0.14786,-1.68416,-0.255022,1.57061,1.22551,-0.546417,0.112527,-0.578739,-0.189559,0.468467,0.330547,-0.157025,2.84412,-37.8667,2.91292,26.0544,0.855709,1.79345,-0.183914,-0.597617,-1.39042,-2.27016,1.65496,0.830685,-0.740528,-0.70427,1.37313,-0.746014,-1.13301,0.443448,-0.23207,-0.187058,
-0.354433,0.0374229,0.122623,-1.69538,-0.213398,0.0112992,0.426234,-0.402621,0.0330376,-0.416463,-0.203972,0.851115,0.163691,-0.249148,0,0,0,0,0,0,0,-0.351551,0.0391445,0.12542,-1.69133,-0.233583,1.58098,1.21901,-0.523224,0.107359,-0.534333,-0.17077,0.52834,0.200834,-0.151669,4.16523,-38.7633,4.13881,27.2525,0.575558,2.09832,-0.183914,-0.235194,-0.0358688,-1.64021,0.721111,0.721296,0.0522988,0.101403,0.994915,0.0185909,-0.852503,0.460514,-0.16843,-0.1853,
-0.356006,0.0375449,0.120994,-1.69618,-0.210018,0.0119342,0.425249,-0.393322,0.0304993,-0.407138,-0.202174,0.845037,0.158753,-0.246451,0,0,0,0,0,0,0,-0.351551,0.0391445,0.12542,-1.69133,-0.233583,1.58098,1.21901,-0.523224,0.107359,-0.534333,-0.17077,0.52834,0.200834,-0.151669,4.16523,-38.7633,4.13881,27.2525,0.575558,2.09832,-0.183914,-0.235194,-0.0358688,-1.64021,0.721111,0.721296,0.0522988,0.101403,0.994915,0.0185909,-0.852503,0.460514,-0.16843,-0.1853,
-0.357544,0.0376564,0.119401,-1.69699,-0.206679,0.0125569,0.424273,-0.384481,0.0278975,-0.398288,-0.200883,0.834729,0.155686,-0.243858,0,0,0,0,0,0,0,-0.351551,0.0391445,0.12542,-1.69133,-0.233583,1.58098,1.21901,-0.523224,0.107359,-0.534333,-0.17077,0.52834,0.200834,-0.151669,4.16523,-38.7633,4.13881,27.2525,0.575558,2.09832,-0.183914,-0.129648,1.38313,-0.632979,-0.291466,0.257588,0.839435,0.897661,0.340393,0.782032,-0.415993,0.492033,-0.10548,-0.183083,
-0.359048,0.0377577,0.117842,-1.69779,-0.203393,0.0131766,0.423308,-0.376104,0.0253164,-0.389916,-0.199938,0.821459,0.154905,-0.241372,0,0,0,0,0,0,0,-0.351551,0.0391445,0.12542,-1.69133,-0.233583,1.58098,1.21901,-0.523224,0.107359,-0.534333,-0.17077,0.52834,0.200834,-0.151669,4.16523,-38.7633,4.13881,27.2525,0.575558,2.09832,-0.183914,0.0177032,-0.0862664,-1.03438,0.637633,0.564259,0.0578948,0.116273,0.737551,0.0144703,-0.580118,0.406817,-0.132771,-0.182184,
-0.36239,0.0372455,0.114314,-1.70024,-0.188761,0.0127746,0.419019,-0.368594,0.0098908,-0.383122,-0.211562,1.02078,0.141501,-0.266038,0,0,0,0,0,0,0,-0.351551,0.0391445,0.12542,-1.69133,-0.233583,1.58098,1.21901,-0.523224,0.107359,-0.534333,-0.17077,0.52834,0.200834,-0.151669,4.16523,-38.7633,4.13881,27.2525,0.575558,2.09832,-0.183914,0.0177032,-0.0862664,-1.03438,0.637633,0.564259,0.0578948,0.116273,0.737551,0.0144703,-0.580118,0.406817,-0.132771,-0.182184,
-0.353037,0.03686,0.12402,-1.69511,-0.213559,0.0095169,0.425576,-0.421244,0.0246281,-0.435897,-0.219566,1.01304,0.144123,-0.284176,0,0,0,0,0,0,0,-0.351551,0.0391445,0.12542,-1.69133,-0.233583,1.58098,1.21901,-0.523224,0.107359,-0.534333,-0.17077,0.52834,0.200834,-0.151669,4.16523,-38.7633,4.13881,27.2525,0.575558,2.09832,-0.183914,0.210497,-0.915291,-1.57293,1.22991,0.942246,-0.36261,-0.309353,1.14617,-0.39247,-0.791232,0.385352,-0.140595,-0.180475,
-0.372127,0.040873,0.104192,-1.70147,-0.194932,0.0182222,0.420796,-0.358358,0.0137421,-0.372095,-0.199456,0.842429,0.141224,-0.251679,0,0,0,0,0,0,0,-0.367145,0.0419934,0.10951,-1.69646,-0.215628,1.58605,1.21362,-0.476145,0.0802431,-0.483326,-0.157745,0.592749,0.141768,-0.172088,3.96289,-38.9894,3.93648,26.8796,0.281674,2.05163,-0.224197,0.210497,-0.915291,-1.57293,1.22991,0.942246,-0.36261,-0.309353,1.14617,-0.39247,-0.791232,0.385352,-0.140595,-0.180475,
-0.373519,0.0409187,0.102743,-1.70226,-0.191584,0.0187672,0.419801,-0.348119,0.011434,-0.362052,-0.196201,0.837109,0.136251,-0.248856,0,0,0,0,0,0,0,-0.367145,0.0419934,0.10951,-1.69646,-0.215628,1.58605,1.21362,-0.476145,0.0802431,-0.483326,-0.157745,0.592749,0.141768,-0.172088,3.96289,-38.9894,3.93648,26.8796,0.281674,2.05163,-0.224197,-1.32757,-2.93525,-1.63916,2.35118,0.0667816,-1.68971,-1.64912,0.97389,-1.6811,-0.848624,0.165326,-0.236454,-0.179653,
-0.374875,0.0409537,0.101331,-1.70303,-0.188245,0.0192977,0.418815,-0.339091,0.00874444,-0.353195,-0.194019,0.834624,0.132638,-0.246403,0,0,0,0,0,0,0,-0.367145,0.0419934,0.10951,-1.69646,-0.215628,1.58605,1.21362,-0.476145,0.0802431,-0.483326,-0.157745,0.592749,0.141768,-0.172088,3.96289,-38.9894,3.93648,26.8796,0.281674,2.05163,-0.224197,-2.15506,-0.611063,-1.75002,1.00844,-0.421425,-0.563436,-0.50906,0.572096,-0.58928,-0.930173,0.299748,-0.255279,-0.181926,
-0.376199,0.0409779,0.0999507,-1.7038,-0.184922,0.0198174,0.417839,-0.330804,0.00604522,-0.344979,-0.192293,0.830989,0.129914,-0.243973,0,0,0,0,0,0,0,-0.367145,0.0419934,0.10951,-1.69646,-0.215628,1.58605,1.21362,-0.476145,0.0802431,-0.483326,-0.157745,0.592749,0.141768,-0.172088,3.96289,-38.9894,3.93648,26.8796,0.281674,2.05163,-0.224197,-2.15506,-0.611063,-1.75002,1.00844,-0.421425,-0.563436,-0.50906,0.572096,-0.58928,-0.930173,0.299748,-0.255279,-0.181926,
-0.37749,0.0409918,0.098603,-1.70457,-0.181635,0.0203304,0.416873,-0.322782,0.00347466,-0.336928,-0.190861,0.821637,0.12825,-0.241558,0,0,0,0,0,0,0,-0.367145,0.0419934,0.10951,-1.69646,-0.215628,1.58605,1.21362,-0.476145,0.0802431,-0.483326,-0.157745,0.592749,0.141768,-0.172088,3.96289,-38.9894,3.93648,26.8796,0.281674,2.05163,-0.224197,-1.5617,1.67135,-1.90458,-0.256575,-0.0455043,0.762892,0.823524,0.551964,0.70551,-0.974202,0.490032,-0.192672,-0.184827,
-0.372618,0.0404357,0.103624,-1.70201,-0.191909,0.0186646,0.419193,-0.376419,0.00285953,-0.391494,-0.210254,1.00571,0.152059,-0.282736,0,0,0,0,0,0,0,-0.38157,0.0445057,0.0945778,-1.70095,-0.195672,1.5899,1.20892,-0.447823,0.069285,-0.479965,-0.141318,0.639576,0.104169,-0.135506,3.9867,-38.4657,3.93648,26.7764,0.263363,2.27044,-0.210464,-1.5617,1.67135,-1.90458,-0.256575,-0.0455043,0.762892,0.823524,0.551964,0.70551,-0.974202,0.490032,-0.192672,-0.184827,
-0.399562,0.0447015,0.0759025,-1.71045,-0.153542,0.0259463,0.410752,-0.313128,-0.0119407,-0.327303,-0.186134,0.920958,0.120546,-0.25132,0,0,0,0,0,0,0,-0.38157,0.0445057,0.0945778,-1.70095,-0.195672,1.5899,1.20892,-0.447823,0.069285,-0.479965,-0.141318,0.639576,0.104169,-0.135506,3.9867,-38.4657,3.93648,26.7764,0.263363,2.27044,-0.210464,-0.88054,-0.74727,-2.44842,1.18925,0.68353,-0.419039,-0.367418,1.25915,-0.447364,-1.16572,0.282514,-0.190223,-0.184678,
-0.400776,0.0446475,0.0746311,-1.71118,-0.149905,0.0263928,0.409757,-0.303505,-0.0134865,-0.317852,-0.182857,0.909232,0.111627,-0.248606,0,0,0,0,0,0,0,-0.38157,0.0445057,0.0945778,-1.70095,-0.195672,1.5899,1.20892,-0.447823,0.069285,-0.479965,-0.141318,0.639576,0.104169,-0.135506,3.9867,-38.4657,3.93648,26.7764,0.263363,2.27044,-0.210464,-0.301895,-0.994681,-2.8613,1.38218,1.25314,-0.447646,-0.389384,1.65213,-0.484546,-1.3256,0.241275,-0.18086,-0.182374,
-0.401956,0.0445857,0.0733935,-1.71191,-0.146313,0.0268062,0.408772,-0.294899,-0.0154484,-0.309395,-0.180654,0.897988,0.103346,-0.246224,0,0,0,0,0,0,0,-0.38157,0.0445057,0.0945778,-1.70095,-0.195672,1.5899,1.20892,-0.447823,0.069285,-0.479965,-0.141318,0.639576,0.104169,-0.135506,3.9867,-38.4657,3.93648,26.7764,0.263363,2.27044,-0.210464,-0.301895,-0.994681,-2.8613,1.38218,1.25314,-0.447646,-0.389384,1.65213,-0.484546,-1.3256,0.241275,-0.18086,-0.182374,
-0.403103,0.0445159,0.0721886,-1.71262,-0.142789,0.027188,0.407797,-0.286727,-0.0174608,-0.301223,-0.178916,0.880914,0.0954565,-0.243827,0,0,0,0,0,0,0,-0.38157,0.0445057,0.0945778,-1.70095,-0.195672,1.5899,1.20892,-0.447823,0.069285,-0.479965,-0.141318,0.639576,0.104169,-0.135506,3.9867,-38.4657,3.93648,26.7764,0.263363,2.27044,-0.210464,-0.958328,-0.472336,-2.52544,1.04342,0.618259,-0.286367,-0.226575,1.20651,-0.324732,-1.15902,0.290494,-0.151309,-0.182952,
-0.404219,0.044438,0.0710148,-1.71333,-0.139352,0.027543,0.406831,-0.278947,-0.0194623,-0.293463,-0.177576,0.859367,0.0887467,-0.241515,0,0,0,0,0,0,0,-0.395286,0.0460845,0.0802624,-1.70567,-0.1758,1.59218,1.20466,-0.404642,0.0418312,-0.437532,-0.15011,0.629557,0.0592288,-0.149296,2.3125,-38.5133,2.36146,26.5543,1.23474,2.37023,-0.143631,-0.958328,-0.472336,-2.52544,1.04342,0.618259,-0.286367,-0.226575,1.20651,-0.324732,-1.15902,0.290494,-0.151309,-0.182952,
-0.405305,0.0443523,0.0698703,-1.71404,-0.136014,0.02788,0.405874,-0.271572,-0.0214229,-0.286122,-0.176657,0.834399,0.0842422,-0.239314,0,0,0,0,0,0,0,-0.395286,0.0460845,0.0802624,-1.70567,-0.1758,1.59218,1.20466,-0.404642,0.0418312,-0.437532,-0.15011,0.629557,0.0592288,-0.149296,2.3125,-38.5133,2.36146,26.5543,1.23474,2.37023,-0.143631,-1.57722,-1.57632,-2.44658,1.72228,0.153013,-1.00081,-0.947987,1.09137,-1.01319,-1.09422,0.272734,-0.140226,-0.183021,
-0.399188,0.0442137,0.0762407,-1.71083,-0.153048,0.026576,0.40932,-0.305183,-0.0253026,-0.320429,-0.192781,1.00101,0.139654,-0.279317,0,0,0,0,0,0,0,-0.395286,0.0460845,0.0802624,-1.70567,-0.1758,1.59218,1.20466,-0.404642,0.0418312,-0.437532,-0.15011,0.629557,0.0592288,-0.149296,2.3125,-38.5133,2.36146,26.5543,1.23474,2.37023,-0.143631,-1.57722,-1.57632,-2.44658,1.72228,0.153013,-1.00081,-0.947987,1.09137,-1.01319,-1.09422,0.272734,-0.140226,-0.183021,
-0.410603,0.0453101,0.0642646,-1.71474,-0.136439,0.0260657,0.406636,-0.252325,-0.0330488,-0.266925,-0.184129,0.793541,0.138881,-0.248871,0,0,0,0,0,0,0,-0.395286,0.0460845,0.0802624,-1.70567,-0.1758,1.59218,1.20466,-0.404642,0.0418312,-0.437532,-0.15011,0.629557,0.0592288,-0.149296,2.3125,-38.5133,2.36146,26.5543,1.23474,2.37023,-0.143631,-0.502146,-0.529051,-2.43663,1.17183,0.755745,-0.25048,-0.192208,1.24041,-0.282825,-1.05498,0.403539,-0.076241,-0.182253,
-0.411574,0.0451752,0.0632349,-1.71547,-0.133377,0.0266631,0.405651,-0.242654,-0.0337079,-0.257429,-0.181017,0.765597,0.149358,-0.246295,0,0,0,0,0,0,0,-0.395286,0.0460845,0.0802624,-1.70567,-0.1758,1.59218,1.20466,-0.404642,0.0418312,-0.437532,-0.15011,0.629557,0.0592288,-0.149296,2.3125,-38.5133,2.36146,26.5543,1.23474,2.37023,-0.143631,-0.502146,-0.529051,-2.43663,1.17183,0.755745,-0.25048,-0.192208,1.24041,-0.282825,-1.05498,0.403539,-0.076241,-0.182253,
-0.41251,0.0450367,0.0622392,-1.71618,-0.130426,0.0272864,0.404675,-0.233969,-0.0346284,-0.248911,-0.178094,0.737586,0.155822,-0.243997,0,0,0,0,0,0,0,-0.395286,0.0460845,0.0802624,-1.70567,-0.1758,1.59218,1.20466,-0.404642,0.0418312,-0.437532,-0.15011,0.629557,0.0592288,-0.149296,2.3125,-38.5133,2.36146,26.5543,1.23474,2.37023,-0.143631,-0.631226,0.237951,-2.25756,0.696646,0.554068,0.128231,0.187552,1.00964,0.0878782,-0.971791,0.447652,-0.0583816,-0.18019,
-0.413415,0.0448937,0.061274,-1.71688,-0.127585,0.0279235,0.403708,-0.226207,-0.0357507,-0.241307,-0.175438,0.710311,0.159276,-0.241734,0,0,0,0,0,0,0,-0.408463,0.046698,0.0663769,-1.711,-0.154185,1.59335,1.19929,-0.367321,0.0173134,-0.408125,-0.160181,0.630707,0.0212549,-0.190684,2.51484,-38.4895,2.46461,27.0541,1.24664,2.5158,-0.117081,-1.38903,-0.924001,-2.45832,1.41794,0.207512,-0.653094,-0.596438,1.05952,-0.673888,-1.07832,0.373435,-0.110255,-0.171825,
-0.414292,0.0447457,0.0603357,-1.71757,-0.124846,0.0285657,0.40275,-0.219313,-0.037005,-0.234566,-0.173071,0.684756,0.160551,-0.23949,0,0,0,0,0,0,0,-0.408463,0.046698,0.0663769,-1.711,-0.154185,1.59335,1.19929,-0.367321,0.0173134,-0.408125,-0.160181,0.630707,0.0212549,-0.190684,2.51484,-38.4895,2.46461,27.0541,1.24664,2.5158,-0.117081,-1.38903,-0.924001,-2.45832,1.41794,0.207512,-0.653094,-0.596438,1.05952,-0.673888,-1.07832,0.373435,-0.110255,-0.171825,
-0.415145,0.0445924,0.0594211,-1.71826,-0.122197,0.0292073,0.401801,-0.213256,-0.0383276,-0.228663,-0.171,0.662145,0.160385,-0.237266,0,0,0,0,0,0,0,-0.408463,0.046698,0.0663769,-1.711,-0.154185,1.59335,1.19929,-0.367321,0.0173134,-0.408125,-0.160181,0.630707,0.0212549,-0.190684,2.51484,-38.4895,2.46461,27.0541,1.24664,2.5158,-0.117081,-1.05208,-0.222619,-2.56996,1.04855,0.473741,-0.227313,-0.159606,1.14808,-0.268957,-1.14617,0.421318,-0.123895,-0.166388,
-0.410728,0.0447319,0.0640689,-1.71529,-0.133689,0.0282899,0.405212,-0.26214,-0.048238,-0.278369,-0.193161,0.997283,0.193378,-0.276713,0,0,0,0,0,0,0,-0.408463,0.046698,0.0663769,-1.711,-0.154185,1.59335,1.19929,-0.367321,0.0173134,-0.408125,-0.160181,0.630707,0.0212549,-0.190684,2.51484,-38.4895,2.46461,27.0541,1.24664,2.5158,-0.117081,-1.05208,-0.222619,-2.56996,1.04855,0.473741,-0.227313,-0.159606,1.14808,-0.268957,-1.14617,0.421318,-0.123895,-0.166388,
-0.422076,0.0451192,0.0520417,-1.72,-0.116328,0.0294441,0.401405,-0.226977,-0.0474664,-0.243253,-0.168965,0.873412,0.130911,-0.246231,0,0,0,0,0,0,0,-0.408463,0.046698,0.0663769,-1.711,-0.154185,1.59335,1.19929,-0.367321,0.0173134,-0.408125,-0.160181,0.630707,0.0212549,-0.190684,2.51484,-38.4895,2.46461,27.0541,1.24664,2.5158,-0.117081,-1.10929,-0.443983,-2.18391,1.07451,0.256939,-0.355928,-0.289715,0.950214,-0.394339,-0.977111,0.36815,-0.109998,-0.167096,
-0.422958,0.044924,0.0510947,-1.72066,-0.11276,0.0299217,0.40043,-0.220677,-0.048787,-0.23675,-0.165662,0.892126,0.119377,-0.243739,0,0,0,0,0,0,0,-0.420107,0.0468189,0.0544342,-1.71595,-0.13584,1.59423,1.19338,-0.329651,0.00209322,-0.355433,-0.158426,0.509984,0.0307559,-0.179994,3.42731,-38.2158,3.31361,27.6254,1.18621,2.73461,-0.137222,-1.10929,-0.443983,-2.18391,1.07451,0.256939,-0.355928,-0.289715,0.950214,-0.394339,-0.977111,0.36815,-0.109998,-0.167096,
-0.423814,0.0447226,0.0501757,-1.72131,-0.109177,0.0303521,0.399465,-0.213874,-0.0503545,-0.22973,-0.163277,0.895709,0.107615,-0.241352,0,0,0,0,0,0,0,-0.420107,0.0468189,0.0544342,-1.71595,-0.13584,1.59423,1.19338,-0.329651,0.00209322,-0.355433,-0.158426,0.509984,0.0307559,-0.179994,3.42731,-38.2158,3.31361,27.6254,1.18621,2.73461,-0.137222,-1.3006,-1.1186,-1.85779,1.37396,-0.0428769,-0.749092,-0.687275,0.767928,-0.775102,-0.797279,0.303618,-0.0667503,-0.166969,
-0.424641,0.0445146,0.0492854,-1.72196,-0.105626,0.0307369,0.398508,-0.206848,-0.0519932,-0.222578,-0.161478,0.887833,0.0961959,-0.239078,0,0,0,0,0,0,0,-0.420107,0.0468189,0.0544342,-1.71595,-0.13584,1.59423,1.19338,-0.329651,0.00209322,-0.355433,-0.158426,0.509984,0.0307559,-0.179994,3.42731,-38.2158,3.31361,27.6254,1.18621,2.73461,-0.137222,-1.3006,-1.1186,-1.85779,1.37396,-0.0428769,-0.749092,-0.687275,0.767928,-0.775102,-0.797279,0.303618,-0.0667503,-0.166969,
-0.425441,0.0443001,0.0484234,-1.7226,-0.102141,0.031081,0.397561,-0.199833,-0.0536306,-0.215503,-0.160175,0.871265,0.0860253,-0.236917,0,0,0,0,0,0,0,-0.420107,0.0468189,0.0544342,-1.71595,-0.13584,1.59423,1.19338,-0.329651,0.00209322,-0.355433,-0.158426,0.509984,0.0307559,-0.179994,3.42731,-38.2158,3.31361,27.6254,1.18621,2.73461,-0.137222,-0.697865,-0.0813761,-1.32462,0.674249,0.00221599,-0.0742565,-0.00434768,0.481845,-0.121749,-0.522115,0.384002,0.0149166,-0.173998,
-0.426213,0.0440792,0.0475889,-1.72324,-0.0987483,0.0313941,0.396621,-0.192978,-0.05523,-0.208635,-0.159376,0.848094,0.0782665,-0.234879,0,0,0,0,0,0,0,-0.420107,0.0468189,0.0544342,-1.71595,-0.13584,1.59423,1.19338,-0.329651,0.00209322,-0.355433,-0.158426,0.509984,0.0307559,-0.179994,3.42731,-38.2158,3.31361,27.6254,1.18621,2.73461,-0.137222,-0.213307,0.455399,-1.33053,0.407968,0.254582,0.310663,0.384067,0.529432,0.253564,-0.499295,0.46813,0.0495758,-0.18258,
-0.42181,0.0445943,0.0522791,-1.72044,-0.112827,0.0316205,0.400067,-0.216032,-0.0610515,-0.232421,-0.175259,0.985334,0.181514,-0.271873,0,0,0,0,0,0,0,-0.420107,0.0468189,0.0544342,-1.71595,-0.13584,1.59423,1.19338,-0.329651,0.00209322,-0.355433,-0.158426,0.509984,0.0307559,-0.179994,3.42731,-38.2158,3.31361,27.6254,1.18621,2.73461,-0.137222,-0.213307,0.455399,-1.33053,0.407968,0.254582,0.310663,0.384067,0.529432,0.253564,-0.499295,0.46813,0.0495758,-0.18258,
-0.431788,0.0445437,0.0420268,-1.72454,-0.0992844,0.0276763,0.395635,-0.177378,-0.0635597,-0.192955,-0.172927,0.733744,0.144457,-0.244142,0,0,0,0,0,0,0,-0.430558,0.0467437,0.0434378,-1.72057,-0.117779,1.59445,1.18854,-0.314525,-0.00558446,-0.336351,-0.138238,0.59534,-0.00158234,-0.12348,3.78437,-37.3668,3.58735,27.3993,1.1734,2.7813,-0.217789,-0.447051,-1.12662,-1.87773,1.4377,0.388709,-0.560364,-0.495749,0.934715,-0.590249,-0.715125,0.377745,0.0339915,-0.187697,
-0.43246,0.0442881,0.041292,-1.72522,-0.0964873,0.0283105,0.394668,-0.167947,-0.0638923,-0.183702,-0.169858,0.699295,0.158534,-0.241786,0,0,0,0,0,0,0,-0.430558,0.0467437,0.0434378,-1.72057,-0.117779,1.59445,1.18854,-0.314525,-0.00558446,-0.336351,-0.138238,0.59534,-0.00158234,-0.12348,3.78437,-37.3668,3.58735,27.3993,1.1734,2.7813,-0.217789,-0.447051,-1.12662,-1.87773,1.4377,0.388709,-0.560364,-0.495749,0.934715,-0.590249,-0.715125,0.377745,0.0339915,-0.187697,
-0.433098,0.0440306,0.0405903,-1.72589,-0.0938327,0.0289789,0.393709,-0.159489,-0.0643891,-0.175415,-0.166719,0.663637,0.167105,-0.239673,0,0,0,0,0,0,0,-0.430558,0.0467437,0.0434378,-1.72057,-0.117779,1.59445,1.18854,-0.314525,-0.00558446,-0.336351,-0.138238,0.59534,-0.00158234,-0.12348,3.78437,-37.3668,3.58735,27.3993,1.1734,2.7813,-0.217789,-1.1911,-1.88339,-2.00958,1.86622,0.013197,-1.1091,-1.04891,0.895919,-1.12365,-0.777027,0.287443,0.0121733,-0.19291,
-0.433706,0.0437703,0.0399181,-1.72655,-0.091322,0.0296657,0.392759,-0.15196,-0.065084,-0.168049,-0.163829,0.627687,0.17171,-0.237576,0,0,0,0,0,0,0,-0.430558,0.0467437,0.0434378,-1.72057,-0.117779,1.59445,1.18854,-0.314525,-0.00558446,-0.336351,-0.138238,0.59534,-0.00158234,-0.12348,3.78437,-37.3668,3.58735,27.3993,1.1734,2.7813,-0.217789,-1.10693,-0.685613,-2.29531,1.29819,0.17264,-0.475649,-0.407912,0.945614,-0.508704,-0.929196,0.415017,-0.0181193,-0.199913,
-0.434287,0.0435066,0.0392719,-1.72719,-0.0889518,0.0303598,0.391817,-0.145324,-0.065925,-0.161572,-0.161291,0.592532,0.173512,-0.235475,0,0,0,0,0,0,0,-0.430558,0.0467437,0.0434378,-1.72057,-0.117779,1.59445,1.18854,-0.314525,-0.00558446,-0.336351,-0.138238,0.59534,-0.00158234,-0.12348,3.78437,-37.3668,3.58735,27.3993,1.1734,2.7813,-0.217789,-1.10693,-0.685613,-2.29531,1.29819,0.17264,-0.475649,-0.407912,0.945614,-0.508704,-0.929196,0.415017,-0.0181193,-0.199913,
-0.431812,0.0439524,0.0419422,-1.72513,-0.0961555,0.0313002,0.39433,-0.184845,-0.0788056,-0.201847,-0.181527,0.968051,0.231401,-0.269682,0,0,0,0,0,0,0,-0.442718,0.0466739,0.0303748,-1.72536,-0.0934526,1.59448,1.18315,-0.264529,-0.00332237,-0.279505,-0.0948707,0.486762,0.0024134,-0.117422,3.70899,-37.589,3.48817,26.8042,0.795284,2.66869,-0.291031,-1.20777,0.319849,-2.43139,0.758445,0.156644,0.0240814,0.0946701,0.875876,-0.0217161,-1.00762,0.476148,-0.0370108,-0.208035,
-0.451932,0.0434181,0.0203747,-1.73358,-0.0613621,0.0331559,0.385565,-0.148179,-0.0778356,-0.165644,-0.158708,0.722348,0.202991,-0.241377,0,0,0,0,0,0,0,-0.442718,0.0466739,0.0303748,-1.72536,-0.0934526,1.59448,1.18315,-0.264529,-0.00332237,-0.279505,-0.0948707,0.486762,0.0024134,-0.117422,3.70899,-37.589,3.48817,26.8042,0.795284,2.66869,-0.291031,-1.20777,0.319849,-2.43139,0.758445,0.156644,0.0240814,0.0946701,0.875876,-0.0217161,-1.00762,0.476148,-0.0370108,-0.208035,
-0.452509,0.0431061,0.0197299,-1.73421,-0.0584112,0.0339313,0.384609,-0.144041,-0.0779825,-0.161213,-0.155612,0.737736,0.193835,-0.239076,0,0,0,0,0,0,0,-0.442718,0.0466739,0.0303748,-1.72536,-0.0934526,1.59448,1.18315,-0.264529,-0.00332237,-0.279505,-0.0948707,0.486762,0.0024134,-0.117422,3.70899,-37.589,3.48817,26.8042,0.795284,2.66869,-0.291031,-1.96534,-0.501276,-2.53772,1.20854,-0.239413,-0.565084,-0.501777,0.823713,-0.592314,-1.05169,0.371426,-0.0495979,-0.213601,
-0.453066,0.0427922,0.0191045,-1.73482,-0.055449,0.0346639,0.383662,-0.139379,-0.0784894,-0.15636,-0.153231,0.740541,0.18316,-0.23686,0,0,0,0,0,0,0,-0.442718,0.0466739,0.0303748,-1.72536,-0.0934526,1.59448,1.18315,-0.264529,-0.00332237,-0.279505,-0.0948707,0.486762,0.0024134,-0.117422,3.70899,-37.589,3.48817,26.8042,0.795284,2.66869,-0.291031,-2.5995,-0.700796,-2.18502,1.24279,-0.818285,-0.820499,-0.756753,0.480116,-0.84214,-0.894084,0.35519,-0.0355847,-0.216134,
-0.453604,0.0424755,0.0184989,-1.73543,-0.0525127,0.0353499,0.382723,-0.134506,-0.0791709,-0.151378,-0.151324,0.734064,0.171489,-0.234723,0,0,0,0,0,0,0,-0.442718,0.0466739,0.0303748,-1.72536,-0.0934526,1.59448,1.18315,-0.264529,-0.00332237,-0.279505,-0.0948707,0.486762,0.0024134,-0.117422,3.70899,-37.589,3.48817,26.8042,0.795284,2.66869,-0.291031,-2.5995,-0.700796,-2.18502,1.24279,-0.818285,-0.820499,-0.756753,0.480116,-0.84214,-0.894084,0.35519,-0.0355847,-0.216134,
-0.454123,0.0421558,0.0179131,-1.73602,-0.0496295,0.035988,0.381792,-0.12964,-0.0799279,-0.146462,-0.149816,0.720822,0.159541,-0.232655,0,0,0,0,0,0,0,-0.442718,0.0466739,0.0303748,-1.72536,-0.0934526,1.59448,1.18315,-0.264529,-0.00332237,-0.279505,-0.0948707,0.486762,0.0024134,-0.117422,3.70899,-37.589,3.48817,26.8042,0.795284,2.66869,-0.291031,-2.22159,-0.0802476,-2.4934,1.00458,-0.485029,-0.420255,-0.35066,0.655253,-0.453701,-1.01503,0.450238,-0.0287171,-0.222868,
-0.454622,0.041833,0.0173462,-1.73662,-0.0468185,0.0365808,0.380869,-0.124924,-0.0806978,-0.141734,-0.148708,0.702742,0.1482,-0.230651,0,0,0,0,0,0,0,-0.449845,0.0464852,0.0225706,-1.72835,-0.0794843,1.59493,1.17964,-0.234665,-0.016658,-0.254969,-0.110935,0.469288,0.0241928,-0.130393,2.2887,-37.2398,2.23848,26.705,1.61926,2.84081,-0.197647,-2.22159,-0.0802476,-2.4934,1.00458,-0.485029,-0.420255,-0.35066,0.655253,-0.453701,-1.01503,0.450238,-0.0287171,-0.222868,
-0.451574,0.0429155,0.0207111,-1.73401,-0.0544857,0.0367718,0.384393,-0.133543,-0.0909855,-0.151112,-0.162915,0.949974,0.285947,-0.263891,0,0,0,0,0,0,0,-0.449845,0.0464852,0.0225706,-1.72835,-0.0794843,1.59493,1.17964,-0.234665,-0.016658,-0.254969,-0.110935,0.469288,0.0241928,-0.130393,2.2887,-37.2398,2.23848,26.705,1.61926,2.84081,-0.197647,-1.59517,-0.103766,-2.67435,1.08448,-0.0895987,-0.287856,-0.217913,0.856632,-0.322953,-1.01962,0.501805,0.0412664,-0.227532,
-0.457516,0.0429459,0.0141238,-1.73631,-0.0471461,0.0312596,0.38228,-0.105509,-0.0855066,-0.12219,-0.157266,0.618707,0.169674,-0.237164,0,0,0,0,0,0,0,-0.449845,0.0464852,0.0225706,-1.72835,-0.0794843,1.59493,1.17964,-0.234665,-0.016658,-0.254969,-0.110935,0.469288,0.0241928,-0.130393,2.2887,-37.2398,2.23848,26.705,1.61926,2.84081,-0.197647,-1.59517,-0.103766,-2.67435,1.08448,-0.0895987,-0.287856,-0.217913,0.856632,-0.322953,-1.01962,0.501805,0.0412664,-0.227532,
-0.457909,0.0426039,0.013663,-1.73692,-0.0448011,0.0319515,0.38134,-0.0984385,-0.0855194,-0.115201,-0.154461,0.586256,0.172982,-0.235037,0,0,0,0,0,0,0,-0.449845,0.0464852,0.0225706,-1.72835,-0.0794843,1.59493,1.17964,-0.234665,-0.016658,-0.254969,-0.110935,0.469288,0.0241928,-0.130393,2.2887,-37.2398,2.23848,26.705,1.61926,2.84081,-0.197647,-1.98591,-0.65524,-2.63156,1.36312,-0.338076,-0.662542,-0.594643,0.794077,-0.689079,-0.997075,0.433813,0.0419959,-0.229101,
-0.458278,0.0422608,0.0132276,-1.73753,-0.0425986,0.0326409,0.380408,-0.0920108,-0.0857587,-0.108865,-0.151841,0.550618,0.172348,-0.233031,0,0,0,0,0,0,0,-0.449845,0.0464852,0.0225706,-1.72835,-0.0794843,1.59493,1.17964,-0.234665,-0.016658,-0.254969,-0.110935,0.469288,0.0241928,-0.130393,2.2887,-37.2398,2.23848,26.705,1.61926,2.84081,-0.197647,-2.54495,0.106975,-2.38513,0.899216,-0.797222,-0.416895,-0.346587,0.458171,-0.449538,-0.945934,0.489742,-0.00244819,-0.234686,
-0.458623,0.0419161,0.0128147,-1.73813,-0.040546,0.0333171,0.379484,-0.0862513,-0.0861879,-0.103205,-0.149561,0.513151,0.169054,-0.231026,0,0,0,0,0,0,0,-0.456896,0.0457819,0.0150927,-1.73186,-0.0635372,1.59598,1.1748,-0.19681,-0.0179421,-0.233537,-0.109447,0.497829,0.0486102,-0.164301,2.87189,-37.3906,2.76216,26.2289,1.49749,2.56249,-0.197647,-2.54495,0.106975,-2.38513,0.899216,-0.797222,-0.416895,-0.346587,0.458171,-0.449538,-0.945934,0.489742,-0.00244819,-0.234686,
-0.458947,0.0415691,0.0124218,-1.73872,-0.0386445,0.033974,0.378568,-0.0811888,-0.0867378,-0.0982499,-0.147684,0.475373,0.164221,-0.229004,0,0,0,0,0,0,0,-0.456896,0.0457819,0.0150927,-1.73186,-0.0635372,1.59598,1.1748,-0.19681,-0.0179421,-0.233537,-0.109447,0.497829,0.0486102,-0.164301,2.87189,-37.3906,2.76216,26.2289,1.49749,2.56249,-0.197647,-2.78496,0.227527,-2.39904,0.869699,-0.985142,-0.427387,-0.360382,0.367555,-0.454626,-0.937815,0.543412,0.010833,-0.236446,
-0.459255,0.0412198,0.0120455,-1.73931,-0.0368879,0.0346098,0.37766,-0.076871,-0.0873346,-0.0940516,-0.146255,0.439145,0.158941,-0.226949,0,0,0,0,0,0,0,-0.456896,0.0457819,0.0150927,-1.73186,-0.0635372,1.59598,1.1748,-0.19681,-0.0179421,-0.233537,-0.109447,0.497829,0.0486102,-0.164301,2.87189,-37.3906,2.76216,26.2289,1.49749,2.56249,-0.197647,-2.78496,0.227527,-2.39904,0.869699,-0.985142,-0.427387,-0.360382,0.367555,-0.454626,-0.937815,0.543412,0.010833,-0.236446,
-0.457468,0.0423279,0.0141246,-1.73693,-0.0409426,0.036241,0.381114,-0.104876,-0.10115,-0.122231,-0.164874,0.889459,0.287396,-0.259667,0,0,0,0,0,0,0,-0.456896,0.0457819,0.0150927,-1.73186,-0.0635372,1.59598,1.1748,-0.19681,-0.0179421,-0.233537,-0.109447,0.497829,0.0486102,-0.164301,2.87189,-37.3906,2.76216,26.2289,1.49749,2.56249,-0.197647,-2.79433,-0.380625,-2.69075,1.24797,-0.798726,-0.732449,-0.668282,0.617278,-0.753183,-1.07946,0.45002,-0.0185109,-0.239674,
-0.463015,0.0419231,0.00816508,-1.73982,-0.0375209,0.0347068,0.37764,-0.0892888,-0.0929048,-0.107765,-0.155778,0.584612,0.215837,-0.233334,0,0,0,0,0,0,0,-0.456896,0.0457819,0.0150927,-1.73186,-0.0635372,1.59598,1.1748,-0.19681,-0.0179421,-0.233537,-0.109447,0.497829,0.0486102,-0.164301,2.87189,-37.3906,2.76216,26.2289,1.49749,2.56249,-0.197647,-2.79433,-0.380625,-2.69075,1.24797,-0.798726,-0.732449,-0.668282,0.617278,-0.753183,-1.07946,0.45002,-0.0185109,-0.239674,
-0.463364,0.0415524,0.00774405,-1.74043,-0.0350729,0.0355594,0.376715,-0.0871918,-0.0926874,-0.105255,-0.152821,0.612006,0.213159,-0.231208,0,0,0,0,0,0,0,-0.456896,0.0457819,0.0150927,-1.73186,-0.0635372,1.59598,1.1748,-0.19681,-0.0179421,-0.233537,-0.109447,0.497829,0.0486102,-0.164301,2.87189,-37.3906,2.76216,26.2289,1.49749,2.56249,-0.197647,-2.64649,-0.304827,-3.14064,1.28619,-0.436837,-0.652268,-0.586695,0.927189,-0.67862,-1.31596,0.403583,-0.0773525,-0.242251,
-0.4637,0.0411814,0.00733644,-1.74103,-0.0325786,0.0363857,0.375799,-0.0841267,-0.0927456,-0.101905,-0.150044,0.623571,0.206564,-0.229105,0,0,0,0,0,0,0,-0.462598,0.0448928,0.00861716,-1.73524,-0.0503666,1.59739,1.1708,-0.172832,-0.0304119,-0.178787,-0.100608,0.349087,0.0433911,-0.102236,2.64179,-37.0931,2.46461,26.0068,1.11847,2.46911,-0.23793,-2.72769,0.500493,-2.8052,0.737306,-0.666009,-0.266988,-0.196972,0.622128,-0.305749,-1.17866,0.438498,-0.0689736,-0.244906,
-0.464022,0.0408092,0.00694395,-1.74162,-0.0300854,0.0371748,0.374891,-0.080525,-0.0930408,-0.0981221,-0.147614,0.623299,0.197277,-0.227079,0,0,0,0,0,0,0,-0.462598,0.0448928,0.00861716,-1.73524,-0.0503666,1.59739,1.1708,-0.172832,-0.0304119,-0.178787,-0.100608,0.349087,0.0433911,-0.102236,2.64179,-37.0931,2.46461,26.0068,1.11847,2.46911,-0.23793,-2.72769,0.500493,-2.8052,0.737306,-0.666009,-0.266988,-0.196972,0.622128,-0.305749,-1.17866,0.438498,-0.0689736,-0.244906,
-0.464329,0.0404352,0.00656722,-1.74221,-0.0276287,0.0379201,0.37399,-0.0766915,-0.0934975,-0.0941811,-0.145582,0.614185,0.186338,-0.225119,0,0,0,0,0,0,0,-0.462598,0.0448928,0.00861716,-1.73524,-0.0503666,1.59739,1.1708,-0.172832,-0.0304119,-0.178787,-0.100608,0.349087,0.0433911,-0.102236,2.64179,-37.0931,2.46461,26.0068,1.11847,2.46911,-0.23793,-2.33347,1.02292,-3.01483,0.53976,-0.359613,0.0935768,0.168379,0.769253,0.0450419,-1.26942,0.522446,-0.0743919,-0.257265,
-0.464621,0.0400591,0.00620616,-1.74278,-0.0252347,0.0386193,0.373097,-0.0728331,-0.0940418,-0.0902658,-0.143981,0.598502,0.174792,-0.223212,0,0,0,0,0,0,0,-0.462598,0.0448928,0.00861716,-1.73524,-0.0503666,1.59739,1.1708,-0.172832,-0.0304119,-0.178787,-0.100608,0.349087,0.0433911,-0.102236,2.64179,-37.0931,2.46461,26.0068,1.11847,2.46911,-0.23793,-2.33347,1.02292,-3.01483,0.53976,-0.359613,0.0935768,0.168379,0.769253,0.0450419,-1.26942,0.522446,-0.0743919,-0.257265,
