PerkyPenguin/Analysis-on-Approximated-Derivatives/Code_and_Data/PaperData/Real_Robot/Scene_1/set_interval/18/trajectory.csv
Commanded Joint 0 Position,Commanded Joint 1 Position,Commanded Joint 2 Position,Commanded Joint 3 Position,Commanded Joint 4 Position,Commanded Joint 5 Position,Commanded Joint 6 Position,Commanded Joint 0 Velocity,Commanded Joint 1 Velocity,Commanded Joint 2 Velocity,Commanded Joint 3 Velocity,Commanded Joint 4 Velocity,Commanded Joint 5 Velocity,Commanded Joint 6 Velocity,Commanded Joint 0 Torque,Commanded Joint 1 Torque,Commanded Joint 2 Torque,Commanded Joint 3 Torque,Commanded Joint 4 Torque,Commanded Joint 5 Torque,Commanded Joint 6 Torque,Actual Joint 0 Position,Actual Joint 1 Position,Actual Joint 2 Position,Actual Joint 3 Position,Actual Joint 4 Position,Actual Joint 5 Position,Actual Joint 6 Position,Actual Joint 0 Velocity,Actual Joint 1 Velocity,Actual Joint 2 Velocity,Actual Joint 3 Velocity,Actual Joint 4 Velocity,Actual Joint 5 Velocity,Actual Joint 6 Velocity,Actual Joint 0 Torque,Actual Joint 1 Torque,Actual Joint 2 Torque,Actual Joint 3 Torque,Actual Joint 4 Torque,Actual Joint 5 Torque,Actual Joint 6 Torque,EE ext force 0,EE ext force 1,EE ext force 2,EE ext force 3,EE ext force 4,EE ext force 5,joint ext torque 0,joint ext torque 1,joint ext torque 2,joint ext torque 3,joint ext torque 4,joint ext torque 5,joint ext torque 6,
0.0127783,-0.201901,-0.332501,-1.6605,-0.0925469,-0.0888851,-0.383299,-0.00231361,0.0125413,-0.0124929,-0.149374,0.00742834,0.199187,-0.00212762,0,0,0,0,0,0,0,0.0127986,-0.201851,-0.332394,-1.65901,-0.0926503,1.47993,0.402119,0.00172973,0.00965048,0.001353,-0.000370559,-0.0157059,-0.000261972,-0.00056126,-0.171017,-25.4372,1.86159,25.9314,0.599362,2.96715,-0.0429228,-1.24235,-0.0352212,-0.258898,0.0510769,-0.50464,-0.182392,-0.0878086,-0.0978426,-0.266286,-0.290285,-0.145596,-0.346157,-0.0494235,
0.0127642,-0.201776,-0.332563,-1.66114,-0.0925246,-0.0880603,-0.383307,-0.00352312,0.0313307,-0.0153773,-0.158616,0.00557785,0.2062,-0.00202486,0,0,0,0,0,0,0,0.0127986,-0.201851,-0.332394,-1.65901,-0.0926503,1.47993,0.402119,0.00172973,0.00965048,0.001353,-0.000370559,-0.0157059,-0.000261972,-0.00056126,-0.171017,-25.4372,1.86159,25.9314,0.599362,2.96715,-0.0429228,-0.695884,-0.105804,-0.566005,0.159139,0.0416889,-0.114921,-0.0250361,0.265757,-0.214095,-0.483495,-0.139253,-0.355538,-0.0519226,
0.0128111,-0.201754,-0.332381,-1.65905,-0.0927916,-0.090861,-0.38328,0.00051668,0.00471844,0.000473603,-0.00221797,-0.00592758,2.43071e-05,-3.97892e-05,0,0,0,0,0,0,0,0.0127986,-0.201851,-0.332394,-1.65901,-0.0926503,1.47993,0.402119,0.00172973,0.00965048,0.001353,-0.000370559,-0.0157059,-0.000261972,-0.00056126,-0.171017,-25.4372,1.86159,25.9314,0.599362,2.96715,-0.0429228,-0.695884,-0.105804,-0.566005,0.159139,0.0416889,-0.114921,-0.0250361,0.265757,-0.214095,-0.483495,-0.139253,-0.355538,-0.0519226,
0.0128128,-0.201738,-0.33238,-1.65906,-0.0928104,-0.0908623,-0.383281,0.000409093,0.00409723,0.000344744,-0.00200676,-0.00469448,-0.000317053,-3.17102e-05,0,0,0,0,0,0,0,0.0127895,-0.201871,-0.332398,-1.65901,-0.0926234,1.47992,0.40212,0.000118288,0.000627732,0.000837329,-0.00182086,-0.00098738,0.000292316,9.59669e-05,-0.0440639,-25.1872,1.91316,25.9314,0.386044,2.95983,-0.050247,-1.06521,-0.0705629,-0.328455,0.0862847,-0.347062,-0.166078,-0.0735915,0.000598087,-0.253492,-0.332212,-0.145641,-0.339521,-0.050203,
0.0128141,-0.201724,-0.332379,-1.65906,-0.0928253,-0.0908646,-0.383281,0.000329368,0.00356154,0.000254174,-0.00179822,-0.00373762,-0.000580115,-2.53456e-05,0,0,0,0,0,0,0,0.0127895,-0.201871,-0.332398,-1.65901,-0.0926234,1.47992,0.40212,0.000118288,0.000627732,0.000837329,-0.00182086,-0.00098738,0.000292316,9.59669e-05,-0.0440639,-25.1872,1.91316,25.9314,0.386044,2.95983,-0.050247,-1.06521,-0.0705629,-0.328455,0.0862847,-0.347062,-0.166078,-0.0735915,0.000598087,-0.253492,-0.332212,-0.145641,-0.339521,-0.050203,
0.0128152,-0.201711,-0.332378,-1.65907,-0.0928373,-0.0908677,-0.383281,0.000270024,0.00309626,0.000190516,-0.00160329,-0.00299008,-0.00077062,-2.04336e-05,0,0,0,0,0,0,0,0.0127895,-0.201871,-0.332398,-1.65901,-0.0926234,1.47992,0.40212,0.000118288,0.000627732,0.000837329,-0.00182086,-0.00098738,0.000292316,9.59669e-05,-0.0440639,-25.1872,1.91316,25.9314,0.386044,2.95983,-0.050247,-2.28705,0.3231,-0.687624,-0.180776,-1.20621,-0.200953,-0.106068,-0.449942,-0.261292,-0.269696,-0.146805,-0.298397,-0.0527525,
0.0128161,-0.201701,-0.332377,-1.65908,-0.0928469,-0.0908713,-0.383281,0.000225389,0.00269105,0.000145641,-0.00142499,-0.00240181,-0.000899885,-1.66552e-05,0,0,0,0,0,0,0,0.0127895,-0.201871,-0.332398,-1.65901,-0.0926234,1.47992,0.40212,0.000118288,0.000627732,0.000837329,-0.00182086,-0.00098738,0.000292316,9.59669e-05,-0.0440639,-25.1872,1.91316,25.9314,0.386044,2.95983,-0.050247,-2.28705,0.3231,-0.687624,-0.180776,-1.20621,-0.200953,-0.106068,-0.449942,-0.261292,-0.269696,-0.146805,-0.298397,-0.0527525,
0.0128168,-0.201691,-0.332377,-1.65908,-0.0928547,-0.0908752,-0.383281,0.000191332,0.00233777,0.000113818,-0.00126354,-0.00193553,-0.000979644,-1.37342e-05,0,0,0,0,0,0,0,0.0127895,-0.201871,-0.332398,-1.65901,-0.0926234,1.47992,0.40212,0.000118288,0.000627732,0.000837329,-0.00182086,-0.00098738,0.000292316,9.59669e-05,-0.0440639,-25.1872,1.91316,25.9314,0.386044,2.95983,-0.050247,-2.64793,0.301947,-1.34941,-0.0663835,-1.25465,-0.272464,-0.170293,-0.379964,-0.359225,-0.462186,-0.147061,-0.289236,-0.0518119,
0.0128175,-0.201683,-0.332376,-1.65908,-0.0928609,-0.0908793,-0.383281,0.000164898,0.00202961,9.10385e-05,-0.00111813,-0.00156336,-0.00102044,-1.14557e-05,0,0,0,0,0,0,0,0.0127895,-0.201865,-0.332404,-1.6595,-0.0926198,1.48088,0.402116,0.00106088,0.00429601,-0.000230595,-0.00566346,-0.00051389,0.0152666,-0.000193791,-0.0440639,-25.5126,1.96077,26.705,0.367733,3.12554,-0.0227812,-0.525898,-0.308694,-1.54307,0.419636,0.422826,-0.172155,-0.0725615,0.587302,-0.317831,-0.7538,-0.14884,-0.238429,-0.0490378,
0.0128181,-0.201676,-0.332376,-1.65909,-0.092866,-0.0908834,-0.383281,0.000143988,0.00176067,7.45127e-05,-0.000987623,-0.00126438,-0.00103126,-9.65869e-06,0,0,0,0,0,0,0,0.0127895,-0.201865,-0.332404,-1.6595,-0.0926198,1.48088,0.402116,0.00106088,0.00429601,-0.000230595,-0.00566346,-0.00051389,0.0152666,-0.000193791,-0.0440639,-25.5126,1.96077,26.705,0.367733,3.12554,-0.0227812,-0.525898,-0.308694,-1.54307,0.419636,0.422826,-0.172155,-0.0725615,0.587302,-0.317831,-0.7538,-0.14884,-0.238429,-0.0490378,
0.0128186,-0.20167,-0.332376,-1.65909,-0.0928701,-0.0908875,-0.383281,0.000127117,0.00152587,6.23049e-05,-0.000870762,-0.00102277,-0.00101951,-8.22452e-06,0,0,0,0,0,0,0,0.0127895,-0.201865,-0.332404,-1.6595,-0.0926198,1.48088,0.402116,0.00106088,0.00429601,-0.000230595,-0.00566346,-0.00051389,0.0152666,-0.000193791,-0.0440639,-25.5126,1.96077,26.705,0.367733,3.12554,-0.0227812,-0.616929,-0.226767,-1.07338,0.284943,0.147876,-0.149452,-0.0538565,0.344247,-0.270028,-0.536221,-0.138071,-0.207629,-0.05183,
0.012819,-0.201665,-0.332376,-1.6591,-0.0928734,-0.0908915,-0.383281,0.00011323,0.00132075,5.30767e-05,-0.000766304,-0.000826464,-0.000991244,-7.06594e-06,0,0,0,0,0,0,0,0.0127895,-0.201865,-0.332404,-1.6595,-0.0926198,1.48088,0.402116,0.00106088,0.00429601,-0.000230595,-0.00566346,-0.00051389,0.0152666,-0.000193791,-0.0440639,-25.5126,1.96077,26.705,0.367733,3.12554,-0.0227812,-0.616929,-0.226767,-1.07338,0.284943,0.147876,-0.149452,-0.0538565,0.344247,-0.270028,-0.536221,-0.138071,-0.207629,-0.05183,
0.0128194,-0.20166,-0.332375,-1.6591,-0.092876,-0.0908953,-0.383281,0.000101581,0.00114145,4.59061e-05,-0.000673059,-0.000666216,-0.000951303,-6.11871e-06,0,0,0,0,0,0,0,0.0127895,-0.201865,-0.332404,-1.6595,-0.0926198,1.48088,0.402116,0.00106088,0.00429601,-0.000230595,-0.00566346,-0.00051389,0.0152666,-0.000193791,-0.0440639,-25.5126,1.96077,26.705,0.367733,3.12554,-0.0227812,-0.243899,-0.139022,-1.20703,0.246345,0.488797,-0.0430874,0.0563932,0.560801,-0.167828,-0.636076,-0.128079,-0.211548,-0.0516615,
0.0128198,-0.201656,-0.332375,-1.6591,-0.0928782,-0.0908989,-0.383281,9.16371e-05,0.000984631,4.01603e-05,-0.000589916,-0.000534854,-0.000903532,-5.33528e-06,0,0,0,0,0,0,0,0.0127753,-0.201861,-0.332403,-1.65943,-0.0926166,1.48089,0.402117,-0.000156283,-0.00846175,-9.19399e-06,0.00686057,0.0029797,-0.0008454,-0.000191202,0.158268,-25.2864,2.03615,25.6815,0.324703,3.07976,-0.0301054,-1.33175,-0.0127061,-1.12634,0.122626,-0.361195,-0.179991,-0.0614692,0.0728442,-0.300391,-0.490888,-0.154719,-0.234074,-0.049008,
0.0128201,-0.201653,-0.332375,-1.6591,-0.0928799,-0.0909023,-0.383281,8.30162e-05,0.000847374,3.5407e-05,-0.000515844,-0.000426786,-0.000850937,-4.68024e-06,0,0,0,0,0,0,0,0.0127753,-0.201861,-0.332403,-1.65943,-0.0926166,1.48089,0.402117,-0.000156283,-0.00846175,-9.19399e-06,0.00686057,0.0029797,-0.0008454,-0.000191202,0.158268,-25.2864,2.03615,25.6815,0.324703,3.07976,-0.0301054,-1.33175,-0.0127061,-1.12634,0.122626,-0.361195,-0.179991,-0.0614692,0.0728442,-0.300391,-0.490888,-0.154719,-0.234074,-0.049008,
0.0128204,-0.20165,-0.332375,-1.6591,-0.0928812,-0.0909055,-0.383281,7.54436e-05,0.000727156,3.13524e-05,-0.0004499,-0.000337611,-0.000795843,-4.127e-06,0,0,0,0,0,0,0,0.0127753,-0.201861,-0.332403,-1.65943,-0.0926166,1.48089,0.402117,-0.000156283,-0.00846175,-9.19399e-06,0.00686057,0.0029797,-0.0008454,-0.000191202,0.158268,-25.2864,2.03615,25.6815,0.324703,3.07976,-0.0301054,-1.59588,0.13378,-1.01464,0.00984997,-0.601096,-0.160936,-0.0433212,-0.0781842,-0.267804,-0.427113,-0.139137,-0.246136,-0.0495411,
0.0128207,-0.201647,-0.332375,-1.65911,-0.0928823,-0.0909084,-0.383281,6.87193e-05,0.000621787,2.77978e-05,-0.000391227,-0.000263841,-0.000740014,-3.65544e-06,0,0,0,0,0,0,0,0.0127753,-0.201861,-0.332403,-1.65943,-0.0926166,1.48089,0.402117,-0.000156283,-0.00846175,-9.19399e-06,0.00686057,0.0029797,-0.0008454,-0.000191202,0.158268,-25.2864,2.03615,25.6815,0.324703,3.07976,-0.0301054,-1.59588,0.13378,-1.01464,0.00984997,-0.601096,-0.160936,-0.0433212,-0.0781842,-0.267804,-0.427113,-0.139137,-0.246136,-0.0495411,
0.012821,-0.201645,-0.332375,-1.65911,-0.0928831,-0.0909112,-0.383281,6.26959e-05,0.000529367,2.46101e-05,-0.000339048,-0.000202693,-0.000684767,-3.25017e-06,0,0,0,0,0,0,0,0.0127753,-0.201861,-0.332403,-1.65943,-0.0926166,1.48089,0.402117,-0.000156283,-0.00846175,-9.19399e-06,0.00686057,0.0029797,-0.0008454,-0.000191202,0.158268,-25.2864,2.03615,25.6815,0.324703,3.07976,-0.0301054,-1.56113,0.214637,-0.696399,-0.0845461,-0.678715,-0.123684,-0.0146555,-0.165969,-0.210333,-0.328064,-0.125754,-0.262328,-0.0466255,
0.0128212,-0.201643,-0.332375,-1.65911,-0.0928837,-0.0909137,-0.383281,5.72636e-05,0.000448247,2.17002e-05,-0.000292663,-0.000151927,-0.000631058,-2.89931e-06,0,0,0,0,0,0,0,0.0127753,-0.201861,-0.332403,-1.65943,-0.0926166,1.48089,0.402117,-0.000156283,-0.00846175,-9.19399e-06,0.00686057,0.0029797,-0.0008454,-0.000191202,0.158268,-25.2864,2.03615,25.6815,0.324703,3.07976,-0.0301054,-1.31109,0.0513227,-0.979993,0.0747897,-0.357577,-0.151018,-0.0459572,0.0708286,-0.255352,-0.484597,-0.142234,-0.280364,-0.0490293,
0.0128214,-0.201642,-0.332375,-1.65911,-0.0928841,-0.090916,-0.383281,5.23388e-05,0.000376996,1.90094e-05,-0.000251441,-0.000109735,-0.000579561,-2.59359e-06,0,0,0,0,0,0,0,0.0128027,-0.20177,-0.332388,-1.6594,-0.0926397,1.48093,0.402118,0.00210907,0.00340047,0.00228535,-0.00180017,-0.00453152,0.0028158,-0.000604912,-0.198788,-25.5602,1.81398,25.7568,0.532528,2.92046,-0.0301054,-1.31109,0.0513227,-0.979993,0.0747897,-0.357577,-0.151018,-0.0459572,0.0708286,-0.255352,-0.484597,-0.142234,-0.280364,-0.0490293,
0.0128216,-0.201641,-0.332375,-1.65911,-0.0928844,-0.0909181,-0.383281,4.78569e-05,0.00031437,1.64987e-05,-0.000214819,-7.4643e-05,-0.000530724,-2.3257e-06,0,0,0,0,0,0,0,0.0128027,-0.20177,-0.332388,-1.6594,-0.0926397,1.48093,0.402118,0.00210907,0.00340047,0.00228535,-0.00180017,-0.00453152,0.0028158,-0.000604912,-0.198788,-25.5602,1.81398,25.7568,0.532528,2.92046,-0.0301054,-2.0184,0.147532,-0.678668,-0.05275,-1.01303,-0.234846,-0.129859,-0.34786,-0.317263,-0.28659,-0.152616,-0.284112,-0.0482605,
0.0128218,-0.20164,-0.332375,-1.65911,-0.0928846,-0.0909201,-0.383281,4.37668e-05,0.000259287,1.41428e-05,-0.00018229,-4.54474e-05,-0.000484822,-2.0898e-06,0,0,0,0,0,0,0,0.0128027,-0.20177,-0.332388,-1.6594,-0.0926397,1.48093,0.402118,0.00210907,0.00340047,0.00228535,-0.00180017,-0.00453152,0.0028158,-0.000604912,-0.198788,-25.5602,1.81398,25.7568,0.532528,2.92046,-0.0301054,-2.0184,0.147532,-0.678668,-0.05275,-1.01303,-0.234846,-0.129859,-0.34786,-0.317263,-0.28659,-0.152616,-0.284112,-0.0482605,
0.0128219,-0.201639,-0.332374,-1.65911,-0.0928847,-0.0909218,-0.383281,4.00269e-05,0.000210807,1.19248e-05,-0.000153403,-2.11593e-05,-0.000441999,-1.88119e-06,0,0,0,0,0,0,0,0.0128027,-0.20177,-0.332388,-1.6594,-0.0926397,1.48093,0.402118,0.00210907,0.00340047,0.00228535,-0.00180017,-0.00453152,0.0028158,-0.000604912,-0.198788,-25.5602,1.81398,25.7568,0.532528,2.92046,-0.0301054,-1.84957,-0.00602123,-0.501713,0.0289632,-0.939803,-0.276838,-0.180655,-0.330667,-0.357122,-0.245508,-0.164972,-0.286737,-0.0473751,
0.0128221,-0.201638,-0.332374,-1.65911,-0.0928847,-0.0909235,-0.383281,3.66029e-05,0.000168111,9.83327e-06,-0.000127753,-9.6319e-07,-0.000402297,-1.69605e-06,0,0,0,0,0,0,0,0.0128027,-0.20177,-0.332388,-1.6594,-0.0926397,1.48093,0.402118,0.00210907,0.00340047,0.00228535,-0.00180017,-0.00453152,0.0028158,-0.000604912,-0.198788,-25.5602,1.81398,25.7568,0.532528,2.92046,-0.0301054,-1.84957,-0.00602123,-0.501713,0.0289632,-0.939803,-0.276838,-0.180655,-0.330667,-0.357122,-0.245508,-0.164972,-0.286737,-0.0473751,
0.0128222,-0.201638,-0.332374,-1.65911,-0.0928846,-0.0909249,-0.383281,3.34658e-05,0.000130485,7.86042e-06,-0.00010498,1.58159e-05,-0.000365684,-1.5312e-06,0,0,0,0,0,0,0,0.0128063,-0.201782,-0.332366,-1.6594,-0.0926249,1.48093,0.402119,0.00138302,-0.00385026,0.000570873,0.000216811,0.000889722,0.00363076,0.000602052,-0.147213,-25.1872,1.91316,25.8322,0.404354,3.01293,-0.0429228,-1.0357,-0.0919991,-1.01971,0.195171,-0.0958515,-0.170956,-0.0916542,0.241661,-0.268135,-0.566595,-0.145895,-0.311905,-0.0495019,
0.0128223,-0.201637,-0.332374,-1.65911,-0.0928845,-0.0909262,-0.383281,3.05903e-05,9.73069e-05,6.00036e-06,-8.47651e-05,2.97384e-05,-0.000332073,-1.38403e-06,0,0,0,0,0,0,0,0.0128063,-0.201782,-0.332366,-1.6594,-0.0926249,1.48093,0.402119,0.00138302,-0.00385026,0.000570873,0.000216811,0.000889722,0.00363076,0.000602052,-0.147213,-25.1872,1.91316,25.8322,0.404354,3.01293,-0.0429228,-1.22929,-0.0537004,-0.73416,0.119395,-0.369938,-0.193151,-0.121039,0.0333176,-0.270665,-0.416697,-0.142583,-0.293309,-0.0456568,
0.0128224,-0.201637,-0.332374,-1.65911,-0.0928844,-0.0909274,-0.383281,2.79545e-05,6.80328e-05,4.2484e-06,-6.68211e-05,4.12707e-05,-0.000301341,-1.25233e-06,0,0,0,0,0,0,0,0.0128063,-0.201782,-0.332366,-1.6594,-0.0926249,1.48093,0.402119,0.00138302,-0.00385026,0.000570873,0.000216811,0.000889722,0.00363076,0.000602052,-0.147213,-25.1872,1.91316,25.8322,0.404354,3.01293,-0.0429228,-1.22929,-0.0537004,-0.73416,0.119395,-0.369938,-0.193151,-0.121039,0.0333176,-0.270665,-0.416697,-0.142583,-0.293309,-0.0456568,
0.0128226,-0.201637,-0.332374,-1.65911,-0.0928842,-0.0909285,-0.383281,2.55387e-05,4.2188e-05,2.60043e-06,-5.08943e-05,5.08022e-05,-0.00027334,-1.13423e-06,0,0,0,0,0,0,0,0.0128063,-0.201782,-0.332366,-1.6594,-0.0926249,1.48093,0.402119,0.00138302,-0.00385026,0.000570873,0.000216811,0.000889722,0.00363076,0.000602052,-0.147213,-25.1872,1.91316,25.8322,0.404354,3.01293,-0.0429228,-0.974785,-0.137392,-0.610308,0.156835,-0.218545,-0.18468,-0.114389,0.0999369,-0.262898,-0.398745,-0.15039,-0.288823,-0.0471898,
0.0126896,-0.201721,-0.332474,-1.65893,-0.0912662,-0.0917553,-0.383279,-0.010614,0.00909374,-0.00943243,0.00676409,0.163303,-0.100897,0.000310756,0,0,0,0,0,0,0,0.0128063,-0.201782,-0.332366,-1.6594,-0.0926249,1.48093,0.402119,0.00138302,-0.00385026,0.000570873,0.000216811,0.000889722,0.00363076,0.000602052,-0.147213,-25.1872,1.91316,25.8322,0.404354,3.01293,-0.0429228,-0.974785,-0.137392,-0.610308,0.156835,-0.218545,-0.18468,-0.114389,0.0999369,-0.262898,-0.398745,-0.15039,-0.288823,-0.0471898,
0.0126937,-0.20176,-0.332449,-1.65927,-0.0911242,-0.0907295,-0.383279,-0.0108119,0.00158986,-0.0094928,0.0102416,0.170295,-0.0983676,0.000330624,0,0,0,0,0,0,0,0.0128063,-0.201782,-0.332366,-1.6594,-0.0926249,1.48093,0.402119,0.00138302,-0.00385026,0.000570873,0.000216811,0.000889722,0.00363076,0.000602052,-0.147213,-25.1872,1.91316,25.8322,0.404354,3.01293,-0.0429228,-0.668717,-0.140813,-0.677486,0.181011,0.0422341,-0.130191,-0.0634712,0.258731,-0.211532,-0.463429,-0.137158,-0.289933,-0.0492236,
0.0126506,-0.201758,-0.332489,-1.65924,-0.090319,-0.0912019,-0.383277,-0.0107827,0.000577614,-0.0102365,0.00863255,0.201303,-0.118098,0.000464428,0,0,0,0,0,0,0,0.0127987,-0.201844,-0.33237,-1.65935,-0.0926168,1.48092,0.402122,0.000965577,-0.00215443,-0.000362528,0.00330472,0.00162255,0.000409096,-0.000153144,-0.0440639,-24.6874,1.98854,25.6577,0.367733,3.09899,-0.0365141,-0.668717,-0.140813,-0.677486,0.181011,0.0422341,-0.130191,-0.0634712,0.258731,-0.211532,-0.463429,-0.137158,-0.289933,-0.0492236,
0.0126096,-0.201759,-0.33253,-1.65921,-0.0894183,-0.0917392,-0.383275,-0.0102345,-0.000355817,-0.0101908,0.00707715,0.225164,-0.13434,0.000539005,0,0,0,0,0,0,0,0.0127987,-0.201844,-0.33237,-1.65935,-0.0926168,1.48092,0.402122,0.000965577,-0.00215443,-0.000362528,0.00330472,0.00162255,0.000409096,-0.000153144,-0.0440639,-24.6874,1.98854,25.6577,0.367733,3.09899,-0.0365141,-0.960188,-0.15758,-0.470371,0.15357,-0.271504,-0.190012,-0.117112,0.0420451,-0.268142,-0.336817,-0.145009,-0.277105,-0.0479042,
0.0125721,-0.201764,-0.332569,-1.65918,-0.0884436,-0.0923303,-0.383272,-0.00939129,-0.00111271,-0.00965869,0.00572083,0.243684,-0.147758,0.000577282,0,0,0,0,0,0,0,0.0127987,-0.201844,-0.33237,-1.65935,-0.0926168,1.48092,0.402122,0.000965577,-0.00215443,-0.000362528,0.00330472,0.00162255,0.000409096,-0.000153144,-0.0440639,-24.6874,1.98854,25.6577,0.367733,3.09899,-0.0365141,-0.589572,-0.369528,-0.516315,0.32849,0.0324859,-0.215474,-0.137562,0.220944,-0.318609,-0.401595,-0.14303,-0.276615,-0.0510387,
0.0125385,-0.20177,-0.332604,-1.65917,-0.0874109,-0.0929655,-0.38327,-0.00839472,-0.00168361,-0.00884195,0.00457393,0.258157,-0.158817,0.000592644,0,0,0,0,0,0,0,0.0127987,-0.201844,-0.33237,-1.65935,-0.0926168,1.48092,0.402122,0.000965577,-0.00215443,-0.000362528,0.00330472,0.00162255,0.000409096,-0.000153144,-0.0440639,-24.6874,1.98854,25.6577,0.367733,3.09899,-0.0365141,-0.589572,-0.369528,-0.516315,0.32849,0.0324859,-0.215474,-0.137562,0.220944,-0.318609,-0.401595,-0.14303,-0.276615,-0.0510387,
0.0125091,-0.201779,-0.332636,-1.65915,-0.0863328,-0.0936371,-0.383268,-0.00733578,-0.00208751,-0.00787437,0.00361089,0.269529,-0.167886,0.000593142,0,0,0,0,0,0,0,0.0127987,-0.201844,-0.33237,-1.65935,-0.0926168,1.48092,0.402122,0.000965577,-0.00215443,-0.000362528,0.00330472,0.00162255,0.000409096,-0.000153144,-0.0440639,-24.6874,1.98854,25.6577,0.367733,3.09899,-0.0365141,-0.647578,-0.370203,-0.253998,0.3488,-0.137904,-0.225789,-0.139202,0.0689943,-0.339629,-0.287089,-0.0799961,-0.267923,-0.0494106,
0.012484,-0.201788,-0.332663,-1.65914,-0.0852188,-0.0943382,-0.383265,-0.00627257,-0.00235086,-0.00684403,0.00280112,0.278496,-0.175278,0.000584309,0,0,0,0,0,0,0,0.0127449,-0.201791,-0.332406,-1.65927,-0.0916154,1.4809,0.402118,-0.000823136,-0.00593532,-0.00161795,0.00282126,0.0710995,-0.00297402,-7.84577e-05,0.384403,-25.3618,2.26228,25.9314,0.788876,3.07244,-0.0301054,-0.647578,-0.370203,-0.253998,0.3488,-0.137904,-0.225789,-0.139202,0.0689943,-0.339629,-0.287089,-0.0799961,-0.267923,-0.0494106,
0.0124631,-0.201798,-0.332686,-1.65913,-0.0840765,-0.0950632,-0.383263,-0.00524133,-0.0025001,-0.00580783,0.00211744,0.285577,-0.181256,0.000569501,0,0,0,0,0,0,0,0.0127449,-0.201791,-0.332406,-1.65927,-0.0916154,1.4809,0.402118,-0.000823136,-0.00593532,-0.00161795,0.00282126,0.0710995,-0.00297402,-7.84577e-05,0.384403,-25.3618,2.26228,25.9314,0.788876,3.07244,-0.0301054,-0.9268,-0.559809,-0.00892971,0.517539,-0.464527,-0.360212,-0.255555,-0.167226,-0.50701,-0.161985,-0.0252748,-0.268804,-0.0466002,
0.012446,-0.201808,-0.332706,-1.65913,-0.0829119,-0.0958074,-0.383261,-0.00426366,-0.00255914,-0.0048015,0.00153762,0.291163,-0.186048,0.000551474,0,0,0,0,0,0,0,0.0127449,-0.201791,-0.332406,-1.65927,-0.0916154,1.4809,0.402118,-0.000823136,-0.00593532,-0.00161795,0.00282126,0.0710995,-0.00297402,-7.84577e-05,0.384403,-25.3618,2.26228,25.9314,0.788876,3.07244,-0.0301054,-0.378088,-0.531543,-0.141323,0.60767,-0.00325946,-0.24473,-0.133424,0.109585,-0.420043,-0.294191,0.0677147,-0.283541,-0.0496935,
0.0124326,-0.201819,-0.332721,-1.65912,-0.0817297,-0.0965668,-0.383259,-0.00335138,-0.00254859,-0.00384642,0.00104391,0.29555,-0.189848,0.000531599,0,0,0,0,0,0,0,0.0127449,-0.201791,-0.332406,-1.65927,-0.0916154,1.4809,0.402118,-0.000823136,-0.00593532,-0.00161795,0.00282126,0.0710995,-0.00297402,-7.84577e-05,0.384403,-25.3618,2.26228,25.9314,0.788876,3.07244,-0.0301054,-0.378088,-0.531543,-0.141323,0.60767,-0.00325946,-0.24473,-0.133424,0.109585,-0.420043,-0.294191,0.0677147,-0.283541,-0.0496935,
0.0124226,-0.201829,-0.332733,-1.65912,-0.0805338,-0.0973381,-0.383257,-0.00250983,-0.00248578,-0.00295433,0.00062219,0.298966,-0.192818,0.000511082,0,0,0,0,0,0,0,0.0127449,-0.201791,-0.332406,-1.65927,-0.0916154,1.4809,0.402118,-0.000823136,-0.00593532,-0.00161795,0.00282126,0.0710995,-0.00297402,-7.84577e-05,0.384403,-25.3618,2.26228,25.9314,0.788876,3.07244,-0.0301054,-0.559639,-0.371211,0.015804,0.535701,-0.216652,-0.203832,-0.0827864,-0.0437857,-0.384042,-0.221506,0.14355,-0.294099,-0.0484746,
0.0124156,-0.201838,-0.332741,-1.65912,-0.0793275,-0.0981185,-0.383255,-0.00174013,-0.00238499,-0.00213056,0.000261151,0.301587,-0.195096,0.000490639,0,0,0,0,0,0,0,0.0127275,-0.201785,-0.332435,-1.65927,-0.0885095,1.48087,0.402121,-0.000412534,-0.00287507,-2.28077e-05,0.00411278,0.102454,8.33892e-05,0.000276247,0.384403,-25.3618,2.26228,25.9314,1.00311,2.95342,-0.0365141,-0.559639,-0.371211,0.015804,0.535701,-0.216652,-0.203832,-0.0827864,-0.0437857,-0.384042,-0.221506,0.14355,-0.294099,-0.0484746,
0.0124115,-0.201847,-0.332747,-1.65912,-0.0781133,-0.0989056,-0.383253,-0.00104071,-0.00225782,-0.00137626,-4.83514e-05,0.303552,-0.196799,0.000470761,0,0,0,0,0,0,0,0.0127275,-0.201785,-0.332435,-1.65927,-0.0885095,1.48087,0.402121,-0.000412534,-0.00287507,-2.28077e-05,0.00411278,0.102454,8.33892e-05,0.000276247,0.384403,-25.3618,2.26228,25.9314,1.00311,2.95342,-0.0365141,-0.328226,-0.259264,-0.121485,0.536622,0.0165299,-0.113839,0.00681356,0.111895,-0.303498,-0.323727,0.208176,-0.317602,-0.0462649,
0.0124098,-0.201856,-0.33275,-1.65912,-0.0768934,-0.0996977,-0.383251,-0.000408362,-0.00211353,-0.000689972,-0.000313765,0.304972,-0.198022,0.000451633,0,0,0,0,0,0,0,0.0127275,-0.201785,-0.332435,-1.65927,-0.0885095,1.48087,0.402121,-0.000412534,-0.00287507,-2.28077e-05,0.00411278,0.102454,8.33892e-05,0.000276247,0.384403,-25.3618,2.26228,25.9314,1.00311,2.95342,-0.0365141,-0.243521,0.0190258,-0.106536,0.428831,0.0788326,0.0284159,0.144607,0.146487,-0.157383,-0.362372,0.316387,-0.353889,-0.0480958,
0.0124105,-0.201863,-0.33275,-1.65912,-0.0756696,-0.100493,-0.383249,0.000161029,-0.00195944,-6.8575e-05,-0.000541244,0.305934,-0.198848,0.000433518,0,0,0,0,0,0,0,0.0127275,-0.201785,-0.332435,-1.65927,-0.0885095,1.48087,0.402121,-0.000412534,-0.00287507,-2.28077e-05,0.00411278,0.102454,8.33892e-05,0.000276247,0.384403,-25.3618,2.26228,25.9314,1.00311,2.95342,-0.0365141,-0.243521,0.0190258,-0.106536,0.428831,0.0788326,0.0284159,0.144607,0.146487,-0.157383,-0.362372,0.316387,-0.353889,-0.0480958,
0.0124131,-0.201871,-0.332748,-1.65912,-0.0744436,-0.10129,-0.383248,0.000672048,-0.00180123,0.000491928,-0.00073591,0.30651,-0.199343,0.000416449,0,0,0,0,0,0,0,0.0127275,-0.201785,-0.332435,-1.65927,-0.0885095,1.48087,0.402121,-0.000412534,-0.00287507,-2.28077e-05,0.00411278,0.102454,8.33892e-05,0.000276247,0.384403,-25.3618,2.26228,25.9314,1.00311,2.95342,-0.0365141,-0.586816,0.0654015,0.200115,0.395154,-0.304647,-0.00914122,0.108347,-0.12256,-0.190871,-0.216418,0.362568,-0.365829,-0.0501767,
0.0124177,-0.201877,-0.332744,-1.65913,-0.0732166,-0.102089,-0.383246,0.00112942,-0.00164322,0.000995987,-0.000902064,0.306758,-0.199564,0.000400448,0,0,0,0,0,0,0,0.0127275,-0.201785,-0.332435,-1.65927,-0.0885095,1.48087,0.402121,-0.000412534,-0.00287507,-2.28077e-05,0.00411278,0.102454,8.33892e-05,0.000276247,0.384403,-25.3618,2.26228,25.9314,1.00311,2.95342,-0.0365141,-0.586816,0.0654015,0.200115,0.395154,-0.304647,-0.00914122,0.108347,-0.12256,-0.190871,-0.216418,0.362568,-0.365829,-0.0501767,
0.0124238,-0.201883,-0.332738,-1.65913,-0.0719897,-0.102887,-0.383244,0.0015378,-0.00148865,0.0014482,-0.00104335,0.306726,-0.199557,0.000385508,0,0,0,0,0,0,0,0.0127549,-0.201787,-0.332418,-1.65926,-0.0837728,1.48082,0.402121,0.0048967,0.00258771,0.00232559,-0.00172692,0.10989,-0.00224824,-1.21749e-05,0.0828892,-25.338,2.06392,25.9314,1.14959,2.72179,-0.0566557,-0.290624,-0.021565,0.0812379,0.53437,-0.0160363,0.00134197,0.109768,0.0666208,-0.195466,-0.328306,0.410296,-0.396193,-0.0479383,
0.0124314,-0.201889,-0.332731,-1.65914,-0.0707638,-0.103684,-0.383243,0.00190166,-0.00133985,0.00185308,-0.00116287,0.306454,-0.19936,0.000371573,0,0,0,0,0,0,0,0.0127549,-0.201787,-0.332418,-1.65926,-0.0837728,1.48082,0.402121,0.0048967,0.00258771,0.00232559,-0.00172692,0.10989,-0.00224824,-1.21749e-05,0.0828892,-25.338,2.06392,25.9314,1.14959,2.72179,-0.0566557,-0.290624,-0.021565,0.0812379,0.53437,-0.0160363,0.00134197,0.109768,0.0666208,-0.195466,-0.328306,0.410296,-0.396193,-0.0479383,
0.0124403,-0.201893,-0.332722,-1.65914,-0.0695399,-0.10448,-0.383242,0.00222524,-0.00119848,0.00221499,-0.00126329,0.305976,-0.199007,0.000358603,0,0,0,0,0,0,0,0.0127549,-0.201787,-0.332418,-1.65926,-0.0837728,1.48082,0.402121,0.0048967,0.00258771,0.00232559,-0.00172692,0.10989,-0.00224824,-1.21749e-05,0.0828892,-25.338,2.06392,25.9314,1.14959,2.72179,-0.0566557,-0.509653,-0.00413836,0.227703,0.535853,-0.208043,-0.029754,0.0664857,-0.0517295,-0.216798,-0.288326,0.436858,-0.438425,-0.0497917,
0.0124504,-0.201898,-0.332712,-1.65915,-0.0683187,-0.105275,-0.38324,0.00251246,-0.00106561,0.00253801,-0.00134693,0.30532,-0.198523,0.000346533,0,0,0,0,0,0,0,0.0127549,-0.201787,-0.332418,-1.65926,-0.0837728,1.48082,0.402121,0.0048967,0.00258771,0.00232559,-0.00172692,0.10989,-0.00224824,-1.21749e-05,0.0828892,-25.338,2.06392,25.9314,1.14959,2.72179,-0.0566557,-0.423225,-0.177861,0.294435,0.65983,-0.133486,-0.0954751,-0.0120354,-0.00595819,-0.283689,-0.305201,0.426468,-0.467982,-0.0489374,
0.0124614,-0.201901,-0.3327,-1.65915,-0.0671006,-0.106066,-0.383239,0.00276694,-0.000941875,0.00282596,-0.00141577,0.304509,-0.197931,0.000335288,0,0,0,0,0,0,0,0.0127549,-0.201787,-0.332418,-1.65926,-0.0837728,1.48082,0.402121,0.0048967,0.00258771,0.00232559,-0.00172692,0.10989,-0.00224824,-1.21749e-05,0.0828892,-25.338,2.06392,25.9314,1.14959,2.72179,-0.0566557,-0.423225,-0.177861,0.294435,0.65983,-0.133486,-0.0954751,-0.0120354,-0.00595819,-0.283689,-0.305201,0.426468,-0.467982,-0.0489374,
0.0124734,-0.201905,-0.332688,-1.65916,-0.0658864,-0.106855,-0.383238,0.002992,-0.000827587,0.00308234,-0.00147157,0.303565,-0.197248,0.000324796,0,0,0,0,0,0,0,0.0127875,-0.201823,-0.332371,-1.65925,-0.0797351,1.48064,0.402121,0.00154173,-0.00241972,0.000589395,0.00118313,0.126624,-0.00197507,0.000165942,-0.119442,-24.9135,1.88936,25.733,0.862118,2.79412,-0.0630644,-0.0896134,-0.114657,0.21653,0.661875,0.186893,-0.0121187,0.0530618,0.204279,-0.191809,-0.417534,0.458389,-0.51028,-0.0470214,
0.0124862,-0.201908,-0.332675,-1.65917,-0.0646763,-0.107641,-0.383236,0.00319066,-0.000722793,0.00331037,-0.00151584,0.302504,-0.196491,0.000315057,0,0,0,0,0,0,0,0.0127875,-0.201823,-0.332371,-1.65925,-0.0797351,1.48064,0.402121,0.00154173,-0.00241972,0.000589395,0.00118313,0.126624,-0.00197507,0.000165942,-0.119442,-24.9135,1.88936,25.733,0.862118,2.79412,-0.0630644,-0.0896134,-0.114657,0.21653,0.661875,0.186893,-0.0121187,0.0530618,0.204279,-0.191809,-0.417534,0.458389,-0.51028,-0.0470214,
0.0124996,-0.20191,-0.332661,-1.65917,-0.063471,-0.108424,-0.383235,0.00336565,-0.00062735,0.00351294,-0.00154991,0.301341,-0.195671,0.000305944,0,0,0,0,0,0,0,0.0127875,-0.201823,-0.332371,-1.65925,-0.0797351,1.48064,0.402121,0.00154173,-0.00241972,0.000589395,0.00118313,0.126624,-0.00197507,0.000165942,-0.119442,-24.9135,1.88936,25.733,0.862118,2.79412,-0.0630644,-0.452507,-0.194916,0.41901,0.663391,-0.138647,-0.112578,-0.0599161,0.00075403,-0.274088,-0.317917,0.420093,-0.530407,-0.0491479,
0.0125233,-0.201655,-0.33256,-1.65893,-0.0880555,-0.0936845,-0.383249,-0.0258781,0.00725502,-0.0211661,0.0365273,0.522426,-0.428446,0.003236,0,0,0,0,0,0,0,0.0127875,-0.201823,-0.332371,-1.65925,-0.0797351,1.48064,0.402121,0.00154173,-0.00241972,0.000589395,0.00118313,0.126624,-0.00197507,0.000165942,-0.119442,-24.9135,1.88936,25.733,0.862118,2.79412,-0.0630644,-0.169912,-0.315315,0.32395,0.742176,0.139574,-0.117496,-0.0773346,0.185232,-0.276572,-0.402654,0.387232,-0.542967,-0.0497479,
0.0125538,-0.201704,-0.332526,-1.65882,-0.0742268,-0.0937951,-0.383249,-0.0211292,0.00682221,-0.0169179,0.0335075,0.583203,-0.408949,0.00305561,0,0,0,0,0,0,0,0.0127875,-0.201823,-0.332371,-1.65925,-0.0797351,1.48064,0.402121,0.00154173,-0.00241972,0.000589395,0.00118313,0.126624,-0.00197507,0.000165942,-0.119442,-24.9135,1.88936,25.733,0.862118,2.79412,-0.0630644,-0.169912,-0.315315,0.32395,0.742176,0.139574,-0.117496,-0.0773346,0.185232,-0.276572,-0.402654,0.387232,-0.542967,-0.0497479,
0.0124755,-0.201694,-0.332594,-1.65872,-0.0715407,-0.095727,-0.383236,-0.0195755,0.00229048,-0.0169366,0.0269855,0.671509,-0.482976,0.00334788,0,0,0,0,0,0,0,0.0127875,-0.201823,-0.332371,-1.65925,-0.0797351,1.48064,0.402121,0.00154173,-0.00241972,0.000589395,0.00118313,0.126624,-0.00197507,0.000165942,-0.119442,-24.9135,1.88936,25.733,0.862118,2.79412,-0.0630644,-0.215495,-0.109134,0.333536,0.595472,0.115579,-0.0341863,0.00344042,0.177587,-0.17717,-0.410534,0.399027,-0.561908,-0.0478766,
0.0124076,-0.2017,-0.332656,-1.65863,-0.0685749,-0.0978933,-0.383222,-0.0169863,-0.00143387,-0.0153769,0.0207018,0.74145,-0.541573,0.00350188,0,0,0,0,0,0,0,0.0127726,-0.201796,-0.332371,-1.65924,-0.0749125,1.4805,0.402123,-0.00423516,-0.00162591,0.000303428,0.00704126,0.17369,-0.0147798,0.000642576,-0.0202602,-25.2348,1.86159,26.0544,0.990292,2.64855,-0.0767973,-0.215495,-0.109134,0.333536,0.595472,0.115579,-0.0341863,0.00344042,0.177587,-0.17717,-0.410534,0.399027,-0.561908,-0.0478766,
0.0123522,-0.201717,-0.332707,-1.65857,-0.0653853,-0.100245,-0.383208,-0.0138625,-0.00419147,-0.0128877,0.0151878,0.797416,-0.588027,0.0035733,0,0,0,0,0,0,0,0.0127726,-0.201796,-0.332371,-1.65924,-0.0749125,1.4805,0.402123,-0.00423516,-0.00162591,0.000303428,0.00704126,0.17369,-0.0147798,0.000642576,-0.0202602,-25.2348,1.86159,26.0544,0.990292,2.64855,-0.0767973,-0.610548,-0.626653,0.845251,0.853938,-0.377938,-0.333614,-0.290389,-0.185868,-0.491528,-0.156012,0.327666,-0.542501,-0.0501814,
0.0123101,-0.201741,-0.332747,-1.65853,-0.0620149,-0.102744,-0.383193,-0.0105095,-0.00607554,-0.00989361,0.0104932,0.842602,-0.624663,0.0035927,0,0,0,0,0,0,0,0.0127726,-0.201796,-0.332371,-1.65924,-0.0749125,1.4805,0.402123,-0.00423516,-0.00162591,0.000303428,0.00704126,0.17369,-0.0147798,0.000642576,-0.0202602,-25.2348,1.86159,26.0544,0.990292,2.64855,-0.0767973,-0.610548,-0.626653,0.845251,0.853938,-0.377938,-0.333614,-0.290389,-0.185868,-0.491528,-0.156012,0.327666,-0.542501,-0.0501814,
0.0122816,-0.20177,-0.332773,-1.6585,-0.0584974,-0.105357,-0.383179,-0.00711879,-0.00724022,-0.00667325,0.00653364,0.879376,-0.65328,0.00357805,0,0,0,0,0,0,0,0.0127726,-0.201796,-0.332371,-1.65924,-0.0749125,1.4805,0.402123,-0.00423516,-0.00162591,0.000303428,0.00704126,0.17369,-0.0147798,0.000642576,-0.0202602,-25.2348,1.86159,26.0544,0.990292,2.64855,-0.0767973,-0.610548,-0.626653,0.845251,0.853938,-0.377938,-0.333614,-0.290389,-0.185868,-0.491528,-0.156012,0.327666,-0.542501,-0.0501814,
0.0122664,-0.201802,-0.332787,-1.65849,-0.0548593,-0.108058,-0.383165,-0.00380957,-0.00783855,-0.00340821,0.00320021,0.909514,-0.675328,0.00354081,0,0,0,0,0,0,0,0.0127726,-0.201796,-0.332371,-1.65924,-0.0749125,1.4805,0.402123,-0.00423516,-0.00162591,0.000303428,0.00704126,0.17369,-0.0147798,0.000642576,-0.0202602,-25.2348,1.86159,26.0544,0.990292,2.64855,-0.0767973,-0.610548,-0.626653,0.845251,0.853938,-0.377938,-0.333614,-0.290389,-0.185868,-0.491528,-0.156012,0.327666,-0.542501,-0.0501814,
0.0122638,-0.201834,-0.332788,-1.65849,-0.0511219,-0.110826,-0.383151,-0.000654417,-0.00800419,-0.00021425,0.00039231,0.934364,-0.691994,0.0034885,0,0,0,0,0,0,0,0.0126104,-0.201741,-0.332566,-1.65911,-0.0647357,1.47879,0.40212,-0.0090708,-0.00137088,-0.0130388,0.00745679,0.416871,-0.0873723,0.000126027,1.07074,-25.7347,2.76216,25.7092,1.8399,2.09832,-0.0566557,0.196828,-0.845467,1.48706,1.17629,0.119123,-0.269763,-0.17178,0.0356238,-0.525682,-0.194895,0.521546,-0.718339,-0.0506863,
0.012273,-0.201865,-0.332777,-1.6585,-0.047302,-0.113643,-0.383137,0.00230541,-0.00784819,0.00283732,-0.00197562,0.95496,-0.704253,0.0034275,0,0,0,0,0,0,0,0.0126104,-0.201741,-0.332566,-1.65911,-0.0647357,1.47879,0.40212,-0.0090708,-0.00137088,-0.0130388,0.00745679,0.416871,-0.0873723,0.000126027,1.07074,-25.7347,2.76216,25.7092,1.8399,2.09832,-0.0566557,0.196828,-0.845467,1.48706,1.17629,0.119123,-0.269763,-0.17178,0.0356238,-0.525682,-0.194895,0.521546,-0.718339,-0.0506863,
0.0122932,-0.201895,-0.332754,-1.65851,-0.0434136,-0.116495,-0.383124,0.00504931,-0.00746031,0.00570543,-0.00397426,0.9721,-0.712908,0.00336061,0,0,0,0,0,0,0,0.0126104,-0.201741,-0.332566,-1.65911,-0.0647357,1.47879,0.40212,-0.0090708,-0.00137088,-0.0130388,0.00745679,0.416871,-0.0873723,0.000126027,1.07074,-25.7347,2.76216,25.7092,1.8399,2.09832,-0.0566557,-0.0147834,-0.853181,1.63438,1.25032,-0.0441167,-0.304157,-0.189194,-0.0590705,-0.587805,-0.19474,0.58596,-0.799361,-0.0492044,
0.0123235,-0.201922,-0.33272,-1.65854,-0.039468,-0.11937,-0.383111,0.00757035,-0.0069119,0.00836933,-0.00566161,0.986408,-0.718617,0.00329149,0,0,0,0,0,0,0,0.0126104,-0.201741,-0.332566,-1.65911,-0.0647357,1.47879,0.40212,-0.0090708,-0.00137088,-0.0130388,0.00745679,0.416871,-0.0873723,0.000126027,1.07074,-25.7347,2.76216,25.7092,1.8399,2.09832,-0.0566557,-0.24052,-0.445519,2.06637,0.969546,-0.371916,-0.151643,-0.020088,-0.311025,-0.422868,-0.0400624,0.680691,-0.837705,-0.0491191,
0.012363,-0.201947,-0.332677,-1.65856,-0.0354745,-0.122257,-0.383098,0.00987063,-0.00625892,0.0108217,-0.00708549,0.998376,-0.721923,0.00322117,0,0,0,0,0,0,0,0.0122301,-0.201752,-0.332895,-1.65901,-0.0485311,1.47473,0.402117,-0.0171803,-0.000161768,-0.00963788,-0.00306521,0.579685,-0.163086,-0.000959659,1.27307,-25.6117,2.88911,25.7568,2.33429,1.85937,-0.0227812,-0.24052,-0.445519,2.06637,0.969546,-0.371916,-0.151643,-0.020088,-0.311025,-0.422868,-0.0400624,0.680691,-0.837705,-0.0491191,
0.0124108,-0.20197,-0.332625,-1.6586,-0.0314409,-0.12515,-0.383085,0.0119577,-0.00554459,0.0130639,-0.00828523,1.0084,-0.72327,0.00315133,0,0,0,0,0,0,0,0.0122301,-0.201752,-0.332895,-1.65901,-0.0485311,1.47473,0.402117,-0.0171803,-0.000161768,-0.00963788,-0.00306521,0.579685,-0.163086,-0.000959659,1.27307,-25.6117,2.88911,25.7568,2.33429,1.85937,-0.0227812,0.294635,-0.0599699,1.91038,0.845977,0.139875,0.123535,0.263965,0.0219496,-0.162439,-0.245229,0.817724,-0.922561,-0.0470163,
0.0124662,-0.201989,-0.332564,-1.65863,-0.0273738,-0.128042,-0.383073,0.0138428,-0.00480188,0.0151031,-0.0092936,1.01678,-0.72302,0.00308251,0,0,0,0,0,0,0,0.0122301,-0.201752,-0.332895,-1.65901,-0.0485311,1.47473,0.402117,-0.0171803,-0.000161768,-0.00963788,-0.00306521,0.579685,-0.163086,-0.000959659,1.27307,-25.6117,2.88911,25.7568,2.33429,1.85937,-0.0227812,0.294635,-0.0599699,1.91038,0.845977,0.139875,0.123535,0.263965,0.0219496,-0.162439,-0.245229,0.817724,-0.922561,-0.0470163,
0.0125283,-0.202005,-0.332497,-1.65867,-0.0232786,-0.130928,-0.383061,0.0155386,-0.00405544,0.0169496,-0.0101378,1.02379,-0.721474,0.00301516,0,0,0,0,0,0,0,0.0122301,-0.201752,-0.332895,-1.65901,-0.0485311,1.47473,0.402117,-0.0171803,-0.000161768,-0.00963788,-0.00306521,0.579685,-0.163086,-0.000959659,1.27307,-25.6117,2.88911,25.7568,2.33429,1.85937,-0.0227812,-0.216963,0.137792,1.80696,0.81813,-0.150006,0.129515,0.286779,-0.0990667,-0.177975,-0.32042,0.897919,-1.025,-0.0439586,
0.0125966,-0.202018,-0.332422,-1.65872,-0.0191601,-0.133804,-0.383049,0.017059,-0.00332332,0.0186156,-0.0108407,1.02963,-0.718875,0.00294989,0,0,0,0,0,0,0,0.0122301,-0.201752,-0.332895,-1.65901,-0.0485311,1.47473,0.402117,-0.0171803,-0.000161768,-0.00963788,-0.00306521,0.579685,-0.163086,-0.000959659,1.27307,-25.6117,2.88911,25.7568,2.33429,1.85937,-0.0227812,-0.216963,0.137792,1.80696,0.81813,-0.150006,0.129515,0.286779,-0.0990667,-0.177975,-0.32042,0.897919,-1.025,-0.0439586,
0.0126702,-0.202029,-0.332342,-1.65876,-0.0150223,-0.136665,-0.383037,0.0184179,-0.00261839,0.0201143,-0.0114215,1.03446,-0.715426,0.0028868,0,0,0,0,0,0,0,0.0122301,-0.201752,-0.332895,-1.65901,-0.0485311,1.47473,0.402117,-0.0171803,-0.000161768,-0.00963788,-0.00306521,0.579685,-0.163086,-0.000959659,1.27307,-25.6117,2.88911,25.7568,2.33429,1.85937,-0.0227812,-0.251592,0.169433,1.95273,0.801061,-0.202789,0.147422,0.315791,-0.140945,-0.168432,-0.297567,0.916216,-1.06068,-0.0444349,
0.0127487,-0.202037,-0.332256,-1.65881,-0.0108685,-0.139511,-0.383026,0.0196289,-0.00194941,0.0214589,-0.011896,1.03844,-0.711295,0.00282566,0,0,0,0,0,0,0,0.0118243,-0.201792,-0.333142,-1.65888,-0.0287617,1.46826,0.402122,-0.00689378,0.000114005,-0.00358212,-0.00368142,0.614817,-0.211607,-1.70054e-05,1.30085,-25.1872,2.93672,25.6061,2.46887,1.83922,-0.0365141,0.148516,0.0309986,1.84296,0.962191,0.173843,0.164228,0.339219,0.100804,-0.18114,-0.425099,0.942725,-1.09559,-0.0439731,
0.0128316,-0.202042,-0.332165,-1.65886,-0.00670177,-0.142337,-0.383015,0.020705,-0.00132191,0.0226624,-0.0122778,1.04168,-0.70662,0.00276731,0,0,0,0,0,0,0,0.0118243,-0.201792,-0.333142,-1.65888,-0.0287617,1.46826,0.402122,-0.00689378,0.000114005,-0.00358212,-0.00368142,0.614817,-0.211607,-1.70054e-05,1.30085,-25.1872,2.93672,25.6061,2.46887,1.83922,-0.0365141,0.148516,0.0309986,1.84296,0.962191,0.173843,0.164228,0.339219,0.100804,-0.18114,-0.425099,0.942725,-1.09559,-0.0439731,
0.0129182,-0.202045,-0.33207,-1.65891,-0.00252464,-0.145143,-0.383004,0.0216587,-0.000739098,0.0237372,-0.0125782,1.04428,-0.701517,0.00271072,0,0,0,0,0,0,0,0.0118243,-0.201792,-0.333142,-1.65888,-0.0287617,1.46826,0.402122,-0.00689378,0.000114005,-0.00358212,-0.00368142,0.614817,-0.211607,-1.70054e-05,1.30085,-25.1872,2.93672,25.6061,2.46887,1.83922,-0.0365141,-0.00296646,0.205274,1.93963,0.831433,0.0292622,0.224594,0.406457,0.00707939,-0.113056,-0.383784,0.959189,-1.11082,-0.0442048,
0.0130082,-0.202046,-0.331971,-1.65896,0.00166068,-0.147928,-0.382994,0.0225012,-0.000202418,0.0246948,-0.0128073,1.04633,-0.696083,0.00265644,0,0,0,0,0,0,0,0.0118243,-0.201792,-0.333142,-1.65888,-0.0287617,1.46826,0.402122,-0.00689378,0.000114005,-0.00358212,-0.00368142,0.614817,-0.211607,-1.70054e-05,1.30085,-25.1872,2.93672,25.6061,2.46887,1.83922,-0.0365141,-0.00296646,0.205274,1.93963,0.831433,0.0292622,0.224594,0.406457,0.00707939,-0.113056,-0.383784,0.959189,-1.11082,-0.0442048,
0.0131012,-0.202045,-0.331869,-1.65901,0.00585227,-0.150689,-0.382983,0.0232431,0.000287745,0.0255462,-0.0129746,1.0479,-0.690393,0.00260389,0,0,0,0,0,0,0,0.0118243,-0.201792,-0.333142,-1.65888,-0.0287617,1.46826,0.402122,-0.00689378,0.000114005,-0.00358212,-0.00368142,0.614817,-0.211607,-1.70054e-05,1.30085,-25.1872,2.93672,25.6061,2.46887,1.83922,-0.0365141,0.189977,-0.191261,1.86157,1.08097,0.20796,0.0833848,0.269529,0.120025,-0.2788,-0.418604,0.888695,-1.08671,-0.0411827,
0.0131968,-0.202042,-0.331764,-1.65907,0.0100484,-0.153427,-0.382973,0.0238941,0.000731908,0.0263013,-0.0130889,1.04904,-0.684504,0.00255364,0,0,0,0,0,0,0,0.0115035,-0.20185,-0.333184,-1.6588,-0.00726164,1.46017,0.402121,-0.00731185,0.00153763,0.00103927,-0.000626092,0.712442,-0.282211,0.000427908,1.17389,-24.8381,2.91292,25.4831,2.0047,1.9262,-0.0566557,0.189977,-0.191261,1.86157,1.08097,0.20796,0.0833848,0.269529,0.120025,-0.2788,-0.418604,0.888695,-1.08671,-0.0411827,
0.0132946,-0.202037,-0.331656,-1.65912,0.0142477,-0.156141,-0.382963,0.0244629,0.00113139,0.0269694,-0.0131581,1.04982,-0.678461,0.00250493,0,0,0,0,0,0,0,0.0115035,-0.20185,-0.333184,-1.6588,-0.00726164,1.46017,0.402121,-0.00731185,0.00153763,0.00103927,-0.000626092,0.712442,-0.282211,0.000427908,1.17389,-24.8381,2.91292,25.4831,2.0047,1.9262,-0.0566557,0.44383,-0.259467,1.8087,1.07246,0.419188,0.10187,0.283022,0.24746,-0.250612,-0.443746,0.826422,-1.05924,-0.0404656,
0.0133944,-0.202031,-0.331546,-1.65917,0.0184489,-0.15883,-0.382953,0.0249578,0.00148821,0.0275588,-0.0131888,1.05028,-0.672299,0.00245784,0,0,0,0,0,0,0,0.0115035,-0.20185,-0.333184,-1.6588,-0.00726164,1.46017,0.402121,-0.00731185,0.00153763,0.00103927,-0.000626092,0.712442,-0.282211,0.000427908,1.17389,-24.8381,2.91292,25.4831,2.0047,1.9262,-0.0566557,0.0109285,-0.477258,1.76357,1.10147,0.131812,-0.0693003,0.103491,0.105294,-0.40215,-0.394931,0.67556,-1.04303,-0.0374842,
0.0134499,-0.201965,-0.331621,-1.65913,-0.0758796,-0.0956473,-0.383131,0.0779647,-0.0184061,0.0889879,0.00270273,0.410826,-0.633605,0.0121276,0,0,0,0,0,0,0,0.0115035,-0.20185,-0.333184,-1.6588,-0.00726164,1.46017,0.402121,-0.00731185,0.00153763,0.00103927,-0.000626092,0.712442,-0.282211,0.000427908,1.17389,-24.8381,2.91292,25.4831,2.0047,1.9262,-0.0566557,0.0109285,-0.477258,1.76357,1.10147,0.131812,-0.0693003,0.103491,0.105294,-0.40215,-0.394931,0.67556,-1.04303,-0.0374842,
0.0123474,-0.202046,-0.332309,-1.65889,0.000973938,-0.118175,-0.38312,0.0962998,-0.0221742,0.104546,-0.0140932,0.694344,-0.766925,0.0126218,0,0,0,0,0,0,0,0.0115035,-0.20185,-0.333184,-1.6588,-0.00726164,1.46017,0.402121,-0.00731185,0.00153763,0.00103927,-0.000626092,0.712442,-0.282211,0.000427908,1.17389,-24.8381,2.91292,25.4831,2.0047,1.9262,-0.0566557,0.0165858,-0.492234,1.7686,0.98788,0.071533,-0.0757108,0.0748345,0.0459781,-0.365854,-0.295727,0.581814,-0.94438,-0.0388961,
0.0128101,-0.202144,-0.331798,-1.65898,0.00383957,-0.121659,-0.383072,0.115672,-0.0244994,0.127808,-0.0213814,0.716409,-0.871151,0.0119889,0,0,0,0,0,0,0,0.0115035,-0.20185,-0.333184,-1.6588,-0.00726164,1.46017,0.402121,-0.00731185,0.00153763,0.00103927,-0.000626092,0.712442,-0.282211,0.000427908,1.17389,-24.8381,2.91292,25.4831,2.0047,1.9262,-0.0566557,0.0165858,-0.492234,1.7686,0.98788,0.071533,-0.0757108,0.0748345,0.0459781,-0.365854,-0.295727,0.581814,-0.94438,-0.0388961,
0.0133365,-0.202244,-0.331211,-1.65909,0.00681208,-0.125485,-0.383026,0.131604,-0.0249464,0.146602,-0.0283341,0.743126,-0.956498,0.0114649,0,0,0,0,0,0,0,0.0115033,-0.201836,-0.333153,-1.65882,0.0179088,1.44939,0.402115,0.00173186,0.00251394,0.00331312,-0.0114206,0.793781,-0.34811,-0.000954869,0.689884,-25.2348,2.63917,25.9314,1.57714,2.29699,-0.00996382,-0.0678116,-0.30288,1.65634,0.808982,0.017881,-0.00945162,0.130065,0.0224376,-0.268461,-0.282517,0.548574,-0.902436,-0.0344878,
0.0139159,-0.20234,-0.330563,-1.65923,0.00989887,-0.129592,-0.382982,0.144849,-0.0240382,0.161981,-0.0347624,0.771698,-1.02658,0.0110249,0,0,0,0,0,0,0,0.0115033,-0.201836,-0.333153,-1.65882,0.0179088,1.44939,0.402115,0.00173186,0.00251394,0.00331312,-0.0114206,0.793781,-0.34811,-0.000954869,0.689884,-25.2348,2.63917,25.9314,1.57714,2.29699,-0.00996382,-0.0678116,-0.30288,1.65634,0.808982,0.017881,-0.00945162,0.130065,0.0224376,-0.268461,-0.282517,0.548574,-0.902436,-0.0344878,
0.0145397,-0.202429,-0.329865,-1.65939,0.0131002,-0.133928,-0.382939,0.155962,-0.0221895,0.174708,-0.040598,0.800334,-1.08422,0.010647,0,0,0,0,0,0,0,0.0115033,-0.201836,-0.333153,-1.65882,0.0179088,1.44939,0.402115,0.00173186,0.00251394,0.00331312,-0.0114206,0.793781,-0.34811,-0.000954869,0.689884,-25.2348,2.63917,25.9314,1.57714,2.29699,-0.00996382,-0.572495,-0.827313,1.49201,1.0823,-0.294067,-0.339781,-0.205294,-0.122329,-0.607312,-0.25552,0.385443,-0.867043,-0.0261933,
0.0152012,-0.202508,-0.329123,-1.65957,0.0164119,-0.138455,-0.382898,0.165359,-0.0197176,0.185344,-0.0458281,0.827931,-1.13168,0.0103119,0,0,0,0,0,0,0,0.0115033,-0.201836,-0.333153,-1.65882,0.0179088,1.44939,0.402115,0.00173186,0.00251394,0.00331312,-0.0114206,0.793781,-0.34811,-0.000954869,0.689884,-25.2348,2.63917,25.9314,1.57714,2.29699,-0.00996382,-0.572495,-0.827313,1.49201,1.0823,-0.294067,-0.339781,-0.205294,-0.122329,-0.607312,-0.25552,0.385443,-0.867043,-0.0261933,
0.0158946,-0.202575,-0.328346,-1.65977,0.0198273,-0.143138,-0.382858,0.173351,-0.0168612,0.194305,-0.0504691,0.853852,-1.17079,0.0100108,0,0,0,0,0,0,0,0.0115033,-0.201836,-0.333153,-1.65882,0.0179088,1.44939,0.402115,0.00173186,0.00251394,0.00331312,-0.0114206,0.793781,-0.34811,-0.000954869,0.689884,-25.2348,2.63917,25.9314,1.57714,2.29699,-0.00996382,-0.195487,-1.45486,1.25369,1.30618,0.100425,-0.556679,-0.44894,0.148104,-0.801033,-0.316566,0.0977057,-0.783117,-0.0264709,
0.0166153,-0.202631,-0.327538,-1.65999,0.0233384,-0.14795,-0.382819,0.180179,-0.0137972,0.201904,-0.0545517,0.877762,-1.203,0.00973494,0,0,0,0,0,0,0,0.0123342,-0.20193,-0.332058,-1.65885,0.0379261,1.43771,0.402118,0.0416017,-0.00569804,0.0466327,0.00234117,0.565305,-0.415953,-0.00172655,1.55078,-24.7865,4.01185,25.4315,0.898739,1.94543,0.00376909,-0.503078,-1.86052,1.42876,1.39534,-0.173369,-0.792424,-0.712181,-0.0210216,-0.99924,-0.183285,-0.100599,-0.746096,-0.0222798,
0.0173594,-0.202673,-0.326705,-1.66023,0.0269365,-0.152868,-0.382781,0.186025,-0.0106556,0.208376,-0.0581142,0.899532,-1.22953,0.00947818,0,0,0,0,0,0,0,0.0123342,-0.20193,-0.332058,-1.65885,0.0379261,1.43771,0.402118,0.0416017,-0.00569804,0.0466327,0.00234117,0.565305,-0.415953,-0.00172655,1.55078,-24.7865,4.01185,25.4315,0.898739,1.94543,0.00376909,-0.503078,-1.86052,1.42876,1.39534,-0.173369,-0.792424,-0.712181,-0.0210216,-0.99924,-0.183285,-0.100599,-0.746096,-0.0222798,
0.0181236,-0.202704,-0.325849,-1.66047,0.0306132,-0.157856,-0.382744,0.191045,-0.00781663,0.213957,-0.0621003,0.919181,-1.2468,0.0092578,0,0,0,0,0,0,0,0.0123342,-0.20193,-0.332058,-1.65885,0.0379261,1.43771,0.402118,0.0416017,-0.00569804,0.0466327,0.00234117,0.565305,-0.415953,-0.00172655,1.55078,-24.7865,4.01185,25.4315,0.898739,1.94543,0.00376909,-0.414349,-1.04419,1.29755,0.819602,0.00154624,-0.402124,-0.346769,0.129539,-0.535347,-0.303788,-0.0669933,-0.821507,-0.0217714,
0.0189051,-0.202726,-0.324974,-1.66074,0.0343605,-0.162857,-0.382708,0.195378,-0.00544908,0.218802,-0.0671243,0.936808,-1.25038,0.00908215,0,0,0,0,0,0,0,0.0123342,-0.20193,-0.332058,-1.65885,0.0379261,1.43771,0.402118,0.0416017,-0.00569804,0.0466327,0.00234117,0.565305,-0.415953,-0.00172655,1.55078,-24.7865,4.01185,25.4315,0.898739,1.94543,0.00376909,-0.414349,-1.04419,1.29755,0.819602,0.00154624,-0.402124,-0.346769,0.129539,-0.535347,-0.303788,-0.0669933,-0.821507,-0.0217714,
0.0197015,-0.202738,-0.324082,-1.66103,0.0381704,-0.167841,-0.382672,0.199116,-0.00292858,0.222907,-0.0714955,0.952484,-1.24585,0.00890323,0,0,0,0,0,0,0,0.0123342,-0.20193,-0.332058,-1.65885,0.0379261,1.43771,0.402118,0.0416017,-0.00569804,0.0466327,0.00234117,0.565305,-0.415953,-0.00172655,1.55078,-24.7865,4.01185,25.4315,0.898739,1.94543,0.00376909,-0.217829,-0.380571,1.19391,0.421888,0.207368,-0.0625241,-0.013024,0.272402,-0.162744,-0.407184,0.0353801,-0.874233,-0.0230827,
0.0205108,-0.202739,-0.323177,-1.66133,0.0420356,-0.172785,-0.382637,0.202309,-0.000248249,0.226391,-0.0749331,0.966297,-1.23609,0.00872539,0,0,0,0,0,0,0,0.0145568,-0.20213,-0.329385,-1.65883,0.0618442,1.41719,0.402123,0.0613152,-0.00232532,0.0916493,-0.0013418,0.615023,-0.567456,0.000615112,2.08637,-24.7389,4.13881,24.7095,1.88202,1.34942,-0.0365141,-0.817479,-0.971674,1.22683,0.802397,-0.232206,-0.421711,-0.356876,0.0287507,-0.56365,-0.340899,-0.0561191,-0.882751,-0.0200662,
0.0213309,-0.202729,-0.322259,-1.66164,0.0459491,-0.177676,-0.382603,0.205021,0.00247642,0.22935,-0.0775227,0.978368,-1.22279,0.00854894,0,0,0,0,0,0,0,0.0145568,-0.20213,-0.329385,-1.65883,0.0618442,1.41719,0.402123,0.0613152,-0.00232532,0.0916493,-0.0013418,0.615023,-0.567456,0.000615112,2.08637,-24.7389,4.13881,24.7095,1.88202,1.34942,-0.0365141,-0.817479,-0.971674,1.22683,0.802397,-0.232206,-0.421711,-0.356876,0.0287507,-0.56365,-0.340899,-0.0561191,-0.882751,-0.0200662,
0.0221601,-0.202709,-0.321332,-1.66196,0.0499044,-0.182504,-0.38257,0.207309,0.00513761,0.23186,-0.0794178,0.988842,-1.20705,0.00837604,0,0,0,0,0,0,0,0.0145568,-0.20213,-0.329385,-1.65883,0.0618442,1.41719,0.402123,0.0613152,-0.00232532,0.0916493,-0.0013418,0.615023,-0.567456,0.000615112,2.08637,-24.7389,4.13881,24.7095,1.88202,1.34942,-0.0365141,-1.31654,-1.16973,1.1624,0.951575,-0.496816,-0.576468,-0.507697,-0.071589,-0.734893,-0.396981,-0.101965,-0.972338,-0.0185515,
0.022997,-0.202678,-0.320396,-1.66228,0.0538959,-0.187263,-0.382537,0.209222,0.00766046,0.233977,-0.0807599,0.997874,-1.18964,0.00820688,0,0,0,0,0,0,0,0.0145568,-0.20213,-0.329385,-1.65883,0.0618442,1.41719,0.402123,0.0613152,-0.00232532,0.0916493,-0.0013418,0.615023,-0.567456,0.000615112,2.08637,-24.7389,4.13881,24.7095,1.88202,1.34942,-0.0365141,-1.31654,-1.16973,1.1624,0.951575,-0.496816,-0.576468,-0.507697,-0.071589,-0.734893,-0.396981,-0.101965,-0.972338,-0.0185515,
0.0238402,-0.202638,-0.319453,-1.66261,0.0579184,-0.191947,-0.382505,0.210803,0.0100003,0.23575,-0.0816635,1.00561,-1.17109,0.00804155,0,0,0,0,0,0,0,0.0145568,-0.20213,-0.329385,-1.65883,0.0618442,1.41719,0.402123,0.0613152,-0.00232532,0.0916493,-0.0013418,0.615023,-0.567456,0.000615112,2.08637,-24.7389,4.13881,24.7095,1.88202,1.34942,-0.0365141,-1.49324,-0.903157,1.18738,0.845853,-0.611462,-0.474885,-0.412446,-0.127189,-0.626452,-0.426475,-0.00668995,-1.03732,-0.0197522,
0.0246885,-0.202589,-0.318504,-1.66293,0.0619672,-0.196554,-0.382473,0.212086,0.0121352,0.237215,-0.0822171,1.01221,-1.15177,0.0078805,0,0,0,0,0,0,0,0.0145568,-0.20213,-0.329385,-1.65883,0.0618442,1.41719,0.402123,0.0613152,-0.00232532,0.0916493,-0.0013418,0.615023,-0.567456,0.000615112,2.08637,-24.7389,4.13881,24.7095,1.88202,1.34942,-0.0365141,-1.49324,-0.903157,1.18738,0.845853,-0.611462,-0.474885,-0.412446,-0.127189,-0.626452,-0.426475,-0.00668995,-1.03732,-0.0197522,
0.0255409,-0.202533,-0.31755,-1.66326,0.0660384,-0.201082,-0.382442,0.213103,0.0140583,0.238404,-0.0824893,1.01778,-1.13197,0.0077233,0,0,0,0,0,0,0,0.0171077,-0.2023,-0.326083,-1.65904,0.0819426,1.39802,0.402125,0.0777661,0.00106551,0.125943,-0.0156347,0.597628,-0.603032,0.000546846,1.72931,-24.5644,3.73811,24.6103,2.55401,1.23589,-0.0429228,-1.59579,-0.698698,0.910033,0.89651,-0.56127,-0.397872,-0.334364,-0.045423,-0.575867,-0.592668,0.148317,-1.11449,-0.0161493,
0.0263965,-0.20247,-0.316593,-1.66359,0.0701282,-0.20553,-0.382412,0.213881,0.0157724,0.239347,-0.082534,1.02246,-1.11188,0.0075692,0,0,0,0,0,0,0,0.0171077,-0.2023,-0.326083,-1.65904,0.0819426,1.39802,0.402125,0.0777661,0.00106551,0.125943,-0.0156347,0.597628,-0.603032,0.000546846,1.72931,-24.5644,3.73811,24.6103,2.55401,1.23589,-0.0429228,-1.47196,-0.280944,0.689061,0.791051,-0.354141,-0.185622,-0.132872,0.119961,-0.366132,-0.770303,0.325821,-1.20086,-0.0155959,
0.0272543,-0.202401,-0.315633,-1.66392,0.0742336,-0.209896,-0.382382,0.214446,0.0172863,0.240067,-0.0823939,1.02634,-1.09164,0.00742034,0,0,0,0,0,0,0,0.0171077,-0.2023,-0.326083,-1.65904,0.0819426,1.39802,0.402125,0.0777661,0.00106551,0.125943,-0.0156347,0.597628,-0.603032,0.000546846,1.72931,-24.5644,3.73811,24.6103,2.55401,1.23589,-0.0429228,-1.47196,-0.280944,0.689061,0.791051,-0.354141,-0.185622,-0.132872,0.119961,-0.366132,-0.770303,0.325821,-1.20086,-0.0155959,
0.0281135,-0.202326,-0.31467,-1.66425,0.0783517,-0.214182,-0.382353,0.214817,0.0186123,0.240588,-0.0821028,1.02952,-1.07136,0.00727427,0,0,0,0,0,0,0,0.0171077,-0.2023,-0.326083,-1.65904,0.0819426,1.39802,0.402125,0.0777661,0.00106551,0.125943,-0.0156347,0.597628,-0.603032,0.000546846,1.72931,-24.5644,3.73811,24.6103,2.55401,1.23589,-0.0429228,-1.48273,0.447159,0.707587,0.361571,-0.44111,0.130978,0.174169,0.039994,-0.01011,-0.727729,0.489606,-1.17912,-0.016605,
0.0289736,-0.202247,-0.313707,-1.66458,0.08248,-0.218386,-0.382325,0.215017,0.0197649,0.240929,-0.0816872,1.03208,-1.0511,0.00713184,0,0,0,0,0,0,0,0.0171077,-0.2023,-0.326083,-1.65904,0.0819426,1.39802,0.402125,0.0777661,0.00106551,0.125943,-0.0156347,0.597628,-0.603032,0.000546846,1.72931,-24.5644,3.73811,24.6103,2.55401,1.23589,-0.0429228,-1.48273,0.447159,0.707587,0.361571,-0.44111,0.130978,0.174169,0.039994,-0.01011,-0.727729,0.489606,-1.17912,-0.016605,
0.0298338,-0.202164,-0.312742,-1.6649,0.0866164,-0.22251,-0.382297,0.215062,0.0207588,0.241108,-0.081169,1.03409,-1.03092,0.00699243,0,0,0,0,0,0,0,0.0198607,-0.202343,-0.321985,-1.65937,0.100954,1.37773,0.402128,0.0981183,0.00232389,0.129954,-0.0172697,0.580566,-0.634277,-0.000268294,1.90784,-24.5366,3.63893,24.4357,2.83508,1.52154,-0.0429228,-1.07147,0.722378,0.685347,0.277786,-0.252941,0.299635,0.342048,0.0905601,0.153826,-0.685392,0.655556,-1.0809,-0.0174271,
0.0306937,-0.202078,-0.311778,-1.66523,0.0907588,-0.226553,-0.382269,0.21497,0.0216091,0.241143,-0.0805654,1.03562,-1.01087,0.00685704,0,0,0,0,0,0,0,0.0198607,-0.202343,-0.321985,-1.65937,0.100954,1.37773,0.402128,0.0981183,0.00232389,0.129954,-0.0172697,0.580566,-0.634277,-0.000268294,1.90784,-24.5366,3.63893,24.4357,2.83508,1.52154,-0.0429228,-1.07147,0.722378,0.685347,0.277786,-0.252941,0.299635,0.342048,0.0905601,0.153826,-0.685392,0.655556,-1.0809,-0.0174271,
0.0315527,-0.201989,-0.310814,-1.66555,0.0949057,-0.230517,-0.382242,0.214755,0.0223302,0.241047,-0.0798905,1.03671,-0.990966,0.00672406,0,0,0,0,0,0,0,0.0198607,-0.202343,-0.321985,-1.65937,0.100954,1.37773,0.402128,0.0981183,0.00232389,0.129954,-0.0172697,0.580566,-0.634277,-0.000268294,1.90784,-24.5366,3.63893,24.4357,2.83508,1.52154,-0.0429228,-1.18363,0.842626,0.324873,0.369036,-0.230649,0.328154,0.385117,0.145934,0.143101,-0.819319,0.78939,-1.09301,-0.0202506,
0.0130964,-0.202408,-0.331551,-1.65944,-0.000363555,-0.117815,-0.383106,0.178826,-0.0558346,0.192533,-0.0655508,0.555709,-0.737303,0.0138167,0,0,0,0,0,0,0,0.0198607,-0.202343,-0.321985,-1.65937,0.100954,1.37773,0.402128,0.0981183,0.00232389,0.129954,-0.0172697,0.580566,-0.634277,-0.000268294,1.90784,-24.5366,3.63893,24.4357,2.83508,1.52154,-0.0429228,-1.30931,0.756933,0.0632863,0.508477,-0.323739,0.25016,0.320399,0.0907215,0.0335157,-0.821341,0.847439,-1.00779,-0.0218423,
0.0222474,-0.202742,-0.319376,-1.66028,0.107702,-0.202705,-0.383109,0.231602,-0.0382583,0.256122,-0.0877524,0.577017,-0.887052,0.0129991,0,0,0,0,0,0,0,0.0198607,-0.202343,-0.321985,-1.65937,0.100954,1.37773,0.402128,0.0981183,0.00232389,0.129954,-0.0172697,0.580566,-0.634277,-0.000268294,1.90784,-24.5366,3.63893,24.4357,2.83508,1.52154,-0.0429228,-1.30931,0.756933,0.0632863,0.508477,-0.323739,0.25016,0.320399,0.0907215,0.0335157,-0.821341,0.847439,-1.00779,-0.0218423,
0.0232705,-0.202892,-0.318237,-1.66065,0.110129,-0.206531,-0.38306,0.255771,-0.0374941,0.284758,-0.0941208,0.606597,-0.956306,0.0124628,0,0,0,0,0,0,0,0.0198607,-0.202343,-0.321985,-1.65937,0.100954,1.37773,0.402128,0.0981183,0.00232389,0.129954,-0.0172697,0.580566,-0.634277,-0.000268294,1.90784,-24.5366,3.63893,24.4357,2.83508,1.52154,-0.0429228,-0.788897,0.652343,-0.271707,0.651718,0.119472,0.260488,0.3212,0.357992,0.0285117,-0.929695,0.888443,-0.922805,-0.019493,
0.024373,-0.203032,-0.317005,-1.66105,0.112692,-0.210589,-0.383012,0.275636,-0.0350583,0.308039,-0.0992713,0.640888,-1.01452,0.0119891,0,0,0,0,0,0,0,0.0231383,-0.202325,-0.317495,-1.65991,0.119073,1.35742,0.40213,0.114466,-0.00351207,0.142453,-0.0176266,0.576308,-0.655728,0.000686327,1.32465,-24.7865,3.28584,24.6381,1.90033,2.19811,-0.0566557,-0.788897,0.652343,-0.271707,0.651718,0.119472,0.260488,0.3212,0.357992,0.0285117,-0.929695,0.888443,-0.922805,-0.019493,
0.0255415,-0.203159,-0.315696,-1.66146,0.1154,-0.214841,-0.382965,0.292127,-0.0317421,0.327164,-0.103748,0.676883,-1.06307,0.0115576,0,0,0,0,0,0,0,0.0231383,-0.202325,-0.317495,-1.65991,0.119073,1.35742,0.40213,0.114466,-0.00351207,0.142453,-0.0176266,0.576308,-0.655728,0.000686327,1.32465,-24.7865,3.28584,24.6381,1.90033,2.19811,-0.0566557,-0.98468,2.30581,-0.526108,-0.51312,0.0439404,0.965305,1.00879,0.362451,0.856689,-0.994258,0.996459,-0.949282,-0.0203767,
0.0267652,-0.203271,-0.314324,-1.66189,0.11825,-0.219255,-0.382921,0.305911,-0.0279791,0.343007,-0.107708,0.712661,-1.10341,0.0111631,0,0,0,0,0,0,0,0.0231383,-0.202325,-0.317495,-1.65991,0.119073,1.35742,0.40213,0.114466,-0.00351207,0.142453,-0.0176266,0.576308,-0.655728,0.000686327,1.32465,-24.7865,3.28584,24.6381,1.90033,2.19811,-0.0566557,-1.25876,1.44162,-0.200786,-0.123368,-0.406777,0.518329,0.549494,0.000943207,0.410171,-0.662585,0.797302,-0.755935,-0.0179881,
0.0280357,-0.20337,-0.312898,-1.66235,0.121238,-0.22376,-0.382877,0.31762,-0.0247543,0.356402,-0.113237,0.747005,-1.1263,0.0108589,0,0,0,0,0,0,0,0.0231383,-0.202325,-0.317495,-1.65991,0.119073,1.35742,0.40213,0.114466,-0.00351207,0.142453,-0.0176266,0.576308,-0.655728,0.000686327,1.32465,-24.7865,3.28584,24.6381,1.90033,2.19811,-0.0566557,-1.25876,1.44162,-0.200786,-0.123368,-0.406777,0.518329,0.549494,0.000943207,0.410171,-0.662585,0.797302,-0.755935,-0.0179881,
0.0293459,-0.203455,-0.311428,-1.66282,0.124355,-0.228309,-0.382835,0.327556,-0.0213618,0.367656,-0.118356,0.779215,-1.13735,0.0105586,0,0,0,0,0,0,0,0.0231383,-0.202325,-0.317495,-1.65991,0.119073,1.35742,0.40213,0.114466,-0.00351207,0.142453,-0.0176266,0.576308,-0.655728,0.000686327,1.32465,-24.7865,3.28584,24.6381,1.90033,2.19811,-0.0566557,-0.90774,0.269002,-0.384344,0.525732,-0.114271,0.0444884,0.104074,0.167128,-0.13101,-0.653107,0.523693,-0.613902,-0.0125906,
0.0306898,-0.203527,-0.309919,-1.66331,0.127591,-0.232862,-0.382794,0.335984,-0.0178511,0.377144,-0.122857,0.808901,-1.13813,0.0102553,0,0,0,0,0,0,0,0.027582,-0.202655,-0.31216,-1.66121,0.132275,1.33883,0.402129,0.144751,-0.0165294,0.182738,-0.0457982,0.396706,-0.581997,0.000508447,1.85627,-24.8381,3.91267,24.6619,2.04132,1.77971,-0.050247,-0.90774,0.269002,-0.384344,0.525732,-0.114271,0.0444884,0.104074,0.167128,-0.13101,-0.653107,0.523693,-0.613902,-0.0125906,
0.0320625,-0.203585,-0.308378,-1.66382,0.130934,-0.237366,-0.382754,0.343179,-0.0146031,0.385233,-0.127498,0.835879,-1.12592,0.0100052,0,0,0,0,0,0,0,0.027582,-0.202655,-0.31216,-1.66121,0.132275,1.33883,0.402129,0.144751,-0.0165294,0.182738,-0.0457982,0.396706,-0.581997,0.000508447,1.85627,-24.8381,3.91267,24.6619,2.04132,1.77971,-0.050247,-1.2695,0.0735456,-0.332689,0.59422,-0.382453,-0.0879456,-0.0402429,0.0191395,-0.250516,-0.599522,0.444685,-0.620834,-0.0135341,
0.0334595,-0.20363,-0.30681,-1.66435,0.134375,-0.241793,-0.382715,0.349245,-0.0111572,0.392025,-0.130954,0.86014,-1.1068,0.00975812,0,0,0,0,0,0,0,0.027582,-0.202655,-0.31216,-1.66121,0.132275,1.33883,0.402129,0.144751,-0.0165294,0.182738,-0.0457982,0.396706,-0.581997,0.000508447,1.85627,-24.8381,3.91267,24.6619,2.04132,1.77971,-0.050247,-1.76338,0.172561,-0.114814,0.48398,-0.855416,-0.11245,-0.0725493,-0.287367,-0.250714,-0.447063,0.446721,-0.611439,-0.0172738,
0.0348767,-0.20366,-0.305219,-1.66488,0.137902,-0.246128,-0.382677,0.354301,-0.00760509,0.397697,-0.133195,0.881768,-1.08373,0.00951755,0,0,0,0,0,0,0,0.027582,-0.202655,-0.31216,-1.66121,0.132275,1.33883,0.402129,0.144751,-0.0165294,0.182738,-0.0457982,0.396706,-0.581997,0.000508447,1.85627,-24.8381,3.91267,24.6619,2.04132,1.77971,-0.050247,-1.76338,0.172561,-0.114814,0.48398,-0.855416,-0.11245,-0.0725493,-0.287367,-0.250714,-0.447063,0.446721,-0.611439,-0.0172738,
0.0363106,-0.203676,-0.30361,-1.66542,0.141506,-0.250361,-0.38264,0.358471,-0.00410926,0.402406,-0.134461,0.900909,-1.05841,0.00928443,0,0,0,0,0,0,0,0.027582,-0.202655,-0.31216,-1.66121,0.132275,1.33883,0.402129,0.144751,-0.0165294,0.182738,-0.0457982,0.396706,-0.581997,0.000508447,1.85627,-24.8381,3.91267,24.6619,2.04132,1.77971,-0.050247,-2.0792,-0.493053,-0.376573,0.852114,-0.940173,-0.434766,-0.385046,-0.273167,-0.604197,-0.521589,0.25035,-0.616441,-0.0161165,
0.0377581,-0.20368,-0.301985,-1.66596,0.145177,-0.254489,-0.382604,0.361866,-0.000793285,0.406279,-0.134996,0.917745,-1.03182,0.00906207,0,0,0,0,0,0,0,0.027582,-0.202655,-0.31216,-1.66121,0.132275,1.33883,0.402129,0.144751,-0.0165294,0.182738,-0.0457982,0.396706,-0.581997,0.000508447,1.85627,-24.8381,3.91267,24.6619,2.04132,1.77971,-0.050247,-2.0792,-0.493053,-0.376573,0.852114,-0.940173,-0.434766,-0.385046,-0.273167,-0.604197,-0.521589,0.25035,-0.616441,-0.0161165,
0.0392164,-0.203671,-0.300347,-1.6665,0.148907,-0.258507,-0.382568,0.364582,0.00226933,0.409424,-0.134992,0.93247,-1.0046,0.00884929,0,0,0,0,0,0,0,0.0326025,-0.202995,-0.305632,-1.66276,0.146705,1.31992,0.402128,0.155295,-0.0127322,0.223062,-0.0544256,0.538354,-0.617402,2.6912e-06,2.34027,-24.5644,4.38875,24.4357,2.0047,1.5545,-0.0429228,-1.68214,-0.545393,-0.860652,0.848783,-0.35196,-0.368304,-0.324801,0.182644,-0.532402,-0.819203,0.129915,-0.688936,-0.0177593,
0.0406832,-0.20365,-0.298699,-1.66704,0.152688,-0.262415,-0.382534,0.366702,0.00504362,0.411931,-0.134589,0.945281,-0.977137,0.00864681,0,0,0,0,0,0,0,0.0326025,-0.202995,-0.305632,-1.66276,0.146705,1.31992,0.402128,0.155295,-0.0127322,0.223062,-0.0544256,0.538354,-0.617402,2.6912e-06,2.34027,-24.5644,4.38875,24.4357,2.0047,1.5545,-0.0429228,-1.68214,-0.545393,-0.860652,0.848783,-0.35196,-0.368304,-0.324801,0.182644,-0.532402,-0.819203,0.129915,-0.688936,-0.0177593,
0.0421564,-0.20362,-0.297044,-1.66757,0.156513,-0.266214,-0.3825,0.368298,0.00752098,0.413876,-0.133888,0.956366,-0.949698,0.00845368,0,0,0,0,0,0,0,0.0326025,-0.202995,-0.305632,-1.66276,0.146705,1.31992,0.402128,0.155295,-0.0127322,0.223062,-0.0544256,0.538354,-0.617402,2.6912e-06,2.34027,-24.5644,4.38875,24.4357,2.0047,1.5545,-0.0429228,-1.78048,0.306914,-0.885152,0.274126,-0.351763,0.0206629,0.0561268,0.22511,-0.0865141,-0.899479,0.208874,-0.789437,-0.0182914,
0.0436341,-0.203581,-0.295382,-1.6681,0.160377,-0.269904,-0.382467,0.369433,0.00970836,0.415327,-0.132961,0.965901,-0.922445,0.00827032,0,0,0,0,0,0,0,0.0326025,-0.202995,-0.305632,-1.66276,0.146705,1.31992,0.402128,0.155295,-0.0127322,0.223062,-0.0544256,0.538354,-0.617402,2.6912e-06,2.34027,-24.5644,4.38875,24.4357,2.0047,1.5545,-0.0429228,-2.06764,0.201317,-0.411241,0.335983,-0.751914,-0.0580478,-0.0160462,-0.0813726,-0.172325,-0.697936,0.249314,-0.795868,-0.0183051,
0.0451148,-0.203535,-0.293717,-1.66863,0.164273,-0.273486,-0.382434,0.370161,0.011622,0.416342,-0.131862,0.974051,-0.895481,0.00809311,0,0,0,0,0,0,0,0.0326025,-0.202995,-0.305632,-1.66276,0.146705,1.31992,0.402128,0.155295,-0.0127322,0.223062,-0.0544256,0.538354,-0.617402,2.6912e-06,2.34027,-24.5644,4.38875,24.4357,2.0047,1.5545,-0.0429228,-2.06764,0.201317,-0.411241,0.335983,-0.751914,-0.0580478,-0.0160462,-0.0813726,-0.172325,-0.697936,0.249314,-0.795868,-0.0183051,
0.0465969,-0.203482,-0.292049,-1.66915,0.168197,-0.276961,-0.382403,0.370531,0.0132825,0.416972,-0.130629,0.980964,-0.86887,0.00792702,0,0,0,0,0,0,0,0.0380074,-0.203245,-0.298857,-1.66442,0.163923,1.30259,0.402125,0.196227,-0.00113713,0.232215,-0.0621257,0.570257,-0.553286,-8.67086e-05,2.59418,-24.5882,4.31337,24.7849,2.95684,1.4547,-0.0163725,-2.23094,-0.555828,-0.559081,0.965014,-0.760584,-0.415627,-0.358517,-0.0525015,-0.611458,-0.801544,0.250593,-0.844621,-0.0131638,
0.0480792,-0.203423,-0.29038,-1.66967,0.172144,-0.280332,-0.382371,0.370584,0.0147127,0.417262,-0.129293,0.986776,-0.842646,0.00776665,0,0,0,0,0,0,0,0.0380074,-0.203245,-0.298857,-1.66442,0.163923,1.30259,0.402125,0.196227,-0.00113713,0.232215,-0.0621257,0.570257,-0.553286,-8.67086e-05,2.59418,-24.5882,4.31337,24.7849,2.95684,1.4547,-0.0163725,-2.07667,0.0222333,-0.778187,0.837779,-0.561723,-0.15401,-0.0847149,0.0875887,-0.379729,-0.962492,0.549545,-0.902602,-0.0147025,
0.0495607,-0.203359,-0.288711,-1.67018,0.17611,-0.283599,-0.382341,0.370358,0.0159356,0.417251,-0.127877,0.991609,-0.81683,0.00761381,0,0,0,0,0,0,0,0.0380074,-0.203245,-0.298857,-1.66442,0.163923,1.30259,0.402125,0.196227,-0.00113713,0.232215,-0.0621257,0.570257,-0.553286,-8.67086e-05,2.59418,-24.5882,4.31337,24.7849,2.95684,1.4547,-0.0163725,-2.07667,0.0222333,-0.778187,0.837779,-0.561723,-0.15401,-0.0847149,0.0875887,-0.379729,-0.962492,0.549545,-0.902602,-0.0147025,
0.0510402,-0.203291,-0.287043,-1.67069,0.180093,-0.286765,-0.382311,0.369887,0.0169733,0.416977,-0.126396,0.995573,-0.791432,0.0074662,0,0,0,0,0,0,0,0.0471621,-0.203318,-0.287791,-1.66679,0.188261,1.28182,0.402132,0.213604,-0.00153015,0.276734,-0.0546533,0.565062,-0.460711,0.000458049,2.36408,-24.6874,3.88887,24.5349,2.95684,1.69366,-0.0630644,-1.50164,1.19504,-0.63068,0.121601,-0.249714,0.42296,0.483561,0.221805,0.256924,-0.941812,0.78914,-0.882821,-0.0147892,
0.052517,-0.20322,-0.285377,-1.67119,0.184088,-0.289831,-0.382282,0.3692,0.0178467,0.416468,-0.124867,0.998766,-0.766456,0.00732532,0,0,0,0,0,0,0,0.0471621,-0.203318,-0.287791,-1.66679,0.188261,1.28182,0.402132,0.213604,-0.00153015,0.276734,-0.0546533,0.565062,-0.460711,0.000458049,2.36408,-24.6874,3.88887,24.5349,2.95684,1.69366,-0.0630644,-1.50164,1.19504,-0.63068,0.121601,-0.249714,0.42296,0.483561,0.221805,0.256924,-0.941812,0.78914,-0.882821,-0.0147892,
0.0539903,-0.203146,-0.283714,-1.67168,0.188093,-0.292799,-0.382253,0.368323,0.0185751,0.415754,-0.123298,1.00128,-0.741904,0.00719007,0,0,0,0,0,0,0,0.0471621,-0.203318,-0.287791,-1.66679,0.188261,1.28182,0.402132,0.213604,-0.00153015,0.276734,-0.0546533,0.565062,-0.460711,0.000458049,2.36408,-24.6874,3.88887,24.5349,2.95684,1.69366,-0.0630644,-1.28936,1.69052,-0.698313,-0.167526,-0.0885217,0.664636,0.729328,0.316848,0.514287,-0.979388,0.88903,-0.874773,-0.0175314,
0.0228693,-0.203052,-0.318725,-1.66078,0.10667,-0.201715,-0.383124,0.300667,-0.0677515,0.331555,-0.137947,0.469586,-0.764412,0.0118686,0,0,0,0,0,0,0,0.0471621,-0.203318,-0.287791,-1.66679,0.188261,1.28182,0.402132,0.213604,-0.00153015,0.276734,-0.0546533,0.565062,-0.460711,0.000458049,2.36408,-24.6874,3.88887,24.5349,2.95684,1.69366,-0.0630644,-1.28936,1.69052,-0.698313,-0.167526,-0.0885217,0.664636,0.729328,0.316848,0.514287,-0.979388,0.88903,-0.874773,-0.0175314,
0.0511058,-0.203776,-0.283403,-1.66829,0.19482,-0.29557,-0.383133,0.364161,-0.0424633,0.407383,-0.139735,0.56027,-0.593536,0.0109632,0,0,0,0,0,0,0,0.0471621,-0.203318,-0.287791,-1.66679,0.188261,1.28182,0.402132,0.213604,-0.00153015,0.276734,-0.0546533,0.565062,-0.460711,0.000458049,2.36408,-24.6874,3.88887,24.5349,2.95684,1.69366,-0.0630644,-0.974757,1.4309,-0.980058,0.125719,0.223839,0.560212,0.636788,0.511664,0.358131,-1.09226,0.957183,-0.830158,-0.0164915,
0.0526663,-0.203938,-0.28165,-1.66888,0.197174,-0.298077,-0.38309,0.39013,-0.0404395,0.4382,-0.146531,0.588718,-0.626911,0.0106635,0,0,0,0,0,0,0,0.0471621,-0.203318,-0.287791,-1.66679,0.188261,1.28182,0.402132,0.213604,-0.00153015,0.276734,-0.0546533,0.565062,-0.460711,0.000458049,2.36408,-24.6874,3.88887,24.5349,2.95684,1.69366,-0.0630644,-2.18348,1.4203,-0.691724,0.151525,-0.857582,0.390886,0.469603,-0.169215,0.192838,-0.810758,1.01528,-0.792879,-0.015957,
0.0543111,-0.204084,-0.279798,-1.66948,0.199662,-0.300694,-0.383049,0.411194,-0.0365685,0.463018,-0.150779,0.622019,-0.65425,0.0103291,0,0,0,0,0,0,0,0.0549144,-0.20323,-0.278516,-1.66859,0.205967,1.26772,0.402132,0.247815,-0.00367777,0.282109,-0.0560882,0.465093,-0.377908,0.000683364,-0.424923,-25.9093,0.988783,24.8364,1.62567,2.49566,-0.0767973,-2.18348,1.4203,-0.691724,0.151525,-0.857582,0.390886,0.469603,-0.169215,0.192838,-0.810758,1.01528,-0.792879,-0.015957,
0.0560255,-0.204215,-0.277865,-1.6701,0.202291,-0.303362,-0.383009,0.428598,-0.0326327,0.483354,-0.155467,0.657101,-0.666852,0.0100887,0,0,0,0,0,0,0,0.0549144,-0.20323,-0.278516,-1.66859,0.205967,1.26772,0.402132,0.247815,-0.00367777,0.282109,-0.0560882,0.465093,-0.377908,0.000683364,-0.424923,-25.9093,0.988783,24.8364,1.62567,2.49566,-0.0767973,-1.64334,2.40812,-0.643096,-0.566566,-0.53882,0.890027,0.951345,-0.00892393,0.772993,-0.781268,1.10194,-0.733517,-0.0192259,
0.0577973,-0.204328,-0.275865,-1.67074,0.205059,-0.306044,-0.382969,0.442943,-0.0282877,0.500005,-0.159148,0.692013,-0.670646,0.00986259,0,0,0,0,0,0,0,0.0549144,-0.20323,-0.278516,-1.66859,0.205967,1.26772,0.402132,0.247815,-0.00367777,0.282109,-0.0560882,0.465093,-0.377908,0.000683364,-0.424923,-25.9093,0.988783,24.8364,1.62567,2.49566,-0.0767973,-1.64334,2.40812,-0.643096,-0.566566,-0.53882,0.890027,0.951345,-0.00892393,0.772993,-0.781268,1.10194,-0.733517,-0.0192259,
0.0596163,-0.204423,-0.27381,-1.67138,0.207961,-0.308715,-0.382931,0.454763,-0.0237356,0.513662,-0.161784,0.725532,-0.667701,0.0095961,0,0,0,0,0,0,0,0.0549144,-0.20323,-0.278516,-1.66859,0.205967,1.26772,0.402132,0.247815,-0.00367777,0.282109,-0.0560882,0.465093,-0.377908,0.000683364,-0.424923,-25.9093,0.988783,24.8364,1.62567,2.49566,-0.0767973,-2.01877,-0.0206021,-0.838346,0.987702,-0.713504,-0.224604,-0.136473,-0.105042,-0.49076,-0.775612,0.735085,-0.660749,-0.0150092,
0.0614747,-0.204501,-0.27171,-1.67204,0.210989,-0.311334,-0.382893,0.46459,-0.0195555,0.524973,-0.164439,0.756894,-0.654722,0.00938946,0,0,0,0,0,0,0,0.0549144,-0.20323,-0.278516,-1.66859,0.205967,1.26772,0.402132,0.247815,-0.00367777,0.282109,-0.0560882,0.465093,-0.377908,0.000683364,-0.424923,-25.9093,0.988783,24.8364,1.62567,2.49566,-0.0767973,-2.01877,-0.0206021,-0.838346,0.987702,-0.713504,-0.224604,-0.136473,-0.105042,-0.49076,-0.775612,0.735085,-0.660749,-0.0150092,
0.0633652,-0.204563,-0.269573,-1.67271,0.214132,-0.313882,-0.382857,0.47264,-0.0153547,0.534247,-0.166044,0.785729,-0.63694,0.00919109,0,0,0,0,0,0,0,0.0633463,-0.20341,-0.267686,-1.67087,0.218096,1.25755,0.402125,0.279101,-0.00939991,0.339114,-0.0658486,0.379867,-0.284983,-0.00157396,1.55078,-25.0127,3.18666,24.3127,2.82867,1.54168,-0.0163725,-2.45284,-0.873639,-1.19761,1.46622,-0.862253,-0.622274,-0.501814,-0.126153,-0.946636,-0.861565,0.508544,-0.655344,-0.0154087,
0.0652819,-0.204607,-0.267406,-1.67337,0.217379,-0.316349,-0.382821,0.479157,-0.0112242,0.541791,-0.166652,0.811901,-0.61672,0.00900321,0,0,0,0,0,0,0,0.0633463,-0.20341,-0.267686,-1.67087,0.218096,1.25755,0.402125,0.279101,-0.00939991,0.339114,-0.0658486,0.379867,-0.284983,-0.00157396,1.55078,-25.0127,3.18666,24.3127,2.82867,1.54168,-0.0163725,-2.45284,-0.873639,-1.19761,1.46622,-0.862253,-0.622274,-0.501814,-0.126153,-0.946636,-0.861565,0.508544,-0.655344,-0.0154087,
0.0672193,-0.204637,-0.265214,-1.67404,0.220721,-0.31873,-0.382785,0.484362,-0.00730072,0.547868,-0.166506,0.835413,-0.595258,0.00882353,0,0,0,0,0,0,0,0.0633463,-0.20341,-0.267686,-1.67087,0.218096,1.25755,0.402125,0.279101,-0.00939991,0.339114,-0.0658486,0.379867,-0.284983,-0.00157396,1.55078,-25.0127,3.18666,24.3127,2.82867,1.54168,-0.0163725,-2.39817,-0.294951,-1.19154,1.02073,-0.800454,-0.336934,-0.251526,-0.0675552,-0.58702,-0.884315,0.528162,-0.686895,-0.016969,
0.0691731,-0.204651,-0.263004,-1.6747,0.224146,-0.321023,-0.382751,0.488447,-0.00367709,0.5527,-0.165828,0.856358,-0.5732,0.00865671,0,0,0,0,0,0,0,0.0633463,-0.20341,-0.267686,-1.67087,0.218096,1.25755,0.402125,0.279101,-0.00939991,0.339114,-0.0658486,0.379867,-0.284983,-0.00157396,1.55078,-25.0127,3.18666,24.3127,2.82867,1.54168,-0.0163725,-1.98656,0.145522,-0.841641,0.604588,-0.59575,-0.0570891,0.0178331,0.016225,-0.251,-0.811992,0.501627,-0.711162,-0.0173702,
0.0711394,-0.204653,-0.260778,-1.67536,0.227646,-0.323226,-0.382717,0.49157,-0.000398168,0.556467,-0.164777,0.874878,-0.550916,0.00849972,0,0,0,0,0,0,0,0.0633463,-0.20341,-0.267686,-1.67087,0.218096,1.25755,0.402125,0.279101,-0.00939991,0.339114,-0.0658486,0.379867,-0.284983,-0.00157396,1.55078,-25.0127,3.18666,24.3127,2.82867,1.54168,-0.0163725,-1.98656,0.145522,-0.841641,0.604588,-0.59575,-0.0570891,0.0178331,0.016225,-0.251,-0.811992,0.501627,-0.711162,-0.0173702,
0.0731148,-0.204643,-0.25854,-1.67601,0.23121,-0.325341,-0.382683,0.493867,0.00252515,0.559322,-0.163461,0.891143,-0.528618,0.0083538,0,0,0,0,0,0,0,0.0633463,-0.20341,-0.267686,-1.67087,0.218096,1.25755,0.402125,0.279101,-0.00939991,0.339114,-0.0658486,0.379867,-0.284983,-0.00157396,1.55078,-25.0127,3.18666,24.3127,2.82867,1.54168,-0.0163725,-1.66812,0.0294151,-0.912172,0.517377,-0.303415,-0.03039,0.0442216,0.209113,-0.20205,-0.860169,0.329675,-0.705712,-0.0204527,
0.0750966,-0.204622,-0.256295,-1.67666,0.234832,-0.327366,-0.38265,0.49545,0.00510308,0.56139,-0.161953,0.905337,-0.506436,0.00821588,0,0,0,0,0,0,0,0.0729246,-0.20362,-0.256241,-1.67344,0.233238,1.24981,0.402127,0.296635,-0.00977364,0.361288,-0.0796323,0.541261,-0.207075,6.77998e-05,2.21332,-24.5882,3.73811,24.3881,2.57232,1.38238,-0.0301054,-1.66812,0.0294151,-0.912172,0.517377,-0.303415,-0.03039,0.0442216,0.209113,-0.20205,-0.860169,0.329675,-0.705712,-0.0204527,
0.0770823,-0.204593,-0.254044,-1.6773,0.238502,-0.329304,-0.382618,0.496416,0.00735719,0.56278,-0.160302,0.917646,-0.48445,0.00809002,0,0,0,0,0,0,0,0.0729246,-0.20362,-0.256241,-1.67344,0.233238,1.24981,0.402127,0.296635,-0.00977364,0.361288,-0.0796323,0.541261,-0.207075,6.77998e-05,2.21332,-24.5882,3.73811,24.3881,2.57232,1.38238,-0.0301054,-1.13674,-0.103833,-1.54755,0.569571,0.417868,-0.0121203,0.0514782,0.750474,-0.184487,-1.20543,0.223106,-0.753764,-0.0187457,
0.0790697,-0.204556,-0.251789,-1.67794,0.242215,-0.331155,-0.382586,0.496847,0.0093147,0.563583,-0.158543,0.928251,-0.462712,0.00796726,0,0,0,0,0,0,0,0.0729246,-0.20362,-0.256241,-1.67344,0.233238,1.24981,0.402127,0.296635,-0.00977364,0.361288,-0.0796323,0.541261,-0.207075,6.77998e-05,2.21332,-24.5882,3.73811,24.3881,2.57232,1.38238,-0.0301054,-1.13674,-0.103833,-1.54755,0.569571,0.417868,-0.0121203,0.0514782,0.750474,-0.184487,-1.20543,0.223106,-0.753764,-0.0187457,
0.0810569,-0.204512,-0.249534,-1.67856,0.245965,-0.33292,-0.382555,0.496813,0.0110044,0.563876,-0.1567,0.937325,-0.441252,0.00785577,0,0,0,0,0,0,0,0.0729246,-0.20362,-0.256241,-1.67344,0.233238,1.24981,0.402127,0.296635,-0.00977364,0.361288,-0.0796323,0.541261,-0.207075,6.77998e-05,2.21332,-24.5882,3.73811,24.3881,2.57232,1.38238,-0.0301054,-1.67035,0.699753,-1.28327,0.0313176,-0.0518831,0.326375,0.398188,0.477776,0.198506,-1.10631,0.34061,-0.828043,-0.0205989,
0.0830424,-0.204462,-0.247279,-1.67918,0.249745,-0.3346,-0.382524,0.496375,0.0124546,0.563727,-0.154791,0.945028,-0.420091,0.00774902,0,0,0,0,0,0,0,0.0729246,-0.20362,-0.256241,-1.67344,0.233238,1.24981,0.402127,0.296635,-0.00977364,0.361288,-0.0796323,0.541261,-0.207075,6.77998e-05,2.21332,-24.5882,3.73811,24.3881,2.57232,1.38238,-0.0301054,-1.67035,0.699753,-1.28327,0.0313176,-0.0518831,0.326375,0.398188,0.477776,0.198506,-1.10631,0.34061,-0.828043,-0.0205989,
0.0850248,-0.204407,-0.245026,-1.6798,0.253551,-0.336197,-0.382493,0.495586,0.0136925,0.563193,-0.152833,0.951511,-0.399246,0.00764929,0,0,0,0,0,0,0,0.0838965,-0.203687,-0.243077,-1.67612,0.252824,1.2446,0.402131,0.324044,0.00107543,0.41,-0.0747898,0.564683,-0.113057,0.000721429,1.4516,-25.0365,2.5638,23.912,3.06671,1.18279,-0.0703886,-2.03297,-0.698949,-1.25,1.09974,-0.305745,-0.351477,-0.268276,0.293416,-0.594356,-1.08087,0.318618,-0.82599,-0.0153274,
0.0870028,-0.204348,-0.242777,-1.6804,0.257378,-0.337712,-0.382463,0.494491,0.0147429,0.562325,-0.150835,0.956909,-0.378729,0.00755369,0,0,0,0,0,0,0,0.0838965,-0.203687,-0.243077,-1.67612,0.252824,1.2446,0.402131,0.324044,0.00107543,0.41,-0.0747898,0.564683,-0.113057,0.000721429,1.4516,-25.0365,2.5638,23.912,3.06671,1.18279,-0.0703886,-2.03297,-0.698949,-1.25,1.09974,-0.305745,-0.351477,-0.268276,0.293416,-0.594356,-1.08087,0.318618,-0.82599,-0.0153274,
0.0889753,-0.204286,-0.240532,-1.68099,0.261224,-0.339147,-0.382433,0.49313,0.0156284,0.561165,-0.148808,0.961345,-0.358549,0.00746341,0,0,0,0,0,0,0,0.0838965,-0.203687,-0.243077,-1.67612,0.252824,1.2446,0.402131,0.324044,0.00107543,0.41,-0.0747898,0.564683,-0.113057,0.000721429,1.4516,-25.0365,2.5638,23.912,3.06671,1.18279,-0.0703886,-1.93753,-1.71258,-1.42369,1.91073,-0.135631,-0.812117,-0.716915,0.386606,-1.15315,-1.18011,0.327511,-0.824315,-0.0162783,
0.0909442,-0.204221,-0.238292,-1.68158,0.265058,-0.340501,-0.382404,0.492237,0.016177,0.560097,-0.146485,0.958584,-0.338643,0.00729269,0,0,0,0,0,0,0,0.0838965,-0.203687,-0.243077,-1.67612,0.252824,1.2446,0.402131,0.324044,0.00107543,0.41,-0.0747898,0.564683,-0.113057,0.000721429,1.4516,-25.0365,2.5638,23.912,3.06671,1.18279,-0.0703886,-1.94936,-0.99243,-1.35025,1.51284,-0.1801,-0.49766,-0.396842,0.355604,-0.817763,-1.16611,0.50611,-0.84028,-0.0170619,
0.0929105,-0.204155,-0.236055,-1.68216,0.268852,-0.341777,-0.382375,0.491558,0.0164128,0.559267,-0.143941,0.948416,-0.319044,0.00709924,0,0,0,0,0,0,0,0.0838965,-0.203687,-0.243077,-1.67612,0.252824,1.2446,0.402131,0.324044,0.00107543,0.41,-0.0747898,0.564683,-0.113057,0.000721429,1.4516,-25.0365,2.5638,23.912,3.06671,1.18279,-0.0703886,-1.94936,-0.99243,-1.35025,1.51284,-0.1801,-0.49766,-0.396842,0.355604,-0.817763,-1.16611,0.50611,-0.84028,-0.0170619,
0.0948733,-0.20409,-0.233821,-1.68272,0.272587,-0.342977,-0.382348,0.490706,0.0164587,0.558475,-0.141354,0.933805,-0.299829,0.00692799,0,0,0,0,0,0,0,0.0838965,-0.203687,-0.243077,-1.67612,0.252824,1.2446,0.402131,0.324044,0.00107543,0.41,-0.0747898,0.564683,-0.113057,0.000721429,1.4516,-25.0365,2.5638,23.912,3.06671,1.18279,-0.0703886,-1.84689,-0.164573,-1.07947,1.01854,-0.231937,-0.128046,-0.0330496,0.286295,-0.405632,-1.07088,0.690259,-0.837295,-0.0155484,
0.0968317,-0.204024,-0.231591,-1.68328,0.276253,-0.344101,-0.382321,0.489602,0.0163927,0.557539,-0.1388,0.916507,-0.281039,0.00678007,0,0,0,0,0,0,0,0.0943738,-0.203618,-0.230122,-1.67866,0.270524,1.24239,0.402129,0.354753,0.00453817,0.414437,-0.0820574,0.546401,-0.036767,0.000108359,1.14612,-25.6871,2.21467,24.039,3.49426,1.03722,-0.050247,-1.84689,-0.164573,-1.07947,1.01854,-0.231937,-0.128046,-0.0330496,0.286295,-0.405632,-1.07088,0.690259,-0.837295,-0.0155484,
0.0987846,-0.203959,-0.229365,-1.68382,0.279843,-0.345152,-0.382294,0.488221,0.0162645,0.556374,-0.13631,0.897586,-0.262692,0.00664077,0,0,0,0,0,0,0,0.0943738,-0.203618,-0.230122,-1.67866,0.270524,1.24239,0.402129,0.354753,0.00453817,0.414437,-0.0820574,0.546401,-0.036767,0.000108359,1.14612,-25.6871,2.21467,24.039,3.49426,1.03722,-0.050247,-2.1023,0.78439,-1.03107,0.44556,-0.421657,0.287978,0.363772,0.204296,0.0717591,-1.06839,0.870406,-0.889466,-0.0191322,
0.100731,-0.203894,-0.227145,-1.68436,0.283354,-0.346131,-0.382268,0.486569,0.0161035,0.554955,-0.133896,0.877699,-0.244787,0.00650766,0,0,0,0,0,0,0,0.0943738,-0.203618,-0.230122,-1.67866,0.270524,1.24239,0.402129,0.354753,0.00453817,0.414437,-0.0820574,0.546401,-0.036767,0.000108359,1.14612,-25.6871,2.21467,24.039,3.49426,1.03722,-0.050247,-2.2991,1.75024,-0.64371,-0.199855,-0.730553,0.72469,0.799238,-0.0076808,0.570188,-0.90868,1.0142,-0.907748,-0.0195674,
0.0515944,-0.204088,-0.282885,-1.66887,0.194098,-0.292568,-0.383137,0.41773,-0.068597,0.466375,-0.188959,0.484386,-0.266415,0.0105917,0,0,0,0,0,0,0,0.0943738,-0.203618,-0.230122,-1.67866,0.270524,1.24239,0.402129,0.354753,0.00453817,0.414437,-0.0820574,0.546401,-0.036767,0.000108359,1.14612,-25.6871,2.21467,24.039,3.49426,1.03722,-0.050247,-2.2991,1.75024,-0.64371,-0.199855,-0.730553,0.72469,0.799238,-0.0076808,0.570188,-0.90868,1.0142,-0.907748,-0.0195674,
0.0997314,-0.203999,-0.224071,-1.6806,0.277146,-0.328584,-0.383154,0.478041,-0.0341734,0.54168,-0.173394,0.569231,-0.0282045,0.00962319,0,0,0,0,0,0,0,0.0943738,-0.203618,-0.230122,-1.67866,0.270524,1.24239,0.402129,0.354753,0.00453817,0.414437,-0.0820574,0.546401,-0.036767,0.000108359,1.14612,-25.6871,2.21467,24.039,3.49426,1.03722,-0.050247,-1.7092,2.16394,-0.87676,-0.419507,-0.181601,0.947322,1.02288,0.349881,0.796386,-1.07024,1.11098,-0.910432,-0.0204524,
0.101736,-0.204124,-0.221795,-1.68131,0.279534,-0.328743,-0.383116,0.50115,-0.0314582,0.569188,-0.177683,0.596879,-0.0397349,0.00951075,0,0,0,0,0,0,0,0.10566,-0.203515,-0.216686,-1.68142,0.287855,1.24225,0.402129,0.365211,0.00828358,0.420325,-0.0870972,0.51927,0.00544115,-2.97803e-05,0.868412,-26.06,1.78621,24.2889,3.68377,0.911795,-0.050247,-1.7092,2.16394,-0.87676,-0.419507,-0.181601,0.947322,1.02288,0.349881,0.796386,-1.07024,1.11098,-0.910432,-0.0204524,
0.103815,-0.204235,-0.21943,-1.68203,0.282045,-0.328933,-0.383078,0.519729,-0.0275606,0.591231,-0.179922,0.627745,-0.0476312,0.00944542,0,0,0,0,0,0,0,0.10566,-0.203515,-0.216686,-1.68142,0.287855,1.24225,0.402129,0.365211,0.00828358,0.420325,-0.0870972,0.51927,0.00544115,-2.97803e-05,0.868412,-26.06,1.78621,24.2889,3.68377,0.911795,-0.050247,-1.60995,1.43899,-0.761685,0.141334,-0.136946,0.615893,0.685886,0.325847,0.411257,-1.03876,1.12096,-0.893185,-0.0199929,
0.105954,-0.204327,-0.216994,-1.68275,0.284683,-0.329144,-0.383041,0.534685,-0.0231566,0.608917,-0.180837,0.659554,-0.0526332,0.00929129,0,0,0,0,0,0,0,0.10566,-0.203515,-0.216686,-1.68142,0.287855,1.24225,0.402129,0.365211,0.00828358,0.420325,-0.0870972,0.51927,0.00544115,-2.97803e-05,0.868412,-26.06,1.78621,24.2889,3.68377,0.911795,-0.050247,-1.60995,1.43899,-0.761685,0.141334,-0.136946,0.615893,0.685886,0.325847,0.411257,-1.03876,1.12096,-0.893185,-0.0199929,
0.108141,-0.204404,-0.214501,-1.68348,0.287446,-0.329344,-0.383005,0.54686,-0.0190831,0.623229,-0.181881,0.69077,-0.0500488,0.00919206,0,0,0,0,0,0,0,0.10566,-0.203515,-0.216686,-1.68142,0.287855,1.24225,0.402129,0.365211,0.00828358,0.420325,-0.0870972,0.51927,0.00544115,-2.97803e-05,0.868412,-26.06,1.78621,24.2889,3.68377,0.911795,-0.050247,-1.91887,0.357032,-0.866182,0.80341,-0.32342,0.118947,0.172601,0.207356,-0.120177,-1.02006,0.947809,-0.862036,-0.0175215,
0.110368,-0.204464,-0.211962,-1.68421,0.290328,-0.32952,-0.382968,0.556625,-0.0150382,0.634737,-0.18215,0.72046,-0.0440469,0.00909713,0,0,0,0,0,0,0,0.10566,-0.203515,-0.216686,-1.68142,0.287855,1.24225,0.402129,0.365211,0.00828358,0.420325,-0.0870972,0.51927,0.00544115,-2.97803e-05,0.868412,-26.06,1.78621,24.2889,3.68377,0.911795,-0.050247,-2.44457,-0.787007,-1.61505,1.41214,-0.426806,-0.392906,-0.29571,0.246499,-0.705703,-1.20904,0.636982,-0.828245,-0.0183541,
0.112629,-0.204509,-0.209384,-1.68493,0.293284,-0.329665,-0.382933,0.565378,-0.0113875,0.644398,-0.18126,0.738878,-0.0361765,0.00889073,0,0,0,0,0,0,0,0.117243,-0.203555,-0.202153,-1.68418,0.300742,1.24291,0.402127,0.380413,-0.00148212,0.460432,-0.0892708,0.391327,0.0439309,-0.0009027,1.83246,-25.8855,2.73836,24.1898,3.17108,1.16356,-0.0301054,-2.44457,-0.787007,-1.61505,1.41214,-0.426806,-0.392906,-0.29571,0.246499,-0.705703,-1.20904,0.636982,-0.828245,-0.0183541,
0.114921,-0.204542,-0.206773,-1.68565,0.296264,-0.329774,-0.382898,0.573063,-0.00826678,0.652787,-0.179526,0.745085,-0.0272002,0.00864349,0,0,0,0,0,0,0,0.117243,-0.203555,-0.202153,-1.68418,0.300742,1.24291,0.402127,0.380413,-0.00148212,0.460432,-0.0892708,0.391327,0.0439309,-0.0009027,1.83246,-25.8855,2.73836,24.1898,3.17108,1.16356,-0.0301054,-2.68087,-0.188805,-1.61904,0.915769,-0.625776,-0.109148,-0.0233202,0.15836,-0.356124,-1.16237,0.625745,-0.81996,-0.0185488,
0.117239,-0.204565,-0.204134,-1.68636,0.299238,-0.329844,-0.382864,0.579294,-0.00559543,0.659889,-0.177426,0.743618,-0.017582,0.00843321,0,0,0,0,0,0,0,0.117243,-0.203555,-0.202153,-1.68418,0.300742,1.24291,0.402127,0.380413,-0.00148212,0.460432,-0.0892708,0.391327,0.0439309,-0.0009027,1.83246,-25.8855,2.73836,24.1898,3.17108,1.16356,-0.0301054,-2.68087,-0.188805,-1.61904,0.915769,-0.625776,-0.109148,-0.0233202,0.15836,-0.356124,-1.16237,0.625745,-0.81996,-0.0185488,
0.119575,-0.204578,-0.201471,-1.68706,0.302187,-0.329875,-0.382831,0.58414,-0.00329934,0.665643,-0.175184,0.737197,-0.00758051,0.00824795,0,0,0,0,0,0,0,0.117243,-0.203555,-0.202153,-1.68418,0.300742,1.24291,0.402127,0.380413,-0.00148212,0.460432,-0.0892708,0.391327,0.0439309,-0.0009027,1.83246,-25.8855,2.73836,24.1898,3.17108,1.16356,-0.0301054,-2.76693,0.365425,-1.55447,0.462116,-0.692047,0.174092,0.219554,0.15276,0.0104671,-1.15208,0.627309,-0.857662,-0.0186652,
0.121926,-0.204583,-0.198791,-1.68775,0.305097,-0.329864,-0.382799,0.587729,-0.00131748,0.670101,-0.172903,0.727496,0.00266876,0.00808356,0,0,0,0,0,0,0,0.117243,-0.203555,-0.202153,-1.68418,0.300742,1.24291,0.402127,0.380413,-0.00148212,0.460432,-0.0892708,0.391327,0.0439309,-0.0009027,1.83246,-25.8855,2.73836,24.1898,3.17108,1.16356,-0.0301054,-2.00297,0.439637,-1.74973,0.27284,-0.0785034,0.25928,0.300201,0.527978,0.120984,-1.24824,0.507051,-0.802792,-0.0203569,
0.124287,-0.204582,-0.196097,-1.68843,0.307959,-0.329811,-0.382767,0.590209,0.000399006,0.673373,-0.170629,0.71558,0.0130886,0.00792892,0,0,0,0,0,0,0,0.117243,-0.203555,-0.202153,-1.68418,0.300742,1.24291,0.402127,0.380413,-0.00148212,0.460432,-0.0892708,0.391327,0.0439309,-0.0009027,1.83246,-25.8855,2.73836,24.1898,3.17108,1.16356,-0.0301054,-2.00297,0.439637,-1.74973,0.27284,-0.0785034,0.25928,0.300201,0.527978,0.120984,-1.24824,0.507051,-0.802792,-0.0203569,
0.126654,-0.204574,-0.193395,-1.68911,0.310768,-0.329717,-0.382736,0.591721,0.00188894,0.675588,-0.168377,0.702146,0.0236312,0.00779227,0,0,0,0,0,0,0,0.129753,-0.203588,-0.187486,-1.68715,0.3138,1.24513,0.402131,0.393577,-0.00234028,0.46454,-0.0939904,0.442784,0.0718817,0.00153921,1.65393,-25.5602,2.71455,24.162,2.31598,1.46203,-0.0703886,-1.94378,-0.473159,-2.16076,0.719046,0.050348,-0.149391,-0.11139,0.61531,-0.308447,-1.30439,0.24951,-0.697605,-0.0188507,
0.129023,-0.204561,-0.190687,-1.68977,0.313519,-0.32958,-0.382705,0.592395,0.00318414,0.676878,-0.166154,0.687678,0.0342628,0.00765469,0,0,0,0,0,0,0,0.129753,-0.203588,-0.187486,-1.68715,0.3138,1.24513,0.402131,0.393577,-0.00234028,0.46454,-0.0939904,0.442784,0.0718817,0.00153921,1.65393,-25.5602,2.71455,24.162,2.31598,1.46203,-0.0703886,-1.94378,-0.473159,-2.16076,0.719046,0.050348,-0.149391,-0.11139,0.61531,-0.308447,-1.30439,0.24951,-0.697605,-0.0188507,
0.131393,-0.204544,-0.187978,-1.69043,0.316209,-0.3294,-0.382675,0.59235,0.00431142,0.677364,-0.163958,0.672547,0.0449556,0.00752889,0,0,0,0,0,0,0,0.129753,-0.203588,-0.187486,-1.68715,0.3138,1.24513,0.402131,0.393577,-0.00234028,0.46454,-0.0939904,0.442784,0.0718817,0.00153921,1.65393,-25.5602,2.71455,24.162,2.31598,1.46203,-0.0703886,-1.8113,-0.452784,-2.15581,0.660931,0.0896251,-0.140683,-0.10672,0.615089,-0.286554,-1.25223,0.224538,-0.632506,-0.0203061,
0.133759,-0.204523,-0.185269,-1.69108,0.318837,-0.329177,-0.382646,0.591681,0.0052952,0.677153,-0.16179,0.657091,0.0556818,0.00740459,0,0,0,0,0,0,0,0.129753,-0.203588,-0.187486,-1.68715,0.3138,1.24513,0.402131,0.393577,-0.00234028,0.46454,-0.0939904,0.442784,0.0718817,0.00153921,1.65393,-25.5602,2.71455,24.162,2.31598,1.46203,-0.0703886,-1.8113,-0.452784,-2.15581,0.660931,0.0896251,-0.140683,-0.10672,0.615089,-0.286554,-1.25223,0.224538,-0.632506,-0.0203061,
0.136121,-0.204498,-0.182564,-1.69171,0.321404,-0.328912,-0.382617,0.590463,0.00616038,0.676331,-0.159656,0.64171,0.0664106,0.00728544,0,0,0,0,0,0,0,0.129753,-0.203588,-0.187486,-1.68715,0.3138,1.24513,0.402131,0.393577,-0.00234028,0.46454,-0.0939904,0.442784,0.0718817,0.00153921,1.65393,-25.5602,2.71455,24.162,2.31598,1.46203,-0.0703886,-1.39045,-0.109857,-1.96548,0.470684,0.266102,-0.00348997,0.0212975,0.659729,-0.13102,-1.15744,0.320349,-0.554903,-0.0189839,
0.138476,-0.204471,-0.179864,-1.69234,0.323912,-0.328603,-0.382588,0.588736,0.00693682,0.674953,-0.157571,0.627026,0.0771024,0.00716701,0,0,0,0,0,0,0,0.142386,-0.203512,-0.17232,-1.68987,0.32827,1.24731,0.40213,0.399374,-1.3109e-05,0.489251,-0.0873182,0.435843,0.0728804,0.000326532,2.3125,-26.3616,2.98829,24.3365,2.59704,1.69366,-0.0566557,-1.75931,-0.125761,-2.16312,0.472886,-0.0079296,-0.0421871,-0.0027669,0.50753,-0.17672,-1.1182,0.317532,-0.475821,-0.0181862,
0.140822,-0.20444,-0.177172,-1.69297,0.326369,-0.328252,-0.382559,0.586451,0.00766702,0.673049,-0.155587,0.6142,0.0877097,0.00712886,0,0,0,0,0,0,0,0.142386,-0.203512,-0.17232,-1.68987,0.32827,1.24731,0.40213,0.399374,-1.3109e-05,0.489251,-0.0873182,0.435843,0.0728804,0.000326532,2.3125,-26.3616,2.98829,24.3365,2.59704,1.69366,-0.0566557,-1.75931,-0.125761,-2.16312,0.472886,-0.0079296,-0.0421871,-0.0027669,0.50753,-0.17672,-1.1182,0.317532,-0.475821,-0.0181862,
0.143159,-0.204407,-0.174488,-1.69358,0.328759,-0.327859,-0.382531,0.58436,0.00820959,0.670961,-0.153359,0.597426,0.0982833,0.00704381,0,0,0,0,0,0,0,0.142386,-0.203512,-0.17232,-1.68987,0.32827,1.24731,0.40213,0.399374,-1.3109e-05,0.489251,-0.0873182,0.435843,0.0728804,0.000326532,2.3125,-26.3616,2.98829,24.3365,2.59704,1.69366,-0.0566557,-1.91949,-1.16167,-2.258,1.22788,-0.138095,-0.551171,-0.503463,0.367403,-0.762145,-1.07336,0.276269,-0.39278,-0.0154689,
0.145489,-0.204373,-0.171813,-1.69418,0.331064,-0.327424,-0.382504,0.582314,0.00854422,0.668882,-0.150961,0.57618,0.10882,0.00691311,0,0,0,0,0,0,0,0.142386,-0.203512,-0.17232,-1.68987,0.32827,1.24731,0.40213,0.399374,-1.3109e-05,0.489251,-0.0873182,0.435843,0.0728804,0.000326532,2.3125,-26.3616,2.98829,24.3365,2.59704,1.69366,-0.0566557,-1.91949,-1.16167,-2.258,1.22788,-0.138095,-0.551171,-0.503463,0.367403,-0.762145,-1.07336,0.276269,-0.39278,-0.0154689,
0.147809,-0.204338,-0.169146,-1.69478,0.333275,-0.326947,-0.382476,0.580018,0.00874571,0.666705,-0.148586,0.552899,0.119252,0.00678513,0,0,0,0,0,0,0,0.142386,-0.203512,-0.17232,-1.68987,0.32827,1.24731,0.40213,0.399374,-1.3109e-05,0.489251,-0.0873182,0.435843,0.0728804,0.000326532,2.3125,-26.3616,2.98829,24.3365,2.59704,1.69366,-0.0566557,-2.11506,-0.187136,-2.13642,0.640833,-0.391458,-0.138769,-0.106571,0.218456,-0.287145,-0.958886,0.461502,-0.341118,-0.015949,
0.150119,-0.204302,-0.166489,-1.69536,0.33539,-0.326429,-0.38245,0.577455,0.00886998,0.66432,-0.146283,0.528828,0.12953,0.00667785,0,0,0,0,0,0,0,0.142386,-0.203512,-0.17232,-1.68987,0.32827,1.24731,0.40213,0.399374,-1.3109e-05,0.489251,-0.0873182,0.435843,0.0728804,0.000326532,2.3125,-26.3616,2.98829,24.3365,2.59704,1.69366,-0.0566557,-2.11506,-0.187136,-2.13642,0.640833,-0.391458,-0.138769,-0.106571,0.218456,-0.287145,-0.958886,0.461502,-0.341118,-0.015949,
0.152417,-0.204267,-0.163842,-1.69594,0.337409,-0.32587,-0.382423,0.574642,0.00895326,0.661699,-0.144059,0.504604,0.13962,0.00657625,0,0,0,0,0,0,0,0.161298,-0.203126,-0.150236,-1.69315,0.344241,1.25053,0.402126,0.452545,0.017618,0.526801,-0.0690298,0.310052,0.0734252,-2.19137e-05,-0.0718349,-26.9328,0.687269,24.5627,3.32397,1.63415,-0.0227812,-2.19946,0.532384,-2.27025,0.21631,-0.440742,0.164531,0.192411,0.224179,0.0509681,-0.965406,0.605718,-0.299234,-0.0192749,
0.154704,-0.204231,-0.161206,-1.69651,0.339331,-0.325272,-0.382398,0.571608,0.00901584,0.658849,-0.141907,0.48055,0.149509,0.00647458,0,0,0,0,0,0,0,0.161298,-0.203126,-0.150236,-1.69315,0.344241,1.25053,0.402126,0.452545,0.017618,0.526801,-0.0690298,0.310052,0.0734252,-2.19137e-05,-0.0718349,-26.9328,0.687269,24.5627,3.32397,1.63415,-0.0227812,-2.5862,0.970187,-2.34641,-0.0468937,-0.718605,0.351617,0.361293,0.095205,0.277726,-0.93974,0.695393,-0.283089,-0.0181511,
0.156977,-0.204194,-0.158583,-1.69707,0.341158,-0.324636,-0.382372,0.568391,0.00906766,0.655796,-0.139817,0.456821,0.159193,0.00637753,0,0,0,0,0,0,0,0.161298,-0.203126,-0.150236,-1.69315,0.344241,1.25053,0.402126,0.452545,0.017618,0.526801,-0.0690298,0.310052,0.0734252,-2.19137e-05,-0.0718349,-26.9328,0.687269,24.5627,3.32397,1.63415,-0.0227812,-2.5862,0.970187,-2.34641,-0.0468937,-0.718605,0.351617,0.361293,0.095205,0.277726,-0.93974,0.695393,-0.283089,-0.0181511,
0.10017,-0.204207,-0.223631,-1.68087,0.275166,-0.32639,-0.383155,0.524323,-0.0515985,0.591816,-0.194131,0.345905,0.207532,0.00942508,0,0,0,0,0,0,0,0.161298,-0.203126,-0.150236,-1.69315,0.344241,1.25053,0.402126,0.452545,0.017618,0.526801,-0.0690298,0.310052,0.0734252,-2.19137e-05,-0.0718349,-26.9328,0.687269,24.5627,3.32397,1.63415,-0.0227812,-2.59189,1.25665,-2.33249,-0.23254,-0.741573,0.486377,0.503147,0.0880372,0.422339,-0.917338,0.744183,-0.263287,-0.0192702,
0.167697,-0.203435,-0.142925,-1.69522,0.34766,-0.317584,-0.38316,0.561725,-0.0280781,0.643185,-0.187616,0.278796,0.255897,0.00948431,0,0,0,0,0,0,0,0.161298,-0.203126,-0.150236,-1.69315,0.344241,1.25053,0.402126,0.452545,0.017618,0.526801,-0.0690298,0.310052,0.0734252,-2.19137e-05,-0.0718349,-26.9328,0.687269,24.5627,3.32397,1.63415,-0.0227812,-2.59189,1.25665,-2.33249,-0.23254,-0.741573,0.486377,0.503147,0.0880372,0.422339,-0.917338,0.744183,-0.263287,-0.0192702,
0.170026,-0.203531,-0.140254,-1.69598,0.348772,-0.316511,-0.383123,0.582125,-0.023948,0.667756,-0.189057,0.278197,0.268061,0.00920574,0,0,0,0,0,0,0,0.17568,-0.20279,-0.133025,-1.69518,0.352204,1.25344,0.402126,0.458777,0.00808483,0.53696,-0.059534,0.19462,0.108467,-0.000258729,-0.603451,-26.909,-0.237108,24.3365,2.84698,1.68725,-0.0227812,-1.95217,-0.254086,-2.49947,0.846531,-0.183253,-0.229353,-0.207266,0.326416,-0.409633,-1.02144,0.664301,-0.211738,-0.0174194,
0.172419,-0.203608,-0.137505,-1.69673,0.349893,-0.315393,-0.383087,0.59832,-0.0194288,0.687198,-0.18916,0.280171,0.279544,0.00896848,0,0,0,0,0,0,0,0.17568,-0.20279,-0.133025,-1.69518,0.352204,1.25344,0.402126,0.458777,0.00808483,0.53696,-0.059534,0.19462,0.108467,-0.000258729,-0.603451,-26.909,-0.237108,24.3365,2.84698,1.68725,-0.0227812,-1.95217,-0.254086,-2.49947,0.846531,-0.183253,-0.229353,-0.207266,0.326416,-0.409633,-1.02144,0.664301,-0.211738,-0.0174194,
0.174862,-0.203668,-0.134696,-1.69749,0.351033,-0.314236,-0.383052,0.610789,-0.0148322,0.702424,-0.188435,0.285065,0.28926,0.0088526,0,0,0,0,0,0,0,0.17568,-0.20279,-0.133025,-1.69518,0.352204,1.25344,0.402126,0.458777,0.00808483,0.53696,-0.059534,0.19462,0.108467,-0.000258729,-0.603451,-26.909,-0.237108,24.3365,2.84698,1.68725,-0.0227812,-1.56978,2.44387,-2.75519,-1.04393,0.220848,1.01639,1.02029,0.773001,1.01178,-1.19788,0.885493,-0.263684,-0.0220854,
0.177347,-0.20371,-0.131837,-1.69823,0.352168,-0.313047,-0.383017,0.621141,-0.0106159,0.714555,-0.186771,0.283679,0.297384,0.00869796,0,0,0,0,0,0,0,0.17568,-0.20279,-0.133025,-1.69518,0.352204,1.25344,0.402126,0.458777,0.00808483,0.53696,-0.059534,0.19462,0.108467,-0.000258729,-0.603451,-26.909,-0.237108,24.3365,2.84698,1.68725,-0.0227812,-2.05421,0.459365,-2.84614,0.253196,-0.1139,0.134691,0.153299,0.485828,0.0158271,-1.15383,0.660933,-0.233978,-0.0217281,
0.179865,-0.203738,-0.12894,-1.69897,0.353266,-0.311829,-0.382983,0.629619,-0.00697935,0.7244,-0.184552,0.274535,0.304292,0.00849399,0,0,0,0,0,0,0,0.17568,-0.20279,-0.133025,-1.69518,0.352204,1.25344,0.402126,0.458777,0.00808483,0.53696,-0.059534,0.19462,0.108467,-0.000258729,-0.603451,-26.909,-0.237108,24.3365,2.84698,1.68725,-0.0227812,-2.05421,0.459365,-2.84614,0.253196,-0.1139,0.134691,0.153299,0.485828,0.0158271,-1.15383,0.660933,-0.233978,-0.0217281,
0.182409,-0.203754,-0.126011,-1.6997,0.354312,-0.310588,-0.38295,0.636086,-0.00388289,0.732214,-0.18226,0.261333,0.310274,0.00831695,0,0,0,0,0,0,0,0.17568,-0.20279,-0.133025,-1.69518,0.352204,1.25344,0.402126,0.458777,0.00808483,0.53696,-0.059534,0.19462,0.108467,-0.000258729,-0.603451,-26.909,-0.237108,24.3365,2.84698,1.68725,-0.0227812,-2.06909,-1.04015,-2.95607,1.22331,-0.0961348,-0.535528,-0.461355,0.415321,-0.782639,-1.15964,0.481627,-0.193801,-0.01845,
0.184973,-0.203759,-0.123058,-1.70042,0.355296,-0.309326,-0.382917,0.64079,-0.001243,0.738152,-0.180035,0.245997,0.315562,0.00815796,0,0,0,0,0,0,0,0.19018,-0.20285,-0.115458,-1.69754,0.355701,1.2583,0.402129,0.476991,-0.005627,0.564195,-0.0774132,0.0791726,0.185899,0.000584369,-0.222592,-26.2346,0.488905,24.2889,2.79205,1.87951,-0.050247,-2.06909,-1.04015,-2.95607,1.22331,-0.0961348,-0.535528,-0.461355,0.415321,-0.782639,-1.15964,0.481627,-0.193801,-0.01845,
0.187548,-0.203755,-0.120089,-1.70113,0.356214,-0.308045,-0.382885,0.643986,0.00101846,0.742433,-0.177902,0.229549,0.320357,0.00801874,0,0,0,0,0,0,0,0.19018,-0.20285,-0.115458,-1.69754,0.355701,1.2583,0.402129,0.476991,-0.005627,0.564195,-0.0774132,0.0791726,0.185899,0.000584369,-0.222592,-26.2346,0.488905,24.2889,2.79205,1.87951,-0.050247,-2.26058,-1.26483,-3.24893,1.31873,-0.109997,-0.621225,-0.578652,0.456736,-0.845995,-1.2629,0.43382,-0.209848,-0.0170261,
0.190132,-0.203743,-0.117107,-1.70184,0.357064,-0.306745,-0.382854,0.645911,0.00296526,0.745285,-0.175848,0.212535,0.324817,0.00788031,0,0,0,0,0,0,0,0.19018,-0.20285,-0.115458,-1.69754,0.355701,1.2583,0.402129,0.476991,-0.005627,0.564195,-0.0774132,0.0791726,0.185899,0.000584369,-0.222592,-26.2346,0.488905,24.2889,2.79205,1.87951,-0.050247,-2.64461,-0.380115,-3.05632,0.603847,-0.519752,-0.170436,-0.179968,0.259882,-0.266245,-1.12561,0.423969,-0.205273,-0.0202905,
0.192719,-0.203724,-0.11412,-1.70253,0.357845,-0.305429,-0.382823,0.64677,0.00464737,0.746926,-0.173849,0.195256,0.329059,0.00776401,0,0,0,0,0,0,0,0.19018,-0.20285,-0.115458,-1.69754,0.355701,1.2583,0.402129,0.476991,-0.005627,0.564195,-0.0774132,0.0791726,0.185899,0.000584369,-0.222592,-26.2346,0.488905,24.2889,2.79205,1.87951,-0.050247,-2.64461,-0.380115,-3.05632,0.603847,-0.519752,-0.170436,-0.179968,0.259882,-0.266245,-1.12561,0.423969,-0.205273,-0.0202905,
0.195306,-0.2037,-0.11113,-1.70322,0.358556,-0.304096,-0.382792,0.64674,0.00610444,0.747547,-0.171886,0.177887,0.333167,0.00764018,0,0,0,0,0,0,0,0.19018,-0.20285,-0.115458,-1.69754,0.355701,1.2583,0.402129,0.476991,-0.005627,0.564195,-0.0774132,0.0791726,0.185899,0.000584369,-0.222592,-26.2346,0.488905,24.2889,2.79205,1.87951,-0.050247,-2.14772,1.04309,-3.03609,-0.492102,-0.221363,0.477403,0.470828,0.513645,0.48229,-1.12181,0.436971,-0.16438,-0.0208874,
0.19789,-0.20367,-0.10814,-1.7039,0.359199,-0.302748,-0.382762,0.645969,0.00736865,0.747316,-0.169941,0.160547,0.337196,0.00752846,0,0,0,0,0,0,0,0.204982,-0.202863,-0.0980282,-1.70004,0.35818,1.26523,0.402131,0.476841,-0.00318095,0.561281,-0.0737624,0.0759075,0.233378,0.000581378,0.793033,-26.0838,1.16334,23.912,2.43225,1.99212,-0.0630644,-2.14772,1.04309,-3.03609,-0.492102,-0.221363,0.477403,0.470828,0.513645,0.48229,-1.12181,0.436971,-0.16438,-0.0208874,
0.200468,-0.203636,-0.105155,-1.70457,0.359772,-0.301383,-0.382732,0.644578,0.00846802,0.74637,-0.168008,0.143377,0.34118,0.00741479,0,0,0,0,0,0,0,0.204982,-0.202863,-0.0980282,-1.70004,0.35818,1.26523,0.402131,0.476841,-0.00318095,0.561281,-0.0737624,0.0759075,0.233378,0.000581378,0.793033,-26.0838,1.16334,23.912,2.43225,1.99212,-0.0630644,-2.16192,1.67569,-3.50534,-1.02333,-0.0634723,0.778801,0.775073,0.739605,0.831018,-1.29445,0.428712,-0.163233,-0.0235618,
0.203039,-0.203599,-0.102176,-1.70524,0.360279,-0.300002,-0.382703,0.642655,0.00943088,0.744812,-0.16609,0.126662,0.345129,0.00730397,0,0,0,0,0,0,0,0.204982,-0.202863,-0.0980282,-1.70004,0.35818,1.26523,0.402131,0.476841,-0.00318095,0.561281,-0.0737624,0.0759075,0.233378,0.000581378,0.793033,-26.0838,1.16334,23.912,2.43225,1.99212,-0.0630644,-2.16192,1.67569,-3.50534,-1.02333,-0.0634723,0.778801,0.775073,0.739605,0.831018,-1.29445,0.428712,-0.163233,-0.0235618,
0.2056,-0.203557,-0.0992047,-1.70589,0.360723,-0.298606,-0.382674,0.640233,0.0102932,0.742694,-0.164219,0.111125,0.349026,0.00712788,0,0,0,0,0,0,0,0.204982,-0.202863,-0.0980282,-1.70004,0.35818,1.26523,0.402131,0.476841,-0.00318095,0.561281,-0.0737624,0.0759075,0.233378,0.000581378,0.793033,-26.0838,1.16334,23.912,2.43225,1.99212,-0.0630644,-1.90154,0.230082,-3.35773,0.0169102,0.0453175,0.0861262,0.0956157,0.643351,0.0294615,-1.20833,0.356721,-0.0912859,-0.0172629,
0.208149,-0.203513,-0.0962446,-1.70654,0.361118,-0.297195,-0.382646,0.637159,0.0111118,0.740027,-0.162508,0.0987101,0.352824,0.00707283,0,0,0,0,0,0,0,0.204982,-0.202863,-0.0980282,-1.70004,0.35818,1.26523,0.402131,0.476841,-0.00318095,0.561281,-0.0737624,0.0759075,0.233378,0.000581378,0.793033,-26.0838,1.16334,23.912,2.43225,1.99212,-0.0630644,-0.872192,-1.31453,-3.17557,1.10493,0.690318,-0.705489,-0.692083,0.811246,-0.876023,-1.15225,0.248254,0.0188242,-0.0147681,
