PerkyPenguin/Analysis-on-Approximated-Derivatives/Code_and_Data/PaperData/Real_Robot/Scene_1/set_interval/1/trajectory.csv
Commanded Joint 0 Position,Commanded Joint 1 Position,Commanded Joint 2 Position,Commanded Joint 3 Position,Commanded Joint 4 Position,Commanded Joint 5 Position,Commanded Joint 6 Position,Commanded Joint 0 Velocity,Commanded Joint 1 Velocity,Commanded Joint 2 Velocity,Commanded Joint 3 Velocity,Commanded Joint 4 Velocity,Commanded Joint 5 Velocity,Commanded Joint 6 Velocity,Commanded Joint 0 Torque,Commanded Joint 1 Torque,Commanded Joint 2 Torque,Commanded Joint 3 Torque,Commanded Joint 4 Torque,Commanded Joint 5 Torque,Commanded Joint 6 Torque,Actual Joint 0 Position,Actual Joint 1 Position,Actual Joint 2 Position,Actual Joint 3 Position,Actual Joint 4 Position,Actual Joint 5 Position,Actual Joint 6 Position,Actual Joint 0 Velocity,Actual Joint 1 Velocity,Actual Joint 2 Velocity,Actual Joint 3 Velocity,Actual Joint 4 Velocity,Actual Joint 5 Velocity,Actual Joint 6 Velocity,Actual Joint 0 Torque,Actual Joint 1 Torque,Actual Joint 2 Torque,Actual Joint 3 Torque,Actual Joint 4 Torque,Actual Joint 5 Torque,Actual Joint 6 Torque,EE ext force 0,EE ext force 1,EE ext force 2,EE ext force 3,EE ext force 4,EE ext force 5,joint ext torque 0,joint ext torque 1,joint ext torque 2,joint ext torque 3,joint ext torque 4,joint ext torque 5,joint ext torque 6,
0.0139632,-0.196985,-0.333595,-1.66521,-0.10005,-0.0913166,-0.383641,-0.0022798,0.0154242,-0.0122581,-0.150458,0.00596016,0.201117,-0.00215279,0,0,0,0,0,0,0,0.0139744,-0.196961,-0.333497,-1.6637,-0.100119,1.47748,0.401775,-0.00141905,0.00126016,7.26389e-05,0.000383029,5.40882e-05,-0.000368732,-0.00103946,-0.0440639,-25.8101,1.86159,26.106,0.440975,2.93328,-0.00996382,-1.19665,0.0120797,-0.244524,-0.0500109,-0.455057,-0.159831,-0.0606982,-0.0625104,-0.231978,-0.288607,-0.209355,-0.339983,-0.0434759,
0.0139489,-0.196849,-0.333656,-1.66585,-0.10003,-0.0904817,-0.383649,-0.00357178,0.0341681,-0.0152242,-0.159657,0.00518216,0.208724,-0.00204922,0,0,0,0,0,0,0,0.0139744,-0.196961,-0.333497,-1.6637,-0.100119,1.47748,0.401775,-0.00141905,0.00126016,7.26389e-05,0.000383029,5.40882e-05,-0.000368732,-0.00103946,-0.0440639,-25.8101,1.86159,26.106,0.440975,2.93328,-0.00996382,-1.3337,0.0176997,-0.152491,-0.0696208,-0.596879,-0.181329,-0.0815304,-0.158492,-0.249896,-0.235628,-0.210693,-0.338192,-0.043875,
0.0139698,-0.196952,-0.333502,-1.66371,-0.100128,-0.0933189,-0.383624,-0.000186379,0.000360213,-0.000258782,-0.000201282,-0.000637191,-5.84825e-05,6.80192e-06,0,0,0,0,0,0,0,0.0139744,-0.196961,-0.333497,-1.6637,-0.100119,1.47748,0.401775,-0.00141905,0.00126016,7.26389e-05,0.000383029,5.40882e-05,-0.000368732,-0.00103946,-0.0440639,-25.8101,1.86159,26.106,0.440975,2.93328,-0.00996382,-1.3337,0.0176997,-0.152491,-0.0696208,-0.596879,-0.181329,-0.0815304,-0.158492,-0.249896,-0.235628,-0.210693,-0.338192,-0.043875,
0.0139692,-0.196951,-0.333503,-1.66371,-0.10013,-0.0933193,-0.383624,-0.000151277,0.000282579,-0.000216628,-0.000174184,-0.000617982,-0.000107083,5.25857e-06,0,0,0,0,0,0,0,0.0139744,-0.196961,-0.333497,-1.6637,-0.100119,1.47748,0.401775,-0.00141905,0.00126016,7.26389e-05,0.000383029,5.40882e-05,-0.000368732,-0.00103946,-0.0440639,-25.8101,1.86159,26.106,0.440975,2.93328,-0.00996382,-1.38785,-0.0182207,-0.118797,-0.0636083,-0.677761,-0.205507,-0.105162,-0.221277,-0.272704,-0.186604,-0.218657,-0.307851,-0.0445079,
0.0139687,-0.19695,-0.333504,-1.66371,-0.100133,-0.0933199,-0.383624,-0.000123849,0.000217189,-0.000183931,-0.000146605,-0.000584879,-0.000145923,4.2182e-06,0,0,0,0,0,0,0,0.0139744,-0.196961,-0.333497,-1.6637,-0.100119,1.47748,0.401775,-0.00141905,0.00126016,7.26389e-05,0.000383029,5.40882e-05,-0.000368732,-0.00103946,-0.0440639,-25.8101,1.86159,26.106,0.440975,2.93328,-0.00996382,-1.38785,-0.0182207,-0.118797,-0.0636083,-0.677761,-0.205507,-0.105162,-0.221277,-0.272704,-0.186604,-0.218657,-0.307851,-0.0445079,
0.0139683,-0.196949,-0.333505,-1.66371,-0.100135,-0.0933206,-0.383624,-0.000102043,0.000160855,-0.000158223,-0.000121095,-0.000544997,-0.000175508,3.48698e-06,0,0,0,0,0,0,0,0.0139758,-0.197021,-0.333496,-1.66388,-0.100121,1.47766,0.40178,0.00148601,-0.00712188,0.000247739,-0.0223056,-0.00187864,0.0297579,0.000558803,-0.0956386,-24.9135,1.81398,24.2612,0.434567,3.03307,-0.0566557,-2.26049,0.47023,-0.916587,-0.301602,-1.05164,-0.137433,-0.0389716,-0.303159,-0.189486,-0.390124,-0.19887,-0.322104,-0.0447691,
0.013968,-0.196949,-0.333505,-1.66371,-0.100137,-0.0933214,-0.383624,-8.44878e-05,0.000111802,-0.000137777,-9.82038e-05,-0.000502708,-0.000197568,2.9579e-06,0,0,0,0,0,0,0,0.0139758,-0.197021,-0.333496,-1.66388,-0.100121,1.47766,0.40178,0.00148601,-0.00712188,0.000247739,-0.0223056,-0.00187864,0.0297579,0.000558803,-0.0956386,-24.9135,1.81398,24.2612,0.434567,3.03307,-0.0566557,-2.69795,0.304449,-1.012,-0.185404,-1.39475,-0.287308,-0.180884,-0.501985,-0.354579,-0.329006,-0.215464,-0.277618,-0.0444452,
0.0139677,-0.196949,-0.333506,-1.66371,-0.100139,-0.0933223,-0.383624,-7.02148e-05,6.88464e-05,-0.000121353,-7.78585e-05,-0.000460681,-0.000213839,2.56829e-06,0,0,0,0,0,0,0,0.0139758,-0.197021,-0.333496,-1.66388,-0.100121,1.47766,0.40178,0.00148601,-0.00712188,0.000247739,-0.0223056,-0.00187864,0.0297579,0.000558803,-0.0956386,-24.9135,1.81398,24.2612,0.434567,3.03307,-0.0566557,-2.69795,0.304449,-1.012,-0.185404,-1.39475,-0.287308,-0.180884,-0.501985,-0.354579,-0.329006,-0.215464,-0.277618,-0.0444452,
0.0139674,-0.196948,-0.333506,-1.66371,-0.10014,-0.0933232,-0.383624,-5.85154e-05,3.11038e-05,-0.000108043,-5.98224e-05,-0.000420495,-0.000225762,2.2782e-06,0,0,0,0,0,0,0,0.0139758,-0.197021,-0.333496,-1.66388,-0.100121,1.47766,0.40178,0.00148601,-0.00712188,0.000247739,-0.0223056,-0.00187864,0.0297579,0.000558803,-0.0956386,-24.9135,1.81398,24.2612,0.434567,3.03307,-0.0566557,-0.632496,-0.167667,-1.50672,0.253619,0.367692,-0.133236,-0.0334431,0.569066,-0.255825,-0.74676,-0.206572,-0.255262,-0.0443308,
0.0139672,-0.196948,-0.333506,-1.66371,-0.100142,-0.0933241,-0.383624,-4.88597e-05,-2.13595e-06,-9.71743e-05,-4.38367e-05,-0.000383021,-0.000234452,2.06063e-06,0,0,0,0,0,0,0,0.0139758,-0.197021,-0.333496,-1.66388,-0.100121,1.47766,0.40178,0.00148601,-0.00712188,0.000247739,-0.0223056,-0.00187864,0.0297579,0.000558803,-0.0956386,-24.9135,1.81398,24.2612,0.434567,3.03307,-0.0566557,-0.632496,-0.167667,-1.50672,0.253619,0.367692,-0.133236,-0.0334431,0.569066,-0.255825,-0.74676,-0.206572,-0.255262,-0.0443308,
0.0139671,-0.196949,-0.333507,-1.66371,-0.100143,-0.0933251,-0.383623,-4.08453e-05,-3.14621e-05,-8.82411e-05,-2.96615e-05,-0.000348674,-0.000240754,1.89665e-06,0,0,0,0,0,0,0,0.013983,-0.196976,-0.333493,-1.66405,-0.100111,1.47824,0.401776,0.000836193,0.00709721,0.000317179,0.00109559,-0.00210698,0.00529099,-0.000381751,-0.171017,-25.6117,1.83778,26.1813,0.373226,3.09899,-0.0227812,-1.42646,0.0871747,-0.947566,-0.0315701,-0.484757,-0.161527,-0.059794,-0.0163449,-0.244488,-0.409293,-0.201521,-0.225587,-0.0420117,
0.0139669,-0.196949,-0.333507,-1.66371,-0.100145,-0.093326,-0.383623,-3.41616e-05,-5.7373e-05,-8.08589e-05,-1.70844e-05,-0.000317581,-0.0002453,1.77271e-06,0,0,0,0,0,0,0,0.013983,-0.196976,-0.333493,-1.66405,-0.100111,1.47824,0.401776,0.000836193,0.00709721,0.000317179,0.00109559,-0.00210698,0.00529099,-0.000381751,-0.171017,-25.6117,1.83778,26.1813,0.373226,3.09899,-0.0227812,-1.42646,0.0871747,-0.947566,-0.0315701,-0.484757,-0.161527,-0.059794,-0.0163449,-0.244488,-0.409293,-0.201521,-0.225587,-0.0420117,
0.0139668,-0.196949,-0.333507,-1.66371,-0.100146,-0.093327,-0.383623,-2.85665e-05,-8.02948e-05,-7.47318e-05,-5.92009e-06,-0.000289689,-0.000248563,1.67894e-06,0,0,0,0,0,0,0,0.013983,-0.196976,-0.333493,-1.66405,-0.100111,1.47824,0.401776,0.000836193,0.00709721,0.000317179,0.00109559,-0.00210698,0.00529099,-0.000381751,-0.171017,-25.6117,1.83778,26.1813,0.373226,3.09899,-0.0227812,-1.38123,0.0306857,-1.04467,0.00833106,-0.396389,-0.17869,-0.0714495,0.0562959,-0.270304,-0.462425,-0.225681,-0.236489,-0.041654,
0.0139667,-0.196949,-0.333508,-1.66371,-0.100147,-0.093328,-0.383623,-2.38683e-05,-0.000100594,-6.96292e-05,3.99382e-06,-0.000264837,-0.00025089,1.6081e-06,0,0,0,0,0,0,0,0.013983,-0.196976,-0.333493,-1.66405,-0.100111,1.47824,0.401776,0.000836193,0.00709721,0.000317179,0.00109559,-0.00210698,0.00529099,-0.000381751,-0.171017,-25.6117,1.83778,26.1813,0.373226,3.09899,-0.0227812,-1.38123,0.0306857,-1.04467,0.00833106,-0.396389,-0.17869,-0.0714495,0.0562959,-0.270304,-0.462425,-0.225681,-0.236489,-0.041654,
0.0139667,-0.19695,-0.333508,-1.66371,-0.100148,-0.093329,-0.383623,-1.9914e-05,-0.00011859,-6.53693e-05,1.27996e-05,-0.000242809,-0.000252541,1.55481e-06,0,0,0,0,0,0,0,0.013983,-0.196976,-0.333493,-1.66405,-0.100111,1.47824,0.401776,0.000836193,0.00709721,0.000317179,0.00109559,-0.00210698,0.00529099,-0.000381751,-0.171017,-25.6117,1.83778,26.1813,0.373226,3.09899,-0.0227812,-2.34958,0.290384,-0.885197,-0.213587,-1.18853,-0.234721,-0.121669,-0.41181,-0.302478,-0.301163,-0.229782,-0.254892,-0.0401942,
0.0139666,-0.19695,-0.333508,-1.66371,-0.100149,-0.0933301,-0.383623,-1.65801e-05,-0.000134557,-6.18072e-05,2.06223e-05,-0.000223362,-0.000253707,1.51501e-06,0,0,0,0,0,0,0,0.013983,-0.196976,-0.333493,-1.66405,-0.100111,1.47824,0.401776,0.000836193,0.00709721,0.000317179,0.00109559,-0.00210698,0.00529099,-0.000381751,-0.171017,-25.6117,1.83778,26.1813,0.373226,3.09899,-0.0227812,-1.90687,0.272938,-0.552868,-0.236658,-0.97515,-0.165598,-0.055159,-0.345338,-0.227015,-0.227652,-0.213764,-0.251643,-0.0399938,
0.0139665,-0.196951,-0.333508,-1.66371,-0.10015,-0.0933311,-0.383623,-1.3766e-05,-0.000148736,-5.88263e-05,2.75727e-05,-0.000206247,-0.000254529,1.48567e-06,0,0,0,0,0,0,0,0.0139649,-0.196893,-0.333505,-1.66396,-0.100108,1.47825,0.401781,-0.00204279,-0.00245922,-0.000888594,0.00727938,0.00316137,-0.00355554,-0.000406322,0.0551182,-25.6593,1.98854,26.2805,0.331112,3.08617,-0.0365141,-1.90687,0.272938,-0.552868,-0.236658,-0.97515,-0.165598,-0.055159,-0.345338,-0.227015,-0.227652,-0.213764,-0.251643,-0.0399938,
0.0139665,-0.196952,-0.333509,-1.66371,-0.10015,-0.0933321,-0.383623,-1.13889e-05,-0.000161339,-5.63316e-05,3.37485e-05,-0.000191221,-0.00025511,1.46444e-06,0,0,0,0,0,0,0,0.0139649,-0.196893,-0.333505,-1.66396,-0.100108,1.47825,0.401781,-0.00204279,-0.00245922,-0.000888594,0.00727938,0.00316137,-0.00355554,-0.000406322,0.0551182,-25.6593,1.98854,26.2805,0.331112,3.08617,-0.0365141,-1.31669,0.133946,-0.82932,-0.0802254,-0.391722,-0.123164,-0.0130523,0.0400133,-0.207662,-0.428358,-0.213685,-0.276105,-0.0406722,
0.0139664,-0.196952,-0.333509,-1.66371,-0.100151,-0.0933331,-0.383623,-9.38056e-06,-0.000172551,-5.42454e-05,3.92365e-05,-0.000178055,-0.000255526,1.44953e-06,0,0,0,0,0,0,0,0.0139649,-0.196893,-0.333505,-1.66396,-0.100108,1.47825,0.401781,-0.00204279,-0.00245922,-0.000888594,0.00727938,0.00316137,-0.00355554,-0.000406322,0.0551182,-25.6593,1.98854,26.2805,0.331112,3.08617,-0.0365141,-1.55698,0.13396,-0.774364,-0.0905338,-0.589508,-0.167229,-0.0522545,-0.0779364,-0.252702,-0.386361,-0.220073,-0.284288,-0.0389633,
0.0139664,-0.196953,-0.333509,-1.66371,-0.100152,-0.0933341,-0.383623,-7.68386e-06,-0.000182533,-5.25032e-05,4.41138e-05,-0.000166538,-0.000255831,1.43954e-06,0,0,0,0,0,0,0,0.0139649,-0.196893,-0.333505,-1.66396,-0.100108,1.47825,0.401781,-0.00204279,-0.00245922,-0.000888594,0.00727938,0.00316137,-0.00355554,-0.000406322,0.0551182,-25.6593,1.98854,26.2805,0.331112,3.08617,-0.0365141,-1.55698,0.13396,-0.774364,-0.0905338,-0.589508,-0.167229,-0.0522545,-0.0779364,-0.252702,-0.386361,-0.220073,-0.284288,-0.0389633,
0.0139664,-0.196954,-0.333509,-1.66371,-0.100152,-0.0933352,-0.383623,-6.25113e-06,-0.000191427,-5.10516e-05,4.84487e-05,-0.000156475,-0.000256064,1.43338e-06,0,0,0,0,0,0,0,0.0139649,-0.196893,-0.333505,-1.66396,-0.100108,1.47825,0.401781,-0.00204279,-0.00245922,-0.000888594,0.00727938,0.00316137,-0.00355554,-0.000406322,0.0551182,-25.6593,1.98854,26.2805,0.331112,3.08617,-0.0365141,-2.27348,-0.0443516,-0.257473,-0.0651733,-1.33214,-0.377952,-0.261908,-0.581597,-0.452261,-0.100274,-0.258715,-0.278081,-0.0372333,
0.0139664,-0.196955,-0.333509,-1.66371,-0.100153,-0.0933362,-0.383623,-5.04225e-06,-0.000199361,-4.98458e-05,5.23022e-05,-0.000147692,-0.000256252,1.43021e-06,0,0,0,0,0,0,0,0.0139965,-0.196833,-0.333474,-1.66388,-0.100115,1.47827,0.40178,-4.05118e-05,-0.000840131,-0.000524174,-0.00275112,-0.000886579,-0.00242264,0.00125169,-0.349545,-26.0085,1.71083,26.3797,0.422665,2.97356,-0.0566557,-2.27348,-0.0443516,-0.257473,-0.0651733,-1.33214,-0.377952,-0.261908,-0.581597,-0.452261,-0.100274,-0.258715,-0.278081,-0.0372333,
0.0139664,-0.196956,-0.33351,-1.66371,-0.100153,-0.0933372,-0.383623,-4.02335e-06,-0.000206444,-4.88483e-05,5.57282e-05,-0.000140033,-0.000256415,1.42933e-06,0,0,0,0,0,0,0,0.0139965,-0.196833,-0.333474,-1.66388,-0.100115,1.47827,0.40178,-4.05118e-05,-0.000840131,-0.000524174,-0.00275112,-0.000886579,-0.00242264,0.00125169,-0.349545,-26.0085,1.71083,26.3797,0.422665,2.97356,-0.0566557,-1.45838,0.0726581,-0.459206,-0.0962748,-0.622024,-0.181371,-0.0796217,-0.142063,-0.250059,-0.285851,-0.226369,-0.289236,-0.0381804,
0.0139663,-0.196956,-0.33351,-1.66371,-0.100154,-0.0933382,-0.383623,-3.16578e-06,-0.000212775,-4.80272e-05,5.87749e-05,-0.00013336,-0.000256566,1.43022e-06,0,0,0,0,0,0,0,0.0139965,-0.196833,-0.333474,-1.66388,-0.100115,1.47827,0.40178,-4.05118e-05,-0.000840131,-0.000524174,-0.00275112,-0.000886579,-0.00242264,0.00125169,-0.349545,-26.0085,1.71083,26.3797,0.422665,2.97356,-0.0566557,-1.39712,0.134688,-0.465972,-0.133088,-0.57859,-0.143422,-0.055182,-0.117912,-0.198256,-0.292204,-0.211606,-0.28581,-0.0391039,
0.0139663,-0.196957,-0.33351,-1.66371,-0.100155,-0.0933393,-0.383623,-2.44521e-06,-0.000218439,-4.73557e-05,6.14851e-05,-0.000127549,-0.000256712,1.43244e-06,0,0,0,0,0,0,0,0.0139965,-0.196833,-0.333474,-1.66388,-0.100115,1.47827,0.40178,-4.05118e-05,-0.000840131,-0.000524174,-0.00275112,-0.000886579,-0.00242264,0.00125169,-0.349545,-26.0085,1.71083,26.3797,0.422665,2.97356,-0.0566557,-1.39712,0.134688,-0.465972,-0.133088,-0.57859,-0.143422,-0.055182,-0.117912,-0.198256,-0.292204,-0.211606,-0.28581,-0.0391039,
0.0139663,-0.196958,-0.33351,-1.66371,-0.100155,-0.0933403,-0.383623,-1.84098e-06,-0.000223513,-4.68112e-05,6.38968e-05,-0.000122491,-0.000256861,1.43566e-06,0,0,0,0,0,0,0,0.0139965,-0.196833,-0.333474,-1.66388,-0.100115,1.47827,0.40178,-4.05118e-05,-0.000840131,-0.000524174,-0.00275112,-0.000886579,-0.00242264,0.00125169,-0.349545,-26.0085,1.71083,26.3797,0.422665,2.97356,-0.0566557,-1.48389,-0.0814153,-0.400433,0.00662387,-0.660074,-0.256605,-0.169389,-0.171399,-0.321465,-0.262876,-0.233591,-0.290265,-0.039614,
0.0139663,-0.196959,-0.33351,-1.66371,-0.100156,-0.0933413,-0.383623,-1.33548e-06,-0.000228064,-4.63743e-05,6.60436e-05,-0.000118092,-0.000257014,1.4396e-06,0,0,0,0,0,0,0,0.0139804,-0.196869,-0.333475,-1.66383,-0.100115,1.47828,0.401776,0.00289474,0.00456924,-0.000395594,-0.000534403,-0.00286748,0.000303477,-0.000832207,-0.119442,-25.4848,1.91316,26.106,0.416256,2.9406,-0.00996382,-1.48389,-0.0814153,-0.400433,0.00662387,-0.660074,-0.256605,-0.169389,-0.171399,-0.321465,-0.262876,-0.233591,-0.290265,-0.039614,
0.0138496,-0.196899,-0.333594,-1.66358,-0.0985891,-0.0942544,-0.383623,-0.0116847,0.00423924,-0.010575,0.00949153,0.174217,-0.106052,0.000366765,0,0,0,0,0,0,0,0.0139804,-0.196869,-0.333475,-1.66383,-0.100115,1.47828,0.401776,0.00289474,0.00456924,-0.000395594,-0.000534403,-0.00286748,0.000303477,-0.000832207,-0.119442,-25.4848,1.91316,26.106,0.416256,2.9406,-0.00996382,-1.00146,-0.0384723,-0.463856,-0.00456386,-0.264831,-0.150405,-0.0619565,0.063066,-0.219631,-0.346424,-0.219424,-0.291371,-0.0404473,
0.0138712,-0.196778,-0.333557,-1.66373,-0.098613,-0.093438,-0.383622,-0.0105972,0.00642087,-0.00942799,0.0084018,0.171923,-0.104716,0.000310223,0,0,0,0,0,0,0,0.0139804,-0.196869,-0.333475,-1.66383,-0.100115,1.47828,0.401776,0.00289474,0.00456924,-0.000395594,-0.000534403,-0.00286748,0.000303477,-0.000832207,-0.119442,-25.4848,1.91316,26.106,0.416256,2.9406,-0.00996382,-1.00146,-0.0384723,-0.463856,-0.00456386,-0.264831,-0.150405,-0.0619565,0.063066,-0.219631,-0.346424,-0.219424,-0.291371,-0.0404473,
0.0138288,-0.196759,-0.333597,-1.6637,-0.0977963,-0.0939398,-0.383621,-0.0106189,0.00474171,-0.0101928,0.00693883,0.204153,-0.125438,0.000445441,0,0,0,0,0,0,0,0.0139804,-0.196869,-0.333475,-1.66383,-0.100115,1.47828,0.401776,0.00289474,0.00456924,-0.000395594,-0.000534403,-0.00286748,0.000303477,-0.000832207,-0.119442,-25.4848,1.91316,26.106,0.416256,2.9406,-0.00996382,-1.15106,-0.161107,-0.388021,0.0619269,-0.418533,-0.231917,-0.143649,-0.0411895,-0.304111,-0.286456,-0.234022,-0.277222,-0.0407443,
0.0137883,-0.196746,-0.333638,-1.66368,-0.0968803,-0.0945097,-0.383619,-0.0101117,0.0032518,-0.0101658,0.00553688,0.229023,-0.142479,0.000521457,0,0,0,0,0,0,0,0.0139804,-0.196869,-0.333475,-1.66383,-0.100115,1.47828,0.401776,0.00289474,0.00456924,-0.000395594,-0.000534403,-0.00286748,0.000303477,-0.000832207,-0.119442,-25.4848,1.91316,26.106,0.416256,2.9406,-0.00996382,-0.925302,-0.255411,-0.4217,0.138896,-0.237959,-0.234484,-0.150828,0.0638934,-0.311852,-0.320222,-0.232308,-0.270163,-0.041085,
0.0137511,-0.196738,-0.333677,-1.66366,-0.0958868,-0.0951358,-0.383616,-0.00930035,0.0020241,-0.00964914,0.00432523,0.24837,-0.156524,0.000561529,0,0,0,0,0,0,0,0.0139607,-0.196868,-0.333482,-1.66376,-0.0998748,1.47826,0.401777,-0.00190328,0.00442239,-0.00011453,0.00189599,0.0375708,0.000530986,-0.000441298,0.0828892,-25.5879,1.93696,26.3797,0.893246,2.98638,-0.0163725,-0.925302,-0.255411,-0.4217,0.138896,-0.237959,-0.234484,-0.150828,0.0638934,-0.311852,-0.320222,-0.232308,-0.270163,-0.041085,
0.0137178,-0.196734,-0.333712,-1.66365,-0.0948327,-0.0958081,-0.383614,-0.00832816,0.00105233,-0.00884451,0.00331025,0.26352,-0.168066,0.000578333,0,0,0,0,0,0,0,0.0139607,-0.196868,-0.333482,-1.66376,-0.0998748,1.47826,0.401777,-0.00190328,0.00442239,-0.00011453,0.00189599,0.0375708,0.000530986,-0.000441298,0.0828892,-25.5879,1.93696,26.3797,0.893246,2.98638,-0.0163725,-0.945805,-0.0713274,-0.173544,0.0498454,-0.369836,-0.155005,-0.0673553,-0.0610521,-0.231475,-0.228232,-0.138174,-0.275436,-0.0410998,
0.0136886,-0.196733,-0.333744,-1.66364,-0.0937309,-0.0965181,-0.383612,-0.00728767,0.000305891,-0.00788614,0.00246619,0.275443,-0.1775,0.000580281,0,0,0,0,0,0,0,0.0139607,-0.196868,-0.333482,-1.66376,-0.0998748,1.47826,0.401777,-0.00190328,0.00442239,-0.00011453,0.00189599,0.0375708,0.000530986,-0.000441298,0.0828892,-25.5879,1.93696,26.3797,0.893246,2.98638,-0.0163725,-0.945805,-0.0713274,-0.173544,0.0498454,-0.369836,-0.155005,-0.0673553,-0.0610521,-0.231475,-0.228232,-0.138174,-0.275436,-0.0410998,
0.0136637,-0.196734,-0.333771,-1.66363,-0.0925915,-0.0972587,-0.383609,-0.00623835,-0.000250841,-0.00686257,0.00176333,0.28486,-0.18516,0.000572593,0,0,0,0,0,0,0,0.0139607,-0.196868,-0.333482,-1.66376,-0.0998748,1.47826,0.401777,-0.00190328,0.00442239,-0.00011453,0.00189599,0.0375708,0.000530986,-0.000441298,0.0828892,-25.5879,1.93696,26.3797,0.893246,2.98638,-0.0163725,-0.867407,-0.349363,-0.096873,0.302208,-0.367634,-0.263888,-0.162251,-0.0881273,-0.381159,-0.197537,-0.0873681,-0.262812,-0.0415901,
0.0136428,-0.196736,-0.333794,-1.66363,-0.0914223,-0.098024,-0.383607,-0.00521751,-0.00065187,-0.00583122,0.00117559,0.292306,-0.19133,0.000558949,0,0,0,0,0,0,0,0.0139607,-0.196868,-0.333482,-1.66376,-0.0998748,1.47826,0.401777,-0.00190328,0.00442239,-0.00011453,0.00189599,0.0375708,0.000530986,-0.000441298,0.0828892,-25.5879,1.93696,26.3797,0.893246,2.98638,-0.0163725,-0.912696,-0.47398,-0.110087,0.475934,-0.409769,-0.327822,-0.218122,-0.117552,-0.476388,-0.20985,-0.0151861,-0.275865,-0.0409844,
0.0136258,-0.19674,-0.333814,-1.66362,-0.0902295,-0.098809,-0.383605,-0.0042476,-0.000927386,-0.00482821,0.000681836,0.298188,-0.196252,0.000541692,0,0,0,0,0,0,0,0.0139607,-0.196868,-0.333482,-1.66376,-0.0998748,1.47826,0.401777,-0.00190328,0.00442239,-0.00011453,0.00189599,0.0375708,0.000530986,-0.000441298,0.0828892,-25.5879,1.93696,26.3797,0.893246,2.98638,-0.0163725,-0.912696,-0.47398,-0.110087,0.475934,-0.409769,-0.327822,-0.218122,-0.117552,-0.476388,-0.20985,-0.0151861,-0.275865,-0.0409844,
0.0136125,-0.196744,-0.333829,-1.66362,-0.0890183,-0.0996096,-0.383603,-0.0033411,-0.0011033,-0.0038753,0.000265335,0.302813,-0.200131,0.0005226,0,0,0,0,0,0,0,0.0139179,-0.196838,-0.333547,-1.66372,-0.0965539,1.47822,0.401776,-0.00056835,-0.00123596,-0.000548912,0.000726593,0.111343,-0.00169993,-0.000850905,0.360599,-25.8339,2.21467,26.3043,1.18621,2.9406,-0.0163725,-1.03036,-0.299413,0.0388884,0.380889,-0.57435,-0.268277,-0.153938,-0.242749,-0.414319,-0.140433,0.0501453,-0.278,-0.0419061,
0.0136024,-0.196749,-0.333841,-1.66362,-0.0877926,-0.100422,-0.383601,-0.00250384,-0.00120138,-0.00298451,-8.71249e-05,0.306421,-0.203143,0.000502684,0,0,0,0,0,0,0,0.0139179,-0.196838,-0.333547,-1.66372,-0.0965539,1.47822,0.401776,-0.00056835,-0.00123596,-0.000548912,0.000726593,0.111343,-0.00169993,-0.000850905,0.360599,-25.8339,2.21467,26.3043,1.18621,2.9406,-0.0163725,-1.03036,-0.299413,0.0388884,0.380889,-0.57435,-0.268277,-0.153938,-0.242749,-0.414319,-0.140433,0.0501453,-0.278,-0.0419061,
0.0135955,-0.196754,-0.33385,-1.66363,-0.0865558,-0.101244,-0.383599,-0.00173732,-0.00123967,-0.00216141,-0.00038604,0.309196,-0.205433,0.000482779,0,0,0,0,0,0,0,0.0139179,-0.196838,-0.333547,-1.66372,-0.0965539,1.47822,0.401776,-0.00056835,-0.00123596,-0.000548912,0.000726593,0.111343,-0.00169993,-0.000850905,0.360599,-25.8339,2.21467,26.3043,1.18621,2.9406,-0.0163725,-0.826568,-0.0890697,-0.0561157,0.330609,-0.387272,-0.13586,-0.0214168,-0.123809,-0.288648,-0.22362,0.147584,-0.302728,-0.0430845,
0.0135913,-0.196759,-0.333855,-1.66363,-0.0853107,-0.102072,-0.383597,-0.00104025,-0.00123295,-0.00140734,-0.000639794,0.311283,-0.207123,0.000463301,0,0,0,0,0,0,0,0.0139179,-0.196838,-0.333547,-1.66372,-0.0965539,1.47822,0.401776,-0.00056835,-0.00123596,-0.000548912,0.000726593,0.111343,-0.00169993,-0.000850905,0.360599,-25.8339,2.21467,26.3043,1.18621,2.9406,-0.0163725,-0.582599,0.0892834,0.071771,0.27325,-0.249356,-0.0124065,0.10352,-0.0672866,-0.169345,-0.230782,0.245245,-0.329899,-0.0430839,
0.0135897,-0.196764,-0.333858,-1.66363,-0.0840595,-0.102906,-0.383595,-0.000409656,-0.00119315,-0.000720955,-0.000855176,0.312799,-0.208316,0.000444564,0,0,0,0,0,0,0,0.0139179,-0.196838,-0.333547,-1.66372,-0.0965539,1.47822,0.401776,-0.00056835,-0.00123596,-0.000548912,0.000726593,0.111343,-0.00169993,-0.000850905,0.360599,-25.8339,2.21467,26.3043,1.18621,2.9406,-0.0163725,-0.582599,0.0892834,0.071771,0.27325,-0.249356,-0.0124065,0.10352,-0.0672866,-0.169345,-0.230782,0.245245,-0.329899,-0.0430839,
0.0135903,-0.196768,-0.333859,-1.66364,-0.0828041,-0.103742,-0.383594,0.000158446,-0.0011299,-9.9259e-05,-0.00103774,0.313835,-0.209097,0.000426801,0,0,0,0,0,0,0,0.0139111,-0.196848,-0.333565,-1.6637,-0.0928884,1.47798,0.401782,0.000753177,0.00070073,0.00032559,-0.00283488,0.119108,-0.00231728,1.10072e-05,0.412174,-25.6871,2.28609,26.106,1.46087,2.70165,-0.0429228,-0.633384,0.119724,0.164023,0.29074,-0.314486,-0.00826833,0.111448,-0.116155,-0.173697,-0.214626,0.293919,-0.355217,-0.0424434,
0.013593,-0.196773,-0.333857,-1.66364,-0.0815462,-0.10458,-0.383592,0.000668506,-0.00105078,0.000461683,-0.00119207,0.314467,-0.209538,0.000409962,0,0,0,0,0,0,0,0.0139111,-0.196848,-0.333565,-1.6637,-0.0928884,1.47798,0.401782,0.000753177,0.00070073,0.00032559,-0.00283488,0.119108,-0.00231728,1.10072e-05,0.412174,-25.6871,2.28609,26.106,1.46087,2.70165,-0.0429228,-0.633384,0.119724,0.164023,0.29074,-0.314486,-0.00826833,0.111448,-0.116155,-0.173697,-0.214626,0.293919,-0.355217,-0.0424434,
0.0135975,-0.196776,-0.333853,-1.66365,-0.0802872,-0.105419,-0.38359,0.00112516,-0.000961781,0.000966266,-0.00132197,0.314757,-0.209696,0.000394135,0,0,0,0,0,0,0,0.0139111,-0.196848,-0.333565,-1.6637,-0.0928884,1.47798,0.401782,0.000753177,0.00070073,0.00032559,-0.00283488,0.119108,-0.00231728,1.10072e-05,0.412174,-25.6871,2.28609,26.106,1.46087,2.70165,-0.0429228,-0.60751,0.28309,0.126711,0.261022,-0.263041,0.0687061,0.184975,-0.0734328,-0.100169,-0.275153,0.376673,-0.400454,-0.0420276,
0.0136036,-0.19678,-0.333847,-1.66365,-0.0790282,-0.106257,-0.383589,0.00153301,-0.000867536,0.00141904,-0.00143066,0.314754,-0.209621,0.00037934,0,0,0,0,0,0,0,0.0139111,-0.196848,-0.333565,-1.6637,-0.0928884,1.47798,0.401782,0.000753177,0.00070073,0.00032559,-0.00283488,0.119108,-0.00231728,1.10072e-05,0.412174,-25.6871,2.28609,26.106,1.46087,2.70165,-0.0429228,-0.937041,0.0737798,0.278397,0.418228,-0.55207,-0.0858802,0.0283077,-0.253826,-0.266561,-0.206953,0.383933,-0.428107,-0.0414158,
0.0136112,-0.196783,-0.33384,-1.66366,-0.0777702,-0.107095,-0.383587,0.00189648,-0.000771588,0.0018245,-0.00152085,0.314501,-0.209353,0.000365567,0,0,0,0,0,0,0,0.0139111,-0.196848,-0.333565,-1.6637,-0.0928884,1.47798,0.401782,0.000753177,0.00070073,0.00032559,-0.00283488,0.119108,-0.00231728,1.10072e-05,0.412174,-25.6871,2.28609,26.106,1.46087,2.70165,-0.0429228,-0.937041,0.0737798,0.278397,0.418228,-0.55207,-0.0858802,0.0283077,-0.253826,-0.266561,-0.206953,0.383933,-0.428107,-0.0414158,
0.0136201,-0.196786,-0.333831,-1.66366,-0.0765141,-0.107931,-0.383586,0.00221977,-0.000676593,0.00218699,-0.00159487,0.314034,-0.208925,0.000352795,0,0,0,0,0,0,0,0.0139111,-0.196848,-0.333565,-1.6637,-0.0928884,1.47798,0.401782,0.000753177,0.00070073,0.00032559,-0.00283488,0.119108,-0.00231728,1.10072e-05,0.412174,-25.6871,2.28609,26.106,1.46087,2.70165,-0.0429228,-0.574773,0.0097861,0.243884,0.513867,-0.239697,-0.0512056,0.0553106,-0.0626379,-0.241045,-0.294525,0.418495,-0.458367,-0.0418612,
0.0136301,-0.196788,-0.333821,-1.66367,-0.0752605,-0.108764,-0.383585,0.00250676,-0.000584505,0.00251058,-0.00165471,0.313381,-0.208366,0.000340851,0,0,0,0,0,0,0,0.0139519,-0.196854,-0.333522,-1.66368,-0.0885298,1.47783,0.401781,0.00501633,0.00628985,0.000493404,-0.00285216,0.144028,0.000590539,0.000703756,-0.0440639,-25.6117,1.88936,26.106,1.22833,2.63482,-0.0566557,-0.574773,0.0097861,0.243884,0.513867,-0.239697,-0.0512056,0.0553106,-0.0626379,-0.241045,-0.294525,0.418495,-0.458367,-0.0418612,
0.0136412,-0.19679,-0.33381,-1.66368,-0.0740103,-0.109595,-0.383583,0.00276108,-0.000496712,0.00279908,-0.00170208,0.312568,-0.207697,0.000329675,0,0,0,0,0,0,0,0.0139519,-0.196854,-0.333522,-1.66368,-0.0885298,1.47783,0.401781,0.00501633,0.00628985,0.000493404,-0.00285216,0.144028,0.000590539,0.000703756,-0.0440639,-25.6117,1.88936,26.106,1.22833,2.63482,-0.0566557,-0.668929,0.138488,0.430114,0.429965,-0.36361,-0.0113729,0.0839651,-0.153895,-0.184234,-0.242789,0.45692,-0.488803,-0.0420825,
0.0136531,-0.196792,-0.333798,-1.66368,-0.0727638,-0.110423,-0.383582,0.00298602,-0.000414165,0.003056,-0.00173847,0.311616,-0.206937,0.000319281,0,0,0,0,0,0,0,0.0139519,-0.196854,-0.333522,-1.66368,-0.0885298,1.47783,0.401781,0.00501633,0.00628985,0.000493404,-0.00285216,0.144028,0.000590539,0.000703756,-0.0440639,-25.6117,1.88936,26.106,1.22833,2.63482,-0.0566557,-0.668929,0.138488,0.430114,0.429965,-0.36361,-0.0113729,0.0839651,-0.153895,-0.184234,-0.242789,0.45692,-0.488803,-0.0420825,
0.0136659,-0.196793,-0.333785,-1.66369,-0.0715216,-0.111247,-0.383581,0.00318459,-0.00033746,0.00328453,-0.00176518,0.310543,-0.206103,0.00030967,0,0,0,0,0,0,0,0.0139519,-0.196854,-0.333522,-1.66368,-0.0885298,1.47783,0.401781,0.00501633,0.00628985,0.000493404,-0.00285216,0.144028,0.000590539,0.000703756,-0.0440639,-25.6117,1.88936,26.106,1.22833,2.63482,-0.0566557,-0.362483,0.0277624,0.347145,0.508273,-0.084179,-0.00802186,0.0767743,0.0235978,-0.180536,-0.316225,0.436316,-0.492801,-0.0419213,
0.0136793,-0.196794,-0.333771,-1.6637,-0.0702842,-0.112068,-0.38358,0.00335953,-0.000266936,0.0034876,-0.00178335,0.309365,-0.205207,0.000300624,0,0,0,0,0,0,0,0.0139519,-0.196854,-0.333522,-1.66368,-0.0885298,1.47783,0.401781,0.00501633,0.00628985,0.000493404,-0.00285216,0.144028,0.000590539,0.000703756,-0.0440639,-25.6117,1.88936,26.106,1.22833,2.63482,-0.0566557,-0.371922,0.0172074,0.364408,0.511748,-0.0683055,-0.0161991,0.057113,0.0433851,-0.178882,-0.336064,0.426847,-0.52004,-0.0415384,
0.0136934,-0.196795,-0.333756,-1.66371,-0.0690518,-0.112885,-0.383578,0.00351329,-0.000202715,0.00366785,-0.00179396,0.308096,-0.20426,0.000292169,0,0,0,0,0,0,0,0.0139599,-0.196863,-0.333502,-1.66366,-0.0835369,1.47768,0.401786,0.000244113,0.000178777,-0.00146646,0.000500913,0.157208,0.000324364,0.00135385,-0.0202602,-25.5126,1.93696,26.0068,0.953671,2.73461,-0.0703886,-0.371922,0.0172074,0.364408,0.511748,-0.0683055,-0.0161991,0.057113,0.0433851,-0.178882,-0.336064,0.426847,-0.52004,-0.0415384,
0.0136997,-0.196688,-0.333673,-1.66342,-0.0955557,-0.096173,-0.383591,-0.0259469,0.0108459,-0.0217721,0.0323788,0.52282,-0.410118,0.00333811,0,0,0,0,0,0,0,0.0139599,-0.196863,-0.333502,-1.66366,-0.0835369,1.47768,0.401786,0.000244113,0.000178777,-0.00146646,0.000500913,0.157208,0.000324364,0.00135385,-0.0202602,-25.5126,1.93696,26.0068,0.953671,2.73461,-0.0703886,-0.824783,-0.00215277,0.642314,0.457062,-0.507416,-0.106128,-0.0382993,-0.243709,-0.249753,-0.182736,0.395181,-0.525365,-0.041028,
0.0137246,-0.196738,-0.33367,-1.66327,-0.0777934,-0.0965687,-0.383581,-0.0211356,0.00697552,-0.0176088,0.0309445,0.599002,-0.38873,0.00320476,0,0,0,0,0,0,0,0.0139599,-0.196863,-0.333502,-1.66366,-0.0835369,1.47768,0.401786,0.000244113,0.000178777,-0.00146646,0.000500913,0.157208,0.000324364,0.00135385,-0.0202602,-25.5126,1.93696,26.0068,0.953671,2.73461,-0.0703886,-0.824783,-0.00215277,0.642314,0.457062,-0.507416,-0.106128,-0.0382993,-0.243709,-0.249753,-0.182736,0.395181,-0.525365,-0.041028,
0.0136462,-0.196729,-0.33374,-1.66317,-0.0750542,-0.0984066,-0.383568,-0.0196125,0.00226887,-0.0175289,0.0248096,0.684797,-0.45947,0.00347192,0,0,0,0,0,0,0,0.0139599,-0.196863,-0.333502,-1.66366,-0.0835369,1.47768,0.401786,0.000244113,0.000178777,-0.00146646,0.000500913,0.157208,0.000324364,0.00135385,-0.0202602,-25.5126,1.93696,26.0068,0.953671,2.73461,-0.0703886,-0.635433,-0.193991,0.386457,0.615774,-0.237756,-0.158677,-0.0960364,-0.0380731,-0.315926,-0.321168,0.359509,-0.543315,-0.0414797,
0.0135778,-0.196735,-0.333804,-1.66309,-0.0720429,-0.100468,-0.383553,-0.0170986,-0.00160628,-0.0159585,0.0188986,0.752825,-0.515343,0.00361029,0,0,0,0,0,0,0,0.0139599,-0.196863,-0.333502,-1.66366,-0.0835369,1.47768,0.401786,0.000244113,0.000178777,-0.00146646,0.000500913,0.157208,0.000324364,0.00135385,-0.0202602,-25.5126,1.93696,26.0068,0.953671,2.73461,-0.0703886,-0.537753,-0.235126,0.623688,0.603308,-0.240545,-0.161151,-0.104818,-0.0726381,-0.307758,-0.250424,0.349228,-0.548908,-0.0404097,
0.0135215,-0.196753,-0.333858,-1.66304,-0.0688137,-0.102706,-0.383538,-0.0140716,-0.00450996,-0.013511,0.0137156,0.807305,-0.55951,0.00367181,0,0,0,0,0,0,0,0.0139599,-0.196863,-0.333502,-1.66366,-0.0835369,1.47768,0.401786,0.000244113,0.000178777,-0.00146646,0.000500913,0.157208,0.000324364,0.00135385,-0.0202602,-25.5126,1.93696,26.0068,0.953671,2.73461,-0.0703886,-0.537753,-0.235126,0.623688,0.603308,-0.240545,-0.161151,-0.104818,-0.0726381,-0.307758,-0.250424,0.349228,-0.548908,-0.0404097,
0.0134782,-0.196779,-0.3339,-1.663,-0.0654084,-0.105083,-0.383524,-0.0108241,-0.00653942,-0.0105882,0.00930869,0.851315,-0.59421,0.00368478,0,0,0,0,0,0,0,0.0139514,-0.196822,-0.333503,-1.66358,-0.0778087,1.47727,0.40178,-0.00121172,0.00139217,-0.000500377,0.00959265,0.22759,-0.031624,-0.00137921,-0.0202602,-25.9847,1.86159,26.4551,1.11847,2.70806,-0.0163725,-0.400556,-0.761501,0.901291,0.919372,-0.213058,-0.372109,-0.316383,-0.0926907,-0.541584,-0.174622,0.290476,-0.555514,-0.0420858,
0.013448,-0.196811,-0.33393,-1.66298,-0.0618598,-0.107568,-0.383509,-0.00753962,-0.00784828,-0.00745428,0.00559788,0.88714,-0.62118,0.00366632,0,0,0,0,0,0,0,0.0139514,-0.196822,-0.333503,-1.66358,-0.0778087,1.47727,0.40178,-0.00121172,0.00139217,-0.000500377,0.00959265,0.22759,-0.031624,-0.00137921,-0.0202602,-25.9847,1.86159,26.4551,1.11847,2.70806,-0.0163725,-0.400556,-0.761501,0.901291,0.919372,-0.213058,-0.372109,-0.316383,-0.0926907,-0.541584,-0.174622,0.290476,-0.555514,-0.0420858,
0.0134307,-0.196845,-0.333947,-1.66297,-0.0581938,-0.110135,-0.383495,-0.00433308,-0.00858788,-0.00428156,0.00247998,0.9165,-0.641819,0.00362679,0,0,0,0,0,0,0,0.0139514,-0.196822,-0.333503,-1.66358,-0.0778087,1.47727,0.40178,-0.00121172,0.00139217,-0.000500377,0.00959265,0.22759,-0.031624,-0.00137921,-0.0202602,-25.9847,1.86159,26.4551,1.11847,2.70806,-0.0163725,-0.0193508,-0.836104,1.30588,0.993253,-0.0682861,-0.334425,-0.267898,-0.0762462,-0.523495,-0.0925134,0.362113,-0.577876,-0.0424679,
0.0134256,-0.196881,-0.333952,-1.66297,-0.054431,-0.112764,-0.38348,-0.00127445,-0.0088902,-0.00118002,-0.000140706,0.940704,-0.657273,0.00357388,0,0,0,0,0,0,0,0.0139514,-0.196822,-0.333503,-1.66358,-0.0778087,1.47727,0.40178,-0.00121172,0.00139217,-0.000500377,0.00959265,0.22759,-0.031624,-0.00137921,-0.0202602,-25.9847,1.86159,26.4551,1.11847,2.70806,-0.0163725,-0.517067,-0.923408,1.6623,1.11339,-0.529448,-0.457311,-0.365943,-0.374553,-0.682077,0.0138164,0.438366,-0.664911,-0.0411969,
0.013432,-0.196916,-0.333945,-1.66298,-0.050588,-0.115438,-0.383466,0.00159624,-0.00886483,0.00178264,-0.00234546,0.960753,-0.668483,0.00351233,0,0,0,0,0,0,0,0.0139514,-0.196822,-0.333503,-1.66358,-0.0778087,1.47727,0.40178,-0.00121172,0.00139217,-0.000500377,0.00959265,0.22759,-0.031624,-0.00137921,-0.0202602,-25.9847,1.86159,26.4551,1.11847,2.70806,-0.0163725,-0.517067,-0.923408,1.6623,1.11339,-0.529448,-0.457311,-0.365943,-0.374553,-0.682077,0.0138164,0.438366,-0.664911,-0.0411969,
0.013449,-0.19695,-0.333926,-1.66299,-0.0466783,-0.118143,-0.383452,0.00425895,-0.00860052,0.00456736,-0.0042015,0.977427,-0.676225,0.00344589,0,0,0,0,0,0,0,0.0137862,-0.196758,-0.33373,-1.66338,-0.066357,1.47543,0.401782,-0.00643709,0.000735865,-0.0139941,0.0115618,0.456568,-0.0854942,-0.000364158,0.892215,-26.06,2.6114,25.8798,1.88202,2.05163,-0.0301054,-0.262482,-0.704703,1.57213,1.08266,-0.252113,-0.306999,-0.201916,-0.183408,-0.554937,-0.13233,0.542843,-0.748317,-0.0412664,
0.0134759,-0.196983,-0.333898,-1.66302,-0.042713,-0.120867,-0.383439,0.00670685,-0.00816791,0.00715442,-0.00576392,0.991333,-0.681135,0.00337733,0,0,0,0,0,0,0,0.0137862,-0.196758,-0.33373,-1.66338,-0.066357,1.47543,0.401782,-0.00643709,0.000735865,-0.0139941,0.0115618,0.456568,-0.0854942,-0.000364158,0.892215,-26.06,2.6114,25.8798,1.88202,2.05163,-0.0301054,-0.262482,-0.704703,1.57213,1.08266,-0.252113,-0.306999,-0.201916,-0.183408,-0.554937,-0.13233,0.542843,-0.748317,-0.0412664,
0.0135116,-0.197014,-0.33386,-1.66304,-0.0387012,-0.123602,-0.383426,0.00894176,-0.00762254,0.00953692,-0.00707802,1.00295,-0.683736,0.00330777,0,0,0,0,0,0,0,0.0137862,-0.196758,-0.33373,-1.66338,-0.066357,1.47543,0.401782,-0.00643709,0.000735865,-0.0139941,0.0115618,0.456568,-0.0854942,-0.000364158,0.892215,-26.06,2.6114,25.8798,1.88202,2.05163,-0.0301054,-0.278023,-0.444246,1.88956,0.938912,-0.348277,-0.18761,-0.0781217,-0.27388,-0.430294,-0.0740085,0.634175,-0.8128,-0.0394667,
0.0135555,-0.197042,-0.333813,-1.66308,-0.0346505,-0.12634,-0.383413,0.0109709,-0.00700754,0.0117164,-0.00818125,1.01267,-0.684458,0.00323877,0,0,0,0,0,0,0,0.0137862,-0.196758,-0.33373,-1.66338,-0.066357,1.47543,0.401782,-0.00643709,0.000735865,-0.0139941,0.0115618,0.456568,-0.0854942,-0.000364158,0.892215,-26.06,2.6114,25.8798,1.88202,2.05163,-0.0301054,-0.278023,-0.444246,1.88956,0.938912,-0.348277,-0.18761,-0.0781217,-0.27388,-0.430294,-0.0740085,0.634175,-0.8128,-0.0394667,
0.0136067,-0.197067,-0.333758,-1.66311,-0.0305674,-0.129075,-0.3834,0.012805,-0.00635585,0.0136996,-0.00910453,1.02078,-0.683653,0.00317085,0,0,0,0,0,0,0,0.0137862,-0.196758,-0.33373,-1.66338,-0.066357,1.47543,0.401782,-0.00643709,0.000735865,-0.0139941,0.0115618,0.456568,-0.0854942,-0.000364158,0.892215,-26.06,2.6114,25.8798,1.88202,2.05163,-0.0301054,-0.335197,-0.224636,2.09593,0.824642,-0.455535,-0.092656,0.0267861,-0.362162,-0.337409,-0.0280694,0.712654,-0.85285,-0.0382421,
0.0136646,-0.19709,-0.333696,-1.66315,-0.0264572,-0.131801,-0.383388,0.0144562,-0.00569234,0.0154965,-0.00987374,1.02755,-0.681608,0.00310474,0,0,0,0,0,0,0,0.0132759,-0.196798,-0.334253,-1.66317,-0.0411985,1.46925,0.401784,-0.0118486,0.00108802,-0.0156383,0.00528344,0.618827,-0.179667,0.000744738,1.2215,-25.5879,2.98829,25.5823,2.10815,1.8731,-0.050247,-0.0559096,0.460077,1.81716,0.511447,-0.109559,0.273058,0.401416,-0.108648,0.0297939,-0.240522,0.876017,-0.934625,-0.0374415,
0.0137283,-0.19711,-0.333628,-1.6632,-0.0223244,-0.134515,-0.383375,0.0159379,-0.00503537,0.0171191,-0.0105106,1.03318,-0.67856,0.00304016,0,0,0,0,0,0,0,0.0132759,-0.196798,-0.334253,-1.66317,-0.0411985,1.46925,0.401784,-0.0118486,0.00108802,-0.0156383,0.00528344,0.618827,-0.179667,0.000744738,1.2215,-25.5879,2.98829,25.5823,2.10815,1.8731,-0.050247,-0.0559096,0.460077,1.81716,0.511447,-0.109559,0.273058,0.401416,-0.108648,0.0297939,-0.240522,0.876017,-0.934625,-0.0374415,
0.0137974,-0.197128,-0.333553,-1.66324,-0.0181731,-0.137214,-0.383364,0.0172633,-0.00439819,0.0185798,-0.0110333,1.03783,-0.674702,0.00297819,0,0,0,0,0,0,0,0.0132759,-0.196798,-0.334253,-1.66317,-0.0411985,1.46925,0.401784,-0.0118486,0.00108802,-0.0156383,0.00528344,0.618827,-0.179667,0.000744738,1.2215,-25.5879,2.98829,25.5823,2.10815,1.8731,-0.050247,-0.402775,0.653133,1.88623,0.445863,-0.372919,0.304456,0.445359,-0.257281,0.0506189,-0.230406,0.954479,-0.994417,-0.034948,
0.0138711,-0.197143,-0.333474,-1.66329,-0.0140066,-0.139895,-0.383352,0.0184457,-0.00379004,0.0198913,-0.0114574,1.04164,-0.670193,0.00291829,0,0,0,0,0,0,0,0.0132759,-0.196798,-0.334253,-1.66317,-0.0411985,1.46925,0.401784,-0.0118486,0.00108802,-0.0156383,0.00528344,0.618827,-0.179667,0.000744738,1.2215,-25.5879,2.98829,25.5823,2.10815,1.8731,-0.050247,-0.402775,0.653133,1.88623,0.445863,-0.372919,0.304456,0.445359,-0.257281,0.0506189,-0.230406,0.954479,-0.994417,-0.034948,
0.0139491,-0.197156,-0.333389,-1.66333,-0.00982768,-0.142556,-0.38334,0.0194975,-0.003217,0.0210663,-0.0117961,1.04473,-0.665163,0.00286051,0,0,0,0,0,0,0,0.0132759,-0.196798,-0.334253,-1.66317,-0.0411985,1.46925,0.401784,-0.0118486,0.00108802,-0.0156383,0.00528344,0.618827,-0.179667,0.000744738,1.2215,-25.5879,2.98829,25.5823,2.10815,1.8731,-0.050247,-0.459676,0.192539,1.77851,0.806656,-0.341515,0.0945366,0.25108,-0.210577,-0.209072,-0.298458,0.925411,-1.02329,-0.0340332,
0.0140309,-0.197166,-0.333301,-1.66338,-0.0056389,-0.145195,-0.383329,0.0204305,-0.00268278,0.0221167,-0.0120606,1.0472,-0.659718,0.00280497,0,0,0,0,0,0,0,0.0132759,-0.196798,-0.334253,-1.66317,-0.0411985,1.46925,0.401784,-0.0118486,0.00108802,-0.0156383,0.00528344,0.618827,-0.179667,0.000744738,1.2215,-25.5879,2.98829,25.5823,2.10815,1.8731,-0.050247,-0.459676,0.192539,1.77851,0.806656,-0.341515,0.0945366,0.25108,-0.210577,-0.209072,-0.298458,0.925411,-1.02329,-0.0340332,
0.0141159,-0.197175,-0.333209,-1.66343,-0.00144241,-0.14781,-0.383318,0.021256,-0.00218929,0.0230537,-0.0122607,1.04912,-0.653946,0.00275125,0,0,0,0,0,0,0,0.0130358,-0.196839,-0.334492,-1.66306,-0.0202111,1.46244,0.401782,-0.00641165,-0.00222521,-0.0119978,-0.000340796,0.676918,-0.236362,-0.000332182,1.40003,-25.1357,3.08748,25.5585,1.93145,2.02508,-0.0301054,-0.125741,0.615552,1.86695,0.528276,-0.128357,0.352421,0.513741,-0.107211,0.0662737,-0.309802,0.993317,-1.03219,-0.0343212,
0.0142038,-0.197182,-0.333113,-1.66348,0.00275992,-0.150402,-0.383307,0.021984,-0.00173702,0.0238879,-0.0124047,1.05058,-0.647917,0.00269939,0,0,0,0,0,0,0,0.0130358,-0.196839,-0.334492,-1.66306,-0.0202111,1.46244,0.401782,-0.00641165,-0.00222521,-0.0119978,-0.000340796,0.676918,-0.236362,-0.000332182,1.40003,-25.1357,3.08748,25.5585,1.93145,2.02508,-0.0301054,-0.438464,0.401243,2.05375,0.642569,-0.418253,0.207752,0.377635,-0.294061,-0.0908666,-0.217585,0.960662,-1.04419,-0.0324146,
0.0142943,-0.197187,-0.333015,-1.66353,0.00696644,-0.152969,-0.383297,0.022624,-0.00132553,0.0246291,-0.0124999,1.05163,-0.641691,0.00264953,0,0,0,0,0,0,0,0.0130358,-0.196839,-0.334492,-1.66306,-0.0202111,1.46244,0.401782,-0.00641165,-0.00222521,-0.0119978,-0.000340796,0.676918,-0.236362,-0.000332182,1.40003,-25.1357,3.08748,25.5585,1.93145,2.02508,-0.0301054,-0.438464,0.401243,2.05375,0.642569,-0.418253,0.207752,0.377635,-0.294061,-0.0908666,-0.217585,0.960662,-1.04419,-0.0324146,
0.014387,-0.197191,-0.332914,-1.66358,0.0111757,-0.15551,-0.383286,0.0231846,-0.000953584,0.0252861,-0.0125527,1.05232,-0.635315,0.00260142,0,0,0,0,0,0,0,0.0130358,-0.196839,-0.334492,-1.66306,-0.0202111,1.46244,0.401782,-0.00641165,-0.00222521,-0.0119978,-0.000340796,0.676918,-0.236362,-0.000332182,1.40003,-25.1357,3.08748,25.5585,1.93145,2.02508,-0.0301054,-0.0483579,0.20995,1.85908,0.758251,-0.0254132,0.196891,0.369164,-0.0319308,-0.11432,-0.338076,0.896043,-1.04201,-0.031848,
0.0144817,-0.197194,-0.33281,-1.66363,0.0153865,-0.158025,-0.383276,0.0236737,-0.000619511,0.0258673,-0.0125686,1.0527,-0.628827,0.00255447,0,0,0,0,0,0,0,0.0130358,-0.196839,-0.334492,-1.66306,-0.0202111,1.46244,0.401782,-0.00641165,-0.00222521,-0.0119978,-0.000340796,0.676918,-0.236362,-0.000332182,1.40003,-25.1357,3.08748,25.5585,1.93145,2.02508,-0.0301054,-0.0483579,0.20995,1.85908,0.758251,-0.0254132,0.196891,0.369164,-0.0319308,-0.11432,-0.338076,0.896043,-1.04201,-0.031848,
0.0145781,-0.197195,-0.332705,-1.66368,0.0195978,-0.160514,-0.383266,0.0240984,-0.000321266,0.02638,-0.0125524,1.05281,-0.622259,0.00250929,0,0,0,0,0,0,0,0.0129957,-0.196848,-0.334547,-1.66303,0.00329177,1.45384,0.40178,0.00166631,-0.000593342,0.000733056,0.00128983,0.764759,-0.294846,-0.000785363,1.07074,-25.1357,2.88911,25.4831,1.35742,2.21734,-0.0163725,-0.101986,-0.0712561,1.74175,0.887255,-0.00822826,0.0666216,0.238264,0.00272973,-0.248537,-0.359958,0.788665,-1.02194,-0.0307416,
0.0146277,-0.19698,-0.332759,-1.66354,-0.0794526,-0.098586,-0.383466,0.0788786,-0.0164463,0.0890214,0.00309198,0.425743,-0.631623,0.0120598,0,0,0,0,0,0,0,0.0129957,-0.196848,-0.334547,-1.66303,0.00329177,1.45384,0.40178,0.00166631,-0.000593342,0.000733056,0.00128983,0.764759,-0.294846,-0.000785363,1.07074,-25.1357,2.88911,25.4831,1.35742,2.21734,-0.0163725,-0.508507,-0.273657,1.72039,0.904119,-0.307069,-0.0903138,0.0733726,-0.159569,-0.385358,-0.284678,0.64994,-0.983849,-0.0312566,
0.0138869,-0.197058,-0.333628,-1.6631,0.011968,-0.124559,-0.383463,0.100117,-0.0228292,0.10815,-0.0127054,0.724286,-0.768145,0.0124418,0,0,0,0,0,0,0,0.0129957,-0.196848,-0.334547,-1.66303,0.00329177,1.45384,0.40178,0.00166631,-0.000593342,0.000733056,0.00128983,0.764759,-0.294846,-0.000785363,1.07074,-25.1357,2.88911,25.4831,1.35742,2.21734,-0.0163725,-0.508507,-0.273657,1.72039,0.904119,-0.307069,-0.0903138,0.0733726,-0.159569,-0.385358,-0.284678,0.64994,-0.983849,-0.0312566,
0.0143644,-0.197157,-0.333103,-1.66318,0.0149325,-0.12804,-0.383416,0.119368,-0.0247637,0.131212,-0.0199341,0.741123,-0.870286,0.011824,0,0,0,0,0,0,0,0.0129957,-0.196848,-0.334547,-1.66303,0.00329177,1.45384,0.40178,0.00166631,-0.000593342,0.000733056,0.00128983,0.764759,-0.294846,-0.000785363,1.07074,-25.1357,2.88911,25.4831,1.35742,2.21734,-0.0163725,-0.411665,-0.176368,1.53013,0.791497,-0.178624,-0.0273797,0.117624,-0.0611088,-0.292363,-0.330451,0.597708,-0.948051,-0.0316474,
0.014905,-0.197257,-0.332504,-1.66329,0.0179865,-0.131856,-0.383371,0.135151,-0.0248835,0.149797,-0.0268417,0.763503,-0.954019,0.011313,0,0,0,0,0,0,0,0.0129957,-0.196848,-0.334547,-1.66303,0.00329177,1.45384,0.40178,0.00166631,-0.000593342,0.000733056,0.00128983,0.764759,-0.294846,-0.000785363,1.07074,-25.1357,2.88911,25.4831,1.35742,2.21734,-0.0163725,-0.411665,-0.176368,1.53013,0.791497,-0.178624,-0.0273797,0.117624,-0.0611088,-0.292363,-0.330451,0.597708,-0.948051,-0.0316474,
0.015498,-0.197351,-0.331844,-1.66342,0.0211404,-0.135948,-0.383327,0.148235,-0.0237062,0.164964,-0.0332389,0.78846,-1.02285,0.0108851,0,0,0,0,0,0,0,0.0129957,-0.196848,-0.334547,-1.66303,0.00329177,1.45384,0.40178,0.00166631,-0.000593342,0.000733056,0.00128983,0.764759,-0.294846,-0.000785363,1.07074,-25.1357,2.88911,25.4831,1.35742,2.21734,-0.0163725,-0.977753,-0.706104,1.41754,1.09237,-0.575106,-0.371253,-0.223799,-0.270955,-0.655547,-0.26963,0.47105,-0.903848,-0.0228,
0.0161347,-0.197438,-0.331134,-1.66357,0.0243966,-0.140266,-0.383285,0.159184,-0.0216388,0.177485,-0.0390539,0.814066,-1.07952,0.0105161,0,0,0,0,0,0,0,0.013316,-0.196812,-0.334138,-1.6631,0.0256551,1.4445,0.401784,0.0252762,0.000513793,0.0422809,0.00104033,0.57026,-0.293908,-0.000299969,0.919986,-25.6593,2.96449,25.983,1.02142,2.21093,-0.0227812,-0.977753,-0.706104,1.41754,1.09237,-0.575106,-0.371253,-0.223799,-0.270955,-0.655547,-0.26963,0.47105,-0.903848,-0.0228,
0.0168084,-0.197514,-0.330382,-1.66375,0.0277531,-0.144771,-0.383244,0.16842,-0.0189912,0.187924,-0.044271,0.839112,-1.12624,0.0101923,0,0,0,0,0,0,0,0.013316,-0.196812,-0.334138,-1.6631,0.0256551,1.4445,0.401784,0.0252762,0.000513793,0.0422809,0.00104033,0.57026,-0.293908,-0.000299969,0.919986,-25.6593,2.96449,25.983,1.02142,2.21093,-0.0227812,-0.992275,-1.34821,1.2375,1.36934,-0.501267,-0.664671,-0.53418,-0.19208,-0.941545,-0.281372,0.228678,-0.839588,-0.0184742,
0.0175134,-0.197578,-0.329595,-1.66395,0.0312046,-0.14943,-0.383205,0.176259,-0.0159953,0.1967,-0.0489039,0.862872,-1.16478,0.00990087,0,0,0,0,0,0,0,0.013316,-0.196812,-0.334138,-1.6631,0.0256551,1.4445,0.401784,0.0252762,0.000513793,0.0422809,0.00104033,0.57026,-0.293908,-0.000299969,0.919986,-25.6593,2.96449,25.983,1.02142,2.21093,-0.0227812,-0.950776,-1.48549,1.61008,1.23011,-0.63191,-0.71845,-0.618212,-0.332236,-0.932325,-0.0654885,0.0614883,-0.756069,-0.0172239,
0.0182452,-0.197629,-0.328779,-1.66416,0.0347443,-0.154216,-0.383166,0.182941,-0.012822,0.204127,-0.0529818,0.884946,-1.19656,0.00963296,0,0,0,0,0,0,0,0.013316,-0.196812,-0.334138,-1.6631,0.0256551,1.4445,0.401784,0.0252762,0.000513793,0.0422809,0.00104033,0.57026,-0.293908,-0.000299969,0.919986,-25.6593,2.96449,25.983,1.02142,2.21093,-0.0227812,-0.950776,-1.48549,1.61008,1.23011,-0.63191,-0.71845,-0.618212,-0.332236,-0.932325,-0.0654885,0.0614883,-0.756069,-0.0172239,
0.0189998,-0.197668,-0.327937,-1.66439,0.0383649,-0.159107,-0.383129,0.188655,-0.00959616,0.210443,-0.0565427,0.905146,-1.22276,0.00938441,0,0,0,0,0,0,0,0.013316,-0.196812,-0.334138,-1.6631,0.0256551,1.4445,0.401784,0.0252762,0.000513793,0.0422809,0.00104033,0.57026,-0.293908,-0.000299969,0.919986,-25.6593,2.96449,25.983,1.02142,2.21093,-0.0227812,-0.872255,-1.04765,1.67224,0.835832,-0.548359,-0.500347,-0.429793,-0.269633,-0.644866,-0.0777285,0.0139747,-0.789749,-0.0155029,
0.0197741,-0.197696,-0.327073,-1.66463,0.0420588,-0.164035,-0.383092,0.193584,-0.0071903,0.215978,-0.0620658,0.923476,-1.232,0.00921158,0,0,0,0,0,0,0,0.0146051,-0.196871,-0.332495,-1.66302,0.045061,1.43169,0.401783,0.0460378,-0.000474943,0.0574439,-2.72705e-05,0.570291,-0.457219,-0.000338168,2.18555,-25.2626,4.33717,25.011,1.96808,1.5078,-0.0026396,-0.872255,-1.04765,1.67224,0.835832,-0.548359,-0.500347,-0.429793,-0.269633,-0.644866,-0.0777285,0.0139747,-0.789749,-0.0155029,
0.0205655,-0.197715,-0.32619,-1.6649,0.0458186,-0.168961,-0.383056,0.19785,-0.00463855,0.220669,-0.0670789,0.939944,-1.23142,0.00903583,0,0,0,0,0,0,0,0.0146051,-0.196871,-0.332495,-1.66302,0.045061,1.43169,0.401783,0.0460378,-0.000474943,0.0574439,-2.72705e-05,0.570291,-0.457219,-0.000338168,2.18555,-25.2626,4.33717,25.011,1.96808,1.5078,-0.0026396,-0.202572,-0.36721,1.28251,0.446623,0.173221,-0.0693722,-0.0155441,0.232162,-0.177576,-0.379077,0.0832727,-0.87757,-0.0152981,
0.0213716,-0.197722,-0.325292,-1.66519,0.0496369,-0.173859,-0.38302,0.201505,-0.00186677,0.224649,-0.071097,0.954579,-1.22456,0.00885885,0,0,0,0,0,0,0,0.0146051,-0.196871,-0.332495,-1.66302,0.045061,1.43169,0.401783,0.0460378,-0.000474943,0.0574439,-2.72705e-05,0.570291,-0.457219,-0.000338168,2.18555,-25.2626,4.33717,25.011,1.96808,1.5078,-0.0026396,-0.875829,-0.385946,1.38548,0.426982,-0.364301,-0.185314,-0.125973,-0.081336,-0.290014,-0.275549,0.0567916,-0.892352,-0.0142135,
0.02219,-0.197718,-0.32438,-1.66548,0.0535068,-0.178713,-0.382986,0.204619,0.00100382,0.228035,-0.0741701,0.967461,-1.21349,0.00868441,0,0,0,0,0,0,0,0.0146051,-0.196871,-0.332495,-1.66302,0.045061,1.43169,0.401783,0.0460378,-0.000474943,0.0574439,-2.72705e-05,0.570291,-0.457219,-0.000338168,2.18555,-25.2626,4.33717,25.011,1.96808,1.5078,-0.0026396,-0.875829,-0.385946,1.38548,0.426982,-0.364301,-0.185314,-0.125973,-0.081336,-0.290014,-0.275549,0.0567916,-0.892352,-0.0142135,
0.0230191,-0.197703,-0.323456,-1.66579,0.0574216,-0.183511,-0.382951,0.20726,0.00384644,0.230914,-0.0764597,0.978709,-1.19952,0.00851175,0,0,0,0,0,0,0,0.0146051,-0.196871,-0.332495,-1.66302,0.045061,1.43169,0.401783,0.0460378,-0.000474943,0.0574439,-2.72705e-05,0.570291,-0.457219,-0.000338168,2.18555,-25.2626,4.33717,25.011,1.96808,1.5078,-0.0026396,-1.27668,-0.837893,1.19642,0.759394,-0.498093,-0.440552,-0.376435,-0.0850594,-0.57973,-0.390399,-0.0230607,-0.976289,-0.0115674,
0.023857,-0.197677,-0.322523,-1.6661,0.0613755,-0.188245,-0.382918,0.209485,0.00656889,0.233356,-0.078124,0.988463,-1.18353,0.00834414,0,0,0,0,0,0,0,0.0146051,-0.196871,-0.332495,-1.66302,0.045061,1.43169,0.401783,0.0460378,-0.000474943,0.0574439,-2.72705e-05,0.570291,-0.457219,-0.000338168,2.18555,-25.2626,4.33717,25.011,1.96808,1.5078,-0.0026396,-1.27668,-0.837893,1.19642,0.759394,-0.498093,-0.440552,-0.376435,-0.0850594,-0.57973,-0.390399,-0.0230607,-0.976289,-0.0115674,
0.0247024,-0.19764,-0.321581,-1.66642,0.0653629,-0.19291,-0.382885,0.211342,0.00911399,0.235413,-0.079293,0.996871,-1.16616,0.00817929,0,0,0,0,0,0,0,0.0164778,-0.196977,-0.330128,-1.66302,0.0646788,1.41506,0.40179,0.0683165,-0.00516665,0.0931532,-0.000145502,0.647036,-0.570954,0.000590262,1.93164,-24.9611,3.96425,24.8087,2.04681,1.24962,-0.0227812,-1.6027,-1.05426,1.1385,0.985037,-0.637508,-0.577519,-0.5119,-0.118889,-0.745137,-0.477696,-0.00502311,-1.07618,-0.00904113,
0.0255539,-0.197594,-0.320632,-1.66674,0.0693792,-0.197501,-0.382853,0.21287,0.011451,0.237131,-0.0800689,1.00407,-1.14783,0.00801865,0,0,0,0,0,0,0,0.0164778,-0.196977,-0.330128,-1.66302,0.0646788,1.41506,0.40179,0.0683165,-0.00516665,0.0931532,-0.000145502,0.647036,-0.570954,0.000590262,1.93164,-24.9611,3.96425,24.8087,2.04681,1.24962,-0.0227812,-1.83871,-0.660596,1.15591,0.805432,-0.841521,-0.434856,-0.362822,-0.244443,-0.600731,-0.46422,0.124185,-1.10314,-0.00861097,
0.0264103,-0.19754,-0.319678,-1.66706,0.07342,-0.202017,-0.382822,0.214106,0.013568,0.238545,-0.0805297,1.0102,-1.12887,0.00786221,0,0,0,0,0,0,0,0.0164778,-0.196977,-0.330128,-1.66302,0.0646788,1.41506,0.40179,0.0683165,-0.00516665,0.0931532,-0.000145502,0.647036,-0.570954,0.000590262,1.93164,-24.9611,3.96425,24.8087,2.04681,1.24962,-0.0227812,-1.83871,-0.660596,1.15591,0.805432,-0.841521,-0.434856,-0.362822,-0.244443,-0.600731,-0.46422,0.124185,-1.10314,-0.00861097,
0.0272706,-0.197478,-0.318719,-1.66738,0.0774815,-0.206455,-0.382791,0.21508,0.015465,0.239688,-0.0807361,1.01538,-1.1095,0.00770982,0,0,0,0,0,0,0,0.0164778,-0.196977,-0.330128,-1.66302,0.0646788,1.41506,0.40179,0.0683165,-0.00516665,0.0931532,-0.000145502,0.647036,-0.570954,0.000590262,1.93164,-24.9611,3.96425,24.8087,2.04681,1.24962,-0.0227812,-1.53284,-0.310458,0.967236,0.714221,-0.526168,-0.22298,-0.159964,-0.0313734,-0.390947,-0.621891,0.273547,-1.15911,-0.00791714,
0.0281339,-0.19741,-0.317757,-1.66771,0.0815604,-0.210814,-0.382761,0.215819,0.0171497,0.240588,-0.0807357,1.01971,-1.0899,0.00756057,0,0,0,0,0,0,0,0.0164778,-0.196977,-0.330128,-1.66302,0.0646788,1.41506,0.40179,0.0683165,-0.00516665,0.0931532,-0.000145502,0.647036,-0.570954,0.000590262,1.93164,-24.9611,3.96425,24.8087,2.04681,1.24962,-0.0227812,-1.53284,-0.310458,0.967236,0.714221,-0.526168,-0.22298,-0.159964,-0.0313734,-0.390947,-0.621891,0.273547,-1.15911,-0.00791714,
0.0289993,-0.197335,-0.316792,-1.66803,0.0856535,-0.215095,-0.382731,0.216347,0.018634,0.241269,-0.0805657,1.02329,-1.07019,0.00741619,0,0,0,0,0,0,0,0.0197008,-0.196962,-0.325298,-1.66328,0.0917598,1.38968,0.401792,0.0875469,0.00145577,0.124687,-0.0116811,0.609884,-0.629447,-5.1314e-05,2.26093,-25.1872,4.16261,24.8364,2.60254,1.77331,-0.0365141,-2.06712,0.201978,1.09726,0.453821,-0.978592,-0.0768077,-0.0239146,-0.304056,-0.220367,-0.560058,0.424843,-1.21721,-0.00793348,
0.029866,-0.197255,-0.315825,-1.66835,0.0897584,-0.219297,-0.382702,0.216686,0.0199329,0.241753,-0.0802557,1.02622,-1.05045,0.00727445,0,0,0,0,0,0,0,0.0197008,-0.196962,-0.325298,-1.66328,0.0917598,1.38968,0.401792,0.0875469,0.00145577,0.124687,-0.0116811,0.609884,-0.629447,-5.1314e-05,2.26093,-25.1872,4.16261,24.8364,2.60254,1.77331,-0.0365141,-2.06712,0.201978,1.09726,0.453821,-0.978592,-0.0768077,-0.0239146,-0.304056,-0.220367,-0.560058,0.424843,-1.21721,-0.00793348,
0.0307334,-0.197171,-0.314857,-1.66867,0.0938726,-0.22342,-0.382673,0.216855,0.0210614,0.24206,-0.0798298,1.02855,-1.03075,0.00713594,0,0,0,0,0,0,0,0.0197008,-0.196962,-0.325298,-1.66328,0.0917598,1.38968,0.401792,0.0875469,0.00145577,0.124687,-0.0116811,0.609884,-0.629447,-5.1314e-05,2.26093,-25.1872,4.16261,24.8364,2.60254,1.77331,-0.0365141,-1.68998,0.822996,0.735214,0.181625,-0.634556,0.252113,0.301392,-0.084726,0.117362,-0.701369,0.606331,-1.18801,-0.0103824,
0.0316009,-0.197083,-0.313888,-1.66899,0.0979941,-0.227464,-0.382645,0.216874,0.0220354,0.242208,-0.0793074,1.03037,-1.01115,0.00700132,0,0,0,0,0,0,0,0.0197008,-0.196962,-0.325298,-1.66328,0.0917598,1.38968,0.401792,0.0875469,0.00145577,0.124687,-0.0116811,0.609884,-0.629447,-5.1314e-05,2.26093,-25.1872,4.16261,24.8364,2.60254,1.77331,-0.0365141,-1.59906,0.820689,0.538386,0.330032,-0.559023,0.251417,0.306228,-0.0434496,0.082924,-0.752971,0.739274,-1.15179,-0.0108853,
0.0324679,-0.196991,-0.312919,-1.6693,0.102121,-0.231431,-0.382618,0.216756,0.0228699,0.242215,-0.0787049,1.03173,-0.991673,0.00686937,0,0,0,0,0,0,0,0.0197008,-0.196962,-0.325298,-1.66328,0.0917598,1.38968,0.401792,0.0875469,0.00145577,0.124687,-0.0116811,0.609884,-0.629447,-5.1314e-05,2.26093,-25.1872,4.16261,24.8364,2.60254,1.77331,-0.0365141,-1.59906,0.820689,0.538386,0.330032,-0.559023,0.251417,0.306228,-0.0434496,0.082924,-0.752971,0.739274,-1.15179,-0.0108853,
0.0146292,-0.197425,-0.332878,-1.66364,0.0106528,-0.124192,-0.38345,0.181982,-0.0572679,0.195235,-0.0631872,0.587835,-0.737775,0.0135168,0,0,0,0,0,0,0,0.0228445,-0.196912,-0.320979,-1.66373,0.111272,1.36928,0.401789,0.100467,0.00649041,0.142827,-0.01797,0.59803,-0.637233,-0.000708918,1.80469,-25.5364,3.53578,25.011,2.84698,2.04522,-0.00996382,-1.75117,0.85214,0.602222,0.370326,-0.777285,0.228219,0.293758,-0.213476,0.0419579,-0.656119,0.830836,-1.09429,-0.0111842,
0.0252939,-0.197267,-0.318303,-1.66463,0.118212,-0.211152,-0.383454,0.236123,-0.0349275,0.260503,-0.0867368,0.591923,-0.884561,0.0126252,0,0,0,0,0,0,0,0.0228445,-0.196912,-0.320979,-1.66373,0.111272,1.36928,0.401789,0.100467,0.00649041,0.142827,-0.01797,0.59803,-0.637233,-0.000708918,1.80469,-25.5364,3.53578,25.011,2.84698,2.04522,-0.00996382,-1.75117,0.85214,0.602222,0.370326,-0.777285,0.228219,0.293758,-0.213476,0.0419579,-0.656119,0.830836,-1.09429,-0.0111842,
0.0263328,-0.197405,-0.31715,-1.665,0.120692,-0.214963,-0.383405,0.259718,-0.034555,0.288326,-0.0928457,0.619962,-0.952614,0.0121295,0,0,0,0,0,0,0,0.0228445,-0.196912,-0.320979,-1.66373,0.111272,1.36928,0.401789,0.100467,0.00649041,0.142827,-0.01797,0.59803,-0.637233,-0.000708918,1.80469,-25.5364,3.53578,25.011,2.84698,2.04522,-0.00996382,-1.66772,0.972809,0.212182,0.368802,-0.664963,0.273036,0.34104,-0.130796,0.0759501,-0.724842,0.89579,-1.00623,-0.0120772,
0.0274492,-0.197535,-0.315906,-1.66539,0.123303,-0.219002,-0.383358,0.279108,-0.0325049,0.310956,-0.0977539,0.652638,-1.0099,0.0116844,0,0,0,0,0,0,0,0.0228445,-0.196912,-0.320979,-1.66373,0.111272,1.36928,0.401789,0.100467,0.00649041,0.142827,-0.01797,0.59803,-0.637233,-0.000708918,1.80469,-25.5364,3.53578,25.011,2.84698,2.04522,-0.00996382,-1.66772,0.972809,0.212182,0.368802,-0.664963,0.273036,0.34104,-0.130796,0.0759501,-0.724842,0.89579,-1.00623,-0.0120772,
0.02863,-0.197653,-0.314588,-1.6658,0.126051,-0.223233,-0.383313,0.295198,-0.0295611,0.329551,-0.102006,0.68704,-1.05772,0.01128,0,0,0,0,0,0,0,0.0228445,-0.196912,-0.320979,-1.66373,0.111272,1.36928,0.401789,0.100467,0.00649041,0.142827,-0.01797,0.59803,-0.637233,-0.000708918,1.80469,-25.5364,3.53578,25.011,2.84698,2.04522,-0.00996382,-1.48907,2.00367,0.0360978,-0.345807,-0.554501,0.746138,0.802376,-0.0706687,0.62193,-0.729169,0.991133,-0.942242,-0.0116766,
0.0298653,-0.197761,-0.313207,-1.66623,0.128936,-0.227573,-0.383269,0.308814,-0.0270274,0.345183,-0.10821,0.721257,-1.08481,0.0109786,0,0,0,0,0,0,0,0.0228445,-0.196912,-0.320979,-1.66373,0.111272,1.36928,0.401789,0.100467,0.00649041,0.142827,-0.01797,0.59803,-0.637233,-0.000708918,1.80469,-25.5364,3.53578,25.011,2.84698,2.04522,-0.00996382,-2.45688,1.10025,0.188817,0.0941639,-1.38242,0.186011,0.237362,-0.579939,0.0522713,-0.471691,0.762683,-0.83913,-0.00668413,
0.0311466,-0.197858,-0.311774,-1.66669,0.131952,-0.231966,-0.383226,0.320328,-0.0241029,0.358261,-0.113974,0.754129,-1.09826,0.0106956,0,0,0,0,0,0,0,0.0269167,-0.196967,-0.316133,-1.66458,0.126861,1.35025,0.401795,0.139022,-0.00721889,0.177268,-0.0340924,0.405765,-0.568413,0.000251114,3.05042,-25.2348,4.88862,25.2332,2.48077,1.93261,-0.0301054,-2.45688,1.10025,0.188817,0.0941639,-1.38242,0.186011,0.237362,-0.579939,0.0522713,-0.471691,0.762683,-0.83913,-0.00668413,
0.0324666,-0.19794,-0.310297,-1.66716,0.135092,-0.236386,-0.383185,0.330004,-0.0205139,0.369158,-0.118032,0.784967,-1.10521,0.0103613,0,0,0,0,0,0,0,0.0269167,-0.196967,-0.316133,-1.66458,0.126861,1.35025,0.401795,0.139022,-0.00721889,0.177268,-0.0340924,0.405765,-0.568413,0.000251114,3.05042,-25.2348,4.88862,25.2332,2.48077,1.93261,-0.0301054,-1.78804,-0.0360782,-0.102884,0.764536,-0.824258,-0.225803,-0.144615,-0.255262,-0.43576,-0.529868,0.532994,-0.688079,-0.00431565,
0.0338198,-0.19801,-0.308783,-1.66765,0.138346,-0.240772,-0.383145,0.338287,-0.0174401,0.378486,-0.123002,0.81335,-1.09632,0.010111,0,0,0,0,0,0,0,0.0269167,-0.196967,-0.316133,-1.66458,0.126861,1.35025,0.401795,0.139022,-0.00721889,0.177268,-0.0340924,0.405765,-0.568413,0.000251114,3.05042,-25.2348,4.88862,25.2332,2.48077,1.93261,-0.0301054,-1.78804,-0.0360782,-0.102884,0.764536,-0.824258,-0.225803,-0.144615,-0.255262,-0.43576,-0.529868,0.532994,-0.688079,-0.00431565,
0.0352009,-0.198066,-0.307238,-1.66816,0.141702,-0.245088,-0.383105,0.345296,-0.0141255,0.386328,-0.126867,0.839135,-1.07916,0.00986485,0,0,0,0,0,0,0,0.0269167,-0.196967,-0.316133,-1.66458,0.126861,1.35025,0.401795,0.139022,-0.00721889,0.177268,-0.0340924,0.405765,-0.568413,0.000251114,3.05042,-25.2348,4.88862,25.2332,2.48077,1.93261,-0.0301054,-2.11398,0.39188,0.0552386,0.376035,-1.17919,-0.0825338,-0.0111388,-0.494833,-0.237558,-0.375973,0.517615,-0.640796,-0.00599574,
0.0366056,-0.198109,-0.305666,-1.66868,0.145151,-0.249318,-0.383067,0.351161,-0.0106189,0.392893,-0.129443,0.862312,-1.05737,0.00962274,0,0,0,0,0,0,0,0.0269167,-0.196967,-0.316133,-1.66458,0.126861,1.35025,0.401795,0.139022,-0.00721889,0.177268,-0.0340924,0.405765,-0.568413,0.000251114,3.05042,-25.2348,4.88862,25.2332,2.48077,1.93261,-0.0301054,-1.85197,1.03828,-0.260718,-0.0723067,-0.820808,0.260981,0.312846,-0.216087,0.160091,-0.559002,0.529632,-0.688872,-0.00949572,
0.0380297,-0.198137,-0.304073,-1.6692,0.148683,-0.253449,-0.383029,0.356027,-0.00710007,0.398363,-0.130957,0.882967,-1.0329,0.0093897,0,0,0,0,0,0,0,0.0313771,-0.19707,-0.310116,-1.66564,0.140501,1.33142,0.401795,0.143632,0.00250352,0.201951,-0.0357696,0.475512,-0.611339,-0.000468236,2.54261,-25.0365,4.43635,24.7372,2.35901,1.74035,-0.0163725,-1.85197,1.03828,-0.260718,-0.0723067,-0.820808,0.260981,0.312846,-0.216087,0.160091,-0.559002,0.529632,-0.688872,-0.00949572,
0.0394698,-0.198152,-0.302461,-1.66973,0.152288,-0.257477,-0.382992,0.360023,-0.00371677,0.402889,-0.131669,0.901246,-1.00694,0.00916412,0,0,0,0,0,0,0,0.0313771,-0.19707,-0.310116,-1.66564,0.140501,1.33142,0.401795,0.143632,0.00250352,0.201951,-0.0357696,0.475512,-0.611339,-0.000468236,2.54261,-25.0365,4.43635,24.7372,2.35901,1.74035,-0.0163725,-2.73877,0.293596,-0.402884,0.348286,-1.40149,-0.186323,-0.125207,-0.507924,-0.318214,-0.513933,0.343377,-0.682125,-0.00943865,
0.0409228,-0.198154,-0.300835,-1.67025,0.155957,-0.261398,-0.382957,0.36326,-0.00056206,0.406597,-0.131794,0.917322,-0.980194,0.00895109,0,0,0,0,0,0,0,0.0313771,-0.19707,-0.310116,-1.66564,0.140501,1.33142,0.401795,0.143632,0.00250352,0.201951,-0.0357696,0.475512,-0.611339,-0.000468236,2.54261,-25.0365,4.43635,24.7372,2.35901,1.74035,-0.0163725,-2.73877,0.293596,-0.402884,0.348286,-1.40149,-0.186323,-0.125207,-0.507924,-0.318214,-0.513933,0.343377,-0.682125,-0.00943865,
0.0423862,-0.198145,-0.299197,-1.67078,0.159683,-0.26521,-0.382922,0.365834,0.0023162,0.409592,-0.131486,0.93138,-0.953125,0.00874702,0,0,0,0,0,0,0,0.0313771,-0.19707,-0.310116,-1.66564,0.140501,1.33142,0.401795,0.143632,0.00250352,0.201951,-0.0357696,0.475512,-0.611339,-0.000468236,2.54261,-25.0365,4.43635,24.7372,2.35901,1.74035,-0.0163725,-2.10773,-0.316559,-0.969655,0.739173,-0.667098,-0.351643,-0.282353,0.00846997,-0.527035,-0.794596,0.18586,-0.667287,-0.0100915,
0.0438575,-0.198125,-0.297549,-1.6713,0.163457,-0.268915,-0.382887,0.367827,0.00490028,0.411962,-0.130859,0.943608,-0.926022,0.00855324,0,0,0,0,0,0,0,0.0313771,-0.19707,-0.310116,-1.66564,0.140501,1.33142,0.401795,0.143632,0.00250352,0.201951,-0.0357696,0.475512,-0.611339,-0.000468236,2.54261,-25.0365,4.43635,24.7372,2.35901,1.74035,-0.0163725,-2.34111,0.193481,-1.21559,0.443667,-0.633852,-0.126416,-0.0531138,0.122522,-0.285708,-0.99169,0.229461,-0.809728,-0.00972455,
0.0453347,-0.198097,-0.295894,-1.67182,0.167274,-0.272511,-0.382854,0.369309,0.00719242,0.413784,-0.129992,0.954182,-0.899065,0.00836859,0,0,0,0,0,0,0,0.0313771,-0.19707,-0.310116,-1.66564,0.140501,1.33142,0.401795,0.143632,0.00250352,0.201951,-0.0357696,0.475512,-0.611339,-0.000468236,2.54261,-25.0365,4.43635,24.7372,2.35901,1.74035,-0.0163725,-2.34111,0.193481,-1.21559,0.443667,-0.633852,-0.126416,-0.0531138,0.122522,-0.285708,-0.99169,0.229461,-0.809728,-0.00972455,
0.0468161,-0.19806,-0.294233,-1.67234,0.171127,-0.276,-0.382821,0.370341,0.00920604,0.415124,-0.128943,0.963271,-0.872371,0.00819359,0,0,0,0,0,0,0,0.036528,-0.197112,-0.303177,-1.66687,0.158327,1.3127,0.401792,0.180878,-0.00262718,0.223946,-0.042019,0.596594,-0.570136,-0.00183454,2.69336,-24.9373,4.56331,24.6381,2.38281,1.65429,0.00376909,-3.05577,0.470921,-1.04282,0.249266,-1.17076,-0.0771202,-0.00327384,-0.173371,-0.215597,-0.930573,0.257632,-0.90214,-0.00892609,
0.0483,-0.198016,-0.292569,-1.67285,0.175011,-0.279384,-0.382789,0.370978,0.0109606,0.416039,-0.127754,0.971031,-0.84601,0.0080254,0,0,0,0,0,0,0,0.036528,-0.197112,-0.303177,-1.66687,0.158327,1.3127,0.401792,0.180878,-0.00262718,0.223946,-0.042019,0.596594,-0.570136,-0.00183454,2.69336,-24.9373,4.56331,24.6381,2.38281,1.65429,0.00376909,-3.05577,0.470921,-1.04282,0.249266,-1.17076,-0.0771202,-0.00327384,-0.173371,-0.215597,-0.930573,0.257632,-0.90214,-0.00892609,
0.0497851,-0.197966,-0.290903,-1.67336,0.178922,-0.282664,-0.382758,0.371267,0.0124784,0.41658,-0.126457,0.977603,-0.820025,0.00786622,0,0,0,0,0,0,0,0.036528,-0.197112,-0.303177,-1.66687,0.158327,1.3127,0.401792,0.180878,-0.00262718,0.223946,-0.042019,0.596594,-0.570136,-0.00183454,2.69336,-24.9373,4.56331,24.6381,2.38281,1.65429,0.00376909,-2.83917,-0.00424464,-1.13148,0.625505,-0.986166,-0.266367,-0.191175,-0.0703444,-0.445776,-0.973348,0.259888,-0.874194,-0.00747853,
0.0512701,-0.197911,-0.289235,-1.67386,0.182854,-0.285842,-0.382727,0.371248,0.0137828,0.41679,-0.125076,0.983117,-0.79444,0.00771373,0,0,0,0,0,0,0,0.036528,-0.197112,-0.303177,-1.66687,0.158327,1.3127,0.401792,0.180878,-0.00262718,0.223946,-0.042019,0.596594,-0.570136,-0.00183454,2.69336,-24.9373,4.56331,24.6381,2.38281,1.65429,0.00376909,-2.83917,-0.00424464,-1.13148,0.625505,-0.986166,-0.266367,-0.191175,-0.0703444,-0.445776,-0.973348,0.259888,-0.874194,-0.00747853,
0.0527539,-0.197851,-0.287569,-1.67435,0.186805,-0.288919,-0.382696,0.370959,0.014896,0.41671,-0.123628,0.98769,-0.769268,0.00756703,0,0,0,0,0,0,0,0.036528,-0.197112,-0.303177,-1.66687,0.158327,1.3127,0.401792,0.180878,-0.00262718,0.223946,-0.042019,0.596594,-0.570136,-0.00183454,2.69336,-24.9373,4.56331,24.6381,2.38281,1.65429,0.00376909,-3.28487,-0.224633,-1.21183,0.897876,-1.257,-0.425038,-0.35377,-0.202756,-0.635672,-1.014,0.344889,-0.926037,-0.00540164,
0.0542356,-0.197788,-0.285903,-1.67484,0.190771,-0.291897,-0.382667,0.370433,0.0158395,0.416372,-0.122128,0.991428,-0.744516,0.00742686,0,0,0,0,0,0,0,0.0433509,-0.197088,-0.295223,-1.66848,0.177833,1.29562,0.401798,0.22022,0.00119109,0.265265,-0.0487999,0.618112,-0.492907,0.00071343,2.13398,-25.1357,3.81349,24.4635,2.8836,1.7669,-0.050247,-3.25474,0.499517,-1.20034,0.49542,-1.25373,-0.0987529,-0.0290253,-0.203922,-0.282476,-1.03125,0.514984,-0.952045,-0.00696609,
0.0557144,-0.197721,-0.28424,-1.67532,0.194748,-0.294778,-0.382638,0.369696,0.0166329,0.415808,-0.120589,0.994426,-0.720184,0.00729217,0,0,0,0,0,0,0,0.0433509,-0.197088,-0.295223,-1.66848,0.177833,1.29562,0.401798,0.22022,0.00119109,0.265265,-0.0487999,0.618112,-0.492907,0.00071343,2.13398,-25.1357,3.81349,24.4635,2.8836,1.7669,-0.050247,-3.25474,0.499517,-1.20034,0.49542,-1.25373,-0.0987529,-0.0290253,-0.203922,-0.282476,-1.03125,0.514984,-0.952045,-0.00696609,
0.0571895,-0.197652,-0.28258,-1.6758,0.198735,-0.297563,-0.382609,0.368776,0.0172942,0.415044,-0.119019,0.996768,-0.69627,0.00716318,0,0,0,0,0,0,0,0.0433509,-0.197088,-0.295223,-1.66848,0.177833,1.29562,0.401798,0.22022,0.00119109,0.265265,-0.0487999,0.618112,-0.492907,0.00071343,2.13398,-25.1357,3.81349,24.4635,2.8836,1.7669,-0.050247,-2.36442,0.861213,-1.02353,0.335993,-0.747626,0.15176,0.225165,0.00560959,-0.0345135,-0.985491,0.686851,-0.867347,-0.00746246,
0.0586603,-0.197581,-0.280923,-1.67627,0.20273,-0.300254,-0.382581,0.367693,0.0178397,0.414105,-0.117427,0.998531,-0.672771,0.00703859,0,0,0,0,0,0,0,0.0433509,-0.197088,-0.295223,-1.66848,0.177833,1.29562,0.401798,0.22022,0.00119109,0.265265,-0.0487999,0.618112,-0.492907,0.00071343,2.13398,-25.1357,3.81349,24.4635,2.8836,1.7669,-0.050247,-2.36442,0.861213,-1.02353,0.335993,-0.747626,0.15176,0.225165,0.00560959,-0.0345135,-0.985491,0.686851,-0.867347,-0.00746246,
0.0601262,-0.197508,-0.279271,-1.67673,0.206729,-0.302853,-0.382553,0.366469,0.0182838,0.413012,-0.115819,0.999783,-0.649682,0.00691902,0,0,0,0,0,0,0,0.0433509,-0.197088,-0.295223,-1.66848,0.177833,1.29562,0.401798,0.22022,0.00119109,0.265265,-0.0487999,0.618112,-0.492907,0.00071343,2.13398,-25.1357,3.81349,24.4635,2.8836,1.7669,-0.050247,-2.35663,1.41239,-0.969044,0.0397968,-0.809007,0.386465,0.475567,-0.0550938,0.204879,-0.946259,0.836698,-0.850192,-0.00808862,
0.0259108,-0.197587,-0.317657,-1.66516,0.117202,-0.209818,-0.383466,0.304685,-0.0649055,0.335233,-0.138473,0.486613,-0.726039,0.0116589,0,0,0,0,0,0,0,0.0433509,-0.197088,-0.295223,-1.66848,0.177833,1.29562,0.401798,0.22022,0.00119109,0.265265,-0.0487999,0.618112,-0.492907,0.00071343,2.13398,-25.1357,3.81349,24.4635,2.8836,1.7669,-0.050247,-2.32499,1.70942,-1.06659,-0.0869832,-0.767538,0.513952,0.610799,-0.0245499,0.328624,-0.981602,0.937546,-0.84359,-0.00826595,
0.0472876,-0.197565,-0.290867,-1.66997,0.184812,-0.2818,-0.383467,0.363734,-0.04459,0.405034,-0.138659,0.588104,-0.58776,0.0109165,0,0,0,0,0,0,0,0.0525988,-0.196984,-0.283483,-1.67081,0.202096,1.27742,0.401793,0.244325,0.00412114,0.294591,-0.0554173,0.575425,-0.404618,-0.000874957,1.70551,-25.8855,3.16286,25.011,3.54919,1.44829,-0.0026396,-2.32499,1.70942,-1.06659,-0.0869832,-0.767538,0.513952,0.610799,-0.0245499,0.328624,-0.981602,0.937546,-0.84359,-0.00826595,
0.0488464,-0.197735,-0.289124,-1.67055,0.187258,-0.284275,-0.383424,0.389682,-0.042468,0.435773,-0.14402,0.611598,-0.618837,0.01053,0,0,0,0,0,0,0,0.0525988,-0.196984,-0.283483,-1.67081,0.202096,1.27742,0.401793,0.244325,0.00412114,0.294591,-0.0554173,0.575425,-0.404618,-0.000874957,1.70551,-25.8855,3.16286,25.011,3.54919,1.44829,-0.0026396,-2.33033,1.20977,-1.1065,0.343316,-0.76945,0.268913,0.361447,-0.0398479,0.0404464,-0.987003,0.980787,-0.816707,-0.00636783,
0.05049,-0.197893,-0.287281,-1.67115,0.189822,-0.286808,-0.383383,0.410899,-0.0394702,0.460695,-0.149479,0.640977,-0.6331,0.0102534,0,0,0,0,0,0,0,0.0525988,-0.196984,-0.283483,-1.67081,0.202096,1.27742,0.401793,0.244325,0.00412114,0.294591,-0.0554173,0.575425,-0.404618,-0.000874957,1.70551,-25.8855,3.16286,25.011,3.54919,1.44829,-0.0026396,-2.33033,1.20977,-1.1065,0.343316,-0.76945,0.268913,0.361447,-0.0398479,0.0404464,-0.987003,0.980787,-0.816707,-0.00636783,
0.0522031,-0.198035,-0.285357,-1.67176,0.192514,-0.289355,-0.383343,0.428281,-0.0355979,0.480948,-0.153843,0.672961,-0.636899,0.0100578,0,0,0,0,0,0,0,0.0525988,-0.196984,-0.283483,-1.67081,0.202096,1.27742,0.401793,0.244325,0.00412114,0.294591,-0.0554173,0.575425,-0.404618,-0.000874957,1.70551,-25.8855,3.16286,25.011,3.54919,1.44829,-0.0026396,-2.30933,2.43794,-1.07518,-0.505364,-0.803165,0.823446,0.896932,-0.0562176,0.686387,-0.955279,1.10919,-0.813618,-0.00788661,
0.0539729,-0.198158,-0.283368,-1.67239,0.195335,-0.291908,-0.383304,0.442446,-0.0307775,0.497355,-0.156008,0.705434,-0.638241,0.00975191,0,0,0,0,0,0,0,0.0525988,-0.196984,-0.283483,-1.67081,0.202096,1.27742,0.401793,0.244325,0.00412114,0.294591,-0.0554173,0.575425,-0.404618,-0.000874957,1.70551,-25.8855,3.16286,25.011,3.54919,1.44829,-0.0026396,-2.30933,2.43794,-1.07518,-0.505364,-0.803165,0.823446,0.896932,-0.0562176,0.686387,-0.955279,1.10919,-0.813618,-0.00788661,
0.0557898,-0.198264,-0.281324,-1.67302,0.198283,-0.294417,-0.383266,0.454226,-0.0264887,0.510926,-0.158915,0.736957,-0.627242,0.00953814,0,0,0,0,0,0,0,0.0605846,-0.196973,-0.273513,-1.67266,0.216589,1.26684,0.401797,0.249308,-0.0018258,0.342293,-0.064376,0.384285,-0.275888,-0.000711352,2.92347,-25.8101,3.98805,24.6857,2.49908,1.64055,-0.00996382,-2.40019,1.4945,-1.03213,-0.00477325,-0.894956,0.405352,0.467829,-0.128836,0.250146,-0.872599,0.895788,-0.745879,-0.00631479,
0.0576454,-0.198352,-0.279236,-1.67366,0.20135,-0.296859,-0.383229,0.46391,-0.0221055,0.522049,-0.160857,0.766707,-0.610535,0.00933865,0,0,0,0,0,0,0,0.0605846,-0.196973,-0.273513,-1.67266,0.216589,1.26684,0.401797,0.249308,-0.0018258,0.342293,-0.064376,0.384285,-0.275888,-0.000711352,2.92347,-25.8101,3.98805,24.6857,2.49908,1.64055,-0.00996382,-3.16235,-0.172608,-0.962048,0.972479,-1.50034,-0.404556,-0.287044,-0.510553,-0.669048,-0.704373,0.585859,-0.667947,-0.00312729,
0.0595326,-0.198423,-0.277111,-1.67431,0.204527,-0.299223,-0.383192,0.4718,-0.0177076,0.531124,-0.161749,0.794237,-0.591013,0.00914761,0,0,0,0,0,0,0,0.0605846,-0.196973,-0.273513,-1.67266,0.216589,1.26684,0.401797,0.249308,-0.0018258,0.342293,-0.064376,0.384285,-0.275888,-0.000711352,2.92347,-25.8101,3.98805,24.6857,2.49908,1.64055,-0.00996382,-3.16235,-0.172608,-0.962048,0.972479,-1.50034,-0.404556,-0.287044,-0.510553,-0.669048,-0.704373,0.585859,-0.667947,-0.00312729,
0.0614453,-0.198477,-0.274957,-1.67496,0.207804,-0.301504,-0.383156,0.47817,-0.0134641,0.538484,-0.161828,0.819346,-0.570095,0.00897042,0,0,0,0,0,0,0,0.0605846,-0.196973,-0.273513,-1.67266,0.216589,1.26684,0.401797,0.249308,-0.0018258,0.342293,-0.064376,0.384285,-0.275888,-0.000711352,2.92347,-25.8101,3.98805,24.6857,2.49908,1.64055,-0.00996382,-3.06197,-0.225197,-1.16058,0.972352,-1.31641,-0.396258,-0.29056,-0.361234,-0.648974,-0.804454,0.531582,-0.683293,-0.00337641,
0.0633783,-0.198515,-0.27278,-1.6756,0.211172,-0.303698,-0.383121,0.483251,-0.00949797,0.544401,-0.161329,0.841986,-0.548525,0.00880091,0,0,0,0,0,0,0,0.0605846,-0.196973,-0.273513,-1.67266,0.216589,1.26684,0.401797,0.249308,-0.0018258,0.342293,-0.064376,0.384285,-0.275888,-0.000711352,2.92347,-25.8101,3.98805,24.6857,2.49908,1.64055,-0.00996382,-3.06197,-0.225197,-1.16058,0.972352,-1.31641,-0.396258,-0.29056,-0.361234,-0.648974,-0.804454,0.531582,-0.683293,-0.00337641,
0.0653272,-0.198539,-0.270583,-1.67625,0.214621,-0.305805,-0.383086,0.487233,-0.00587492,0.549097,-0.160427,0.86221,-0.526718,0.00864537,0,0,0,0,0,0,0,0.069757,-0.197046,-0.262438,-1.67477,0.229248,1.25939,0.4018,0.287765,-0.0053434,0.363757,-0.0674288,0.432404,-0.195248,0.00056551,2.59418,-25.211,4.06343,24.2612,2.17498,1.70739,-0.0630644,-3.07717,-0.522951,-1.21386,1.15088,-1.2284,-0.497278,-0.406897,-0.275704,-0.751573,-0.886898,0.472568,-0.745937,-0.0047363,
0.0672883,-0.198549,-0.268372,-1.67688,0.218142,-0.307824,-0.383052,0.490276,-0.00261845,0.552752,-0.159239,0.880135,-0.504906,0.00849932,0,0,0,0,0,0,0,0.069757,-0.197046,-0.262438,-1.67477,0.229248,1.25939,0.4018,0.287765,-0.0053434,0.363757,-0.0674288,0.432404,-0.195248,0.00056551,2.59418,-25.211,4.06343,24.2612,2.17498,1.70739,-0.0630644,-3.07717,-0.522951,-1.21386,1.15088,-1.2284,-0.497278,-0.406897,-0.275704,-0.751573,-0.886898,0.472568,-0.745937,-0.0047363,
0.0692584,-0.198548,-0.26615,-1.67751,0.221725,-0.309757,-0.383019,0.492511,0.0002742,0.555517,-0.157847,0.895908,-0.483224,0.00836318,0,0,0,0,0,0,0,0.069757,-0.197046,-0.262438,-1.67477,0.229248,1.25939,0.4018,0.287765,-0.0053434,0.363757,-0.0674288,0.432404,-0.195248,0.00056551,2.59418,-25.211,4.06343,24.2612,2.17498,1.70739,-0.0630644,-2.93944,-0.0241774,-1.74373,0.662617,-0.886705,-0.206882,-0.118164,0.0397579,-0.40645,-1.10335,0.334818,-0.767494,-0.00965309,
0.0712346,-0.198537,-0.26392,-1.67814,0.225364,-0.311604,-0.382986,0.49405,0.00282156,0.557516,-0.156304,0.909697,-0.461749,0.00823532,0,0,0,0,0,0,0,0.069757,-0.197046,-0.262438,-1.67477,0.229248,1.25939,0.4018,0.287765,-0.0053434,0.363757,-0.0674288,0.432404,-0.195248,0.00056551,2.59418,-25.211,4.06343,24.2612,2.17498,1.70739,-0.0630644,-2.54857,0.249935,-1.94191,0.332316,-0.49418,-0.00284068,0.0609519,0.318838,-0.142199,-1.21261,0.21737,-0.773011,-0.0122733,
0.0732145,-0.198516,-0.261685,-1.67876,0.229051,-0.313366,-0.382954,0.494985,0.00504975,0.558855,-0.154644,0.921673,-0.440527,0.00811728,0,0,0,0,0,0,0,0.069757,-0.197046,-0.262438,-1.67477,0.229248,1.25939,0.4018,0.287765,-0.0053434,0.363757,-0.0674288,0.432404,-0.195248,0.00056551,2.59418,-25.211,4.06343,24.2612,2.17498,1.70739,-0.0630644,-2.54857,0.249935,-1.94191,0.332316,-0.49418,-0.00284068,0.0609519,0.318838,-0.142199,-1.21261,0.21737,-0.773011,-0.0122733,
0.0751961,-0.198489,-0.259446,-1.67937,0.232779,-0.315045,-0.382922,0.495398,0.00698787,0.559621,-0.152896,0.932006,-0.419588,0.00800405,0,0,0,0,0,0,0,0.069757,-0.197046,-0.262438,-1.67477,0.229248,1.25939,0.4018,0.287765,-0.0053434,0.363757,-0.0674288,0.432404,-0.195248,0.00056551,2.59418,-25.211,4.06343,24.2612,2.17498,1.70739,-0.0630644,-2.92883,0.81697,-1.44827,-0.110577,-0.961074,0.250849,0.309863,-0.0015575,0.165067,-1.0085,0.268632,-0.810193,-0.0142002,
0.0771775,-0.198454,-0.257207,-1.67997,0.236542,-0.316641,-0.38289,0.495355,0.00866556,0.559891,-0.151077,0.94086,-0.398951,0.00789904,0,0,0,0,0,0,0,0.0789459,-0.197079,-0.251314,-1.67708,0.24524,1.255,0.401799,0.298205,-8.36717e-06,0.350702,-0.0829299,0.540776,-0.0946239,0.000650546,2.61798,-25.2348,3.78572,24.4635,2.84149,1.51513,-0.050247,-2.92883,0.81697,-1.44827,-0.110577,-0.961074,0.250849,0.309863,-0.0015575,0.165067,-1.0085,0.268632,-0.810193,-0.0142002,
0.0791572,-0.198413,-0.254968,-1.68057,0.240336,-0.318155,-0.382859,0.494917,0.0101115,0.55973,-0.149202,0.948389,-0.378629,0.00780026,0,0,0,0,0,0,0,0.0789459,-0.197079,-0.251314,-1.67708,0.24524,1.255,0.401799,0.298205,-8.36717e-06,0.350702,-0.0829299,0.540776,-0.0946239,0.000650546,2.61798,-25.2348,3.78572,24.4635,2.84149,1.51513,-0.050247,-2.57242,0.680339,-1.46523,0.0388698,-0.671292,0.227671,0.301578,0.159123,0.10672,-1.06868,0.316919,-0.815831,-0.0139371,
0.0811337,-0.198368,-0.252731,-1.68116,0.244155,-0.31959,-0.382828,0.494134,0.0113519,0.559192,-0.147283,0.954734,-0.358632,0.00770553,0,0,0,0,0,0,0,0.0789459,-0.197079,-0.251314,-1.67708,0.24524,1.255,0.401799,0.298205,-8.36717e-06,0.350702,-0.0829299,0.540776,-0.0946239,0.000650546,2.61798,-25.2348,3.78572,24.4635,2.84149,1.51513,-0.050247,-2.40197,-1.24246,-1.67302,1.48074,-0.417003,-0.647801,-0.555652,0.2862,-0.926809,-1.18979,0.246252,-0.798535,-0.00977304,
0.0831077,-0.198319,-0.250497,-1.68174,0.247979,-0.320945,-0.382798,0.493493,0.0122868,0.55855,-0.145169,0.956033,-0.33893,0.00756867,0,0,0,0,0,0,0,0.0789459,-0.197079,-0.251314,-1.67708,0.24524,1.255,0.401799,0.298205,-8.36717e-06,0.350702,-0.0829299,0.540776,-0.0946239,0.000650546,2.61798,-25.2348,3.78572,24.4635,2.84149,1.51513,-0.050247,-2.40197,-1.24246,-1.67302,1.48074,-0.417003,-0.647801,-0.555652,0.2862,-0.926809,-1.18979,0.246252,-0.798535,-0.00977304,
0.0850808,-0.198268,-0.248264,-1.68231,0.251773,-0.322223,-0.382768,0.493264,0.0128303,0.558121,-0.142751,0.948504,-0.319505,0.00737502,0,0,0,0,0,0,0,0.0789459,-0.197079,-0.251314,-1.67708,0.24524,1.255,0.401799,0.298205,-8.36717e-06,0.350702,-0.0829299,0.540776,-0.0946239,0.000650546,2.61798,-25.2348,3.78572,24.4635,2.84149,1.51513,-0.050247,-2.77041,-1.82371,-1.65362,1.94726,-0.709479,-0.954173,-0.850294,0.0890287,-1.28727,-1.13704,0.270848,-0.778031,-0.00871569,
0.0870522,-0.198215,-0.246033,-1.68287,0.255516,-0.323425,-0.382739,0.492858,0.0131341,0.55776,-0.140247,0.935686,-0.300442,0.00720369,0,0,0,0,0,0,0,0.0890057,-0.197001,-0.238905,-1.67962,0.262504,1.25355,0.4018,0.329627,0.00634695,0.407218,-0.0811164,0.557674,-0.0180475,-0.00041622,1.83246,-26.1116,2.81373,24.6381,3.67736,1.30273,-0.0227812,-2.77041,-1.82371,-1.65362,1.94726,-0.709479,-0.954173,-0.850294,0.0890287,-1.28727,-1.13704,0.270848,-0.778031,-0.00871569,
0.0890209,-0.198162,-0.243804,-1.68342,0.259194,-0.324552,-0.382711,0.492168,0.0132914,0.557249,-0.13775,0.919658,-0.281788,0.00704875,0,0,0,0,0,0,0,0.0890057,-0.197001,-0.238905,-1.67962,0.262504,1.25355,0.4018,0.329627,0.00634695,0.407218,-0.0811164,0.557674,-0.0180475,-0.00041622,1.83246,-26.1116,2.81373,24.6381,3.67736,1.30273,-0.0227812,-2.01605,-0.283803,-1.61387,0.988455,-0.196866,-0.206051,-0.108816,0.385477,-0.466053,-1.18888,0.529724,-0.772582,-0.0116622,
0.0909855,-0.198108,-0.241578,-1.68396,0.262801,-0.325606,-0.382683,0.491167,0.013359,0.556483,-0.135302,0.901673,-0.263564,0.00690729,0,0,0,0,0,0,0,0.0890057,-0.197001,-0.238905,-1.67962,0.262504,1.25355,0.4018,0.329627,0.00634695,0.407218,-0.0811164,0.557674,-0.0180475,-0.00041622,1.83246,-26.1116,2.81373,24.6381,3.67736,1.30273,-0.0227812,-2.09732,0.252867,-1.24396,0.7283,-0.414734,0.0193595,0.110161,0.200259,-0.220615,-1.05068,0.723044,-0.779796,-0.0117403,
0.092945,-0.198055,-0.239357,-1.6845,0.266331,-0.32659,-0.382656,0.489861,0.013371,0.555428,-0.13292,0.882499,-0.245769,0.00677259,0,0,0,0,0,0,0,0.0890057,-0.197001,-0.238905,-1.67962,0.262504,1.25355,0.4018,0.329627,0.00634695,0.407218,-0.0811164,0.557674,-0.0180475,-0.00041622,1.83246,-26.1116,2.81373,24.6381,3.67736,1.30273,-0.0227812,-2.09732,0.252867,-1.24396,0.7283,-0.414734,0.0193595,0.110161,0.200259,-0.220615,-1.05068,0.723044,-0.779796,-0.0117403,
0.0948981,-0.198002,-0.23714,-1.68502,0.269782,-0.327503,-0.38263,0.488277,0.0133482,0.554084,-0.130609,0.862614,-0.228398,0.00664607,0,0,0,0,0,0,0,0.0890057,-0.197001,-0.238905,-1.67962,0.262504,1.25355,0.4018,0.329627,0.00634695,0.407218,-0.0811164,0.557674,-0.0180475,-0.00041622,1.83246,-26.1116,2.81373,24.6381,3.67736,1.30273,-0.0227812,-2.33061,0.892953,-1.17829,0.358974,-0.611921,0.294876,0.372599,0.0943758,0.0935089,-1.02031,0.865469,-0.802896,-0.0145884,
0.047786,-0.197857,-0.290342,-1.67051,0.184064,-0.279343,-0.38347,0.418602,-0.0694538,0.465029,-0.18474,0.509612,-0.320416,0.0106606,0,0,0,0,0,0,0,0.0890057,-0.197001,-0.238905,-1.67962,0.262504,1.25355,0.4018,0.329627,0.00634695,0.407218,-0.0811164,0.557674,-0.0180475,-0.00041622,1.83246,-26.1116,2.81373,24.6381,3.67736,1.30273,-0.0227812,-2.33061,0.892953,-1.17829,0.358974,-0.611921,0.294876,0.372599,0.0943758,0.0935089,-1.02031,0.865469,-0.802896,-0.0145884,
0.0942601,-0.197373,-0.232999,-1.68149,0.269094,-0.31757,-0.38348,0.471603,-0.0347107,0.531541,-0.168724,0.56312,-0.0477802,0.00982479,0,0,0,0,0,0,0,0.100006,-0.196856,-0.225679,-1.68225,0.279291,1.25358,0.401797,0.333337,0.00884886,0.410214,-0.0814138,0.491664,0.0049177,0.000389612,1.60236,-26.4845,2.5638,24.3881,3.74511,1.03081,-0.0365141,-2.55439,2.70584,-1.20061,-0.836451,-0.772601,1.12211,1.19678,0.0671298,1.02391,-1.03326,1.08566,-0.853235,-0.019634,
0.0962449,-0.197504,-0.230756,-1.68218,0.271451,-0.31782,-0.383441,0.496222,-0.0326905,0.560685,-0.173521,0.589274,-0.0624217,0.00978744,0,0,0,0,0,0,0,0.100006,-0.196856,-0.225679,-1.68225,0.279291,1.25358,0.401797,0.333337,0.00884886,0.410214,-0.0814138,0.491664,0.0049177,0.000389612,1.60236,-26.4845,2.5638,24.3881,3.74511,1.03081,-0.0365141,-2.55439,2.70584,-1.20061,-0.836451,-0.772601,1.12211,1.19678,0.0671298,1.02391,-1.03326,1.08566,-0.853235,-0.019634,
0.0983085,-0.197619,-0.228421,-1.68288,0.27393,-0.318132,-0.383402,0.515894,-0.0286951,0.583933,-0.174913,0.619582,-0.0778978,0.00956619,0,0,0,0,0,0,0,0.100006,-0.196856,-0.225679,-1.68225,0.279291,1.25358,0.401797,0.333337,0.00884886,0.410214,-0.0814138,0.491664,0.0049177,0.000389612,1.60236,-26.4845,2.5638,24.3881,3.74511,1.03081,-0.0365141,-2.45045,2.5088,-1.21325,-0.623418,-0.659618,1.03794,1.11521,0.12908,0.908297,-1.07498,1.15108,-0.866058,-0.0182815,
0.100436,-0.197718,-0.22601,-1.68359,0.276535,-0.318462,-0.383365,0.531985,-0.0248409,0.602778,-0.176758,0.651408,-0.0826766,0.00942554,0,0,0,0,0,0,0,0.100006,-0.196856,-0.225679,-1.68225,0.279291,1.25358,0.401797,0.333337,0.00884886,0.410214,-0.0814138,0.491664,0.0049177,0.000389612,1.60236,-26.4845,2.5638,24.3881,3.74511,1.03081,-0.0365141,-2.16366,0.612689,-1.36774,0.680696,-0.319253,0.190872,0.241888,0.298566,-0.035454,-1.186,0.984741,-0.859653,-0.0137438,
0.102616,-0.197801,-0.223538,-1.6843,0.279267,-0.318791,-0.383327,0.545007,-0.0207609,0.61801,-0.177753,0.68303,-0.0822597,0.00930078,0,0,0,0,0,0,0,0.100006,-0.196856,-0.225679,-1.68225,0.279291,1.25358,0.401797,0.333337,0.00884886,0.410214,-0.0814138,0.491664,0.0049177,0.000389612,1.60236,-26.4845,2.5638,24.3881,3.74511,1.03081,-0.0365141,-2.16366,0.612689,-1.36774,0.680696,-0.319253,0.190872,0.241888,0.298566,-0.035454,-1.186,0.984741,-0.859653,-0.0137438,
0.104838,-0.197868,-0.221016,-1.68501,0.282121,-0.319107,-0.383291,0.555478,-0.0166245,0.630274,-0.177907,0.713397,-0.0788802,0.00917889,0,0,0,0,0,0,0,0.115106,-0.196672,-0.207189,-1.68568,0.295855,1.25469,0.401799,0.344073,-0.00492494,0.472928,-0.0848602,0.343265,0.0492487,-0.000199486,3.17737,-26.8337,3.66273,24.2374,3.09784,1.31554,-0.0429228,-3.25819,-1.84921,-1.44553,2.2373,-1.08445,-0.961409,-0.865624,-0.188765,-1.33769,-1.08306,0.635068,-0.827084,-0.0107383,
0.107094,-0.197918,-0.218456,-1.68572,0.285089,-0.319401,-0.383254,0.563833,-0.0126265,0.640094,-0.177441,0.741882,-0.0735727,0.00906869,0,0,0,0,0,0,0,0.115106,-0.196672,-0.207189,-1.68568,0.295855,1.25469,0.401799,0.344073,-0.00492494,0.472928,-0.0848602,0.343265,0.0492487,-0.000199486,3.17737,-26.8337,3.66273,24.2374,3.09784,1.31554,-0.0429228,-3.25819,-1.84921,-1.44553,2.2373,-1.08445,-0.961409,-0.865624,-0.188765,-1.33769,-1.08306,0.635068,-0.827084,-0.0107383,
0.109377,-0.197954,-0.215864,-1.68643,0.288144,-0.319668,-0.383219,0.570876,-0.00901495,0.648116,-0.176352,0.76397,-0.0668312,0.00890907,0,0,0,0,0,0,0,0.115106,-0.196672,-0.207189,-1.68568,0.295855,1.25469,0.401799,0.344073,-0.00492494,0.472928,-0.0848602,0.343265,0.0492487,-0.000199486,3.17737,-26.8337,3.66273,24.2374,3.09784,1.31554,-0.0429228,-3.28111,-0.823874,-1.54456,1.41577,-1.10896,-0.457999,-0.326498,-0.157036,-0.781225,-1.07195,0.619152,-0.801149,-0.0134077,
0.111687,-0.197979,-0.213243,-1.68712,0.291233,-0.319904,-0.383184,0.577476,-0.00605864,0.655124,-0.174485,0.772268,-0.0589129,0.00865764,0,0,0,0,0,0,0,0.115106,-0.196672,-0.207189,-1.68568,0.295855,1.25469,0.401799,0.344073,-0.00492494,0.472928,-0.0848602,0.343265,0.0492487,-0.000199486,3.17737,-26.8337,3.66273,24.2374,3.09784,1.31554,-0.0429228,-3.28111,-0.823874,-1.54456,1.41577,-1.10896,-0.457999,-0.326498,-0.157036,-0.781225,-1.07195,0.619152,-0.801149,-0.0134077,
0.114019,-0.197993,-0.210598,-1.68781,0.294321,-0.320105,-0.38315,0.582891,-0.0036122,0.661179,-0.17232,0.771996,-0.0501472,0.00843917,0,0,0,0,0,0,0,0.115106,-0.196672,-0.207189,-1.68568,0.295855,1.25469,0.401799,0.344073,-0.00492494,0.472928,-0.0848602,0.343265,0.0492487,-0.000199486,3.17737,-26.8337,3.66273,24.2374,3.09784,1.31554,-0.0429228,-3.55243,0.235213,-1.40972,0.634235,-1.33095,0.0579372,0.12757,-0.236757,-0.135848,-1.03784,0.68524,-0.869843,-0.018183,
0.116367,-0.197999,-0.207934,-1.68849,0.297386,-0.320268,-0.383117,0.587108,-0.00155839,0.666134,-0.170054,0.766251,-0.0407709,0.00824881,0,0,0,0,0,0,0,0.115106,-0.196672,-0.207189,-1.68568,0.295855,1.25469,0.401799,0.344073,-0.00492494,0.472928,-0.0848602,0.343265,0.0492487,-0.000199486,3.17737,-26.8337,3.66273,24.2374,3.09784,1.31554,-0.0429228,-3.30312,1.53054,-1.41423,-0.379167,-1.20078,0.691319,0.744212,-0.118582,0.61115,-1.01026,0.695109,-0.836195,-0.0209946,
0.118728,-0.197998,-0.205254,-1.68916,0.300414,-0.320392,-0.383085,0.590207,0.00018986,0.669975,-0.167771,0.756949,-0.0309485,0.0080765,0,0,0,0,0,0,0,0.126744,-0.196688,-0.193315,-1.68848,0.307296,1.25685,0.401804,0.367461,-0.0032459,0.442561,-0.0857651,0.423867,0.056615,0.00123845,1.80469,-26.5837,2.91292,24.6619,2.62725,1.52794,-0.0703886,-3.30312,1.53054,-1.41423,-0.379167,-1.20078,0.691319,0.744212,-0.118582,0.61115,-1.01026,0.695109,-0.836195,-0.0209946,
0.121097,-0.197992,-0.202563,-1.68983,0.303396,-0.320475,-0.383053,0.592298,0.00169467,0.672763,-0.165506,0.745322,-0.020792,0.00792231,0,0,0,0,0,0,0,0.126744,-0.196688,-0.193315,-1.68848,0.307296,1.25685,0.401804,0.367461,-0.0032459,0.442561,-0.0857651,0.423867,0.056615,0.00123845,1.80469,-26.5837,2.91292,24.6619,2.62725,1.52794,-0.0703886,-2.46565,0.748442,-2.21933,0.00641455,-0.325837,0.35547,0.401203,0.456119,0.248779,-1.29201,0.461961,-0.715701,-0.0195916,
0.123471,-0.19798,-0.199865,-1.69048,0.306324,-0.320516,-0.383022,0.593491,0.00300212,0.674589,-0.163273,0.732224,-0.0103862,0.00777492,0,0,0,0,0,0,0,0.126744,-0.196688,-0.193315,-1.68848,0.307296,1.25685,0.401804,0.367461,-0.0032459,0.442561,-0.0857651,0.423867,0.056615,0.00123845,1.80469,-26.5837,2.91292,24.6619,2.62725,1.52794,-0.0703886,-2.46565,0.748442,-2.21933,0.00641455,-0.325837,0.35547,0.401203,0.456119,0.248779,-1.29201,0.461961,-0.715701,-0.0195916,
0.125847,-0.197963,-0.197162,-1.69112,0.309198,-0.320516,-0.382992,0.593886,0.00414975,0.67555,-0.161081,0.718359,0.000200403,0.00763678,0,0,0,0,0,0,0,0.126744,-0.196688,-0.193315,-1.68848,0.307296,1.25685,0.401804,0.367461,-0.0032459,0.442561,-0.0857651,0.423867,0.056615,0.00123845,1.80469,-26.5837,2.91292,24.6619,2.62725,1.52794,-0.0703886,-2.55066,-0.629602,-2.23107,0.867942,-0.443247,-0.286705,-0.252409,0.313178,-0.447104,-1.20231,0.276091,-0.617391,-0.016591,
0.128221,-0.197942,-0.194459,-1.69176,0.312016,-0.320472,-0.382962,0.593555,0.00517411,0.675723,-0.158944,0.704489,0.010904,0.00750648,0,0,0,0,0,0,0,0.126744,-0.196688,-0.193315,-1.68848,0.307296,1.25685,0.401804,0.367461,-0.0032459,0.442561,-0.0857651,0.423867,0.056615,0.00123845,1.80469,-26.5837,2.91292,24.6619,2.62725,1.52794,-0.0703886,-2.76096,-0.212674,-1.88542,0.588811,-0.824363,-0.110211,-0.0601775,0.0207698,-0.252295,-0.969434,0.344854,-0.537405,-0.0172663,
0.130591,-0.197918,-0.191759,-1.69239,0.314783,-0.320385,-0.382932,0.592502,0.0061198,0.675164,-0.1569,0.69176,0.0216587,0.00742391,0,0,0,0,0,0,0,0.139335,-0.196585,-0.178427,-1.69111,0.322033,1.25809,0.401801,0.399694,0.00916565,0.488215,-0.0820674,0.442271,0.0255678,0.000127764,1.1977,-27.0598,1.83778,24.761,3.22601,1.58105,-0.0301054,-2.76096,-0.212674,-1.88542,0.588811,-0.824363,-0.110211,-0.0601775,0.0207698,-0.252295,-0.969434,0.344854,-0.537405,-0.0172663,
0.132956,-0.19789,-0.189062,-1.69301,0.317491,-0.320255,-0.382903,0.591185,0.00691559,0.674122,-0.154762,0.677153,0.0324588,0.00735767,0,0,0,0,0,0,0,0.139335,-0.196585,-0.178427,-1.69111,0.322033,1.25809,0.401801,0.399694,0.00916565,0.488215,-0.0820674,0.442271,0.0255678,0.000127764,1.1977,-27.0598,1.83778,24.761,3.22601,1.58105,-0.0301054,-2.71571,-0.610123,-1.91678,0.910103,-0.848374,-0.32308,-0.263754,-0.0475043,-0.504484,-0.905937,0.369363,-0.440971,-0.0167547,
0.135316,-0.19786,-0.186371,-1.69362,0.320118,-0.320082,-0.382874,0.589985,0.00745757,0.672936,-0.152366,0.656749,0.0433267,0.00721915,0,0,0,0,0,0,0,0.139335,-0.196585,-0.178427,-1.69111,0.322033,1.25809,0.401801,0.399694,0.00916565,0.488215,-0.0820674,0.442271,0.0255678,0.000127764,1.1977,-27.0598,1.83778,24.761,3.22601,1.58105,-0.0301054,-2.71571,-0.610123,-1.91678,0.910103,-0.848374,-0.32308,-0.263754,-0.0475043,-0.504484,-0.905937,0.369363,-0.440971,-0.0167547,
0.137669,-0.197829,-0.183684,-1.69421,0.322653,-0.319865,-0.382845,0.588434,0.00783314,0.67157,-0.149963,0.633587,0.0541845,0.00708856,0,0,0,0,0,0,0,0.139335,-0.196585,-0.178427,-1.69111,0.322033,1.25809,0.401801,0.399694,0.00916565,0.488215,-0.0820674,0.442271,0.0255678,0.000127764,1.1977,-27.0598,1.83778,24.761,3.22601,1.58105,-0.0301054,-2.6221,-0.70483,-2.47749,1.01172,-0.580253,-0.393352,-0.33205,0.17363,-0.595207,-1.09534,0.395789,-0.394873,-0.0153755,
0.140015,-0.197797,-0.181005,-1.69481,0.32509,-0.319606,-0.382817,0.586507,0.00810784,0.669901,-0.147627,0.609227,0.0649619,0.00697007,0,0,0,0,0,0,0,0.139335,-0.196585,-0.178427,-1.69111,0.322033,1.25809,0.401801,0.399694,0.00916565,0.488215,-0.0820674,0.442271,0.0255678,0.000127764,1.1977,-27.0598,1.83778,24.761,3.22601,1.58105,-0.0301054,-2.6221,-0.70483,-2.47749,1.01172,-0.580253,-0.393352,-0.33205,0.17363,-0.595207,-1.09534,0.395789,-0.394873,-0.0153755,
0.142352,-0.197763,-0.178333,-1.69539,0.327428,-0.319303,-0.38279,0.584235,0.00832258,0.667895,-0.145368,0.584472,0.075614,0.00686308,0,0,0,0,0,0,0,0.139335,-0.196585,-0.178427,-1.69111,0.322033,1.25809,0.401801,0.399694,0.00916565,0.488215,-0.0820674,0.442271,0.0255678,0.000127764,1.1977,-27.0598,1.83778,24.761,3.22601,1.58105,-0.0301054,-2.70042,0.267947,-2.50711,0.380806,-0.683611,0.0354845,0.0866497,0.14032,-0.10452,-1.05077,0.531705,-0.347599,-0.0167338,
0.144679,-0.197729,-0.175671,-1.69596,0.329667,-0.318959,-0.382763,0.581659,0.00850075,0.665569,-0.143184,0.55974,0.0861164,0.00675804,0,0,0,0,0,0,0,0.152729,-0.196291,-0.162529,-1.69335,0.33497,1.25866,0.401798,0.420171,0.0122302,0.515354,-0.0682393,0.364228,0.0124414,-0.000586396,0.892215,-27.1074,1.71083,24.6103,3.53729,1.52794,-0.0163725,-2.32699,0.895779,-2.4338,0.0109432,-0.463621,0.308318,0.340652,0.258406,0.206974,-1.02856,0.661742,-0.30697,-0.017222,
0.146994,-0.197695,-0.173019,-1.69652,0.331808,-0.318573,-0.382736,0.578828,0.00865527,0.662957,-0.141063,0.535238,0.0964524,0.00665831,0,0,0,0,0,0,0,0.152729,-0.196291,-0.162529,-1.69335,0.33497,1.25866,0.401798,0.420171,0.0122302,0.515354,-0.0682393,0.364228,0.0124414,-0.000586396,0.892215,-27.1074,1.71083,24.6103,3.53729,1.52794,-0.0163725,-2.32699,0.895779,-2.4338,0.0109432,-0.463621,0.308318,0.340652,0.258406,0.206974,-1.02856,0.661742,-0.30697,-0.017222,
0.149297,-0.19766,-0.170379,-1.69708,0.333852,-0.318146,-0.38271,0.575784,0.00879231,0.660102,-0.138997,0.511069,0.106613,0.00656036,0,0,0,0,0,0,0,0.152729,-0.196291,-0.162529,-1.69335,0.33497,1.25866,0.401798,0.420171,0.0122302,0.515354,-0.0682393,0.364228,0.0124414,-0.000586396,0.892215,-27.1074,1.71083,24.6103,3.53729,1.52794,-0.0163725,-2.53039,1.02721,-2.49149,-0.045771,-0.606623,0.356859,0.385396,0.184761,0.262627,-1.01345,0.718251,-0.284979,-0.0156563,
0.151588,-0.197624,-0.16775,-1.69763,0.335801,-0.31768,-0.382684,0.572566,0.00891523,0.657044,-0.136979,0.487284,0.116593,0.00646199,0,0,0,0,0,0,0,0.152729,-0.196291,-0.162529,-1.69335,0.33497,1.25866,0.401798,0.420171,0.0122302,0.515354,-0.0682393,0.364228,0.0124414,-0.000586396,0.892215,-27.1074,1.71083,24.6103,3.53729,1.52794,-0.0163725,-2.53039,1.02721,-2.49149,-0.045771,-0.606623,0.356859,0.385396,0.184761,0.262627,-1.01345,0.718251,-0.284979,-0.0156563,
0.0946785,-0.197577,-0.232574,-1.68177,0.267492,-0.315589,-0.38348,0.516653,-0.0520255,0.58026,-0.190682,0.380767,0.166199,0.00960706,0,0,0,0,0,0,0,0.152729,-0.196291,-0.162529,-1.69335,0.33497,1.25866,0.401798,0.420171,0.0122302,0.515354,-0.0682393,0.364228,0.0124414,-0.000586396,0.892215,-27.1074,1.71083,24.6103,3.53729,1.52794,-0.0163725,-2.82984,0.929959,-2.50885,0.075451,-0.817862,0.306954,0.330526,0.0587647,0.204322,-0.989463,0.778833,-0.277523,-0.016003,
0.159002,-0.196668,-0.155403,-1.6954,0.338961,-0.3102,-0.383483,0.554468,-0.0335231,0.630851,-0.184345,0.325017,0.19065,0.00979146,0,0,0,0,0,0,0,0.166022,-0.195932,-0.146641,-1.69519,0.344618,1.25945,0.401802,0.420458,0.0159964,0.522787,-0.0601569,0.270199,0.0385967,-6.73543e-07,0.816837,-27.3097,1.18715,24.4357,3.24432,1.58745,-0.0429228,-2.82984,0.929959,-2.50885,0.075451,-0.817862,0.306954,0.330526,0.0587647,0.204322,-0.989463,0.778833,-0.277523,-0.016003,
0.161312,-0.196787,-0.15277,-1.69615,0.340253,-0.309372,-0.383445,0.577528,-0.0297322,0.658156,-0.186519,0.322906,0.206937,0.00950466,0,0,0,0,0,0,0,0.166022,-0.195932,-0.146641,-1.69519,0.344618,1.25945,0.401802,0.420458,0.0159964,0.522787,-0.0601569,0.270199,0.0385967,-6.73543e-07,0.816837,-27.3097,1.18715,24.4357,3.24432,1.58745,-0.0429228,-2.82984,0.929959,-2.50885,0.075451,-0.817862,0.306954,0.330526,0.0587647,0.204322,-0.989463,0.778833,-0.277523,-0.016003,
0.163696,-0.196887,-0.15005,-1.69689,0.341544,-0.308491,-0.383408,0.595903,-0.0250684,0.67996,-0.18641,0.322656,0.220182,0.00923792,0,0,0,0,0,0,0,0.166022,-0.195932,-0.146641,-1.69519,0.344618,1.25945,0.401802,0.420458,0.0159964,0.522787,-0.0601569,0.270199,0.0385967,-6.73543e-07,0.816837,-27.3097,1.18715,24.4357,3.24432,1.58745,-0.0429228,-2.26467,1.91844,-2.98363,-0.629845,-0.199354,0.76569,0.785544,0.544453,0.714529,-1.22465,0.86609,-0.269074,-0.0178074,
0.166138,-0.196968,-0.147261,-1.69763,0.342838,-0.307567,-0.383372,0.610409,-0.0202977,0.697259,-0.185315,0.323593,0.231076,0.00898291,0,0,0,0,0,0,0,0.166022,-0.195932,-0.146641,-1.69519,0.344618,1.25945,0.401802,0.420458,0.0159964,0.522787,-0.0601569,0.270199,0.0385967,-6.73543e-07,0.816837,-27.3097,1.18715,24.4357,3.24432,1.58745,-0.0429228,-2.26467,1.91844,-2.98363,-0.629845,-0.199354,0.76569,0.785544,0.544453,0.714529,-1.22465,0.86609,-0.269074,-0.0178074,
0.168624,-0.197031,-0.144418,-1.69837,0.344143,-0.306606,-0.383337,0.621617,-0.0157418,0.710808,-0.183874,0.32615,0.240187,0.00880431,0,0,0,0,0,0,0,0.166022,-0.195932,-0.146641,-1.69519,0.344618,1.25945,0.401802,0.420458,0.0159964,0.522787,-0.0601569,0.270199,0.0385967,-6.73543e-07,0.816837,-27.3097,1.18715,24.4357,3.24432,1.58745,-0.0429228,-2.05503,0.325564,-3.06632,0.402734,-0.0322679,0.0242653,0.00735803,0.55116,-0.080878,-1.22646,0.690957,-0.207693,-0.0167341,
0.171146,-0.197077,-0.141532,-1.6991,0.345451,-0.305614,-0.383302,0.63041,-0.011607,0.721398,-0.182153,0.32702,0.248021,0.00868722,0,0,0,0,0,0,0,0.180103,-0.195754,-0.130023,-1.69708,0.350548,1.26155,0.401802,0.423633,0.000116265,0.538484,-0.0728644,0.141446,0.0991839,0.000125032,4.01447,-27.2066,3.91267,23.7891,2.90191,1.6671,-0.0365141,-2.05503,0.325564,-3.06632,0.402734,-0.0322679,0.0242653,0.00735803,0.55116,-0.080878,-1.22646,0.690957,-0.207693,-0.0167341,
0.173697,-0.19711,-0.138613,-1.69982,0.346725,-0.304594,-0.383268,0.637914,-0.00811852,0.729958,-0.179872,0.318589,0.255045,0.00848245,0,0,0,0,0,0,0,0.180103,-0.195754,-0.130023,-1.69708,0.350548,1.26155,0.401802,0.423633,0.000116265,0.538484,-0.0728644,0.141446,0.0991839,0.000125032,4.01447,-27.2066,3.91267,23.7891,2.90191,1.6671,-0.0365141,-3.17709,-0.880443,-2.80916,1.17223,-0.999392,-0.469488,-0.389494,-0.105026,-0.698027,-0.989542,0.532499,-0.188645,-0.0136911,
0.176272,-0.197131,-0.135665,-1.70053,0.347946,-0.303548,-0.383235,0.643639,-0.00519306,0.736799,-0.177541,0.305328,0.261502,0.00829743,0,0,0,0,0,0,0,0.180103,-0.195754,-0.130023,-1.69708,0.350548,1.26155,0.401802,0.423633,0.000116265,0.538484,-0.0728644,0.141446,0.0991839,0.000125032,4.01447,-27.2066,3.91267,23.7891,2.90191,1.6671,-0.0365141,-2.48356,-1.14637,-3.29189,1.2645,-0.274836,-0.59472,-0.518679,0.374765,-0.836389,-1.24329,0.446954,-0.184084,-0.0125538,
0.178863,-0.197142,-0.132697,-1.70123,0.349105,-0.302478,-0.383202,0.647761,-0.0027194,0.741991,-0.175291,0.289544,0.267535,0.00813649,0,0,0,0,0,0,0,0.180103,-0.195754,-0.130023,-1.69708,0.350548,1.26155,0.401802,0.423633,0.000116265,0.538484,-0.0728644,0.141446,0.0991839,0.000125032,4.01447,-27.2066,3.91267,23.7891,2.90191,1.6671,-0.0365141,-2.48356,-1.14637,-3.29189,1.2645,-0.274836,-0.59472,-0.518679,0.374765,-0.836389,-1.24329,0.446954,-0.184084,-0.0125538,
0.181465,-0.197144,-0.129715,-1.70192,0.350194,-0.301385,-0.38317,0.650494,-0.000605137,0.745688,-0.173138,0.272459,0.273253,0.00798701,0,0,0,0,0,0,0,0.180103,-0.195754,-0.130023,-1.69708,0.350548,1.26155,0.401802,0.423633,0.000116265,0.538484,-0.0728644,0.141446,0.0991839,0.000125032,4.01447,-27.2066,3.91267,23.7891,2.90191,1.6671,-0.0365141,-3.26248,-0.436918,-3.19109,0.70204,-0.921359,-0.217813,-0.203325,0.0550957,-0.3373,-1.12214,0.455843,-0.199412,-0.0136866,
0.184073,-0.197139,-0.126722,-1.7026,0.351213,-0.30027,-0.383139,0.652045,0.00121799,0.748077,-0.171062,0.254735,0.278749,0.00785499,0,0,0,0,0,0,0,0.180103,-0.195754,-0.130023,-1.69708,0.350548,1.26155,0.401802,0.423633,0.000116265,0.538484,-0.0728644,0.141446,0.0991839,0.000125032,4.01447,-27.2066,3.91267,23.7891,2.90191,1.6671,-0.0365141,-3.26248,-0.436918,-3.19109,0.70204,-0.921359,-0.217813,-0.203325,0.0550957,-0.3373,-1.12214,0.455843,-0.199412,-0.0136866,
0.186683,-0.197128,-0.123725,-1.70328,0.352161,-0.299133,-0.383108,0.652595,0.00280102,0.749342,-0.169042,0.236784,0.284089,0.00772574,0,0,0,0,0,0,0,0.199483,-0.195806,-0.10688,-1.70021,0.355155,1.26826,0.401801,0.480027,-0.00475183,0.5532,-0.0757909,0.115499,0.181173,-7.17544e-05,0.816837,-26.5837,1.3141,24.3604,2.89642,1.99212,-0.0301054,-2.66312,-0.278237,-3.49524,0.420803,-0.424143,-0.149384,-0.145161,0.389198,-0.229409,-1.23032,0.319028,-0.136177,-0.0127934,
0.189293,-0.197111,-0.120726,-1.70395,0.353036,-0.297976,-0.383078,0.652293,0.00418626,0.749641,-0.167068,0.21899,0.289319,0.00760024,0,0,0,0,0,0,0,0.199483,-0.195806,-0.10688,-1.70021,0.355155,1.26826,0.401801,0.480027,-0.00475183,0.5532,-0.0757909,0.115499,0.181173,-7.17544e-05,0.816837,-26.5837,1.3141,24.3604,2.89642,1.99212,-0.0301054,-2.66312,-0.278237,-3.49524,0.420803,-0.424143,-0.149384,-0.145161,0.389198,-0.229409,-1.23032,0.319028,-0.136177,-0.0127934,
0.191898,-0.197089,-0.11773,-1.70461,0.353845,-0.296798,-0.383048,0.651232,0.00541729,0.749086,-0.16515,0.202023,0.294453,0.00744389,0,0,0,0,0,0,0,0.199483,-0.195806,-0.10688,-1.70021,0.355155,1.26826,0.401801,0.480027,-0.00475183,0.5532,-0.0757909,0.115499,0.181173,-7.17544e-05,0.816837,-26.5837,1.3141,24.3604,2.89642,1.99212,-0.0301054,-2.23555,0.932321,-3.83102,-0.523643,-0.0296911,0.394641,0.385854,0.743929,0.407971,-1.35728,0.33181,-0.0957183,-0.0140903,
0.194495,-0.197063,-0.114739,-1.70526,0.354595,-0.295601,-0.383019,0.649361,0.00655369,0.747736,-0.163366,0.187508,0.299471,0.00732513,0,0,0,0,0,0,0,0.199483,-0.195806,-0.10688,-1.70021,0.355155,1.26826,0.401801,0.480027,-0.00475183,0.5532,-0.0757909,0.115499,0.181173,-7.17544e-05,0.816837,-26.5837,1.3141,24.3604,2.89642,1.99212,-0.0301054,-2.85562,1.76309,-3.58361,-1.06299,-0.601907,0.821556,0.833126,0.440517,0.873134,-1.20377,0.438168,-0.102857,-0.0148981,
