PerkyPenguin/Analysis-on-Approximated-Derivatives/Code_and_Data/PaperData/Real_Robot/Scene_2/contact_change/16/trajectory.csv
Commanded Joint 0 Position,Commanded Joint 1 Position,Commanded Joint 2 Position,Commanded Joint 3 Position,Commanded Joint 4 Position,Commanded Joint 5 Position,Commanded Joint 6 Position,Commanded Joint 0 Velocity,Commanded Joint 1 Velocity,Commanded Joint 2 Velocity,Commanded Joint 3 Velocity,Commanded Joint 4 Velocity,Commanded Joint 5 Velocity,Commanded Joint 6 Velocity,Commanded Joint 0 Torque,Commanded Joint 1 Torque,Commanded Joint 2 Torque,Commanded Joint 3 Torque,Commanded Joint 4 Torque,Commanded Joint 5 Torque,Commanded Joint 6 Torque,Actual Joint 0 Position,Actual Joint 1 Position,Actual Joint 2 Position,Actual Joint 3 Position,Actual Joint 4 Position,Actual Joint 5 Position,Actual Joint 6 Position,Actual Joint 0 Velocity,Actual Joint 1 Velocity,Actual Joint 2 Velocity,Actual Joint 3 Velocity,Actual Joint 4 Velocity,Actual Joint 5 Velocity,Actual Joint 6 Velocity,Actual Joint 0 Torque,Actual Joint 1 Torque,Actual Joint 2 Torque,Actual Joint 3 Torque,Actual Joint 4 Torque,Actual Joint 5 Torque,Actual Joint 6 Torque,EE ext force 0,EE ext force 1,EE ext force 2,EE ext force 3,EE ext force 4,EE ext force 5,joint ext torque 0,joint ext torque 1,joint ext torque 2,joint ext torque 3,joint ext torque 4,joint ext torque 5,joint ext torque 6,
0.0218119,-0.052085,0.511601,-1.56021,0.0381351,-0.0115067,0.532721,0.0112185,0.0306526,0.0153715,-0.143783,-0.0730497,0.199372,-0.00125583,0,0,0,0,0,0,0,0.0217278,-0.0522208,0.511486,-1.55877,0.0387571,1.55732,1.31814,-0.0012122,0.000354951,-0.00126184,-0.000560943,0.0132795,0.000838149,-0.000991155,0.233646,-27.4843,-0.713182,26.951,0.770565,3.05962,0.110886,2.10223,1.87238,2.01447,-0.964782,1.1905,0.181681,0.187153,0.497378,0.193452,0.153408,0.162427,-0.324422,0.09359,
0.0218704,-0.0518812,0.511679,-1.56082,0.0377702,-0.0106764,0.532716,0.0146382,0.0509424,0.0195405,-0.154575,-0.0912138,0.207581,-0.00134288,0,0,0,0,0,0,0,0.0217278,-0.0522208,0.511486,-1.55877,0.0387571,1.55732,1.31814,-0.0012122,0.000354951,-0.00126184,-0.000560943,0.0132795,0.000838149,-0.000991155,0.233646,-27.4843,-0.713182,26.951,0.770565,3.05962,0.110886,2.10223,1.87238,2.01447,-0.964782,1.1905,0.181681,0.187153,0.497378,0.193452,0.153408,0.162427,-0.324422,0.09359,
0.0217222,-0.0522118,0.51148,-1.55877,0.0388615,-0.0134769,0.53274,-9.61008e-05,0.000440747,-6.24026e-05,2.98493e-05,0.00404449,0.000128237,1.60342e-05,0,0,0,0,0,0,0,0.0217339,-0.0522208,0.511486,-1.55877,0.0387313,1.55731,1.31814,0.000926129,0.00322573,-0.00111394,-0.000142052,0.00483497,-0.000170049,0.000208236,0.134464,-27.4843,-0.713182,26.9272,0.960079,3.09899,0.0907442,2.04896,1.89841,2.07172,-0.97293,1.12675,0.206757,0.210929,0.451327,0.219718,0.179526,0.160083,-0.323987,0.0951882,
0.0217221,-0.0522104,0.51148,-1.55877,0.0388738,-0.0134765,0.53274,-2.17359e-05,0.000344323,2.63283e-05,-9.75204e-07,0.00307786,9.7202e-05,9.85106e-06,0,0,0,0,0,0,0,0.0217339,-0.0522208,0.511486,-1.55877,0.0387313,1.55731,1.31814,0.000926129,0.00322573,-0.00111394,-0.000142052,0.00483497,-0.000170049,0.000208236,0.134464,-27.4843,-0.713182,26.9272,0.960079,3.09899,0.0907442,2.15273,1.51693,2.21288,-0.66325,1.11674,0.000860289,0.00336732,0.402891,0.00627073,0.263163,0.129665,-0.299809,0.0968076,
0.0217222,-0.0522094,0.511481,-1.55877,0.0388832,-0.0134763,0.53274,2.47162e-05,0.000258186,8.3621e-05,-1.95643e-05,0.00235233,5.64191e-05,5.86928e-06,0,0,0,0,0,0,0,0.0217339,-0.0522208,0.511486,-1.55877,0.0387313,1.55731,1.31814,0.000926129,0.00322573,-0.00111394,-0.000142052,0.00483497,-0.000170049,0.000208236,0.134464,-27.4843,-0.713182,26.9272,0.960079,3.09899,0.0907442,2.15273,1.51693,2.21288,-0.66325,1.11674,0.000860289,0.00336732,0.402891,0.00627073,0.263163,0.129665,-0.299809,0.0968076,
0.0217225,-0.0522086,0.511481,-1.55877,0.0388904,-0.0134763,0.53274,5.2373e-05,0.000182764,0.000119536,-2.84218e-05,0.00180337,1.12732e-05,3.28703e-06,0,0,0,0,0,0,0,0.0217339,-0.0522208,0.511486,-1.55877,0.0387313,1.55731,1.31814,0.000926129,0.00322573,-0.00111394,-0.000142052,0.00483497,-0.000170049,0.000208236,0.134464,-27.4843,-0.713182,26.9272,0.960079,3.09899,0.0907442,1.54385,1.29244,1.62972,-0.607409,0.862331,0.0708848,0.0758881,0.351654,0.0749467,0.135337,0.142945,-0.275362,0.0954374,
0.0217227,-0.0522082,0.511482,-1.55877,0.038896,-0.0134764,0.53274,6.74158e-05,0.000117288,0.000140944,-3.04732e-05,0.00138477,-3.40333e-05,1.6309e-06,0,0,0,0,0,0,0,0.0217339,-0.0522208,0.511486,-1.55877,0.0387313,1.55731,1.31814,0.000926129,0.00322573,-0.00111394,-0.000142052,0.00483497,-0.000170049,0.000208236,0.134464,-27.4843,-0.713182,26.9272,0.960079,3.09899,0.0907442,1.54385,1.29244,1.62972,-0.607409,0.862331,0.0708848,0.0758881,0.351654,0.0749467,0.135337,0.142945,-0.275362,0.0954374,
0.021723,-0.0522079,0.511482,-1.55877,0.0389002,-0.0134767,0.53274,7.40983e-05,6.0686e-05,0.000152599,-2.80864e-05,0.00106307,-7.6854e-05,5.9851e-07,0,0,0,0,0,0,0,0.0217197,-0.0523293,0.511475,-1.55937,0.0386473,1.55805,1.31814,-0.00154849,-0.00112205,-0.000260765,-0.00116412,-0.0130646,0.00329811,-0.000382815,0.309024,-27.5319,-0.610033,27.6016,1.26495,3.35808,0.0907442,1.35047,1.69767,1.00204,-1.05504,0.955064,0.311383,0.313463,0.515517,0.333904,-0.0981606,0.15212,-0.273156,0.0931279,
0.021724,-0.0522082,0.511484,-1.55877,0.0389082,-0.0134779,0.53274,7.19538e-05,-6.30614e-05,0.000156335,-1.3712e-05,0.000485595,-0.000156132,8.6306e-07,0,0,0,0,0,0,0,0.0217197,-0.0523293,0.511475,-1.55937,0.0386473,1.55805,1.31814,-0.00154849,-0.00112205,-0.000260765,-0.00116412,-0.0130646,0.00329811,-0.000382815,0.309024,-27.5319,-0.610033,27.6016,1.26495,3.35808,0.0907442,2.12833,2.17203,0.97715,-1.39874,1.53682,0.311299,0.309635,0.842052,0.346682,-0.177688,0.162429,-0.248537,0.0904444,
0.0216827,-0.0523424,0.511444,-1.55937,0.0384154,-0.0127185,0.532742,-0.000487887,-0.000159806,-0.000378776,5.55641e-05,-0.00177303,-7.88635e-05,3.27564e-05,0,0,0,0,0,0,0,0.0217197,-0.0523293,0.511475,-1.55937,0.0386473,1.55805,1.31814,-0.00154849,-0.00112205,-0.000260765,-0.00116412,-0.0130646,0.00329811,-0.000382815,0.309024,-27.5319,-0.610033,27.6016,1.26495,3.35808,0.0907442,2.12833,2.17203,0.97715,-1.39874,1.53682,0.311299,0.309635,0.842052,0.346682,-0.177688,0.162429,-0.248537,0.0904444,
0.0216809,-0.052343,0.511442,-1.55937,0.0384091,-0.012719,0.532742,-0.000442128,-0.000159455,-0.000330796,4.85192e-05,-0.00155834,-0.000129717,1.45669e-05,0,0,0,0,0,0,0,0.0217197,-0.0523293,0.511475,-1.55937,0.0386473,1.55805,1.31814,-0.00154849,-0.00112205,-0.000260765,-0.00116412,-0.0130646,0.00329811,-0.000382815,0.309024,-27.5319,-0.610033,27.6016,1.26495,3.35808,0.0907442,2.5567,2.03173,1.40743,-1.19536,1.65421,0.125359,0.121649,0.813315,0.154822,-0.014683,0.134872,-0.212963,0.0908172,
0.0216793,-0.0523436,0.511441,-1.55937,0.0384036,-0.0127197,0.532742,-0.00040173,-0.000160886,-0.000285874,4.21014e-05,-0.00136925,-0.000174095,1.83464e-05,0,0,0,0,0,0,0,0.0217197,-0.0523293,0.511475,-1.55937,0.0386473,1.55805,1.31814,-0.00154849,-0.00112205,-0.000260765,-0.00116412,-0.0130646,0.00329811,-0.000382815,0.309024,-27.5319,-0.610033,27.6016,1.26495,3.35808,0.0907442,2.5567,2.03173,1.40743,-1.19536,1.65421,0.125359,0.121649,0.813315,0.154822,-0.014683,0.134872,-0.212963,0.0908172,
0.0216779,-0.0523443,0.51144,-1.55937,0.0383988,-0.0127206,0.532742,-0.000358549,-0.000158872,-0.000245602,3.84377e-05,-0.0012213,-0.000204787,-7.50024e-06,0,0,0,0,0,0,0,0.0217197,-0.0523293,0.511475,-1.55937,0.0386473,1.55805,1.31814,-0.00154849,-0.00112205,-0.000260765,-0.00116412,-0.0130646,0.00329811,-0.000382815,0.309024,-27.5319,-0.610033,27.6016,1.26495,3.35808,0.0907442,2.60008,2.23038,1.35704,-1.34173,1.71742,0.205112,0.196045,0.863668,0.24368,-0.048026,0.155363,-0.214731,0.0898769,
0.0216765,-0.052345,0.511439,-1.55937,0.0383947,-0.0127217,0.532743,-0.00035079,-0.000173457,-0.000201855,3.47158e-05,-0.00100609,-0.000286536,0.000145172,0,0,0,0,0,0,0,0.0217352,-0.0523346,0.511496,-1.55934,0.03868,1.55806,1.31814,-0.000510571,-0.000797287,0.00126905,0.00633786,-0.0063512,0.000233776,-0.000898519,0.0828892,-27.4565,-0.911547,26.6534,0.9967,3.21892,0.11821,2.14232,2.02208,1.30799,-1.1843,1.40403,0.238484,0.227192,0.700835,0.274785,-0.0204506,0.172841,-0.221324,0.0911311,
0.0216756,-0.0523454,0.511439,-1.55937,0.0383893,-0.0127221,0.53274,-0.000220672,-0.000102975,-0.000143187,4.00896e-05,-0.00136431,-8.59145e-05,-0.000812362,0,0,0,0,0,0,0,0.0217352,-0.0523346,0.511496,-1.55934,0.03868,1.55806,1.31814,-0.000510571,-0.000797287,0.00126905,0.00633786,-0.0063512,0.000233776,-0.000898519,0.0828892,-27.4565,-0.911547,26.6534,0.9967,3.21892,0.11821,2.14232,2.02208,1.30799,-1.1843,1.40403,0.238484,0.227192,0.700835,0.274785,-0.0204506,0.172841,-0.221324,0.0911311,
0.0228343,-0.0523879,0.512514,-1.55776,-0.00318797,-0.0493896,0.532257,0.00670666,-0.00836415,0.00597362,0.00182167,-1.14084,-1.0065,-0.0101153,0,0,0,0,0,0,0,0.0217352,-0.0523346,0.511496,-1.55934,0.03868,1.55806,1.31814,-0.000510571,-0.000797287,0.00126905,0.00633786,-0.0063512,0.000233776,-0.000898519,0.0828892,-27.4565,-0.911547,26.6534,0.9967,3.21892,0.11821,2.0535,1.77533,1.69688,-0.925439,1.17363,0.14934,0.141313,0.496218,0.173653,0.14935,0.146812,-0.217682,0.0923082,
0.0226207,-0.0524231,0.5126,-1.55813,-0.000460173,-0.0441235,0.534283,0.00448746,-0.00185909,-0.000644107,-0.00112168,-1.0491,-0.872255,0.0185742,0,0,0,0,0,0,0,0.0217352,-0.0523346,0.511496,-1.55934,0.03868,1.55806,1.31814,-0.000510571,-0.000797287,0.00126905,0.00633786,-0.0063512,0.000233776,-0.000898519,0.0828892,-27.4565,-0.911547,26.6534,0.9967,3.21892,0.11821,2.0535,1.77533,1.69688,-0.925439,1.17363,0.14934,0.141313,0.496218,0.173653,0.14935,0.146812,-0.217682,0.0923082,
0.0226283,-0.0524103,0.512605,-1.55809,-0.00482241,-0.0479204,0.534227,0.00191824,0.00319338,0.00137847,0.00974193,-1.09056,-0.94923,-0.0141371,0,0,0,0,0,0,0,0.0217352,-0.0523346,0.511496,-1.55934,0.03868,1.55806,1.31814,-0.000510571,-0.000797287,0.00126905,0.00633786,-0.0063512,0.000233776,-0.000898519,0.0828892,-27.4565,-0.911547,26.6534,0.9967,3.21892,0.11821,2.16371,1.85382,1.64641,-1.0043,1.30194,0.155211,0.146478,0.589036,0.182934,0.0902187,0.153598,-0.243703,0.0917282,
0.0226281,-0.0523973,0.512602,-1.55805,-0.0092994,-0.0519266,0.534183,-4.80499e-05,0.00325852,-0.000853383,0.00945425,-1.11925,-1.00156,-0.0108266,0,0,0,0,0,0,0,0.0217356,-0.052323,0.511493,-1.55935,0.0386447,1.55801,1.31814,-0.000376786,0.000563064,-0.000107863,0.00656422,-0.0335523,-0.0217547,0.000840479,0.106693,-27.6073,-0.812364,26.8042,0.233151,2.86095,0.0641939,2.16371,1.85382,1.64641,-1.0043,1.30194,0.155211,0.146478,0.589036,0.182934,0.0902187,0.153598,-0.243703,0.0917282,
0.0226182,-0.0523868,0.512589,-1.55802,-0.0138649,-0.0560897,0.534132,-0.00249208,0.0026124,-0.00330009,0.00643589,-1.14138,-1.04077,-0.0128604,0,0,0,0,0,0,0,0.0217356,-0.052323,0.511493,-1.55935,0.0386447,1.55801,1.31814,-0.000376786,0.000563064,-0.000107863,0.00656422,-0.0335523,-0.0217547,0.000840479,0.106693,-27.6073,-0.812364,26.8042,0.233151,2.86095,0.0641939,2.60565,3.39227,1.93097,-1.97586,1.51743,0.72884,0.721217,0.667905,0.778802,0.162397,0.260944,-0.171111,0.0959258,
0.0225986,-0.0523778,0.512566,-1.55801,-0.0185014,-0.0603732,0.534079,-0.00489372,0.00226933,-0.0057484,0.00292873,-1.15913,-1.07087,-0.0131931,0,0,0,0,0,0,0,0.0217356,-0.052323,0.511493,-1.55935,0.0386447,1.55801,1.31814,-0.000376786,0.000563064,-0.000107863,0.00656422,-0.0335523,-0.0217547,0.000840479,0.106693,-27.6073,-0.812364,26.8042,0.233151,2.86095,0.0641939,2.40246,4.67348,2.1433,-2.87369,1.26122,1.35867,1.34395,0.490396,1.43941,0.236311,0.274254,-0.140642,0.10232,
0.0225699,-0.0523682,0.512534,-1.55801,-0.0231959,-0.0647493,0.534025,-0.00716834,0.00239982,-0.00804064,-0.000405468,-1.17362,-1.09403,-0.0135703,0,0,0,0,0,0,0,0.0217356,-0.052323,0.511493,-1.55935,0.0386447,1.55801,1.31814,-0.000376786,0.000563064,-0.000107863,0.00656422,-0.0335523,-0.0217547,0.000840479,0.106693,-27.6073,-0.812364,26.8042,0.233151,2.86095,0.0641939,2.40246,4.67348,2.1433,-2.87369,1.26122,1.35867,1.34395,0.490396,1.43941,0.236311,0.274254,-0.140642,0.10232,
0.0170786,-0.0513959,0.506695,-1.56137,0.00404912,-0.0551015,0.530076,-0.159136,0.0452864,-0.172753,-0.103223,-1.02012,-1.21208,-0.0641369,0,0,0,0,0,0,0,0.0217356,-0.052323,0.511493,-1.55935,0.0386447,1.55801,1.31814,-0.000376786,0.000563064,-0.000107863,0.00656422,-0.0335523,-0.0217547,0.000840479,0.106693,-27.6073,-0.812364,26.8042,0.233151,2.86095,0.0641939,2.64036,3.83271,2.33707,-2.80403,1.449,0.882812,0.862882,0.603608,0.979596,-0.0589465,-0.215875,-0.521218,0.10456,
0.0172834,-0.0515124,0.506605,-1.56102,0.00332166,-0.0558323,0.528261,-0.151734,0.0442977,-0.160411,-0.0772826,-1.04396,-1.22999,-0.0870475,0,0,0,0,0,0,0,0.0217356,-0.052323,0.511493,-1.55935,0.0386447,1.55801,1.31814,-0.000376786,0.000563064,-0.000107863,0.00656422,-0.0335523,-0.0217547,0.000840479,0.106693,-27.6073,-0.812364,26.8042,0.233151,2.86095,0.0641939,2.64036,3.83271,2.33707,-2.80403,1.449,0.882812,0.862882,0.603608,0.979596,-0.0589465,-0.215875,-0.521218,0.10456,
0.0166496,-0.0513116,0.505937,-1.56134,-0.000965042,-0.0608456,0.527916,-0.158436,0.0501968,-0.167114,-0.0817685,-1.07167,-1.25332,-0.0862294,0,0,0,0,0,0,0,0.022236,-0.0523325,0.512016,-1.5584,0.0213395,1.55029,1.31813,0.0199843,-0.00152289,0.0273008,0.0397075,-0.638069,-0.305689,-0.00124966,-1.13507,-27.4565,-1.98668,25.134,-1.78833,1.08391,0.11821,3.70836,2.63311,2.6079,-2.47303,2.21283,0.00582506,-0.0115419,1.01346,0.104354,-0.384284,-0.746973,-0.89867,0.106689,
0.0159918,-0.0510883,0.505244,-1.56169,-0.00534899,-0.065936,0.527576,-0.164466,0.0558254,-0.173129,-0.0856894,-1.09599,-1.27262,-0.0850405,0,0,0,0,0,0,0,0.022236,-0.0523325,0.512016,-1.5584,0.0213395,1.55029,1.31813,0.0199843,-0.00152289,0.0273008,0.0397075,-0.638069,-0.305689,-0.00124966,-1.13507,-27.4565,-1.98668,25.134,-1.78833,1.08391,0.11821,3.70836,2.63311,2.6079,-2.47303,2.21283,0.00582506,-0.0115419,1.01346,0.104354,-0.384284,-0.746973,-0.89867,0.106689,
0.0153123,-0.0508437,0.50453,-1.56204,-0.00981828,-0.0710903,0.527239,-0.169876,0.0611384,-0.178547,-0.0891022,-1.11732,-1.28857,-0.0842544,0,0,0,0,0,0,0,0.022236,-0.0523325,0.512016,-1.5584,0.0213395,1.55029,1.31813,0.0199843,-0.00152289,0.0273008,0.0397075,-0.638069,-0.305689,-0.00124966,-1.13507,-27.4565,-1.98668,25.134,-1.78833,1.08391,0.11821,2.54711,3.04418,3.60138,-2.51973,0.906245,0.528939,0.513601,0.0924319,0.622084,0.144688,-0.742643,-0.838031,0.0914117,
0.0146134,-0.0505793,0.503797,-1.56241,-0.0143627,-0.0762971,0.526907,-0.174728,0.0661117,-0.183386,-0.0920523,-1.13609,-1.3017,-0.082977,0,0,0,0,0,0,0,0.022236,-0.0523325,0.512016,-1.5584,0.0213395,1.55029,1.31813,0.0199843,-0.00152289,0.0273008,0.0397075,-0.638069,-0.305689,-0.00124966,-1.13507,-27.4565,-1.98668,25.134,-1.78833,1.08391,0.11821,2.54711,3.04418,3.60138,-2.51973,0.906245,0.528939,0.513601,0.0924319,0.622084,0.144688,-0.742643,-0.838031,0.0914117,
0.0138971,-0.0502964,0.503046,-1.56279,-0.018973,-0.081547,0.526578,-0.179061,0.0707296,-0.187738,-0.0945879,-1.15259,-1.31247,-0.0822496,0,0,0,0,0,0,0,0.022236,-0.0523325,0.512016,-1.5584,0.0213395,1.55029,1.31813,0.0199843,-0.00152289,0.0273008,0.0397075,-0.638069,-0.305689,-0.00124966,-1.13507,-27.4565,-1.98668,25.134,-1.78833,1.08391,0.11821,2.39291,2.55857,3.82058,-2.15348,0.828663,0.370207,0.362637,0.061668,0.445987,0.131824,-0.727314,-0.969886,0.0647453,
0.0118625,-0.0504664,0.500993,-1.56444,0.00988086,-0.054014,0.524332,-0.307032,0.101501,-0.320618,-0.156013,-0.948173,-1.19723,-0.163683,0,0,0,0,0,0,0,0.0225615,-0.0527018,0.512322,-1.55811,-0.00158621,1.53636,1.31749,-0.00318742,-0.00734905,0.000778709,-0.00205535,-0.677495,-0.476909,-0.0433441,-3.44403,-26.1592,-4.61302,25.1855,-1.75812,0.68566,-0.083206,3.98251,0.215679,3.78873,-0.872212,2.11125,-1.13931,-1.1313,0.803224,-1.10363,-0.236294,-1.1253,-1.2822,0.0397007,
0.0122332,-0.0508712,0.50146,-1.56353,-0.0402965,-0.0826688,0.524662,-0.307911,0.103652,-0.320503,-0.148688,-1.00792,-1.23241,-0.143876,0,0,0,0,0,0,0,0.0225615,-0.0527018,0.512322,-1.55811,-0.00158621,1.53636,1.31749,-0.00318742,-0.00734905,0.000778709,-0.00205535,-0.677495,-0.476909,-0.0433441,-3.44403,-26.1592,-4.61302,25.1855,-1.75812,0.68566,-0.083206,3.98251,0.215679,3.78873,-0.872212,2.11125,-1.13931,-1.1313,0.803224,-1.10363,-0.236294,-1.1253,-1.2822,0.0397007,
0.0109665,-0.0504203,0.500143,-1.56414,-0.0444426,-0.0876623,0.524099,-0.316687,0.112733,-0.329274,-0.152524,-1.0365,-1.24836,-0.140859,0,0,0,0,0,0,0,0.0225615,-0.0527018,0.512322,-1.55811,-0.00158621,1.53636,1.31749,-0.00318742,-0.00734905,0.000778709,-0.00205535,-0.677495,-0.476909,-0.0433441,-3.44403,-26.1592,-4.61302,25.1855,-1.75812,0.68566,-0.083206,3.84907,-0.815122,3.90092,-0.250109,2.00043,-1.55863,-1.55368,0.730408,-1.53389,-0.258332,-1.2708,-1.40783,0.01625,
0.00966883,-0.0499361,0.498795,-1.56477,-0.0486922,-0.0927085,0.523538,-0.324413,0.12104,-0.337101,-0.155847,-1.06241,-1.26157,-0.140088,0,0,0,0,0,0,0,0.0225615,-0.0527018,0.512322,-1.55811,-0.00158621,1.53636,1.31749,-0.00318742,-0.00734905,0.000778709,-0.00205535,-0.677495,-0.476909,-0.0433441,-3.44403,-26.1592,-4.61302,25.1855,-1.75812,0.68566,-0.083206,3.84907,-0.815122,3.90092,-0.250109,2.00043,-1.55863,-1.55368,0.730408,-1.53389,-0.258332,-1.2708,-1.40783,0.01625,
0.00834383,-0.0494216,0.497419,-1.5654,-0.0530361,-0.0977984,0.522992,-0.331249,0.128617,-0.343897,-0.158675,-1.08598,-1.27247,-0.13661,0,0,0,0,0,0,0,0.0225615,-0.0527018,0.512322,-1.55811,-0.00158621,1.53636,1.31749,-0.00318742,-0.00734905,0.000778709,-0.00205535,-0.677495,-0.476909,-0.0433441,-3.44403,-26.1592,-4.61302,25.1855,-1.75812,0.68566,-0.083206,1.61408,0.146657,3.15623,-1.01194,0.811601,-0.467194,-0.470108,0.295757,-0.412855,-0.482565,-1.0234,-1.51688,-0.0139251,
0.00699487,-0.0488797,0.496019,-1.56605,-0.0574647,-0.102924,0.522446,-0.337239,0.135488,-0.350016,-0.161063,-1.10714,-1.28143,-0.136475,0,0,0,0,0,0,0,0.0222719,-0.0530806,0.511726,-1.55855,-0.0225637,1.51917,1.31601,-0.0292278,-0.00534072,-0.0586084,-0.0267133,-0.614061,-0.516288,-0.0470185,-5.80059,-24.4136,-6.68791,23.8406,-1.52558,0.871512,-0.197647,1.61408,0.146657,3.15623,-1.01194,0.811601,-0.467194,-0.470108,0.295757,-0.412855,-0.482565,-1.0234,-1.51688,-0.0139251,
0.00562473,-0.0483128,0.494598,-1.5667,-0.0619701,-0.108079,0.521917,-0.342535,0.141708,-0.355233,-0.163023,-1.12634,-1.28876,-0.132235,0,0,0,0,0,0,0,0.0222719,-0.0530806,0.511726,-1.55855,-0.0225637,1.51917,1.31601,-0.0292278,-0.00534072,-0.0586084,-0.0267133,-0.614061,-0.516288,-0.0470185,-5.80059,-24.4136,-6.68791,23.8406,-1.52558,0.871512,-0.197647,0.753604,-0.0555015,2.41417,-1.05056,0.575067,-0.292973,-0.304235,0.347436,-0.225892,-0.793593,-0.966495,-1.63686,-0.0467435,
0.00724114,-0.0499905,0.49639,-1.56658,-0.0344617,-0.0807952,0.520945,-0.449918,0.153788,-0.464954,-0.217822,-0.924204,-1.19832,-0.21622,0,0,0,0,0,0,0,0.0222719,-0.0530806,0.511726,-1.55855,-0.0225637,1.51917,1.31601,-0.0292278,-0.00534072,-0.0586084,-0.0267133,-0.614061,-0.516288,-0.0470185,-5.80059,-24.4136,-6.68791,23.8406,-1.52558,0.871512,-0.197647,0.753604,-0.0555015,2.41417,-1.05056,0.575067,-0.292973,-0.304235,0.347436,-0.225892,-0.793593,-0.966495,-1.63686,-0.0467435,
0.00694076,-0.0501378,0.495819,-1.56621,-0.0566589,-0.0990523,0.520705,-0.435734,0.146439,-0.452086,-0.19537,-0.944867,-1.20369,-0.239028,0,0,0,0,0,0,0,0.0222719,-0.0530806,0.511726,-1.55855,-0.0225637,1.51917,1.31601,-0.0292278,-0.00534072,-0.0586084,-0.0267133,-0.614061,-0.516288,-0.0470185,-5.80059,-24.4136,-6.68791,23.8406,-1.52558,0.871512,-0.197647,1.38354,-0.523654,3.04142,-0.580078,0.80709,-0.65702,-0.665924,0.362159,-0.607785,-0.604665,-1.00043,-1.64722,-0.0831198,
0.00515064,-0.0495064,0.494002,-1.567,-0.060616,-0.10393,0.520531,-0.44753,0.157858,-0.454269,-0.198661,-0.98928,-1.21947,-0.0434413,0,0,0,0,0,0,0,0.0222719,-0.0530806,0.511726,-1.55855,-0.0225637,1.51917,1.31601,-0.0292278,-0.00534072,-0.0586084,-0.0267133,-0.614061,-0.516288,-0.0470185,-5.80059,-24.4136,-6.68791,23.8406,-1.52558,0.871512,-0.197647,3.06283,0.0769246,2.80673,-0.951244,2.12886,-0.823077,-0.828157,1.12797,-0.768716,-0.775628,-0.901158,-1.54306,-0.110528,
0.00333337,-0.048837,0.492126,-1.56781,-0.0646886,-0.108856,0.519774,-0.454317,0.167349,-0.468834,-0.202577,-1.01815,-1.23138,-0.189306,0,0,0,0,0,0,0,0.0222719,-0.0530806,0.511726,-1.55855,-0.0225637,1.51917,1.31601,-0.0292278,-0.00534072,-0.0586084,-0.0267133,-0.614061,-0.516288,-0.0470185,-5.80059,-24.4136,-6.68791,23.8406,-1.52558,0.871512,-0.197647,3.06283,0.0769246,2.80673,-0.951244,2.12886,-0.823077,-0.828157,1.12797,-0.768716,-0.775628,-0.901158,-1.54306,-0.110528,
0.00148056,-0.048131,0.49022,-1.56863,-0.0688771,-0.113823,0.519094,-0.463204,0.17649,-0.476668,-0.205125,-1.04714,-1.24176,-0.169859,0,0,0,0,0,0,0,0.0205383,-0.053535,0.509225,-1.55987,-0.0444135,1.49989,1.31427,-0.0705365,-0.0159352,-0.0952107,-0.0505331,-0.698995,-0.634264,-0.0615213,-6.35998,-23.4139,-7.31078,23.912,-0.829777,1.79986,-0.278213,1.86501,0.00301126,2.16269,-0.835679,1.44903,-0.483327,-0.495452,0.844192,-0.427364,-0.776647,-0.724108,-1.41405,-0.143745,
-0.000401423,-0.0473922,0.488283,-1.56946,-0.0731704,-0.118824,0.518416,-0.470495,0.184697,-0.484178,-0.207266,-1.07331,-1.25021,-0.169572,0,0,0,0,0,0,0,0.0205383,-0.053535,0.509225,-1.55987,-0.0444135,1.49989,1.31427,-0.0705365,-0.0159352,-0.0952107,-0.0505331,-0.698995,-0.634264,-0.0615213,-6.35998,-23.4139,-7.31078,23.912,-0.829777,1.79986,-0.278213,1.86501,0.00301126,2.16269,-0.835679,1.44903,-0.483327,-0.495452,0.844192,-0.427364,-0.776647,-0.724108,-1.41405,-0.143745,
-0.00230898,-0.0466239,0.48632,-1.5703,-0.077559,-0.123852,0.51775,-0.476889,0.192079,-0.490613,-0.208957,-1.09714,-1.25708,-0.166454,0,0,0,0,0,0,0,0.0205383,-0.053535,0.509225,-1.55987,-0.0444135,1.49989,1.31427,-0.0705365,-0.0159352,-0.0952107,-0.0505331,-0.698995,-0.634264,-0.0615213,-6.35998,-23.4139,-7.31078,23.912,-0.829777,1.79986,-0.278213,0.226674,-0.439202,2.08246,-0.268403,0.192702,-0.201799,-0.224851,0.124144,-0.157636,-0.461619,-0.527238,-1.24067,-0.16789,
0.00228775,-0.0493496,0.49113,-1.56904,-0.0513136,-0.0972313,0.517108,-0.567494,0.192579,-0.585346,-0.259002,-0.868957,-1.17055,-0.308865,0,0,0,0,0,0,0,0.0205383,-0.053535,0.509225,-1.55987,-0.0444135,1.49989,1.31427,-0.0705365,-0.0159352,-0.0952107,-0.0505331,-0.698995,-0.634264,-0.0615213,-6.35998,-23.4139,-7.31078,23.912,-0.829777,1.79986,-0.278213,0.226674,-0.439202,2.08246,-0.268403,0.192702,-0.201799,-0.224851,0.124144,-0.157636,-0.461619,-0.527238,-1.24067,-0.16789,
0.000645376,-0.0498766,0.488824,-1.56929,-0.0768858,-0.118906,0.517971,-0.549588,0.180397,-0.562876,-0.229656,-0.911957,-1.18298,-0.211379,0,0,0,0,0,0,0,0.0205383,-0.053535,0.509225,-1.55987,-0.0444135,1.49989,1.31427,-0.0705365,-0.0159352,-0.0952107,-0.0505331,-0.698995,-0.634264,-0.0615213,-6.35998,-23.4139,-7.31078,23.912,-0.829777,1.79986,-0.278213,0.362784,0.328458,2.54181,-0.475537,0.0229564,0.141015,0.11957,-0.092056,0.181242,-0.113038,-0.341309,-1.01475,-0.193002,
-0.00160111,-0.0491038,0.486524,-1.57022,-0.0806916,-0.12369,0.51714,-0.561622,0.193205,-0.575005,-0.233214,-0.951454,-1.1958,-0.207693,0,0,0,0,0,0,0,0.0168152,-0.0537455,0.504927,-1.56226,-0.0663523,1.47776,1.31181,-0.132069,-0.00754709,-0.169468,-0.0943011,-0.711977,-0.756225,-0.068771,-6.51074,-23.0171,-7.48534,24.4873,-0.926822,1.9262,-0.291031,1.03558,0.891438,2.07623,-0.881087,0.642731,0.244855,0.22122,0.306615,0.298313,-0.253871,-0.261344,-0.887931,-0.214894,
-0.00388954,-0.0482849,0.484182,-1.57116,-0.0846427,-0.128515,0.516324,-0.572107,0.20473,-0.585571,-0.23621,-0.987784,-1.20635,-0.204037,0,0,0,0,0,0,0,0.0168152,-0.0537455,0.504927,-1.56226,-0.0663523,1.47776,1.31181,-0.132069,-0.00754709,-0.169468,-0.0943011,-0.711977,-0.756225,-0.068771,-6.51074,-23.0171,-7.48534,24.4873,-0.926822,1.9262,-0.291031,1.03558,0.891438,2.07623,-0.881087,0.642731,0.244855,0.22122,0.306615,0.298313,-0.253871,-0.261344,-0.887931,-0.214894,
-0.00621443,-0.0474247,0.481803,-1.57212,-0.0887268,-0.133375,0.515522,-0.581223,0.21506,-0.594759,-0.238673,-1.02102,-1.215,-0.200406,0,0,0,0,0,0,0,0.0168152,-0.0537455,0.504927,-1.56226,-0.0663523,1.47776,1.31181,-0.132069,-0.00754709,-0.169468,-0.0943011,-0.711977,-0.756225,-0.068771,-6.51074,-23.0171,-7.48534,24.4873,-0.926822,1.9262,-0.291031,0.69742,0.989825,1.29961,-1.03803,0.700507,0.401459,0.367751,0.477404,0.470482,-0.484779,-0.168636,-0.849048,-0.230144,
-0.00857093,-0.0465275,0.479392,-1.57308,-0.0929319,-0.138263,0.514735,-0.589124,0.22428,-0.602727,-0.240637,-1.05129,-1.22204,-0.196798,0,0,0,0,0,0,0,0.0168152,-0.0537455,0.504927,-1.56226,-0.0663523,1.47776,1.31181,-0.132069,-0.00754709,-0.169468,-0.0943011,-0.711977,-0.756225,-0.068771,-6.51074,-23.0171,-7.48534,24.4873,-0.926822,1.9262,-0.291031,0.69742,0.989825,1.29961,-1.03803,0.700507,0.401459,0.367751,0.477404,0.470482,-0.484779,-0.168636,-0.849048,-0.230144,
-0.0208596,-0.042596,0.467325,-1.57917,-0.0957679,-0.14551,0.508159,-0.735788,0.29807,-0.750851,-0.304224,-1.07523,-1.1991,-0.252095,0,0,0,0,0,0,0,0.0168152,-0.0537455,0.504927,-1.56226,-0.0663523,1.47776,1.31181,-0.132069,-0.00754709,-0.169468,-0.0943011,-0.711977,-0.756225,-0.068771,-6.51074,-23.0171,-7.48534,24.4873,-0.926822,1.9262,-0.291031,0.403599,1.08662,1.21044,-0.983538,0.436608,0.549481,0.511259,0.308827,0.618179,-0.354149,-0.0762782,-0.704868,-0.245342,
-0.00373712,-0.0491052,0.484803,-1.57197,-0.0720807,-0.117099,0.514478,-0.671323,0.223809,-0.68578,-0.290053,-0.839309,-1.15027,-0.279146,0,0,0,0,0,0,0,0.0168152,-0.0537455,0.504927,-1.56226,-0.0663523,1.47776,1.31181,-0.132069,-0.00754709,-0.169468,-0.0943011,-0.711977,-0.756225,-0.068771,-6.51074,-23.0171,-7.48534,24.4873,-0.926822,1.9262,-0.291031,0.403599,1.08662,1.21044,-0.983538,0.436608,0.549481,0.511259,0.308827,0.618179,-0.354149,-0.0762782,-0.704868,-0.245342,
-0.00769885,-0.0488185,0.479936,-1.57332,-0.0977123,-0.142126,0.514089,-0.654597,0.214703,-0.667264,-0.258767,-0.896829,-1.16754,-0.231409,0,0,0,0,0,0,0,0.00894389,-0.0537037,0.4954,-1.56683,-0.0947001,1.44461,1.30826,-0.238653,0.00853125,-0.260069,-0.121104,-0.653734,-0.803476,-0.0736122,-6.86779,-23.7392,-7.73528,24.6103,-1.24451,1.82641,-0.270889,1.10885,1.04381,0.8145,-0.955242,1.05323,0.366615,0.332234,0.689142,0.430888,-0.46748,-0.0372842,-0.60403,-0.259191,
-0.0103667,-0.0479072,0.477217,-1.57436,-0.101468,-0.146836,0.513181,-0.666955,0.227829,-0.679728,-0.261729,-0.93895,-1.1775,-0.226975,0,0,0,0,0,0,0,0.00894389,-0.0537037,0.4954,-1.56683,-0.0947001,1.44461,1.30826,-0.238653,0.00853125,-0.260069,-0.121104,-0.653734,-0.803476,-0.0736122,-6.86779,-23.7392,-7.73528,24.6103,-1.24451,1.82641,-0.270889,-0.0615968,1.70373,0.860911,-1.40331,0.20209,0.98627,0.953231,0.228031,1.06078,-0.388326,0.0234983,-0.61499,-0.269282,
-0.0130771,-0.0469491,0.474455,-1.57542,-0.105379,-0.151579,0.512291,-0.677612,0.239518,-0.690473,-0.264137,-0.977771,-1.18563,-0.222584,0,0,0,0,0,0,0,0.00894389,-0.0537037,0.4954,-1.56683,-0.0947001,1.44461,1.30826,-0.238653,0.00853125,-0.260069,-0.121104,-0.653734,-0.803476,-0.0736122,-6.86779,-23.7392,-7.73528,24.6103,-1.24451,1.82641,-0.270889,-0.0615968,1.70373,0.860911,-1.40331,0.20209,0.98627,0.953231,0.228031,1.06078,-0.388326,0.0234983,-0.61499,-0.269282,
-0.0158242,-0.0459496,0.471656,-1.57648,-0.109433,-0.156348,0.511418,-0.686761,0.249875,-0.6997,-0.266007,-1.01335,-1.19225,-0.218233,0,0,0,0,0,0,0,0.00894389,-0.0537037,0.4954,-1.56683,-0.0947001,1.44461,1.30826,-0.238653,0.00853125,-0.260069,-0.121104,-0.653734,-0.803476,-0.0736122,-6.86779,-23.7392,-7.73528,24.6103,-1.24451,1.82641,-0.270889,-0.257618,0.959412,-0.31494,-1.25533,0.60736,0.700742,0.656092,0.695222,0.791559,-0.943382,-0.0714871,-0.773406,-0.279708,
-0.0186024,-0.0449136,0.468826,-1.57755,-0.113616,-0.161138,0.510562,-0.694567,0.259,-0.707576,-0.267363,-1.04581,-1.19759,-0.21392,0,0,0,0,0,0,0,0.00894389,-0.0537037,0.4954,-1.56683,-0.0947001,1.44461,1.30826,-0.238653,0.00853125,-0.260069,-0.121104,-0.653734,-0.803476,-0.0736122,-6.86779,-23.7392,-7.73528,24.6103,-1.24451,1.82641,-0.270889,-0.257618,0.959412,-0.31494,-1.25533,0.60736,0.700742,0.656092,0.695222,0.791559,-0.943382,-0.0714871,-0.773406,-0.279708,
-0.00941577,-0.0475486,0.479285,-1.57586,-0.0961153,-0.140593,0.51072,-0.71135,0.260537,-0.702374,-0.320975,-0.853249,-1.14218,-0.297445,0,0,0,0,0,0,0,-0.000568697,-0.0533304,0.485318,-1.57133,-0.113816,1.42058,1.30474,-0.30227,0.023564,-0.341175,-0.150416,-0.570794,-0.715824,-0.109944,-6.58612,-24.2153,-7.53691,24.2136,-1.34888,1.57464,-0.338638,0.743446,0.0744801,0.146163,-0.526494,1.14185,0.0327723,0.000521504,0.893561,0.0896719,-0.812146,-0.136318,-0.768165,-0.284287,
-0.0301329,-0.0457983,0.45627,-1.58365,-0.146852,-0.197451,0.506368,-0.746854,0.254597,-0.738714,-0.289102,-0.917253,-1.09852,-0.242158,0,0,0,0,0,0,0,-0.000568697,-0.0533304,0.485318,-1.57133,-0.113816,1.42058,1.30474,-0.30227,0.023564,-0.341175,-0.150416,-0.570794,-0.715824,-0.109944,-6.58612,-24.2153,-7.53691,24.2136,-1.34888,1.57464,-0.338638,1.74752,-1.30254,0.474102,0.475745,1.71111,-0.858913,-0.881466,1.12851,-0.838512,-0.728344,-0.266398,-0.782224,-0.287615,
-0.0331765,-0.0447448,0.453257,-1.58484,-0.150655,-0.201713,0.50542,-0.760914,0.263379,-0.753077,-0.296814,-0.950668,-1.06545,-0.23714,0,0,0,0,0,0,0,-0.000568697,-0.0533304,0.485318,-1.57133,-0.113816,1.42058,1.30474,-0.30227,0.023564,-0.341175,-0.150416,-0.570794,-0.715824,-0.109944,-6.58612,-24.2153,-7.53691,24.2136,-1.34888,1.57464,-0.338638,1.74752,-1.30254,0.474102,0.475745,1.71111,-0.858913,-0.881466,1.12851,-0.838512,-0.728344,-0.266398,-0.782224,-0.287615,
-0.0362599,-0.0436587,0.450186,-1.58605,-0.154584,-0.205782,0.504491,-0.770855,0.271519,-0.767854,-0.303424,-0.982159,-1.01739,-0.232153,0,0,0,0,0,0,0,-0.000568697,-0.0533304,0.485318,-1.57133,-0.113816,1.42058,1.30474,-0.30227,0.023564,-0.341175,-0.150416,-0.570794,-0.715824,-0.109944,-6.58612,-24.2153,-7.53691,24.2136,-1.34888,1.57464,-0.338638,0.554809,-2.14743,0.186964,0.907465,0.966537,-0.952103,-0.981059,0.7819,-0.93342,-0.794332,-0.378673,-0.879609,-0.290108,
-0.0393737,-0.0425428,0.44706,-1.58729,-0.15863,-0.20961,0.503582,-0.778447,0.278972,-0.781609,-0.308814,-1.01149,-0.956953,-0.227253,0,0,0,0,0,0,0,-0.000568697,-0.0533304,0.485318,-1.57133,-0.113816,1.42058,1.30474,-0.30227,0.023564,-0.341175,-0.150416,-0.570794,-0.715824,-0.109944,-6.58612,-24.2153,-7.53691,24.2136,-1.34888,1.57464,-0.338638,0.554809,-2.14743,0.186964,0.907465,0.966537,-0.952103,-0.981059,0.7819,-0.93342,-0.794332,-0.378673,-0.879609,-0.290108,
-0.0425116,-0.0414004,0.443883,-1.58854,-0.162783,-0.213153,0.502692,-0.784463,0.285601,-0.794046,-0.313145,-1.03835,-0.885697,-0.222453,0,0,0,0,0,0,0,-0.000568697,-0.0533304,0.485318,-1.57133,-0.113816,1.42058,1.30474,-0.30227,0.023564,-0.341175,-0.150416,-0.570794,-0.715824,-0.109944,-6.58612,-24.2153,-7.53691,24.2136,-1.34888,1.57464,-0.338638,-0.855986,0.174063,-0.291994,-0.882289,0.193793,0.488177,0.465655,0.469392,0.551617,-0.985384,-0.285124,-0.902431,-0.292809,
-0.0299503,-0.044355,0.456416,-1.58599,-0.146949,-0.196383,0.503174,-0.742453,0.30517,-0.734576,-0.342904,-0.918449,-1.10773,-0.304646,0,0,0,0,0,0,0,-0.0115329,-0.0524334,0.473918,-1.57649,-0.1311,1.39987,1.30103,-0.395447,0.0265347,-0.416165,-0.179771,-0.521504,-0.611142,-0.127607,-7.50256,-23.64,-8.26293,23.6383,-1.54389,1.12328,-0.278213,-0.855986,0.174063,-0.291994,-0.882289,0.193793,0.488177,0.465655,0.469392,0.551617,-0.985384,-0.285124,-0.902431,-0.292809,
-0.0427561,-0.044158,0.443151,-1.59045,-0.1656,-0.1992,0.502442,-0.766749,0.264895,-0.759022,-0.336994,-0.929438,-0.17455,-0.244806,0,0,0,0,0,0,0,-0.0115329,-0.0524334,0.473918,-1.57649,-0.1311,1.39987,1.30103,-0.395447,0.0265347,-0.416165,-0.179771,-0.521504,-0.611142,-0.127607,-7.50256,-23.64,-8.26293,23.6383,-1.54389,1.12328,-0.278213,-0.235791,0.815009,-1.14848,-1.55527,1.07309,0.638742,0.606549,1.13134,0.73508,-1.45942,-0.278158,-0.964722,-0.29265,
-0.0458692,-0.0430566,0.440068,-1.59179,-0.169431,-0.199579,0.501484,-0.778278,0.275344,-0.770788,-0.334238,-0.957959,-0.0947809,-0.239671,0,0,0,0,0,0,0,-0.0115329,-0.0524334,0.473918,-1.57649,-0.1311,1.39987,1.30103,-0.395447,0.0265347,-0.416165,-0.179771,-0.521504,-0.611142,-0.127607,-7.50256,-23.64,-8.26293,23.6383,-1.54389,1.12328,-0.278213,-0.642488,1.18677,-1.10551,-1.84161,0.819951,0.902577,0.872635,1.00418,1.00416,-1.4833,-0.279509,-1.02176,-0.292739,
-0.0490236,-0.0419222,0.436943,-1.59311,-0.173365,-0.199671,0.500545,-0.788604,0.283603,-0.781362,-0.331115,-0.98329,-0.0229337,-0.23472,0,0,0,0,0,0,0,-0.0115329,-0.0524334,0.473918,-1.57649,-0.1311,1.39987,1.30103,-0.395447,0.0265347,-0.416165,-0.179771,-0.521504,-0.611142,-0.127607,-7.50256,-23.64,-8.26293,23.6383,-1.54389,1.12328,-0.278213,-0.642488,1.18677,-1.10551,-1.84161,0.819951,0.902577,0.872635,1.00418,1.00416,-1.4833,-0.279509,-1.02176,-0.292739,
-0.0522151,-0.0407628,0.433779,-1.59443,-0.177387,-0.1995,0.499625,-0.79787,0.28984,-0.790884,-0.327874,-1.00569,0.0426754,-0.229849,0,0,0,0,0,0,0,-0.0115329,-0.0524334,0.473918,-1.57649,-0.1311,1.39987,1.30103,-0.395447,0.0265347,-0.416165,-0.179771,-0.521504,-0.611142,-0.127607,-7.50256,-23.64,-8.26293,23.6383,-1.54389,1.12328,-0.278213,0.341336,0.0390762,-0.863383,-1.09677,1.36174,0.144215,0.124094,1.22061,0.218957,-1.42147,-0.486732,-1.01322,-0.290261,
-0.0554399,-0.0395859,0.430581,-1.59572,-0.181489,-0.199086,0.498725,-0.806199,0.294226,-0.799471,-0.324679,-1.02544,0.103485,-0.225041,0,0,0,0,0,0,0,-0.0252563,-0.0512271,0.459641,-1.58286,-0.149413,1.38188,1.29664,-0.452455,0.0360081,-0.45784,-0.226007,-0.567191,-0.424011,-0.151021,-5.70141,-24.4136,-6.48558,24.7849,-1.28754,2.66137,-0.250748,0.341336,0.0390762,-0.863383,-1.09677,1.36174,0.144215,0.124094,1.22061,0.218957,-1.42147,-0.486732,-1.01322,-0.290261,
-0.0424814,-0.0423916,0.443389,-1.59205,-0.165966,-0.208635,0.499319,-0.762253,0.317013,-0.754956,-0.387608,-0.938225,-0.543736,-0.305765,0,0,0,0,0,0,0,-0.0252563,-0.0512271,0.459641,-1.58286,-0.149413,1.38188,1.29664,-0.452455,0.0360081,-0.45784,-0.226007,-0.567191,-0.424011,-0.151021,-5.70141,-24.4136,-6.48558,24.7849,-1.28754,2.66137,-0.250748,0.756269,-2.01878,-0.150924,0.49746,1.24339,-0.927777,-0.95116,0.985087,-0.895019,-1.02715,-0.636898,-0.940852,-0.286286,
-0.057589,-0.0423146,0.427738,-1.59755,-0.185549,-0.192585,0.498019,-0.773273,0.27029,-0.765933,-0.303395,-0.944707,0.0802917,-0.242793,0,0,0,0,0,0,0,-0.0252563,-0.0512271,0.459641,-1.58286,-0.149413,1.38188,1.29664,-0.452455,0.0360081,-0.45784,-0.226007,-0.567191,-0.424011,-0.151021,-5.70141,-24.4136,-6.48558,24.7849,-1.28754,2.66137,-0.250748,0.756269,-2.01878,-0.150924,0.49746,1.24339,-0.927777,-0.95116,0.985087,-0.895019,-1.02715,-0.636898,-0.940852,-0.286286,
-0.0607225,-0.0412096,0.424632,-1.59875,-0.189427,-0.192267,0.497068,-0.783387,0.276228,-0.776405,-0.299471,-0.969696,0.0793172,-0.237628,0,0,0,0,0,0,0,-0.0252563,-0.0512271,0.459641,-1.58286,-0.149413,1.38188,1.29664,-0.452455,0.0360081,-0.45784,-0.226007,-0.567191,-0.424011,-0.151021,-5.70141,-24.4136,-6.48558,24.7849,-1.28754,2.66137,-0.250748,-0.734877,-1.37683,1.10757,0.431895,-0.520766,-0.287117,-0.32169,-0.277978,-0.253384,-0.229471,-0.537446,-0.720458,-0.28224,
-0.0638949,-0.0400943,0.421487,-1.59995,-0.193392,-0.191879,0.496137,-0.793086,0.278834,-0.786424,-0.300479,-0.991222,0.0972225,-0.232857,0,0,0,0,0,0,0,-0.0252563,-0.0512271,0.459641,-1.58286,-0.149413,1.38188,1.29664,-0.452455,0.0360081,-0.45784,-0.226007,-0.567191,-0.424011,-0.151021,-5.70141,-24.4136,-6.48558,24.7849,-1.28754,2.66137,-0.250748,0.634332,-1.11821,1.69291,0.280813,0.0713286,-0.429403,-0.452773,-0.144492,-0.402346,0.016969,-0.673334,-0.567425,-0.278517,
-0.0670801,-0.0389722,0.418289,-1.60116,-0.197442,-0.191367,0.495224,-0.796304,0.280539,-0.799436,-0.302388,-1.01239,0.127963,-0.22808,0,0,0,0,0,0,0,-0.0252563,-0.0512271,0.459641,-1.58286,-0.149413,1.38188,1.29664,-0.452455,0.0360081,-0.45784,-0.226007,-0.567191,-0.424011,-0.151021,-5.70141,-24.4136,-6.48558,24.7849,-1.28754,2.66137,-0.250748,0.634332,-1.11821,1.69291,0.280813,0.0713286,-0.429403,-0.452773,-0.144492,-0.402346,0.016969,-0.673334,-0.567425,-0.278517,
-0.0702791,-0.0378448,0.415056,-1.60237,-0.201577,-0.190692,0.494331,-0.799756,0.281842,-0.808125,-0.304091,-1.03376,0.168803,-0.223389,0,0,0,0,0,0,0,-0.0411155,-0.0492245,0.443357,-1.59183,-0.169357,1.37528,1.29115,-0.492799,0.0628158,-0.509009,-0.281223,-0.590491,-0.113823,-0.167015,-4.07879,-24.7865,-4.71221,25.0348,-1.03119,2.75475,-0.183914,2.30906,0.256357,0.636455,-0.830643,1.7082,-0.0890842,-0.105969,0.902946,-0.035245,-0.483258,-0.594484,-0.46991,-0.272702,
-0.0734914,-0.0367103,0.411809,-1.60359,-0.205802,-0.189861,0.493455,-0.80306,0.283619,-0.811719,-0.303318,-1.05629,0.207529,-0.218835,0,0,0,0,0,0,0,-0.0411155,-0.0492245,0.443357,-1.59183,-0.169357,1.37528,1.29115,-0.492799,0.0628158,-0.509009,-0.281223,-0.590491,-0.113823,-0.167015,-4.07879,-24.7865,-4.71221,25.0348,-1.03119,2.75475,-0.183914,2.30906,0.256357,0.636455,-0.830643,1.7082,-0.0890842,-0.105969,0.902946,-0.035245,-0.483258,-0.594484,-0.46991,-0.272702,
-0.0573493,-0.0408919,0.427945,-1.59924,-0.186042,-0.206606,0.495,-0.770786,0.314881,-0.763768,-0.362775,-0.955641,-0.236593,-0.301555,0,0,0,0,0,0,0,-0.0411155,-0.0492245,0.443357,-1.59183,-0.169357,1.37528,1.29115,-0.492799,0.0628158,-0.509009,-0.281223,-0.590491,-0.113823,-0.167015,-4.07879,-24.7865,-4.71221,25.0348,-1.03119,2.75475,-0.183914,1.94194,2.01877,0.125664,-1.96271,1.51811,0.893992,0.871095,0.802402,0.977804,-0.464817,-0.398322,-0.216279,-0.266664,
-0.0743902,-0.0399325,0.410422,-1.60661,-0.206969,-0.193607,0.492641,-0.773741,0.260031,-0.781303,-0.302743,-0.966624,0.193684,-0.242064,0,0,0,0,0,0,0,-0.0411155,-0.0492245,0.443357,-1.59183,-0.169357,1.37528,1.29115,-0.492799,0.0628158,-0.509009,-0.281223,-0.590491,-0.113823,-0.167015,-4.07879,-24.7865,-4.71221,25.0348,-1.03119,2.75475,-0.183914,1.94194,2.01877,0.125664,-1.96271,1.51811,0.893992,0.871095,0.802402,0.977804,-0.464817,-0.398322,-0.216279,-0.266664,
-0.0775043,-0.0388712,0.407276,-1.6078,-0.210955,-0.192818,0.491694,-0.778534,0.265334,-0.786599,-0.298252,-0.996468,0.197467,-0.236857,0,0,0,0,0,0,0,-0.0411155,-0.0492245,0.443357,-1.59183,-0.169357,1.37528,1.29115,-0.492799,0.0628158,-0.509009,-0.281223,-0.590491,-0.113823,-0.167015,-4.07879,-24.7865,-4.71221,25.0348,-1.03119,2.75475,-0.183914,2.81411,-0.342315,-0.270972,-0.406768,2.08068,-0.370601,-0.40065,1.11058,-0.314401,-0.440926,-0.60965,-0.0574585,-0.260204,
-0.080634,-0.0377996,0.404113,-1.60899,-0.215048,-0.191959,0.490765,-0.782434,0.267895,-0.790637,-0.297818,-1.02324,0.214733,-0.232181,0,0,0,0,0,0,0,-0.0588088,-0.0461794,0.425345,-1.60021,-0.190664,1.37493,1.28693,-0.535568,0.109506,-0.553103,-0.241028,-0.677401,0.0111323,-0.112871,-4.25335,-26.433,-4.96214,24.8087,-0.969852,1.7138,-0.210464,2.81411,-0.342315,-0.270972,-0.406768,2.08068,-0.370601,-0.40065,1.11058,-0.314401,-0.440926,-0.60965,-0.0574585,-0.260204,
-0.0837741,-0.0367225,0.40094,-1.61019,-0.219239,-0.190992,0.489854,-0.785023,0.269285,-0.793334,-0.298503,-1.0478,0.241534,-0.227626,0,0,0,0,0,0,0,-0.0588088,-0.0461794,0.425345,-1.60021,-0.190664,1.37493,1.28693,-0.535568,0.109506,-0.553103,-0.241028,-0.677401,0.0111323,-0.112871,-4.25335,-26.433,-4.96214,24.8087,-0.969852,1.7138,-0.210464,3.34759,-0.390069,-0.783762,-0.431184,2.70539,-0.480397,-0.493212,1.55079,-0.438243,-0.67954,-0.584617,-0.0608342,-0.254848,
-0.086918,-0.0356396,0.397763,-1.61137,-0.223523,-0.189928,0.488962,-0.785971,0.270703,-0.794369,-0.297414,-1.07101,0.266041,-0.223224,0,0,0,0,0,0,0,-0.0588088,-0.0461794,0.425345,-1.60021,-0.190664,1.37493,1.28693,-0.535568,0.109506,-0.553103,-0.241028,-0.677401,0.0111323,-0.112871,-4.25335,-26.433,-4.96214,24.8087,-0.969852,1.7138,-0.210464,3.04605,-0.39747,-1.40384,-0.467883,2.82463,-0.422232,-0.427723,1.76341,-0.385746,-0.940729,-0.510734,-0.110243,-0.251224,
-0.0900596,-0.0345526,0.394587,-1.61256,-0.227894,-0.188782,0.488086,-0.785405,0.271769,-0.793887,-0.295172,-1.0928,0.286697,-0.219001,0,0,0,0,0,0,0,-0.0588088,-0.0461794,0.425345,-1.60021,-0.190664,1.37493,1.28693,-0.535568,0.109506,-0.553103,-0.241028,-0.677401,0.0111323,-0.112871,-4.25335,-26.433,-4.96214,24.8087,-0.969852,1.7138,-0.210464,3.04605,-0.39747,-1.40384,-0.467883,2.82463,-0.422232,-0.427723,1.76341,-0.385746,-0.940729,-0.510734,-0.110243,-0.251224,
-0.0742144,-0.0385216,0.410626,-1.60833,-0.207365,-0.203215,0.489745,-0.782041,0.303069,-0.775715,-0.359552,-0.967194,-0.0165329,-0.298781,0,0,0,0,0,0,0,-0.0588088,-0.0461794,0.425345,-1.60021,-0.190664,1.37493,1.28693,-0.535568,0.109506,-0.553103,-0.241028,-0.677401,0.0111323,-0.112871,-4.25335,-26.433,-4.96214,24.8087,-0.969852,1.7138,-0.210464,0.0231923,1.71811,-2.06874,-1.87129,1.01191,1.18845,1.17361,0.901853,1.25793,-1.02305,-0.239973,-0.088584,-0.255369,
-0.0930615,-0.0367746,0.391249,-1.61476,-0.23068,-0.186722,0.488527,-0.772911,0.252028,-0.782923,-0.29785,-1.0082,0.301528,-0.241522,0,0,0,0,0,0,0,-0.0774159,-0.0420512,0.406187,-1.60785,-0.213944,1.3766,1.28302,-0.573345,0.14075,-0.610264,-0.220746,-0.738041,0.118866,-0.112703,-3.51941,-28.1825,-4.08537,24.9594,-1.03119,1.7138,-0.157364,0.0231923,1.71811,-2.06874,-1.87129,1.01191,1.18845,1.17361,0.901853,1.25793,-1.02305,-0.239973,-0.088584,-0.255369,
-0.0961529,-0.0357472,0.388118,-1.61594,-0.234837,-0.185501,0.487581,-0.772863,0.256836,-0.782813,-0.29405,-1.03906,0.305206,-0.2366,0,0,0,0,0,0,0,-0.0774159,-0.0420512,0.406187,-1.60785,-0.213944,1.3766,1.28302,-0.573345,0.14075,-0.610264,-0.220746,-0.738041,0.118866,-0.112703,-3.51941,-28.1825,-4.08537,24.9594,-1.03119,1.7138,-0.157364,-0.698637,-0.332291,-1.71655,-0.450378,0.416038,0.24431,0.219001,0.600118,0.291816,-0.91072,-0.359111,-0.242084,-0.248471,
-0.0992433,-0.0347113,0.384988,-1.61711,-0.239096,-0.184229,0.486652,-0.772608,0.258986,-0.782517,-0.293453,-1.06476,0.317945,-0.232236,0,0,0,0,0,0,0,-0.0774159,-0.0420512,0.406187,-1.60785,-0.213944,1.3766,1.28302,-0.573345,0.14075,-0.610264,-0.220746,-0.738041,0.118866,-0.112703,-3.51941,-28.1825,-4.08537,24.9594,-1.03119,1.7138,-0.157364,-0.698637,-0.332291,-1.71655,-0.450378,0.416038,0.24431,0.219001,0.600118,0.291816,-0.91072,-0.359111,-0.242084,-0.248471,
-0.10233,-0.0336718,0.381861,-1.61829,-0.243443,-0.18288,0.48574,-0.771776,0.259866,-0.781662,-0.293736,-1.08684,0.337292,-0.227992,0,0,0,0,0,0,0,-0.0774159,-0.0420512,0.406187,-1.60785,-0.213944,1.3766,1.28302,-0.573345,0.14075,-0.610264,-0.220746,-0.738041,0.118866,-0.112703,-3.51941,-28.1825,-4.08537,24.9594,-1.03119,1.7138,-0.157364,-0.9625,-1.05286,-0.67988,0.144351,-0.128452,-0.132929,-0.149268,0.172805,-0.109543,-0.590914,-0.421877,-0.369686,-0.243948,
-0.105411,-0.0326321,0.378741,-1.61946,-0.247867,-0.181429,0.484845,-0.770228,0.259937,-0.780109,-0.294229,-1.10611,0.362674,-0.223879,0,0,0,0,0,0,0,-0.0774159,-0.0420512,0.406187,-1.60785,-0.213944,1.3766,1.28302,-0.573345,0.14075,-0.610264,-0.220746,-0.738041,0.118866,-0.112703,-3.51941,-28.1825,-4.08537,24.9594,-1.03119,1.7138,-0.157364,-0.926462,0.419955,-0.382227,-0.725036,-0.142131,0.568435,0.563694,0.110299,0.593555,-0.537502,-0.247406,-0.379404,-0.244583,
-0.108482,-0.0315919,0.375631,-1.62063,-0.252362,-0.179891,0.483965,-0.767593,0.260054,-0.777481,-0.292907,-1.12367,0.384524,-0.219962,0,0,0,0,0,0,0,-0.0774159,-0.0420512,0.406187,-1.60785,-0.213944,1.3766,1.28302,-0.573345,0.14075,-0.610264,-0.220746,-0.738041,0.118866,-0.112703,-3.51941,-28.1825,-4.08537,24.9594,-1.03119,1.7138,-0.157364,-0.926462,0.419955,-0.382227,-0.725036,-0.142131,0.568435,0.563694,0.110299,0.593555,-0.537502,-0.247406,-0.379404,-0.244583,
-0.0930542,-0.035507,0.39142,-1.61646,-0.230893,-0.193724,0.485718,-0.793569,0.288172,-0.788125,-0.35255,-0.98649,0.155179,-0.296967,0,0,0,0,0,0,0,-0.0955526,-0.0369394,0.387434,-1.6148,-0.237504,1.38343,1.27914,-0.588385,0.176887,-0.630502,-0.219925,-0.773581,0.277515,-0.147537,-2.4284,-30.1543,-2.93486,25.733,-1.42212,1.79986,-0.224197,-0.652401,1.7462,-0.835976,-1.64048,0.32521,1.19243,1.18876,0.43254,1.23257,-0.78589,-0.134832,-0.38499,-0.244765,
-0.130944,-0.0265038,0.3519,-1.62924,-0.280661,-0.169011,0.480756,-0.768631,0.255104,-0.780946,-0.298978,-1.05577,0.448204,-0.242853,0,0,0,0,0,0,0,-0.0955526,-0.0369394,0.387434,-1.6148,-0.237504,1.38343,1.27914,-0.588385,0.176887,-0.630502,-0.219925,-0.773581,0.277515,-0.147537,-2.4284,-30.1543,-2.93486,25.733,-1.42212,1.79986,-0.224197,-0.652401,1.7462,-0.835976,-1.64048,0.32521,1.19243,1.18876,0.43254,1.23257,-0.78589,-0.134832,-0.38499,-0.244765,
-0.134005,-0.0254729,0.34879,-1.63042,-0.284985,-0.167167,0.479804,-0.765319,0.257746,-0.777477,-0.296619,-1.08085,0.46114,-0.238079,0,0,0,0,0,0,0,-0.0955526,-0.0369394,0.387434,-1.6148,-0.237504,1.38343,1.27914,-0.588385,0.176887,-0.630502,-0.219925,-0.773581,0.277515,-0.147537,-2.4284,-30.1543,-2.93486,25.733,-1.42212,1.79986,-0.224197,-0.775243,-1.68434,-0.956511,0.467552,0.266446,-0.545291,-0.552853,0.511393,-0.534208,-0.844718,-0.510398,-0.516526,-0.239603,
-0.137058,-0.0244401,0.345689,-1.6316,-0.289333,-0.165255,0.478868,-0.763327,0.258192,-0.77529,-0.295644,-1.08707,0.47793,-0.233943,0,0,0,0,0,0,0,-0.0955526,-0.0369394,0.387434,-1.6148,-0.237504,1.38343,1.27914,-0.588385,0.176887,-0.630502,-0.219925,-0.773581,0.277515,-0.147537,-2.4284,-30.1543,-2.93486,25.733,-1.42212,1.79986,-0.224197,-0.775243,-1.68434,-0.956511,0.467552,0.266446,-0.545291,-0.552853,0.511393,-0.534208,-0.844718,-0.510398,-0.516526,-0.239603,
-0.140107,-0.0234089,0.342592,-1.63278,-0.293621,-0.163296,0.477948,-0.762243,0.257788,-0.774034,-0.293278,-1.07197,0.489675,-0.22994,0,0,0,0,0,0,0,-0.0955526,-0.0369394,0.387434,-1.6148,-0.237504,1.38343,1.27914,-0.588385,0.176887,-0.630502,-0.219925,-0.773581,0.277515,-0.147537,-2.4284,-30.1543,-2.93486,25.733,-1.42212,1.79986,-0.224197,-0.370008,-2.0187,-1.23167,0.632596,0.682759,-0.779996,-0.784649,0.796142,-0.772712,-0.981885,-0.562525,-0.52746,-0.234516,
-0.143153,-0.0223826,0.3395,-1.63394,-0.297784,-0.161306,0.477044,-0.761423,0.256586,-0.773103,-0.290173,-1.04072,0.497468,-0.226052,0,0,0,0,0,0,0,-0.114317,-0.0310086,0.368307,-1.62114,-0.26158,1.39443,1.27449,-0.609774,0.192888,-0.627754,-0.195785,-0.749478,0.3797,-0.162226,-1.23822,-29.8528,-1.98668,24.3604,-1.47065,1.49499,-0.270889,-0.370008,-2.0187,-1.23167,0.632596,0.682759,-0.779996,-0.784649,0.796142,-0.772712,-0.981885,-0.562525,-0.52746,-0.234516,
-0.146195,-0.0213639,0.336412,-1.63508,-0.301772,-0.159298,0.476155,-0.760448,0.254667,-0.772065,-0.286712,-0.996984,0.502184,-0.222326,0,0,0,0,0,0,0,-0.114317,-0.0310086,0.368307,-1.62114,-0.26158,1.39443,1.27449,-0.609774,0.192888,-0.627754,-0.195785,-0.749478,0.3797,-0.162226,-1.23822,-29.8528,-1.98668,24.3604,-1.47065,1.49499,-0.270889,0.0782449,-0.275278,-2.1964,-0.558666,1.47905,0.0716669,0.073916,1.36315,0.0902439,-1.39741,-0.400948,-0.473978,-0.235605,
-0.131329,-0.0255266,0.351845,-1.63077,-0.280371,-0.171136,0.47814,-0.805552,0.281895,-0.80836,-0.343664,-1.00547,0.426056,-0.294603,0,0,0,0,0,0,0,-0.114317,-0.0310086,0.368307,-1.62114,-0.26158,1.39443,1.27449,-0.609774,0.192888,-0.627754,-0.195785,-0.749478,0.3797,-0.162226,-1.23822,-29.8528,-1.98668,24.3604,-1.47065,1.49499,-0.270889,-0.529345,1.0453,-2.6632,-1.50984,1.2033,0.881974,0.882729,1.21899,0.913076,-1.48674,-0.389569,-0.365654,-0.235896,
-0.149433,-0.0210799,0.332659,-1.63514,-0.297434,-0.150061,0.476156,-0.766784,0.232132,-0.779382,-0.283399,-0.560855,0.568986,-0.243296,0,0,0,0,0,0,0,-0.114317,-0.0310086,0.368307,-1.62114,-0.26158,1.39443,1.27449,-0.609774,0.192888,-0.627754,-0.195785,-0.749478,0.3797,-0.162226,-1.23822,-29.8528,-1.98668,24.3604,-1.47065,1.49499,-0.270889,-0.529345,1.0453,-2.6632,-1.50984,1.2033,0.881974,0.882729,1.21899,0.913076,-1.48674,-0.389569,-0.365654,-0.235896,
-0.152489,-0.0201466,0.329552,-1.63627,-0.299475,-0.147771,0.475201,-0.764096,0.233326,-0.776563,-0.280641,-0.510389,0.572688,-0.238737,0,0,0,0,0,0,0,-0.114317,-0.0310086,0.368307,-1.62114,-0.26158,1.39443,1.27449,-0.609774,0.192888,-0.627754,-0.195785,-0.749478,0.3797,-0.162226,-1.23822,-29.8528,-1.98668,24.3604,-1.47065,1.49499,-0.270889,-0.807291,-2.39114,-2.31385,0.67552,0.723755,-0.868296,-0.871903,0.967193,-0.86075,-1.23509,-0.749935,-0.373914,-0.224488,
-0.155534,-0.0192136,0.326459,-1.63738,-0.301309,-0.14546,0.474261,-0.761102,0.233249,-0.773451,-0.278838,-0.458286,0.577689,-0.234806,0,0,0,0,0,0,0,-0.114317,-0.0310086,0.368307,-1.62114,-0.26158,1.39443,1.27449,-0.609774,0.192888,-0.627754,-0.195785,-0.749478,0.3797,-0.162226,-1.23822,-29.8528,-1.98668,24.3604,-1.47065,1.49499,-0.270889,-0.807291,-2.39114,-2.31385,0.67552,0.723755,-0.868296,-0.871903,0.967193,-0.86075,-1.23509,-0.749935,-0.373914,-0.224488,
-0.158564,-0.0182826,0.32338,-1.63849,-0.30293,-0.143147,0.473337,-0.757503,0.232764,-0.769745,-0.276244,-0.405283,0.578172,-0.231028,0,0,0,0,0,0,0,-0.136613,-0.0237787,0.345077,-1.62837,-0.289303,1.41096,1.26869,-0.617757,0.215421,-0.639582,-0.205782,-0.73268,0.503197,-0.139848,-1.71826,-32.0268,-1.96288,24.4119,-1.31226,1.54168,-0.157364,-1.03405,-2.05053,-1.99712,0.524114,0.360252,-0.664786,-0.660121,0.675336,-0.665368,-1.02262,-0.716662,-0.283212,-0.221769,
-0.161577,-0.0173559,0.320318,-1.63958,-0.304335,-0.140845,0.472428,-0.75337,0.23167,-0.765517,-0.273467,-0.351274,0.575647,-0.227391,0,0,0,0,0,0,0,-0.136613,-0.0237787,0.345077,-1.62837,-0.289303,1.41096,1.26869,-0.617757,0.215421,-0.639582,-0.205782,-0.73268,0.503197,-0.139848,-1.71826,-32.0268,-1.96288,24.4119,-1.31226,1.54168,-0.157364,-1.03405,-2.05053,-1.99712,0.524114,0.360252,-0.664786,-0.660121,0.675336,-0.665368,-1.02262,-0.716662,-0.283212,-0.221769,
-0.164572,-0.0164361,0.317274,-1.64066,-0.305519,-0.13856,0.471532,-0.748733,0.22995,-0.760802,-0.270724,-0.296043,0.571101,-0.223936,0,0,0,0,0,0,0,-0.136613,-0.0237787,0.345077,-1.62837,-0.289303,1.41096,1.26869,-0.617757,0.215421,-0.639582,-0.205782,-0.73268,0.503197,-0.139848,-1.71826,-32.0268,-1.96288,24.4119,-1.31226,1.54168,-0.157364,-1.31221,-0.803746,-1.69893,-0.108587,0.00438005,0.00462566,0.0124734,0.3808,0.00401781,-0.827066,-0.51021,-0.179196,-0.225659,
-0.150309,-0.0204017,0.332273,-1.6367,-0.301769,-0.152506,0.473652,-0.804493,0.254576,-0.81832,-0.326305,-0.782258,0.532472,-0.292207,0,0,0,0,0,0,0,-0.136613,-0.0237787,0.345077,-1.62837,-0.289303,1.41096,1.26869,-0.617757,0.215421,-0.639582,-0.205782,-0.73268,0.503197,-0.139848,-1.71826,-32.0268,-1.96288,24.4119,-1.31226,1.54168,-0.157364,-1.31221,-0.803746,-1.69893,-0.108587,0.00438005,0.00462566,0.0124734,0.3808,0.00401781,-0.827066,-0.51021,-0.179196,-0.225659,
-0.171398,-0.0141605,0.309675,-1.64213,-0.305478,-0.130823,0.470396,-0.735594,0.213847,-0.748632,-0.276406,-0.091434,0.57726,-0.244639,0,0,0,0,0,0,0,-0.136613,-0.0237787,0.345077,-1.62837,-0.289303,1.41096,1.26869,-0.617757,0.215421,-0.639582,-0.205782,-0.73268,0.503197,-0.139848,-1.71826,-32.0268,-1.96288,24.4119,-1.31226,1.54168,-0.157364,-1.06523,-0.268159,-2.11358,-0.310568,0.380631,0.24838,0.262032,0.664418,0.242339,-0.974062,-0.316026,-0.131505,-0.229208,
-0.174314,-0.0133028,0.306707,-1.64322,-0.305722,-0.128559,0.469435,-0.728997,0.21442,-0.741871,-0.272604,-0.0611341,0.566039,-0.240321,0,0,0,0,0,0,0,-0.157411,-0.0172901,0.323486,-1.63557,-0.306808,1.42863,1.26417,-0.655281,0.202892,-0.681557,-0.215128,-0.383162,0.581614,-0.13942,-1.36517,-32.4989,-1.36382,26.0544,-0.731815,1.62041,-0.230606,-0.273245,-2.5295,-1.37331,1.27558,0.553287,-1.05634,-1.04856,0.706725,-1.06947,-0.674969,-0.408952,-0.149446,-0.229652,
-0.177205,-0.0124483,0.303766,-1.6443,-0.30584,-0.126342,0.468488,-0.722654,0.213634,-0.735382,-0.269923,-0.0293229,0.554211,-0.236606,0,0,0,0,0,0,0,-0.157411,-0.0172901,0.323486,-1.63557,-0.306808,1.42863,1.26417,-0.655281,0.202892,-0.681557,-0.215128,-0.383162,0.581614,-0.13942,-1.36517,-32.4989,-1.36382,26.0544,-0.731815,1.62041,-0.230606,-0.273245,-2.5295,-1.37331,1.27558,0.553287,-1.05634,-1.04856,0.706725,-1.06947,-0.674969,-0.408952,-0.149446,-0.229652,
-0.18007,-0.0116,0.30085,-1.64537,-0.305825,-0.124177,0.467556,-0.716391,0.212055,-0.728988,-0.267535,0.00370899,0.54125,-0.233004,0,0,0,0,0,0,0,-0.157411,-0.0172901,0.323486,-1.63557,-0.306808,1.42863,1.26417,-0.655281,0.202892,-0.681557,-0.215128,-0.383162,0.581614,-0.13942,-1.36517,-32.4989,-1.36382,26.0544,-0.731815,1.62041,-0.230606,0.752895,-1.03781,-0.758932,0.485094,1.01779,-0.37655,-0.359171,0.779762,-0.393963,-0.490839,-0.190983,-0.106531,-0.232522,
-0.182911,-0.0107604,0.297959,-1.64644,-0.305673,-0.122068,0.466638,-0.710121,0.209903,-0.722602,-0.265202,0.0380132,0.527245,-0.229509,0,0,0,0,0,0,0,-0.157411,-0.0172901,0.323486,-1.63557,-0.306808,1.42863,1.26417,-0.655281,0.202892,-0.681557,-0.215128,-0.383162,0.581614,-0.13942,-1.36517,-32.4989,-1.36382,26.0544,-0.731815,1.62041,-0.230606,0.752895,-1.03781,-0.758932,0.485094,1.01779,-0.37655,-0.359171,0.779762,-0.393963,-0.490839,-0.190983,-0.106531,-0.232522,
-0.185726,-0.00993132,0.295095,-1.64749,-0.305377,-0.120018,0.465734,-0.703787,0.207275,-0.71617,-0.262889,0.0738493,0.512476,-0.226166,0,0,0,0,0,0,0,-0.157411,-0.0172901,0.323486,-1.63557,-0.306808,1.42863,1.26417,-0.655281,0.202892,-0.681557,-0.215128,-0.383162,0.581614,-0.13942,-1.36517,-32.4989,-1.36382,26.0544,-0.731815,1.62041,-0.230606,0.420809,-0.0687935,-0.553385,-0.0517832,0.828428,0.112467,0.130901,0.664337,0.0962138,-0.518371,-0.0440073,-0.213265,-0.234412,
-0.173019,-0.0135477,0.30827,-1.6435,-0.313686,-0.132081,0.467996,-0.794195,0.236047,-0.808539,-0.310141,-0.262823,0.560826,-0.290961,0,0,0,0,0,0,0,-0.157411,-0.0172901,0.323486,-1.63557,-0.306808,1.42863,1.26417,-0.655281,0.202892,-0.681557,-0.215128,-0.383162,0.581614,-0.13942,-1.36517,-32.4989,-1.36382,26.0544,-0.731815,1.62041,-0.230606,-0.783151,0.336107,-0.660861,-0.182925,0.164588,0.350162,0.370697,0.405257,0.330946,-0.611984,0.122462,-0.327328,-0.236221,
-0.191592,-0.00825425,0.28866,-1.64876,-0.306329,-0.115342,0.465894,-0.698469,0.194269,-0.711712,-0.266757,0.184672,0.464568,-0.245695,0,0,0,0,0,0,0,-0.185403,-0.00845904,0.294472,-1.64439,-0.317836,1.45416,1.25865,-0.677464,0.217595,-0.691937,-0.186579,-0.120427,0.631592,-0.135972,0.134464,-34.2207,0.0882092,25.6339,0.58746,1.4016,-0.204056,-0.783151,0.336107,-0.660861,-0.182925,0.164588,0.350162,0.370697,0.405257,0.330946,-0.611984,0.122462,-0.327328,-0.236221,
-0.194353,-0.00748003,0.285847,-1.64982,-0.30554,-0.11353,0.464927,-0.690194,0.193555,-0.703291,-0.264762,0.197472,0.453069,-0.241629,0,0,0,0,0,0,0,-0.185403,-0.00845904,0.294472,-1.64439,-0.317836,1.45416,1.25865,-0.677464,0.217595,-0.691937,-0.186579,-0.120427,0.631592,-0.135972,0.134464,-34.2207,0.0882092,25.6339,0.58746,1.4016,-0.204056,-1.15248,-0.0558882,-1.5117,0.239106,0.409985,0.107222,0.123716,0.821766,0.0903099,-1.01242,0.307714,-0.431245,-0.23593,
-0.197083,-0.00671348,0.283065,-1.65087,-0.304693,-0.111743,0.463975,-0.68256,0.191636,-0.695525,-0.264124,0.211683,0.446818,-0.238117,0,0,0,0,0,0,0,-0.185403,-0.00845904,0.294472,-1.64439,-0.317836,1.45416,1.25865,-0.677464,0.217595,-0.691937,-0.186579,-0.120427,0.631592,-0.135972,0.134464,-34.2207,0.0882092,25.6339,0.58746,1.4016,-0.204056,-1.15248,-0.0558882,-1.5117,0.239106,0.409985,0.107222,0.123716,0.821766,0.0903099,-1.01242,0.307714,-0.431245,-0.23593,
-0.199784,-0.00595714,0.280312,-1.65193,-0.303784,-0.109961,0.463036,-0.675354,0.189086,-0.688199,-0.263966,0.227105,0.44551,-0.234733,0,0,0,0,0,0,0,-0.185403,-0.00845904,0.294472,-1.64439,-0.317836,1.45416,1.25865,-0.677464,0.217595,-0.691937,-0.186579,-0.120427,0.631592,-0.135972,0.134464,-34.2207,0.0882092,25.6339,0.58746,1.4016,-0.204056,-0.535969,2.20014,-2.14412,-1.03452,1.14804,1.30019,1.32598,1.2403,1.27683,-1.28501,0.611259,-0.354596,-0.241663,
-0.202458,-0.00521272,0.277587,-1.65299,-0.302809,-0.108161,0.46211,-0.66846,0.186104,-0.681199,-0.264089,0.243858,0.449797,-0.231489,0,0,0,0,0,0,0,-0.185403,-0.00845904,0.294472,-1.64439,-0.317836,1.45416,1.25865,-0.677464,0.217595,-0.691937,-0.186579,-0.120427,0.631592,-0.135972,0.134464,-34.2207,0.0882092,25.6339,0.58746,1.4016,-0.204056,-0.535969,2.20014,-2.14412,-1.03452,1.14804,1.30019,1.32598,1.2403,1.27683,-1.28501,0.611259,-0.354596,-0.241663,
-0.210701,-0.00285941,0.26913,-1.65724,-0.308539,-0.104447,0.456979,-0.716598,0.20063,-0.73054,-0.297767,0.194062,0.498388,-0.266351,0,0,0,0,0,0,0,-0.207132,-0.00160213,0.27188,-1.64975,-0.319883,1.4742,1.25412,-0.680866,0.203245,-0.68767,-0.154185,0.00458503,0.593652,-0.156311,1.55078,-35.2959,1.48866,25.0586,0.1535,1.30913,-0.23793,0.580082,1.26223,-2.94315,-0.409374,2.30476,0.764411,0.792109,2.06908,0.737914,-1.65605,0.582004,-0.37809,-0.244729,
-0.193162,-0.00783418,0.287011,-1.65011,-0.311766,-0.115682,0.463592,-0.751371,0.211942,-0.766142,-0.29946,0.0624567,0.466171,-0.290134,0,0,0,0,0,0,0,-0.207132,-0.00160213,0.27188,-1.64975,-0.319883,1.4742,1.25412,-0.680866,0.203245,-0.68767,-0.154185,0.00458503,0.593652,-0.156311,1.55078,-35.2959,1.48866,25.0586,0.1535,1.30913,-0.23793,-0.416885,-0.420579,-2.54446,0.667495,1.4428,-0.144259,-0.119598,1.65793,-0.168477,-1.48063,0.456188,-0.460651,-0.240481,
-0.239937,0.00651701,0.238369,-1.66246,-0.309306,-0.0684253,0.455792,-0.657981,0.171668,-0.671879,-0.264902,0.343217,0.564018,-0.249199,0,0,0,0,0,0,0,-0.207132,-0.00160213,0.27188,-1.64975,-0.319883,1.4742,1.25412,-0.680866,0.203245,-0.68767,-0.154185,0.00458503,0.593652,-0.156311,1.55078,-35.2959,1.48866,25.0586,0.1535,1.30913,-0.23793,-0.416885,-0.420579,-2.54446,0.667495,1.4428,-0.144259,-0.119598,1.65793,-0.168477,-1.48063,0.456188,-0.460651,-0.240481,
-0.242532,0.00720137,0.235719,-1.66351,-0.307899,-0.0662221,0.454811,-0.648703,0.171091,-0.662481,-0.261091,0.351534,0.550804,-0.245211,0,0,0,0,0,0,0,-0.207132,-0.00160213,0.27188,-1.64975,-0.319883,1.4742,1.25412,-0.680866,0.203245,-0.68767,-0.154185,0.00458503,0.593652,-0.156311,1.55078,-35.2959,1.48866,25.0586,0.1535,1.30913,-0.23793,-1.93865,-0.556054,-1.90644,0.729365,0.0768678,-0.196744,-0.16919,0.824446,-0.223171,-1.16104,0.390075,-0.469014,-0.23916,
-0.245092,0.00787908,0.233104,-1.66454,-0.306459,-0.0640746,0.453843,-0.639991,0.169426,-0.653661,-0.25833,0.360124,0.536884,-0.241858,0,0,0,0,0,0,0,-0.207132,-0.00160213,0.27188,-1.64975,-0.319883,1.4742,1.25412,-0.680866,0.203245,-0.68767,-0.154185,0.00458503,0.593652,-0.156311,1.55078,-35.2959,1.48866,25.0586,0.1535,1.30913,-0.23793,-2.03902,2.36485,-1.83349,-1.10041,-0.0610338,1.41087,1.4431,0.532142,1.37621,-1.09865,0.55289,-0.354108,-0.237784,
-0.247619,0.00854764,0.230523,-1.66556,-0.304982,-0.0619867,0.452889,-0.631705,0.167141,-0.645271,-0.255905,0.369212,0.521975,-0.238627,0,0,0,0,0,0,0,-0.207132,-0.00160213,0.27188,-1.64975,-0.319883,1.4742,1.25412,-0.680866,0.203245,-0.68767,-0.154185,0.00458503,0.593652,-0.156311,1.55078,-35.2959,1.48866,25.0586,0.1535,1.30913,-0.23793,-2.03902,2.36485,-1.83349,-1.10041,-0.0610338,1.41087,1.4431,0.532142,1.37621,-1.09865,0.55289,-0.354108,-0.237784,
-0.250114,0.00920534,0.227974,-1.66658,-0.303465,-0.0599616,0.451947,-0.623752,0.164425,-0.637223,-0.253601,0.379181,0.506284,-0.23551,0,0,0,0,0,0,0,-0.227242,0.0047579,0.251109,-1.65482,-0.318961,1.49158,1.24989,-0.656779,0.195363,-0.721622,-0.190339,0.060699,0.589187,-0.137604,0.892215,-35.8949,0.814222,25.3601,-0.585331,1.69366,-0.244339,-2.20688,1.80797,-1.55438,-0.860244,-0.374587,1.12333,1.15438,0.290809,1.08976,-0.924003,0.379746,-0.305676,-0.235062,
-0.252578,0.00985079,0.225457,-1.66758,-0.301903,-0.0580009,0.451016,-0.616058,0.161362,-0.629445,-0.251376,0.390506,0.490155,-0.232556,0,0,0,0,0,0,0,-0.227242,0.0047579,0.251109,-1.65482,-0.318961,1.49158,1.24989,-0.656779,0.195363,-0.721622,-0.190339,0.060699,0.589187,-0.137604,0.892215,-35.8949,0.814222,25.3601,-0.585331,1.69366,-0.244339,-2.20688,1.80797,-1.55438,-0.860244,-0.374587,1.12333,1.15438,0.290809,1.08976,-0.924003,0.379746,-0.305676,-0.235062,
-0.241668,0.00676069,0.236593,-1.66319,-0.302054,-0.0707377,0.453663,-0.706234,0.184069,-0.720872,-0.285589,0.53875,0.500964,-0.290287,0,0,0,0,0,0,0,-0.227242,0.0047579,0.251109,-1.65482,-0.318961,1.49158,1.24989,-0.656779,0.195363,-0.721622,-0.190339,0.060699,0.589187,-0.137604,0.892215,-35.8949,0.814222,25.3601,-0.585331,1.69366,-0.244339,-1.5102,-0.679818,-2.41322,0.669662,0.493236,-0.233066,-0.208063,1.07401,-0.256211,-1.26771,0.177436,-0.339472,-0.22904,
-0.259025,0.0122205,0.218642,-1.66697,-0.296434,-0.0552679,0.451548,-0.617129,0.147637,-0.630422,-0.247736,0.601732,0.379289,-0.249834,0,0,0,0,0,0,0,-0.227242,0.0047579,0.251109,-1.65482,-0.318961,1.49158,1.24989,-0.656779,0.195363,-0.721622,-0.190339,0.060699,0.589187,-0.137604,0.892215,-35.8949,0.814222,25.3601,-0.585331,1.69366,-0.244339,-1.5102,-0.679818,-2.41322,0.669662,0.493236,-0.233066,-0.208063,1.07401,-0.256211,-1.26771,0.177436,-0.339472,-0.22904,
-0.261451,0.0128038,0.216163,-1.66795,-0.294024,-0.0538002,0.450564,-0.606524,0.145819,-0.61977,-0.245917,0.60247,0.366913,-0.246105,0,0,0,0,0,0,0,-0.227242,0.0047579,0.251109,-1.65482,-0.318961,1.49158,1.24989,-0.656779,0.195363,-0.721622,-0.190339,0.060699,0.589187,-0.137604,0.892215,-35.8949,0.814222,25.3601,-0.585331,1.69366,-0.244339,-0.449812,-0.936317,-2.38913,0.836963,1.14584,-0.356334,-0.327569,1.38546,-0.382846,-1.23594,0.149108,-0.273397,-0.225731,
-0.263838,0.0133764,0.213722,-1.66893,-0.291609,-0.0523606,0.449592,-0.596871,0.143154,-0.61007,-0.245346,0.603749,0.359902,-0.242921,0,0,0,0,0,0,0,-0.248597,0.0108658,0.229206,-1.6612,-0.313817,1.51105,1.24564,-0.667337,0.17739,-0.674037,-0.193759,0.205305,0.591255,-0.124875,2.66956,-36.1687,2.5638,25.9552,-0.340885,1.81267,-0.217789,0.182719,-0.887242,-1.90239,0.755259,1.28486,-0.303747,-0.271426,1.30072,-0.333948,-1.00688,0.0895572,-0.2052,-0.226401,
-0.26619,0.0139369,0.211318,-1.66991,-0.289186,-0.0509297,0.448633,-0.587963,0.140123,-0.601112,-0.245218,0.605686,0.357746,-0.239854,0,0,0,0,0,0,0,-0.248597,0.0108658,0.229206,-1.6612,-0.313817,1.51105,1.24564,-0.667337,0.17739,-0.674037,-0.193759,0.205305,0.591255,-0.124875,2.66956,-36.1687,2.5638,25.9552,-0.340885,1.81267,-0.217789,0.182719,-0.887242,-1.90239,0.755259,1.28486,-0.303747,-0.271426,1.30072,-0.333948,-1.00688,0.0895572,-0.2052,-0.226401,
-0.268509,0.0144845,0.208947,-1.67089,-0.286752,-0.0494877,0.447685,-0.579653,0.1369,-0.592754,-0.245283,0.608572,0.360497,-0.236908,0,0,0,0,0,0,0,-0.248597,0.0108658,0.229206,-1.6612,-0.313817,1.51105,1.24564,-0.667337,0.17739,-0.674037,-0.193759,0.205305,0.591255,-0.124875,2.66956,-36.1687,2.5638,25.9552,-0.340885,1.81267,-0.217789,-1.1269,-1.37834,-0.630379,0.988463,-0.212848,-0.645967,-0.613942,0.294714,-0.67076,-0.464728,0.0085862,-0.238094,-0.218132,
-0.270795,0.0150213,0.206609,-1.67187,-0.284303,-0.0480558,0.446748,-0.57151,0.134203,-0.584548,-0.243389,0.61231,0.357977,-0.234164,0,0,0,0,0,0,0,-0.248597,0.0108658,0.229206,-1.6612,-0.313817,1.51105,1.24564,-0.667337,0.17739,-0.674037,-0.193759,0.205305,0.591255,-0.124875,2.66956,-36.1687,2.5638,25.9552,-0.340885,1.81267,-0.217789,-1.1269,-1.37834,-0.630379,0.988463,-0.212848,-0.645967,-0.613942,0.294714,-0.67076,-0.464728,0.0085862,-0.238094,-0.218132,
-0.260172,0.0121083,0.217431,-1.66794,-0.290838,-0.0563413,0.449526,-0.647541,0.149818,-0.661889,-0.272464,0.737298,0.355198,-0.288904,0,0,0,0,0,0,0,-0.248597,0.0108658,0.229206,-1.6612,-0.313817,1.51105,1.24564,-0.667337,0.17739,-0.674037,-0.193759,0.205305,0.591255,-0.124875,2.66956,-36.1687,2.5638,25.9552,-0.340885,1.81267,-0.217789,-0.953094,-2.76375,-0.296318,1.83456,-0.221214,-1.44075,-1.41382,0.336199,-1.45269,-0.368105,-0.0771253,-0.303323,-0.21189,
-0.27813,0.0170528,0.199005,-1.67297,-0.286508,-0.0382396,0.447315,-0.559769,0.114817,-0.572913,-0.239918,0.674955,0.347381,-0.251179,0,0,0,0,0,0,0,-0.26918,0.0170521,0.208084,-1.66731,-0.303113,1.52797,1.24157,-0.624441,0.190965,-0.637072,-0.178501,0.372017,0.47998,-0.135971,2.26093,-36.8907,2.1631,26.3797,0.141598,1.82641,-0.204056,-0.953094,-2.76375,-0.296318,1.83456,-0.221214,-1.44075,-1.41382,0.336199,-1.45269,-0.368105,-0.0771253,-0.303323,-0.21189,
-0.280324,0.0175029,0.196758,-1.67392,-0.283825,-0.0368916,0.446325,-0.548419,0.112544,-0.561555,-0.237841,0.670719,0.337006,-0.247592,0,0,0,0,0,0,0,-0.26918,0.0170521,0.208084,-1.66731,-0.303113,1.52797,1.24157,-0.624441,0.190965,-0.637072,-0.178501,0.372017,0.47998,-0.135971,2.26093,-36.8907,2.1631,26.3797,0.141598,1.82641,-0.204056,0.0748977,-0.570136,-0.836098,0.570488,0.726242,-0.183492,-0.149231,0.778436,-0.214264,-0.616523,0.118265,-0.243831,-0.210688,
-0.282476,0.0179413,0.194553,-1.67487,-0.28116,-0.0355662,0.445347,-0.538091,0.109594,-0.551215,-0.236957,0.666359,0.33135,-0.244559,0,0,0,0,0,0,0,-0.26918,0.0170521,0.208084,-1.66731,-0.303113,1.52797,1.24157,-0.624441,0.190965,-0.637072,-0.178501,0.372017,0.47998,-0.135971,2.26093,-36.8907,2.1631,26.3797,0.141598,1.82641,-0.204056,0.351639,0.76136,-1.10838,-0.176655,1.07218,0.555969,0.59456,0.938485,0.513209,-0.772474,0.244609,-0.25357,-0.207386,
-0.284591,0.0183669,0.192387,-1.67582,-0.278512,-0.0342464,0.44438,-0.528585,0.106394,-0.541692,-0.236524,0.662053,0.329957,-0.241641,0,0,0,0,0,0,0,-0.26918,0.0170521,0.208084,-1.66731,-0.303113,1.52797,1.24157,-0.624441,0.190965,-0.637072,-0.178501,0.372017,0.47998,-0.135971,2.26093,-36.8907,2.1631,26.3797,0.141598,1.82641,-0.204056,0.351639,0.76136,-1.10838,-0.176655,1.07218,0.555969,0.59456,0.938485,0.513209,-0.772474,0.244609,-0.25357,-0.207386,
-0.28667,0.0187794,0.190255,-1.67676,-0.275879,-0.0329165,0.443425,-0.519744,0.103122,-0.53283,-0.236226,0.658095,0.332469,-0.238838,0,0,0,0,0,0,0,-0.26918,0.0170521,0.208084,-1.66731,-0.303113,1.52797,1.24157,-0.624441,0.190965,-0.637072,-0.178501,0.372017,0.47998,-0.135971,2.26093,-36.8907,2.1631,26.3797,0.141598,1.82641,-0.204056,-0.52525,-0.561894,-1.69587,0.727592,0.914668,-0.267165,-0.233453,1.19865,-0.295457,-1.13225,0.208258,-0.450332,-0.203249,
-0.288714,0.0191808,0.188158,-1.6777,-0.273261,-0.0315962,0.44248,-0.511189,0.100362,-0.524237,-0.234218,0.654453,0.330084,-0.236225,0,0,0,0,0,0,0,-0.26918,0.0170521,0.208084,-1.66731,-0.303113,1.52797,1.24157,-0.624441,0.190965,-0.637072,-0.178501,0.372017,0.47998,-0.135971,2.26093,-36.8907,2.1631,26.3797,0.141598,1.82641,-0.204056,-0.52525,-0.561894,-1.69587,0.727592,0.914668,-0.267165,-0.233453,1.19865,-0.295457,-1.13225,0.208258,-0.450332,-0.203249,
-0.279697,0.0171705,0.197372,-1.67361,-0.27704,-0.0397821,0.445324,-0.600354,0.12346,-0.614468,-0.258127,0.904487,0.302705,-0.289532,0,0,0,0,0,0,0,-0.294555,0.0245514,0.181874,-1.67404,-0.285646,1.54667,1.23474,-0.58626,0.179363,-0.596994,-0.147484,0.427349,0.436287,-0.168688,2.87189,-38.4142,2.83754,26.2805,0.263363,1.72661,-0.143631,-1.61473,-2.58226,-1.87115,2.06439,0.29973,-1.48664,-1.46174,1.15176,-1.48791,-1.20644,0.166655,-0.54122,-0.195995,
-0.321029,0.0297738,0.154719,-1.68526,-0.250898,-0.00652498,0.436311,-0.503667,0.0936671,-0.516813,-0.227601,0.757664,0.272272,-0.253347,0,0,0,0,0,0,0,-0.294555,0.0245514,0.181874,-1.67404,-0.285646,1.54667,1.23474,-0.58626,0.179363,-0.596994,-0.147484,0.427349,0.436287,-0.168688,2.87189,-38.4142,2.83754,26.2805,0.263363,1.72661,-0.143631,-1.61473,-2.58226,-1.87115,2.06439,0.29973,-1.48664,-1.46174,1.15176,-1.48791,-1.20644,0.166655,-0.54122,-0.195995,
-0.323003,0.03014,0.152692,-1.68616,-0.24793,-0.00548202,0.435312,-0.493575,0.0915622,-0.50676,-0.225287,0.742041,0.26074,-0.249899,0,0,0,0,0,0,0,-0.294555,0.0245514,0.181874,-1.67404,-0.285646,1.54667,1.23474,-0.58626,0.179363,-0.596994,-0.147484,0.427349,0.436287,-0.168688,2.87189,-38.4142,2.83754,26.2805,0.263363,1.72661,-0.143631,-1.99207,0.027152,-1.56671,0.552035,-0.167995,-0.0825809,-0.046969,0.63979,-0.107515,-1.04092,0.408404,-0.44868,-0.196836,
-0.324941,0.0304955,0.150701,-1.68705,-0.245024,-0.00446856,0.434324,-0.484397,0.0888722,-0.497608,-0.224161,0.726507,0.253366,-0.246974,0,0,0,0,0,0,0,-0.294555,0.0245514,0.181874,-1.67404,-0.285646,1.54667,1.23474,-0.58626,0.179363,-0.596994,-0.147484,0.427349,0.436287,-0.168688,2.87189,-38.4142,2.83754,26.2805,0.263363,1.72661,-0.143631,-2.20166,1.07864,-1.79779,-0.00765549,-0.190579,0.464335,0.506103,0.623564,0.427513,-1.15461,0.51512,-0.453676,-0.197631,
-0.326845,0.0308395,0.148745,-1.68795,-0.242179,-0.00346939,0.433347,-0.475955,0.0859908,-0.48918,-0.223527,0.711089,0.249792,-0.244156,0,0,0,0,0,0,0,-0.294555,0.0245514,0.181874,-1.67404,-0.285646,1.54667,1.23474,-0.58626,0.179363,-0.596994,-0.147484,0.427349,0.436287,-0.168688,2.87189,-38.4142,2.83754,26.2805,0.263363,1.72661,-0.143631,-2.20166,1.07864,-1.79779,-0.00765549,-0.190579,0.464335,0.506103,0.623564,0.427513,-1.15461,0.51512,-0.453676,-0.197631,
-0.328717,0.0311717,0.146819,-1.68884,-0.239395,-0.00246785,0.432381,-0.468121,0.0830475,-0.481351,-0.223207,0.695963,0.250385,-0.24145,0,0,0,0,0,0,0,-0.31404,0.0300609,0.161774,-1.67929,-0.270925,1.55994,1.22934,-0.579503,0.144606,-0.598068,-0.170954,0.49672,0.378022,-0.15875,2.66956,-38.6125,2.73836,26.3043,0.416256,1.81267,-0.197647,-1.96914,0.39881,-2.16909,0.478257,0.119454,0.0976426,0.139311,0.926262,0.0667071,-1.28935,0.504315,-0.445891,-0.193479,
-0.33056,0.031492,0.144923,-1.68973,-0.23667,-0.0014448,0.431426,-0.460791,0.0800896,-0.474024,-0.223185,0.681382,0.255762,-0.238901,0,0,0,0,0,0,0,-0.31404,0.0300609,0.161774,-1.67929,-0.270925,1.55994,1.22934,-0.579503,0.144606,-0.598068,-0.170954,0.49672,0.378022,-0.15875,2.66956,-38.6125,2.73836,26.3043,0.416256,1.81267,-0.197647,-1.96914,0.39881,-2.16909,0.478257,0.119454,0.0976426,0.139311,0.926262,0.0667071,-1.28935,0.504315,-0.445891,-0.193479,
-0.321784,0.0293552,0.153901,-1.68584,-0.241683,-0.00849506,0.434521,-0.522665,0.08499,-0.536707,-0.242851,1.03485,0.2201,-0.287822,0,0,0,0,0,0,0,-0.31404,0.0300609,0.161774,-1.67929,-0.270925,1.55994,1.22934,-0.579503,0.144606,-0.598068,-0.170954,0.49672,0.378022,-0.15875,2.66956,-38.6125,2.73836,26.3043,0.416256,1.81267,-0.197647,-2.11081,-1.03161,-1.68462,1.30507,-0.292902,-0.708826,-0.676659,0.691886,-0.715147,-1.00309,0.418411,-0.380998,-0.190275,
-0.33858,0.0339168,0.13658,-1.69012,-0.235057,0.00311036,0.430993,-0.451123,0.0616113,-0.464536,-0.21908,0.781277,0.244036,-0.253201,0,0,0,0,0,0,0,-0.31404,0.0300609,0.161774,-1.67929,-0.270925,1.55994,1.22934,-0.579503,0.144606,-0.598068,-0.170954,0.49672,0.378022,-0.15875,2.66956,-38.6125,2.73836,26.3043,0.416256,1.81267,-0.197647,-1.98833,0.185674,-1.77883,0.633581,-0.244892,-0.0274437,0.00677225,0.61793,-0.043914,-0.990584,0.540821,-0.299642,-0.188664,
-0.340346,0.0341536,0.134759,-1.69099,-0.231925,0.00406598,0.429993,-0.44164,0.0592168,-0.455191,-0.216375,0.783028,0.238907,-0.250022,0,0,0,0,0,0,0,-0.31404,0.0300609,0.161774,-1.67929,-0.270925,1.55994,1.22934,-0.579503,0.144606,-0.598068,-0.170954,0.49672,0.378022,-0.15875,2.66956,-38.6125,2.73836,26.3043,0.416256,1.81267,-0.197647,-1.98833,0.185674,-1.77883,0.633581,-0.244892,-0.0274437,0.00677225,0.61793,-0.043914,-0.990584,0.540821,-0.299642,-0.188664,
-0.34208,0.0343791,0.132971,-1.69184,-0.228767,0.00501079,0.429004,-0.433348,0.0563691,-0.447015,-0.214649,0.789304,0.236202,-0.247307,0,0,0,0,0,0,0,-0.31404,0.0300609,0.161774,-1.67929,-0.270925,1.55994,1.22934,-0.579503,0.144606,-0.598068,-0.170954,0.49672,0.378022,-0.15875,2.66956,-38.6125,2.73836,26.3043,0.416256,1.81267,-0.197647,-1.42955,0.755778,-2.08081,0.315718,0.212743,0.355301,0.392069,0.835793,0.329639,-1.07356,0.563978,-0.232656,-0.188493,
-0.343782,0.0345931,0.131214,-1.6927,-0.225593,0.00595152,0.428025,-0.425576,0.0535059,-0.439234,-0.213295,0.793629,0.235182,-0.244605,0,0,0,0,0,0,0,-0.330866,0.0341476,0.144317,-1.68477,-0.255996,1.57014,1.2243,-0.532004,0.124527,-0.579511,-0.185359,0.5477,0.308871,-0.173185,1.78089,-38.1166,1.93696,26.3043,0.837399,1.95275,-0.157364,-1.42955,0.755778,-2.08081,0.315718,0.212743,0.355301,0.392069,0.835793,0.329639,-1.07356,0.563978,-0.232656,-0.188493,
-0.345453,0.0347967,0.129489,-1.69354,-0.222424,0.00688562,0.427058,-0.417841,0.050893,-0.431415,-0.211691,0.792135,0.233525,-0.241947,0,0,0,0,0,0,0,-0.330866,0.0341476,0.144317,-1.68477,-0.255996,1.57014,1.2243,-0.532004,0.124527,-0.579511,-0.185359,0.5477,0.308871,-0.173185,1.78089,-38.1166,1.93696,26.3043,0.837399,1.95275,-0.157364,-1.1701,-0.394336,-2.44148,1.04292,0.539238,-0.246125,-0.209388,1.17839,-0.262072,-1.19616,0.485456,-0.225114,-0.187611,
-0.347094,0.0349909,0.127794,-1.69438,-0.219278,0.00780041,0.4261,-0.410133,0.0485539,-0.423645,-0.20945,0.786577,0.228696,-0.239439,0,0,0,0,0,0,0,-0.330866,0.0341476,0.144317,-1.68477,-0.255996,1.57014,1.2243,-0.532004,0.124527,-0.579511,-0.185359,0.5477,0.308871,-0.173185,1.78089,-38.1166,1.93696,26.3043,0.837399,1.95275,-0.157364,-0.852403,-0.272397,-2.44583,1.00952,0.722948,-0.1499,-0.116168,1.25703,-0.163451,-1.18909,0.520837,-0.205158,-0.186123,
-0.339455,0.0335622,0.135629,-1.69068,-0.22765,0.00213293,0.429254,-0.476555,0.0541967,-0.491078,-0.232332,1.03846,0.21562,-0.286702,0,0,0,0,0,0,0,-0.330866,0.0341476,0.144317,-1.68477,-0.255996,1.57014,1.2243,-0.532004,0.124527,-0.579511,-0.185359,0.5477,0.308871,-0.173185,1.78089,-38.1166,1.93696,26.3043,0.837399,1.95275,-0.157364,-0.852403,-0.272397,-2.44583,1.00952,0.722948,-0.1499,-0.116168,1.25703,-0.163451,-1.18909,0.520837,-0.205158,-0.186123,
-0.35355,0.0369786,0.120963,-1.69526,-0.214587,0.0104662,0.425993,-0.409543,0.0372262,-0.423135,-0.205586,0.929136,0.152642,-0.25235,0,0,0,0,0,0,0,-0.330866,0.0341476,0.144317,-1.68477,-0.255996,1.57014,1.2243,-0.532004,0.124527,-0.579511,-0.185359,0.5477,0.308871,-0.173185,1.78089,-38.1166,1.93696,26.3043,0.837399,1.95275,-0.157364,-0.676429,-1.4095,-1.93681,1.57484,0.563515,-0.747979,-0.718649,1.11884,-0.74676,-0.93666,0.390451,-0.168864,-0.185148,
-0.355147,0.0371181,0.119312,-1.69607,-0.210914,0.011035,0.424996,-0.399061,0.0348759,-0.412669,-0.202799,0.918315,0.142201,-0.249293,0,0,0,0,0,0,0,-0.347877,0.0377363,0.126608,-1.69045,-0.237725,1.57861,1.21908,-0.524506,0.105407,-0.534762,-0.176018,0.568103,0.22815,-0.157109,3.50666,-38.8625,3.4366,27.2525,0.581051,2.2503,-0.150955,-0.676429,-1.4095,-1.93681,1.57484,0.563515,-0.747979,-0.718649,1.11884,-0.74676,-0.93666,0.390451,-0.168864,-0.185148,
-0.356704,0.0372467,0.1177,-1.69687,-0.207299,0.0115734,0.424009,-0.389284,0.0321472,-0.402917,-0.20117,0.903715,0.134604,-0.246637,0,0,0,0,0,0,0,-0.347877,0.0377363,0.126608,-1.69045,-0.237725,1.57861,1.21908,-0.524506,0.105407,-0.534762,-0.176018,0.568103,0.22815,-0.157109,3.50666,-38.8625,3.4366,27.2525,0.581051,2.2503,-0.150955,-0.00919761,0.833963,-1.49507,0.146635,0.738034,0.573856,0.620342,0.841882,0.532529,-0.742461,0.476136,-0.0948678,-0.184948,
-0.358224,0.0373641,0.116125,-1.69767,-0.203754,0.0120918,0.423033,-0.380154,0.0293566,-0.393817,-0.200062,0.886358,0.129596,-0.244086,0,0,0,0,0,0,0,-0.347877,0.0377363,0.126608,-1.69045,-0.237725,1.57861,1.21908,-0.524506,0.105407,-0.534762,-0.176018,0.568103,0.22815,-0.157109,3.50666,-38.8625,3.4366,27.2525,0.581051,2.2503,-0.150955,-0.576721,0.566971,-0.555556,0.126749,-0.0932579,0.344436,0.394377,0.202904,0.30421,-0.33789,0.391237,-0.0819824,-0.182961,
-0.359711,0.0374705,0.114584,-1.69847,-0.200285,0.0126021,0.422066,-0.37162,0.0266007,-0.385315,-0.199302,0.867132,0.12756,-0.241642,0,0,0,0,0,0,0,-0.347877,0.0377363,0.126608,-1.69045,-0.237725,1.57861,1.21908,-0.524506,0.105407,-0.534762,-0.176018,0.568103,0.22815,-0.157109,3.50666,-38.8625,3.4366,27.2525,0.581051,2.2503,-0.150955,-0.576721,0.566971,-0.555556,0.126749,-0.0932579,0.344436,0.394377,0.202904,0.30421,-0.33789,0.391237,-0.0819824,-0.182961,
-0.362891,0.036973,0.111219,-1.70092,-0.188114,0.0126154,0.417802,-0.364851,0.0104948,-0.37936,-0.210835,1.03704,0.125458,-0.266149,0,0,0,0,0,0,0,-0.347877,0.0377363,0.126608,-1.69045,-0.237725,1.57861,1.21908,-0.524506,0.105407,-0.534762,-0.176018,0.568103,0.22815,-0.157109,3.50666,-38.8625,3.4366,27.2525,0.581051,2.2503,-0.150955,-0.360031,-0.535199,-1.01352,0.869478,0.294801,-0.23185,-0.182699,0.633592,-0.260446,-0.544708,0.348642,-0.121236,-0.182862,
-0.353652,0.03656,0.12081,-1.69582,-0.213183,0.00969247,0.424359,-0.415228,0.0267574,-0.429856,-0.218382,1.02313,0.137187,-0.284081,0,0,0,0,0,0,0,-0.347877,0.0377363,0.126608,-1.69045,-0.237725,1.57861,1.21908,-0.524506,0.105407,-0.534762,-0.176018,0.568103,0.22815,-0.157109,3.50666,-38.8625,3.4366,27.2525,0.581051,2.2503,-0.150955,-0.360031,-0.535199,-1.01352,0.869478,0.294801,-0.23185,-0.182699,0.633592,-0.260446,-0.544708,0.348642,-0.121236,-0.182862,
-0.368341,0.0394725,0.105494,-1.70056,-0.198187,0.0158721,0.420861,-0.355548,0.0135404,-0.369267,-0.201156,0.855649,0.157968,-0.252075,0,0,0,0,0,0,0,-0.363802,0.0408586,0.110128,-1.69574,-0.217811,1.5845,1.21349,-0.504357,0.0878858,-0.51411,-0.160978,0.632743,0.159593,-0.183858,4.06208,-38.7871,4.13881,27.5739,0.91705,2.41692,-0.137222,0.230542,-1.02014,-1.65325,1.27491,0.977419,-0.404216,-0.360026,1.17748,-0.424942,-0.801846,0.349389,-0.120645,-0.181195,
-0.369721,0.0395181,0.104058,-1.70135,-0.194795,0.0164969,0.419864,-0.345102,0.011405,-0.359013,-0.197708,0.848038,0.156203,-0.249246,0,0,0,0,0,0,0,-0.363802,0.0408586,0.110128,-1.69574,-0.217811,1.5845,1.21349,-0.504357,0.0878858,-0.51411,-0.160978,0.632743,0.159593,-0.183858,4.06208,-38.7871,4.13881,27.5739,0.91705,2.41692,-0.137222,0.230542,-1.02014,-1.65325,1.27491,0.977419,-0.404216,-0.360026,1.17748,-0.424942,-0.801846,0.349389,-0.120645,-0.181195,
-0.371065,0.0395535,0.102659,-1.70214,-0.191422,0.0171173,0.418877,-0.335879,0.00885339,-0.349958,-0.1953,0.843157,0.155091,-0.246806,0,0,0,0,0,0,0,-0.363802,0.0408586,0.110128,-1.69574,-0.217811,1.5845,1.21349,-0.504357,0.0878858,-0.51411,-0.160978,0.632743,0.159593,-0.183858,4.06208,-38.7871,4.13881,27.5739,0.91705,2.41692,-0.137222,-1.24244,-2.39553,-1.75012,2.03231,0.154604,-1.37769,-1.34086,0.980671,-1.37229,-0.88034,0.178691,-0.213486,-0.178867,
-0.372376,0.0395783,0.101291,-1.70291,-0.188057,0.017735,0.417899,-0.327698,0.0062043,-0.341923,-0.19337,0.841195,0.154426,-0.244441,0,0,0,0,0,0,0,-0.363802,0.0408586,0.110128,-1.69574,-0.217811,1.5845,1.21349,-0.504357,0.0878858,-0.51411,-0.160978,0.632743,0.159593,-0.183858,4.06208,-38.7871,4.13881,27.5739,0.91705,2.41692,-0.137222,-1.5887,0.692612,-1.81794,0.270523,-0.0586601,0.228583,0.278524,0.622392,0.191053,-0.954676,0.393825,-0.223803,-0.181171,
-0.373656,0.0395929,0.0999536,-1.70368,-0.184708,0.0183521,0.416931,-0.320059,0.00363528,-0.334323,-0.19172,0.837324,0.154271,-0.242083,0,0,0,0,0,0,0,-0.363802,0.0408586,0.110128,-1.69574,-0.217811,1.5845,1.21349,-0.504357,0.0878858,-0.51411,-0.160978,0.632743,0.159593,-0.183858,4.06208,-38.7871,4.13881,27.5739,0.91705,2.41692,-0.137222,-1.5887,0.692612,-1.81794,0.270523,-0.0586601,0.228583,0.278524,0.622392,0.191053,-0.954676,0.393825,-0.223803,-0.181171,
-0.374906,0.0395977,0.0986464,-1.70444,-0.181397,0.0189723,0.415972,-0.312564,0.00120731,-0.326788,-0.190333,0.827827,0.155049,-0.239771,0,0,0,0,0,0,0,-0.383373,0.0443263,0.0898111,-1.7019,-0.189797,1.58954,1.20727,-0.435169,0.0669645,-0.463991,-0.138592,0.617753,0.0945234,-0.129437,3.47889,-38.3666,3.51198,26.6534,0.343014,2.28417,-0.183914,-1.75725,0.267974,-2.11848,0.555508,-0.0489175,-0.0321046,0.014172,0.738689,-0.060718,-1.04496,0.356841,-0.204661,-0.176569,
-0.368882,0.0390861,0.104877,-1.70112,-0.195424,0.0164107,0.419256,-0.375382,0.0041541,-0.390466,-0.212406,1.01109,0.170827,-0.283186,0,0,0,0,0,0,0,-0.383373,0.0443263,0.0898111,-1.7019,-0.189797,1.58954,1.20727,-0.435169,0.0669645,-0.463991,-0.138592,0.617753,0.0945234,-0.129437,3.47889,-38.3666,3.51198,26.6534,0.343014,2.28417,-0.183914,-1.75725,0.267974,-2.11848,0.555508,-0.0489175,-0.0321046,0.014172,0.738689,-0.060718,-1.04496,0.356841,-0.204661,-0.176569,
-0.401087,0.0445002,0.0714058,-1.71139,-0.147452,0.0263111,0.409076,-0.310892,-0.0111135,-0.325097,-0.184336,0.937816,0.123611,-0.251749,0,0,0,0,0,0,0,-0.383373,0.0443263,0.0898111,-1.7019,-0.189797,1.58954,1.20727,-0.435169,0.0669645,-0.463991,-0.138592,0.617753,0.0945234,-0.129437,3.47889,-38.3666,3.51198,26.6534,0.343014,2.28417,-0.183914,-1.24893,-0.991971,-2.70629,1.35712,0.583917,-0.622921,-0.580141,1.31429,-0.638726,-1.27713,0.24358,-0.212398,-0.173037,
-0.402294,0.0444495,0.0701421,-1.71212,-0.143744,0.0267583,0.40808,-0.301567,-0.0126786,-0.315924,-0.181195,0.926973,0.111803,-0.24905,0,0,0,0,0,0,0,-0.383373,0.0443263,0.0898111,-1.7019,-0.189797,1.58954,1.20727,-0.435169,0.0669645,-0.463991,-0.138592,0.617753,0.0945234,-0.129437,3.47889,-38.3666,3.51198,26.6534,0.343014,2.28417,-0.183914,-0.787833,0.159138,-2.4719,0.657692,0.71457,0.0689148,0.119013,1.17453,0.0316565,-1.15828,0.32051,-0.164127,-0.1689,
-0.403465,0.0443911,0.0689134,-1.71284,-0.140103,0.0271615,0.407094,-0.292792,-0.0145998,-0.307164,-0.17908,0.910242,0.100796,-0.246595,0,0,0,0,0,0,0,-0.383373,0.0443263,0.0898111,-1.7019,-0.189797,1.58954,1.20727,-0.435169,0.0669645,-0.463991,-0.138592,0.617753,0.0945234,-0.129437,3.47889,-38.3666,3.51198,26.6534,0.343014,2.28417,-0.183914,-0.787833,0.159138,-2.4719,0.657692,0.71457,0.0689148,0.119013,1.17453,0.0316565,-1.15828,0.32051,-0.164127,-0.1689,
-0.404603,0.0443246,0.0677178,-1.71355,-0.136547,0.0275246,0.406117,-0.284507,-0.0166148,-0.298909,-0.177508,0.888963,0.0907599,-0.244228,0,0,0,0,0,0,0,-0.383373,0.0443263,0.0898111,-1.7019,-0.189797,1.58954,1.20727,-0.435169,0.0669645,-0.463991,-0.138592,0.617753,0.0945234,-0.129437,3.47889,-38.3666,3.51198,26.6534,0.343014,2.28417,-0.183914,-1.60562,-1.13402,-2.11639,1.32372,-0.0157086,-0.771263,-0.727268,0.844493,-0.78321,-0.947596,0.217543,-0.122749,-0.165843,
-0.40571,0.0442501,0.0665532,-1.71425,-0.133091,0.0278542,0.405149,-0.276711,-0.01863,-0.291155,-0.176356,0.864194,0.082405,-0.24195,0,0,0,0,0,0,0,-0.396438,0.0459059,0.0761873,-1.70651,-0.17077,1.59187,1.20322,-0.394357,0.0412894,-0.423825,-0.156928,0.644804,0.0566081,-0.133281,2.26093,-38.5649,2.26228,26.5781,1.26495,2.4096,-0.177505,-1.60562,-1.13402,-2.11639,1.32372,-0.0157086,-0.771263,-0.727268,0.844493,-0.78321,-0.947596,0.217543,-0.122749,-0.165843,
-0.406787,0.0441677,0.0654177,-1.71495,-0.129744,0.0281613,0.40419,-0.269387,-0.0206064,-0.283881,-0.175639,0.836779,0.076775,-0.239785,0,0,0,0,0,0,0,-0.396438,0.0459059,0.0761873,-1.70651,-0.17077,1.59187,1.20322,-0.394357,0.0412894,-0.423825,-0.156928,0.644804,0.0566081,-0.133281,2.26093,-38.5649,2.26228,26.5781,1.26495,2.4096,-0.177505,-1.32586,-0.517161,-2.50182,1.09267,0.293106,-0.396843,-0.350608,1.03582,-0.416257,-1.08833,0.321651,-0.0987607,-0.168041,
-0.400666,0.0440155,0.0717938,-1.71176,-0.147204,0.0271088,0.407668,-0.301121,-0.0244247,-0.316365,-0.190543,1.00309,0.14699,-0.279305,0,0,0,0,0,0,0,-0.396438,0.0459059,0.0761873,-1.70651,-0.17077,1.59187,1.20322,-0.394357,0.0412894,-0.423825,-0.156928,0.644804,0.0566081,-0.133281,2.26093,-38.5649,2.26228,26.5781,1.26495,2.4096,-0.177505,-1.32586,-0.517161,-2.50182,1.09267,0.293106,-0.396843,-0.350608,1.03582,-0.416257,-1.08833,0.321651,-0.0987607,-0.168041,
-0.411419,0.0452113,0.0605219,-1.71562,-0.131162,0.0254487,0.405188,-0.247939,-0.0318716,-0.262575,-0.185508,0.789618,0.142776,-0.249255,0,0,0,0,0,0,0,-0.396438,0.0459059,0.0761873,-1.70651,-0.17077,1.59187,1.20322,-0.394357,0.0412894,-0.423825,-0.156928,0.644804,0.0566081,-0.133281,2.26093,-38.5649,2.26228,26.5781,1.26495,2.4096,-0.177505,-0.165742,-0.17407,-2.52455,0.966627,0.966742,-0.00326388,0.0451673,1.29746,-0.0314416,-1.05126,0.420807,-0.031497,-0.169418,
-0.412373,0.0450813,0.0595082,-1.71635,-0.128116,0.0260753,0.404201,-0.238603,-0.0324957,-0.253408,-0.182404,0.761528,0.156653,-0.246693,0,0,0,0,0,0,0,-0.396438,0.0459059,0.0761873,-1.70651,-0.17077,1.59187,1.20322,-0.394357,0.0412894,-0.423825,-0.156928,0.644804,0.0566081,-0.133281,2.26093,-38.5649,2.26228,26.5781,1.26495,2.4096,-0.177505,-1.14854,-1.74136,-2.70443,1.88517,0.470243,-1.02842,-0.986599,1.30231,-1.02827,-1.13309,0.287695,-0.0739453,-0.166073,
-0.413294,0.0449479,0.0585275,-1.71706,-0.125181,0.0267381,0.403223,-0.230221,-0.033342,-0.245188,-0.179325,0.73367,0.16571,-0.24442,0,0,0,0,0,0,0,-0.409114,0.0465547,0.0630519,-1.71165,-0.149394,1.59279,1.1976,-0.359154,0.0167316,-0.397536,-0.157387,0.656102,0.00508515,-0.19143,2.82032,-38.5649,2.71455,27.3517,1.27136,2.55608,-0.0905302,-1.14854,-1.74136,-2.70443,1.88517,0.470243,-1.02842,-0.986599,1.30231,-1.02827,-1.13309,0.287695,-0.0739453,-0.166073,
-0.414185,0.0448103,0.0575761,-1.71777,-0.122354,0.0274229,0.402255,-0.222734,-0.0344035,-0.237854,-0.176478,0.706825,0.171197,-0.242184,0,0,0,0,0,0,0,-0.409114,0.0465547,0.0630519,-1.71165,-0.149394,1.59279,1.1976,-0.359154,0.0167316,-0.397536,-0.157387,0.656102,0.00508515,-0.19143,2.82032,-38.5649,2.71455,27.3517,1.27136,2.55608,-0.0905302,-1.23802,-1.32569,-2.50667,1.63259,0.318448,-0.842615,-0.792931,1.14808,-0.853904,-1.07227,0.325464,-0.0889803,-0.160212,
-0.415049,0.0446678,0.0566506,-1.71847,-0.119626,0.0281191,0.401295,-0.216091,-0.0356209,-0.23136,-0.173923,0.681941,0.174047,-0.239969,0,0,0,0,0,0,0,-0.409114,0.0465547,0.0630519,-1.71165,-0.149394,1.59279,1.1976,-0.359154,0.0167316,-0.397536,-0.157387,0.656102,0.00508515,-0.19143,2.82032,-38.5649,2.71455,27.3517,1.27136,2.55608,-0.0905302,-1.23802,-1.32569,-2.50667,1.63259,0.318448,-0.842615,-0.792931,1.14808,-0.853904,-1.07227,0.325464,-0.0889803,-0.160212,
-0.411522,0.0446245,0.0603495,-1.71617,-0.128232,0.0279351,0.403783,-0.257039,-0.0472533,-0.273269,-0.194436,1.00131,0.203665,-0.276717,0,0,0,0,0,0,0,-0.409114,0.0465547,0.0630519,-1.71165,-0.149394,1.59279,1.1976,-0.359154,0.0167316,-0.397536,-0.157387,0.656102,0.00508515,-0.19143,2.82032,-38.5649,2.71455,27.3517,1.27136,2.55608,-0.0905302,-0.941111,0.117405,-2.36044,0.811058,0.414126,-0.0341502,0.0234057,1.00991,-0.0691799,-1.03989,0.442912,-0.0971973,-0.159655,
-0.422391,0.0449649,0.0490522,-1.72065,-0.111362,0.0292966,0.399705,-0.221457,-0.0472882,-0.237725,-0.167647,0.869514,0.136374,-0.246593,0,0,0,0,0,0,0,-0.409114,0.0465547,0.0630519,-1.71165,-0.149394,1.59279,1.1976,-0.359154,0.0167316,-0.397536,-0.157387,0.656102,0.00508515,-0.19143,2.82032,-38.5649,2.71455,27.3517,1.27136,2.55608,-0.0905302,-0.941111,0.117405,-2.36044,0.811058,0.414126,-0.0341502,0.0234057,1.00991,-0.0691799,-1.03989,0.442912,-0.0971973,-0.159655,
-0.423251,0.0447703,0.0481279,-1.72131,-0.107826,0.0297898,0.398729,-0.215058,-0.0486747,-0.231068,-0.164297,0.883875,0.123281,-0.244078,0,0,0,0,0,0,0,-0.420546,0.0467453,0.0512413,-1.71652,-0.130678,1.59332,1.19155,-0.324172,0.00244306,-0.353937,-0.150093,0.51636,0.00987417,-0.177154,3.63361,-38.3904,3.53578,27.6016,0.984799,2.61559,-0.163772,-1.34364,-0.27234,-1.96515,0.969267,-0.0391568,-0.328636,-0.278246,0.731809,-0.348861,-0.86663,0.421992,-0.087852,-0.161453,
-0.424084,0.0445689,0.0472317,-1.72195,-0.104289,0.0302307,0.397762,-0.208228,-0.0503311,-0.224048,-0.161926,0.884294,0.110246,-0.241728,0,0,0,0,0,0,0,-0.420546,0.0467453,0.0512413,-1.71652,-0.130678,1.59332,1.19155,-0.324172,0.00244306,-0.353937,-0.150093,0.51636,0.00987417,-0.177154,3.63361,-38.3904,3.53578,27.6016,0.984799,2.61559,-0.163772,-1.28985,-1.1997,-1.63555,1.41578,-0.172049,-0.800705,-0.753654,0.653412,-0.808409,-0.689643,0.341979,-0.0474312,-0.165256,
-0.424889,0.0443607,0.0463639,-1.72259,-0.100793,0.0306219,0.396804,-0.20125,-0.0520586,-0.216964,-0.160161,0.87412,0.0977804,-0.23949,0,0,0,0,0,0,0,-0.420546,0.0467453,0.0512413,-1.71652,-0.130678,1.59332,1.19155,-0.324172,0.00244306,-0.353937,-0.150093,0.51636,0.00987417,-0.177154,3.63361,-38.3904,3.53578,27.6016,0.984799,2.61559,-0.163772,-1.28985,-1.1997,-1.63555,1.41578,-0.172049,-0.800705,-0.753654,0.653412,-0.808409,-0.689643,0.341979,-0.0474312,-0.165256,
-0.425666,0.0441456,0.0455239,-1.72323,-0.0973691,0.030969,0.395855,-0.194331,-0.0537789,-0.209997,-0.158905,0.855883,0.0867897,-0.237363,0,0,0,0,0,0,0,-0.420546,0.0467453,0.0512413,-1.71652,-0.130678,1.59332,1.19155,-0.324172,0.00244306,-0.353937,-0.150093,0.51636,0.00987417,-0.177154,3.63361,-38.3904,3.53578,27.6016,0.984799,2.61559,-0.163772,-0.913459,0.276687,-1.50054,0.555826,-0.0528997,0.0571869,0.11372,0.497644,0.0231655,-0.626645,0.452096,-0.0202777,-0.176795,
-0.422131,0.044439,0.0492832,-1.7211,-0.107548,0.0316023,0.398386,-0.210411,-0.0609004,-0.226816,-0.173898,0.988336,0.189693,-0.271869,0,0,0,0,0,0,0,-0.420546,0.0467453,0.0512413,-1.71652,-0.130678,1.59332,1.19155,-0.324172,0.00244306,-0.353937,-0.150093,0.51636,0.00987417,-0.177154,3.63361,-38.3904,3.53578,27.6016,0.984799,2.61559,-0.163772,-0.913459,0.276687,-1.50054,0.555826,-0.0528997,0.0571869,0.11372,0.497644,0.0231655,-0.626645,0.452096,-0.0202777,-0.176795,
-0.432003,0.0444109,0.0390595,-1.72506,-0.0947169,0.0265828,0.393794,-0.172259,-0.0645127,-0.187833,-0.172749,0.706511,0.149065,-0.244486,0,0,0,0,0,0,0,-0.420546,0.0467453,0.0512413,-1.71652,-0.130678,1.59332,1.19155,-0.324172,0.00244306,-0.353937,-0.150093,0.51636,0.00987417,-0.177154,3.63361,-38.3904,3.53578,27.6016,0.984799,2.61559,-0.163772,-0.406389,0.0759593,-1.65171,0.751624,0.285969,0.0617641,0.117614,0.70748,0.0304732,-0.651327,0.501982,0.0182182,-0.185782,
-0.432655,0.0441517,0.0383449,-1.72574,-0.0920326,0.0272426,0.392826,-0.162903,-0.0647911,-0.178657,-0.169693,0.671075,0.164946,-0.242144,0,0,0,0,0,0,0,-0.430913,0.0466715,0.040326,-1.72119,-0.112151,1.59355,1.18705,-0.302172,-0.00556459,-0.335046,-0.137686,0.591955,-0.00181259,-0.131768,3.80817,-37.3906,3.68654,27.1017,1.08825,2.82067,-0.210464,-0.406389,0.0759593,-1.65171,0.751624,0.285969,0.0617641,0.117614,0.70748,0.0304732,-0.651327,0.501982,0.0182182,-0.185782,
-0.433273,0.0438908,0.0376631,-1.72641,-0.0894945,0.0279422,0.391865,-0.154526,-0.0652151,-0.170453,-0.166487,0.634512,0.174903,-0.240049,0,0,0,0,0,0,0,-0.430913,0.0466715,0.040326,-1.72119,-0.112151,1.59355,1.18705,-0.302172,-0.00556459,-0.335046,-0.137686,0.591955,-0.00181259,-0.131768,3.80817,-37.3906,3.68654,27.1017,1.08825,2.82067,-0.210464,-0.787443,-1.16477,-1.62268,1.4316,0.0200325,-0.657332,-0.60933,0.695427,-0.665886,-0.591752,0.405552,0.0538661,-0.192639,
-0.433861,0.0436275,0.0370104,-1.72706,-0.0871038,0.0286647,0.390914,-0.147084,-0.0658446,-0.163173,-0.163519,0.597691,0.180625,-0.237968,0,0,0,0,0,0,0,-0.430913,0.0466715,0.040326,-1.72119,-0.112151,1.59355,1.18705,-0.302172,-0.00556459,-0.335046,-0.137686,0.591955,-0.00181259,-0.131768,3.80817,-37.3906,3.68654,27.1017,1.08825,2.82067,-0.210464,-1.29139,-1.28347,-2.22911,1.62328,-0.00127913,-0.826557,-0.780149,0.894952,-0.829653,-0.859651,0.390716,0.0197721,-0.197647,
-0.434424,0.0433609,0.0363832,-1.7277,-0.0848571,0.0293981,0.38997,-0.140539,-0.0666316,-0.156786,-0.16091,0.56168,0.183348,-0.235878,0,0,0,0,0,0,0,-0.430913,0.0466715,0.040326,-1.72119,-0.112151,1.59355,1.18705,-0.302172,-0.00556459,-0.335046,-0.137686,0.591955,-0.00181259,-0.131768,3.80817,-37.3906,3.68654,27.1017,1.08825,2.82067,-0.210464,-1.29139,-1.28347,-2.22911,1.62328,-0.00127913,-0.826557,-0.780149,0.894952,-0.829653,-0.859651,0.390716,0.0197721,-0.197647,
-0.434963,0.0430909,0.0357781,-1.72834,-0.0827456,0.0301345,0.389035,-0.134879,-0.0675031,-0.151284,-0.158699,0.527868,0.184108,-0.233773,0,0,0,0,0,0,0,-0.430913,0.0466715,0.040326,-1.72119,-0.112151,1.59355,1.18705,-0.302172,-0.00556459,-0.335046,-0.137686,0.591955,-0.00181259,-0.131768,3.80817,-37.3906,3.68654,27.1017,1.08825,2.82067,-0.210464,-1.23335,-0.606643,-2.57246,1.31986,0.179823,-0.465059,-0.411499,1.01061,-0.482695,-1.0137,0.442427,0.0056716,-0.199941,
-0.432046,0.0438217,0.0389557,-1.72566,-0.0910357,0.030459,0.39251,-0.179853,-0.0795462,-0.196672,-0.181315,0.957351,0.241486,-0.269501,0,0,0,0,0,0,0,-0.439511,0.0465797,0.0308632,-1.72482,-0.0948843,1.59358,1.18291,-0.280712,-0.00414953,-0.278713,-0.1059,0.493089,0.00150174,-0.137757,3.93512,-37.5414,3.68654,26.9272,0.484005,2.61559,-0.244339,-1.23335,-0.606643,-2.57246,1.31986,0.179823,-0.465059,-0.411499,1.01061,-0.482695,-1.0137,0.442427,0.0056716,-0.199941,
-0.448725,0.0434015,0.020874,-1.73312,-0.0643329,0.0325227,0.385317,-0.14621,-0.0769118,-0.163693,-0.158699,0.686873,0.212277,-0.241471,0,0,0,0,0,0,0,-0.439511,0.0465797,0.0308632,-1.72482,-0.0948843,1.59358,1.18291,-0.280712,-0.00414953,-0.278713,-0.1059,0.493089,0.00150174,-0.137757,3.93512,-37.5414,3.68654,26.9272,0.484005,2.61559,-0.244339,-1.22469,0.301093,-2.40303,0.706291,0.0929546,0.0171634,0.0784944,0.798261,-0.0205252,-0.937398,0.434924,0.0210418,-0.205211,
-0.449293,0.0430927,0.0202368,-1.73374,-0.0615159,0.0333329,0.384361,-0.14214,-0.0771948,-0.159311,-0.155493,0.704248,0.20255,-0.239187,0,0,0,0,0,0,0,-0.439511,0.0465797,0.0308632,-1.72482,-0.0948843,1.59358,1.18291,-0.280712,-0.00414953,-0.278713,-0.1059,0.493089,0.00150174,-0.137757,3.93512,-37.5414,3.68654,26.9272,0.484005,2.61559,-0.244339,-1.7074,0.0322548,-2.54039,0.85532,-0.12713,-0.230401,-0.17049,0.771772,-0.262589,-0.999806,0.374269,0.00742053,-0.206432,
-0.449843,0.0427814,0.0196189,-1.73436,-0.0586825,0.0340985,0.383413,-0.137493,-0.077826,-0.154459,-0.153043,0.708352,0.191397,-0.236975,0,0,0,0,0,0,0,-0.439511,0.0465797,0.0308632,-1.72482,-0.0948843,1.59358,1.18291,-0.280712,-0.00414953,-0.278713,-0.1059,0.493089,0.00150174,-0.137757,3.93512,-37.5414,3.68654,26.9272,0.484005,2.61559,-0.244339,-1.7074,0.0322548,-2.54039,0.85532,-0.12713,-0.230401,-0.17049,0.771772,-0.262589,-0.999806,0.374269,0.00742053,-0.206432,
-0.450374,0.0424669,0.0190211,-1.73496,-0.0558719,0.0348157,0.382473,-0.132605,-0.0786124,-0.149453,-0.151084,0.702656,0.179287,-0.234839,0,0,0,0,0,0,0,-0.439511,0.0465797,0.0308632,-1.72482,-0.0948843,1.59358,1.18291,-0.280712,-0.00414953,-0.278713,-0.1059,0.493089,0.00150174,-0.137757,3.93512,-37.5414,3.68654,26.9272,0.484005,2.61559,-0.244339,-2.08198,-0.428543,-2.76287,1.16204,-0.262357,-0.557966,-0.496467,0.830293,-0.585038,-1.08107,0.340187,0.00870253,-0.207882,
-0.450885,0.0421491,0.0184431,-1.73556,-0.0531125,0.0354832,0.381542,-0.12771,-0.0794542,-0.144502,-0.149527,0.689849,0.166889,-0.23277,0,0,0,0,0,0,0,-0.439511,0.0465797,0.0308632,-1.72482,-0.0948843,1.59358,1.18291,-0.280712,-0.00414953,-0.278713,-0.1059,0.493089,0.00150174,-0.137757,3.93512,-37.5414,3.68654,26.9272,0.484005,2.61559,-0.244339,-2.08198,-0.428543,-2.76287,1.16204,-0.262357,-0.557966,-0.496467,0.830293,-0.585038,-1.08107,0.340187,0.00870253,-0.207882,
-0.451376,0.0418279,0.0178841,-1.73615,-0.0504243,0.0361034,0.380619,-0.12297,-0.0802904,-0.139749,-0.148368,0.672049,0.155043,-0.230759,0,0,0,0,0,0,0,-0.447619,0.0464039,0.0221365,-1.72813,-0.0802957,1.59383,1.17879,-0.229586,-0.0113621,-0.250499,-0.0978444,0.459485,0.0236394,-0.132854,2.34027,-37.3668,2.21467,26.5305,1.06994,2.59545,-0.190323,-2.36471,-0.770262,-2.5038,1.31459,-0.599603,-0.805364,-0.744355,0.629998,-0.825258,-0.938905,0.343094,0.0462494,-0.21239,
-0.448429,0.0428934,0.0211482,-1.73357,-0.0565964,0.0361816,0.384145,-0.132446,-0.0901984,-0.150097,-0.163406,0.927178,0.296033,-0.264031,0,0,0,0,0,0,0,-0.447619,0.0464039,0.0221365,-1.72813,-0.0802957,1.59383,1.17879,-0.229586,-0.0113621,-0.250499,-0.0978444,0.459485,0.0236394,-0.132854,2.34027,-37.3668,2.21467,26.5305,1.06994,2.59545,-0.190323,-1.7306,-0.582888,-2.74775,1.29955,-0.164741,-0.563495,-0.500265,0.853731,-0.588848,-0.985291,0.416179,0.100443,-0.217669,
-0.455146,0.0428454,0.013834,-1.73603,-0.048676,0.0305311,0.381419,-0.104433,-0.0858691,-0.121181,-0.156519,0.609783,0.171881,-0.237339,0,0,0,0,0,0,0,-0.447619,0.0464039,0.0221365,-1.72813,-0.0802957,1.59383,1.17879,-0.229586,-0.0113621,-0.250499,-0.0978444,0.459485,0.0236394,-0.132854,2.34027,-37.3668,2.21467,26.5305,1.06994,2.59545,-0.190323,-1.7306,-0.582888,-2.74775,1.29955,-0.164741,-0.563495,-0.500265,0.853731,-0.588848,-0.985291,0.416179,0.100443,-0.217669,
-0.455537,0.0425021,0.0133754,-1.73664,-0.0463479,0.0312257,0.380478,-0.0978771,-0.0858329,-0.114662,-0.153741,0.582022,0.173649,-0.235224,0,0,0,0,0,0,0,-0.447619,0.0464039,0.0221365,-1.72813,-0.0802957,1.59383,1.17879,-0.229586,-0.0113621,-0.250499,-0.0978444,0.459485,0.0236394,-0.132854,2.34027,-37.3668,2.21467,26.5305,1.06994,2.59545,-0.190323,-2.16817,-1.27501,-2.84022,1.71544,-0.345955,-1.01927,-0.957812,0.905284,-1.03394,-1.05701,0.351368,0.0601718,-0.225182,
-0.455904,0.0421579,0.0129407,-1.73725,-0.0441477,0.0319124,0.379545,-0.0918205,-0.0860378,-0.108664,-0.151175,0.550041,0.171664,-0.233215,0,0,0,0,0,0,0,-0.447619,0.0464039,0.0221365,-1.72813,-0.0802957,1.59383,1.17879,-0.229586,-0.0113621,-0.250499,-0.0978444,0.459485,0.0236394,-0.132854,2.34027,-37.3668,2.21467,26.5305,1.06994,2.59545,-0.190323,-2.16817,-1.27501,-2.84022,1.71544,-0.345955,-1.01927,-0.957812,0.905284,-1.03394,-1.05701,0.351368,0.0601718,-0.225182,
-0.45625,0.0418122,0.0125277,-1.73784,-0.0420858,0.0325811,0.37862,-0.0863266,-0.0864385,-0.103244,-0.148955,0.515469,0.167167,-0.231212,0,0,0,0,0,0,0,-0.456293,0.0455427,0.0128175,-1.73267,-0.0612369,1.59506,1.17265,-0.185092,-0.022621,-0.215573,-0.104338,0.47212,0.051217,-0.144711,3.1496,-37.0177,2.88911,26.1575,1.22284,2.50298,-0.197647,-2.68207,-0.639689,-2.93691,1.41535,-0.593183,-0.826712,-0.764106,0.799892,-0.84526,-1.17253,0.404257,-0.0160814,-0.232479,
-0.456576,0.0414643,0.0121339,-1.73843,-0.0401658,0.0332261,0.377703,-0.0814531,-0.0869637,-0.0984608,-0.14714,0.480015,0.16127,-0.229196,0,0,0,0,0,0,0,-0.456293,0.0455427,0.0128175,-1.73267,-0.0612369,1.59506,1.17265,-0.185092,-0.022621,-0.215573,-0.104338,0.47212,0.051217,-0.144711,3.1496,-37.0177,2.88911,26.1575,1.22284,2.50298,-0.197647,-2.68207,-0.639689,-2.93691,1.41535,-0.593183,-0.826712,-0.764106,0.799892,-0.84526,-1.17253,0.404257,-0.0160814,-0.232479,
-0.456885,0.0411142,0.0117564,-1.73902,-0.0383831,0.0338464,0.376795,-0.0772687,-0.0875398,-0.0943825,-0.145774,0.445672,0.155073,-0.22715,0,0,0,0,0,0,0,-0.456293,0.0455427,0.0128175,-1.73267,-0.0612369,1.59506,1.17265,-0.185092,-0.022621,-0.215573,-0.104338,0.47212,0.051217,-0.144711,3.1496,-37.0177,2.88911,26.1575,1.22284,2.50298,-0.197647,-3.27964,0.21499,-2.49262,0.850092,-1.2163,-0.551487,-0.487891,0.29705,-0.574878,-0.997242,0.481822,-0.0134409,-0.235132,
-0.455121,0.0422384,0.0138112,-1.73666,-0.0419201,0.0356131,0.380261,-0.1033,-0.101224,-0.120672,-0.164138,0.882446,0.291801,-0.259626,0,0,0,0,0,0,0,-0.456293,0.0455427,0.0128175,-1.73267,-0.0612369,1.59506,1.17265,-0.185092,-0.022621,-0.215573,-0.104338,0.47212,0.051217,-0.144711,3.1496,-37.0177,2.88911,26.1575,1.22284,2.50298,-0.197647,-2.68381,0.516259,-2.6929,0.739001,-0.753875,-0.250844,-0.186375,0.530214,-0.281228,-1.08665,0.508582,-0.0205266,-0.242422,
-0.462144,0.0415556,0.00615283,-1.74055,-0.0351034,0.0338303,0.37549,-0.0873045,-0.0942012,-0.105726,-0.155379,0.592011,0.216471,-0.233527,0,0,0,0,0,0,0,-0.456293,0.0455427,0.0128175,-1.73267,-0.0612369,1.59506,1.17265,-0.185092,-0.022621,-0.215573,-0.104338,0.47212,0.051217,-0.144711,3.1496,-37.0177,2.88911,26.1575,1.22284,2.50298,-0.197647,-2.68381,0.516259,-2.6929,0.739001,-0.753875,-0.250844,-0.186375,0.530214,-0.281228,-1.08665,0.508582,-0.0205266,-0.242422,
-0.462486,0.0411804,0.00573875,-1.74116,-0.0326253,0.034688,0.374564,-0.0855052,-0.0938025,-0.103519,-0.152537,0.619534,0.214421,-0.231432,0,0,0,0,0,0,0,-0.456293,0.0455427,0.0128175,-1.73267,-0.0612369,1.59506,1.17265,-0.185092,-0.022621,-0.215573,-0.104338,0.47212,0.051217,-0.144711,3.1496,-37.0177,2.88911,26.1575,1.22284,2.50298,-0.197647,-2.45354,0.35734,-2.76213,0.857299,-0.545399,-0.276022,-0.214234,0.678564,-0.303897,-1.14295,0.492218,-0.0495021,-0.245537,
-0.462816,0.0408056,0.00533693,-1.74176,-0.0300987,0.0355206,0.373647,-0.0827256,-0.0936903,-0.100455,-0.149801,0.631644,0.208156,-0.229361,0,0,0,0,0,0,0,-0.461475,0.0447454,0.00670776,-1.73591,-0.0497491,1.59645,1.16928,-0.156638,-0.0332993,-0.178679,-0.105133,0.338992,0.0558118,-0.0970592,2.69336,-37.0653,2.48842,26.1813,1.20453,2.3565,-0.270889,-2.45354,0.35734,-2.76213,0.857299,-0.545399,-0.276022,-0.214234,0.678564,-0.303897,-1.14295,0.492218,-0.0495021,-0.245537,
