PerkyPenguin/Analysis-on-Approximated-Derivatives/Code_and_Data/PaperData/Real_Robot/Scene_2/set_interval/4/trajectory.csv
Commanded Joint 0 Position,Commanded Joint 1 Position,Commanded Joint 2 Position,Commanded Joint 3 Position,Commanded Joint 4 Position,Commanded Joint 5 Position,Commanded Joint 6 Position,Commanded Joint 0 Velocity,Commanded Joint 1 Velocity,Commanded Joint 2 Velocity,Commanded Joint 3 Velocity,Commanded Joint 4 Velocity,Commanded Joint 5 Velocity,Commanded Joint 6 Velocity,Commanded Joint 0 Torque,Commanded Joint 1 Torque,Commanded Joint 2 Torque,Commanded Joint 3 Torque,Commanded Joint 4 Torque,Commanded Joint 5 Torque,Commanded Joint 6 Torque,Actual Joint 0 Position,Actual Joint 1 Position,Actual Joint 2 Position,Actual Joint 3 Position,Actual Joint 4 Position,Actual Joint 5 Position,Actual Joint 6 Position,Actual Joint 0 Velocity,Actual Joint 1 Velocity,Actual Joint 2 Velocity,Actual Joint 3 Velocity,Actual Joint 4 Velocity,Actual Joint 5 Velocity,Actual Joint 6 Velocity,Actual Joint 0 Torque,Actual Joint 1 Torque,Actual Joint 2 Torque,Actual Joint 3 Torque,Actual Joint 4 Torque,Actual Joint 5 Torque,Actual Joint 6 Torque,EE ext force 0,EE ext force 1,EE ext force 2,EE ext force 3,EE ext force 4,EE ext force 5,joint ext torque 0,joint ext torque 1,joint ext torque 2,joint ext torque 3,joint ext torque 4,joint ext torque 5,joint ext torque 6,
0.0207034,-0.0523041,0.512504,-1.55935,0.0456385,-0.0149237,0.531492,0.0108548,0.0300712,0.0150443,-0.143812,-0.0775506,0.200383,-0.00130499,0,0,0,0,0,0,0,0.0206175,-0.0524273,0.512394,-1.55791,0.0463719,1.55389,1.31691,-0.00151981,0.00144434,0.000542184,0.000866334,0.0126429,0.000287247,-0.000477,0.25745,-27.4565,-0.76079,26.8518,0.617672,3.06603,0.0907442,2.08666,1.85269,1.84245,-0.942109,1.26713,0.184254,0.18709,0.578447,0.1977,0.095557,0.216457,-0.318124,0.0912895,
0.0207605,-0.0521024,0.512581,-1.55997,0.045259,-0.0140881,0.531486,0.0142747,0.0504159,0.019216,-0.154585,-0.09487,0.2089,-0.00138402,0,0,0,0,0,0,0,0.0206175,-0.0524273,0.512394,-1.55791,0.0463719,1.55389,1.31691,-0.00151981,0.00144434,0.000542184,0.000866334,0.0126429,0.000287247,-0.000477,0.25745,-27.4565,-0.76079,26.8518,0.617672,3.06603,0.0907442,1.9823,1.79126,1.83556,-0.890211,1.19275,0.185411,0.188034,0.538172,0.197525,0.107443,0.223517,-0.316284,0.0917779,
0.0206173,-0.0524151,0.512394,-1.55791,0.0464822,-0.0168932,0.531513,0.000147311,0.000505341,0.000188467,-1.45032e-06,0.00451591,0.00049374,7.6979e-06,0,0,0,0,0,0,0,0.0206175,-0.0524273,0.512394,-1.55791,0.0463719,1.55389,1.31691,-0.00151981,0.00144434,0.000542184,0.000866334,0.0126429,0.000287247,-0.000477,0.25745,-27.4565,-0.76079,26.8518,0.617672,3.06603,0.0907442,1.9823,1.79126,1.83556,-0.890211,1.19275,0.185411,0.188034,0.538172,0.197525,0.107443,0.223517,-0.316284,0.0917779,
0.0206181,-0.0524135,0.512395,-1.55791,0.0464963,-0.0168916,0.531513,0.000186669,0.000382934,0.000240146,-2.74975e-05,0.00352735,0.000384704,3.70471e-06,0,0,0,0,0,0,0,0.0206175,-0.0524273,0.512394,-1.55791,0.0463719,1.55389,1.31691,-0.00151981,0.00144434,0.000542184,0.000866334,0.0126429,0.000287247,-0.000477,0.25745,-27.4565,-0.76079,26.8518,0.617672,3.06603,0.0907442,2.12634,1.82016,1.75089,-0.922155,1.31784,0.157495,0.16249,0.615955,0.168455,0.0791911,0.223413,-0.297404,0.0918999,
0.0206189,-0.0524124,0.512396,-1.55791,0.0465073,-0.0168905,0.531513,0.000205237,0.000279041,0.000267984,-3.89176e-05,0.00276694,0.000280285,1.04486e-06,0,0,0,0,0,0,0,0.0206288,-0.0524996,0.512396,-1.55809,0.0463177,1.55405,1.31691,-0.00018795,-0.0113281,-0.00136036,-0.0270111,0.00727593,0.0308795,0.00124753,0.182071,-26.3338,-0.661608,24.3881,0.715634,2.90673,0.0577852,2.12634,1.82016,1.75089,-0.922155,1.31784,0.157495,0.16249,0.615955,0.168455,0.0791911,0.223413,-0.297404,0.0918999,
0.0206197,-0.0524117,0.512398,-1.55791,0.046516,-0.0168898,0.531513,0.000210009,0.000190726,0.000279816,-4.14023e-05,0.0021776,0.000185281,-6.31944e-07,0,0,0,0,0,0,0,0.0206288,-0.0524996,0.512396,-1.55809,0.0463177,1.55405,1.31691,-0.00018795,-0.0113281,-0.00136036,-0.0270111,0.00727593,0.0308795,0.00124753,0.182071,-26.3338,-0.661608,24.3881,0.715634,2.90673,0.0577852,0.985308,1.07288,1.38503,-0.452665,0.570112,0.136159,0.137247,0.243528,0.139828,0.0971294,0.203197,-0.283149,0.0919361,
0.0206206,-0.0524112,0.512399,-1.55791,0.0465229,-0.0168894,0.531513,0.00020592,0.0001157,0.000281176,-3.84245e-05,0.00171706,0.000101481,-1.6218e-06,0,0,0,0,0,0,0,0.0206288,-0.0524996,0.512396,-1.55809,0.0463177,1.55405,1.31691,-0.00018795,-0.0113281,-0.00136036,-0.0270111,0.00727593,0.0308795,0.00124753,0.182071,-26.3338,-0.661608,24.3881,0.715634,2.90673,0.0577852,0.985308,1.07288,1.38503,-0.452665,0.570112,0.136159,0.137247,0.243528,0.139828,0.0971294,0.203197,-0.283149,0.0919361,
0.0206214,-0.052411,0.5124,-1.55791,0.0465283,-0.0168892,0.531513,0.000196393,5.20314e-05,0.000275919,-3.22291e-05,0.00135406,2.91131e-05,-2.14504e-06,0,0,0,0,0,0,0,0.0206288,-0.0524996,0.512396,-1.55809,0.0463177,1.55405,1.31691,-0.00018795,-0.0113281,-0.00136036,-0.0270111,0.00727593,0.0308795,0.00124753,0.182071,-26.3338,-0.661608,24.3881,0.715634,2.90673,0.0577852,1.05893,1.42905,0.858711,-0.823351,0.811736,0.277314,0.270975,0.465642,0.300778,-0.100893,0.217958,-0.260151,0.0910276,
0.0206221,-0.052411,0.512401,-1.55791,0.0465326,-0.0168894,0.531513,0.00018377,-1.95525e-06,0.000266697,-2.42965e-05,0.00106542,-3.2418e-05,-2.3587e-06,0,0,0,0,0,0,0,0.0206288,-0.0524996,0.512396,-1.55809,0.0463177,1.55405,1.31691,-0.00018795,-0.0113281,-0.00136036,-0.0270111,0.00727593,0.0308795,0.00124753,0.182071,-26.3338,-0.661608,24.3881,0.715634,2.90673,0.0577852,2.21841,2.00898,0.579998,-1.33845,1.77472,0.214077,0.207949,1.04902,0.253558,-0.330437,0.198174,-0.247701,0.0906987,
0.0206228,-0.0524112,0.512402,-1.55791,0.0465359,-0.0168897,0.531513,0.000169629,-4.77095e-05,0.00025531,-1.56004e-05,0.000833879,-8.41176e-05,-2.3725e-06,0,0,0,0,0,0,0,0.02062,-0.0525456,0.512382,-1.55856,0.0462538,1.55473,1.31691,0.00261788,-0.000340252,0.000427628,0.000747104,0.00130423,0.000972457,-0.000782881,0.182071,-27.4089,-0.637804,27.0541,1.29608,3.34435,0.110886,2.21841,2.00898,0.579998,-1.33845,1.77472,0.214077,0.207949,1.04902,0.253558,-0.330437,0.198174,-0.247701,0.0906987,
0.0206234,-0.0524115,0.512403,-1.55791,0.0465385,-0.0168902,0.531513,0.000155013,-8.64817e-05,0.000242964,-6.77044e-06,0.000646538,-0.000127156,-2.26204e-06,0,0,0,0,0,0,0,0.02062,-0.0525456,0.512382,-1.55856,0.0462538,1.55473,1.31691,0.00261788,-0.000340252,0.000427628,0.000747104,0.00130423,0.000972457,-0.000782881,0.182071,-27.4089,-0.637804,27.0541,1.29608,3.34435,0.110886,2.18643,1.81616,1.13891,-1.0285,1.49513,0.135601,0.1239,0.774858,0.167969,-0.0539019,0.203224,-0.193771,0.0903031,
0.0206239,-0.052412,0.512404,-1.55791,0.0465405,-0.0168909,0.531513,0.000140593,-0.000119344,0.000230447,1.79907e-06,0.000493685,-0.000162724,-2.07876e-06,0,0,0,0,0,0,0,0.02062,-0.0525456,0.512382,-1.55856,0.0462538,1.55473,1.31691,0.00261788,-0.000340252,0.000427628,0.000747104,0.00130423,0.000972457,-0.000782881,0.182071,-27.4089,-0.637804,27.0541,1.29608,3.34435,0.110886,2.18643,1.81616,1.13891,-1.0285,1.49513,0.135601,0.1239,0.774858,0.167969,-0.0539019,0.203224,-0.193771,0.0903031,
0.0206245,-0.0524126,0.512405,-1.55791,0.046542,-0.0168916,0.531513,0.000126783,-0.000147212,0.000218258,9.87424e-06,0.000367971,-0.000191953,-1.8572e-06,0,0,0,0,0,0,0,0.02062,-0.0525456,0.512382,-1.55856,0.0462538,1.55473,1.31691,0.00261788,-0.000340252,0.000427628,0.000747104,0.00130423,0.000972457,-0.000782881,0.182071,-27.4089,-0.637804,27.0541,1.29608,3.34435,0.110886,2.20913,1.98571,1.09337,-1.14082,1.53983,0.207539,0.184308,0.812842,0.253719,-0.0758224,0.232895,-0.18918,0.0896808,
0.0206249,-0.0524133,0.512406,-1.55791,0.046543,-0.0168925,0.531513,0.000113822,-0.000170863,0.0002067,1.73294e-05,0.000263798,-0.000215868,-1.6201e-06,0,0,0,0,0,0,0,0.02062,-0.0525456,0.512382,-1.55856,0.0462538,1.55473,1.31691,0.00261788,-0.000340252,0.000427628,0.000747104,0.00130423,0.000972457,-0.000782881,0.182071,-27.4089,-0.637804,27.0541,1.29608,3.34435,0.110886,2.20913,1.98571,1.09337,-1.14082,1.53983,0.207539,0.184308,0.812842,0.253719,-0.0758224,0.232895,-0.18918,0.0896808,
0.0206253,-0.052414,0.512406,-1.55791,0.0465437,-0.0168934,0.531513,0.000101832,-0.000190957,0.00019594,2.41107e-05,0.000176868,-0.000235377,-1.38207e-06,0,0,0,0,0,0,0,0.02062,-0.0525456,0.512382,-1.55856,0.0462538,1.55473,1.31691,0.00261788,-0.000340252,0.000427628,0.000747104,0.00130423,0.000972457,-0.000782881,0.182071,-27.4089,-0.637804,27.0541,1.29608,3.34435,0.110886,1.61759,1.78165,0.975611,-1.0424,1.16189,0.281729,0.255923,0.631258,0.328825,-0.0907098,0.222267,-0.225475,0.0887631,
0.0206257,-0.0524149,0.512407,-1.55791,0.0465441,-0.0168944,0.531513,9.08543e-05,-0.000208051,0.000186056,3.02109e-05,0.000103859,-0.00025126,-1.15217e-06,0,0,0,0,0,0,0,0.0206379,-0.0525216,0.512394,-1.55853,0.0462549,1.55477,1.31691,0.00201244,-0.00147641,0.000845325,-0.00366037,-0.0134151,-0.00229631,0.000580829,0.00751081,-27.6589,-0.812364,26.6058,1.29608,3.05321,0.0706026,1.45844,1.3015,1.40356,-0.596537,0.871013,0.108508,0.0770448,0.387303,0.146651,0.104671,0.200814,-0.227452,0.0880119,
0.020626,-0.0524158,0.512408,-1.55791,0.0465443,-0.0168955,0.531513,8.08822e-05,-0.000222616,0.000177064,3.56521e-05,4.21842e-05,-0.000264183,-9.35637e-07,0,0,0,0,0,0,0,0.0206379,-0.0525216,0.512394,-1.55853,0.0462549,1.55477,1.31691,0.00201244,-0.00147641,0.000845325,-0.00366037,-0.0134151,-0.00229631,0.000580829,0.00751081,-27.6589,-0.812364,26.6058,1.29608,3.05321,0.0706026,1.45844,1.3015,1.40356,-0.596537,0.871013,0.108508,0.0770448,0.387303,0.146651,0.104671,0.200814,-0.227452,0.0880119,
0.0206263,-0.0524167,0.512408,-1.55791,0.0465443,-0.0168966,0.531513,7.1876e-05,-0.000235048,0.000168945,4.04734e-05,-1.01916e-05,-0.000274701,-7.35219e-07,0,0,0,0,0,0,0,0.0206379,-0.0525216,0.512394,-1.55853,0.0462549,1.55477,1.31691,0.00201244,-0.00147641,0.000845325,-0.00366037,-0.0134151,-0.00229631,0.000580829,0.00751081,-27.6589,-0.812364,26.6058,1.29608,3.05321,0.0706026,1.81272,1.48822,1.32228,-0.77239,1.18441,0.0934468,0.0541844,0.584785,0.144729,0.0116759,0.195296,-0.247598,0.0881228,
0.0206265,-0.0524177,0.512409,-1.55791,0.046544,-0.0168977,0.531513,6.37783e-05,-0.00024568,0.000161658,4.47234e-05,-5.48786e-05,-0.000283277,-5.51988e-07,0,0,0,0,0,0,0,0.0206379,-0.0525216,0.512394,-1.55853,0.0462549,1.55477,1.31691,0.00201244,-0.00147641,0.000845325,-0.00366037,-0.0134151,-0.00229631,0.000580829,0.00751081,-27.6589,-0.812364,26.6058,1.29608,3.05321,0.0706026,1.81272,1.48822,1.32228,-0.77239,1.18441,0.0934468,0.0541844,0.584785,0.144729,0.0116759,0.195296,-0.247598,0.0881228,
0.0206268,-0.0524187,0.51241,-1.55791,0.0465437,-0.0168989,0.531513,5.65221e-05,-0.000254793,0.000155146,4.84542e-05,-9.31631e-05,-0.00029029,-3.85961e-07,0,0,0,0,0,0,0,0.0206379,-0.0525216,0.512394,-1.55853,0.0462549,1.55477,1.31691,0.00201244,-0.00147641,0.000845325,-0.00366037,-0.0134151,-0.00229631,0.000580829,0.00751081,-27.6589,-0.812364,26.6058,1.29608,3.05321,0.0706026,1.66295,1.50638,1.3097,-0.77243,1.0736,0.14487,0.100868,0.523639,0.200337,0.0309221,0.209328,-0.237371,0.087181,
0.020627,-0.0524198,0.51241,-1.55791,0.0465432,-0.0169001,0.531513,5.00368e-05,-0.000262624,0.000149349,5.17187e-05,-0.000126081,-0.000296048,-2.36501e-07,0,0,0,0,0,0,0,0.0206309,-0.0525265,0.512389,-1.55854,0.0462611,1.55476,1.31691,0.00498538,0.000364738,-0.000838222,0.000629355,-0.0109899,0.000783317,-0.000276896,0.106693,-27.5597,-0.736986,26.6534,1.27777,3.12554,0.0843355,1.32558,1.5278,1.46875,-0.714261,0.761801,0.251702,0.210129,0.322901,0.3016,0.138042,0.243938,-0.222342,0.0864817,
0.0206271,-0.0524208,0.512411,-1.55791,0.0465425,-0.0169013,0.531513,4.42519e-05,-0.000269371,0.000144203,5.45675e-05,-0.000154473,-0.000300803,-1.02596e-07,0,0,0,0,0,0,0,0.0206309,-0.0525265,0.512389,-1.55854,0.0462611,1.55476,1.31691,0.00498538,0.000364738,-0.000838222,0.000629355,-0.0109899,0.000783317,-0.000276896,0.106693,-27.5597,-0.736986,26.6534,1.27777,3.12554,0.0843355,1.32558,1.5278,1.46875,-0.714261,0.761801,0.251702,0.210129,0.322901,0.3016,0.138042,0.243938,-0.222342,0.0864817,
0.0206273,-0.0524219,0.512411,-1.55791,0.0465418,-0.0169025,0.531513,3.90996e-05,-0.000275201,0.000139646,5.70486e-05,-0.000179025,-0.000304756,1.69589e-08,0,0,0,0,0,0,0,0.0206309,-0.0525265,0.512389,-1.55854,0.0462611,1.55476,1.31691,0.00498538,0.000364738,-0.000838222,0.000629355,-0.0109899,0.000783317,-0.000276896,0.106693,-27.5597,-0.736986,26.6534,1.27777,3.12554,0.0843355,1.50002,1.85346,1.21418,-1.05641,1.01132,0.351553,0.322899,0.519477,0.400889,-0.025027,0.224272,-0.258735,0.0857578,
0.0206274,-0.0524231,0.512412,-1.55791,0.046541,-0.0169037,0.531513,3.45157e-05,-0.000280256,0.000135619,5.92061e-05,-0.000200306,-0.00030807,1.23437e-07,0,0,0,0,0,0,0,0.0206309,-0.0525265,0.512389,-1.55854,0.0462611,1.55476,1.31691,0.00498538,0.000364738,-0.000838222,0.000629355,-0.0109899,0.000783317,-0.000276896,0.106693,-27.5597,-0.736986,26.6534,1.27777,3.12554,0.0843355,1.50002,1.85346,1.21418,-1.05641,1.01132,0.351553,0.322899,0.519477,0.400889,-0.025027,0.224272,-0.258735,0.0857578,
0.0206276,-0.0524242,0.512412,-1.55791,0.0465402,-0.016905,0.531513,3.04409e-05,-0.000284652,0.000132068,6.10799e-05,-0.000218784,-0.000310871,2.1811e-07,0,0,0,0,0,0,0,0.0206309,-0.0525265,0.512389,-1.55854,0.0462611,1.55476,1.31691,0.00498538,0.000364738,-0.000838222,0.000629355,-0.0109899,0.000783317,-0.000276896,0.106693,-27.5597,-0.736986,26.6534,1.27777,3.12554,0.0843355,1.41347,1.7487,1.10046,-1.00798,0.991511,0.327965,0.309484,0.528563,0.366929,-0.0595669,0.221267,-0.262889,0.0862735,
0.0206277,-0.0524253,0.512413,-1.55791,0.0465392,-0.0169062,0.531513,2.68209e-05,-0.000288491,0.000128942,6.2706e-05,-0.000234852,-0.000313264,3.02194e-07,0,0,0,0,0,0,0,0.0206309,-0.0525265,0.512389,-1.55854,0.0462611,1.55476,1.31691,0.00498538,0.000364738,-0.000838222,0.000629355,-0.0109899,0.000783317,-0.000276896,0.106693,-27.5597,-0.736986,26.6534,1.27777,3.12554,0.0843355,1.56522,1.59713,1.22596,-0.858325,1.04154,0.214952,0.202571,0.526165,0.243094,-0.00266691,0.215534,-0.244958,0.0876199,
0.0206278,-0.0524265,0.512414,-1.55791,0.0465382,-0.0169075,0.531513,2.36063e-05,-0.000291857,0.000126193,6.41167e-05,-0.00024884,-0.000315329,3.76831e-07,0,0,0,0,0,0,0,0.0205777,-0.0525653,0.512352,-1.55856,0.046284,1.55476,1.31691,-0.000597621,-0.00139897,-0.000485124,-0.00452567,0.0175213,0.000835531,-3.63949e-05,0.182071,-27.2344,-0.713182,27.0026,1.05163,3.16582,0.0907442,1.56522,1.59713,1.22596,-0.858325,1.04154,0.214952,0.202571,0.526165,0.243094,-0.00266691,0.215534,-0.244958,0.0876199,
0.0208186,-0.0526679,0.512597,-1.55767,-0.00934759,-0.0523818,0.531357,-0.00520252,0.000948491,-0.00517355,-0.00230609,-0.333815,-0.214051,-0.000696575,0,0,0,0,0,0,0,0.0205777,-0.0525653,0.512352,-1.55856,0.046284,1.55476,1.31691,-0.000597621,-0.00139897,-0.000485124,-0.00452567,0.0175213,0.000835531,-3.63949e-05,0.182071,-27.2344,-0.713182,27.0026,1.05163,3.16582,0.0907442,1.76763,1.70383,1.34099,-0.910598,1.14342,0.206288,0.193754,0.560932,0.235412,0.0241753,0.212694,-0.237583,0.0878599,
0.0207818,-0.052829,0.512574,-1.55838,0.000727171,-0.0457535,0.531426,-0.00442818,0.000217198,-0.00430933,-0.00211329,-0.256321,-0.171529,-0.000341038,0,0,0,0,0,0,0,0.0205777,-0.0525653,0.512352,-1.55856,0.046284,1.55476,1.31691,-0.000597621,-0.00139897,-0.000485124,-0.00452567,0.0175213,0.000835531,-3.63949e-05,0.182071,-27.2344,-0.713182,27.0026,1.05163,3.16582,0.0907442,1.76763,1.70383,1.34099,-0.910598,1.14342,0.206288,0.193754,0.560932,0.235412,0.0241753,0.212694,-0.237583,0.0878599,
0.0207638,-0.0528281,0.512556,-1.55838,-0.000282892,-0.046431,0.531424,-0.00448965,0.000230215,-0.00437289,-0.00212797,-0.252516,-0.169376,-0.000339323,0,0,0,0,0,0,0,0.0205777,-0.0525653,0.512352,-1.55856,0.046284,1.55476,1.31691,-0.000597621,-0.00139897,-0.000485124,-0.00452567,0.0175213,0.000835531,-3.63949e-05,0.182071,-27.2344,-0.713182,27.0026,1.05163,3.16582,0.0907442,2.2392,1.8128,1.28225,-1.01033,1.53401,0.123271,0.105824,0.79566,0.160316,-0.0596455,0.215098,-0.248749,0.0879863,
0.0207456,-0.0528271,0.512539,-1.55839,-0.00127676,-0.0470993,0.531423,-0.00455208,0.000236988,-0.00443716,-0.00214882,-0.248468,-0.167063,-0.000338673,0,0,0,0,0,0,0,0.0205777,-0.0525653,0.512352,-1.55856,0.046284,1.55476,1.31691,-0.000597621,-0.00139897,-0.000485124,-0.00452567,0.0175213,0.000835531,-3.63949e-05,0.182071,-27.2344,-0.713182,27.0026,1.05163,3.16582,0.0907442,2.2392,1.8128,1.28225,-1.01033,1.53401,0.123271,0.105824,0.79566,0.160316,-0.0596455,0.215098,-0.248749,0.0879863,
0.0207272,-0.0528262,0.512521,-1.5584,-0.00225334,-0.0477575,0.531422,-0.00461727,0.000238019,-0.0045039,-0.00217791,-0.244143,-0.164559,-0.000339166,0,0,0,0,0,0,0,0.0206554,-0.0526098,0.51242,-1.55848,0.0450009,1.55467,1.31691,0.00395607,0.00124107,0.00859368,0.00221832,-0.135273,0.000839738,-0.0010057,-0.702633,-27.2066,-1.43523,26.1298,0.299984,2.82067,0.110886,2.13634,2.04348,1.32678,-1.19284,1.44702,0.253721,0.22597,0.744886,0.305976,-0.0588726,0.204904,-0.265173,0.0901333,
0.0207084,-0.0528252,0.512502,-1.55841,-0.00321134,-0.0484048,0.53142,-0.00468734,0.000233831,-0.00457518,-0.00221766,-0.239501,-0.161831,-0.000340818,0,0,0,0,0,0,0,0.0206554,-0.0526098,0.51242,-1.55848,0.0450009,1.55467,1.31691,0.00395607,0.00124107,0.00859368,0.00221832,-0.135273,0.000839738,-0.0010057,-0.702633,-27.2066,-1.43523,26.1298,0.299984,2.82067,0.110886,1.52842,2.11602,1.51391,-1.27855,0.920978,0.454598,0.411413,0.422178,0.524803,0.0248454,0.145705,-0.308377,0.090191,
0.0206894,-0.0528243,0.512484,-1.55842,-0.00414931,-0.0490402,0.531419,-0.00476485,0.000224983,-0.00465347,-0.00227096,-0.234491,-0.158835,-0.000343835,0,0,0,0,0,0,0,0.0206554,-0.0526098,0.51242,-1.55848,0.0450009,1.55467,1.31691,0.00395607,0.00124107,0.00859368,0.00221832,-0.135273,0.000839738,-0.0010057,-0.702633,-27.2066,-1.43523,26.1298,0.299984,2.82067,0.110886,1.52842,2.11602,1.51391,-1.27855,0.920978,0.454598,0.411413,0.422178,0.524803,0.0248454,0.145705,-0.308377,0.090191,
0.0206699,-0.0528235,0.512465,-1.55843,-0.00506551,-0.0496623,0.531418,-0.00485291,0.000212111,-0.00474182,-0.00234124,-0.229051,-0.155518,-0.000348056,0,0,0,0,0,0,0,0.0206554,-0.0526098,0.51242,-1.55848,0.0450009,1.55467,1.31691,0.00395607,0.00124107,0.00859368,0.00221832,-0.135273,0.000839738,-0.0010057,-0.702633,-27.2066,-1.43523,26.1298,0.299984,2.82067,0.110886,1.46413,1.86405,1.47517,-1.23592,0.861725,0.351673,0.294418,0.384793,0.437536,-0.0217778,0.0129725,-0.357164,0.0903616,
0.0206501,-0.0528227,0.512445,-1.55844,-0.00595794,-0.0502695,0.531416,-0.00495546,0.000195921,-0.00484403,-0.00243257,-0.223106,-0.151819,-0.000353569,0,0,0,0,0,0,0,0.0206554,-0.0526098,0.51242,-1.55848,0.0450009,1.55467,1.31691,0.00395607,0.00124107,0.00859368,0.00221832,-0.135273,0.000839738,-0.0010057,-0.702633,-27.2066,-1.43523,26.1298,0.299984,2.82067,0.110886,1.46413,1.86405,1.47517,-1.23592,0.861725,0.351673,0.294418,0.384793,0.437536,-0.0217778,0.0129725,-0.357164,0.0903616,
0.0206298,-0.052822,0.512426,-1.55845,-0.00682419,-0.0508602,0.531415,-0.00507745,0.000177216,-0.00496495,-0.00254986,-0.216563,-0.147664,-0.000360266,0,0,0,0,0,0,0,0.0206554,-0.0526098,0.51242,-1.55848,0.0450009,1.55467,1.31691,0.00395607,0.00124107,0.00859368,0.00221832,-0.135273,0.000839738,-0.0010057,-0.702633,-27.2066,-1.43523,26.1298,0.299984,2.82067,0.110886,1.59259,1.93654,1.66973,-1.29463,0.866008,0.344808,0.292353,0.347084,0.427886,0.0276057,-0.0400983,-0.365993,0.091563,
0.0206089,-0.0528214,0.512405,-1.55846,-0.0076614,-0.051432,0.531413,-0.00522525,0.000156926,-0.00511077,-0.00269889,-0.209304,-0.142961,-0.000367883,0,0,0,0,0,0,0,0.0207307,-0.0526253,0.512472,-1.55854,0.0399367,1.55407,1.31691,0.00203743,-0.00124442,0.00105053,-0.00193755,-0.189987,-0.0383276,0.000115969,-0.603451,-27.1828,-1.43523,27.0264,0.715634,3.11272,0.0843355,1.59259,1.93654,1.66973,-1.29463,0.866008,0.344808,0.292353,0.347084,0.427886,0.0276057,-0.0400983,-0.365993,0.091563,
0.0205873,-0.0528208,0.512384,-1.55847,-0.00846613,-0.0519824,0.531412,-0.00540714,0.000136112,-0.00528954,-0.00288657,-0.201181,-0.137605,-0.000375846,0,0,0,0,0,0,0,0.0207307,-0.0526253,0.512472,-1.55854,0.0399367,1.55407,1.31691,0.00203743,-0.00124442,0.00105053,-0.00193755,-0.189987,-0.0383276,0.000115969,-0.603451,-27.1828,-1.43523,27.0264,0.715634,3.11272,0.0843355,2.09688,1.79286,2.10029,-1.1281,1.05541,0.134411,0.0837093,0.366126,0.209964,0.150802,-0.0948836,-0.362942,0.0921433,
0.0205647,-0.0528204,0.512362,-1.55848,-0.00923415,-0.0525083,0.53141,-0.00563394,0.000115945,-0.00551184,-0.0031211,-0.192007,-0.131467,-0.000383456,0,0,0,0,0,0,0,0.0207307,-0.0526253,0.512472,-1.55854,0.0399367,1.55407,1.31691,0.00203743,-0.00124442,0.00105053,-0.00193755,-0.189987,-0.0383276,0.000115969,-0.603451,-27.1828,-1.43523,27.0264,0.715634,3.11272,0.0843355,2.80472,1.63338,2.21128,-1.12105,1.55202,-0.14159,-0.194717,0.627873,-0.0613312,0.0579225,-0.21631,-0.436273,0.0915417,
0.0205411,-0.05282,0.512339,-1.5585,-0.00996032,-0.0530059,0.531409,-0.00591994,9.76674e-05,-0.00579161,-0.00341232,-0.181543,-0.124396,-0.000389339,0,0,0,0,0,0,0,0.0207307,-0.0526253,0.512472,-1.55854,0.0399367,1.55407,1.31691,0.00203743,-0.00124442,0.00105053,-0.00193755,-0.189987,-0.0383276,0.000115969,-0.603451,-27.1828,-1.43523,27.0264,0.715634,3.11272,0.0843355,2.80472,1.63338,2.21128,-1.12105,1.55202,-0.14159,-0.194717,0.627873,-0.0613312,0.0579225,-0.21631,-0.436273,0.0915417,
0.0205159,-0.0528196,0.512314,-1.55851,-0.0106382,-0.0534707,0.531407,-0.00628426,8.2328e-05,-0.00614754,-0.00377228,-0.169478,-0.116212,-0.000390866,0,0,0,0,0,0,0,0.0207307,-0.0526253,0.512472,-1.55854,0.0399367,1.55407,1.31691,0.00203743,-0.00124442,0.00105053,-0.00193755,-0.189987,-0.0383276,0.000115969,-0.603451,-27.1828,-1.43523,27.0264,0.715634,3.11272,0.0843355,2.61127,1.60853,2.30736,-1.17771,1.42098,-0.0974833,-0.150075,0.562598,-0.0144505,0.0195566,-0.27389,-0.53109,0.0880075,
0.0204889,-0.0528194,0.512288,-1.55853,-0.0112599,-0.0538975,0.531406,-0.00675283,7.00372e-05,-0.00660497,-0.00421698,-0.155409,-0.1067,-0.000383489,0,0,0,0,0,0,0,0.0207701,-0.0526281,0.5125,-1.55855,0.0342226,1.55319,1.31691,-0.00262339,-0.00118799,-0.000825878,0.000487179,-0.156354,-0.0128411,9.35949e-05,-0.373349,-27.2344,-1.36382,26.8518,0.58746,2.81426,0.0779268,2.61127,1.60853,2.30736,-1.17771,1.42098,-0.0974833,-0.150075,0.562598,-0.0144505,0.0195566,-0.27389,-0.53109,0.0880075,
0.0204595,-0.0528191,0.512259,-1.55855,-0.011815,-0.0542799,0.531404,-0.00736196,5.74244e-05,-0.00719936,-0.00477159,-0.138794,-0.0955916,-0.000356341,0,0,0,0,0,0,0,0.0207701,-0.0526281,0.5125,-1.55855,0.0342226,1.55319,1.31691,-0.00262339,-0.00118799,-0.000825878,0.000487179,-0.156354,-0.0128411,9.35949e-05,-0.373349,-27.2344,-1.36382,26.8518,0.58746,2.81426,0.0779268,2.5938,1.63746,2.42409,-1.18987,1.39649,-0.0778854,-0.119895,0.544253,-0.00476817,0.0267382,-0.272787,-0.568679,0.0863516,
0.0204268,-0.052819,0.512227,-1.55857,-0.0122906,-0.05461,0.531403,-0.00816572,2.92394e-05,-0.00798346,-0.00548812,-0.118888,-0.0825164,-0.000285059,0,0,0,0,0,0,0,0.0207701,-0.0526281,0.5125,-1.55855,0.0342226,1.55319,1.31691,-0.00262339,-0.00118799,-0.000825878,0.000487179,-0.156354,-0.0128411,9.35949e-05,-0.373349,-27.2344,-1.36382,26.8518,0.58746,2.81426,0.0779268,2.73267,1.77732,2.50334,-1.30745,1.51046,-0.0533265,-0.0777003,0.613906,0.00648548,-0.0115112,-0.279983,-0.617695,0.086048,
0.0203898,-0.0528193,0.512191,-1.5586,-0.0126689,-0.0548774,0.531402,-0.00925453,-6.99745e-05,-0.00904601,-0.00650518,-0.0945751,-0.0668449,-0.000152909,0,0,0,0,0,0,0,0.0207701,-0.0526281,0.5125,-1.55855,0.0342226,1.55319,1.31691,-0.00262339,-0.00118799,-0.000825878,0.000487179,-0.156354,-0.0128411,9.35949e-05,-0.373349,-27.2344,-1.36382,26.8518,0.58746,2.81426,0.0779268,2.73267,1.77732,2.50334,-1.30745,1.51046,-0.0533265,-0.0777003,0.613906,0.00648548,-0.0115112,-0.279983,-0.617695,0.086048,
0.0203519,-0.0528168,0.512153,-1.55862,-0.0129748,-0.0550982,0.531402,-0.00946809,0.000631985,-0.00934682,-0.00587671,-0.0764836,-0.0552161,-5.83912e-05,0,0,0,0,0,0,0,0.0207701,-0.0526281,0.5125,-1.55855,0.0342226,1.55319,1.31691,-0.00262339,-0.00118799,-0.000825878,0.000487179,-0.156354,-0.0128411,9.35949e-05,-0.373349,-27.2344,-1.36382,26.8518,0.58746,2.81426,0.0779268,2.7097,1.82444,2.61321,-1.30639,1.49221,-0.0255059,-0.0364587,0.603341,0.0206129,0.000589384,-0.250497,-0.647413,0.0868439,
0.0203148,-0.0528113,0.512117,-1.55864,-0.0132249,-0.0552817,0.531402,-0.00929092,0.00137573,-0.00923294,-0.0049532,-0.0625142,-0.0458652,-1.99665e-05,0,0,0,0,0,0,0,0.0206833,-0.0526245,0.512428,-1.55854,0.0294784,1.55306,1.3169,-0.00191868,0.000717948,0.000600685,0.0011396,-0.138451,-0.000666898,-0.000891233,0.158268,-27.3335,-0.788561,26.705,0.599362,2.70806,0.11821,2.7097,1.82444,2.61321,-1.30639,1.49221,-0.0255059,-0.0364587,0.603341,0.0206129,0.000589384,-0.250497,-0.647413,0.0868439,
0.0202791,-0.0528034,0.512081,-1.55866,-0.0134309,-0.0554342,0.531402,-0.00890726,0.00197509,-0.00889188,-0.0040859,-0.0515017,-0.0381171,-6.68285e-06,0,0,0,0,0,0,0,0.0206833,-0.0526245,0.512428,-1.55854,0.0294784,1.55306,1.3169,-0.00191868,0.000717948,0.000600685,0.0011396,-0.138451,-0.000666898,-0.000891233,0.158268,-27.3335,-0.788561,26.705,0.599362,2.70806,0.11821,2.90801,1.68941,2.62208,-1.17897,1.65928,-0.143502,-0.146397,0.702847,-0.10927,-0.0151216,-0.221924,-0.653126,0.0881576,
0.0202455,-0.0527937,0.512047,-1.55867,-0.0136017,-0.0555607,0.531402,-0.00841263,0.00240686,-0.00842513,-0.00334354,-0.0426967,-0.0316348,-4.76275e-06,0,0,0,0,0,0,0,0.0206833,-0.0526245,0.512428,-1.55854,0.0294784,1.55306,1.3169,-0.00191868,0.000717948,0.000600685,0.0011396,-0.138451,-0.000666898,-0.000891233,0.158268,-27.3335,-0.788561,26.705,0.599362,2.70806,0.11821,2.90801,1.68941,2.62208,-1.17897,1.65928,-0.143502,-0.146397,0.702847,-0.10927,-0.0151216,-0.221924,-0.653126,0.0881576,
0.020214,-0.052783,0.512016,-1.55868,-0.013744,-0.0556655,0.531402,-0.00786343,0.00269058,-0.00789368,-0.00272087,-0.0355756,-0.026198,-8.43873e-06,0,0,0,0,0,0,0,0.0206833,-0.0526245,0.512428,-1.55854,0.0294784,1.55306,1.3169,-0.00191868,0.000717948,0.000600685,0.0011396,-0.138451,-0.000666898,-0.000891233,0.158268,-27.3335,-0.788561,26.705,0.599362,2.70806,0.11821,2.44744,2.01968,2.49894,-1.37672,1.40156,0.140451,0.144595,0.600491,0.172253,-0.0282055,-0.12702,-0.649945,0.086981,
0.0201848,-0.0527715,0.511986,-1.55869,-0.013863,-0.055752,0.531402,-0.00729508,0.00285376,-0.00733622,-0.00219764,-0.0297568,-0.0216366,-1.49771e-05,0,0,0,0,0,0,0,0.0206833,-0.0526245,0.512428,-1.55854,0.0294784,1.55306,1.3169,-0.00191868,0.000717948,0.000600685,0.0011396,-0.138451,-0.000666898,-0.000891233,0.158268,-27.3335,-0.788561,26.705,0.599362,2.70806,0.11821,2.03842,2.2852,2.54147,-1.46935,1.11821,0.380576,0.388364,0.453427,0.409055,0.0293823,-0.0186228,-0.636506,0.0863849,
0.0201579,-0.0527599,0.511959,-1.5587,-0.0139628,-0.0558233,0.531402,-0.00673022,0.0029223,-0.00677772,-0.00175406,-0.0249565,-0.0178102,-2.29015e-05,0,0,0,0,0,0,0,0.0206833,-0.0526245,0.512428,-1.55854,0.0294784,1.55306,1.3169,-0.00191868,0.000717948,0.000600685,0.0011396,-0.138451,-0.000666898,-0.000891233,0.158268,-27.3335,-0.788561,26.705,0.599362,2.70806,0.11821,2.03842,2.2852,2.54147,-1.46935,1.11821,0.380576,0.388364,0.453427,0.409055,0.0293823,-0.0186228,-0.636506,0.0863849,
0.01533,-0.0491107,0.506773,-1.5604,-0.245555,-0.297018,0.529344,-0.0357329,0.0179965,-0.0375388,-0.00753321,-0.756151,-0.776633,-0.00401117,0,0,0,0,0,0,0,0.0204492,-0.0526139,0.512236,-1.55856,0.0255848,1.55306,1.31691,-0.00873733,0.00161206,-0.0134844,-0.00081477,-0.108477,0.000231528,-0.00117839,0.487552,-27.4843,-0.538622,27.0264,0.642391,2.75475,0.110886,2.35018,2.29472,2.65028,-1.4077,1.32794,0.297621,0.31209,0.558093,0.316383,0.0491722,0.0250163,-0.62748,0.0874662,
0.0191267,-0.0511186,0.510717,-1.55883,-0.141756,-0.201443,0.529915,-0.0302665,0.0217172,-0.0313111,-0.020446,-1.2224,-1.07058,-0.00725038,0,0,0,0,0,0,0,0.0204492,-0.0526139,0.512236,-1.55856,0.0255848,1.55306,1.31691,-0.00873733,0.00161206,-0.0134844,-0.00081477,-0.108477,0.000231528,-0.00117839,0.487552,-27.4843,-0.538622,27.0264,0.642391,2.75475,0.110886,2.35018,2.29472,2.65028,-1.4077,1.32794,0.297621,0.31209,0.558093,0.316383,0.0491722,0.0250163,-0.62748,0.0874662,
0.018519,-0.0514492,0.510199,-1.55864,-0.113979,-0.155426,0.530694,-0.0257607,0.0138571,-0.0264078,-0.011897,-0.671877,-0.805393,-0.00281899,0,0,0,0,0,0,0,0.0204492,-0.0526139,0.512236,-1.55856,0.0255848,1.55306,1.31691,-0.00873733,0.00161206,-0.0134844,-0.00081477,-0.108477,0.000231528,-0.00117839,0.487552,-27.4843,-0.538622,27.0264,0.642391,2.75475,0.110886,2.41558,2.47503,2.69995,-1.44928,1.3833,0.365069,0.37978,0.591631,0.382741,0.0746608,0.109985,-0.606394,0.0863011,
0.0184161,-0.0513951,0.510093,-1.55869,-0.116619,-0.158625,0.530683,-0.0257359,0.0135259,-0.0263929,-0.0117635,-0.659986,-0.799779,-0.00275304,0,0,0,0,0,0,0,0.0204492,-0.0526139,0.512236,-1.55856,0.0255848,1.55306,1.31691,-0.00873733,0.00161206,-0.0134844,-0.00081477,-0.108477,0.000231528,-0.00117839,0.487552,-27.4843,-0.538622,27.0264,0.642391,2.75475,0.110886,2.41558,2.47503,2.69995,-1.44928,1.3833,0.365069,0.37978,0.591631,0.382741,0.0746608,0.109985,-0.606394,0.0863011,
0.0183132,-0.0513425,0.509988,-1.55874,-0.119209,-0.161799,0.530672,-0.0257285,0.0131561,-0.0263951,-0.0116588,-0.647363,-0.793424,-0.00269123,0,0,0,0,0,0,0,0.0204492,-0.0526139,0.512236,-1.55856,0.0255848,1.55306,1.31691,-0.00873733,0.00161206,-0.0134844,-0.00081477,-0.108477,0.000231528,-0.00117839,0.487552,-27.4843,-0.538622,27.0264,0.642391,2.75475,0.110886,3.32366,4.2886,3.26563,-2.51324,1.80587,0.930009,0.950938,0.722509,0.96556,0.254907,0.240512,-0.47252,0.0929198,
0.0182102,-0.0512915,0.509882,-1.55878,-0.121744,-0.164943,0.530662,-0.0257445,0.0127466,-0.0264201,-0.0115906,-0.633875,-0.786152,-0.00263388,0,0,0,0,0,0,0,0.0205096,-0.0526567,0.512275,-1.55773,0.0104069,1.54509,1.3169,0.011247,0.000531243,0.0165791,0.0441495,-0.716417,-0.499448,-0.00233223,-1.89679,-26.8337,-2.71269,24.9594,-1.37268,1.47484,0.131027,4.47087,5.16571,3.21625,-3.22989,2.56899,0.988095,0.992884,1.11217,1.06073,0.173626,0.143164,-0.384276,0.101584,
0.018107,-0.0512424,0.509776,-1.55883,-0.124222,-0.168054,0.530651,-0.0257905,0.0122958,-0.0264745,-0.0115686,-0.619367,-0.777756,-0.00258258,0,0,0,0,0,0,0,0.0205096,-0.0526567,0.512275,-1.55773,0.0104069,1.54509,1.3169,0.011247,0.000531243,0.0165791,0.0441495,-0.716417,-0.499448,-0.00233223,-1.89679,-26.8337,-2.71269,24.9594,-1.37268,1.47484,0.131027,4.47087,5.16571,3.21625,-3.22989,2.56899,0.988095,0.992884,1.11217,1.06073,0.173626,0.143164,-0.384276,0.101584,
0.0180035,-0.0511951,0.50967,-1.55888,-0.126636,-0.171126,0.530641,-0.0258742,0.0118017,-0.0265659,-0.011604,-0.603661,-0.767983,-0.002538,0,0,0,0,0,0,0,0.0205096,-0.0526567,0.512275,-1.55773,0.0104069,1.54509,1.3169,0.011247,0.000531243,0.0165791,0.0441495,-0.716417,-0.499448,-0.00233223,-1.89679,-26.8337,-2.71269,24.9594,-1.37268,1.47484,0.131027,3.42,3.52779,3.17584,-2.50623,1.69884,0.509666,0.482145,0.58732,0.604618,0.149523,-0.342525,-0.565573,0.105502,
0.0178995,-0.0511501,0.509563,-1.55892,-0.128982,-0.174152,0.530631,-0.0260046,0.0112624,-0.0267033,-0.0117104,-0.586553,-0.756534,-0.00250056,0,0,0,0,0,0,0,0.0205096,-0.0526567,0.512275,-1.55773,0.0104069,1.54509,1.3169,0.011247,0.000531243,0.0165791,0.0441495,-0.716417,-0.499448,-0.00233223,-1.89679,-26.8337,-2.71269,24.9594,-1.37268,1.47484,0.131027,3.42,3.52779,3.17584,-2.50623,1.69884,0.509666,0.482145,0.58732,0.604618,0.149523,-0.342525,-0.565573,0.105502,
0.0177948,-0.0511074,0.509455,-1.55897,-0.131254,-0.177125,0.530621,-0.0261923,0.0106758,-0.0268969,-0.0119041,-0.567804,-0.743046,-0.00247179,0,0,0,0,0,0,0,0.0205096,-0.0526567,0.512275,-1.55773,0.0104069,1.54509,1.3169,0.011247,0.000531243,0.0165791,0.0441495,-0.716417,-0.499448,-0.00233223,-1.89679,-26.8337,-2.71269,24.9594,-1.37268,1.47484,0.131027,3.99633,2.97898,3.22612,-2.45817,2.18485,0.0857844,0.0422446,0.883517,0.203441,-0.115146,-0.637681,-0.818265,0.0991993,
0.017689,-0.0510672,0.509347,-1.55902,-0.133442,-0.180033,0.530612,-0.0264489,0.0100398,-0.0271584,-0.0122045,-0.547144,-0.727091,-0.00245315,0,0,0,0,0,0,0,0.0205096,-0.0526567,0.512275,-1.55773,0.0104069,1.54509,1.3169,0.011247,0.000531243,0.0165791,0.0441495,-0.716417,-0.499448,-0.00233223,-1.89679,-26.8337,-2.71269,24.9594,-1.37268,1.47484,0.131027,2.75837,2.47894,4.16784,-1.90164,1.02759,0.196386,0.143378,0.130216,0.303553,0.24119,-0.605196,-0.959004,0.0970239,
0.0175818,-0.0510298,0.509237,-1.55907,-0.135539,-0.182865,0.530602,-0.0267879,0.00935293,-0.027501,-0.0126341,-0.524267,-0.708153,-0.00244648,0,0,0,0,0,0,0,0.0207704,-0.0527598,0.512466,-1.55691,-0.00957415,1.52764,1.3169,0.0102429,-0.0076145,0.0053913,0.00258313,-0.655207,-0.575427,0.000940486,-1.46435,-26.7583,-2.11363,26.1575,-0.340885,1.22948,0.0577852,2.75837,2.47894,4.16784,-1.90164,1.02759,0.196386,0.143378,0.130216,0.303553,0.24119,-0.605196,-0.959004,0.0970239,
0.0174729,-0.0509954,0.509125,-1.55912,-0.137535,-0.185608,0.530592,-0.027224,0.00861427,-0.0279393,-0.0132203,-0.498828,-0.685624,-0.00245468,0,0,0,0,0,0,0,0.0207704,-0.0527598,0.512466,-1.55691,-0.00957415,1.52764,1.3169,0.0102429,-0.0076145,0.0053913,0.00258313,-0.655207,-0.575427,0.000940486,-1.46435,-26.7583,-2.11363,26.1575,-0.340885,1.22948,0.0577852,3.85951,1.72542,4.55173,-1.4646,1.84895,-0.469025,-0.522306,0.580817,-0.370711,0.0840104,-0.738185,-1.19167,0.0926038,
0.0173618,-0.0509641,0.509011,-1.55918,-0.139416,-0.188243,0.530582,-0.027773,0.00782415,-0.028489,-0.0139945,-0.470448,-0.658783,-0.00247923,0,0,0,0,0,0,0,0.0207704,-0.0527598,0.512466,-1.55691,-0.00957415,1.52764,1.3169,0.0102429,-0.0076145,0.0053913,0.00258313,-0.655207,-0.575427,0.000940486,-1.46435,-26.7583,-2.11363,26.1575,-0.340885,1.22948,0.0577852,3.85951,1.72542,4.55173,-1.4646,1.84895,-0.469025,-0.522306,0.580817,-0.370711,0.0840104,-0.738185,-1.19167,0.0926038,
0.017248,-0.0509361,0.508894,-1.55924,-0.141171,-0.19075,0.530572,-0.0284509,0.00698474,-0.0291659,-0.0149939,-0.438718,-0.626781,-0.00252505,0,0,0,0,0,0,0,0.0207704,-0.0527598,0.512466,-1.55691,-0.00957415,1.52764,1.3169,0.0102429,-0.0076145,0.0053913,0.00258313,-0.655207,-0.575427,0.000940486,-1.46435,-26.7583,-2.11363,26.1575,-0.340885,1.22948,0.0577852,3.40275,0.741305,4.90877,-0.925919,1.41946,-0.800127,-0.858841,0.298908,-0.707066,0.112959,-0.965873,-1.38762,0.0877142,
0.0171309,-0.0509117,0.508774,-1.5593,-0.142784,-0.193105,0.530562,-0.029273,0.00610084,-0.0299852,-0.0162619,-0.403206,-0.588621,-0.00259722,0,0,0,0,0,0,0,0.0207704,-0.0527598,0.512466,-1.55691,-0.00957415,1.52764,1.3169,0.0102429,-0.0076145,0.0053913,0.00258313,-0.655207,-0.575427,0.000940486,-1.46435,-26.7583,-2.11363,26.1575,-0.340885,1.22948,0.0577852,3.40275,0.741305,4.90877,-0.925919,1.41946,-0.800127,-0.858841,0.298908,-0.707066,0.112959,-0.965873,-1.38762,0.0877142,
0.0170099,-0.050891,0.508651,-1.55938,-0.144238,-0.195277,0.530551,-0.0302521,0.00518108,-0.0309595,-0.0178493,-0.363483,-0.543136,-0.00270296,0,0,0,0,0,0,0,0.0209429,-0.0529279,0.512622,-1.55688,-0.0277451,1.5094,1.3169,-4.75684e-05,-0.000603559,-0.00640442,-0.000507125,-0.523576,-0.555636,0.000692131,-0.857357,-26.8575,-1.73674,25.733,-0.493778,1.29632,0.0641939,2.87846,0.632029,4.45946,-1.08294,1.33372,-0.712341,-0.777422,0.391527,-0.60357,-0.191227,-1.00821,-1.57742,0.0845933,
0.0168843,-0.050874,0.508522,-1.55946,-0.145515,-0.197233,0.530539,-0.031396,0.00423929,-0.0320966,-0.0198158,-0.319138,-0.488957,-0.00284386,0,0,0,0,0,0,0,0.0209429,-0.0529279,0.512622,-1.55688,-0.0277451,1.5094,1.3169,-4.75684e-05,-0.000603559,-0.00640442,-0.000507125,-0.523576,-0.555636,0.000692131,-0.857357,-26.8575,-1.73674,25.733,-0.493778,1.29632,0.0641939,2.6454,0.849969,3.86285,-1.42729,1.53413,-0.55485,-0.60457,0.67558,-0.447226,-0.553193,-0.964122,-1.72597,0.0817045,
0.0167535,-0.0508609,0.508389,-1.55954,-0.146594,-0.198931,0.530528,-0.0327045,0.00329767,-0.0333962,-0.02223,-0.269815,-0.424484,-0.0029171,0,0,0,0,0,0,0,0.0209429,-0.0529279,0.512622,-1.55688,-0.0277451,1.5094,1.3169,-4.75684e-05,-0.000603559,-0.00640442,-0.000507125,-0.523576,-0.555636,0.000692131,-0.857357,-26.8575,-1.73674,25.733,-0.493778,1.29632,0.0641939,2.6454,0.849969,3.86285,-1.42729,1.53413,-0.55485,-0.60457,0.67558,-0.447226,-0.553193,-0.964122,-1.72597,0.0817045,
0.0166169,-0.0508513,0.508249,-1.55965,-0.147455,-0.200322,0.530523,-0.0341552,0.00239643,-0.034851,-0.0251618,-0.215254,-0.347848,-0.00129887,0,0,0,0,0,0,0,0.0209429,-0.0529279,0.512622,-1.55688,-0.0277451,1.5094,1.3169,-4.75684e-05,-0.000603559,-0.00640442,-0.000507125,-0.523576,-0.555636,0.000692131,-0.857357,-26.8575,-1.73674,25.733,-0.493778,1.29632,0.0641939,2.99706,1.12372,3.42023,-1.6835,2.03398,-0.52976,-0.553115,1.06251,-0.439145,-0.79472,-0.884175,-1.75434,0.0788802,
0.0164827,-0.0508346,0.508112,-1.55974,-0.148152,-0.201478,0.530518,-0.0335438,0.00416072,-0.0343639,-0.0226817,-0.174178,-0.28901,-0.0011434,0,0,0,0,0,0,0,0.0209429,-0.0529279,0.512622,-1.55688,-0.0277451,1.5094,1.3169,-4.75684e-05,-0.000603559,-0.00640442,-0.000507125,-0.523576,-0.555636,0.000692131,-0.857357,-26.8575,-1.73674,25.733,-0.493778,1.29632,0.0641939,2.99706,1.12372,3.42023,-1.6835,2.03398,-0.52976,-0.553115,1.06251,-0.439145,-0.79472,-0.884175,-1.75434,0.0788802,
0.0163544,-0.05081,0.50798,-1.55981,-0.148719,-0.202444,0.530513,-0.0320857,0.00614752,-0.0329938,-0.0191415,-0.141915,-0.241372,-0.00118543,0,0,0,0,0,0,0,0.0209429,-0.0529279,0.512622,-1.55688,-0.0277451,1.5094,1.3169,-4.75684e-05,-0.000603559,-0.00640442,-0.000507125,-0.523576,-0.555636,0.000692131,-0.857357,-26.8575,-1.73674,25.733,-0.493778,1.29632,0.0641939,2.98108,0.911845,3.67132,-1.32691,1.92114,-0.623804,-0.622154,0.949616,-0.571743,-0.614633,-0.772154,-1.68211,0.0774997,
0.0162334,-0.0507791,0.507855,-1.55988,-0.149183,-0.203252,0.530508,-0.0302468,0.00773455,-0.0312114,-0.0157411,-0.115978,-0.201976,-0.00126516,0,0,0,0,0,0,0,0.0207903,-0.0531623,0.51251,-1.55697,-0.0429897,1.49315,1.3169,-0.00873896,-0.00438096,0.000623632,-0.00381311,-0.467396,-0.507322,0.000559358,-0.325741,-26.9328,-1.38762,26.3043,0.116879,1.72661,0.0577852,2.35005,0.694212,3.43779,-1.10958,1.60646,-0.550499,-0.538898,0.842211,-0.515593,-0.642318,-0.641791,-1.69244,0.0750178,
0.0161204,-0.0507438,0.507738,-1.55993,-0.149562,-0.203928,0.530503,-0.0282484,0.00883242,-0.0292468,-0.0127507,-0.0948132,-0.16913,-0.00134972,0,0,0,0,0,0,0,0.0207903,-0.0531623,0.51251,-1.55697,-0.0429897,1.49315,1.3169,-0.00873896,-0.00438096,0.000623632,-0.00381311,-0.467396,-0.507322,0.000559358,-0.325741,-26.9328,-1.38762,26.3043,0.116879,1.72661,0.0577852,2.35005,0.694212,3.43779,-1.10958,1.60646,-0.550499,-0.538898,0.842211,-0.515593,-0.642318,-0.641791,-1.69244,0.0750178,
0.0160155,-0.0507058,0.507629,-1.55997,-0.149872,-0.204495,0.530497,-0.0262113,0.00949558,-0.0272283,-0.0101801,-0.0773433,-0.141653,-0.00142995,0,0,0,0,0,0,0,0.0207903,-0.0531623,0.51251,-1.55697,-0.0429897,1.49315,1.3169,-0.00873896,-0.00438096,0.000623632,-0.00381311,-0.467396,-0.507322,0.000559358,-0.325741,-26.9328,-1.38762,26.3043,0.116879,1.72661,0.0577852,0.867612,0.394078,3.16339,-0.820622,0.658162,-0.276434,-0.260325,0.383557,-0.255859,-0.586475,-0.495117,-1.68755,0.0735573,
0.0159187,-0.0506666,0.507528,-1.56,-0.150123,-0.20497,0.530491,-0.0242068,0.00980695,-0.0252324,-0.00797682,-0.0627828,-0.118631,-0.00150315,0,0,0,0,0,0,0,0.0207903,-0.0531623,0.51251,-1.55697,-0.0429897,1.49315,1.3169,-0.00873896,-0.00438096,0.000623632,-0.00381311,-0.467396,-0.507322,0.000559358,-0.325741,-26.9328,-1.38762,26.3043,0.116879,1.72661,0.0577852,0.867612,0.394078,3.16339,-0.820622,0.658162,-0.276434,-0.260325,0.383557,-0.255859,-0.586475,-0.495117,-1.68755,0.0735573,
0.0158296,-0.0506272,0.507435,-1.56002,-0.150325,-0.205367,0.530485,-0.022278,0.00984529,-0.023306,-0.0060817,-0.0505416,-0.0993198,-0.00156877,0,0,0,0,0,0,0,0.0207903,-0.0531623,0.51251,-1.55697,-0.0429897,1.49315,1.3169,-0.00873896,-0.00438096,0.000623632,-0.00381311,-0.467396,-0.507322,0.000559358,-0.325741,-26.9328,-1.38762,26.3043,0.116879,1.72661,0.0577852,0.899652,0.700289,3.57841,-0.618625,0.335857,-0.13513,-0.114636,0.044385,-0.134354,-0.111803,-0.300589,-1.35327,0.0757692,
-0.00681983,-0.0404452,0.483468,-1.57214,-0.151534,-0.214298,0.518755,-0.202799,0.109735,-0.212179,-0.100134,-1.24621,-1.32395,-0.0589373,0,0,0,0,0,0,0,0.0203,-0.0530971,0.512109,-1.55735,-0.0559342,1.47919,1.31689,-0.021849,0.00248707,-0.017782,-0.0284146,-0.362313,-0.423679,-0.000189885,0.511356,-27.6589,-0.562425,27.2287,0.898739,2.74102,0.0980684,0.899652,0.700289,3.57841,-0.618625,0.335857,-0.13513,-0.114636,0.044385,-0.134354,-0.111803,-0.300589,-1.35327,0.0757692,
-0.00178083,-0.0447301,0.488982,-1.56821,-0.233163,-0.218074,0.524731,-0.162453,0.0610674,-0.169029,-0.0694118,-1.07651,-0.0426979,-0.0229211,0,0,0,0,0,0,0,0.0203,-0.0530971,0.512109,-1.55735,-0.0559342,1.47919,1.31689,-0.021849,0.00248707,-0.017782,-0.0284146,-0.362313,-0.423679,-0.000189885,0.511356,-27.6589,-0.562425,27.2287,0.898739,2.74102,0.0980684,1.25253,2.18545,3.64583,-1.22697,0.3308,0.467821,0.492104,-0.0759825,0.470461,0.283118,0.0121722,-0.879272,0.0734792,
-0.00243831,-0.0444925,0.488298,-1.56848,-0.237266,-0.218061,0.524642,-0.164371,0.0594019,-0.17097,-0.0682327,-1.0259,0.00330585,-0.0220756,0,0,0,0,0,0,0,0.0203,-0.0530971,0.512109,-1.55735,-0.0559342,1.47919,1.31689,-0.021849,0.00248707,-0.017782,-0.0284146,-0.362313,-0.423679,-0.000189885,0.511356,-27.6589,-0.562425,27.2287,0.898739,2.74102,0.0980684,1.49282,3.72595,3.34514,-1.9868,0.388429,1.12897,1.15355,-0.0923643,1.14415,0.527415,0.310843,-0.42303,0.0724777,
-0.00310332,-0.0442616,0.487607,-1.56875,-0.241144,-0.217859,0.524557,-0.166252,0.0577224,-0.172883,-0.0670106,-0.969309,0.0504965,-0.0212519,0,0,0,0,0,0,0,0.0203,-0.0530971,0.512109,-1.55735,-0.0559342,1.47919,1.31689,-0.021849,0.00248707,-0.017782,-0.0284146,-0.362313,-0.423679,-0.000189885,0.511356,-27.6589,-0.562425,27.2287,0.898739,2.74102,0.0980684,1.49282,3.72595,3.34514,-1.9868,0.388429,1.12897,1.15355,-0.0923643,1.14415,0.527415,0.310843,-0.42303,0.0724777,
-0.00377557,-0.0440376,0.486908,-1.56901,-0.244772,-0.217463,0.524475,-0.168063,0.0560102,-0.174728,-0.065787,-0.907002,0.0990388,-0.0204507,0,0,0,0,0,0,0,0.0203,-0.0530971,0.512109,-1.55735,-0.0559342,1.47919,1.31689,-0.021849,0.00248707,-0.017782,-0.0284146,-0.362313,-0.423679,-0.000189885,0.511356,-27.6589,-0.562425,27.2287,0.898739,2.74102,0.0980684,0.692888,6.64054,2.11079,-4.00911,0.263349,2.69634,2.72219,0.0704097,2.76399,0.242423,0.743296,-0.169332,0.0622141,
-0.00445474,-0.0438206,0.486202,-1.56927,-0.248128,-0.216866,0.524397,-0.169791,0.0542451,-0.176489,-0.0645898,-0.839001,0.149093,-0.0196863,0,0,0,0,0,0,0,0.0194011,-0.0532527,0.510866,-1.55794,-0.0722206,1.46126,1.31673,-0.0258042,-0.0207904,-0.0486658,-0.0318388,-0.862373,-0.627467,-0.0109833,-5.59826,-24.2391,-6.43797,25.2094,-1.62354,2.33727,-0.204056,0.692888,6.64054,2.11079,-4.00911,0.263349,2.69634,2.72219,0.0704097,2.76399,0.242423,0.743296,-0.169332,0.0622141,
-0.0051405,-0.043611,0.485489,-1.56953,-0.251188,-0.216063,0.524321,-0.17144,0.0524077,-0.178165,-0.0634367,-0.765131,0.200811,-0.0189501,0,0,0,0,0,0,0,0.0194011,-0.0532527,0.510866,-1.55794,-0.0722206,1.46126,1.31673,-0.0258042,-0.0207904,-0.0486658,-0.0318388,-0.862373,-0.627467,-0.0109833,-5.59826,-24.2391,-6.43797,25.2094,-1.62354,2.33727,-0.204056,-0.345072,5.07743,1.82001,-3.03321,-0.33015,2.28994,2.29968,-0.188144,2.34963,0.158479,0.661581,-0.313627,0.0297806,
-0.00583257,-0.0434091,0.48477,-1.56977,-0.253928,-0.215046,0.524248,-0.173019,0.0504793,-0.179767,-0.0623377,-0.685054,0.254326,-0.0182535,0,0,0,0,0,0,0,0.0194011,-0.0532527,0.510866,-1.55794,-0.0722206,1.46126,1.31673,-0.0258042,-0.0207904,-0.0486658,-0.0318388,-0.862373,-0.627467,-0.0109833,-5.59826,-24.2391,-6.43797,25.2094,-1.62354,2.33727,-0.204056,2.53651,2.31597,1.73994,-1.60586,1.42033,0.285142,0.304388,0.591827,0.310501,0.0435059,-0.144268,-0.267467,0.0244892,
-0.00653075,-0.0432153,0.484045,-1.57002,-0.256322,-0.213807,0.524177,-0.174544,0.0484437,-0.181307,-0.0612975,-0.598296,0.309748,-0.0175992,0,0,0,0,0,0,0,0.0194011,-0.0532527,0.510866,-1.55794,-0.0722206,1.46126,1.31673,-0.0258042,-0.0207904,-0.0486658,-0.0318388,-0.862373,-0.627467,-0.0109833,-5.59826,-24.2391,-6.43797,25.2094,-1.62354,2.33727,-0.204056,2.53651,2.31597,1.73994,-1.60586,1.42033,0.285142,0.304388,0.591827,0.310501,0.0435059,-0.144268,-0.267467,0.0244892,
-0.00723487,-0.0430301,0.483314,-1.57026,-0.258339,-0.212338,0.52411,-0.176029,0.0462881,-0.182799,-0.0603148,-0.504298,0.367132,-0.0169924,0,0,0,0,0,0,0,0.0194011,-0.0532527,0.510866,-1.55794,-0.0722206,1.46126,1.31673,-0.0258042,-0.0207904,-0.0486658,-0.0318388,-0.862373,-0.627467,-0.0109833,-5.59826,-24.2391,-6.43797,25.2094,-1.62354,2.33727,-0.204056,4.69478,1.90505,0.954018,-1.66393,3.0017,-0.437825,-0.423849,1.45745,-0.397094,-0.232509,-0.483681,-0.0650808,0.0166454,
-0.00794477,-0.0428541,0.482577,-1.5705,-0.259949,-0.210633,0.524044,-0.177476,0.0440063,-0.184243,-0.0593815,-0.402469,0.426447,-0.0164412,0,0,0,0,0,0,0,0.0194011,-0.0532527,0.510866,-1.55794,-0.0722206,1.46126,1.31673,-0.0258042,-0.0207904,-0.0486658,-0.0318388,-0.862373,-0.627467,-0.0109833,-5.59826,-24.2391,-6.43797,25.2094,-1.62354,2.33727,-0.204056,4.69478,1.90505,0.954018,-1.66393,3.0017,-0.437825,-0.423849,1.45745,-0.397094,-0.232509,-0.483681,-0.0650808,0.0166454,
-0.00866024,-0.0426877,0.481834,-1.57073,-0.261118,-0.208683,0.52398,-0.178867,0.0416026,-0.185622,-0.058479,-0.292307,0.487503,-0.015952,0,0,0,0,0,0,0,0.0184337,-0.0535208,0.509623,-1.5596,-0.101873,1.44529,1.31639,-0.0452393,-0.0156449,-0.0546287,-0.0589701,-0.908696,-0.433256,-0.00603795,-2.88464,-24.8381,-3.88701,26.3559,0.312802,3.58971,-0.0365141,3.17252,3.11361,0.538612,-2.40646,2.07675,0.549143,0.554086,1.04492,0.615685,-0.217646,-0.206013,0.0303536,0.00431504,
-0.0093808,-0.0425313,0.481087,-1.57096,-0.261812,-0.206483,0.523918,-0.180141,0.0391004,-0.186877,-0.0575684,-0.173591,0.549842,-0.0155326,0,0,0,0,0,0,0,0.0184337,-0.0535208,0.509623,-1.5596,-0.101873,1.44529,1.31639,-0.0452393,-0.0156449,-0.0546287,-0.0589701,-0.908696,-0.433256,-0.00603795,-2.88464,-24.8381,-3.88701,26.3559,0.312802,3.58971,-0.0365141,3.17252,3.11361,0.538612,-2.40646,2.07675,0.549143,0.554086,1.04492,0.615685,-0.217646,-0.206013,0.0303536,0.00431504,
-0.0101055,-0.0423851,0.480335,-1.57119,-0.261999,-0.204033,0.523857,-0.181164,0.0365561,-0.187872,-0.056575,-0.0467391,0.612541,-0.0152035,0,0,0,0,0,0,0,0.0184337,-0.0535208,0.509623,-1.5596,-0.101873,1.44529,1.31639,-0.0452393,-0.0156449,-0.0546287,-0.0589701,-0.908696,-0.433256,-0.00603795,-2.88464,-24.8381,-3.88701,26.3559,0.312802,3.58971,-0.0365141,3.37513,2.41305,1.62181,-1.69946,1.57744,0.221198,0.229486,0.468907,0.260845,0.374025,-0.392661,0.197233,-0.0140802,
-0.0108321,-0.0422488,0.479582,-1.57141,-0.261653,-0.201337,0.523797,-0.181669,0.0340826,-0.188344,-0.0553595,0.0865827,0.673902,-0.0149977,0,0,0,0,0,0,0,0.0184337,-0.0535208,0.509623,-1.5596,-0.101873,1.44529,1.31639,-0.0452393,-0.0156449,-0.0546287,-0.0589701,-0.908696,-0.433256,-0.00603795,-2.88464,-24.8381,-3.88701,26.3559,0.312802,3.58971,-0.0365141,4.33516,0.0425013,2.65514,-0.0835661,1.6977,-1.0984,-1.08543,0.254691,-1.10564,0.748494,-0.86821,0.146045,-0.0191555,
-0.0115568,-0.0421212,0.478831,-1.57163,-0.260763,-0.198413,0.523737,-0.181166,0.0318868,-0.187811,-0.0536725,0.222482,0.730984,-0.0149627,0,0,0,0,0,0,0,0.0184337,-0.0535208,0.509623,-1.5596,-0.101873,1.44529,1.31639,-0.0452393,-0.0156449,-0.0546287,-0.0589701,-0.908696,-0.433256,-0.00603795,-2.88464,-24.8381,-3.88701,26.3559,0.312802,3.58971,-0.0365141,4.33516,0.0425013,2.65514,-0.0835661,1.6977,-1.0984,-1.08543,0.254691,-1.10564,0.748494,-0.86821,0.146045,-0.0191555,
-0.0122721,-0.0419999,0.478089,-1.57183,-0.259349,-0.195298,0.523676,-0.178823,0.0303232,-0.185449,-0.0510832,0.353449,0.778985,-0.0152217,0,0,0,0,0,0,0,0.0154229,-0.0536629,0.505761,-1.56317,-0.128865,1.43457,1.31625,-0.0830035,0.0056906,-0.116284,-0.0777125,-0.324544,-0.0640889,-0.00221877,-1.69445,-26.3854,-2.63732,27.1017,-0.169681,3.5302,-0.0227812,4.38862,-0.362534,2.13123,-0.0580889,2.01477,-1.2981,-1.2858,0.555693,-1.29932,0.417295,-0.966036,-0.00303137,-0.0216621,
-0.0129654,-0.04188,0.477369,-1.57202,-0.257482,-0.192055,0.523612,-0.173323,0.0299793,-0.179953,-0.0468466,0.46675,0.810535,-0.0160451,0,0,0,0,0,0,0,0.0154229,-0.0536629,0.505761,-1.56317,-0.128865,1.43457,1.31625,-0.0830035,0.0056906,-0.116284,-0.0777125,-0.324544,-0.0640889,-0.00221877,-1.69445,-26.3854,-2.63732,27.1017,-0.169681,3.5302,-0.0227812,4.38862,-0.362534,2.13123,-0.0580889,2.01477,-1.2981,-1.2858,0.555693,-1.29932,0.417295,-0.966036,-0.00303137,-0.0216621,
-0.0136163,-0.0417524,0.476692,-1.57218,-0.25531,-0.188797,0.52354,-0.162726,0.0318905,-0.169392,-0.0395046,0.543032,0.814665,-0.0180239,0,0,0,0,0,0,0,0.0154229,-0.0536629,0.505761,-1.56317,-0.128865,1.43457,1.31625,-0.0830035,0.0056906,-0.116284,-0.0777125,-0.324544,-0.0640889,-0.00221877,-1.69445,-26.3854,-2.63732,27.1017,-0.169681,3.5302,-0.0227812,4.08265,-0.285788,0.680423,-0.381429,2.47985,-1.16855,-1.15856,1.12721,-1.15252,-0.192758,-0.831203,-0.0864141,-0.0316559,
-0.0141929,-0.0415991,0.476088,-1.57228,-0.253091,-0.185704,0.523453,-0.144152,0.0383436,-0.150886,-0.0253379,0.554687,0.773282,-0.0216563,0,0,0,0,0,0,0,0.0154229,-0.0536629,0.505761,-1.56317,-0.128865,1.43457,1.31625,-0.0830035,0.0056906,-0.116284,-0.0777125,-0.324544,-0.0640889,-0.00221877,-1.69445,-26.3854,-2.63732,27.1017,-0.169681,3.5302,-0.0227812,4.08265,-0.285788,0.680423,-0.381429,2.47985,-1.16855,-1.15856,1.12721,-1.15252,-0.192758,-0.831203,-0.0864141,-0.0316559,
-0.0146433,-0.0413754,0.475612,-1.57225,-0.251255,-0.183119,0.523401,-0.112604,0.0559265,-0.119033,0.00740535,0.459095,0.646228,-0.0130448,0,0,0,0,0,0,0,0.0154229,-0.0536629,0.505761,-1.56317,-0.128865,1.43457,1.31625,-0.0830035,0.0056906,-0.116284,-0.0777125,-0.324544,-0.0640889,-0.00221877,-1.69445,-26.3854,-2.63732,27.1017,-0.169681,3.5302,-0.0227812,2.56534,-0.363205,-0.0320167,-0.310496,1.74606,-0.797409,-0.790854,0.897637,-0.780789,-0.347651,-0.605764,-0.11287,-0.0339024,
-0.0150127,-0.0411514,0.47522,-1.5722,-0.249649,-0.180849,0.523349,-0.092359,0.055991,-0.0980945,0.0117923,0.40151,0.567338,-0.013158,0,0,0,0,0,0,0,0.0154229,-0.0536629,0.505761,-1.56317,-0.128865,1.43457,1.31625,-0.0830035,0.0056906,-0.116284,-0.0777125,-0.324544,-0.0640889,-0.00221877,-1.69445,-26.3854,-2.63732,27.1017,-0.169681,3.5302,-0.0227812,1.87901,-0.558535,0.0624275,-0.0327752,1.27138,-0.713374,-0.706351,0.648461,-0.708338,-0.253943,-0.47205,-0.128725,-0.0340511,
-0.0153244,-0.0409463,0.474887,-1.57216,-0.248187,-0.178808,0.523294,-0.0779048,0.0512841,-0.0831237,0.00897005,0.365564,0.510282,-0.0135218,0,0,0,0,0,0,0,0.0119946,-0.0533448,0.501057,-1.56517,-0.131889,1.43626,1.31622,-0.119188,0.018252,-0.154422,-0.0553232,0.016423,0.119365,-0.00467397,-0.325741,-27.6073,-1.28844,27.3279,0.299984,3.31139,-0.0163725,1.87901,-0.558535,0.0624275,-0.0327752,1.27138,-0.713374,-0.706351,0.648461,-0.708338,-0.253943,-0.47205,-0.128725,-0.0340511,
-0.0155924,-0.0407634,0.4746,-1.57214,-0.246814,-0.176945,0.523239,-0.0670086,0.0457009,-0.0718575,0.0050473,0.343162,0.46571,-0.0137487,0,0,0,0,0,0,0,0.0119946,-0.0533448,0.501057,-1.56517,-0.131889,1.43626,1.31622,-0.119188,0.018252,-0.154422,-0.0553232,0.016423,0.119365,-0.00467397,-0.325741,-27.6073,-1.28844,27.3279,0.299984,3.31139,-0.0163725,1.1392,-0.619348,0.407094,0.281183,0.640519,-0.55534,-0.548628,0.260518,-0.56532,-0.00989654,-0.276724,-0.0877232,-0.0334371,
-0.0158265,-0.0406019,0.474347,-1.57214,-0.245495,-0.175226,0.523184,-0.0585354,0.040392,-0.0631213,0.00160294,0.329652,0.429733,-0.0138934,0,0,0,0,0,0,0,0.0119946,-0.0533448,0.501057,-1.56517,-0.131889,1.43626,1.31622,-0.119188,0.018252,-0.154422,-0.0553232,0.016423,0.119365,-0.00467397,-0.325741,-27.6073,-1.28844,27.3279,0.299984,3.31139,-0.0163725,1.1392,-0.619348,0.407094,0.281183,0.640519,-0.55534,-0.548628,0.260518,-0.56532,-0.00989654,-0.276724,-0.0877232,-0.0334371,
-0.0160338,-0.0404593,0.474122,-1.57214,-0.244207,-0.173625,0.523128,-0.0518094,0.0356554,-0.0562085,-0.00109807,0.322082,0.400324,-0.0139929,0,0,0,0,0,0,0,0.0119946,-0.0533448,0.501057,-1.56517,-0.131889,1.43626,1.31622,-0.119188,0.018252,-0.154422,-0.0553232,0.016423,0.119365,-0.00467397,-0.325741,-27.6073,-1.28844,27.3279,0.299984,3.31139,-0.0163725,0.52678,-0.119707,0.327983,0.176946,0.272265,-0.171031,-0.162773,0.0957217,-0.185824,0.0845807,0.0107238,0.00377498,-0.0298939,
-0.0286519,-0.0297797,0.4608,-1.57922,-0.227228,-0.284189,0.513104,-0.341066,0.179286,-0.356137,-0.145703,-1.22925,-1.07665,-0.0769142,0,0,0,0,0,0,0,0.0119946,-0.0533448,0.501057,-1.56517,-0.131889,1.43626,1.31622,-0.119188,0.018252,-0.154422,-0.0553232,0.016423,0.119365,-0.00467397,-0.325741,-27.6073,-1.28844,27.3279,0.299984,3.31139,-0.0163725,0.52678,-0.119707,0.327983,0.176946,0.272265,-0.171031,-0.162773,0.0957217,-0.185824,0.0845807,0.0107238,0.00377498,-0.0298939,
-0.0222501,-0.0392074,0.465351,-1.57741,-0.245676,-0.177215,0.52211,-0.199935,0.0798883,-0.207807,-0.0672091,-0.194556,-0.183826,-0.0336067,0,0,0,0,0,0,0,0.00804528,-0.0521069,0.496607,-1.56562,-0.132312,1.43932,1.31619,-0.135044,0.0353573,-0.136391,0.00333805,-0.0304621,0.0808951,0.00105419,1.12232,-28.0834,0.26277,26.2289,1.01501,2.58904,-0.0163725,1.02485,1.05201,-0.461998,-0.667815,1.07302,0.231435,0.248572,0.734687,0.231139,-0.308367,0.261343,0.0114097,-0.0300036,
-0.0230499,-0.0388935,0.46452,-1.57768,-0.246202,-0.177864,0.521978,-0.199936,0.0784698,-0.207809,-0.0666618,-0.131525,-0.162069,-0.0328642,0,0,0,0,0,0,0,0.00804528,-0.0521069,0.496607,-1.56562,-0.132312,1.43932,1.31619,-0.135044,0.0353573,-0.136391,0.00333805,-0.0304621,0.0808951,0.00105419,1.12232,-28.0834,0.26277,26.2289,1.01501,2.58904,-0.0163725,0.345448,2.13046,-0.923519,-1.41941,0.917699,0.89191,0.914805,0.808214,0.904936,-0.539359,0.495014,-0.0532888,-0.0299094,
-0.0238499,-0.0385857,0.463689,-1.57794,-0.24646,-0.17842,0.52185,-0.199996,0.0769506,-0.207869,-0.0661091,-0.0644355,-0.139009,-0.0321344,0,0,0,0,0,0,0,0.00804528,-0.0521069,0.496607,-1.56562,-0.132312,1.43932,1.31619,-0.135044,0.0353573,-0.136391,0.00333805,-0.0304621,0.0808951,0.00105419,1.12232,-28.0834,0.26277,26.2289,1.01501,2.58904,-0.0163725,0.345448,2.13046,-0.923519,-1.41941,0.917699,0.89191,0.914805,0.808214,0.904936,-0.539359,0.495014,-0.0532888,-0.0299094,
-0.0246504,-0.0382844,0.462857,-1.57821,-0.246431,-0.178878,0.521724,-0.20013,0.0753192,-0.208,-0.0655573,0.00724985,-0.114556,-0.0314202,0,0,0,0,0,0,0,0.00804528,-0.0521069,0.496607,-1.56562,-0.132312,1.43932,1.31619,-0.135044,0.0353573,-0.136391,0.00333805,-0.0304621,0.0808951,0.00105419,1.12232,-28.0834,0.26277,26.2289,1.01501,2.58904,-0.0163725,-2.5228,5.54627,-1.88904,-3.7724,-0.60285,3.21157,3.22494,0.247987,3.29237,-0.793949,1.02293,-0.0273353,-0.030144,
-0.0254518,-0.0379902,0.462024,-1.57847,-0.246094,-0.179232,0.521601,-0.200355,0.0735635,-0.208219,-0.0650144,0.0841299,-0.0885962,-0.0307267,0,0,0,0,0,0,0,0.00804528,-0.0521069,0.496607,-1.56562,-0.132312,1.43932,1.31619,-0.135044,0.0353573,-0.136391,0.00333805,-0.0304621,0.0808951,0.00105419,1.12232,-28.0834,0.26277,26.2289,1.01501,2.58904,-0.0163725,-2.5228,5.54627,-1.88904,-3.7724,-0.60285,3.21157,3.22494,0.247987,3.29237,-0.793949,1.02293,-0.0273353,-0.030144,
-0.0262545,-0.0377035,0.46119,-1.57872,-0.245427,-0.179476,0.521481,-0.200684,0.0716719,-0.208541,-0.0644903,0.16686,-0.0609895,-0.0300535,0,0,0,0,0,0,0,0.00310628,-0.0512142,0.491382,-1.56554,-0.140957,1.43904,1.3158,-0.175005,0.0127943,-0.169044,-0.0290531,-0.354623,-0.0199351,-0.0153126,0.765262,-26.8099,-0.33629,26.3043,0.00701543,2.47643,-0.0301054,-1.44557,4.6097,-2.75803,-3.37517,0.656931,2.49181,2.49191,1.14459,2.58178,-1.34278,0.963024,-0.197302,-0.0385359,
-0.0270591,-0.037425,0.460354,-1.57898,-0.244402,-0.179603,0.521363,-0.201132,0.0696333,-0.208979,-0.0639979,0.256144,-0.031566,-0.029405,0,0,0,0,0,0,0,0.00310628,-0.0512142,0.491382,-1.56554,-0.140957,1.43904,1.3158,-0.175005,0.0127943,-0.169044,-0.0290531,-0.354623,-0.0199351,-0.0153126,0.765262,-26.8099,-0.33629,26.3043,0.00701543,2.47643,-0.0301054,-0.023005,2.83903,-1.12827,-2.05549,0.954246,1.30302,1.32629,0.964515,1.33519,-0.846561,0.551581,-0.280128,-0.0470602,
-0.0278659,-0.0371552,0.459516,-1.57923,-0.242991,-0.179603,0.521248,-0.201708,0.0674377,-0.209542,-0.0635537,0.352707,-0.000121752,-0.0287872,0,0,0,0,0,0,0,0.00310628,-0.0512142,0.491382,-1.56554,-0.140957,1.43904,1.3158,-0.175005,0.0127943,-0.169044,-0.0290531,-0.354623,-0.0199351,-0.0153126,0.765262,-26.8099,-0.33629,26.3043,0.00701543,2.47643,-0.0301054,-0.023005,2.83903,-1.12827,-2.05549,0.954246,1.30302,1.32629,0.964515,1.33519,-0.846561,0.551581,-0.280128,-0.0470602,
-0.0286756,-0.0368949,0.458675,-1.57949,-0.241162,-0.179469,0.521135,-0.202412,0.0650781,-0.21023,-0.0631785,0.457253,0.0335834,-0.0282022,0,0,0,0,0,0,0,0.00310628,-0.0512142,0.491382,-1.56554,-0.140957,1.43904,1.3158,-0.175005,0.0127943,-0.169044,-0.0290531,-0.354623,-0.0199351,-0.0153126,0.765262,-26.8099,-0.33629,26.3043,0.00701543,2.47643,-0.0301054,2.03737,0.763138,-0.264627,-0.688537,2.0534,-0.186311,-0.155048,1.37591,-0.193935,-0.714767,0.141465,-0.394542,-0.0561219,
-0.0294885,-0.0366447,0.457831,-1.57974,-0.238881,-0.179189,0.521025,-0.203228,0.0625525,-0.21103,-0.0628984,0.570375,0.0698267,-0.0276625,0,0,0,0,0,0,0,0.00310628,-0.0512142,0.491382,-1.56554,-0.140957,1.43904,1.3158,-0.175005,0.0127943,-0.169044,-0.0290531,-0.354623,-0.0199351,-0.0153126,0.765262,-26.8099,-0.33629,26.3043,0.00701543,2.47643,-0.0301054,2.03737,0.763138,-0.264627,-0.688537,2.0534,-0.186311,-0.155048,1.37591,-0.193935,-0.714767,0.141465,-0.394542,-0.0561219,
-0.0303013,-0.0364036,0.456986,-1.57999,-0.236148,-0.178756,0.520916,-0.203203,0.060286,-0.211066,-0.0625212,0.683117,0.108365,-0.0271686,0,0,0,0,0,0,0,0.00310628,-0.0512142,0.491382,-1.56554,-0.140957,1.43904,1.3158,-0.175005,0.0127943,-0.169044,-0.0290531,-0.354623,-0.0199351,-0.0153126,0.765262,-26.8099,-0.33629,26.3043,0.00701543,2.47643,-0.0301054,1.25305,-1.12337,-0.181053,0.530486,1.49105,-0.879902,-0.8583,1.07476,-0.907137,-0.696085,-0.0327394,-0.57039,-0.057866,
-0.031101,-0.0361667,0.456154,-1.58024,-0.23307,-0.178162,0.520809,-0.19994,0.0592227,-0.208066,-0.0617297,0.769587,0.148452,-0.0267381,0,0,0,0,0,0,0,-0.00179632,-0.0506679,0.485562,-1.56635,-0.145922,1.43884,1.31567,-0.159969,0.0235103,-0.189728,-0.0154145,-0.000263533,-0.00386569,-0.000668407,-0.452694,-28.2063,-1.21306,25.5069,0.184628,2.10473,-0.050247,-0.461801,-0.860233,-0.04836,0.351066,0.191818,-0.325853,-0.309476,0.346326,-0.344335,-0.537747,-0.0184907,-0.600514,-0.0588799,
-0.0318799,-0.0359334,0.455342,-1.58048,-0.229723,-0.177393,0.520703,-0.194716,0.0583141,-0.203,-0.0615674,0.836655,0.192297,-0.0264707,0,0,0,0,0,0,0,-0.00179632,-0.0506679,0.485562,-1.56635,-0.145922,1.43884,1.31567,-0.159969,0.0235103,-0.189728,-0.0154145,-0.000263533,-0.00386569,-0.000668407,-0.452694,-28.2063,-1.21306,25.5069,0.184628,2.10473,-0.050247,-0.461801,-0.860233,-0.04836,0.351066,0.191818,-0.325853,-0.309476,0.346326,-0.344335,-0.537747,-0.0184907,-0.600514,-0.0588799,
-0.0326326,-0.0357046,0.454556,-1.58073,-0.226167,-0.17643,0.520598,-0.18817,0.0571993,-0.19653,-0.0621328,0.889037,0.240733,-0.0263761,0,0,0,0,0,0,0,-0.00179632,-0.0506679,0.485562,-1.56635,-0.145922,1.43884,1.31567,-0.159969,0.0235103,-0.189728,-0.0154145,-0.000263533,-0.00386569,-0.000668407,-0.452694,-28.2063,-1.21306,25.5069,0.184628,2.10473,-0.050247,-0.130451,-0.501831,-0.0124869,0.0177657,0.379685,-0.229705,-0.217755,0.42268,-0.233231,-0.558693,-0.104291,-0.585421,-0.0621108,
-0.0333552,-0.0354816,0.4538,-1.58098,-0.222447,-0.175255,0.520492,-0.180659,0.0557652,-0.189027,-0.0632475,0.930037,0.293653,-0.0265181,0,0,0,0,0,0,0,-0.00179632,-0.0506679,0.485562,-1.56635,-0.145922,1.43884,1.31567,-0.159969,0.0235103,-0.189728,-0.0154145,-0.000263533,-0.00386569,-0.000668407,-0.452694,-28.2063,-1.21306,25.5069,0.184628,2.10473,-0.050247,-0.130451,-0.501831,-0.0124869,0.0177657,0.379685,-0.229705,-0.217755,0.42268,-0.233231,-0.558693,-0.104291,-0.585421,-0.0621108,
-0.0340445,-0.0352654,0.453077,-1.58124,-0.218599,-0.173857,0.520383,-0.172323,0.0540323,-0.180631,-0.0645635,0.96192,0.34955,-0.0270491,0,0,0,0,0,0,0,-0.00179632,-0.0506679,0.485562,-1.56635,-0.145922,1.43884,1.31567,-0.159969,0.0235103,-0.189728,-0.0154145,-0.000263533,-0.00386569,-0.000668407,-0.452694,-28.2063,-1.21306,25.5069,0.184628,2.10473,-0.050247,0.863018,0.0637362,-0.00560048,-0.429797,1.11046,-0.203587,-0.184511,0.820505,-0.200839,-0.667556,-0.133564,-0.579991,-0.0660351,
-0.0346968,-0.0350567,0.452392,-1.5815,-0.214655,-0.172239,0.52027,-0.163077,0.0521751,-0.171239,-0.0654394,0.98607,0.404505,-0.0283008,0,0,0,0,0,0,0,-0.00767282,-0.0501954,0.47929,-1.56714,-0.141297,1.43895,1.31563,-0.203453,0.00769067,-0.203608,-0.0263022,0.285849,0.0107481,-0.00091428,-0.246395,-27.4327,-1.13768,25.8322,0.0500452,2.00493,-0.0767973,2.20546,-0.598369,-0.553763,-0.189646,2.34037,-0.835049,-0.812604,1.60301,-0.835035,-1.04484,-0.267072,-0.658488,-0.0714591,
-0.035307,-0.034854,0.451751,-1.58176,-0.210643,-0.170436,0.520147,-0.152548,0.0506888,-0.160441,-0.0645762,1.00301,0.450796,-0.0309033,0,0,0,0,0,0,0,-0.00767282,-0.0501954,0.47929,-1.56714,-0.141297,1.43895,1.31563,-0.203453,0.00769067,-0.203608,-0.0263022,0.285849,0.0107481,-0.00091428,-0.246395,-27.4327,-1.13768,25.8322,0.0500452,2.00493,-0.0767973,2.20546,-0.598369,-0.553763,-0.189646,2.34037,-0.835049,-0.812604,1.60301,-0.835035,-1.04484,-0.267072,-0.658488,-0.0714591,
-0.0358666,-0.03465,0.451161,-1.582,-0.206594,-0.16854,0.520006,-0.139887,0.0509857,-0.147338,-0.0588518,1.01218,0.474107,-0.0351239,0,0,0,0,0,0,0,-0.00767282,-0.0501954,0.47929,-1.56714,-0.141297,1.43895,1.31563,-0.203453,0.00769067,-0.203608,-0.0263022,0.285849,0.0107481,-0.00091428,-0.246395,-27.4327,-1.13768,25.8322,0.0500452,2.00493,-0.0767973,1.3257,-1.82663,-1.20668,0.543323,2.00058,-1.1943,-1.17905,1.55919,-1.20269,-1.24691,-0.294842,-0.747173,-0.0737436,
-0.0363278,-0.0344056,0.450672,-1.58214,-0.20288,-0.166787,0.519901,-0.11531,0.0611086,-0.122425,-0.0367017,0.928649,0.43817,-0.0261729,0,0,0,0,0,0,0,-0.00767282,-0.0501954,0.47929,-1.56714,-0.141297,1.43895,1.31563,-0.203453,0.00769067,-0.203608,-0.0263022,0.285849,0.0107481,-0.00091428,-0.246395,-27.4327,-1.13768,25.8322,0.0500452,2.00493,-0.0767973,1.3257,-1.82663,-1.20668,0.543323,2.00058,-1.1943,-1.17905,1.55919,-1.20269,-1.24691,-0.294842,-0.747173,-0.0737436,
-0.0367222,-0.034164,0.45025,-1.58227,-0.199379,-0.165088,0.519797,-0.0986074,0.0603915,-0.105277,-0.0317539,0.875167,0.424633,-0.0261166,0,0,0,0,0,0,0,-0.00767282,-0.0501954,0.47929,-1.56714,-0.141297,1.43895,1.31563,-0.203453,0.00769067,-0.203608,-0.0263022,0.285849,0.0107481,-0.00091428,-0.246395,-27.4327,-1.13768,25.8322,0.0500452,2.00493,-0.0767973,-1.02808,-1.82197,-1.24298,0.694737,0.354904,-0.632737,-0.62426,0.699089,-0.643235,-1.06577,-0.101,-0.764149,-0.0718405,
-0.0370674,-0.0339377,0.44988,-1.5824,-0.19602,-0.163414,0.519691,-0.0862994,0.0565758,-0.0926469,-0.0312497,0.839877,0.418692,-0.0264382,0,0,0,0,0,0,0,-0.00767282,-0.0501954,0.47929,-1.56714,-0.141297,1.43895,1.31563,-0.203453,0.00769067,-0.203608,-0.0263022,0.285849,0.0107481,-0.00091428,-0.246395,-27.4327,-1.13768,25.8322,0.0500452,2.00493,-0.0767973,-1.02808,-1.82197,-1.24298,0.694737,0.354904,-0.632737,-0.62426,0.699089,-0.643235,-1.06577,-0.101,-0.764149,-0.0718405,
-0.0373748,-0.0337294,0.449548,-1.58252,-0.192754,-0.161751,0.519584,-0.0768389,0.0520853,-0.0829611,-0.0315266,0.816466,0.415625,-0.0266656,0,0,0,0,0,0,0,-0.0135321,-0.0497675,0.472446,-1.56751,-0.127543,1.44096,1.31559,-0.186508,0.0235633,-0.225514,-0.0191688,0.49004,0.11866,-0.00454936,1.01917,-28.73,0.286573,25.9314,0.984799,2.23748,-0.0703886,-2.21198,-1.56837,-1.02598,0.807727,-0.551251,-0.246455,-0.242974,0.190348,-0.26255,-0.830674,0.159857,-0.709109,-0.067041,
-0.0376523,-0.0335387,0.449247,-1.58265,-0.189549,-0.160096,0.519477,-0.0693777,0.0476787,-0.0753447,-0.0316526,0.8011,0.413853,-0.0268224,0,0,0,0,0,0,0,-0.0135321,-0.0497675,0.472446,-1.56751,-0.127543,1.44096,1.31559,-0.186508,0.0235633,-0.225514,-0.0191688,0.49004,0.11866,-0.00454936,1.01917,-28.73,0.286573,25.9314,0.984799,2.23748,-0.0703886,-2.40177,-0.799741,-1.32332,0.463738,-0.59887,0.166697,0.168837,0.204794,0.15581,-0.802898,0.413663,-0.552458,-0.0649227,
-0.043879,-0.029747,0.442906,-1.58872,-0.297429,-0.302334,0.510745,-0.336899,0.15949,-0.350086,-0.14934,-1.20177,-0.764725,-0.0858222,0,0,0,0,0,0,0,-0.0135321,-0.0497675,0.472446,-1.56751,-0.127543,1.44096,1.31559,-0.186508,0.0235633,-0.225514,-0.0191688,0.49004,0.11866,-0.00454936,1.01917,-28.73,0.286573,25.9314,0.984799,2.23748,-0.0703886,-2.40177,-0.799741,-1.32332,0.463738,-0.59887,0.166697,0.168837,0.204794,0.15581,-0.802898,0.413663,-0.552458,-0.0649227,
-0.0470005,-0.03975,0.437578,-1.58156,-0.201076,-0.117804,0.519806,-0.176745,0.0447983,-0.184172,-0.0777394,-0.149874,0.459578,-0.0456959,0,0,0,0,0,0,0,-0.0135321,-0.0497675,0.472446,-1.56751,-0.127543,1.44096,1.31559,-0.186508,0.0235633,-0.225514,-0.0191688,0.49004,0.11866,-0.00454936,1.01917,-28.73,0.286573,25.9314,0.984799,2.23748,-0.0703886,-1.51417,-0.0198894,-1.4059,0.064877,-0.0714938,0.353794,0.35601,0.434019,0.349615,-0.700888,0.520805,-0.303841,-0.0676296,
-0.0477065,-0.0395754,0.436842,-1.58187,-0.201511,-0.115841,0.519626,-0.176485,0.0436606,-0.183909,-0.0775134,-0.108832,0.490842,-0.0450119,0,0,0,0,0,0,0,-0.0135321,-0.0497675,0.472446,-1.56751,-0.127543,1.44096,1.31559,-0.186508,0.0235633,-0.225514,-0.0191688,0.49004,0.11866,-0.00454936,1.01917,-28.73,0.286573,25.9314,0.984799,2.23748,-0.0703886,-1.51417,-0.0198894,-1.4059,0.064877,-0.0714938,0.353794,0.35601,0.434019,0.349615,-0.700888,0.520805,-0.303841,-0.0676296,
-0.0484117,-0.0394053,0.436107,-1.58218,-0.20177,-0.113745,0.519448,-0.176298,0.0425195,-0.183718,-0.0773342,-0.0647323,0.52386,-0.0443481,0,0,0,0,0,0,0,-0.0216631,-0.0483611,0.463641,-1.56758,-0.112331,1.44412,1.31546,-0.189098,0.0384623,-0.211675,0.0124581,0.0605899,-0.0905849,-0.00967581,-3.54321,-26.6591,-4.06157,22.0712,-1.2262,2.01226,-0.0969389,-1.56111,2.63167,-1.59971,-1.68034,-0.108829,1.65469,1.65932,0.394226,1.68708,-0.665666,0.753343,-0.0827229,-0.072991,
-0.0491165,-0.0392398,0.435373,-1.58249,-0.201839,-0.11151,0.519273,-0.176193,0.0413676,-0.183607,-0.0772024,-0.0171446,0.558703,-0.0437085,0,0,0,0,0,0,0,-0.0216631,-0.0483611,0.463641,-1.56758,-0.112331,1.44412,1.31546,-0.189098,0.0384623,-0.211675,0.0124581,0.0605899,-0.0905849,-0.00967581,-3.54321,-26.6591,-4.06157,22.0712,-1.2262,2.01226,-0.0969389,-1.56111,2.63167,-1.59971,-1.68034,-0.108829,1.65469,1.65932,0.394226,1.68708,-0.665666,0.753343,-0.0827229,-0.072991,
-0.0498212,-0.039079,0.434638,-1.5828,-0.201701,-0.109129,0.519101,-0.176179,0.0401979,-0.183582,-0.0771196,0.0344193,0.595439,-0.0430965,0,0,0,0,0,0,0,-0.0216631,-0.0483611,0.463641,-1.56758,-0.112331,1.44412,1.31546,-0.189098,0.0384623,-0.211675,0.0124581,0.0605899,-0.0905849,-0.00967581,-3.54321,-26.6591,-4.06157,22.0712,-1.2262,2.01226,-0.0969389,-1.6784,4.148,-2.92447,-2.918,0.415787,2.41356,2.40124,0.938776,2.49734,-1.2119,0.940105,-0.0709644,-0.0732348,
-0.0505262,-0.038923,0.433904,-1.5831,-0.201339,-0.106592,0.518931,-0.176263,0.0390043,-0.183654,-0.0770873,0.090507,0.634123,-0.0425166,0,0,0,0,0,0,0,-0.0216631,-0.0483611,0.463641,-1.56758,-0.112331,1.44412,1.31546,-0.189098,0.0384623,-0.211675,0.0124581,0.0605899,-0.0905849,-0.00967581,-3.54321,-26.6591,-4.06157,22.0712,-1.2262,2.01226,-0.0969389,-0.961574,0.942478,-2.54437,-0.853274,0.815412,0.715891,0.698275,1.12185,0.759172,-1.22069,0.545917,-0.29521,-0.0910497,
-0.051232,-0.0387719,0.433168,-1.58341,-0.200732,-0.103893,0.518763,-0.176454,0.0377816,-0.183829,-0.0771069,0.151725,0.674795,-0.0419721,0,0,0,0,0,0,0,-0.0216631,-0.0483611,0.463641,-1.56758,-0.112331,1.44412,1.31546,-0.189098,0.0384623,-0.211675,0.0124581,0.0605899,-0.0905849,-0.00967581,-3.54321,-26.6591,-4.06157,22.0712,-1.2262,2.01226,-0.0969389,-0.961574,0.942478,-2.54437,-0.853274,0.815412,0.715891,0.698275,1.12185,0.759172,-1.22069,0.545917,-0.29521,-0.0910497,
-0.0519391,-0.0386258,0.432432,-1.58372,-0.199857,-0.101023,0.518597,-0.176757,0.036526,-0.184113,-0.0771792,0.218731,0.717466,-0.0414741,0,0,0,0,0,0,0,-0.0216631,-0.0483611,0.463641,-1.56758,-0.112331,1.44412,1.31546,-0.189098,0.0384623,-0.211675,0.0124581,0.0605899,-0.0905849,-0.00967581,-3.54321,-26.6591,-4.06157,22.0712,-1.2262,2.01226,-0.0969389,1.07363,-0.629415,-2.26062,0.0012295,2.03615,-0.475938,-0.475001,1.67304,-0.464333,-1.23748,0.10356,-0.2988,-0.098392,
-0.0526478,-0.0384848,0.431694,-1.58403,-0.198689,-0.0979747,0.518433,-0.177173,0.0352363,-0.184506,-0.077303,0.292214,0.762098,-0.0410263,0,0,0,0,0,0,0,-0.0267754,-0.0480592,0.457773,-1.56862,-0.11541,1.4471,1.31507,-0.142895,-0.0057129,-0.178454,-0.0521184,-0.0467486,0.177421,0.000908665,-2.24987,-28.4801,-2.83568,26.0822,-0.670475,4.10058,-0.110672,1.07363,-0.629415,-2.26062,0.0012295,2.03615,-0.475938,-0.475001,1.67304,-0.464333,-1.23748,0.10356,-0.2988,-0.098392,
-0.0533584,-0.0383489,0.430954,-1.58434,-0.197197,-0.0947446,0.51827,-0.177662,0.0339842,-0.184968,-0.0772641,0.372792,0.807543,-0.0406439,0,0,0,0,0,0,0,-0.0267754,-0.0480592,0.457773,-1.56862,-0.11541,1.4471,1.31507,-0.142895,-0.0057129,-0.178454,-0.0521184,-0.0467486,0.177421,0.000908665,-2.24987,-28.4801,-2.83568,26.0822,-0.670475,4.10058,-0.110672,1.83979,-2.22867,-1.86044,1.11758,2.00603,-1.36161,-1.36951,1.40379,-1.36866,-0.769266,-0.237248,0.0236845,-0.0963849,
-0.05407,-0.0382151,0.430214,-1.58464,-0.195356,-0.0913738,0.518109,-0.177893,0.0334446,-0.185156,-0.0749504,0.460454,0.842687,-0.040358,0,0,0,0,0,0,0,-0.0267754,-0.0480592,0.457773,-1.56862,-0.11541,1.4471,1.31507,-0.142895,-0.0057129,-0.178454,-0.0521184,-0.0467486,0.177421,0.000908665,-2.24987,-28.4801,-2.83568,26.0822,-0.670475,4.10058,-0.110672,0.511427,-2.17255,-1.63013,1.24821,0.659015,-0.98841,-0.99649,0.50459,-1.00402,-0.271586,-0.223264,0.320161,-0.102525,
-0.0547823,-0.0380841,0.429472,-1.58493,-0.193131,-0.0878906,0.517948,-0.178076,0.0327478,-0.185303,-0.0722112,0.556232,0.870803,-0.0401796,0,0,0,0,0,0,0,-0.0267754,-0.0480592,0.457773,-1.56862,-0.11541,1.4471,1.31507,-0.142895,-0.0057129,-0.178454,-0.0521184,-0.0467486,0.177421,0.000908665,-2.24987,-28.4801,-2.83568,26.0822,-0.670475,4.10058,-0.110672,0.511427,-2.17255,-1.63013,1.24821,0.659015,-0.98841,-0.99649,0.50459,-1.00402,-0.271586,-0.223264,0.320161,-0.102525,
-0.0554951,-0.0379573,0.428731,-1.58521,-0.19049,-0.0843165,0.517788,-0.178198,0.031717,-0.185395,-0.0696179,0.660203,0.893524,-0.0401086,0,0,0,0,0,0,0,-0.0267754,-0.0480592,0.457773,-1.56862,-0.11541,1.4471,1.31507,-0.142895,-0.0057129,-0.178454,-0.0521184,-0.0467486,0.177421,0.000908665,-2.24987,-28.4801,-2.83568,26.0822,-0.670475,4.10058,-0.110672,-0.00576768,-1.8218,-1.78982,0.93351,0.289954,-0.681182,-0.687954,0.302622,-0.68941,-0.260872,-0.258914,0.363364,-0.114202,
-0.0562001,-0.0378326,0.427996,-1.58547,-0.18748,-0.0806733,0.517628,-0.176263,0.031177,-0.183617,-0.0668049,0.752473,0.910811,-0.0400244,0,0,0,0,0,0,0,-0.031912,-0.0479478,0.45195,-1.57079,-0.115058,1.45487,1.31494,-0.175092,0.00889233,-0.17715,-0.074935,0.0833506,0.338492,-0.00530127,-0.627255,-29.0791,-1.28844,26.5027,-1.04309,3.67669,-0.0703886,-0.00576768,-1.8218,-1.78982,0.93351,0.289954,-0.681182,-0.687954,0.302622,-0.68941,-0.260872,-0.258914,0.363364,-0.114202,
-0.0568865,-0.0377081,0.42728,-1.58573,-0.18419,-0.0769784,0.517468,-0.171592,0.0311236,-0.179174,-0.064179,0.822423,0.923704,-0.0400652,0,0,0,0,0,0,0,-0.031912,-0.0479478,0.45195,-1.57079,-0.115058,1.45487,1.31494,-0.175092,0.00889233,-0.17715,-0.074935,0.0833506,0.338492,-0.00530127,-0.627255,-29.0791,-1.28844,26.5027,-1.04309,3.67669,-0.0703886,0.155274,-1.63917,-1.8727,0.601398,0.389374,-0.613759,-0.621491,0.339938,-0.608359,-0.334447,-0.445223,0.347214,-0.120425,
-0.0575469,-0.0375844,0.426588,-1.58598,-0.180687,-0.0732429,0.517306,-0.165111,0.0309049,-0.172818,-0.0624579,0.875708,0.933891,-0.0404859,0,0,0,0,0,0,0,-0.031912,-0.0479478,0.45195,-1.57079,-0.115058,1.45487,1.31494,-0.175092,0.00889233,-0.17715,-0.074935,0.0833506,0.338492,-0.00530127,-0.627255,-29.0791,-1.28844,26.5027,-1.04309,3.67669,-0.0703886,0.155274,-1.63917,-1.8727,0.601398,0.389374,-0.613759,-0.621491,0.339938,-0.608359,-0.334447,-0.445223,0.347214,-0.120425,
-0.0581759,-0.037463,0.425928,-1.58623,-0.177023,-0.0694746,0.517139,-0.157251,0.0303708,-0.164995,-0.0616605,0.916149,0.94208,-0.0415409,0,0,0,0,0,0,0,-0.031912,-0.0479478,0.45195,-1.57079,-0.115058,1.45487,1.31494,-0.175092,0.00889233,-0.17715,-0.074935,0.0833506,0.338492,-0.00530127,-0.627255,-29.0791,-1.28844,26.5027,-1.04309,3.67669,-0.0703886,0.870843,-0.948654,-2.14976,0.0460957,0.948432,-0.42,-0.424912,0.648865,-0.401274,-0.436943,-0.467994,0.444162,-0.123224,
-0.0587684,-0.0373439,0.425305,-1.58647,-0.173238,-0.0656812,0.516964,-0.148128,0.0297585,-0.155833,-0.0612691,0.946218,0.948331,-0.0438072,0,0,0,0,0,0,0,-0.031912,-0.0479478,0.45195,-1.57079,-0.115058,1.45487,1.31494,-0.175092,0.00889233,-0.17715,-0.074935,0.0833506,0.338492,-0.00530127,-0.627255,-29.0791,-1.28844,26.5027,-1.04309,3.67669,-0.0703886,1.23387,-1.3168,-2.8851,0.367151,1.51883,-0.675382,-0.682706,1.10516,-0.662252,-0.663643,-0.306,0.514047,-0.123905,
-0.0593183,-0.0372231,0.424725,-1.58671,-0.16937,-0.0618755,0.516773,-0.137464,0.0301949,-0.145048,-0.0593083,0.96708,0.95143,-0.0477023,0,0,0,0,0,0,0,-0.0376382,-0.0480262,0.445592,-1.57347,-0.107513,1.46873,1.31487,-0.177301,0.00783435,-0.209209,-0.0727699,0.323438,0.49589,-0.00264857,0.868412,-28.2579,0.0644055,26.828,0.740353,3.87536,-0.117081,1.23387,-1.3168,-2.8851,0.367151,1.51883,-0.675382,-0.682706,1.10516,-0.662252,-0.663643,-0.306,0.514047,-0.123905,
-0.0597969,-0.0370567,0.424218,-1.58684,-0.165585,-0.0584076,0.516618,-0.119638,0.0416203,-0.126776,-0.0322167,0.946174,0.866976,-0.0387808,0,0,0,0,0,0,0,-0.0376382,-0.0480262,0.445592,-1.57347,-0.107513,1.46873,1.31487,-0.177301,0.00783435,-0.209209,-0.0727699,0.323438,0.49589,-0.00264857,0.868412,-28.2579,0.0644055,26.828,0.740353,3.87536,-0.117081,0.840663,-1.36995,-2.12929,0.730647,0.928127,-0.624183,-0.626533,0.659178,-0.632944,-0.277635,-0.134174,0.573645,-0.128919,
-0.0602264,-0.0368904,0.423761,-1.58694,-0.161822,-0.0551439,0.516464,-0.107385,0.0415558,-0.114292,-0.026624,0.940625,0.815924,-0.0386759,0,0,0,0,0,0,0,-0.0376382,-0.0480262,0.445592,-1.57347,-0.107513,1.46873,1.31487,-0.177301,0.00783435,-0.209209,-0.0727699,0.323438,0.49589,-0.00264857,0.868412,-28.2579,0.0644055,26.828,0.740353,3.87536,-0.117081,0.840663,-1.36995,-2.12929,0.730647,0.928127,-0.624183,-0.626533,0.659178,-0.632944,-0.277635,-0.134174,0.573645,-0.128919,
-0.0606182,-0.0367363,0.423342,-1.58705,-0.158055,-0.0520262,0.516308,-0.0979521,0.0385379,-0.104678,-0.0270109,0.941803,0.779425,-0.0389244,0,0,0,0,0,0,0,-0.0376382,-0.0480262,0.445592,-1.57347,-0.107513,1.46873,1.31487,-0.177301,0.00783435,-0.209209,-0.0727699,0.323438,0.49589,-0.00264857,0.868412,-28.2579,0.0644055,26.828,0.740353,3.87536,-0.117081,1.59962,-0.99567,-1.54163,0.701271,1.28746,-0.618661,-0.617697,0.769757,-0.634733,-0.109131,0.00878739,0.599097,-0.128927,
-0.0609792,-0.036596,0.422954,-1.58717,-0.15427,-0.0490224,0.516151,-0.0902505,0.0350839,-0.0968353,-0.0287812,0.946214,0.750967,-0.0390896,0,0,0,0,0,0,0,-0.0376382,-0.0480262,0.445592,-1.57347,-0.107513,1.46873,1.31487,-0.177301,0.00783435,-0.209209,-0.0727699,0.323438,0.49589,-0.00264857,0.868412,-28.2579,0.0644055,26.828,0.740353,3.87536,-0.117081,1.5626,-1.01653,-2.2775,0.664572,1.71783,-0.634108,-0.639748,1.21093,-0.640175,-0.498115,0.143044,0.485185,-0.129298,
-0.0613143,-0.0364684,0.422593,-1.58729,-0.150462,-0.0461106,0.515995,-0.0837773,0.0318892,-0.090252,-0.0306348,0.952206,0.727934,-0.0392018,0,0,0,0,0,0,0,-0.0376382,-0.0480262,0.445592,-1.57347,-0.107513,1.46873,1.31487,-0.177301,0.00783435,-0.209209,-0.0727699,0.323438,0.49589,-0.00264857,0.868412,-28.2579,0.0644055,26.828,0.740353,3.87536,-0.117081,1.5626,-1.01653,-2.2775,0.664572,1.71783,-0.634108,-0.639748,1.21093,-0.640175,-0.498115,0.143044,0.485185,-0.129298,
-0.0616273,-0.036352,0.422255,-1.58742,-0.146626,-0.0432746,0.515838,-0.0782485,0.0291039,-0.0846364,-0.0322519,0.958881,0.709006,-0.0392857,0,0,0,0,0,0,0,-0.0430252,-0.0478733,0.439361,-1.57595,-0.0949894,1.48611,1.31473,-0.177014,0.015062,-0.190459,-0.0583347,0.429425,0.605519,-0.00427179,1.65393,-29.5274,0.913405,27.1255,1.55883,3.66936,-0.130813,-0.00809478,-0.0577422,-2.67781,0.106152,0.904263,0.159673,0.15136,0.910319,0.166617,-0.626841,0.435166,0.402589,-0.134446,
-0.0507574,-0.0326239,0.433542,-1.58831,-0.298102,-0.250998,0.511717,-0.192145,0.0941707,-0.201132,-0.122611,-1.18466,-0.25176,-0.0796661,0,0,0,0,0,0,0,-0.0430252,-0.0478733,0.439361,-1.57595,-0.0949894,1.48611,1.31473,-0.177014,0.015062,-0.190459,-0.0583347,0.429425,0.605519,-0.00427179,1.65393,-29.5274,0.913405,27.1255,1.55883,3.66936,-0.130813,-0.00809478,-0.0577422,-2.67781,0.106152,0.904263,0.159673,0.15136,0.910319,0.166617,-0.626841,0.435166,0.402589,-0.134446,
-0.0588354,-0.041251,0.422548,-1.58741,-0.160046,-0.0696048,0.518737,-0.0441504,0.0299596,-0.0491052,-0.0667128,-0.584297,-0.0456913,-0.0508659,0,0,0,0,0,0,0,-0.0430252,-0.0478733,0.439361,-1.57595,-0.0949894,1.48611,1.31473,-0.177014,0.015062,-0.190459,-0.0583347,0.429425,0.605519,-0.00427179,1.65393,-29.5274,0.913405,27.1255,1.55883,3.66936,-0.130813,-0.942727,1.10628,-2.22474,-0.378562,0.131443,0.917293,0.910701,0.444423,0.925478,-0.39143,0.761921,0.421619,-0.134577,
-0.0590064,-0.0411336,0.422357,-1.58768,-0.162508,-0.0697691,0.518535,-0.0427595,0.0293342,-0.0477073,-0.0665987,-0.615486,-0.0410916,-0.0503864,0,0,0,0,0,0,0,-0.0430252,-0.0478733,0.439361,-1.57595,-0.0949894,1.48611,1.31473,-0.177014,0.015062,-0.190459,-0.0583347,0.429425,0.605519,-0.00427179,1.65393,-29.5274,0.913405,27.1255,1.55883,3.66936,-0.130813,-0.942727,1.10628,-2.22474,-0.378562,0.131443,0.917293,0.910701,0.444423,0.925478,-0.39143,0.761921,0.421619,-0.134577,
-0.0591719,-0.0410189,0.422172,-1.58795,-0.165102,-0.0699129,0.518336,-0.041386,0.0286836,-0.0463265,-0.0665015,-0.648393,-0.0359315,-0.0499159,0,0,0,0,0,0,0,-0.0430252,-0.0478733,0.439361,-1.57595,-0.0949894,1.48611,1.31473,-0.177014,0.015062,-0.190459,-0.0583347,0.429425,0.605519,-0.00427179,1.65393,-29.5274,0.913405,27.1255,1.55883,3.66936,-0.130813,-0.777904,1.77266,-2.12643,-0.695171,0.296583,1.20875,1.20485,0.549864,1.21801,-0.404596,0.944337,0.408096,-0.137462,
-0.0593321,-0.0409069,0.421992,-1.58821,-0.167833,-0.0700333,0.518138,-0.0400365,0.0280003,-0.0449685,-0.0664339,-0.682895,-0.0301012,-0.0494559,0,0,0,0,0,0,0,-0.0502519,-0.0469987,0.431739,-1.57738,-0.0846117,1.50742,1.3145,-0.13206,0.0108365,-0.137795,-0.0169735,-0.248774,0.279786,-0.00736388,2.01099,-29.3291,1.28633,24.5111,-0.615543,2.07177,-0.0703886,0.713732,2.50239,-2.67465,-1.16531,1.68491,1.26307,1.25931,1.42917,1.28448,-0.75192,1.1185,0.428785,-0.132945,
-0.059487,-0.0407978,0.421817,-1.58848,-0.170708,-0.070127,0.517942,-0.0387244,0.0272753,-0.0436461,-0.0664125,-0.718768,-0.0234366,-0.049006,0,0,0,0,0,0,0,-0.0502519,-0.0469987,0.431739,-1.57738,-0.0846117,1.50742,1.3145,-0.13206,0.0108365,-0.137795,-0.0169735,-0.248774,0.279786,-0.00736388,2.01099,-29.3291,1.28633,24.5111,-0.615543,2.07177,-0.0703886,0.713732,2.50239,-2.67465,-1.16531,1.68491,1.26307,1.25931,1.42917,1.28448,-0.75192,1.1185,0.428785,-0.132945,
-0.0596369,-0.0406918,0.421648,-1.58874,-0.173731,-0.0701898,0.517748,-0.0374739,0.0264969,-0.0423825,-0.0664592,-0.755638,-0.0157002,-0.0485657,0,0,0,0,0,0,0,-0.0502519,-0.0469987,0.431739,-1.57738,-0.0846117,1.50742,1.3145,-0.13206,0.0108365,-0.137795,-0.0169735,-0.248774,0.279786,-0.00736388,2.01099,-29.3291,1.28633,24.5111,-0.615543,2.07177,-0.0703886,1.3103,1.49391,-2.58511,-0.658772,2.11425,0.629146,0.626163,1.66802,0.642544,-0.864239,0.874596,0.300396,-0.123627,
-0.0597822,-0.0405892,0.421483,-1.58901,-0.176902,-0.070216,0.517555,-0.0363252,0.0256496,-0.0412166,-0.0666026,-0.792909,-0.00655561,-0.048133,0,0,0,0,0,0,0,-0.0502519,-0.0469987,0.431739,-1.57738,-0.0846117,1.50742,1.3145,-0.13206,0.0108365,-0.137795,-0.0169735,-0.248774,0.279786,-0.00736388,2.01099,-29.3291,1.28633,24.5111,-0.615543,2.07177,-0.0703886,1.3103,1.49391,-2.58511,-0.658772,2.11425,0.629146,0.626163,1.66802,0.642544,-0.864239,0.874596,0.300396,-0.123627,
-0.0599236,-0.0404903,0.421322,-1.58928,-0.180221,-0.0701982,0.517364,-0.0353425,0.0247127,-0.0402102,-0.0668801,-0.82965,0.00446289,-0.0477046,0,0,0,0,0,0,0,-0.0502519,-0.0469987,0.431739,-1.57738,-0.0846117,1.50742,1.3145,-0.13206,0.0108365,-0.137795,-0.0169735,-0.248774,0.279786,-0.00736388,2.01099,-29.3291,1.28633,24.5111,-0.615543,2.07177,-0.0703886,-0.669371,0.791922,-2.08044,-0.698609,0.568658,0.660701,0.659892,0.768298,0.682084,-0.846638,0.318844,-0.0736909,-0.126409,
-0.0600621,-0.0403957,0.421164,-1.58955,-0.183679,-0.0701262,0.517175,-0.0346249,0.0236583,-0.0394596,-0.0673375,-0.864436,0.0179838,-0.0472727,0,0,0,0,0,0,0,-0.0502519,-0.0469987,0.431739,-1.57738,-0.0846117,1.50742,1.3145,-0.13206,0.0108365,-0.137795,-0.0169735,-0.248774,0.279786,-0.00736388,2.01099,-29.3291,1.28633,24.5111,-0.615543,2.07177,-0.0703886,-1.13764,0.0138433,-2.30242,-0.668152,0.398671,0.343999,0.333578,0.741527,0.384238,-1.1374,-0.131036,-0.347622,-0.121057,
-0.0601994,-0.0403059,0.421008,-1.58982,-0.187259,-0.069987,0.516988,-0.0343229,0.0224495,-0.0391112,-0.0680275,-0.895115,0.0348231,-0.0468238,0,0,0,0,0,0,0,-0.0531605,-0.0459812,0.428075,-1.57749,-0.0986912,1.51422,1.31439,-0.0823105,0.0325312,-0.108364,-0.00619244,-0.549179,0.176772,-0.00131463,1.88404,-30.3526,1.21095,24.8087,-1.03119,2.22375,-0.23793,-1.13764,0.0138433,-2.30242,-0.668152,0.398671,0.343999,0.333578,0.741527,0.384238,-1.1374,-0.131036,-0.347622,-0.121057,
-0.060338,-0.0402218,0.42085,-1.59009,-0.190933,-0.069763,0.516803,-0.0346592,0.0210384,-0.0393817,-0.0690001,-0.918499,0.0559776,-0.0463349,0,0,0,0,0,0,0,-0.0531605,-0.0459812,0.428075,-1.57749,-0.0986912,1.51422,1.31439,-0.0823105,0.0325312,-0.108364,-0.00619244,-0.549179,0.176772,-0.00131463,1.88404,-30.3526,1.21095,24.8087,-1.03119,2.22375,-0.23793,-0.891444,0.0701125,-1.96171,-0.830595,0.418871,0.317308,0.308511,0.671574,0.361971,-1.07606,-0.308409,-0.390252,-0.123888,
-0.0604818,-0.0401443,0.420688,-1.59038,-0.194653,-0.0694328,0.51662,-0.0359544,0.0193659,-0.0405842,-0.070282,-0.929958,0.0825483,-0.0457689,0,0,0,0,0,0,0,-0.0531605,-0.0459812,0.428075,-1.57749,-0.0986912,1.51422,1.31439,-0.0823105,0.0325312,-0.108364,-0.00619244,-0.549179,0.176772,-0.00131463,1.88404,-30.3526,1.21095,24.8087,-1.03119,2.22375,-0.23793,-0.891444,0.0701125,-1.96171,-0.830595,0.418871,0.317308,0.308511,0.671574,0.361971,-1.07606,-0.308409,-0.390252,-0.123888,
-0.0606364,-0.0400748,0.420515,-1.59066,-0.198345,-0.0689707,0.516439,-0.0386528,0.0173644,-0.0431536,-0.071839,-0.922969,0.115547,-0.0450683,0,0,0,0,0,0,0,-0.0531605,-0.0459812,0.428075,-1.57749,-0.0986912,1.51422,1.31439,-0.0823105,0.0325312,-0.108364,-0.00619244,-0.549179,0.176772,-0.00131463,1.88404,-30.3526,1.21095,24.8087,-1.03119,2.22375,-0.23793,-0.439562,-0.904018,-1.31199,-0.46314,0.499042,-0.280339,-0.283047,0.602876,-0.2433,-1.02719,-0.749472,-0.583011,-0.129116,
-0.0608098,-0.040015,0.420325,-1.59096,-0.2019,-0.0683484,0.516263,-0.0433383,0.014964,-0.0476643,-0.0735242,-0.888726,0.155574,-0.0441494,0,0,0,0,0,0,0,-0.0531605,-0.0459812,0.428075,-1.57749,-0.0986912,1.51422,1.31439,-0.0823105,0.0325312,-0.108364,-0.00619244,-0.549179,0.176772,-0.00131463,1.88404,-30.3526,1.21095,24.8087,-1.03119,2.22375,-0.23793,0.182659,-2.61221,-1.28039,0.30064,0.972082,-1.28323,-1.27869,0.878433,-1.26092,-1.23368,-1.23288,-0.809563,-0.129041,
-0.0610127,-0.0399666,0.420105,-1.59126,-0.205164,-0.0675384,0.516091,-0.0507226,0.0121005,-0.054822,-0.0750394,-0.816055,0.202489,-0.0429048,0,0,0,0,0,0,0,-0.0551509,-0.0453052,0.425534,-1.57809,-0.117936,1.51958,1.31433,-0.0472823,0.0203984,-0.0611721,-0.0231857,-0.625016,0.195369,-0.000721553,0.638309,-30.6542,-0.0387439,25.3323,-1.54389,1.87951,-0.197647,0.182659,-2.61221,-1.28039,0.30064,0.972082,-1.28323,-1.27869,0.878433,-1.26092,-1.23368,-1.23288,-0.809563,-0.129041,
-0.061259,-0.0399317,0.419844,-1.59156,-0.207932,-0.0665171,0.515926,-0.0615899,0.00872608,-0.0654141,-0.0759442,-0.691918,0.255329,-0.0412224,0,0,0,0,0,0,0,-0.0551509,-0.0453052,0.425534,-1.57809,-0.117936,1.51958,1.31433,-0.0472823,0.0203984,-0.0611721,-0.0231857,-0.625016,0.195369,-0.000721553,0.638309,-30.6542,-0.0387439,25.3323,-1.54389,1.87951,-0.197647,-0.256024,-3.92526,-1.23691,1.00886,0.662181,-1.87558,-1.86761,0.729631,-1.86892,-1.27617,-1.48619,-0.957633,-0.128007,
-0.0615658,-0.0399123,0.419523,-1.59186,-0.209942,-0.065267,0.515769,-0.0767056,0.00484238,-0.0802213,-0.0756854,-0.50246,0.312521,-0.0392157,0,0,0,0,0,0,0,-0.0551509,-0.0453052,0.425534,-1.57809,-0.117936,1.51958,1.31433,-0.0472823,0.0203984,-0.0611721,-0.0231857,-0.625016,0.195369,-0.000721553,0.638309,-30.6542,-0.0387439,25.3323,-1.54389,1.87951,-0.197647,-0.256024,-3.92526,-1.23691,1.00886,0.662181,-1.87558,-1.86761,0.729631,-1.86892,-1.27617,-1.48619,-0.957633,-0.128007,
-0.0619529,-0.0399098,0.419123,-1.59216,-0.210876,-0.0637809,0.51561,-0.0967652,0.000630842,-0.0999412,-0.0733891,-0.233605,0.371515,-0.0397792,0,0,0,0,0,0,0,-0.0551509,-0.0453052,0.425534,-1.57809,-0.117936,1.51958,1.31433,-0.0472823,0.0203984,-0.0611721,-0.0231857,-0.625016,0.195369,-0.000721553,0.638309,-30.6542,-0.0387439,25.3323,-1.54389,1.87951,-0.197647,-1.00117,-4.51268,-1.54384,1.29007,0.258286,-2.03023,-2.0232,0.578804,-2.02724,-1.36944,-1.57739,-1.02211,-0.130183,
-0.062379,-0.0399021,0.41868,-1.59242,-0.211009,-0.062132,0.515455,-0.106514,0.00192979,-0.110747,-0.0657599,-0.0332734,0.412245,-0.038873,0,0,0,0,0,0,0,-0.0551509,-0.0453052,0.425534,-1.57809,-0.117936,1.51958,1.31433,-0.0472823,0.0203984,-0.0611721,-0.0231857,-0.625016,0.195369,-0.000721553,0.638309,-30.6542,-0.0387439,25.3323,-1.54389,1.87951,-0.197647,-1.00117,-4.51268,-1.54384,1.29007,0.258286,-2.03023,-2.0232,0.578804,-2.02724,-1.36944,-1.57739,-1.02211,-0.130183,
-0.0628209,-0.0398838,0.418218,-1.59266,-0.210535,-0.0603573,0.515302,-0.110494,0.00456916,-0.115467,-0.0586867,0.118591,0.443669,-0.0382604,0,0,0,0,0,0,0,-0.0551509,-0.0453052,0.425534,-1.57809,-0.117936,1.51958,1.31433,-0.0472823,0.0203984,-0.0611721,-0.0231857,-0.625016,0.195369,-0.000721553,0.638309,-30.6542,-0.0387439,25.3323,-1.54389,1.87951,-0.197647,-0.862489,-4.36272,-2.29625,0.936079,0.667242,-1.98124,-1.97363,0.924434,-1.96446,-1.70481,-1.6881,-1.05122,-0.135451,
-0.0632643,-0.0398547,0.417753,-1.59287,-0.209594,-0.058481,0.51515,-0.110835,0.00727482,-0.116293,-0.0533104,0.235255,0.469081,-0.0378969,0,0,0,0,0,0,0,-0.0563727,-0.0448189,0.42423,-1.57896,-0.138174,1.52674,1.31428,-0.0407477,0.000316045,-0.0478321,-0.03565,-0.545834,0.25533,-0.0035826,-0.476498,-30.0551,-1.0385,25.9076,-0.457157,2.61559,-0.130813,-0.642846,-3.65059,-2.06772,0.578321,0.667805,-1.66037,-1.65319,0.845038,-1.63765,-1.54304,-1.58541,-0.929497,-0.138322,
-0.0636998,-0.039816,0.417294,-1.59307,-0.20829,-0.056521,0.514999,-0.108881,0.00967316,-0.114648,-0.0495113,0.325965,0.489985,-0.0376926,0,0,0,0,0,0,0,-0.0563727,-0.0448189,0.42423,-1.57896,-0.138174,1.52674,1.31428,-0.0407477,0.000316045,-0.0478321,-0.03565,-0.545834,0.25533,-0.0035826,-0.476498,-30.0551,-1.0385,25.9076,-0.457157,2.61559,-0.130813,-0.642846,-3.65059,-2.06772,0.578321,0.667805,-1.66037,-1.65319,0.845038,-1.63765,-1.54304,-1.58541,-0.929497,-0.138322,
-0.0641219,-0.0397693,0.416849,-1.59325,-0.206701,-0.0544919,0.514849,-0.105528,0.0116768,-0.111481,-0.0469223,0.397321,0.507276,-0.0375904,0,0,0,0,0,0,0,-0.0563727,-0.0448189,0.42423,-1.57896,-0.138174,1.52674,1.31428,-0.0407477,0.000316045,-0.0478321,-0.03565,-0.545834,0.25533,-0.0035826,-0.476498,-30.0551,-1.0385,25.9076,-0.457157,2.61559,-0.130813,-0.843818,-3.98429,-1.39997,1.07863,0.167992,-1.77463,-1.76762,0.434825,-1.76937,-1.14435,-1.48285,-0.814841,-0.149571,
-0.0645274,-0.0397161,0.416419,-1.59344,-0.204884,-0.0524055,0.514699,-0.101381,0.0132912,-0.107437,-0.0451999,0.454105,0.521597,-0.0375541,0,0,0,0,0,0,0,-0.0563727,-0.0448189,0.42423,-1.57896,-0.138174,1.52674,1.31428,-0.0407477,0.000316045,-0.0478321,-0.03565,-0.545834,0.25533,-0.0035826,-0.476498,-30.0551,-1.0385,25.9076,-0.457157,2.61559,-0.130813,-0.843818,-3.98429,-1.39997,1.07863,0.167992,-1.77463,-1.76762,0.434825,-1.76937,-1.14435,-1.48285,-0.814841,-0.149571,
-0.0695091,-0.0304847,0.411231,-1.5926,-0.265455,-0.218584,0.511181,-0.147534,0.117952,-0.15682,-0.115044,-1.19057,-0.69257,-0.0862526,0,0,0,0,0,0,0,-0.0563727,-0.0448189,0.42423,-1.57896,-0.138174,1.52674,1.31428,-0.0407477,0.000316045,-0.0478321,-0.03565,-0.545834,0.25533,-0.0035826,-0.476498,-30.0551,-1.0385,25.9076,-0.457157,2.61559,-0.130813,-0.257147,-4.54244,-1.28138,1.6992,0.565161,-2.16966,-2.15601,0.661917,-2.18873,-1.0799,-1.31123,-0.766782,-0.149385,
-0.0755557,-0.0349881,0.403867,-1.59032,-0.208349,-0.0792815,0.518197,-0.124713,0.0707241,-0.132335,-0.0666945,0.28394,-0.169477,-0.0506889,0,0,0,0,0,0,0,-0.0581713,-0.0448713,0.422223,-1.58056,-0.144747,1.53635,1.31423,-0.06905,-0.0018212,-0.062497,-0.0504948,-0.0160275,0.316134,-0.00377807,-0.452694,-29.5552,-1.23686,26.8518,1.11297,3.33153,-0.311172,-0.257147,-4.54244,-1.28138,1.6992,0.565161,-2.16966,-2.15601,0.661917,-2.18873,-1.0799,-1.31123,-0.766782,-0.149385,
-0.0760502,-0.0347093,0.403342,-1.59059,-0.207134,-0.0799966,0.517996,-0.123635,0.0696848,-0.131244,-0.0661661,0.30367,-0.178781,-0.0502257,0,0,0,0,0,0,0,-0.0581713,-0.0448713,0.422223,-1.58056,-0.144747,1.53635,1.31423,-0.06905,-0.0018212,-0.062497,-0.0504948,-0.0160275,0.316134,-0.00377807,-0.452694,-29.5552,-1.23686,26.8518,1.11297,3.33153,-0.311172,-0.291533,-3.81677,-0.819511,1.73602,0.306203,-1.77318,-1.7543,0.431127,-1.81006,-0.702302,-0.855358,-0.540333,-0.151491,
-0.076541,-0.034435,0.402821,-1.59085,-0.205834,-0.0807505,0.517797,-0.122689,0.0685765,-0.130285,-0.0656166,0.324977,-0.188465,-0.0497689,0,0,0,0,0,0,0,-0.0581713,-0.0448713,0.422223,-1.58056,-0.144747,1.53635,1.31423,-0.06905,-0.0018212,-0.062497,-0.0504948,-0.0160275,0.316134,-0.00377807,-0.452694,-29.5552,-1.23686,26.8518,1.11297,3.33153,-0.311172,-0.0666847,-1.29939,-0.24067,0.670947,0.0557884,-0.497474,-0.474378,0.0925467,-0.529737,-0.145941,-0.240137,-0.087496,-0.150521,
-0.0770285,-0.0341655,0.402303,-1.59111,-0.204442,-0.0815444,0.5176,-0.121871,0.0673947,-0.129453,-0.0650484,0.348149,-0.198485,-0.0493199,0,0,0,0,0,0,0,-0.0581713,-0.0448713,0.422223,-1.58056,-0.144747,1.53635,1.31423,-0.06905,-0.0018212,-0.062497,-0.0504948,-0.0160275,0.316134,-0.00377807,-0.452694,-29.5552,-1.23686,26.8518,1.11297,3.33153,-0.311172,-0.0666847,-1.29939,-0.24067,0.670947,0.0557884,-0.497474,-0.474378,0.0925467,-0.529737,-0.145941,-0.240137,-0.087496,-0.150521,
-0.0775132,-0.0339009,0.401788,-1.59137,-0.202948,-0.0823795,0.517404,-0.121176,0.0661329,-0.128747,-0.0644658,0.3735,-0.208774,-0.0488819,0,0,0,0,0,0,0,-0.0581713,-0.0448713,0.422223,-1.58056,-0.144747,1.53635,1.31423,-0.06905,-0.0018212,-0.062497,-0.0504948,-0.0160275,0.316134,-0.00377807,-0.452694,-29.5552,-1.23686,26.8518,1.11297,3.33153,-0.311172,0.368647,0.482999,-0.88759,-0.283385,0.585078,0.363547,0.377367,0.454386,0.35671,-0.243602,0.193429,0.170759,-0.154901,
-0.0779956,-0.0336418,0.401276,-1.59163,-0.201342,-0.0832565,0.517211,-0.120605,0.0647835,-0.128164,-0.0638754,0.401366,-0.219239,-0.0484557,0,0,0,0,0,0,0,-0.0581713,-0.0448713,0.422223,-1.58056,-0.144747,1.53635,1.31423,-0.06905,-0.0018212,-0.062497,-0.0504948,-0.0160275,0.316134,-0.00377807,-0.452694,-29.5552,-1.23686,26.8518,1.11297,3.33153,-0.311172,0.368647,0.482999,-0.88759,-0.283385,0.585078,0.363547,0.377367,0.454386,0.35671,-0.243602,0.193429,0.170759,-0.154901,
-0.0784762,-0.0333885,0.400765,-1.59188,-0.199614,-0.0841754,0.517018,-0.120156,0.0633367,-0.127704,-0.0632883,0.432113,-0.229737,-0.0480443,0,0,0,0,0,0,0,-0.0604547,-0.0447187,0.41968,-1.58165,-0.147801,1.53969,1.31407,-0.0812492,0.0102144,-0.0929562,-0.0236029,-0.10328,-0.0446846,-0.00236574,-0.500302,-28.9324,-1.21306,26.4789,1.03973,2.9406,-0.103348,0.578427,1.37596,-0.779805,-0.733467,0.829774,0.765027,0.781727,0.619204,0.762437,-0.299946,0.426788,0.124312,-0.159328,
-0.0789555,-0.0331413,0.400255,-1.59213,-0.197749,-0.0851356,0.516828,-0.11983,0.0617816,-0.127368,-0.0627214,0.466131,-0.240056,-0.0476525,0,0,0,0,0,0,0,-0.0604547,-0.0447187,0.41968,-1.58165,-0.147801,1.53969,1.31407,-0.0812492,0.0102144,-0.0929562,-0.0236029,-0.10328,-0.0446846,-0.00236574,-0.500302,-28.9324,-1.21306,26.4789,1.03973,2.9406,-0.103348,0.578427,1.37596,-0.779805,-0.733467,0.829774,0.765027,0.781727,0.619204,0.762437,-0.299946,0.426788,0.124312,-0.159328,
-0.079434,-0.0329009,0.399747,-1.59238,-0.195734,-0.0861352,0.516639,-0.119629,0.0601054,-0.127156,-0.0622009,0.503825,-0.249883,-0.0472859,0,0,0,0,0,0,0,-0.0604547,-0.0447187,0.41968,-1.58165,-0.147801,1.53969,1.31407,-0.0812492,0.0102144,-0.0929562,-0.0236029,-0.10328,-0.0446846,-0.00236574,-0.500302,-28.9324,-1.21306,26.4789,1.03973,2.9406,-0.103348,1.46271,3.05542,-2.44269,-1.84766,2.53646,1.43286,1.45706,1.99372,1.45158,-1.24092,0.934519,-0.0430017,-0.16044,
-0.0799123,-0.0326677,0.399238,-1.59263,-0.193552,-0.0871702,0.516451,-0.119553,0.0582947,-0.12707,-0.0617658,0.545599,-0.258753,-0.0469523,0,0,0,0,0,0,0,-0.0604547,-0.0447187,0.41968,-1.58165,-0.147801,1.53969,1.31407,-0.0812492,0.0102144,-0.0929562,-0.0236029,-0.10328,-0.0446846,-0.00236574,-0.500302,-28.9324,-1.21306,26.4789,1.03973,2.9406,-0.103348,-0.245345,3.4061,-2.60408,-1.84498,1.54818,1.92515,1.95047,1.58159,1.9358,-1.26197,1.28119,-0.139073,-0.162465,
-0.0803906,-0.0324424,0.39873,-1.59287,-0.191184,-0.0882341,0.516264,-0.119597,0.0563351,-0.127104,-0.061474,0.591808,-0.265991,-0.0466636,0,0,0,0,0,0,0,-0.0604547,-0.0447187,0.41968,-1.58165,-0.147801,1.53969,1.31407,-0.0812492,0.0102144,-0.0929562,-0.0236029,-0.10328,-0.0446846,-0.00236574,-0.500302,-28.9324,-1.21306,26.4789,1.03973,2.9406,-0.103348,-0.245345,3.4061,-2.60408,-1.84498,1.54818,1.92515,1.95047,1.58159,1.9358,-1.26197,1.28119,-0.139073,-0.162465,
-0.0808696,-0.0322255,0.398221,-1.59312,-0.188614,-0.0893166,0.516079,-0.119744,0.0542142,-0.127243,-0.0614076,0.642673,-0.270624,-0.0464321,0,0,0,0,0,0,0,-0.063749,-0.0448537,0.415778,-1.58185,-0.149251,1.53702,1.31404,-0.110493,0.00108497,-0.133949,-0.000563335,-0.0103125,-0.101163,-0.00127511,0.717655,-27.7818,-0.0863513,24.6103,1.3327,2.29699,-0.143631,-0.377292,2.87533,-1.99279,-1.38039,1.22627,1.66699,1.69573,1.32203,1.6611,-1.04921,1.25878,-0.193575,-0.163388,
-0.0813494,-0.0320178,0.397711,-1.59336,-0.185821,-0.0904017,0.515893,-0.119953,0.0519246,-0.127446,-0.0616807,0.698115,-0.271278,-0.0462823,0,0,0,0,0,0,0,-0.063749,-0.0448537,0.415778,-1.58185,-0.149251,1.53702,1.31404,-0.110493,0.00108497,-0.133949,-0.000563335,-0.0103125,-0.101163,-0.00127511,0.717655,-27.7818,-0.0863513,24.6103,1.3327,2.29699,-0.143631,-0.377292,2.87533,-1.99279,-1.38039,1.22627,1.66699,1.69573,1.32203,1.6611,-1.04921,1.25878,-0.193575,-0.163388,
-0.08183,-0.0318199,0.397201,-1.59361,-0.182792,-0.091466,0.515708,-0.120134,0.0494718,-0.127626,-0.062443,0.757443,-0.266072,-0.0462495,0,0,0,0,0,0,0,-0.063749,-0.0448537,0.415778,-1.58185,-0.149251,1.53702,1.31404,-0.110493,0.00108497,-0.133949,-0.000563335,-0.0103125,-0.101163,-0.00127511,0.717655,-27.7818,-0.0863513,24.6103,1.3327,2.29699,-0.143631,-1.30839,2.89954,-1.19321,-1.30553,0.29303,1.82262,1.84467,0.70468,1.81769,-0.767925,1.25586,-0.301047,-0.161377,
-0.0823104,-0.0316324,0.39669,-1.59387,-0.179516,-0.0924761,0.515523,-0.120105,0.0468874,-0.127604,-0.0638778,0.818848,-0.252527,-0.0463838,0,0,0,0,0,0,0,-0.063749,-0.0448537,0.415778,-1.58185,-0.149251,1.53702,1.31404,-0.110493,0.00108497,-0.133949,-0.000563335,-0.0103125,-0.101163,-0.00127511,0.717655,-27.7818,-0.0863513,24.6103,1.3327,2.29699,-0.143631,-1.30839,2.89954,-1.19321,-1.30553,0.29303,1.82262,1.84467,0.70468,1.81769,-0.767925,1.25586,-0.301047,-0.161377,
-0.0827885,-0.0314554,0.396182,-1.59413,-0.176002,-0.0933864,0.515336,-0.119529,0.04425,-0.127048,-0.0661825,0.878628,-0.227569,-0.0467674,0,0,0,0,0,0,0,-0.063749,-0.0448537,0.415778,-1.58185,-0.149251,1.53702,1.31404,-0.110493,0.00108497,-0.133949,-0.000563335,-0.0103125,-0.101163,-0.00127511,0.717655,-27.7818,-0.0863513,24.6103,1.3327,2.29699,-0.143631,-0.588043,3.55192,-1.36036,-1.82607,0.996089,2.00199,2.02199,1.14564,2.01365,-1.00833,1.27852,-0.393511,-0.161956,
-0.083259,-0.0312882,0.395681,-1.59441,-0.17229,-0.0941377,0.515146,-0.117621,0.0418021,-0.125197,-0.0694526,0.927944,-0.187824,-0.0475085,0,0,0,0,0,0,0,-0.0677184,-0.0447681,0.410726,-1.58213,-0.147263,1.53309,1.31401,-0.131521,-0.00310201,-0.163952,-0.00432353,0.133525,-0.126224,-0.000508346,0.816837,-28.73,0.112013,25.134,1.12487,2.37023,-0.157364,-0.924314,3.61622,-1.85194,-1.98988,1.04782,2.08922,2.10457,1.29773,2.11249,-1.27214,1.27035,-0.498612,-0.164368,
-0.0837155,-0.03113,0.395194,-1.59471,-0.168439,-0.0946556,0.51495,-0.114135,0.0395351,-0.121749,-0.0739527,0.962628,-0.129484,-0.0488279,0,0,0,0,0,0,0,-0.0677184,-0.0447681,0.410726,-1.58213,-0.147263,1.53309,1.31401,-0.131521,-0.00310201,-0.163952,-0.00432353,0.133525,-0.126224,-0.000508346,0.816837,-28.73,0.112013,25.134,1.12487,2.37023,-0.157364,-0.924314,3.61622,-1.85194,-1.98988,1.04782,2.08922,2.10457,1.29773,2.11249,-1.27214,1.27035,-0.498612,-0.164368,
-0.0841461,-0.0309777,0.394733,-1.59502,-0.164572,-0.0948575,0.514749,-0.107643,0.0380811,-0.115336,-0.0791346,0.966828,-0.0504772,-0.0504013,0,0,0,0,0,0,0,-0.0677184,-0.0447681,0.410726,-1.58213,-0.147263,1.53309,1.31401,-0.131521,-0.00310201,-0.163952,-0.00432353,0.133525,-0.126224,-0.000508346,0.816837,-28.73,0.112013,25.134,1.12487,2.37023,-0.157364,-1.30325,3.21809,-1.6545,-1.69327,0.724064,1.94903,1.96384,1.11071,1.96547,-1.20646,1.24942,-0.558525,-0.167014,
-0.0845337,-0.0308249,0.394314,-1.59536,-0.16087,-0.0946625,0.514571,-0.0969021,0.0381992,-0.104667,-0.0838319,0.925582,0.0487616,-0.0444265,0,0,0,0,0,0,0,-0.0677184,-0.0447681,0.410726,-1.58213,-0.147263,1.53309,1.31401,-0.131521,-0.00310201,-0.163952,-0.00432353,0.133525,-0.126224,-0.000508346,0.816837,-28.73,0.112013,25.134,1.12487,2.37023,-0.157364,-1.30325,3.21809,-1.6545,-1.69327,0.724064,1.94903,1.96384,1.11071,1.96547,-1.20646,1.24942,-0.558525,-0.167014,
-0.0848869,-0.030667,0.393931,-1.59569,-0.157286,-0.0941549,0.514394,-0.0882931,0.0394811,-0.0958025,-0.08281,0.895891,0.126898,-0.0443316,0,0,0,0,0,0,0,-0.0677184,-0.0447681,0.410726,-1.58213,-0.147263,1.53309,1.31401,-0.131521,-0.00310201,-0.163952,-0.00432353,0.133525,-0.126224,-0.000508346,0.816837,-28.73,0.112013,25.134,1.12487,2.37023,-0.157364,-0.774004,1.95068,-0.801974,-0.730714,0.712469,1.2033,1.22239,0.961804,1.19149,-0.899255,1.11766,-0.578605,-0.169974,
-0.0852125,-0.0305054,0.393576,-1.59601,-0.153786,-0.0933927,0.514215,-0.0813936,0.0404022,-0.0887218,-0.0799998,0.875116,0.190564,-0.0446182,0,0,0,0,0,0,0,-0.0677184,-0.0447681,0.410726,-1.58213,-0.147263,1.53309,1.31401,-0.131521,-0.00310201,-0.163952,-0.00432353,0.133525,-0.126224,-0.000508346,0.816837,-28.73,0.112013,25.134,1.12487,2.37023,-0.157364,-0.774004,1.95068,-0.801974,-0.730714,0.712469,1.2033,1.22239,0.961804,1.19149,-0.899255,1.11766,-0.578605,-0.169974,
