PerkyPenguin/Analysis-on-Approximated-Derivatives/Code_and_Data/PaperData/Real_Robot/Scene_2/contact_change/12/trajectory.csv
Commanded Joint 0 Position,Commanded Joint 1 Position,Commanded Joint 2 Position,Commanded Joint 3 Position,Commanded Joint 4 Position,Commanded Joint 5 Position,Commanded Joint 6 Position,Commanded Joint 0 Velocity,Commanded Joint 1 Velocity,Commanded Joint 2 Velocity,Commanded Joint 3 Velocity,Commanded Joint 4 Velocity,Commanded Joint 5 Velocity,Commanded Joint 6 Velocity,Commanded Joint 0 Torque,Commanded Joint 1 Torque,Commanded Joint 2 Torque,Commanded Joint 3 Torque,Commanded Joint 4 Torque,Commanded Joint 5 Torque,Commanded Joint 6 Torque,Actual Joint 0 Position,Actual Joint 1 Position,Actual Joint 2 Position,Actual Joint 3 Position,Actual Joint 4 Position,Actual Joint 5 Position,Actual Joint 6 Position,Actual Joint 0 Velocity,Actual Joint 1 Velocity,Actual Joint 2 Velocity,Actual Joint 3 Velocity,Actual Joint 4 Velocity,Actual Joint 5 Velocity,Actual Joint 6 Velocity,Actual Joint 0 Torque,Actual Joint 1 Torque,Actual Joint 2 Torque,Actual Joint 3 Torque,Actual Joint 4 Torque,Actual Joint 5 Torque,Actual Joint 6 Torque,EE ext force 0,EE ext force 1,EE ext force 2,EE ext force 3,EE ext force 4,EE ext force 5,joint ext torque 0,joint ext torque 1,joint ext torque 2,joint ext torque 3,joint ext torque 4,joint ext torque 5,joint ext torque 6,
0.0219005,-0.0518432,0.514619,-1.55584,0.0467533,-0.0129583,0.533394,0.0113239,0.0297084,0.0154794,-0.143324,-0.076797,0.198962,-0.00128084,0,0,0,0,0,0,0,0.0218177,-0.0519671,0.514504,-1.55441,0.0473838,1.55586,1.31881,0.00101403,-0.0001286,0.000695078,-0.000140572,-0.0123318,3.94285e-05,0.00075445,0.182071,-27.4565,-0.736986,26.8042,0.898739,3.10631,0.0706026,1.63122,1.70671,1.64673,-0.859656,1.01234,0.249859,0.247492,0.474852,0.266449,0.067611,0.240728,-0.319102,0.0853376,
0.0219595,-0.0516432,0.514697,-1.55646,0.0463739,-0.0121302,0.533388,0.0147577,0.0500088,0.0196659,-0.154154,-0.0948428,0.207037,-0.00136454,0,0,0,0,0,0,0,0.0218177,-0.0519671,0.514504,-1.55441,0.0473838,1.55586,1.31881,0.00101403,-0.0001286,0.000695078,-0.000140572,-0.0123318,3.94285e-05,0.00075445,0.182071,-27.4565,-0.736986,26.8042,0.898739,3.10631,0.0706026,1.63122,1.70671,1.64673,-0.859656,1.01234,0.249859,0.247492,0.474852,0.266449,0.067611,0.240728,-0.319102,0.0853376,
0.0218195,-0.0519718,0.514507,-1.55441,0.04728,-0.0149376,0.53341,-9.65729e-05,-0.000265784,-2.41423e-05,-0.000110673,-0.00427053,-0.000145224,-1.43963e-05,0,0,0,0,0,0,0,0.0218145,-0.0519698,0.5145,-1.55443,0.0473434,1.55586,1.31881,1.63933e-06,-0.00113471,-0.00111661,-0.00430975,-0.00635867,-0.00381141,0.00148604,0.25745,-27.3335,-0.637804,25.8798,1.08825,3.27843,0.050461,1.70703,1.74691,1.672,-0.88576,1.05627,0.24807,0.250092,0.493958,0.261071,0.0707157,0.237094,-0.316528,0.0839408,
0.0218189,-0.0519727,0.514507,-1.55441,0.0472664,-0.0149383,0.53341,-0.000155425,-0.000240963,-8.45532e-05,-6.04608e-05,-0.00339724,-0.000176676,-8.71575e-06,0,0,0,0,0,0,0,0.0218145,-0.0519698,0.5145,-1.55443,0.0473434,1.55586,1.31881,1.63933e-06,-0.00113471,-0.00111661,-0.00430975,-0.00635867,-0.00381141,0.00148604,0.25745,-27.3335,-0.637804,25.8798,1.08825,3.27843,0.050461,1.70703,1.74691,1.672,-0.88576,1.05627,0.24807,0.250092,0.493958,0.261071,0.0707157,0.237094,-0.316528,0.0839408,
0.0218181,-0.0519736,0.514506,-1.55442,0.0472555,-0.0149391,0.53341,-0.000189089,-0.000221025,-0.00011809,-2.46363e-05,-0.00273782,-0.000191001,-4.8954e-06,0,0,0,0,0,0,0,0.0218145,-0.0519698,0.5145,-1.55443,0.0473434,1.55586,1.31881,1.63933e-06,-0.00113471,-0.00111661,-0.00430975,-0.00635867,-0.00381141,0.00148604,0.25745,-27.3335,-0.637804,25.8798,1.08825,3.27843,0.050461,1.58194,1.40494,1.60816,-0.636343,0.954401,0.12672,0.132472,0.431057,0.129409,0.103214,0.224062,-0.286781,0.0842363,
0.0218173,-0.0519745,0.514506,-1.55442,0.0472465,-0.0149399,0.53341,-0.000205737,-0.000206017,-0.000133559,3.81372e-07,-0.00223507,-0.000195562,-2.31421e-06,0,0,0,0,0,0,0,0.0218145,-0.0519698,0.5145,-1.55443,0.0473434,1.55586,1.31881,1.63933e-06,-0.00113471,-0.00111661,-0.00430975,-0.00635867,-0.00381141,0.00148604,0.25745,-27.3335,-0.637804,25.8798,1.08825,3.27843,0.050461,1.58194,1.40494,1.60816,-0.636343,0.954401,0.12672,0.132472,0.431057,0.129409,0.103214,0.224062,-0.286781,0.0842363,
0.0218165,-0.0519752,0.514505,-1.55441,0.0472392,-0.0149406,0.53341,-0.000211002,-0.000195399,-0.000137026,1.7681e-05,-0.00184797,-0.000195402,-5.76677e-07,0,0,0,0,0,0,0,0.0218145,-0.0519698,0.5145,-1.55443,0.0473434,1.55586,1.31881,1.63933e-06,-0.00113471,-0.00111661,-0.00430975,-0.00635867,-0.00381141,0.00148604,0.25745,-27.3335,-0.637804,25.8798,1.08825,3.27843,0.050461,0.445566,0.88939,0.885485,-0.429311,0.374349,0.211351,0.216081,0.228664,0.213405,-0.0505132,0.218224,-0.300518,0.0851272,
0.0218156,-0.051976,0.514505,-1.55441,0.047233,-0.0149414,0.53341,-0.000208795,-0.000188499,-0.000132695,2.95918e-05,-0.00154683,-0.000193657,5.80344e-07,0,0,0,0,0,0,0,0.0218145,-0.0519698,0.5145,-1.55443,0.0473434,1.55586,1.31881,1.63933e-06,-0.00113471,-0.00111661,-0.00430975,-0.00635867,-0.00381141,0.00148604,0.25745,-27.3335,-0.637804,25.8798,1.08825,3.27843,0.050461,0.989231,1.63502,0.469919,-1.07557,0.925843,0.394983,0.396148,0.60759,0.4203,-0.268738,0.226218,-0.276926,0.0851965,
0.0223316,-0.0520779,0.51501,-1.55396,0.0333601,-0.023434,0.533366,0.00556107,-0.00597148,0.00568678,0.00223199,-0.372178,-0.235899,-0.00106278,0,0,0,0,0,0,0,0.0217994,-0.052122,0.514486,-1.55514,0.0473054,1.55671,1.31881,-0.000745496,-0.00222304,-0.00102258,-0.00436561,-0.0151484,0.00150189,0.00120066,0.412174,-27.4327,-0.510851,26.9788,1.32629,3.30498,0.0641939,0.989231,1.63502,0.469919,-1.07557,0.925843,0.394983,0.396148,0.60759,0.4203,-0.268738,0.226218,-0.276926,0.0851965,
0.022255,-0.052225,0.514937,-1.55473,0.033889,-0.0222106,0.53337,0.00491567,-0.0055742,0.00508447,0.00199256,-0.353892,-0.224713,-0.000956641,0,0,0,0,0,0,0,0.0217994,-0.052122,0.514486,-1.55514,0.0473054,1.55671,1.31881,-0.000745496,-0.00222304,-0.00102258,-0.00436561,-0.0151484,0.00150189,0.00120066,0.412174,-27.4327,-0.510851,26.9788,1.32629,3.30498,0.0641939,1.68051,1.77536,0.88856,-1.05236,1.24259,0.26175,0.261843,0.692503,0.284548,-0.126175,0.225892,-0.218966,0.0864399,
0.0222708,-0.0522463,0.514953,-1.55472,0.0324607,-0.023122,0.533366,0.00396114,-0.00533027,0.0041309,0.00138623,-0.357088,-0.227861,-0.000936452,0,0,0,0,0,0,0,0.0217994,-0.052122,0.514486,-1.55514,0.0473054,1.55671,1.31881,-0.000745496,-0.00222304,-0.00102258,-0.00436561,-0.0151484,0.00150189,0.00120066,0.412174,-27.4327,-0.510851,26.9788,1.32629,3.30498,0.0641939,1.68051,1.77536,0.88856,-1.05236,1.24259,0.26175,0.261843,0.692503,0.284548,-0.126175,0.225892,-0.218966,0.0864399,
0.0222831,-0.0522664,0.514966,-1.55472,0.031023,-0.024043,0.533363,0.00307429,-0.00502552,0.00324336,0.000857968,-0.359407,-0.230244,-0.000916488,0,0,0,0,0,0,0,0.0217994,-0.052122,0.514486,-1.55514,0.0473054,1.55671,1.31881,-0.000745496,-0.00222304,-0.00102258,-0.00436561,-0.0151484,0.00150189,0.00120066,0.412174,-27.4327,-0.510851,26.9788,1.32629,3.30498,0.0641939,1.80818,1.79943,1.10317,-1.00726,1.25057,0.235388,0.23406,0.656758,0.256918,-0.0455929,0.232415,-0.205969,0.087846,
0.0222921,-0.0522851,0.514976,-1.55472,0.029579,-0.0249709,0.533359,0.00225564,-0.00468138,0.00242294,0.000396152,-0.36101,-0.231988,-0.000897047,0,0,0,0,0,0,0,0.0217994,-0.052122,0.514486,-1.55514,0.0473054,1.55671,1.31881,-0.000745496,-0.00222304,-0.00102258,-0.00436561,-0.0151484,0.00150189,0.00120066,0.412174,-27.4327,-0.510851,26.9788,1.32629,3.30498,0.0641939,1.85018,2.41401,0.885779,-1.51594,1.37534,0.501096,0.499518,0.774248,0.538028,-0.163552,0.248051,-0.211483,0.0890889,
0.0222982,-0.0523024,0.514983,-1.55472,0.0281309,-0.0259038,0.533356,0.00150364,-0.0043144,0.00166851,-8.5022e-06,-0.362025,-0.233203,-0.000878291,0,0,0,0,0,0,0,0.0218681,-0.0521164,0.51455,-1.55515,0.0458034,1.55656,1.31881,0.00343182,0.000211625,0.00382559,0.00952113,-0.132244,-0.00929279,0.000896092,-0.325741,-27.5597,-1.21306,26.1298,0.336605,3.07244,0.0706026,1.85018,2.41401,0.885779,-1.51594,1.37534,0.501096,0.499518,0.774248,0.538028,-0.163552,0.248051,-0.211483,0.0890889,
0.0227199,-0.0522252,0.515329,-1.55332,0.0100905,-0.0524013,0.532924,0.00521004,-0.0122334,0.00427324,0.00618542,-1.12017,-1.16087,-0.0110773,0,0,0,0,0,0,0,0.0218681,-0.0521164,0.51455,-1.55515,0.0458034,1.55656,1.31881,0.00343182,0.000211625,0.00382559,0.00952113,-0.132244,-0.00929279,0.000896092,-0.325741,-27.5597,-1.21306,26.1298,0.336605,3.07244,0.0706026,1.46325,2.22029,1.11119,-1.39338,0.947909,0.518218,0.516511,0.474491,0.552543,-0.0301487,0.156273,-0.209438,0.0887509,
0.0227424,-0.0522928,0.515355,-1.55343,0.0069968,-0.049368,0.532969,0.00461525,-0.0120836,0.00378534,0.00598323,-1.13223,-1.06496,-0.0099609,0,0,0,0,0,0,0,0.0218681,-0.0521164,0.51455,-1.55515,0.0458034,1.55656,1.31881,0.00343182,0.000211625,0.00382559,0.00952113,-0.132244,-0.00929279,0.000896092,-0.325741,-27.5597,-1.21306,26.1298,0.336605,3.07244,0.0706026,1.46325,2.22029,1.11119,-1.39338,0.947909,0.518218,0.516511,0.474491,0.552543,-0.0301487,0.156273,-0.209438,0.0887509,
0.0227485,-0.0523341,0.515357,-1.55342,0.00239211,-0.0536936,0.53293,0.00151076,-0.0103073,0.000727534,0.00201913,-1.15117,-1.08141,-0.00982454,0,0,0,0,0,0,0,0.0218681,-0.0521164,0.51455,-1.55515,0.0458034,1.55656,1.31881,0.00343182,0.000211625,0.00382559,0.00952113,-0.132244,-0.00929279,0.000896092,-0.325741,-27.5597,-1.21306,26.1298,0.336605,3.07244,0.0706026,1.58197,2.12229,1.56608,-1.32081,0.842385,0.43897,0.442923,0.328793,0.466093,0.0987461,0.0490232,-0.24523,0.0857744,
0.0227429,-0.0523673,0.515349,-1.55343,-0.00227549,-0.0580669,0.532891,-0.00139271,-0.00831295,-0.00213859,-0.00144572,-1.1669,-1.09331,-0.0096886,0,0,0,0,0,0,0,0.0218681,-0.0521164,0.51455,-1.55515,0.0458034,1.55656,1.31881,0.00343182,0.000211625,0.00382559,0.00952113,-0.132244,-0.00929279,0.000896092,-0.325741,-27.5597,-1.21306,26.1298,0.336605,3.07244,0.0706026,1.58197,2.12229,1.56608,-1.32081,0.842385,0.43897,0.442923,0.328793,0.466093,0.0987461,0.0490232,-0.24523,0.0857744,
0.0227265,-0.0523921,0.51533,-1.55345,-0.00699551,-0.0624726,0.532853,-0.00409368,-0.00620166,-0.00480998,-0.00447286,-1.18,-1.10143,-0.00955385,0,0,0,0,0,0,0,0.0218681,-0.0521164,0.51455,-1.55515,0.0458034,1.55656,1.31881,0.00343182,0.000211625,0.00382559,0.00952113,-0.132244,-0.00929279,0.000896092,-0.325741,-27.5597,-1.21306,26.1298,0.336605,3.07244,0.0706026,2.22175,3.3458,1.64131,-2.19581,1.31165,0.811127,0.821752,0.596077,0.855483,0.0177748,0.0886572,-0.238686,0.0878625,
0.0227002,-0.0524083,0.515301,-1.55348,-0.0117593,-0.0668983,0.532815,-0.0065958,-0.0040495,-0.00728917,-0.00711469,-1.19095,-1.10642,-0.00942069,0,0,0,0,0,0,0,0.0220283,-0.0521423,0.514766,-1.55495,0.0376715,1.55425,1.31881,0.0116335,-0.0037184,0.0144452,0.0319931,-0.519899,-0.246727,-0.000177621,-1.08349,-27.282,-1.96288,24.6619,-0.793155,2.18438,0.0706026,3.72276,3.86661,1.96075,-2.54888,2.23324,0.607073,0.617478,1.02239,0.661022,0.0338513,0.0077885,-0.172613,0.0965388,
0.0226645,-0.052416,0.515262,-1.55351,-0.0165597,-0.0713335,0.532778,-0.00890599,-0.00191281,-0.00958222,-0.00941626,-1.2001,-1.1088,-0.00928933,0,0,0,0,0,0,0,0.0220283,-0.0521423,0.514766,-1.55495,0.0376715,1.55425,1.31881,0.0116335,-0.0037184,0.0144452,0.0319931,-0.519899,-0.246727,-0.000177621,-1.08349,-27.282,-1.96288,24.6619,-0.793155,2.18438,0.0706026,3.72276,3.86661,1.96075,-2.54888,2.23324,0.607073,0.617478,1.02239,0.661022,0.0338513,0.0077885,-0.172613,0.0965388,
0.0169956,-0.0510997,0.509235,-1.55707,0.00951687,-0.0569153,0.528747,-0.164151,0.0538291,-0.173563,-0.0847437,-1.04556,-1.22599,-0.0917687,0,0,0,0,0,0,0,0.0220283,-0.0521423,0.514766,-1.55495,0.0376715,1.55425,1.31881,0.0116335,-0.0037184,0.0144452,0.0319931,-0.519899,-0.246727,-0.000177621,-1.08349,-27.282,-1.96288,24.6619,-0.793155,2.18438,0.0706026,2.81394,2.54837,2.71924,-1.90224,1.33634,0.243841,0.24499,0.423193,0.297022,0.126122,-0.413379,-0.513287,0.0983618,
0.0170219,-0.0514587,0.509359,-1.55687,-0.00432245,-0.0627926,0.529239,-0.163199,0.0508127,-0.171951,-0.0794719,-1.08143,-1.24722,-0.0811226,0,0,0,0,0,0,0,0.0220283,-0.0521423,0.514766,-1.55495,0.0376715,1.55425,1.31881,0.0116335,-0.0037184,0.0144452,0.0319931,-0.519899,-0.246727,-0.000177621,-1.08349,-27.282,-1.96288,24.6619,-0.793155,2.18438,0.0706026,2.81547,2.07665,2.49114,-2.14274,1.5391,0.00966357,0.00704025,0.634503,0.0865909,-0.3176,-0.823621,-0.891654,0.0958499,
0.0163447,-0.0512302,0.508647,-1.5572,-0.0087363,-0.0678611,0.528918,-0.169286,0.0571333,-0.178028,-0.0836849,-1.10346,-1.26713,-0.0800765,0,0,0,0,0,0,0,0.0220283,-0.0521423,0.514766,-1.55495,0.0376715,1.55425,1.31881,0.0116335,-0.0037184,0.0144452,0.0319931,-0.519899,-0.246727,-0.000177621,-1.08349,-27.282,-1.96288,24.6619,-0.793155,2.18438,0.0706026,2.81547,2.07665,2.49114,-2.14274,1.5391,0.00966357,0.00704025,0.634503,0.0865909,-0.3176,-0.823621,-0.891654,0.0958499,
0.0156458,-0.050978,0.507913,-1.55755,-0.0132284,-0.0729956,0.528602,-0.174728,0.0630467,-0.18346,-0.0873746,-1.12303,-1.28363,-0.0790394,0,0,0,0,0,0,0,0.0227434,-0.0522098,0.515492,-1.55399,0.0169176,1.54356,1.31879,0.015943,-0.00293352,0.0238531,0.033298,-0.721904,-0.39544,0.00162899,-1.23822,-27.2344,-2.18505,25.2332,-0.914921,1.79345,0.0440523,1.34695,2.55472,2.81933,-2.45905,0.315923,0.644147,0.639252,-0.0950407,0.732026,-0.100759,-0.836639,-0.918958,0.0870695,
0.0149275,-0.0507038,0.50716,-1.55792,-0.01779,-0.0781847,0.52829,-0.17959,0.0685398,-0.188316,-0.0905859,-1.14039,-1.29727,-0.0780096,0,0,0,0,0,0,0,0.0227434,-0.0522098,0.515492,-1.55399,0.0169176,1.54356,1.31879,0.015943,-0.00293352,0.0238531,0.033298,-0.721904,-0.39544,0.00162899,-1.23822,-27.2344,-2.18505,25.2332,-0.914921,1.79345,0.0440523,1.34695,2.55472,2.81933,-2.45905,0.315923,0.644147,0.639252,-0.0950407,0.732026,-0.100759,-0.836639,-0.918958,0.0870695,
0.0141918,-0.0504094,0.506389,-1.55829,-0.0224131,-0.0834187,0.527982,-0.183929,0.0736103,-0.192652,-0.0933612,-1.15579,-1.30851,-0.0769856,0,0,0,0,0,0,0,0.0227434,-0.0522098,0.515492,-1.55399,0.0169176,1.54356,1.31879,0.015943,-0.00293352,0.0238531,0.033298,-0.721904,-0.39544,0.00162899,-1.23822,-27.2344,-2.18505,25.2332,-0.914921,1.79345,0.0440523,0.740529,2.65667,3.36771,-2.34703,-0.220916,0.877776,0.888848,-0.432876,0.943417,0.0799676,-0.717215,-0.99856,0.0673205,
0.0134406,-0.0500963,0.495185,-1.56437,-0.0238738,-0.0913433,0.521675,-0.187795,0.0782646,-0.374838,-0.178785,-1.14231,-1.29211,-0.146439,0,0,0,0,0,0,0,0.0227434,-0.0522098,0.515492,-1.55399,0.0169176,1.54356,1.31879,0.015943,-0.00293352,0.0238531,0.033298,-0.721904,-0.39544,0.00162899,-1.23822,-27.2344,-2.18505,25.2332,-0.914921,1.79345,0.0440523,1.95672,0.633957,3.40153,-1.17735,0.83647,-0.38036,-0.349575,0.207932,-0.358645,-0.253284,-0.975006,-1.32136,0.0439457,
0.0116298,-0.0504206,0.503801,-1.56025,0.00217117,-0.0609455,0.525303,-0.317517,0.107503,-0.330623,-0.157282,-0.986748,-1.21343,-0.157919,0,0,0,0,0,0,0,0.0227434,-0.0522098,0.515492,-1.55399,0.0169176,1.54356,1.31879,0.015943,-0.00293352,0.0238531,0.033298,-0.721904,-0.39544,0.00162899,-1.23822,-27.2344,-2.18505,25.2332,-0.914921,1.79345,0.0440523,1.95672,0.633957,3.40153,-1.17735,0.83647,-0.38036,-0.349575,0.207932,-0.358645,-0.253284,-0.975006,-1.32136,0.0439457,
0.0126533,-0.0506773,0.504895,-1.55896,-0.0218069,-0.0739936,0.526241,-0.306853,0.10031,-0.318923,-0.14338,-1.00621,-1.22678,-0.137783,0,0,0,0,0,0,0,0.0229141,-0.0527165,0.515402,-1.55414,-0.0137558,1.52285,1.31748,0.0116836,-0.0186832,-0.0266702,-0.0176155,-0.704331,-0.539906,-0.0444677,-4.83654,-24.8381,-6.21184,23.7891,-0.786747,1.16356,-0.123489,3.78193,-0.717351,3.41758,-0.401273,2.19856,-1.50564,-1.46976,0.954683,-1.50471,-0.480377,-1.21184,-1.44373,0.0258175,
0.0113896,-0.0502376,0.503583,-1.55955,-0.0259487,-0.0789713,0.525698,-0.315915,0.10994,-0.328024,-0.147709,-1.03546,-1.24443,-0.135823,0,0,0,0,0,0,0,0.0229141,-0.0527165,0.515402,-1.55414,-0.0137558,1.52285,1.31748,0.0116836,-0.0186832,-0.0266702,-0.0176155,-0.704331,-0.539906,-0.0444677,-4.83654,-24.8381,-6.21184,23.7891,-0.786747,1.16356,-0.123489,3.78193,-0.717351,3.41758,-0.401273,2.19856,-1.50564,-1.46976,0.954683,-1.50471,-0.480377,-1.21184,-1.44373,0.0258175,
0.010094,-0.0497625,0.502239,-1.56016,-0.0301972,-0.0840076,0.525162,-0.323919,0.118765,-0.33606,-0.151476,-1.06212,-1.25906,-0.133881,0,0,0,0,0,0,0,0.0229141,-0.0527165,0.515402,-1.55414,-0.0137558,1.52285,1.31748,0.0116836,-0.0186832,-0.0266702,-0.0176155,-0.704331,-0.539906,-0.0444677,-4.83654,-24.8381,-6.21184,23.7891,-0.786747,1.16356,-0.123489,2.50194,0.168239,2.41927,-1.22974,1.80307,-0.717789,-0.664536,0.998689,-0.706846,-0.89985,-1.03285,-1.56674,-0.00345939,
0.00877002,-0.0492552,0.500866,-1.56078,-0.0345424,-0.0890922,0.524634,-0.330984,0.12682,-0.343157,-0.154719,-1.08631,-1.27116,-0.131952,0,0,0,0,0,0,0,0.0229141,-0.0527165,0.515402,-1.55414,-0.0137558,1.52285,1.31748,0.0116836,-0.0186832,-0.0266702,-0.0176155,-0.704331,-0.539906,-0.0444677,-4.83654,-24.8381,-6.21184,23.7891,-0.786747,1.16356,-0.123489,2.50194,0.168239,2.41927,-1.22974,1.80307,-0.717789,-0.664536,0.998689,-0.706846,-0.89985,-1.03285,-1.56674,-0.00345939,
0.00742117,-0.0487187,0.499469,-1.56141,-0.0389751,-0.0942167,0.524114,-0.337213,0.13414,-0.349417,-0.157474,-1.10818,-1.28112,-0.130033,0,0,0,0,0,0,0,0.0229141,-0.0527165,0.515402,-1.55414,-0.0137558,1.52285,1.31748,0.0116836,-0.0186832,-0.0266702,-0.0176155,-0.704331,-0.539906,-0.0444677,-4.83654,-24.8381,-6.21184,23.7891,-0.786747,1.16356,-0.123489,0.655846,-1.00184,1.89784,-0.496777,0.762889,-0.700273,-0.649617,0.564547,-0.704942,-1.01968,-0.974934,-1.72099,-0.0418654,
0.00766034,-0.0497907,0.499851,-1.562,-0.0159274,-0.0722237,0.522476,-0.448845,0.150634,-0.462823,-0.212473,-0.921513,-1.19418,-0.211045,0,0,0,0,0,0,0,0.0229141,-0.0527165,0.515402,-1.55414,-0.0137558,1.52285,1.31748,0.0116836,-0.0186832,-0.0266702,-0.0176155,-0.704331,-0.539906,-0.0444677,-4.83654,-24.8381,-6.21184,23.7891,-0.786747,1.16356,-0.123489,0.655846,-1.00184,1.89784,-0.496777,0.762889,-0.700273,-0.649617,0.564547,-0.704942,-1.01968,-0.974934,-1.72099,-0.0418654,
0.00808639,-0.0502239,0.500072,-1.56165,-0.0479891,-0.0958653,0.52258,-0.433053,0.143222,-0.445713,-0.192543,-0.937945,-1.20916,-0.181371,0,0,0,0,0,0,0,0.0218372,-0.053344,0.513222,-1.55546,-0.0354418,1.5051,1.31567,-0.0579054,-0.020249,-0.0793155,-0.055046,-0.657964,-0.571674,-0.0386749,-5.47131,-23.4377,-6.4102,24.3881,-0.793155,1.57464,-0.217789,0.817953,-1.05046,2.41452,-0.234288,0.628479,-0.73735,-0.69177,0.370096,-0.749346,-0.730037,-0.917452,-1.6128,-0.076061,
0.00630887,-0.0496038,0.498244,-1.56244,-0.0518862,-0.10076,0.521866,-0.44438,0.155039,-0.45713,-0.196532,-0.974268,-1.22377,-0.178517,0,0,0,0,0,0,0,0.0218372,-0.053344,0.513222,-1.55546,-0.0354418,1.5051,1.31567,-0.0579054,-0.020249,-0.0793155,-0.055046,-0.657964,-0.571674,-0.0386749,-5.47131,-23.4377,-6.4102,24.3881,-0.793155,1.57464,-0.217789,1.8335,0.182116,2.56119,-0.930609,1.28761,-0.433526,-0.398401,0.696741,-0.420679,-0.673903,-0.766077,-1.4554,-0.103529,
0.00449158,-0.0489407,0.496375,-1.56324,-0.0559166,-0.105704,0.521163,-0.454322,0.165767,-0.46715,-0.199964,-1.0076,-1.23583,-0.175686,0,0,0,0,0,0,0,0.0218372,-0.053344,0.513222,-1.55546,-0.0354418,1.5051,1.31567,-0.0579054,-0.020249,-0.0793155,-0.055046,-0.657964,-0.571674,-0.0386749,-5.47131,-23.4377,-6.4102,24.3881,-0.793155,1.57464,-0.217789,1.8335,0.182116,2.56119,-0.930609,1.28761,-0.433526,-0.398401,0.696741,-0.420679,-0.673903,-0.766077,-1.4554,-0.103529,
0.00263943,-0.0482388,0.494471,-1.56405,-0.0600687,-0.110687,0.520471,-0.463039,0.175472,-0.47594,-0.202867,-1.03803,-1.24575,-0.172874,0,0,0,0,0,0,0,0.0218372,-0.053344,0.513222,-1.55546,-0.0354418,1.5051,1.31567,-0.0579054,-0.020249,-0.0793155,-0.055046,-0.657964,-0.571674,-0.0386749,-5.47131,-23.4377,-6.4102,24.3881,-0.793155,1.57464,-0.217789,1.93422,0.678136,1.54378,-1.39547,1.70112,-0.193888,-0.17519,1.08155,-0.149965,-0.969083,-0.656388,-1.33048,-0.135971,
0.000756758,-0.0475019,0.492537,-1.56487,-0.0643315,-0.115702,0.519791,-0.470667,0.184219,-0.483637,-0.205276,-1.0657,-1.25386,-0.170078,0,0,0,0,0,0,0,0.0218372,-0.053344,0.513222,-1.55546,-0.0354418,1.5051,1.31567,-0.0579054,-0.020249,-0.0793155,-0.055046,-0.657964,-0.571674,-0.0386749,-5.47131,-23.4377,-6.4102,24.3881,-0.793155,1.57464,-0.217789,1.93422,0.678136,1.54378,-1.39547,1.70112,-0.193888,-0.17519,1.08155,-0.149965,-0.969083,-0.656388,-1.33048,-0.135971,
-0.00115254,-0.0467336,0.490575,-1.5657,-0.0686946,-0.120744,0.519122,-0.477324,0.192074,-0.490361,-0.207227,-1.09078,-1.26045,-0.167295,0,0,0,0,0,0,0,0.0187321,-0.0540229,0.509488,-1.55768,-0.0556349,1.48473,1.31368,-0.12633,-0.00263222,-0.138822,-0.079343,-0.616527,-0.673501,-0.0820635,-6.10608,-24.2153,-7.2116,24.761,-0.798649,1.93261,-0.258072,0.711323,-0.421432,1.35197,-0.418301,0.761668,-0.32011,-0.319916,0.535366,-0.290633,-0.704201,-0.537311,-1.16018,-0.160594,
0.00341779,-0.0494848,0.495369,-1.56452,-0.0426016,-0.0940796,0.518965,-0.565184,0.188255,-0.579281,-0.256988,-0.86148,-1.17678,-0.251574,0,0,0,0,0,0,0,0.0187321,-0.0540229,0.509488,-1.55768,-0.0556349,1.48473,1.31368,-0.12633,-0.00263222,-0.138822,-0.079343,-0.616527,-0.673501,-0.0820635,-6.10608,-24.2153,-7.2116,24.761,-0.798649,1.93261,-0.258072,0.16219,-0.755201,2.13954,0.230751,-0.0629249,-0.293723,-0.298494,-0.116861,-0.287365,-0.135924,-0.40806,-0.956106,-0.183558,
-0.00217627,-0.049451,0.488078,-1.56746,-0.0882894,-0.134847,0.517081,-0.561571,0.193987,-0.574326,-0.234754,-0.925402,-1.18378,-0.212425,0,0,0,0,0,0,0,0.0187321,-0.0540229,0.509488,-1.55768,-0.0556349,1.48473,1.31368,-0.12633,-0.00263222,-0.138822,-0.079343,-0.616527,-0.673501,-0.0820635,-6.10608,-24.2153,-7.2116,24.761,-0.798649,1.93261,-0.258072,0.16219,-0.755201,2.13954,0.230751,-0.0629249,-0.293723,-0.298494,-0.116861,-0.287365,-0.135924,-0.40806,-0.956106,-0.183558,
-0.00446767,-0.048627,0.485735,-1.56841,-0.0921445,-0.139629,0.516246,-0.57285,0.206004,-0.585714,-0.237932,-0.963783,-1.19543,-0.208741,0,0,0,0,0,0,0,0.0187321,-0.0540229,0.509488,-1.55768,-0.0556349,1.48473,1.31368,-0.12633,-0.00263222,-0.138822,-0.079343,-0.616527,-0.673501,-0.0820635,-6.10608,-24.2153,-7.2116,24.761,-0.798649,1.93261,-0.258072,0.598536,0.342576,1.878,-0.471931,0.318296,0.116991,0.106824,0.124588,0.145874,-0.184646,-0.262751,-0.809326,-0.207709,
-0.00679834,-0.0477598,0.483353,-1.56938,-0.0961403,-0.144448,0.515426,-0.582666,0.216805,-0.595625,-0.240574,-0.998955,-1.20499,-0.205084,0,0,0,0,0,0,0,0.0187321,-0.0540229,0.509488,-1.55768,-0.0556349,1.48473,1.31368,-0.12633,-0.00263222,-0.138822,-0.079343,-0.616527,-0.673501,-0.0820635,-6.10608,-24.2153,-7.2116,24.761,-0.798649,1.93261,-0.258072,0.598536,0.342576,1.878,-0.471931,0.318296,0.116991,0.106824,0.124588,0.145874,-0.184646,-0.262751,-0.809326,-0.207709,
-0.00916308,-0.0468539,0.480936,-1.57035,-0.100264,-0.1493,0.51462,-0.591186,0.226472,-0.604233,-0.24271,-1.03103,-1.21278,-0.201451,0,0,0,0,0,0,0,0.0187321,-0.0540229,0.509488,-1.55768,-0.0556349,1.48473,1.31368,-0.12633,-0.00263222,-0.138822,-0.079343,-0.616527,-0.673501,-0.0820635,-6.10608,-24.2153,-7.2116,24.761,-0.798649,1.93261,-0.258072,0.821966,1.00539,1.17222,-1.03054,0.757053,0.382758,0.363949,0.493156,0.437263,-0.446902,-0.167299,-0.749316,-0.225741,
-0.0115573,-0.0459135,0.478489,-1.57133,-0.104505,-0.154176,0.513829,-0.598551,0.235087,-0.611681,-0.244373,-1.06016,-1.21908,-0.197839,0,0,0,0,0,0,0,0.0139673,-0.05419,0.503755,-1.56076,-0.0763982,1.46124,1.311,-0.175547,-0.00333972,-0.224557,-0.113701,-0.622981,-0.766084,-0.0940648,-7.42321,-23.1163,-8.46129,24.3365,-0.83527,2.15783,-0.304764,0.821966,1.00539,1.17222,-1.03054,0.757053,0.382758,0.363949,0.493156,0.437263,-0.446902,-0.167299,-0.749316,-0.225741,
-0.0139768,-0.0449426,0.476016,-1.57231,-0.108851,-0.159072,0.513052,-0.604885,0.242726,-0.618094,-0.245598,-1.08654,-1.22412,-0.194248,0,0,0,0,0,0,0,0.0139673,-0.05419,0.503755,-1.56076,-0.0763982,1.46124,1.311,-0.175547,-0.00333972,-0.224557,-0.113701,-0.622981,-0.766084,-0.0940648,-7.42321,-23.1163,-8.46129,24.3365,-0.83527,2.15783,-0.304764,0.276269,0.940759,0.795821,-0.91762,0.47374,0.521367,0.488387,0.388513,0.584167,-0.446126,-0.0429651,-0.657765,-0.242052,
-0.00654086,-0.0486639,0.484179,-1.57017,-0.0835926,-0.133005,0.513601,-0.681769,0.237609,-0.695706,-0.295566,-0.853478,-1.15056,-0.279958,0,0,0,0,0,0,0,0.0139673,-0.05419,0.503755,-1.56076,-0.0763982,1.46124,1.311,-0.175547,-0.00333972,-0.224557,-0.113701,-0.622981,-0.766084,-0.0940648,-7.42321,-23.1163,-8.46129,24.3365,-0.83527,2.15783,-0.304764,0.148325,0.734694,1.08004,-0.635238,0.23818,0.470663,0.433975,0.19194,0.525782,-0.261187,-0.00509318,-0.60065,-0.253652,
-0.0114607,-0.0485854,0.477854,-1.572,-0.107901,-0.158805,0.513249,-0.664363,0.225837,-0.676631,-0.262292,-0.909771,-1.16309,-0.232084,0,0,0,0,0,0,0,0.0139673,-0.05419,0.503755,-1.56076,-0.0763982,1.46124,1.311,-0.175547,-0.00333972,-0.224557,-0.113701,-0.622981,-0.766084,-0.0940648,-7.42321,-23.1163,-8.46129,24.3365,-0.83527,2.15783,-0.304764,0.148325,0.734694,1.08004,-0.635238,0.23818,0.470663,0.433975,0.19194,0.525782,-0.261187,-0.00509318,-0.60065,-0.253652,
-0.0141646,-0.0476317,0.475101,-1.57306,-0.111704,-0.163495,0.512338,-0.675993,0.238435,-0.688373,-0.265068,-0.950793,-1.17257,-0.227643,0,0,0,0,0,0,0,0.0139673,-0.05419,0.503755,-1.56076,-0.0763982,1.46124,1.311,-0.175547,-0.00333972,-0.224557,-0.113701,-0.622981,-0.766084,-0.0940648,-7.42321,-23.1163,-8.46129,24.3365,-0.83527,2.15783,-0.304764,1.11221,0.519057,0.783421,-0.679182,1.09017,0.125602,0.0941932,0.723019,0.182193,-0.532768,-0.127414,-0.67923,-0.264255,
-0.0169086,-0.0466332,0.472307,-1.57413,-0.115658,-0.168216,0.511445,-0.686006,0.249629,-0.698481,-0.267292,-0.988477,-1.18031,-0.223243,0,0,0,0,0,0,0,0.00698221,-0.0540064,0.495867,-1.56455,-0.0977315,1.43608,1.3082,-0.257698,0.0106914,-0.270367,-0.12577,-0.677263,-0.81464,-0.082114,-7.22088,-23.2393,-8.18755,23.9398,-0.811466,1.6607,-0.298355,1.11221,0.519057,0.783421,-0.679182,1.09017,0.125602,0.0941932,0.723019,0.182193,-0.532768,-0.127414,-0.67923,-0.264255,
-0.019687,-0.0455951,0.469478,-1.5752,-0.119749,-0.172962,0.51057,-0.694582,0.259525,-0.707143,-0.268988,-1.02292,-1.18658,-0.21888,0,0,0,0,0,0,0,0.00698221,-0.0540064,0.495867,-1.56455,-0.0977315,1.43608,1.3082,-0.257698,0.0106914,-0.270367,-0.12577,-0.677263,-0.81464,-0.082114,-7.22088,-23.2393,-8.18755,23.9398,-0.811466,1.6607,-0.298355,0.00553079,1.00889,0.158707,-1.19718,0.616176,0.642851,0.608412,0.617659,0.720362,-0.791131,-0.0769074,-0.77621,-0.271946,
-0.0224945,-0.0445222,0.46662,-1.57628,-0.123966,-0.177729,0.509712,-0.701876,0.26822,-0.714516,-0.270184,-1.05427,-1.19161,-0.214554,0,0,0,0,0,0,0,0.00698221,-0.0540064,0.495867,-1.56455,-0.0977315,1.43608,1.3082,-0.257698,0.0106914,-0.270367,-0.12577,-0.677263,-0.81464,-0.082114,-7.22088,-23.2393,-8.18755,23.9398,-0.811466,1.6607,-0.298355,-1.27129,0.752296,0.0762323,-0.984052,-0.255767,0.849118,0.811339,0.167582,0.92233,-0.724291,-0.0209159,-0.804615,-0.276755,
-0.0130916,-0.0472367,0.477261,-1.57452,-0.106399,-0.157295,0.509893,-0.718922,0.27366,-0.710091,-0.324157,-0.867481,-1.13783,-0.297839,0,0,0,0,0,0,0,0.00698221,-0.0540064,0.495867,-1.56455,-0.0977315,1.43608,1.3082,-0.257698,0.0106914,-0.270367,-0.12577,-0.677263,-0.81464,-0.082114,-7.22088,-23.2393,-8.18755,23.9398,-0.811466,1.6607,-0.298355,-1.27129,0.752296,0.0762323,-0.984052,-0.255767,0.849118,0.811339,0.167582,0.92233,-0.724291,-0.0209159,-0.804615,-0.276755,
-0.0216213,-0.0472325,0.467822,-1.57689,-0.13058,-0.183054,0.509805,-0.738883,0.245565,-0.730305,-0.29791,-0.899879,-1.04057,-0.242473,0,0,0,0,0,0,0,0.00698221,-0.0540064,0.495867,-1.56455,-0.0977315,1.43608,1.3082,-0.257698,0.0106914,-0.270367,-0.12577,-0.677263,-0.81464,-0.082114,-7.22088,-23.2393,-8.18755,23.9398,-0.811466,1.6607,-0.298355,-0.975771,-0.697865,0.344252,-0.0203559,-0.167491,0.0981949,0.0649945,0.155832,0.142562,-0.65663,-0.213588,-0.876794,-0.28121,
-0.0246363,-0.0462078,0.46484,-1.57811,-0.134319,-0.186977,0.508856,-0.753765,0.25616,-0.745474,-0.3061,-0.934659,-0.980606,-0.237272,0,0,0,0,0,0,0,0.00698221,-0.0540064,0.495867,-1.56455,-0.0977315,1.43608,1.3082,-0.257698,0.0106914,-0.270367,-0.12577,-0.677263,-0.81464,-0.082114,-7.22088,-23.2393,-8.18755,23.9398,-0.811466,1.6607,-0.298355,-0.975771,-0.697865,0.344252,-0.0203559,-0.167491,0.0981949,0.0649945,0.155832,0.142562,-0.65663,-0.213588,-0.876794,-0.28121,
-0.0276972,-0.0451426,0.4618,-1.57936,-0.138188,-0.190631,0.507927,-0.765231,0.266309,-0.760131,-0.311781,-0.967384,-0.913498,-0.232269,0,0,0,0,0,0,0,-0.00288277,-0.0532652,0.485217,-1.56905,-0.117396,1.41197,1.30461,-0.317319,0.0371624,-0.355434,-0.139669,-0.610361,-0.738493,-0.116371,-7.29626,-23.3901,-8.28673,24.1382,-1.47065,1.58745,-0.250748,-0.0322063,-2.2648,0.217081,0.894159,0.564117,-0.869744,-0.898148,0.574412,-0.849143,-0.819318,-0.450671,-0.975468,-0.282143,
-0.0307908,-0.0440401,0.458702,-1.58062,-0.14218,-0.193991,0.507017,-0.773379,0.275615,-0.774392,-0.315831,-0.998011,-0.840055,-0.22735,0,0,0,0,0,0,0,-0.00288277,-0.0532652,0.485217,-1.56905,-0.117396,1.41197,1.30461,-0.317319,0.0371624,-0.355434,-0.139669,-0.610361,-0.738493,-0.116371,-7.29626,-23.3901,-8.28673,24.1382,-1.47065,1.58745,-0.250748,-0.0322063,-2.2648,0.217081,0.894159,0.564117,-0.869744,-0.898148,0.574412,-0.849143,-0.819318,-0.450671,-0.975468,-0.282143,
-0.0339101,-0.0429049,0.455553,-1.5819,-0.146285,-0.197034,0.506127,-0.779835,0.283807,-0.787259,-0.31878,-1.02609,-0.760863,-0.222532,0,0,0,0,0,0,0,-0.00288277,-0.0532652,0.485217,-1.56905,-0.117396,1.41197,1.30461,-0.317319,0.0371624,-0.355434,-0.139669,-0.610361,-0.738493,-0.116371,-7.29626,-23.3901,-8.28673,24.1382,-1.47065,1.58745,-0.250748,0.995367,-1.73896,-0.23929,0.344002,1.49252,-0.864377,-0.885176,1.15788,-0.830993,-1.10937,-0.519692,-0.971089,-0.285356,
-0.0370532,-0.0417412,0.452363,-1.58318,-0.150492,-0.19974,0.505256,-0.785766,0.290917,-0.797535,-0.320812,-1.05196,-0.676409,-0.217786,0,0,0,0,0,0,0,-0.00288277,-0.0532652,0.485217,-1.56905,-0.117396,1.41197,1.30461,-0.317319,0.0371624,-0.355434,-0.139669,-0.610361,-0.738493,-0.116371,-7.29626,-23.3901,-8.28673,24.1382,-1.47065,1.58745,-0.250748,0.00601554,-0.399148,-0.589926,-0.652492,0.976159,0.00524742,-0.0185844,0.962604,0.0685556,-1.2348,-0.408686,-0.987057,-0.288503,
-0.0214069,-0.0455885,0.467997,-1.5792,-0.13068,-0.182429,0.506541,-0.733003,0.303691,-0.724689,-0.344023,-0.902835,-1.12328,-0.306496,0,0,0,0,0,0,0,-0.00288277,-0.0532652,0.485217,-1.56905,-0.117396,1.41197,1.30461,-0.317319,0.0371624,-0.355434,-0.139669,-0.610361,-0.738493,-0.116371,-7.29626,-23.3901,-8.28673,24.1382,-1.47065,1.58745,-0.250748,0.00601554,-0.399148,-0.589926,-0.652492,0.976159,0.00524742,-0.0185844,0.962604,0.0685556,-1.2348,-0.408686,-0.987057,-0.288503,
-0.0329347,-0.0453302,0.455665,-1.58291,-0.151171,-0.193027,0.505926,-0.756251,0.261282,-0.748092,-0.342689,-0.910634,-0.326745,-0.247792,0,0,0,0,0,0,0,-0.0186769,-0.0516512,0.468857,-1.57636,-0.139971,1.38677,1.29946,-0.427559,0.0563889,-0.447641,-0.20355,-0.543013,-0.501439,-0.115282,-6.33221,-24.1399,-7.13622,24.0628,-2.05109,1.79345,-0.26448,-1.48046,-0.614708,-0.376871,-0.467366,-0.20629,0.252648,0.219007,0.273646,0.31815,-1.03016,-0.428489,-1.00065,-0.286035,
-0.0360102,-0.0442367,0.452621,-1.58427,-0.15494,-0.193976,0.504961,-0.768882,0.273371,-0.760916,-0.340016,-0.942083,-0.237137,-0.241168,0,0,0,0,0,0,0,-0.0186769,-0.0516512,0.468857,-1.57636,-0.139971,1.38677,1.29946,-0.427559,0.0563889,-0.447641,-0.20355,-0.543013,-0.501439,-0.115282,-6.33221,-24.1399,-7.13622,24.0628,-2.05109,1.79345,-0.26448,-1.48046,-0.614708,-0.376871,-0.467366,-0.20629,0.252648,0.219007,0.273646,0.31815,-1.03016,-0.428489,-1.00065,-0.286035,
-0.0391306,-0.0431034,0.449532,-1.58561,-0.158821,-0.19462,0.504017,-0.780095,0.283321,-0.772368,-0.336053,-0.970275,-0.16115,-0.236095,0,0,0,0,0,0,0,-0.0186769,-0.0516512,0.468857,-1.57636,-0.139971,1.38677,1.29946,-0.427559,0.0563889,-0.447641,-0.20355,-0.543013,-0.501439,-0.115282,-6.33221,-24.1399,-7.13622,24.0628,-2.05109,1.79345,-0.26448,-1.75489,0.46923,-0.32085,-1.2118,-0.488404,0.840972,0.813125,0.0708336,0.919756,-0.940392,-0.409662,-0.902846,-0.286244,
-0.0422911,-0.0419393,0.446401,-1.58694,-0.162802,-0.195005,0.503092,-0.79013,0.291033,-0.782658,-0.331671,-0.995334,-0.0960911,-0.231213,0,0,0,0,0,0,0,-0.0186769,-0.0516512,0.468857,-1.57636,-0.139971,1.38677,1.29946,-0.427559,0.0563889,-0.447641,-0.20355,-0.543013,-0.501439,-0.115282,-6.33221,-24.1399,-7.13622,24.0628,-2.05109,1.79345,-0.26448,-1.75489,0.46923,-0.32085,-1.2118,-0.488404,0.840972,0.813125,0.0708336,0.919756,-0.940392,-0.409662,-0.902846,-0.286244,
-0.0454876,-0.0407527,0.443234,-1.58825,-0.166872,-0.195165,0.502186,-0.799131,0.29664,-0.791924,-0.327214,-1.01753,-0.0400804,-0.226409,0,0,0,0,0,0,0,-0.0186769,-0.0516512,0.468857,-1.57636,-0.139971,1.38677,1.29946,-0.427559,0.0563889,-0.447641,-0.20355,-0.543013,-0.501439,-0.115282,-6.33221,-24.1399,-7.13622,24.0628,-2.05109,1.79345,-0.26448,1.64684,-0.685442,-0.999288,-0.58201,2.23106,-0.477189,-0.494831,1.65882,-0.417458,-1.42035,-0.563849,-0.877228,-0.282709,
-0.0516374,-0.0353272,0.437089,-1.59387,-0.175837,-0.213475,0.495832,-0.81354,0.358808,-0.807359,-0.381555,-1.06789,-0.335548,-0.274067,0,0,0,0,0,0,0,-0.0186769,-0.0516512,0.468857,-1.57636,-0.139971,1.38677,1.29946,-0.427559,0.0563889,-0.447641,-0.20355,-0.543013,-0.501439,-0.115282,-6.33221,-24.1399,-7.13622,24.0628,-2.05109,1.79345,-0.26448,1.12496,-0.996488,-1.07932,-0.299827,1.84652,-0.50228,-0.530094,1.44942,-0.442422,-1.33776,-0.528615,-0.8209,-0.280347,
-0.0326598,-0.0436123,0.455902,-1.58458,-0.151496,-0.201638,0.502746,-0.751117,0.311873,-0.74342,-0.390106,-0.919157,-0.750279,-0.309961,0,0,0,0,0,0,0,-0.0337705,-0.0501701,0.453418,-1.58409,-0.158768,1.37396,1.29495,-0.481838,0.0623956,-0.492882,-0.25038,-0.579529,-0.233311,-0.150605,-5.32055,-25.6355,-5.9619,25.134,-1.91651,2.8344,-0.270889,1.12496,-0.996488,-1.07932,-0.299827,1.84652,-0.50228,-0.530094,1.44942,-0.442422,-1.33776,-0.528615,-0.8209,-0.280347,
-0.0666869,-0.0401689,0.420903,-1.59875,-0.196113,-0.203947,0.496208,-0.779931,0.28147,-0.773141,-0.312091,-0.961089,-0.0575027,-0.245279,0,0,0,0,0,0,0,-0.0337705,-0.0501701,0.453418,-1.58409,-0.158768,1.37396,1.29495,-0.481838,0.0623956,-0.492882,-0.25038,-0.579529,-0.233311,-0.150605,-5.32055,-25.6355,-5.9619,25.134,-1.91651,2.8344,-0.270889,-2.23778,0.36324,0.496594,-0.805078,-1.43809,0.901363,0.866601,-0.71957,0.965079,-0.26236,-0.391887,-0.571171,-0.278298,
-0.0698459,-0.0390225,0.41777,-1.59999,-0.200051,-0.204116,0.495248,-0.789756,0.286619,-0.783295,-0.30981,-0.984544,-0.0423905,-0.240004,0,0,0,0,0,0,0,-0.0337705,-0.0501701,0.453418,-1.58409,-0.158768,1.37396,1.29495,-0.481838,0.0623956,-0.492882,-0.25038,-0.579529,-0.233311,-0.150605,-5.32055,-25.6355,-5.9619,25.134,-1.91651,2.8344,-0.270889,-2.23778,0.36324,0.496594,-0.805078,-1.43809,0.901363,0.866601,-0.71957,0.965079,-0.26236,-0.391887,-0.571171,-0.278298,
-0.0730422,-0.0378662,0.414598,-1.60124,-0.20407,-0.20416,0.494307,-0.799062,0.289063,-0.7929,-0.311092,-1.00487,-0.0108297,-0.235183,0,0,0,0,0,0,0,-0.0337705,-0.0501701,0.453418,-1.58409,-0.158768,1.37396,1.29495,-0.481838,0.0623956,-0.492882,-0.25038,-0.579529,-0.233311,-0.150605,-5.32055,-25.6355,-5.9619,25.134,-1.91651,2.8344,-0.270889,-1.16769,-0.381814,2.22436,0.0624406,-1.56483,0.301373,0.264865,-1.1787,0.337043,0.521556,-0.484384,-0.388042,-0.266217,
-0.0762693,-0.036702,0.411391,-1.60248,-0.208165,-0.204068,0.493385,-0.806792,0.29105,-0.801766,-0.31119,-1.02361,0.0229408,-0.230479,0,0,0,0,0,0,0,-0.0337705,-0.0501701,0.453418,-1.58409,-0.158768,1.37396,1.29495,-0.481838,0.0623956,-0.492882,-0.25038,-0.579529,-0.233311,-0.150605,-5.32055,-25.6355,-5.9619,25.134,-1.91651,2.8344,-0.270889,-1.16769,-0.381814,2.22436,0.0624406,-1.56483,0.301373,0.264865,-1.1787,0.337043,0.521556,-0.484384,-0.388042,-0.266217,
-0.0795008,-0.03553,0.408138,-1.60372,-0.212336,-0.203851,0.492482,-0.807853,0.293001,-0.813329,-0.309606,-1.04268,0.0542515,-0.225822,0,0,0,0,0,0,0,-0.050182,-0.0473686,0.436827,-1.59278,-0.178862,1.36945,1.2899,-0.540008,0.084946,-0.533259,-0.265087,-0.659859,-0.0925703,-0.143644,-4.55883,-26.1592,-5.31127,27.1017,-1.15937,2.96715,-0.258072,2.44029,1.16334,0.315874,-1.33855,1.91627,0.323748,0.299502,1.05441,0.393892,-0.534379,-0.396051,-0.353274,-0.26494,
-0.0827428,-0.0343518,0.404863,-1.60495,-0.216587,-0.203514,0.491597,-0.810506,0.294552,-0.818569,-0.30724,-1.06284,0.0841713,-0.221248,0,0,0,0,0,0,0,-0.050182,-0.0473686,0.436827,-1.59278,-0.178862,1.36945,1.2899,-0.540008,0.084946,-0.533259,-0.265087,-0.659859,-0.0925703,-0.143644,-4.55883,-26.1592,-5.31127,27.1017,-1.15937,2.96715,-0.258072,3.04573,1.87483,-0.105369,-1.83926,2.47905,0.588067,0.561148,1.3956,0.672912,-0.666513,-0.329018,-0.246993,-0.266723,
-0.0664856,-0.038771,0.421074,-1.60059,-0.196472,-0.211716,0.493227,-0.777676,0.326277,-0.771175,-0.369899,-0.967359,-0.2031,-0.303312,0,0,0,0,0,0,0,-0.050182,-0.0473686,0.436827,-1.59278,-0.178862,1.36945,1.2899,-0.540008,0.084946,-0.533259,-0.265087,-0.659859,-0.0925703,-0.143644,-4.55883,-26.1592,-5.31127,27.1017,-1.15937,2.96715,-0.258072,3.04573,1.87483,-0.105369,-1.83926,2.47905,0.588067,0.561148,1.3956,0.672912,-0.666513,-0.329018,-0.246993,-0.266723,
-0.0842876,-0.0374377,0.403028,-1.60761,-0.218515,-0.196619,0.491346,-0.783051,0.271001,-0.790298,-0.303649,-0.985923,0.242472,-0.243199,0,0,0,0,0,0,0,-0.050182,-0.0473686,0.436827,-1.59278,-0.178862,1.36945,1.2899,-0.540008,0.084946,-0.533259,-0.265087,-0.659859,-0.0925703,-0.143644,-4.55883,-26.1592,-5.31127,27.1017,-1.15937,2.96715,-0.258072,3.20304,-0.447901,-0.459622,-0.33705,2.62865,-0.541931,-0.575195,1.52868,-0.483555,-0.703988,-0.525281,-0.225182,-0.259361,
-0.0874375,-0.0363336,0.399848,-1.60881,-0.222563,-0.19567,0.490393,-0.787469,0.276011,-0.795204,-0.298229,-1.012,0.237266,-0.238043,0,0,0,0,0,0,0,-0.050182,-0.0473686,0.436827,-1.59278,-0.178862,1.36945,1.2899,-0.540008,0.084946,-0.533259,-0.265087,-0.659859,-0.0925703,-0.143644,-4.55883,-26.1592,-5.31127,27.1017,-1.15937,2.96715,-0.258072,3.20304,-0.447901,-0.459622,-0.33705,2.62865,-0.541931,-0.575195,1.52868,-0.483555,-0.703988,-0.525281,-0.225182,-0.259361,
-0.0906017,-0.0352216,0.396652,-1.61,-0.226706,-0.19468,0.48946,-0.791043,0.278014,-0.79892,-0.297613,-1.03563,0.247447,-0.233381,0,0,0,0,0,0,0,-0.050182,-0.0473686,0.436827,-1.59278,-0.178862,1.36945,1.2899,-0.540008,0.084946,-0.533259,-0.265087,-0.659859,-0.0925703,-0.143644,-4.55883,-26.1592,-5.31127,27.1017,-1.15937,2.96715,-0.258072,1.99455,-0.341296,-0.133657,-0.29602,1.67167,-0.270406,-0.290496,0.97759,-0.230208,-0.521293,-0.441906,-0.263417,-0.25739,
-0.0937749,-0.0341062,0.393447,-1.61119,-0.230936,-0.193607,0.488544,-0.793321,0.278832,-0.801308,-0.298343,-1.05762,0.268346,-0.228842,0,0,0,0,0,0,0,-0.0669597,-0.0437474,0.419585,-1.6004,-0.200511,1.36895,1.28596,-0.536639,0.137925,-0.556124,-0.246569,-0.741577,-0.00143868,-0.124661,-3.54321,-26.6591,-4.23613,23.8882,-0.829777,1.42815,-0.23793,2.36012,-0.43801,-0.672144,-0.302937,2.23245,-0.385861,-0.402398,1.40973,-0.346897,-0.807766,-0.419165,-0.320062,-0.254146,
-0.096952,-0.0329902,0.390237,-1.61239,-0.235249,-0.192415,0.487647,-0.794267,0.279006,-0.802349,-0.29933,-1.07817,0.297893,-0.224446,0,0,0,0,0,0,0,-0.0669597,-0.0437474,0.419585,-1.6004,-0.200511,1.36895,1.28596,-0.536639,0.137925,-0.556124,-0.246569,-0.741577,-0.00143868,-0.124661,-3.54321,-26.6591,-4.23613,23.8882,-0.829777,1.42815,-0.23793,2.36012,-0.43801,-0.672144,-0.302937,2.23245,-0.385861,-0.402398,1.40973,-0.346897,-0.807766,-0.419165,-0.320062,-0.254146,
-0.100127,-0.031875,0.387029,-1.61359,-0.239639,-0.191083,0.486766,-0.793847,0.278808,-0.802016,-0.299899,-1.09748,0.333091,-0.220233,0,0,0,0,0,0,0,-0.0669597,-0.0437474,0.419585,-1.6004,-0.200511,1.36895,1.28596,-0.536639,0.137925,-0.556124,-0.246569,-0.741577,-0.00143868,-0.124661,-3.54321,-26.6591,-4.23613,23.8882,-0.829777,1.42815,-0.23793,0.628087,2.11555,-1.36826,-2.08446,1.37619,1.21175,1.19455,1.05568,1.28601,-1.02864,-0.195333,-0.310374,-0.256826,
-0.0841209,-0.0360413,0.403222,-1.60932,-0.218882,-0.204063,0.488473,-0.789938,0.314042,-0.784192,-0.357369,-0.987273,0.0826459,-0.299329,0,0,0,0,0,0,0,-0.0669597,-0.0437474,0.419585,-1.6004,-0.200511,1.36895,1.28596,-0.536639,0.137925,-0.556124,-0.246569,-0.741577,-0.00143868,-0.124661,-3.54321,-26.6591,-4.23613,23.8882,-0.829777,1.42815,-0.23793,0.628087,2.11555,-1.36826,-2.08446,1.37619,1.21175,1.19455,1.05568,1.28601,-1.02864,-0.195333,-0.310374,-0.256826,
-0.101451,-0.0336559,0.385243,-1.61529,-0.241397,-0.190176,0.487515,-0.777084,0.262302,-0.786327,-0.300326,-1.01082,0.398976,-0.242395,0,0,0,0,0,0,0,-0.0669597,-0.0437474,0.419585,-1.6004,-0.200511,1.36895,1.28596,-0.536639,0.137925,-0.556124,-0.246569,-0.741577,-0.00143868,-0.124661,-3.54321,-26.6591,-4.23613,23.8882,-0.829777,1.42815,-0.23793,0.232539,-0.73709,-1.98874,-0.302965,1.37077,-0.148048,-0.180773,1.24241,-0.0922619,-1.26245,-0.415772,-0.435649,-0.252511,
-0.104558,-0.0325895,0.3821,-1.61647,-0.245559,-0.188563,0.486565,-0.776659,0.266598,-0.785857,-0.295687,-1.04037,0.403446,-0.237422,0,0,0,0,0,0,0,-0.0846301,-0.0393455,0.4011,-1.6077,-0.222997,1.37231,1.28197,-0.581736,0.166553,-0.59802,-0.22163,-0.737091,0.20852,-0.113768,-3.41626,-28.5555,-4.01,24.6381,-1.44593,1.77971,-0.183914,-2.49586,-0.957385,-1.28803,-0.0282835,-0.845076,0.153092,0.122341,-0.0453081,0.194027,-0.846507,-0.39428,-0.50036,-0.247117,
-0.107662,-0.0315168,0.378959,-1.61765,-0.249818,-0.186893,0.485633,-0.776082,0.268155,-0.785256,-0.294609,-1.0649,0.417263,-0.233033,0,0,0,0,0,0,0,-0.0846301,-0.0393455,0.4011,-1.6077,-0.222997,1.37231,1.28197,-0.581736,0.166553,-0.59802,-0.22163,-0.737091,0.20852,-0.113768,-3.41626,-28.5555,-4.01,24.6381,-1.44593,1.77971,-0.183914,-2.49586,-0.957385,-1.28803,-0.0282835,-0.845076,0.153092,0.122341,-0.0453081,0.194027,-0.846507,-0.39428,-0.50036,-0.247117,
-0.110762,-0.030443,0.375822,-1.61883,-0.254162,-0.185143,0.484718,-0.774966,0.26846,-0.784128,-0.294555,-1.08592,0.437739,-0.228762,0,0,0,0,0,0,0,-0.0846301,-0.0393455,0.4011,-1.6077,-0.222997,1.37231,1.28197,-0.581736,0.166553,-0.59802,-0.22163,-0.737091,0.20852,-0.113768,-3.41626,-28.5555,-4.01,24.6381,-1.44593,1.77971,-0.183914,-0.67402,-0.629162,-1.00904,-0.233442,0.308787,0.0231312,0.00850184,0.487976,0.0533188,-0.827588,-0.430449,-0.438807,-0.246096,
-0.113854,-0.0293692,0.372694,-1.62,-0.25858,-0.183311,0.48382,-0.772958,0.268462,-0.782123,-0.293545,-1.1046,0.45785,-0.224629,0,0,0,0,0,0,0,-0.0846301,-0.0393455,0.4011,-1.6077,-0.222997,1.37231,1.28197,-0.581736,0.166553,-0.59802,-0.22163,-0.737091,0.20852,-0.113768,-3.41626,-28.5555,-4.01,24.6381,-1.44593,1.77971,-0.183914,-0.67402,-0.629162,-1.00904,-0.233442,0.308787,0.0231312,0.00850184,0.487976,0.0533188,-0.827588,-0.430449,-0.438807,-0.246096,
-0.116933,-0.0282958,0.369578,-1.62117,-0.263067,-0.181421,0.482937,-0.7699,0.268347,-0.779081,-0.29105,-1.12163,0.472566,-0.220684,0,0,0,0,0,0,0,-0.0846301,-0.0393455,0.4011,-1.6077,-0.222997,1.37231,1.28197,-0.581736,0.166553,-0.59802,-0.22163,-0.737091,0.20852,-0.113768,-3.41626,-28.5555,-4.01,24.6381,-1.44593,1.77971,-0.183914,-0.398608,1.16817,-0.91534,-1.37731,0.467919,0.897956,0.890611,0.495608,0.938059,-0.792168,-0.298315,-0.354417,-0.245847,
-0.101461,-0.0325147,0.385385,-1.61703,-0.241566,-0.195361,0.484743,-0.797308,0.295112,-0.792386,-0.353596,-0.988072,0.294767,-0.297101,0,0,0,0,0,0,0,-0.104088,-0.0335277,0.38117,-1.61498,-0.247124,1.38131,1.2774,-0.616502,0.190527,-0.622843,-0.219554,-0.759943,0.333272,-0.150259,-2.68231,-30.5272,-3.23638,25.5347,-1.72699,1.79986,-0.197647,0.185422,-1.95521,-0.753196,0.627603,0.727994,-0.779004,-0.790296,0.65941,-0.765862,-0.706939,-0.609448,-0.393993,-0.238461,
-0.139633,-0.0227607,0.345455,-1.62946,-0.290158,-0.166746,0.479021,-0.769072,0.258375,-0.780374,-0.297071,-1.04172,0.533065,-0.242545,0,0,0,0,0,0,0,-0.104088,-0.0335277,0.38117,-1.61498,-0.247124,1.38131,1.2774,-0.616502,0.190527,-0.622843,-0.219554,-0.759943,0.333272,-0.150259,-2.68231,-30.5272,-3.23638,25.5347,-1.72699,1.79986,-0.197647,0.185422,-1.95521,-0.753196,0.627603,0.727994,-0.779004,-0.790296,0.65941,-0.765862,-0.706939,-0.609448,-0.393993,-0.238461,
-0.142705,-0.0217216,0.342339,-1.63063,-0.294293,-0.164578,0.47807,-0.767873,0.259795,-0.778974,-0.294057,-1.03364,0.542152,-0.237772,0,0,0,0,0,0,0,-0.104088,-0.0335277,0.38117,-1.61498,-0.247124,1.38131,1.2774,-0.616502,0.190527,-0.622843,-0.219554,-0.759943,0.333272,-0.150259,-2.68231,-30.5272,-3.23638,25.5347,-1.72699,1.79986,-0.197647,-0.3563,-1.81876,-0.953264,0.502955,0.457206,-0.6406,-0.640355,0.560044,-0.637073,-0.771717,-0.611565,-0.410659,-0.236108,
-0.145774,-0.0206823,0.339226,-1.6318,-0.298324,-0.162387,0.477136,-0.767303,0.25982,-0.778267,-0.290978,-1.00792,0.547677,-0.233592,0,0,0,0,0,0,0,-0.104088,-0.0335277,0.38117,-1.61498,-0.247124,1.38131,1.2774,-0.616502,0.190527,-0.622843,-0.219554,-0.759943,0.333272,-0.150259,-2.68231,-30.5272,-3.23638,25.5347,-1.72699,1.79986,-0.197647,-0.3563,-1.81876,-0.953264,0.502955,0.457206,-0.6406,-0.640355,0.560044,-0.637073,-0.771717,-0.611565,-0.410659,-0.236108,
-0.148841,-0.0196467,0.336115,-1.63295,-0.302201,-0.160188,0.476217,-0.766792,0.258902,-0.777664,-0.287639,-0.969141,0.549781,-0.229526,0,0,0,0,0,0,0,-0.104088,-0.0335277,0.38117,-1.61498,-0.247124,1.38131,1.2774,-0.616502,0.190527,-0.622843,-0.219554,-0.759943,0.333272,-0.150259,-2.68231,-30.5272,-3.23638,25.5347,-1.72699,1.79986,-0.197647,0.261493,-0.791163,-1.57978,-0.201879,1.163,-0.173128,-0.165932,1.01132,-0.165827,-1.01744,-0.521816,-0.331792,-0.234991,
-0.151905,-0.0186177,0.333008,-1.63408,-0.305883,-0.157992,0.475315,-0.765991,0.257248,-0.7768,-0.284111,-0.920463,0.548958,-0.225573,0,0,0,0,0,0,0,-0.104088,-0.0335277,0.38117,-1.61498,-0.247124,1.38131,1.2774,-0.616502,0.190527,-0.622843,-0.219554,-0.759943,0.333272,-0.150259,-2.68231,-30.5272,-3.23638,25.5347,-1.72699,1.79986,-0.197647,0.261493,-0.791163,-1.57978,-0.201879,1.163,-0.173128,-0.165932,1.01132,-0.165827,-1.01744,-0.521816,-0.331792,-0.234991,
-0.136844,-0.0229397,0.348588,-1.62957,-0.285832,-0.170434,0.477614,-0.803993,0.279137,-0.80098,-0.346761,-0.985657,0.509805,-0.306638,0,0,0,0,0,0,0,-0.129914,-0.0248704,0.354407,-1.62376,-0.279227,1.39882,1.27068,-0.638638,0.214507,-0.67306,-0.209588,-0.75559,0.467919,-0.16248,-2.93621,-31.3524,-3.161,24.9832,-1.47705,1.85937,-0.217789,-0.260229,2.01615,-2.27583,-2.04428,1.12029,1.3821,1.38676,1.02062,1.41256,-1.23924,-0.288881,-0.216475,-0.239128,
-0.162855,-0.015048,0.32101,-1.63672,-0.311607,-0.146066,0.47318,-0.785589,0.240266,-0.797625,-0.290912,-0.526234,0.583468,-0.255065,0,0,0,0,0,0,0,-0.129914,-0.0248704,0.354407,-1.62376,-0.279227,1.39882,1.27068,-0.638638,0.214507,-0.67306,-0.209588,-0.75559,0.467919,-0.16248,-2.93621,-31.3524,-3.161,24.9832,-1.47705,1.85937,-0.217789,-0.0697135,-1.37489,-1.99146,0.130892,1.00863,-0.393544,-0.401223,0.978347,-0.377267,-1.04228,-0.618591,-0.224451,-0.230654,
-0.165989,-0.0140838,0.317827,-1.63787,-0.313494,-0.143762,0.472165,-0.783398,0.241053,-0.795728,-0.288145,-0.471792,0.575929,-0.253567,0,0,0,0,0,0,0,-0.129914,-0.0248704,0.354407,-1.62376,-0.279227,1.39882,1.27068,-0.638638,0.214507,-0.67306,-0.209588,-0.75559,0.467919,-0.16248,-2.93621,-31.3524,-3.161,24.9832,-1.47705,1.85937,-0.217789,-0.0697135,-1.37489,-1.99146,0.130892,1.00863,-0.393544,-0.401223,0.978347,-0.377267,-1.04228,-0.618591,-0.224451,-0.230654,
-0.1691,-0.0131065,0.314668,-1.63899,-0.315191,-0.141503,0.471198,-0.7778,0.244308,-0.789906,-0.2804,-0.424392,0.564702,-0.241785,0,0,0,0,0,0,0,-0.129914,-0.0248704,0.354407,-1.62376,-0.279227,1.39882,1.27068,-0.638638,0.214507,-0.67306,-0.209588,-0.75559,0.467919,-0.16248,-2.93621,-31.3524,-3.161,24.9832,-1.47705,1.85937,-0.217789,-0.168162,-2.13943,-1.95628,0.641524,0.897013,-0.786705,-0.784928,0.93343,-0.785618,-0.988668,-0.678893,-0.212902,-0.225601,
-0.17219,-0.0121295,0.311529,-1.6401,-0.316691,-0.139258,0.470249,-0.772685,0.244264,-0.784657,-0.277569,-0.374921,0.561339,-0.237305,0,0,0,0,0,0,0,-0.129914,-0.0248704,0.354407,-1.62376,-0.279227,1.39882,1.27068,-0.638638,0.214507,-0.67306,-0.209588,-0.75559,0.467919,-0.16248,-2.93621,-31.3524,-3.161,24.9832,-1.47705,1.85937,-0.217789,-0.168162,-2.13943,-1.95628,0.641524,0.897013,-0.786705,-0.784928,0.93343,-0.785618,-0.988668,-0.678893,-0.212902,-0.225601,
-0.175261,-0.0111582,0.308411,-1.64121,-0.317989,-0.137007,0.469315,-0.767643,0.242826,-0.779493,-0.276347,-0.324522,0.562847,-0.233415,0,0,0,0,0,0,0,-0.150366,-0.0180427,0.333245,-1.63087,-0.300943,1.41628,1.26578,-0.674092,0.222097,-0.701775,-0.234963,-0.558597,0.59826,-0.160521,-1.82141,-32.5743,-2.23662,25.4593,-0.11475,1.86577,-0.130813,-2.11522,-0.168015,-1.88111,-0.46735,-0.473327,0.425715,0.435285,0.151047,0.424525,-0.844958,-0.397972,-0.154397,-0.229566,
-0.178311,-0.0101956,0.305314,-1.64231,-0.319083,-0.134731,0.468397,-0.76251,0.240635,-0.774251,-0.275728,-0.273541,0.568845,-0.229657,0,0,0,0,0,0,0,-0.150366,-0.0180427,0.333245,-1.63087,-0.300943,1.41628,1.26578,-0.674092,0.222097,-0.701775,-0.234963,-0.558597,0.59826,-0.160521,-1.82141,-32.5743,-2.23662,25.4593,-0.11475,1.86577,-0.130813,-2.11522,-0.168015,-1.88111,-0.46735,-0.473327,0.425715,0.435285,0.151047,0.424525,-0.844958,-0.397972,-0.154397,-0.229566,
-0.166908,-0.0135291,0.317334,-1.63933,-0.316225,-0.144317,0.46974,-0.826295,0.259233,-0.839791,-0.325192,-0.549566,0.586021,-0.300845,0,0,0,0,0,0,0,-0.150366,-0.0180427,0.333245,-1.63087,-0.300943,1.41628,1.26578,-0.674092,0.222097,-0.701775,-0.234963,-0.558597,0.59826,-0.160521,-1.82141,-32.5743,-2.23662,25.4593,-0.11475,1.86577,-0.130813,-2.52446,0.586317,-2.15508,-0.800013,-0.6136,0.833872,0.845534,0.130735,0.830722,-0.912648,-0.18848,-0.115084,-0.231592,
-0.186367,-0.00779341,0.296647,-1.64466,-0.307355,-0.123834,0.467409,-0.74974,0.218026,-0.762231,-0.280106,0.143547,0.608438,-0.253826,0,0,0,0,0,0,0,-0.150366,-0.0180427,0.333245,-1.63087,-0.300943,1.41628,1.26578,-0.674092,0.222097,-0.701775,-0.234963,-0.558597,0.59826,-0.160521,-1.82141,-32.5743,-2.23662,25.4593,-0.11475,1.86577,-0.130813,-0.958171,-2.78013,-2.26577,1.40778,0.543155,-1.12705,-1.12003,0.929814,-1.13941,-1.04031,-0.376588,-0.212916,-0.233873,
-0.189328,-0.00691458,0.293638,-1.64575,-0.306671,-0.121453,0.466441,-0.740103,0.219709,-0.752298,-0.273134,0.171008,0.595239,-0.241825,0,0,0,0,0,0,0,-0.150366,-0.0180427,0.333245,-1.63087,-0.300943,1.41628,1.26578,-0.674092,0.222097,-0.701775,-0.234963,-0.558597,0.59826,-0.160521,-1.82141,-32.5743,-2.23662,25.4593,-0.11475,1.86577,-0.130813,-0.958171,-2.78013,-2.26577,1.40778,0.543155,-1.12705,-1.12003,0.929814,-1.13941,-1.04031,-0.376588,-0.212916,-0.233873,
-0.192253,-0.00604059,0.290664,-1.64684,-0.305876,-0.119094,0.465491,-0.731331,0.218496,-0.743385,-0.270665,0.198727,0.589827,-0.237575,0,0,0,0,0,0,0,-0.150366,-0.0180427,0.333245,-1.63087,-0.300943,1.41628,1.26578,-0.674092,0.222097,-0.701775,-0.234963,-0.558597,0.59826,-0.160521,-1.82141,-32.5743,-2.23662,25.4593,-0.11475,1.86577,-0.130813,-0.0362506,-1.89364,-1.6187,1.01415,0.888541,-0.764368,-0.745729,0.953083,-0.785803,-0.807534,-0.204145,-0.155669,-0.236059,
-0.195145,-0.00517516,0.287725,-1.64791,-0.304971,-0.116751,0.464555,-0.722957,0.216358,-0.734882,-0.268946,0.226123,0.585768,-0.233952,0,0,0,0,0,0,0,-0.171094,-0.0114165,0.31177,-1.63779,-0.313153,1.43586,1.26099,-0.673493,0.213874,-0.711771,-0.230452,-0.328382,0.64848,-0.143825,-0.702633,-33.0742,-0.859972,25.6577,-0.261234,1.42174,-0.224197,-0.0362506,-1.89364,-1.6187,1.01415,0.888541,-0.764368,-0.745729,0.953083,-0.785803,-0.807534,-0.204145,-0.155669,-0.236059,
-0.198004,-0.00431915,0.284819,-1.64898,-0.303959,-0.114439,0.463633,-0.714682,0.214003,-0.726486,-0.266464,0.253191,0.57791,-0.23047,0,0,0,0,0,0,0,-0.171094,-0.0114165,0.31177,-1.63779,-0.313153,1.43586,1.26099,-0.673493,0.213874,-0.711771,-0.230452,-0.328382,0.64848,-0.143825,-0.702633,-33.0742,-0.859972,25.6577,-0.261234,1.42174,-0.224197,0.0396502,0.574862,-0.757184,-0.391851,0.584873,0.509511,0.530738,0.527121,0.491083,-0.495379,0.0703076,-0.108221,-0.237051,
-0.20083,-0.00347421,0.281946,-1.65003,-0.302836,-0.112169,0.462725,-0.706514,0.211234,-0.718212,-0.263782,0.280527,0.567614,-0.227118,0,0,0,0,0,0,0,-0.171094,-0.0114165,0.31177,-1.63779,-0.313153,1.43586,1.26099,-0.673493,0.213874,-0.711771,-0.230452,-0.328382,0.64848,-0.143825,-0.702633,-33.0742,-0.859972,25.6577,-0.261234,1.42174,-0.224197,0.207228,-0.00101664,-0.942748,0.0801263,0.938935,0.126412,0.149074,0.869902,0.10473,-0.714532,0.157713,-0.273525,-0.239745,
-0.187835,-0.00739012,0.295253,-1.64603,-0.314219,-0.12412,0.465073,-0.801284,0.234603,-0.815273,-0.312592,-0.00982404,0.611754,-0.298946,0,0,0,0,0,0,0,-0.171094,-0.0114165,0.31177,-1.63779,-0.313153,1.43586,1.26099,-0.673493,0.213874,-0.711771,-0.230452,-0.328382,0.64848,-0.143825,-0.702633,-33.0742,-0.859972,25.6577,-0.261234,1.42174,-0.224197,0.207228,-0.00101664,-0.942748,0.0801263,0.938935,0.126412,0.149074,0.869902,0.10473,-0.714532,0.157713,-0.273525,-0.239745,
-0.205664,-0.00223203,0.276574,-1.65105,-0.305799,-0.104679,0.46267,-0.698091,0.188078,-0.710842,-0.269823,0.355812,0.548269,-0.254372,0,0,0,0,0,0,0,-0.171094,-0.0114165,0.31177,-1.63779,-0.313153,1.43586,1.26099,-0.673493,0.213874,-0.711771,-0.230452,-0.328382,0.64848,-0.143825,-0.702633,-33.0742,-0.859972,25.6577,-0.261234,1.42174,-0.224197,-0.0364704,-0.796234,-1.04819,0.745395,0.899,-0.344598,-0.324586,0.986535,-0.365426,-0.811799,0.270155,-0.375793,-0.236981,
-0.20841,-0.00147645,0.273778,-1.6521,-0.304348,-0.102556,0.461699,-0.686662,0.188895,-0.699074,-0.263338,0.362591,0.530619,-0.242726,0,0,0,0,0,0,0,-0.192711,-0.00462578,0.289378,-1.64429,-0.315716,1.45734,1.25623,-0.711139,0.218619,-0.711128,-0.19348,0.00944728,0.704056,-0.150473,1.4516,-34.07,1.16334,25.7092,0.245053,1.68725,-0.270889,-0.0364704,-0.796234,-1.04819,0.745395,0.899,-0.344598,-0.324586,0.986535,-0.365426,-0.811799,0.270155,-0.375793,-0.236981,
-0.211116,-0.000728406,0.271023,-1.65314,-0.302864,-0.100471,0.460745,-0.67647,0.187011,-0.688762,-0.26116,0.371096,0.521382,-0.238685,0,0,0,0,0,0,0,-0.192711,-0.00462578,0.289378,-1.64429,-0.315716,1.45734,1.25623,-0.711139,0.218619,-0.711128,-0.19348,0.00944728,0.704056,-0.150473,1.4516,-34.07,1.16334,25.7092,0.245053,1.68725,-0.270889,0.411767,0.874269,-1.87476,-0.173243,1.62875,0.538203,0.568583,1.48562,0.508954,-1.17088,0.538612,-0.337927,-0.239362,
-0.213785,7.92268e-06,0.268305,-1.65419,-0.301341,-0.0983999,0.459804,-0.667149,0.184082,-0.679333,-0.260358,0.380725,0.517726,-0.235245,0,0,0,0,0,0,0,-0.192711,-0.00462578,0.289378,-1.64429,-0.315716,1.45734,1.25623,-0.711139,0.218619,-0.711128,-0.19348,0.00944728,0.704056,-0.150473,1.4516,-34.07,1.16334,25.7092,0.245053,1.68725,-0.270889,0.411767,0.874269,-1.87476,-0.173243,1.62875,0.538203,0.568583,1.48562,0.508954,-1.17088,0.538612,-0.337927,-0.239362,
-0.216419,0.000730572,0.265623,-1.65523,-0.299775,-0.0963231,0.458876,-0.658471,0.180662,-0.670553,-0.260048,0.391457,0.519211,-0.231926,0,0,0,0,0,0,0,-0.192711,-0.00462578,0.289378,-1.64429,-0.315716,1.45734,1.25623,-0.711139,0.218619,-0.711128,-0.19348,0.00944728,0.704056,-0.150473,1.4516,-34.07,1.16334,25.7092,0.245053,1.68725,-0.270889,0.570844,2.58043,-2.99951,-1.14034,2.30924,1.47683,1.51237,2.01609,1.44199,-1.65168,0.771269,-0.317571,-0.243614,
-0.219019,0.00144113,0.262975,-1.65626,-0.298163,-0.0942601,0.457961,-0.649949,0.177639,-0.66193,-0.257931,0.402998,0.51575,-0.228756,0,0,0,0,0,0,0,-0.192711,-0.00462578,0.289378,-1.64429,-0.315716,1.45734,1.25623,-0.711139,0.218619,-0.711128,-0.19348,0.00944728,0.704056,-0.150473,1.4516,-34.07,1.16334,25.7092,0.245053,1.68725,-0.270889,-0.664653,-0.560206,-2.42169,0.849551,1.18504,-0.224192,-0.199898,1.51599,-0.24696,-1.3878,0.536878,-0.435379,-0.238186,
-0.207292,-0.00181864,0.274866,-1.65223,-0.3088,-0.105206,0.460414,-0.750621,0.205456,-0.764886,-0.298871,0.289472,0.539316,-0.297964,0,0,0,0,0,0,0,-0.192711,-0.00462578,0.289378,-1.64429,-0.315716,1.45734,1.25623,-0.711139,0.218619,-0.711128,-0.19348,0.00944728,0.704056,-0.150473,1.4516,-34.07,1.16334,25.7092,0.245053,1.68725,-0.270889,-0.664653,-0.560206,-2.42169,0.849551,1.18504,-0.224192,-0.199898,1.51599,-0.24696,-1.3878,0.536878,-0.435379,-0.238186,
-0.225805,0.00375597,0.255642,-1.65693,-0.300782,-0.0844593,0.457905,-0.649993,0.163257,-0.663,-0.261479,0.415641,0.50715,-0.256256,0,0,0,0,0,0,0,-0.215151,0.00246632,0.266275,-1.64979,-0.314781,1.47934,1.251,-0.685793,0.229717,-0.68877,-0.161565,0.0904902,0.662837,-0.136966,2.18555,-36.3194,2.11152,25.1855,-0.023197,1.24322,-0.177505,-2.1422,-0.516606,-1.60281,0.788454,-0.232873,-0.189866,-0.160189,0.605361,-0.216462,-1.00511,0.468699,-0.444981,-0.233835,
-0.228358,0.00440858,0.25304,-1.65795,-0.299134,-0.0824993,0.456926,-0.638059,0.163153,-0.650697,-0.255283,0.411938,0.489994,-0.244698,0,0,0,0,0,0,0,-0.215151,0.00246632,0.266275,-1.64979,-0.314781,1.47934,1.251,-0.685793,0.229717,-0.68877,-0.161565,0.0904902,0.662837,-0.136966,2.18555,-36.3194,2.11152,25.1855,-0.023197,1.24322,-0.177505,-2.1422,-0.516606,-1.60281,0.788454,-0.232873,-0.189866,-0.160189,0.605361,-0.216462,-1.00511,0.468699,-0.444981,-0.233835,
-0.230868,0.00505127,0.250479,-1.65896,-0.297489,-0.0805753,0.455963,-0.627535,0.160671,-0.640096,-0.25308,0.411315,0.481004,-0.240799,0,0,0,0,0,0,0,-0.215151,0.00246632,0.266275,-1.64979,-0.314781,1.47934,1.251,-0.685793,0.229717,-0.68877,-0.161565,0.0904902,0.662837,-0.136966,2.18555,-36.3194,2.11152,25.1855,-0.023197,1.24322,-0.177505,-2.66915,2.7719,-1.48834,-1.23389,-0.701791,1.62092,1.65552,0.111516,1.58354,-0.894062,0.689359,-0.309067,-0.230689,
-0.23334,0.00568129,0.247957,-1.65997,-0.295838,-0.0786758,0.455013,-0.617987,0.157506,-0.630471,-0.251645,0.412711,0.474877,-0.237501,0,0,0,0,0,0,0,-0.215151,0.00246632,0.266275,-1.64979,-0.314781,1.47934,1.251,-0.685793,0.229717,-0.68877,-0.161565,0.0904902,0.662837,-0.136966,2.18555,-36.3194,2.11152,25.1855,-0.023197,1.24322,-0.177505,-2.66915,2.7719,-1.48834,-1.23389,-0.701791,1.62092,1.65552,0.111516,1.58354,-0.894062,0.689359,-0.309067,-0.230689,
-0.235776,0.00629888,0.245472,-1.66097,-0.294176,-0.0768139,0.454076,-0.608995,0.154397,-0.621395,-0.249289,0.415573,0.465484,-0.234324,0,0,0,0,0,0,0,-0.215151,0.00246632,0.266275,-1.64979,-0.314781,1.47934,1.251,-0.685793,0.229717,-0.68877,-0.161565,0.0904902,0.662837,-0.136966,2.18555,-36.3194,2.11152,25.1855,-0.023197,1.24322,-0.177505,-2.71615,1.45461,-1.59833,-0.47836,-0.758296,0.906664,0.936898,0.143903,0.876106,-0.865532,0.513328,-0.26812,-0.221683,
-0.238178,0.00690329,0.243021,-1.66195,-0.292496,-0.0749976,0.453151,-0.600478,0.151101,-0.612802,-0.246658,0.420067,0.454056,-0.231258,0,0,0,0,0,0,0,-0.237792,0.00980148,0.242614,-1.65571,-0.310274,1.50044,1.24696,-0.666167,0.210246,-0.688436,-0.186423,0.180643,0.614426,-0.125863,1.95942,-36.5932,1.98854,26.0068,-0.0964392,1.37505,-0.230606,-1.08931,-1.72247,-2.1969,1.41817,0.649603,-0.837285,-0.813095,1.18723,-0.854099,-1.16727,0.211593,-0.339715,-0.215285,
-0.227329,0.00402804,0.25405,-1.65803,-0.300739,-0.0853552,0.455743,-0.696926,0.176452,-0.711192,-0.289108,0.423499,0.487371,-0.298043,0,0,0,0,0,0,0,-0.237792,0.00980148,0.242614,-1.65571,-0.310274,1.50044,1.24696,-0.666167,0.210246,-0.688436,-0.186423,0.180643,0.614426,-0.125863,1.95942,-36.5932,1.98854,26.0068,-0.0964392,1.37505,-0.230606,-1.08931,-1.72247,-2.1969,1.41817,0.649603,-0.837285,-0.813095,1.18723,-0.854099,-1.16727,0.211593,-0.339715,-0.215285,
-0.26859,0.0172826,0.211149,-1.66803,-0.291196,-0.0457101,0.448609,-0.601653,0.139563,-0.61505,-0.252616,0.484931,0.401157,-0.256542,0,0,0,0,0,0,0,-0.237792,0.00980148,0.242614,-1.65571,-0.310274,1.50044,1.24696,-0.666167,0.210246,-0.688436,-0.186423,0.180643,0.614426,-0.125863,1.95942,-36.5932,1.98854,26.0068,-0.0964392,1.37505,-0.230606,-0.0121273,-0.30119,-2.3313,0.533371,1.41414,-0.0293096,0.00542532,1.48159,-0.0629034,-1.22707,0.278477,-0.259633,-0.212254,
-0.270953,0.0178389,0.208734,-1.66902,-0.289272,-0.0441846,0.447624,-0.590646,0.139082,-0.603647,-0.246544,0.480953,0.381378,-0.246173,0,0,0,0,0,0,0,-0.237792,0.00980148,0.242614,-1.65571,-0.310274,1.50044,1.24696,-0.666167,0.210246,-0.688436,-0.186423,0.180643,0.614426,-0.125863,1.95942,-36.5932,1.98854,26.0068,-0.0964392,1.37505,-0.230606,-0.0121273,-0.30119,-2.3313,0.533371,1.41414,-0.0293096,0.00542532,1.48159,-0.0629034,-1.22707,0.278477,-0.259633,-0.212254,
-0.273275,0.0183851,0.20636,-1.66999,-0.287359,-0.0427087,0.446655,-0.580704,0.13656,-0.593669,-0.244213,0.478166,0.368984,-0.242487,0,0,0,0,0,0,0,-0.237792,0.00980148,0.242614,-1.65571,-0.310274,1.50044,1.24696,-0.666167,0.210246,-0.688436,-0.186423,0.180643,0.614426,-0.125863,1.95942,-36.5932,1.98854,26.0068,-0.0964392,1.37505,-0.230606,-1.2629,0.979827,-1.50496,-0.333178,0.155857,0.6487,0.690341,0.55563,0.604267,-0.854782,0.279291,-0.234462,-0.212729,
-0.275562,0.0189185,0.204021,-1.67097,-0.285455,-0.0412627,0.445697,-0.571638,0.133341,-0.584564,-0.24313,0.47618,0.361484,-0.239339,0,0,0,0,0,0,0,-0.26462,0.0179262,0.214852,-1.66339,-0.300545,1.52316,1.24243,-0.62511,0.194653,-0.655312,-0.187139,0.296955,0.524036,-0.121456,0.868412,-36.9939,0.961012,26.2805,-0.438846,1.5545,-0.170181,-1.34829,-0.643909,-1.50164,0.608844,0.186009,-0.279512,-0.241468,0.716315,-0.313842,-0.934466,0.101861,-0.361351,-0.21046,
-0.277815,0.0194379,0.201717,-1.67194,-0.283555,-0.0398288,0.444752,-0.563256,0.129861,-0.576137,-0.242541,0.475015,0.35849,-0.236308,0,0,0,0,0,0,0,-0.26462,0.0179262,0.214852,-1.66339,-0.300545,1.52316,1.24243,-0.62511,0.194653,-0.655312,-0.187139,0.296955,0.524036,-0.121456,0.868412,-36.9939,0.961012,26.2805,-0.438846,1.5545,-0.170181,-1.34829,-0.643909,-1.50164,0.608844,0.186009,-0.279512,-0.241468,0.716315,-0.313842,-0.934466,0.101861,-0.361351,-0.21046,
-0.270152,0.0172926,0.209525,-1.66872,-0.281898,-0.0477265,0.446589,-0.642891,0.145135,-0.657204,-0.271908,0.723531,0.345569,-0.295459,0,0,0,0,0,0,0,-0.26462,0.0179262,0.214852,-1.66339,-0.300545,1.52316,1.24243,-0.62511,0.194653,-0.655312,-0.187139,0.296955,0.524036,-0.121456,0.868412,-36.9939,0.961012,26.2805,-0.438846,1.5545,-0.170181,-1.21883,-2.59165,-1.01801,1.73245,0.0939279,-1.38777,-1.35591,0.715167,-1.4052,-0.789822,-0.0908774,-0.452326,-0.203666,
-0.293389,0.0242395,0.185416,-1.67524,-0.271921,-0.0278722,0.444094,-0.556202,0.111785,-0.569545,-0.24311,0.695965,0.34366,-0.257763,0,0,0,0,0,0,0,-0.26462,0.0179262,0.214852,-1.66339,-0.300545,1.52316,1.24243,-0.62511,0.194653,-0.655312,-0.187139,0.296955,0.524036,-0.121456,0.868412,-36.9939,0.961012,26.2805,-0.438846,1.5545,-0.170181,-1.21883,-2.59165,-1.01801,1.73245,0.0939279,-1.38777,-1.35591,0.715167,-1.4052,-0.789822,-0.0908774,-0.452326,-0.203666,
-0.29557,0.0246838,0.183183,-1.67618,-0.269138,-0.0265529,0.443104,-0.545491,0.111078,-0.558374,-0.236822,0.695692,0.329817,-0.247378,0,0,0,0,0,0,0,-0.26462,0.0179262,0.214852,-1.66339,-0.300545,1.52316,1.24243,-0.62511,0.194653,-0.655312,-0.187139,0.296955,0.524036,-0.121456,0.868412,-36.9939,0.961012,26.2805,-0.438846,1.5545,-0.170181,-0.0111865,-0.631119,-0.829283,0.564688,0.773689,-0.251087,-0.212389,0.844843,-0.287005,-0.715814,0.0659959,-0.357363,-0.2042,
-0.297713,0.0251181,0.180989,-1.67712,-0.266362,-0.0252651,0.442129,-0.53556,0.108575,-0.548411,-0.234104,0.694008,0.321948,-0.243804,0,0,0,0,0,0,0,-0.26462,0.0179262,0.214852,-1.66339,-0.300545,1.52316,1.24243,-0.62511,0.194653,-0.655312,-0.187139,0.296955,0.524036,-0.121456,0.868412,-36.9939,0.961012,26.2805,-0.438846,1.5545,-0.170181,0.345984,-0.205338,-1.32017,0.378621,1.27767,-0.000305199,0.0421255,1.20272,-0.0434812,-0.953203,0.131163,-0.378565,-0.202253,
-0.299818,0.02554,0.178832,-1.67805,-0.263597,-0.0239937,0.441166,-0.526367,0.105484,-0.539191,-0.23264,0.69121,0.317863,-0.240782,0,0,0,0,0,0,0,-0.284669,0.0238983,0.19408,-1.6693,-0.289917,1.53927,1.23706,-0.617128,0.181194,-0.647724,-0.170446,0.414821,0.487207,-0.186298,0.741459,-37.4898,0.937208,25.5069,0.0381434,1.19012,-0.217789,0.345984,-0.205338,-1.32017,0.378621,1.27767,-0.000305199,0.0421255,1.20272,-0.0434812,-0.953203,0.131163,-0.378565,-0.202253,
-0.301889,0.0259495,0.17671,-1.67898,-0.260846,-0.0227361,0.440214,-0.517709,0.102369,-0.530497,-0.231127,0.687664,0.314381,-0.237885,0,0,0,0,0,0,0,-0.284669,0.0238983,0.19408,-1.6693,-0.289917,1.53927,1.23706,-0.617128,0.181194,-0.647724,-0.170446,0.414821,0.487207,-0.186298,0.741459,-37.4898,0.937208,25.5069,0.0381434,1.19012,-0.217789,-0.547321,-2.02508,-1.64855,1.5509,0.925817,-1.08594,-1.05305,1.31373,-1.10436,-1.14482,0.0458413,-0.517408,-0.199107,
-0.303927,0.0263474,0.174622,-1.67989,-0.258111,-0.0215066,0.439274,-0.509391,0.0994806,-0.522135,-0.228737,0.683754,0.307379,-0.235113,0,0,0,0,0,0,0,-0.284669,0.0238983,0.19408,-1.6693,-0.289917,1.53927,1.23706,-0.617128,0.181194,-0.647724,-0.170446,0.414821,0.487207,-0.186298,0.741459,-37.4898,0.937208,25.5069,0.0381434,1.19012,-0.217789,-0.547321,-2.02508,-1.64855,1.5509,0.925817,-1.08594,-1.05305,1.31373,-1.10436,-1.14482,0.0458413,-0.517408,-0.199107,
-0.294319,0.0239488,0.184426,-1.67598,-0.26349,-0.0296716,0.442186,-0.577886,0.108079,-0.592118,-0.262889,0.899241,0.297266,-0.29455,0,0,0,0,0,0,0,-0.284669,0.0238983,0.19408,-1.6693,-0.289917,1.53927,1.23706,-0.617128,0.181194,-0.647724,-0.170446,0.414821,0.487207,-0.186298,0.741459,-37.4898,0.937208,25.5069,0.0381434,1.19012,-0.217789,-1.96274,-3.16384,-0.978713,2.29626,-0.411337,-1.83319,-1.80921,0.597085,-1.82464,-0.784976,0.0649319,-0.495517,-0.194992,
-0.311435,0.0289125,0.166675,-1.68057,-0.256729,-0.0145136,0.438743,-0.497035,0.0797105,-0.510015,-0.229613,0.742306,0.243489,-0.256788,0,0,0,0,0,0,0,-0.284669,0.0238983,0.19408,-1.6693,-0.289917,1.53927,1.23706,-0.617128,0.181194,-0.647724,-0.170446,0.414821,0.487207,-0.186298,0.741459,-37.4898,0.937208,25.5069,0.0381434,1.19012,-0.217789,-1.96274,-3.16384,-0.978713,2.29626,-0.411337,-1.83319,-1.80921,0.597085,-1.82464,-0.784976,0.0649319,-0.495517,-0.194992,
-0.313375,0.0292276,0.164684,-1.68146,-0.25382,-0.0136123,0.437754,-0.484986,0.0787679,-0.49763,-0.223512,0.727308,0.225337,-0.247397,0,0,0,0,0,0,0,-0.304439,0.0298631,0.173602,-1.67482,-0.274947,1.55444,1.23106,-0.588002,0.169769,-0.620172,-0.166337,0.459461,0.415875,-0.161904,3.22498,-38.9378,3.31361,26.4551,0.226742,1.48125,-0.197647,-1.89827,0.2231,-1.14757,0.374586,-0.367692,0.0413364,0.0747854,0.386965,0.018461,-0.81491,0.389239,-0.378605,-0.195622,
-0.315271,0.029532,0.162737,-1.68235,-0.250968,-0.0127571,0.436778,-0.474104,0.0760962,-0.486809,-0.220971,0.712808,0.21378,-0.244064,0,0,0,0,0,0,0,-0.304439,0.0298631,0.173602,-1.67482,-0.274947,1.55444,1.23106,-0.588002,0.169769,-0.620172,-0.166337,0.459461,0.415875,-0.161904,3.22498,-38.9378,3.31361,26.4551,0.226742,1.48125,-0.197647,-1.15717,0.925795,-1.55952,0.0130471,0.324094,0.484925,0.52721,0.773557,0.445423,-1.00651,0.451778,-0.366506,-0.195965,
-0.317128,0.0298236,0.160829,-1.68322,-0.248175,-0.0119313,0.435813,-0.46425,0.0729142,-0.477001,-0.219658,0.698447,0.206452,-0.241218,0,0,0,0,0,0,0,-0.304439,0.0298631,0.173602,-1.67482,-0.274947,1.55444,1.23106,-0.588002,0.169769,-0.620172,-0.166337,0.459461,0.415875,-0.161904,3.22498,-38.9378,3.31361,26.4551,0.226742,1.48125,-0.197647,-1.15717,0.925795,-1.55952,0.0130471,0.324094,0.484925,0.52721,0.773557,0.445423,-1.00651,0.451778,-0.366506,-0.195965,
-0.318949,0.0301021,0.158957,-1.6841,-0.245438,-0.0111194,0.434859,-0.455229,0.0696135,-0.468011,-0.218864,0.684217,0.202979,-0.238477,0,0,0,0,0,0,0,-0.304439,0.0298631,0.173602,-1.67482,-0.274947,1.55444,1.23106,-0.588002,0.169769,-0.620172,-0.166337,0.459461,0.415875,-0.161904,3.22498,-38.9378,3.31361,26.4551,0.226742,1.48125,-0.197647,-1.75353,0.8453,-1.86412,0.170528,0.0651275,0.369595,0.407063,0.757548,0.339859,-1.12323,0.518188,-0.383467,-0.190801,
-0.310622,0.028469,0.167475,-1.68015,-0.251381,-0.0165171,0.438053,-0.543721,0.082717,-0.557582,-0.246329,1.02003,0.225556,-0.293577,0,0,0,0,0,0,0,-0.304439,0.0298631,0.173602,-1.67482,-0.274947,1.55444,1.23106,-0.588002,0.169769,-0.620172,-0.166337,0.459461,0.415875,-0.161904,3.22498,-38.9378,3.31361,26.4551,0.226742,1.48125,-0.197647,-1.75353,0.8453,-1.86412,0.170528,0.0651275,0.369595,0.407063,0.757548,0.339859,-1.12323,0.518188,-0.383467,-0.190801,
-0.327751,0.0337822,0.149705,-1.68484,-0.242582,-0.0039915,0.433649,-0.473742,0.0628572,-0.486843,-0.229507,0.779357,0.239334,-0.258992,0,0,0,0,0,0,0,-0.304439,0.0298631,0.173602,-1.67482,-0.274947,1.55444,1.23106,-0.588002,0.169769,-0.620172,-0.166337,0.459461,0.415875,-0.161904,3.22498,-38.9378,3.31361,26.4551,0.226742,1.48125,-0.197647,-2.36461,-1.37224,-2.07405,1.59112,-0.26416,-0.930955,-0.905438,0.855678,-0.923497,-1.16538,0.443755,-0.403607,-0.185846,
-0.329607,0.0340222,0.147797,-1.68575,-0.239481,-0.00303388,0.432617,-0.463882,0.0599976,-0.477075,-0.227162,0.77529,0.239405,-0.258093,0,0,0,0,0,0,0,-0.321735,0.0345483,0.155826,-1.67984,-0.260912,1.56526,1.22642,-0.558629,0.146205,-0.558129,-0.166711,0.424437,0.318751,-0.151809,3.25275,-38.6879,3.21443,26.1575,0.800778,2.02508,-0.210464,-2.36461,-1.37224,-2.07405,1.59112,-0.26416,-0.930955,-0.905438,0.855678,-0.923497,-1.16538,0.443755,-0.403607,-0.185846,
-0.331422,0.0342523,0.145927,-1.68664,-0.236396,-0.00208393,0.431586,-0.453937,0.0575264,-0.46728,-0.223989,0.771217,0.237488,-0.25781,0,0,0,0,0,0,0,-0.321735,0.0345483,0.155826,-1.67984,-0.260912,1.56526,1.22642,-0.558629,0.146205,-0.558129,-0.166711,0.424437,0.318751,-0.151809,3.25275,-38.6879,3.21443,26.1575,0.800778,2.02508,-0.210464,-1.66988,0.675073,-2.35143,0.456121,0.243937,0.27145,0.30815,0.976794,0.249396,-1.24093,0.628513,-0.303797,-0.188202,
-0.333197,0.0344784,0.1441,-1.68752,-0.233326,-0.00115317,0.43059,-0.443766,0.0565119,-0.456898,-0.218089,0.767421,0.23269,-0.248894,0,0,0,0,0,0,0,-0.321735,0.0345483,0.155826,-1.67984,-0.260912,1.56526,1.22642,-0.558629,0.146205,-0.558129,-0.166711,0.424437,0.318751,-0.151809,3.25275,-38.6879,3.21443,26.1575,0.800778,2.02508,-0.210464,-1.37178,1.4662,-2.2268,-0.00875942,0.322624,0.734376,0.777068,0.89331,0.698869,-1.15767,0.686842,-0.245164,-0.185895,
-0.334937,0.0346947,0.142307,-1.68838,-0.230251,-0.000227244,0.429607,-0.434841,0.0540719,-0.448109,-0.215032,0.768691,0.231481,-0.245791,0,0,0,0,0,0,0,-0.321735,0.0345483,0.155826,-1.67984,-0.260912,1.56526,1.22642,-0.558629,0.146205,-0.558129,-0.166711,0.424437,0.318751,-0.151809,3.25275,-38.6879,3.21443,26.1575,0.800778,2.02508,-0.210464,-1.37178,1.4662,-2.2268,-0.00875942,0.322624,0.734376,0.777068,0.89331,0.698869,-1.15767,0.686842,-0.245164,-0.185895,
-0.339189,0.034542,0.137873,-1.69102,-0.212951,-0.000463702,0.4253,-0.430385,0.0411558,-0.444263,-0.227502,0.977296,0.203665,-0.271375,0,0,0,0,0,0,0,-0.321735,0.0345483,0.155826,-1.67984,-0.260912,1.56526,1.22642,-0.558629,0.146205,-0.558129,-0.166711,0.424437,0.318751,-0.151809,3.25275,-38.6879,3.21443,26.1575,0.800778,2.02508,-0.210464,-0.569746,0.5618,-2.97652,0.65859,1.22239,0.32267,0.366516,1.6131,0.292146,-1.48267,0.664676,-0.268165,-0.184736,
-0.330198,0.0336254,0.147143,-1.68637,-0.232847,-0.00447339,0.430882,-0.480629,0.0515293,-0.49467,-0.242507,1.00816,0.20275,-0.291488,0,0,0,0,0,0,0,-0.338916,0.0383577,0.137881,-1.68535,-0.245853,1.57401,1.22161,-0.54786,0.0986425,-0.55312,-0.182182,0.500466,0.255881,-0.151927,3.35193,-38.438,3.4366,27.0779,0.948178,2.32995,-0.157364,-0.85391,-1.00091,-2.83412,1.57109,0.94999,-0.575166,-0.541316,1.57999,-0.578085,-1.39127,0.554577,-0.269218,-0.180493,
-0.361345,0.0406169,0.114813,-1.69585,-0.209238,0.0144469,0.423218,-0.403871,0.0303073,-0.417292,-0.210011,0.780533,0.185155,-0.257758,0,0,0,0,0,0,0,-0.338916,0.0383577,0.137881,-1.68535,-0.245853,1.57401,1.22161,-0.54786,0.0986425,-0.55312,-0.182182,0.500466,0.255881,-0.151927,3.35193,-38.438,3.4366,27.0779,0.948178,2.32995,-0.157364,-0.85391,-1.00091,-2.83412,1.57109,0.94999,-0.575166,-0.541316,1.57999,-0.578085,-1.39127,0.554577,-0.269218,-0.180493,
-0.362919,0.0407362,0.113186,-1.69667,-0.206163,0.0151403,0.422216,-0.393571,0.0298388,-0.406864,-0.204541,0.768709,0.173352,-0.250422,0,0,0,0,0,0,0,-0.338916,0.0383577,0.137881,-1.68535,-0.245853,1.57401,1.22161,-0.54786,0.0986425,-0.55312,-0.182182,0.500466,0.255881,-0.151927,3.35193,-38.438,3.4366,27.0779,0.948178,2.32995,-0.157364,-1.89575,-1.76106,-1.7952,1.79214,-0.231154,-1.12839,-1.09346,0.789279,-1.12115,-0.937484,0.382982,-0.266432,-0.177086,
-0.364457,0.0408481,0.111594,-1.69748,-0.203122,0.0158026,0.421226,-0.384478,0.0279735,-0.397931,-0.20192,0.76024,0.165585,-0.247483,0,0,0,0,0,0,0,-0.338916,0.0383577,0.137881,-1.68535,-0.245853,1.57401,1.22161,-0.54786,0.0986425,-0.55312,-0.182182,0.500466,0.255881,-0.151927,3.35193,-38.438,3.4366,27.0779,0.948178,2.32995,-0.157364,-1.89575,-1.76106,-1.7952,1.79214,-0.231154,-1.12839,-1.09346,0.789279,-1.12115,-0.937484,0.382982,-0.266432,-0.177086,
-0.365963,0.0409508,0.110034,-1.69828,-0.200102,0.0164422,0.420247,-0.376477,0.0256807,-0.390066,-0.200282,0.755036,0.159901,-0.244897,0,0,0,0,0,0,0,-0.338916,0.0383577,0.137881,-1.68535,-0.245853,1.57401,1.22161,-0.54786,0.0986425,-0.55312,-0.182182,0.500466,0.255881,-0.151927,3.35193,-38.438,3.4366,27.0779,0.948178,2.32995,-0.157364,-0.232001,1.52831,-1.61236,-0.170287,0.706074,0.894093,0.95147,0.851857,0.837633,-0.871614,0.583471,-0.174924,-0.180621,
-0.367441,0.041044,0.108501,-1.69908,-0.197089,0.0170657,0.419277,-0.36939,0.0232852,-0.383094,-0.199038,0.753223,0.155859,-0.242388,0,0,0,0,0,0,0,-0.338916,0.0383577,0.137881,-1.68535,-0.245853,1.57401,1.22161,-0.54786,0.0986425,-0.55312,-0.182182,0.500466,0.255881,-0.151927,3.35193,-38.438,3.4366,27.0779,0.948178,2.32995,-0.157364,-0.232001,1.52831,-1.61236,-0.170287,0.706074,0.894093,0.95147,0.851857,0.837633,-0.871614,0.583471,-0.174924,-0.180621,
-0.360308,0.0400996,0.115826,-1.69547,-0.207526,0.0132456,0.422734,-0.435694,0.0216754,-0.450448,-0.223524,1.01368,0.179915,-0.291192,0,0,0,0,0,0,0,-0.3602,0.0424269,0.115834,-1.69261,-0.222281,1.58266,1.21446,-0.498333,0.0877734,-0.522054,-0.173161,0.602739,0.173465,-0.208859,2.56641,-38.8625,2.63917,27.2009,-0.0845373,2.29058,-0.170181,-0.0246219,-0.0295836,-1.36753,0.694244,0.693312,0.0740056,0.127274,0.897613,0.0371191,-0.72111,0.461437,-0.143048,-0.177336,
-0.379307,0.0437367,0.0961109,-1.70195,-0.183535,0.0188015,0.417067,-0.381134,0.0106272,-0.394934,-0.207328,0.964755,0.140111,-0.258537,0,0,0,0,0,0,0,-0.3602,0.0424269,0.115834,-1.69261,-0.222281,1.58266,1.21446,-0.498333,0.0877734,-0.522054,-0.173161,0.602739,0.173465,-0.208859,2.56641,-38.8625,2.63917,27.2009,-0.0845373,2.29058,-0.170181,-0.530351,-1.06337,-1.55455,1.23202,0.475384,-0.543195,-0.492841,0.922757,-0.567626,-0.777605,0.293381,-0.1537,-0.17763,
-0.380792,0.0437712,0.0945701,-1.70277,-0.179708,0.0193509,0.41604,-0.371336,0.00862786,-0.385182,-0.204854,0.956636,0.137344,-0.256858,0,0,0,0,0,0,0,-0.3602,0.0424269,0.115834,-1.69261,-0.222281,1.58266,1.21446,-0.498333,0.0877734,-0.522054,-0.173161,0.602739,0.173465,-0.208859,2.56641,-38.8625,2.63917,27.2009,-0.0845373,2.29058,-0.170181,-0.530351,-1.06337,-1.55455,1.23202,0.475384,-0.543195,-0.492841,0.922757,-0.567626,-0.777605,0.293381,-0.1537,-0.17763,
-0.382239,0.0437997,0.0930677,-1.70358,-0.175922,0.0198794,0.415018,-0.361661,0.0071202,-0.3756,-0.20149,0.946436,0.132133,-0.255573,0,0,0,0,0,0,0,-0.3602,0.0424269,0.115834,-1.69261,-0.222281,1.58266,1.21446,-0.498333,0.0877734,-0.522054,-0.173161,0.602739,0.173465,-0.208859,2.56641,-38.8625,2.63917,27.2009,-0.0845373,2.29058,-0.170181,-1.04901,-0.905143,-1.44729,1.05674,0.115174,-0.533225,-0.483332,0.706618,-0.559021,-0.747038,0.221425,-0.175371,-0.174372,
-0.383647,0.0438278,0.0916041,-1.70436,-0.172182,0.0203744,0.414022,-0.352095,0.00703493,-0.365901,-0.195533,0.935166,0.123757,-0.248823,0,0,0,0,0,0,0,-0.3602,0.0424269,0.115834,-1.69261,-0.222281,1.58266,1.21446,-0.498333,0.0877734,-0.522054,-0.173161,0.602739,0.173465,-0.208859,2.56641,-38.8625,2.63917,27.2009,-0.0845373,2.29058,-0.170181,-1.04901,-0.905143,-1.44729,1.05674,0.115174,-0.533225,-0.483332,0.706618,-0.559021,-0.747038,0.221425,-0.175371,-0.174372,
-0.385022,0.0438499,0.090174,-1.70513,-0.168475,0.0208466,0.413038,-0.343581,0.00552815,-0.357537,-0.192439,0.926589,0.118035,-0.246051,0,0,0,0,0,0,0,-0.375302,0.0450101,0.100397,-1.6978,-0.202593,1.58729,1.20898,-0.489105,0.0684072,-0.500158,-0.163308,0.692462,0.132808,-0.162993,2.99884,-38.4142,3.08748,26.951,1.07635,2.52221,-0.143631,-0.993841,-0.879293,-1.61931,1.08556,0.211523,-0.513819,-0.462602,0.795572,-0.540261,-0.803401,0.240499,-0.161807,-0.173093,
-0.386364,0.0438644,0.0887759,-1.70589,-0.164821,0.0212992,0.412064,-0.335569,0.00361618,-0.349519,-0.190359,0.913702,0.113146,-0.243516,0,0,0,0,0,0,0,-0.375302,0.0450101,0.100397,-1.6978,-0.202593,1.58729,1.20898,-0.489105,0.0684072,-0.500158,-0.163308,0.692462,0.132808,-0.162993,2.99884,-38.4142,3.08748,26.951,1.07635,2.52221,-0.143631,-0.115276,0.115164,-2.47341,0.707474,1.12416,0.1731,0.22459,1.35642,0.133582,-1.13156,0.382568,-0.119885,-0.178236,
-0.380522,0.0432991,0.0948024,-1.7032,-0.179393,0.0194952,0.414541,-0.366002,-0.00412558,-0.3809,-0.21337,1.01761,0.146416,-0.286114,0,0,0,0,0,0,0,-0.375302,0.0450101,0.100397,-1.6978,-0.202593,1.58729,1.20898,-0.489105,0.0684072,-0.500158,-0.163308,0.692462,0.132808,-0.162993,2.99884,-38.4142,3.08748,26.951,1.07635,2.52221,-0.143631,-0.115276,0.115164,-2.47341,0.707474,1.12416,0.1731,0.22459,1.35642,0.133582,-1.13156,0.382568,-0.119885,-0.178236,
-0.393686,0.0453657,0.0813759,-1.70743,-0.161119,0.0228153,0.410788,-0.31327,-0.014052,-0.327185,-0.196409,0.881325,0.142288,-0.254258,0,0,0,0,0,0,0,-0.375302,0.0450101,0.100397,-1.6978,-0.202593,1.58729,1.20898,-0.489105,0.0684072,-0.500158,-0.163308,0.692462,0.132808,-0.162993,2.99884,-38.4142,3.08748,26.951,1.07635,2.52221,-0.143631,-1.11494,-1.72947,-2.13603,1.68154,0.315002,-0.986355,-0.94758,1.05202,-0.988029,-0.94394,0.211555,-0.110062,-0.174731,
-0.394897,0.0453042,0.0801083,-1.7082,-0.157665,0.0234094,0.409774,-0.302815,-0.0153788,-0.31688,-0.193306,0.863436,0.148517,-0.253389,0,0,0,0,0,0,0,-0.375302,0.0450101,0.100397,-1.6978,-0.202593,1.58729,1.20898,-0.489105,0.0684072,-0.500158,-0.163308,0.692462,0.132808,-0.162993,2.99884,-38.4142,3.08748,26.951,1.07635,2.52221,-0.143631,-1.11494,-1.72947,-2.13603,1.68154,0.315002,-0.986355,-0.94758,1.05202,-0.988029,-0.94394,0.211555,-0.110062,-0.174731,
-0.396067,0.0452429,0.0788823,-1.70895,-0.154289,0.0240052,0.408788,-0.29254,-0.0153184,-0.306511,-0.187375,0.84409,0.148954,-0.246513,0,0,0,0,0,0,0,-0.390413,0.0470959,0.0845887,-1.70279,-0.178947,1.59028,1.2038,-0.45277,0.0532183,-0.468063,-0.153887,0.700975,0.0707672,-0.146989,3.63361,-38.8387,3.61116,26.8042,1.19812,2.49566,-0.177505,-1.18401,-0.224473,-2.0513,0.787925,0.208495,-0.189894,-0.139815,0.829044,-0.219387,-0.920711,0.2917,-0.10171,-0.176631,
-0.3972,0.0451769,0.0776921,-1.70969,-0.150981,0.0246037,0.407813,-0.283374,-0.0165087,-0.297543,-0.18384,0.826979,0.149623,-0.243872,0,0,0,0,0,0,0,-0.390413,0.0470959,0.0845887,-1.70279,-0.178947,1.59028,1.2038,-0.45277,0.0532183,-0.468063,-0.153887,0.700975,0.0707672,-0.146989,3.63361,-38.8387,3.61116,26.8042,1.19812,2.49566,-0.177505,-1.18401,-0.224473,-2.0513,0.787925,0.208495,-0.189894,-0.139815,0.829044,-0.219387,-0.920711,0.2917,-0.10171,-0.176631,
-0.398302,0.0451042,0.0765337,-1.71041,-0.147732,0.025202,0.406847,-0.275263,-0.0181634,-0.289608,-0.18127,0.812112,0.149596,-0.241565,0,0,0,0,0,0,0,-0.390413,0.0470959,0.0845887,-1.70279,-0.178947,1.59028,1.2038,-0.45277,0.0532183,-0.468063,-0.153887,0.700975,0.0707672,-0.146989,3.63361,-38.8387,3.61116,26.8042,1.19812,2.49566,-0.177505,-1.03916,-0.00372923,-2.33173,0.772822,0.396,-0.0581985,-0.00897509,0.981844,-0.0869597,-1.0251,0.373098,-0.0904898,-0.175671,
-0.399374,0.0450243,0.0754035,-1.71113,-0.144534,0.0257981,0.405889,-0.268059,-0.0199897,-0.282557,-0.179199,0.799645,0.149004,-0.239322,0,0,0,0,0,0,0,-0.390413,0.0470959,0.0845887,-1.70279,-0.178947,1.59028,1.2038,-0.45277,0.0532183,-0.468063,-0.153887,0.700975,0.0707672,-0.146989,3.63361,-38.8387,3.61116,26.8042,1.19812,2.49566,-0.177505,-2.05061,-1.71619,-2.08652,1.74103,-0.374457,-1.17614,-1.13404,0.739474,-1.17059,-0.893808,0.279821,-0.0926783,-0.169282,
-0.393894,0.0448369,0.0810923,-1.70797,-0.159544,0.0241617,0.409313,-0.323779,-0.0278781,-0.339313,-0.206129,1.00531,0.175744,-0.283028,0,0,0,0,0,0,0,-0.390413,0.0470959,0.0845887,-1.70279,-0.178947,1.59028,1.2038,-0.45277,0.0532183,-0.468063,-0.153887,0.700975,0.0707672,-0.146989,3.63361,-38.8387,3.61116,26.8042,1.19812,2.49566,-0.177505,-2.05061,-1.71619,-2.08652,1.74103,-0.374457,-1.17614,-1.13404,0.739474,-1.17059,-0.893808,0.279821,-0.0926783,-0.169282,
-0.406953,0.0465423,0.0673829,-1.71219,-0.137307,0.0267021,0.405729,-0.274573,-0.0325098,-0.289143,-0.184591,0.904027,0.153363,-0.251603,0,0,0,0,0,0,0,-0.390413,0.0470959,0.0845887,-1.70279,-0.178947,1.59028,1.2038,-0.45277,0.0532183,-0.468063,-0.153887,0.700975,0.0707672,-0.146989,3.63361,-38.8387,3.61116,26.8042,1.19812,2.49566,-0.177505,-1.40848,1.12469,-2.29628,0.143198,0.0936816,0.451954,0.511984,0.720955,0.403449,-1.00776,0.461415,-0.082128,-0.168151,
-0.408009,0.0464061,0.0662678,-1.71291,-0.133766,0.0272945,0.404727,-0.26409,-0.0340497,-0.278787,-0.180851,0.885198,0.148106,-0.250313,0,0,0,0,0,0,0,-0.403932,0.0483597,0.0707152,-1.70782,-0.158207,1.59219,1.19829,-0.431044,0.0323566,-0.434884,-0.158828,0.601917,0.044238,-0.175329,4.67304,-38.4142,4.48793,27.0264,1.02142,2.5689,-0.123489,-1.40848,1.12469,-2.29628,0.143198,0.0936816,0.451954,0.511984,0.720955,0.403449,-1.00776,0.461415,-0.082128,-0.168151,
-0.409025,0.0462689,0.0651936,-1.71361,-0.130312,0.0278499,0.40375,-0.253907,-0.0342941,-0.268535,-0.174915,0.863494,0.13886,-0.244369,0,0,0,0,0,0,0,-0.403932,0.0483597,0.0707152,-1.70782,-0.158207,1.59219,1.19829,-0.431044,0.0323566,-0.434884,-0.158828,0.601917,0.044238,-0.175329,4.67304,-38.4142,4.48793,27.0264,1.02142,2.5689,-0.123489,-0.450271,1.3605,-2.64042,0.0735228,0.835906,0.753457,0.816029,1.11365,0.694086,-1.12348,0.48315,-0.047864,-0.161795,
-0.410004,0.0461261,0.0641553,-1.71429,-0.126944,0.0283729,0.402782,-0.244778,-0.0357039,-0.259591,-0.171524,0.842172,0.130747,-0.241869,0,0,0,0,0,0,0,-0.403932,0.0483597,0.0707152,-1.70782,-0.158207,1.59219,1.19829,-0.431044,0.0323566,-0.434884,-0.158828,0.601917,0.044238,-0.175329,4.67304,-38.4142,4.48793,27.0264,1.02142,2.5689,-0.123489,-0.450271,1.3605,-2.64042,0.0735228,0.835906,0.753457,0.816029,1.11365,0.694086,-1.12348,0.48315,-0.047864,-0.161795,
-0.41095,0.0459762,0.0631487,-1.71497,-0.123659,0.0288633,0.401824,-0.236648,-0.0374755,-0.251627,-0.169141,0.821306,0.122588,-0.239643,0,0,0,0,0,0,0,-0.403932,0.0483597,0.0707152,-1.70782,-0.158207,1.59219,1.19829,-0.431044,0.0323566,-0.434884,-0.158828,0.601917,0.044238,-0.175329,4.67304,-38.4142,4.48793,27.0264,1.02142,2.5689,-0.123489,-0.995728,-1.10646,-2.84833,1.54964,0.634615,-0.674557,-0.621567,1.3589,-0.692462,-1.20621,0.328841,-0.0832574,-0.156779,
-0.40661,0.0460308,0.0676877,-1.71262,-0.136891,0.0278824,0.404347,-0.267946,-0.0463414,-0.283751,-0.192056,0.985747,0.184532,-0.278717,0,0,0,0,0,0,0,-0.403932,0.0483597,0.0707152,-1.70782,-0.158207,1.59219,1.19829,-0.431044,0.0323566,-0.434884,-0.158828,0.601917,0.044238,-0.175329,4.67304,-38.4142,4.48793,27.0264,1.02142,2.5689,-0.123489,-0.918684,-0.480437,-2.95491,1.27578,0.699179,-0.340016,-0.28137,1.37065,-0.368054,-1.25841,0.43105,-0.0861297,-0.158692,
-0.418447,0.0470247,0.0555393,-1.71677,-0.121409,0.0259433,0.40039,-0.224869,-0.0492497,-0.239794,-0.17705,0.757142,0.0989228,-0.248262,0,0,0,0,0,0,0,-0.415821,0.0487422,0.0582625,-1.71279,-0.13953,1.59333,1.19244,-0.381506,0.00382511,-0.375532,-0.150096,0.593231,0.0228004,-0.183781,4.29218,-38.5649,4.16261,27.3993,0.874935,2.59545,-0.197647,-0.918684,-0.480437,-2.95491,1.27578,0.699179,-0.340016,-0.28137,1.37065,-0.368054,-1.25841,0.43105,-0.0861297,-0.158692,
-0.419304,0.0468205,0.0546213,-1.71747,-0.118493,0.0263941,0.399403,-0.214385,-0.0510393,-0.229494,-0.176287,0.729059,0.112691,-0.246731,0,0,0,0,0,0,0,-0.415821,0.0487422,0.0582625,-1.71279,-0.13953,1.59333,1.19244,-0.381506,0.00382511,-0.375532,-0.150096,0.593231,0.0228004,-0.183781,4.29218,-38.5649,4.16261,27.3993,0.874935,2.59545,-0.197647,-0.643924,-0.957122,-2.82,1.49931,0.787785,-0.524655,-0.469368,1.39679,-0.546437,-1.16223,0.373196,-0.0437672,-0.16558,
-0.420122,0.046615,0.0537433,-1.71817,-0.115703,0.0268947,0.398438,-0.204385,-0.0513816,-0.219487,-0.17327,0.697346,0.125151,-0.241448,0,0,0,0,0,0,0,-0.415821,0.0487422,0.0582625,-1.71279,-0.13953,1.59333,1.19244,-0.381506,0.00382511,-0.375532,-0.150096,0.593231,0.0228004,-0.183781,4.29218,-38.5649,4.16261,27.3993,0.874935,2.59545,-0.197647,-0.643924,-0.957122,-2.82,1.49931,0.787785,-0.524655,-0.469368,1.39679,-0.546437,-1.16223,0.373196,-0.0437672,-0.16558,
-0.420903,0.0464072,0.0529009,-1.71885,-0.113045,0.0274246,0.397481,-0.195319,-0.0519513,-0.2106,-0.170239,0.66455,0.132479,-0.239061,0,0,0,0,0,0,0,-0.415821,0.0487422,0.0582625,-1.71279,-0.13953,1.59333,1.19244,-0.381506,0.00382511,-0.375532,-0.150096,0.593231,0.0228004,-0.183781,4.29218,-38.5649,4.16261,27.3993,0.874935,2.59545,-0.197647,-1.22601,-1.95667,-2.13055,1.91537,0.107836,-1.16589,-1.11531,0.990512,-1.16895,-0.864591,0.271585,-0.0321994,-0.173503,
-0.421652,0.0461962,0.0520903,-1.71952,-0.11052,0.0279685,0.396534,-0.187209,-0.052746,-0.202658,-0.167426,0.631326,0.135977,-0.23689,0,0,0,0,0,0,0,-0.415821,0.0487422,0.0582625,-1.71279,-0.13953,1.59333,1.19244,-0.381506,0.00382511,-0.375532,-0.150096,0.593231,0.0228004,-0.183781,4.29218,-38.5649,4.16261,27.3993,0.874935,2.59545,-0.197647,-0.965888,-1.2418,-1.86384,1.49021,0.0977556,-0.739168,-0.687309,0.827961,-0.750937,-0.741492,0.357189,-0.00430888,-0.17981,
-0.422372,0.0459814,0.0513079,-1.72018,-0.108126,0.0285151,0.395595,-0.179995,-0.0537081,-0.195603,-0.1649,0.598495,0.136642,-0.234739,0,0,0,0,0,0,0,-0.415821,0.0487422,0.0582625,-1.71279,-0.13953,1.59333,1.19244,-0.381506,0.00382511,-0.375532,-0.150096,0.593231,0.0228004,-0.183781,4.29218,-38.5649,4.16261,27.3993,0.874935,2.59545,-0.197647,-0.965888,-1.2418,-1.86384,1.49021,0.0977556,-0.739168,-0.687309,0.827961,-0.750937,-0.741492,0.357189,-0.00430888,-0.17981,
-0.418595,0.0464511,0.0553179,-1.71734,-0.118271,0.028919,0.39903,-0.234735,-0.0641318,-0.251369,-0.186106,0.966734,0.171754,-0.274895,0,0,0,0,0,0,0,-0.426792,0.048787,0.0467362,-1.71756,-0.120598,1.5936,1.18778,-0.332576,-0.00110984,-0.332164,-0.145055,0.538797,-0.000123486,-0.13181,4.11365,-38.1166,3.91267,27.3755,0.440975,2.65496,-0.224197,-0.970712,-0.628722,-1.59615,1.03857,-0.0345273,-0.405918,-0.349872,0.60864,-0.430998,-0.630006,0.340453,0.00751581,-0.188872,
-0.438269,0.0462797,0.0345135,-1.72625,-0.0867666,0.0296796,0.390051,-0.184001,-0.0667847,-0.200627,-0.168111,0.700905,0.154501,-0.243446,0,0,0,0,0,0,0,-0.426792,0.048787,0.0467362,-1.71756,-0.120598,1.5936,1.18778,-0.332576,-0.00110984,-0.332164,-0.145055,0.538797,-0.000123486,-0.13181,4.11365,-38.1166,3.91267,27.3755,0.440975,2.65496,-0.224197,-0.970712,-0.628722,-1.59615,1.03857,-0.0345273,-0.405918,-0.349872,0.60864,-0.430998,-0.630006,0.340453,0.00751581,-0.188872,
-0.438987,0.0460087,0.0337273,-1.72691,-0.0838742,0.030294,0.389087,-0.179623,-0.0677467,-0.196556,-0.165971,0.723094,0.15362,-0.241044,0,0,0,0,0,0,0,-0.426792,0.048787,0.0467362,-1.71756,-0.120598,1.5936,1.18778,-0.332576,-0.00110984,-0.332164,-0.145055,0.538797,-0.000123486,-0.13181,4.11365,-38.1166,3.91267,27.3755,0.440975,2.65496,-0.224197,-1.02897,-0.371167,-1.52702,0.825125,-0.0768747,-0.272378,-0.210463,0.535997,-0.308993,-0.616643,0.290424,-0.0046626,-0.195046,
-0.439694,0.0457397,0.0329518,-1.72756,-0.0808303,0.0308832,0.388133,-0.176663,-0.067247,-0.193865,-0.161458,0.760957,0.147293,-0.238425,0,0,0,0,0,0,0,-0.426792,0.048787,0.0467362,-1.71756,-0.120598,1.5936,1.18778,-0.332576,-0.00110984,-0.332164,-0.145055,0.538797,-0.000123486,-0.13181,4.11365,-38.1166,3.91267,27.3755,0.440975,2.65496,-0.224197,-1.02897,-0.371167,-1.52702,0.825125,-0.0768747,-0.272378,-0.210463,0.535997,-0.308993,-0.616643,0.290424,-0.0046626,-0.195046,
-0.440386,0.0454697,0.0321924,-1.72819,-0.0777016,0.0314401,0.387189,-0.17298,-0.0674895,-0.189847,-0.158337,0.782174,0.13921,-0.236067,0,0,0,0,0,0,0,-0.426792,0.048787,0.0467362,-1.71756,-0.120598,1.5936,1.18778,-0.332576,-0.00110984,-0.332164,-0.145055,0.538797,-0.000123486,-0.13181,4.11365,-38.1166,3.91267,27.3755,0.440975,2.65496,-0.224197,-0.959348,-0.0725349,-1.43825,0.634496,-0.0798338,-0.101835,-0.0334967,0.475116,-0.148964,-0.58415,0.302847,-0.0043935,-0.198456,
-0.441061,0.0451974,0.0314511,-1.72882,-0.074537,0.0319587,0.386254,-0.168675,-0.0680885,-0.185319,-0.155966,0.791152,0.129667,-0.23383,0,0,0,0,0,0,0,-0.436016,0.0487456,0.0365374,-1.72174,-0.105594,1.59364,1.18378,-0.284684,-0.00827344,-0.321976,-0.131103,0.500914,0.00258436,-0.127613,2.56641,-37.6921,2.43684,26.6534,0.948178,2.52221,-0.210464,-1.00949,-0.304981,-2.02609,0.922124,0.149676,-0.232955,-0.164947,0.788781,-0.275141,-0.823478,0.323169,-0.0142068,-0.205393,
-0.437269,0.0460795,0.035557,-1.72599,-0.084799,0.0320683,0.389901,-0.181764,-0.0782431,-0.198431,-0.175096,0.925028,0.234066,-0.269838,0,0,0,0,0,0,0,-0.436016,0.0487456,0.0365374,-1.72174,-0.105594,1.59364,1.18378,-0.284684,-0.00827344,-0.321976,-0.131103,0.500914,0.00258436,-0.127613,2.56641,-37.6921,2.43684,26.6534,0.948178,2.52221,-0.210464,-1.00949,-0.304981,-2.02609,0.922124,0.149676,-0.232955,-0.164947,0.788781,-0.275141,-0.823478,0.323169,-0.0142068,-0.205393,
-0.445456,0.0460306,0.026415,-1.72938,-0.0720208,0.0282368,0.387181,-0.157997,-0.0759883,-0.173774,-0.1618,0.801967,0.115448,-0.244106,0,0,0,0,0,0,0,-0.436016,0.0487456,0.0365374,-1.72174,-0.105594,1.59364,1.18378,-0.284684,-0.00827344,-0.321976,-0.131103,0.500914,0.00258436,-0.127613,2.56641,-37.6921,2.43684,26.6534,0.948178,2.52221,-0.210464,-1.31004,-0.479831,-2.01154,1.04743,-0.0942411,-0.395397,-0.333696,0.689064,-0.425099,-0.785814,0.351775,0.0145912,-0.210511,
-0.44605,0.0457184,0.0257567,-1.73002,-0.068927,0.0287169,0.386212,-0.148672,-0.0780381,-0.164577,-0.161467,0.773463,0.120034,-0.242321,0,0,0,0,0,0,0,-0.436016,0.0487456,0.0365374,-1.72174,-0.105594,1.59364,1.18378,-0.284684,-0.00827344,-0.321976,-0.131103,0.500914,0.00258436,-0.127613,2.56641,-37.6921,2.43684,26.6534,0.948178,2.52221,-0.210464,-1.31004,-0.479831,-2.01154,1.04743,-0.0942411,-0.395397,-0.333696,0.689064,-0.425099,-0.785814,0.351775,0.0145912,-0.210511,
-0.44661,0.0453995,0.0251328,-1.73067,-0.0659651,0.0292404,0.385248,-0.139912,-0.0797386,-0.155969,-0.1617,0.740463,0.130875,-0.240809,0,0,0,0,0,0,0,-0.436016,0.0487456,0.0365374,-1.72174,-0.105594,1.59364,1.18378,-0.284684,-0.00827344,-0.321976,-0.131103,0.500914,0.00258436,-0.127613,2.56641,-37.6921,2.43684,26.6534,0.948178,2.52221,-0.210464,-1.61622,-1.11498,-2.37545,1.48959,-0.0911793,-0.792922,-0.734577,0.885162,-0.810549,-0.948773,0.303393,-0.0113869,-0.21471,
-0.447136,0.0450761,0.0245413,-1.73132,-0.0631493,0.0298311,0.384291,-0.131654,-0.0808355,-0.14788,-0.161953,0.703945,0.147683,-0.239461,0,0,0,0,0,0,0,-0.436016,0.0487456,0.0365374,-1.72174,-0.105594,1.59364,1.18378,-0.284684,-0.00827344,-0.321976,-0.131103,0.500914,0.00258436,-0.127613,2.56641,-37.6921,2.43684,26.6534,0.948178,2.52221,-0.210464,-1.87516,-2.0545,-2.78347,2.16339,-0.0370824,-1.34651,-1.29277,1.1699,-1.34592,-1.13979,0.283022,-0.0490529,-0.216967,
-0.44763,0.0447533,0.0239834,-1.73196,-0.0605199,0.0304984,0.383352,-0.123377,-0.0807053,-0.139477,-0.160576,0.657358,0.166824,-0.23457,0,0,0,0,0,0,0,-0.446956,0.0484776,0.024817,-1.72632,-0.0838512,1.59375,1.17831,-0.236688,-0.00863633,-0.262386,-0.0947633,0.550477,0.00374975,-0.134722,2.87189,-37.4422,2.6114,26.3281,1.31988,2.5158,-0.217789,-1.87516,-2.0545,-2.78347,2.16339,-0.0370824,-1.34651,-1.29277,1.1699,-1.34592,-1.13979,0.283022,-0.0490529,-0.216967,
-0.448094,0.0444317,0.0234542,-1.73259,-0.0580731,0.0312116,0.382423,-0.11599,-0.0804038,-0.132289,-0.158069,0.61171,0.17829,-0.232416,0,0,0,0,0,0,0,-0.446956,0.0484776,0.024817,-1.72632,-0.0838512,1.59375,1.17831,-0.236688,-0.00863633,-0.262386,-0.0947633,0.550477,0.00374975,-0.134722,2.87189,-37.4422,2.6114,26.3281,1.31988,2.5158,-0.217789,-2.26948,-1.74538,-2.54805,1.98393,-0.45074,-1.29359,-1.24185,0.885079,-1.2889,-1.02761,0.359927,-0.0291807,-0.219513,
-0.445914,0.0450911,0.0258394,-1.73062,-0.0662974,0.0332203,0.385009,-0.150176,-0.0942855,-0.167608,-0.169508,0.966877,0.228742,-0.266026,0,0,0,0,0,0,0,-0.446956,0.0484776,0.024817,-1.72632,-0.0838512,1.59375,1.17831,-0.236688,-0.00863633,-0.262386,-0.0947633,0.550477,0.00374975,-0.134722,2.87189,-37.4422,2.6114,26.3281,1.31988,2.5158,-0.217789,-2.26948,-1.74538,-2.54805,1.98393,-0.45074,-1.29359,-1.24185,0.885079,-1.2889,-1.02761,0.359927,-0.0291807,-0.219513,
-0.454653,0.0447955,0.0163344,-1.73446,-0.0530779,0.0328981,0.380907,-0.109852,-0.0896067,-0.127361,-0.157588,0.578756,0.232863,-0.237176,0,0,0,0,0,0,0,-0.446956,0.0484776,0.024817,-1.72632,-0.0838512,1.59375,1.17831,-0.236688,-0.00863633,-0.262386,-0.0947633,0.550477,0.00374975,-0.134722,2.87189,-37.4422,2.6114,26.3281,1.31988,2.5158,-0.217789,-2.35878,-0.108071,-2.52445,1.05381,-0.583862,-0.476332,-0.41646,0.626643,-0.495695,-1.01645,0.477768,-0.0180649,-0.227841,
-0.455081,0.0444349,0.015836,-1.73508,-0.0506974,0.0338186,0.379968,-0.106774,-0.0901655,-0.124599,-0.155524,0.595137,0.230136,-0.234752,0,0,0,0,0,0,0,-0.446956,0.0484776,0.024817,-1.72632,-0.0838512,1.59375,1.17831,-0.236688,-0.00863633,-0.262386,-0.0947633,0.550477,0.00374975,-0.134722,2.87189,-37.4422,2.6114,26.3281,1.31988,2.5158,-0.217789,-2.35878,-0.108071,-2.52445,1.05381,-0.583862,-0.476332,-0.41646,0.626643,-0.495695,-1.01645,0.477768,-0.0180649,-0.227841,
-0.455502,0.0440777,0.015342,-1.73568,-0.0481774,0.0347019,0.379036,-0.105348,-0.0892841,-0.123512,-0.15122,0.629981,0.220812,-0.233001,0,0,0,0,0,0,0,-0.454665,0.0481416,0.0167668,-1.72957,-0.0679371,1.59403,1.17343,-0.228325,-0.0132843,-0.232724,-0.103258,0.462265,0.0283922,-0.135967,3.02265,-37.4422,2.76216,26.2051,1.54052,2.42974,-0.224197,-2.24348,1.24749,-2.47141,0.286715,-0.584377,0.236835,0.308369,0.454879,0.191628,-1.00221,0.581178,-0.0172904,-0.232257,
-0.455914,0.0437211,0.0148586,-1.73627,-0.0455912,0.0355399,0.378113,-0.103043,-0.0891574,-0.120837,-0.148172,0.646563,0.209516,-0.230815,0,0,0,0,0,0,0,-0.454665,0.0481416,0.0167668,-1.72957,-0.0679371,1.59403,1.17343,-0.228325,-0.0132843,-0.232724,-0.103258,0.462265,0.0283922,-0.135967,3.02265,-37.4422,2.76216,26.2051,1.54052,2.42974,-0.224197,-2.02314,1.37024,-2.83105,0.32714,-0.2655,0.34395,0.418205,0.712451,0.293919,-1.18149,0.604249,-0.0542156,-0.234426,
-0.456314,0.0433635,0.0143887,-1.73686,-0.0429934,0.0363257,0.377198,-0.0999524,-0.089405,-0.11749,-0.145799,0.649446,0.196449,-0.228686,0,0,0,0,0,0,0,-0.454665,0.0481416,0.0167668,-1.72957,-0.0679371,1.59403,1.17343,-0.228325,-0.0132843,-0.232724,-0.103258,0.462265,0.0283922,-0.135967,3.02265,-37.4422,2.76216,26.2051,1.54052,2.42974,-0.224197,-2.02314,1.37024,-2.83105,0.32714,-0.2655,0.34395,0.418205,0.712451,0.293919,-1.18149,0.604249,-0.0542156,-0.234426,
-0.454342,0.0442716,0.016621,-1.73492,-0.0460789,0.0367916,0.37977,-0.0969571,-0.103314,-0.114745,-0.162392,0.815279,0.321582,-0.259093,0,0,0,0,0,0,0,-0.454665,0.0481416,0.0167668,-1.72957,-0.0679371,1.59403,1.17343,-0.228325,-0.0132843,-0.232724,-0.103258,0.462265,0.0283922,-0.135967,3.02265,-37.4422,2.76216,26.2051,1.54052,2.42974,-0.224197,-2.41869,0.0402537,-2.66783,1.05484,-0.608748,-0.438286,-0.375853,0.650051,-0.458716,-1.06437,0.540938,-0.00876024,-0.23461,
-0.461283,0.0443172,0.00937083,-1.73743,-0.0382563,0.0310413,0.376301,-0.0833397,-0.0952767,-0.100294,-0.152608,0.56674,0.142868,-0.233658,0,0,0,0,0,0,0,-0.454665,0.0481416,0.0167668,-1.72957,-0.0679371,1.59403,1.17343,-0.228325,-0.0132843,-0.232724,-0.103258,0.462265,0.0283922,-0.135967,3.02265,-37.4422,2.76216,26.2051,1.54052,2.42974,-0.224197,-2.41869,0.0402537,-2.66783,1.05484,-0.608748,-0.438286,-0.375853,0.650051,-0.458716,-1.06437,0.540938,-0.00876024,-0.23461,
-0.46159,0.0439321,0.00899526,-1.73804,-0.0361063,0.0316299,0.375374,-0.0768018,-0.0962851,-0.0938907,-0.152068,0.53749,0.147147,-0.231797,0,0,0,0,0,0,0,-0.454665,0.0481416,0.0167668,-1.72957,-0.0679371,1.59403,1.17343,-0.228325,-0.0132843,-0.232724,-0.103258,0.462265,0.0283922,-0.135967,3.02265,-37.4422,2.76216,26.2051,1.54052,2.42974,-0.224197,-2.53833,-0.529139,-3.017,1.45139,-0.550147,-0.75965,-0.701128,0.832063,-0.769205,-1.16801,0.511481,0.0222381,-0.236294,
-0.461873,0.0435481,0.00864332,-1.73864,-0.0340826,0.0322384,0.374459,-0.0708442,-0.0959982,-0.0879857,-0.149979,0.505931,0.152136,-0.228638,0,0,0,0,0,0,0,-0.46065,0.0473526,0.00958924,-1.73304,-0.0548217,1.59541,1.16984,-0.171817,-0.0302248,-0.201799,-0.1025,0.405991,0.0441037,-0.107671,2.76874,-37.466,2.63917,26.5305,1.20453,2.47643,-0.278213,-2.67482,-0.565045,-2.86264,1.42244,-0.696733,-0.806182,-0.747739,0.725058,-0.815527,-1.10985,0.485569,0.019808,-0.244514,
-0.462135,0.0431648,0.00831339,-1.73923,-0.0322059,0.0328475,0.373553,-0.0653102,-0.095828,-0.082484,-0.14762,0.469172,0.152264,-0.226591,0,0,0,0,0,0,0,-0.46065,0.0473526,0.00958924,-1.73304,-0.0548217,1.59541,1.16984,-0.171817,-0.0302248,-0.201799,-0.1025,0.405991,0.0441037,-0.107671,2.76874,-37.466,2.63917,26.5305,1.20453,2.47643,-0.278213,-2.67482,-0.565045,-2.86264,1.42244,-0.696733,-0.806182,-0.747739,0.725058,-0.815527,-1.10985,0.485569,0.019808,-0.244514,
-0.462376,0.0427813,0.00800343,-1.73982,-0.0304904,0.0334456,0.372654,-0.0602647,-0.0958791,-0.0774889,-0.145507,0.428885,0.149531,-0.224609,0,0,0,0,0,0,0,-0.46065,0.0473526,0.00958924,-1.73304,-0.0548217,1.59541,1.16984,-0.171817,-0.0302248,-0.201799,-0.1025,0.405991,0.0441037,-0.107671,2.76874,-37.466,2.63917,26.5305,1.20453,2.47643,-0.278213,-2.38615,0.0295391,-2.78911,1.07852,-0.608079,-0.434513,-0.372443,0.654791,-0.454689,-1.04944,0.546977,0.0545624,-0.25188,
-0.462599,0.0423968,0.0077111,-1.74039,-0.0289428,0.0340277,0.371764,-0.0557887,-0.0961137,-0.0730815,-0.143832,0.386894,0.145522,-0.222596,0,0,0,0,0,0,0,-0.46065,0.0473526,0.00958924,-1.73304,-0.0548217,1.59541,1.16984,-0.171817,-0.0302248,-0.201799,-0.1025,0.405991,0.0441037,-0.107671,2.76874,-37.466,2.63917,26.5305,1.20453,2.47643,-0.278213,-2.38615,0.0295391,-2.78911,1.07852,-0.608079,-0.434513,-0.372443,0.654791,-0.454689,-1.04944,0.546977,0.0545624,-0.25188,
-0.461248,0.0437027,0.00936155,-1.73807,-0.0305395,0.0362959,0.375188,-0.0802057,-0.111018,-0.0977597,-0.159875,0.836534,0.266824,-0.255098,0,0,0,0,0,0,0,-0.46065,0.0473526,0.00958924,-1.73304,-0.0548217,1.59541,1.16984,-0.171817,-0.0302248,-0.201799,-0.1025,0.405991,0.0441037,-0.107671,2.76874,-37.466,2.63917,26.5305,1.20453,2.47643,-0.278213,-2.31723,0.522072,-2.99594,0.822654,-0.508545,-0.16626,-0.100359,0.683411,-0.196576,-1.10852,0.564416,0.0786382,-0.255379,
-0.465597,0.0429562,0.00382641,-1.74083,-0.0333243,0.0338517,0.372951,-0.0647615,-0.103906,-0.0831931,-0.155457,0.430233,0.221127,-0.225695,0,0,0,0,0,0,0,-0.465945,0.0462665,0.00401908,-1.73647,-0.0430406,1.59672,1.16698,-0.166723,-0.0388378,-0.166623,-0.107826,0.308767,0.0238828,-0.0875151,2.89569,-37.2676,2.71455,26.5305,0.990292,2.4627,-0.311172,-2.31723,0.522072,-2.99594,0.822654,-0.508545,-0.16626,-0.100359,0.683411,-0.196576,-1.10852,0.564416,0.0786382,-0.255379,
-0.465864,0.0425431,0.00348344,-1.74145,-0.0313315,0.0347816,0.372047,-0.0666767,-0.103272,-0.0857422,-0.154842,0.498204,0.232475,-0.226015,0,0,0,0,0,0,0,-0.465945,0.0462665,0.00401908,-1.73647,-0.0430406,1.59672,1.16698,-0.166723,-0.0388378,-0.166623,-0.107826,0.308767,0.0238828,-0.0875151,2.89569,-37.2676,2.71455,26.5305,0.990292,2.4627,-0.311172,-2.42871,0.921531,-2.91009,0.528846,-0.578436,0.0189185,0.0889746,0.582872,-0.0221834,-1.10467,0.519588,0.0500204,-0.262351,
