PerkyPenguin/Analysis-on-Approximated-Derivatives/Code_and_Data/PaperData/Real_Robot/Scene_1/contact_change/16/trajectory.csv
Commanded Joint 0 Position,Commanded Joint 1 Position,Commanded Joint 2 Position,Commanded Joint 3 Position,Commanded Joint 4 Position,Commanded Joint 5 Position,Commanded Joint 6 Position,Commanded Joint 0 Velocity,Commanded Joint 1 Velocity,Commanded Joint 2 Velocity,Commanded Joint 3 Velocity,Commanded Joint 4 Velocity,Commanded Joint 5 Velocity,Commanded Joint 6 Velocity,Commanded Joint 0 Torque,Commanded Joint 1 Torque,Commanded Joint 2 Torque,Commanded Joint 3 Torque,Commanded Joint 4 Torque,Commanded Joint 5 Torque,Commanded Joint 6 Torque,Actual Joint 0 Position,Actual Joint 1 Position,Actual Joint 2 Position,Actual Joint 3 Position,Actual Joint 4 Position,Actual Joint 5 Position,Actual Joint 6 Position,Actual Joint 0 Velocity,Actual Joint 1 Velocity,Actual Joint 2 Velocity,Actual Joint 3 Velocity,Actual Joint 4 Velocity,Actual Joint 5 Velocity,Actual Joint 6 Velocity,Actual Joint 0 Torque,Actual Joint 1 Torque,Actual Joint 2 Torque,Actual Joint 3 Torque,Actual Joint 4 Torque,Actual Joint 5 Torque,Actual Joint 6 Torque,EE ext force 0,EE ext force 1,EE ext force 2,EE ext force 3,EE ext force 4,EE ext force 5,joint ext torque 0,joint ext torque 1,joint ext torque 2,joint ext torque 3,joint ext torque 4,joint ext torque 5,joint ext torque 6,
0.010272,-0.201253,-0.333737,-1.65934,-0.0905899,-0.0931863,-0.383188,-0.00172384,0.0138472,-0.0119163,-0.149942,0.0115202,0.198139,-0.0021532,0,0,0,0,0,0,0,0.0102813,-0.20122,-0.333645,-1.65784,-0.0907414,1.47564,0.402233,0.000123903,0.00123793,-0.000200773,-0.00358133,-0.00244494,0.0010673,0.000277824,-0.0956386,-25.4094,1.96077,25.8798,0.489498,2.9406,-0.0365141,-1.24505,0.119774,-0.602476,0.0295191,-0.413731,-0.129438,-0.0557227,-0.00476128,-0.203011,-0.399031,-0.088491,-0.329821,-0.0359452,
0.01026,-0.201123,-0.333796,-1.65998,-0.0905527,-0.092366,-0.383196,-0.00298464,0.0324822,-0.0148379,-0.159092,0.00928677,0.205081,-0.00204978,0,0,0,0,0,0,0,0.0102813,-0.20122,-0.333645,-1.65784,-0.0907414,1.47564,0.402233,0.000123903,0.00123793,-0.000200773,-0.00358133,-0.00244494,0.0010673,0.000277824,-0.0956386,-25.4094,1.96077,25.8798,0.489498,2.9406,-0.0365141,-1.24505,0.119774,-0.602476,0.0295191,-0.413731,-0.129438,-0.0557227,-0.00476128,-0.203011,-0.399031,-0.088491,-0.329821,-0.0359452,
0.0102806,-0.201195,-0.333648,-1.65786,-0.0907656,-0.0951754,-0.383165,-3.66397e-05,0.00133123,-0.000128783,-0.000849704,-0.00118062,-0.00115812,-1.92028e-06,0,0,0,0,0,0,0,0.0102813,-0.20122,-0.333645,-1.65784,-0.0907414,1.47564,0.402233,0.000123903,0.00123793,-0.000200773,-0.00358133,-0.00244494,0.0010673,0.000277824,-0.0956386,-25.4094,1.96077,25.8798,0.489498,2.9406,-0.0365141,-1.2982,0.125069,-0.635755,0.0234119,-0.441241,-0.136456,-0.0594811,-0.0147443,-0.211735,-0.404216,-0.096334,-0.329302,-0.0355405,
0.0102805,-0.201191,-0.333648,-1.65786,-0.0907697,-0.0951799,-0.383165,-2.5885e-05,0.00115383,-0.000109604,-0.000729972,-0.00101798,-0.00111912,-1.39947e-06,0,0,0,0,0,0,0,0.0102813,-0.20122,-0.333645,-1.65784,-0.0907414,1.47564,0.402233,0.000123903,0.00123793,-0.000200773,-0.00358133,-0.00244494,0.0010673,0.000277824,-0.0956386,-25.4094,1.96077,25.8798,0.489498,2.9406,-0.0365141,-1.2982,0.125069,-0.635755,0.0234119,-0.441241,-0.136456,-0.0594811,-0.0147443,-0.211735,-0.404216,-0.096334,-0.329302,-0.0355405,
0.0102805,-0.201187,-0.333648,-1.65787,-0.0907732,-0.0951842,-0.383165,-1.66329e-05,0.00099268,-9.3853e-05,-0.000633992,-0.000876391,-0.00106211,-1.21531e-06,0,0,0,0,0,0,0,0.0102813,-0.20122,-0.333645,-1.65784,-0.0907414,1.47564,0.402233,0.000123903,0.00123793,-0.000200773,-0.00358133,-0.00244494,0.0010673,0.000277824,-0.0956386,-25.4094,1.96077,25.8798,0.489498,2.9406,-0.0365141,-1.1267,0.234681,-0.93519,-0.00819352,-0.205013,-0.0553293,0.0195927,0.164482,-0.131891,-0.532395,-0.0840155,-0.324998,-0.0361982,
0.0102804,-0.201183,-0.333649,-1.65787,-0.0907762,-0.0951882,-0.383165,-9.13124e-06,0.000849231,-8.10677e-05,-0.000552181,-0.000752848,-0.000998778,-1.12118e-06,0,0,0,0,0,0,0,0.0102751,-0.201306,-0.333646,-1.65803,-0.0907277,1.47587,0.402234,0.000494952,-0.0113274,-0.000476504,-0.0224409,0.00174761,0.0426374,-0.000211107,-0.0202602,-24.2153,1.88936,23.5907,0.404354,3.09258,-0.0429228,-1.1267,0.234681,-0.93519,-0.00819352,-0.205013,-0.0553293,0.0195927,0.164482,-0.131891,-0.532395,-0.0840155,-0.324998,-0.0361982,
0.0102804,-0.20118,-0.333649,-1.65787,-0.0907788,-0.0951919,-0.383165,-3.20529e-06,0.000722425,-7.07299e-05,-0.000480627,-0.000645213,-0.000934165,-1.04143e-06,0,0,0,0,0,0,0,0.0102751,-0.201306,-0.333646,-1.65803,-0.0907277,1.47587,0.402234,0.000494952,-0.0113274,-0.000476504,-0.0224409,0.00174761,0.0426374,-0.000211107,-0.0202602,-24.2153,1.88936,23.5907,0.404354,3.09258,-0.0429228,-3.16254,0.396697,-1.33524,-0.099845,-1.64079,-0.346953,-0.259362,-0.593592,-0.419259,-0.422167,-0.116583,-0.322375,-0.0337768,
0.0102804,-0.201178,-0.333649,-1.65787,-0.090781,-0.0951954,-0.383165,1.40377e-06,0.000610573,-6.23853e-05,-0.000417409,-0.000551668,-0.000870714,-9.56916e-07,0,0,0,0,0,0,0,0.0102751,-0.201306,-0.333646,-1.65803,-0.0907277,1.47587,0.402234,0.000494952,-0.0113274,-0.000476504,-0.0224409,0.00174761,0.0426374,-0.000211107,-0.0202602,-24.2153,1.88936,23.5907,0.404354,3.09258,-0.0429228,-1.67231,0.0617892,-1.82189,0.227731,-0.352162,-0.226985,-0.142229,0.19672,-0.344019,-0.742455,-0.104576,-0.271375,-0.0353017,
0.0101573,-0.201145,-0.333741,-1.65774,-0.089218,-0.0961222,-0.383164,-0.0117056,0.00539964,-0.0105552,0.00877153,0.174098,-0.108887,0.000390972,0,0,0,0,0,0,0,0.0102751,-0.201306,-0.333646,-1.65803,-0.0907277,1.47587,0.402234,0.000494952,-0.0113274,-0.000476504,-0.0224409,0.00174761,0.0426374,-0.000211107,-0.0202602,-24.2153,1.88936,23.5907,0.404354,3.09258,-0.0429228,-1.67231,0.0617892,-1.82189,0.227731,-0.352162,-0.226985,-0.142229,0.19672,-0.344019,-0.742455,-0.104576,-0.271375,-0.0353017,
0.0101494,-0.201272,-0.333748,-1.65794,-0.0891823,-0.0956712,-0.383164,-0.0118862,0.00344334,-0.0109094,0.00960752,0.174529,-0.0955526,0.00037235,0,0,0,0,0,0,0,0.0102751,-0.201306,-0.333646,-1.65803,-0.0907277,1.47587,0.402234,0.000494952,-0.0113274,-0.000476504,-0.0224409,0.00174761,0.0426374,-0.000211107,-0.0202602,-24.2153,1.88936,23.5907,0.404354,3.09258,-0.0429228,-0.875821,-0.082799,-1.73704,0.331549,0.204064,-0.14945,-0.0730062,0.487635,-0.272759,-0.781052,-0.087685,-0.24045,-0.0357174,
0.0101025,-0.201263,-0.333794,-1.65791,-0.0883591,-0.0961455,-0.383162,-0.0117084,0.00226926,-0.0114,0.00854292,0.205802,-0.118567,0.00051477,0,0,0,0,0,0,0,0.010285,-0.201233,-0.333641,-1.65818,-0.0907233,1.47636,0.402232,-0.000510144,0.000182362,-0.00110247,0.00436138,0.00735962,6.31644e-05,-0.000816587,-0.119442,-25.3618,1.91316,25.6815,0.367733,3.24547,-0.0163725,-0.875821,-0.082799,-1.73704,0.331549,0.204064,-0.14945,-0.0730062,0.487635,-0.272759,-0.781052,-0.087685,-0.24045,-0.0357174,
0.0100585,-0.201259,-0.333839,-1.65788,-0.0874394,-0.096694,-0.38316,-0.0110171,0.00106473,-0.011147,0.00714711,0.229908,-0.137133,0.000587962,0,0,0,0,0,0,0,0.010285,-0.201233,-0.333641,-1.65818,-0.0907233,1.47636,0.402232,-0.000510144,0.000182362,-0.00110247,0.00436138,0.00735962,6.31644e-05,-0.000816587,-0.119442,-25.3618,1.91316,25.6815,0.367733,3.24547,-0.0163725,-1.30422,0.0416515,-1.18679,0.138025,-0.368423,-0.171301,-0.0945544,0.0592991,-0.2631,-0.481739,-0.0889642,-0.200916,-0.0348832,
0.0100183,-0.201258,-0.33388,-1.65786,-0.0864448,-0.0973032,-0.383157,-0.0100505,4.2979e-05,-0.0104489,0.00582264,0.248657,-0.152292,0.000622628,0,0,0,0,0,0,0,0.010285,-0.201233,-0.333641,-1.65818,-0.0907233,1.47636,0.402232,-0.000510144,0.000182362,-0.00110247,0.00436138,0.00735962,6.31644e-05,-0.000816587,-0.119442,-25.3618,1.91316,25.6815,0.367733,3.24547,-0.0163725,-1.06923,0.0473421,-1.57928,0.220886,-0.0204998,-0.125472,-0.0461694,0.32799,-0.237725,-0.686163,-0.0688239,-0.229802,-0.0353532,
0.00998247,-0.201261,-0.333918,-1.65784,-0.0853915,-0.0979619,-0.383155,-0.00895089,-0.000756201,-0.00949891,0.00466675,0.263337,-0.164685,0.000634265,0,0,0,0,0,0,0,0.010285,-0.201233,-0.333641,-1.65818,-0.0907233,1.47636,0.402232,-0.000510144,0.000182362,-0.00110247,0.00436138,0.00735962,6.31644e-05,-0.000816587,-0.119442,-25.3618,1.91316,25.6815,0.367733,3.24547,-0.0163725,-1.06923,0.0473421,-1.57928,0.220886,-0.0204998,-0.125472,-0.0461694,0.32799,-0.237725,-0.686163,-0.0688239,-0.229802,-0.0353532,
0.00997914,-0.201168,-0.333856,-1.65761,-0.0861584,-0.0986028,-0.383134,-0.0269382,0.00904519,-0.0222599,0.0355684,0.521621,-0.42275,0.00326271,0,0,0,0,0,0,0,0.010285,-0.201233,-0.333641,-1.65818,-0.0907233,1.47636,0.402232,-0.000510144,0.000182362,-0.00110247,0.00436138,0.00735962,6.31644e-05,-0.000816587,-0.119442,-25.3618,1.91316,25.6815,0.367733,3.24547,-0.0163725,-1.78385,-0.0671192,-1.18156,0.304869,-0.726271,-0.305564,-0.215225,-0.141045,-0.431663,-0.463648,-0.0213169,-0.245208,-0.0337064,
0.00998829,-0.201093,-0.333847,-1.65774,-0.0861232,-0.0980468,-0.383139,-0.0268462,0.00810942,-0.0220469,0.0341759,0.523835,-0.40734,0.00312029,0,0,0,0,0,0,0,0.0102287,-0.201165,-0.333686,-1.65811,-0.0895623,1.47637,0.402237,-0.00158659,-0.00191457,-0.00182146,-7.83222e-05,0.0740776,-0.00400311,-0.000140426,0.384403,-25.7347,2.28609,26.0822,0.929867,3.05321,-0.0301054,-1.78385,-0.0671192,-1.18156,0.304869,-0.726271,-0.305564,-0.215225,-0.141045,-0.431663,-0.463648,-0.0213169,-0.245208,-0.0337064,
0.00988702,-0.201081,-0.333937,-1.65763,-0.0836286,-0.0999746,-0.383125,-0.0253164,0.00322813,-0.0223719,0.0273837,0.623657,-0.481946,0.00344938,0,0,0,0,0,0,0,0.0102287,-0.201165,-0.333686,-1.65811,-0.0895623,1.47637,0.402237,-0.00158659,-0.00191457,-0.00182146,-7.83222e-05,0.0740776,-0.00400311,-0.000140426,0.384403,-25.7347,2.28609,26.0822,0.929867,3.05321,-0.0301054,-1.52559,-0.0986132,-0.873457,0.35939,-0.654411,-0.271855,-0.174416,-0.156169,-0.413218,-0.389408,0.0554329,-0.253826,-0.0342553,
0.00979671,-0.201084,-0.33402,-1.65755,-0.0808179,-0.102139,-0.38311,-0.0225766,-0.00080653,-0.020844,0.0209209,0.702658,-0.541026,0.00362402,0,0,0,0,0,0,0,0.0102287,-0.201165,-0.333686,-1.65811,-0.0895623,1.47637,0.402237,-0.00158659,-0.00191457,-0.00182146,-7.83222e-05,0.0740776,-0.00400311,-0.000140426,0.384403,-25.7347,2.28609,26.0822,0.929867,3.05321,-0.0301054,-1.52559,-0.0986132,-0.873457,0.35939,-0.654411,-0.271855,-0.174416,-0.156169,-0.413218,-0.389408,0.0554329,-0.253826,-0.0342553,
0.00971992,-0.201099,-0.334093,-1.65749,-0.0777546,-0.10449,-0.383096,-0.019198,-0.00383255,-0.0182148,0.0152877,0.765838,-0.587828,0.00370631,0,0,0,0,0,0,0,0.0102287,-0.201165,-0.333686,-1.65811,-0.0895623,1.47637,0.402237,-0.00158659,-0.00191457,-0.00182146,-7.83222e-05,0.0740776,-0.00400311,-0.000140426,0.384403,-25.7347,2.28609,26.0822,0.929867,3.05321,-0.0301054,-0.971473,-0.426108,-0.906342,0.677435,-0.213765,-0.31785,-0.21808,0.0976745,-0.502376,-0.488918,0.10946,-0.269461,-0.0353141,
0.00965779,-0.201123,-0.334153,-1.65744,-0.0744873,-0.106989,-0.383081,-0.0155334,-0.00594355,-0.0149784,0.0105147,0.816835,-0.62467,0.00372985,0,0,0,0,0,0,0,0.0102287,-0.201165,-0.333686,-1.65811,-0.0895623,1.47637,0.402237,-0.00158659,-0.00191457,-0.00182146,-7.83222e-05,0.0740776,-0.00400311,-0.000140426,0.384403,-25.7347,2.28609,26.0822,0.929867,3.05321,-0.0301054,-1.47385,-0.0931103,-0.140553,0.416326,-0.886884,-0.257553,-0.150899,-0.407172,-0.418114,-0.171994,0.217604,-0.304522,-0.0357185,
0.0108745,-0.201353,-0.33293,-1.65805,-0.0877774,-0.0998937,-0.383022,0.0715193,-0.0168989,0.0849228,0.00337676,0.351186,-0.631461,0.0120341,0,0,0,0,0,0,0,0.0102287,-0.201165,-0.333686,-1.65811,-0.0895623,1.47637,0.402237,-0.00158659,-0.00191457,-0.00182146,-7.83222e-05,0.0740776,-0.00400311,-0.000140426,0.384403,-25.7347,2.28609,26.0822,0.929867,3.05321,-0.0301054,-1.47385,-0.0931103,-0.140553,0.416326,-0.886884,-0.257553,-0.150899,-0.407172,-0.418114,-0.171994,0.217604,-0.304522,-0.0357185,
0.0108313,-0.201302,-0.332974,-1.65801,-0.0860979,-0.0999421,-0.383013,0.0728243,-0.0179487,0.0854404,0.00165754,0.385589,-0.635542,0.0123532,0,0,0,0,0,0,0,0.0100304,-0.201078,-0.333864,-1.65788,-0.0840455,1.47538,0.402235,-0.0137173,0.00450611,-0.00880342,0.0107287,0.272351,-0.0658578,0.000255079,0.562931,-25.9847,2.28609,25.856,1.87011,2.23107,-0.0227812,-0.733067,-0.348218,0.185146,0.741997,-0.377534,-0.238994,-0.124935,-0.147326,-0.454594,-0.24898,0.36594,-0.409291,-0.0350898,
0.0111975,-0.201391,-0.332548,-1.65804,-0.0842178,-0.103011,-0.382965,0.0915421,-0.0222667,0.106508,-0.0077348,0.470022,-0.767125,0.0119764,0,0,0,0,0,0,0,0.0100304,-0.201078,-0.333864,-1.65788,-0.0840455,1.47538,0.402235,-0.0137173,0.00450611,-0.00880342,0.0107287,0.272351,-0.0658578,0.000255079,0.562931,-25.9847,2.28609,25.856,1.87011,2.23107,-0.0227812,-0.733067,-0.348218,0.185146,0.741997,-0.377534,-0.238994,-0.124935,-0.147326,-0.454594,-0.24898,0.36594,-0.409291,-0.0350898,
0.0116286,-0.201489,-0.33205,-1.65811,-0.0820349,-0.106509,-0.382919,0.107796,-0.0245907,0.124573,-0.0167062,0.545721,-0.874656,0.0116149,0,0,0,0,0,0,0,0.0100304,-0.201078,-0.333864,-1.65788,-0.0840455,1.47538,0.402235,-0.0137173,0.00450611,-0.00880342,0.0107287,0.272351,-0.0658578,0.000255079,0.562931,-25.9847,2.28609,25.856,1.87011,2.23107,-0.0227812,-0.377798,-0.344174,0.251543,0.933895,-0.0504285,-0.173984,-0.0500506,0.0590416,-0.438218,-0.403136,0.534763,-0.545415,-0.032601,
0.0121164,-0.20159,-0.331489,-1.65821,-0.079582,-0.110361,-0.382873,0.121945,-0.0252651,0.14015,-0.024867,0.61323,-0.962822,0.011278,0,0,0,0,0,0,0,0.0100304,-0.201078,-0.333864,-1.65788,-0.0840455,1.47538,0.402235,-0.0137173,0.00450611,-0.00880342,0.0107287,0.272351,-0.0658578,0.000255079,0.562931,-25.9847,2.28609,25.856,1.87011,2.23107,-0.0227812,-0.769971,0.00476254,0.556488,0.744882,-0.401441,-0.0938087,0.0450575,-0.161791,-0.357341,-0.33972,0.634002,-0.649424,-0.0242342,
0.0126536,-0.201689,-0.330875,-1.65834,-0.0768893,-0.114501,-0.38283,0.134295,-0.024674,0.153645,-0.0321432,0.673175,-1.03521,0.0109638,0,0,0,0,0,0,0,0.0100304,-0.201078,-0.333864,-1.65788,-0.0840455,1.47538,0.402235,-0.0137173,0.00450611,-0.00880342,0.0107287,0.272351,-0.0658578,0.000255079,0.562931,-25.9847,2.28609,25.856,1.87011,2.23107,-0.0227812,-0.769971,0.00476254,0.556488,0.744882,-0.401441,-0.0938087,0.0450575,-0.161791,-0.357341,-0.33972,0.634002,-0.649424,-0.0242342,
0.013234,-0.201781,-0.330213,-1.65849,-0.0739844,-0.11888,-0.382787,0.145097,-0.0231571,0.165379,-0.038566,0.72622,-1.09466,0.0106685,0,0,0,0,0,0,0,0.00975379,-0.201156,-0.333937,-1.65764,-0.0751745,1.47238,0.402236,0.00758603,-0.00372838,0.0139544,0.0028413,0.189493,-0.114463,0.000497203,1.32465,-24.9373,3.58735,25.4593,1.41235,1.88592,-0.0163725,-0.552508,-0.0443835,0.951559,0.709518,-0.264046,-0.087409,0.0254764,-0.0945517,-0.319097,-0.321547,0.589182,-0.750784,-0.0180304,
0.0115622,-0.201665,-0.332228,-1.65858,-0.0874484,-0.0996897,-0.382984,0.153599,-0.0520135,0.171931,-0.0523031,0.245598,-0.617451,0.0144996,0,0,0,0,0,0,0,0.00975379,-0.201156,-0.333937,-1.65764,-0.0751745,1.47238,0.402236,0.00758603,-0.00372838,0.0139544,0.0028413,0.189493,-0.114463,0.000497203,1.32465,-24.9373,3.58735,25.4593,1.41235,1.88592,-0.0163725,-0.552508,-0.0443835,0.951559,0.709518,-0.264046,-0.087409,0.0254764,-0.0945517,-0.319097,-0.321547,0.589182,-0.750784,-0.0180304,
0.0112037,-0.201693,-0.332358,-1.65817,-0.0720598,-0.104465,-0.382969,0.162061,-0.0541565,0.180453,-0.057922,0.315993,-0.667829,0.0153363,0,0,0,0,0,0,0,0.00975379,-0.201156,-0.333937,-1.65764,-0.0751745,1.47238,0.402236,0.00758603,-0.00372838,0.0139544,0.0028413,0.189493,-0.114463,0.000497203,1.32465,-24.9373,3.58735,25.4593,1.41235,1.88592,-0.0163725,-0.146751,-0.268048,1.44414,0.765052,-0.0696397,-0.124338,-0.0519213,-0.0322514,-0.317653,-0.231601,0.534617,-0.790895,-0.014451,
0.0119772,-0.20192,-0.33149,-1.65844,-0.0705269,-0.107639,-0.382911,0.19338,-0.0567756,0.217074,-0.0676746,0.383228,-0.793466,0.0144852,0,0,0,0,0,0,0,0.00975379,-0.201156,-0.333937,-1.65764,-0.0751745,1.47238,0.402236,0.00758603,-0.00372838,0.0139544,0.0028413,0.189493,-0.114463,0.000497203,1.32465,-24.9373,3.58735,25.4593,1.41235,1.88592,-0.0163725,-0.146751,-0.268048,1.44414,0.765052,-0.0696397,-0.124338,-0.0519213,-0.0322514,-0.317653,-0.231601,0.534617,-0.790895,-0.014451,
0.0128551,-0.202146,-0.330501,-1.65875,-0.0687201,-0.111223,-0.382856,0.219483,-0.0566284,0.247157,-0.0762391,0.451691,-0.895926,0.0137881,0,0,0,0,0,0,0,0.00975379,-0.201156,-0.333937,-1.65764,-0.0751745,1.47238,0.402236,0.00758603,-0.00372838,0.0139544,0.0028413,0.189493,-0.114463,0.000497203,1.32465,-24.9373,3.58735,25.4593,1.41235,1.88592,-0.0163725,0.339023,0.747854,1.05259,0.191317,0.549584,0.413568,0.460772,0.429106,0.276819,-0.57005,0.668462,-0.932942,-0.0122393,
0.0138209,-0.202365,-0.329413,-1.65908,-0.0666465,-0.115141,-0.382803,0.241457,-0.0546515,0.27215,-0.0839109,0.518401,-0.979374,0.013202,0,0,0,0,0,0,0,0.00975379,-0.201156,-0.333937,-1.65764,-0.0751745,1.47238,0.402236,0.00758603,-0.00372838,0.0139544,0.0028413,0.189493,-0.114463,0.000497203,1.32465,-24.9373,3.58735,25.4593,1.41235,1.88592,-0.0163725,-0.429764,1.89762,0.650731,-0.489782,0.206039,0.7867,0.832406,0.344591,0.703496,-0.763574,0.787884,-1.08518,-0.00683438,
0.0148613,-0.202571,-0.32824,-1.65944,-0.0643201,-0.11933,-0.382753,0.2601,-0.0514665,0.29311,-0.0907854,0.581608,-1.04732,0.0126975,0,0,0,0,0,0,0,0.0101048,-0.201672,-0.332994,-1.65764,-0.0659772,1.46383,0.402238,0.0202431,-0.0187538,0.0377702,-0.010696,0.144379,-0.210465,-0.000199629,2.11017,-25.3856,4.53554,25.4077,0.831906,2.47643,0.00376909,-0.429764,1.89762,0.650731,-0.489782,0.206039,0.7867,0.832406,0.344591,0.703496,-0.763574,0.787884,-1.08518,-0.00683438,
0.0159654,-0.202761,-0.326997,-1.65983,-0.0617586,-0.12374,-0.382704,0.276006,-0.0475043,0.310826,-0.0968912,0.640375,-1.10266,0.0122575,0,0,0,0,0,0,0,0.0101048,-0.201672,-0.332994,-1.65764,-0.0659772,1.46383,0.402238,0.0202431,-0.0187538,0.0377702,-0.010696,0.144379,-0.210465,-0.000199629,2.11017,-25.3856,4.53554,25.4077,0.831906,2.47643,0.00376909,-1.97076,0.83872,0.654049,0.106701,-0.929069,0.0352832,0.09579,-0.281024,-0.0927563,-0.57161,0.535035,-1.07638,-0.00148074,
0.0118916,-0.201969,-0.33166,-1.65867,-0.0733163,-0.104221,-0.382972,0.238015,-0.0788993,0.261409,-0.105427,0.185824,-0.649292,0.0152092,0,0,0,0,0,0,0,0.0101048,-0.201672,-0.332994,-1.65764,-0.0659772,1.46383,0.402238,0.0202431,-0.0187538,0.0377702,-0.010696,0.144379,-0.210465,-0.000199629,2.11017,-25.3856,4.53554,25.4077,0.831906,2.47643,0.00376909,-1.97076,0.83872,0.654049,0.106701,-0.929069,0.0352832,0.09579,-0.281024,-0.0927563,-0.57161,0.535035,-1.07638,-0.00148074,
0.0123255,-0.202552,-0.330611,-1.65874,-0.064257,-0.113539,-0.382944,0.242023,-0.0818797,0.266102,-0.110452,0.1843,-0.699654,0.0167666,0,0,0,0,0,0,0,0.0101048,-0.201672,-0.332994,-1.65764,-0.0659772,1.46383,0.402238,0.0202431,-0.0187538,0.0377702,-0.010696,0.144379,-0.210465,-0.000199629,2.11017,-25.3856,4.53554,25.4077,0.831906,2.47643,0.00376909,-2.08389,-0.443381,0.625484,0.817615,-0.942166,-0.55737,-0.487198,-0.260326,-0.738578,-0.550128,0.226066,-1.04422,0.00155712,
0.0134634,-0.202877,-0.329347,-1.65923,-0.0632567,-0.116812,-0.382882,0.284458,-0.081128,0.316051,-0.120635,0.250059,-0.81834,0.0156331,0,0,0,0,0,0,0,0.0101048,-0.201672,-0.332994,-1.65764,-0.0659772,1.46383,0.402238,0.0202431,-0.0187538,0.0377702,-0.010696,0.144379,-0.210465,-0.000199629,2.11017,-25.3856,4.53554,25.4077,0.831906,2.47643,0.00376909,-1.57296,-0.135768,0.435195,0.617747,-0.44492,-0.329277,-0.27326,0.0683873,-0.484628,-0.712944,0.235831,-1.07491,0.00345621,
0.0147413,-0.203186,-0.32792,-1.65974,-0.0619658,-0.120472,-0.382823,0.319487,-0.0774029,0.356716,-0.129183,0.322726,-0.914968,0.0147313,0,0,0,0,0,0,0,0.0118117,-0.202546,-0.330522,-1.65821,-0.0590697,1.4545,0.402244,0.0639057,-0.0430862,0.0834422,-0.0159792,0.204745,-0.328243,-0.000283936,3.17737,-25.0881,5.71382,24.6619,1.33819,2.53594,-0.0026396,-1.57296,-0.135768,0.435195,0.617747,-0.44492,-0.329277,-0.27326,0.0683873,-0.484628,-0.712944,0.235831,-1.07491,0.00345621,
0.0161362,-0.203474,-0.32636,-1.66029,-0.0603776,-0.124445,-0.382767,0.348722,-0.0719726,0.390216,-0.136775,0.39705,-0.993251,0.0140252,0,0,0,0,0,0,0,0.0118117,-0.202546,-0.330522,-1.65821,-0.0590697,1.4545,0.402244,0.0639057,-0.0430862,0.0834422,-0.0159792,0.204745,-0.328243,-0.000283936,3.17737,-25.0881,5.71382,24.6619,1.33819,2.53594,-0.0026396,-1.08857,1.73545,-0.217023,-0.54533,0.122139,0.591595,0.629403,0.481605,0.540028,-1.01334,0.461889,-1.09071,0.00470388,
0.0176296,-0.203736,-0.324687,-1.66086,-0.0584985,-0.128672,-0.382713,0.373335,-0.0654863,0.418065,-0.143404,0.469784,-1.0567,0.0133796,0,0,0,0,0,0,0,0.0118117,-0.202546,-0.330522,-1.65821,-0.0590697,1.4545,0.402244,0.0639057,-0.0430862,0.0834422,-0.0159792,0.204745,-0.328243,-0.000283936,3.17737,-25.0881,5.71382,24.6619,1.33819,2.53594,-0.0026396,-1.08857,1.73545,-0.217023,-0.54533,0.122139,0.591595,0.629403,0.481605,0.540028,-1.01334,0.461889,-1.09071,0.00470388,
0.0192063,-0.20397,-0.322922,-1.66146,-0.0563425,-0.133099,-0.382662,0.394174,-0.0584645,0.441397,-0.149312,0.539004,-1.10675,0.0127822,0,0,0,0,0,0,0,0.0118117,-0.202546,-0.330522,-1.65821,-0.0590697,1.4545,0.402244,0.0639057,-0.0430862,0.0834422,-0.0159792,0.204745,-0.328243,-0.000283936,3.17737,-25.0881,5.71382,24.6619,1.33819,2.53594,-0.0026396,-2.05302,1.3604,-0.426569,-0.363873,-0.584622,0.251238,0.286254,0.0953812,0.198487,-0.899959,0.334047,-1.01584,0.0102687,
0.0129299,-0.20282,-0.330007,-1.65921,-0.0653449,-0.113299,-0.382966,0.308499,-0.106076,0.336226,-0.154645,0.0719132,-0.681173,0.0153849,0,0,0,0,0,0,0,0.0118117,-0.202546,-0.330522,-1.65821,-0.0590697,1.4545,0.402244,0.0639057,-0.0430862,0.0834422,-0.0159792,0.204745,-0.328243,-0.000283936,3.17737,-25.0881,5.71382,24.6619,1.33819,2.53594,-0.0026396,-2.05302,1.3604,-0.426569,-0.363873,-0.584622,0.251238,0.286254,0.0953812,0.198487,-0.899959,0.334047,-1.01584,0.0102687,
0.0149438,-0.203838,-0.327181,-1.6598,-0.0575318,-0.12353,-0.382932,0.32867,-0.114214,0.358851,-0.15545,0.148002,-0.738709,0.0170241,0,0,0,0,0,0,0,0.0118117,-0.202546,-0.330522,-1.65821,-0.0590697,1.4545,0.402244,0.0639057,-0.0430862,0.0834422,-0.0159792,0.204745,-0.328243,-0.000283936,3.17737,-25.0881,5.71382,24.6619,1.33819,2.53594,-0.0026396,-3.21383,-0.321781,-0.0218036,0.511892,-1.68177,-0.694115,-0.622756,-0.62243,-0.819474,-0.4628,-0.0301353,-0.857034,0.0129415,
0.0164574,-0.204276,-0.32551,-1.66046,-0.0567113,-0.12692,-0.382868,0.378382,-0.109603,0.417624,-0.166435,0.205119,-0.84754,0.0157765,0,0,0,0,0,0,0,0.0150209,-0.204188,-0.326833,-1.65962,-0.0550954,1.44418,0.402254,0.136037,-0.0552817,0.149123,-0.0542555,0.161379,-0.390231,0.000562781,4.49451,-24.5882,7.1103,24.6857,2.08343,1.87951,-0.00996382,-2.73064,-0.453119,-0.352929,0.649147,-1.21651,-0.663839,-0.590756,-0.320268,-0.811375,-0.612417,-0.0299978,-0.821501,0.0118651,
0.0181336,-0.204685,-0.32365,-1.66117,-0.0556131,-0.130649,-0.382809,0.419052,-0.102149,0.465104,-0.175808,0.274561,-0.93232,0.0148251,0,0,0,0,0,0,0,0.0150209,-0.204188,-0.326833,-1.65962,-0.0550954,1.44418,0.402254,0.136037,-0.0552817,0.149123,-0.0542555,0.161379,-0.390231,0.000562781,4.49451,-24.5882,7.1103,24.6857,2.08343,1.87951,-0.00996382,-2.73064,-0.453119,-0.352929,0.649147,-1.21651,-0.663839,-0.590756,-0.320268,-0.811375,-0.612417,-0.0299978,-0.821501,0.0118651,
0.0199443,-0.205058,-0.321634,-1.66191,-0.054216,-0.134612,-0.382753,0.452694,-0.0933952,0.503862,-0.185089,0.349256,-0.990648,0.0139566,0,0,0,0,0,0,0,0.0150209,-0.204188,-0.326833,-1.65962,-0.0550954,1.44418,0.402254,0.136037,-0.0552817,0.149123,-0.0542555,0.161379,-0.390231,0.000562781,4.49451,-24.5882,7.1103,24.6857,2.08343,1.87951,-0.00996382,-1.2196,1.67779,-0.664773,-0.631566,-0.00502662,0.544938,0.586392,0.399503,0.512033,-0.922769,0.345016,-0.846926,0.00963761,
0.0218668,-0.205398,-0.319491,-1.6627,-0.0525168,-0.13865,-0.3827,0.480612,-0.08486,0.535849,-0.197147,0.424799,-1.00961,0.0133468,0,0,0,0,0,0,0,0.0150209,-0.204188,-0.326833,-1.65962,-0.0550954,1.44418,0.402254,0.136037,-0.0552817,0.149123,-0.0542555,0.161379,-0.390231,0.000562781,4.49451,-24.5882,7.1103,24.6857,2.08343,1.87951,-0.00996382,-1.2196,1.67779,-0.664773,-0.631566,-0.00502662,0.544938,0.586392,0.399503,0.512033,-0.922769,0.345016,-0.846926,0.00963761,
0.0238832,-0.205698,-0.317242,-1.66352,-0.0505248,-0.142684,-0.382649,0.504104,-0.0751847,0.56219,-0.206941,0.498005,-1.00847,0.0128075,0,0,0,0,0,0,0,0.0150209,-0.204188,-0.326833,-1.65962,-0.0550954,1.44418,0.402254,0.136037,-0.0552817,0.149123,-0.0542555,0.161379,-0.390231,0.000562781,4.49451,-24.5882,7.1103,24.6857,2.08343,1.87951,-0.00996382,-1.40732,0.12246,-1.18477,0.544866,0.0784295,-0.185844,-0.135764,0.532433,-0.345824,-1.10832,0.216177,-0.848691,0.0135004,
0.0157555,-0.204041,-0.327147,-1.6602,-0.0582739,-0.123291,-0.382969,0.404277,-0.132077,0.377161,-0.194767,0.072798,-0.718654,0.0145324,0,0,0,0,0,0,0,0.0194487,-0.206574,-0.321367,-1.66176,-0.0528903,1.43202,0.402261,0.162153,-0.0830795,0.215221,-0.083306,0.0397544,-0.38107,0.000238876,5.0539,-24.6874,7.33644,24.6381,1.53412,2.15783,-0.0163725,-1.40732,0.12246,-1.18477,0.544866,0.0784295,-0.185844,-0.135764,0.532433,-0.345824,-1.10832,0.216177,-0.848691,0.0135004,
0.0240818,-0.20806,-0.317012,-1.66391,-0.0524195,-0.146501,-0.382938,0.448552,-0.123898,0.440949,-0.200339,0.0867723,-0.767952,0.0154434,0,0,0,0,0,0,0,0.0194487,-0.206574,-0.321367,-1.66176,-0.0528903,1.43202,0.402261,0.162153,-0.0830795,0.215221,-0.083306,0.0397544,-0.38107,0.000238876,5.0539,-24.6874,7.33644,24.6381,1.53412,2.15783,-0.0163725,-2.88671,-1.2653,-1.19941,1.38985,-1.0474,-1.03954,-0.923614,-0.114297,-1.313,-0.89059,-0.0395334,-0.799174,0.0163187,
0.0260594,-0.208526,-0.31501,-1.66477,-0.0517776,-0.149891,-0.38288,0.494393,-0.116398,0.500458,-0.214641,0.160498,-0.847559,0.014431,0,0,0,0,0,0,0,0.0194487,-0.206574,-0.321367,-1.66176,-0.0528903,1.43202,0.402261,0.162153,-0.0830795,0.215221,-0.083306,0.0397544,-0.38107,0.000238876,5.0539,-24.6874,7.33644,24.6381,1.53412,2.15783,-0.0163725,-2.63165,-0.71651,-0.761196,0.941361,-1.07003,-0.746578,-0.638483,-0.217159,-0.965163,-0.70906,0.0288648,-0.753617,0.0155673,
0.0281874,-0.208956,-0.312811,-1.66569,-0.0508109,-0.153411,-0.382825,0.532004,-0.107452,0.549661,-0.229988,0.241654,-0.880064,0.0137445,0,0,0,0,0,0,0,0.0194487,-0.206574,-0.321367,-1.66176,-0.0528903,1.43202,0.402261,0.162153,-0.0830795,0.215221,-0.083306,0.0397544,-0.38107,0.000238876,5.0539,-24.6874,7.33644,24.6381,1.53412,2.15783,-0.0163725,-2.63165,-0.71651,-0.761196,0.941361,-1.07003,-0.746578,-0.638483,-0.217159,-0.965163,-0.70906,0.0288648,-0.753617,0.0155673,
0.0304406,-0.209341,-0.310449,-1.66665,-0.0495139,-0.156964,-0.382772,0.563298,-0.0963485,0.590628,-0.24175,0.32426,-0.888226,0.0131599,0,0,0,0,0,0,0,0.0194487,-0.206574,-0.321367,-1.66176,-0.0528903,1.43202,0.402261,0.162153,-0.0830795,0.215221,-0.083306,0.0397544,-0.38107,0.000238876,5.0539,-24.6874,7.33644,24.6381,1.53412,2.15783,-0.0163725,-1.01601,2.94267,-0.272133,-1.5748,-0.0828765,1.15415,1.19578,0.267649,1.2162,-0.730901,0.494626,-0.782598,0.00719478,
0.0327984,-0.209677,-0.307948,-1.66765,-0.0478956,-0.160494,-0.382722,0.589455,-0.0840045,0.625261,-0.24993,0.404569,-0.882575,0.0126535,0,0,0,0,0,0,0,0.0256662,-0.209469,-0.314376,-1.66483,-0.0510553,1.41911,0.402277,0.233816,-0.0996622,0.203474,-0.114288,-0.00282661,-0.38682,0.00285978,2.18555,-24.7865,4.76167,25.8322,1.49749,2.23748,0.0440523,-1.01601,2.94267,-0.272133,-1.5748,-0.0828765,1.15415,1.19578,0.267649,1.2162,-0.730901,0.494626,-0.782598,0.00719478,
0.035244,-0.209962,-0.305328,-1.66867,-0.0459739,-0.163969,-0.382673,0.611406,-0.0713319,0.654918,-0.255362,0.480425,-0.86864,0.0122092,0,0,0,0,0,0,0,0.0256662,-0.209469,-0.314376,-1.66483,-0.0510553,1.41911,0.402277,0.233816,-0.0996622,0.203474,-0.114288,-0.00282661,-0.38682,0.00285978,2.18555,-24.7865,4.76167,25.8322,1.49749,2.23748,0.0440523,-1.48155,2.1519,0.126941,-1.04485,-0.551735,0.718674,0.745756,-0.0510991,0.748999,-0.557149,0.449417,-0.809218,0.0129577,
0.0245285,-0.208196,-0.317205,-1.66426,-0.0526235,-0.146216,-0.382988,0.492024,-0.136227,0.425377,-0.237076,0.0664044,-0.735154,0.0119199,0,0,0,0,0,0,0,0.0256662,-0.209469,-0.314376,-1.66483,-0.0510553,1.41911,0.402277,0.233816,-0.0996622,0.203474,-0.114288,-0.00282661,-0.38682,0.00285978,2.18555,-24.7865,4.76167,25.8322,1.49749,2.23748,0.0440523,-2.50323,0.324402,-0.214192,0.235417,-1.17298,-0.252564,-0.169629,-0.355126,-0.385976,-0.561045,0.22798,-0.801726,0.0164377,
0.0309368,-0.211111,-0.310018,-1.6675,-0.050824,-0.158645,-0.382936,0.503997,-0.136149,0.438907,-0.251554,0.0723947,-0.644701,0.0142246,0,0,0,0,0,0,0,0.0256662,-0.209469,-0.314376,-1.66483,-0.0510553,1.41911,0.402277,0.233816,-0.0996622,0.203474,-0.114288,-0.00282661,-0.38682,0.00285978,2.18555,-24.7865,4.76167,25.8322,1.49749,2.23748,0.0440523,-2.50323,0.324402,-0.214192,0.235417,-1.17298,-0.252564,-0.169629,-0.355126,-0.385976,-0.561045,0.22798,-0.801726,0.0164377,
0.0331491,-0.211615,-0.308033,-1.66857,-0.0502306,-0.161321,-0.382883,0.55308,-0.125843,0.496297,-0.266886,0.148359,-0.66902,0.0133322,0,0,0,0,0,0,0,0.0256662,-0.209469,-0.314376,-1.66483,-0.0510553,1.41911,0.402277,0.233816,-0.0996622,0.203474,-0.114288,-0.00282661,-0.38682,0.00285978,2.18555,-24.7865,4.76167,25.8322,1.49749,2.23748,0.0440523,-3.04349,-0.791207,-0.943442,1.16565,-1.28661,-0.828602,-0.706966,-0.311325,-1.09949,-0.795727,0.173746,-0.826684,0.0199844,
0.0355263,-0.212065,-0.305857,-1.66968,-0.049312,-0.16403,-0.382832,0.594292,-0.11264,0.543833,-0.276603,0.229647,-0.677177,0.0126378,0,0,0,0,0,0,0,0.0256662,-0.209469,-0.314376,-1.66483,-0.0510553,1.41911,0.402277,0.233816,-0.0996622,0.203474,-0.114288,-0.00282661,-0.38682,0.00285978,2.18555,-24.7865,4.76167,25.8322,1.49749,2.23748,0.0440523,-3.04349,-0.791207,-0.943442,1.16565,-1.28661,-0.828602,-0.706966,-0.311325,-1.09949,-0.795727,0.173746,-0.826684,0.0199844,
0.0380435,-0.212459,-0.303522,-1.67081,-0.0480675,-0.166729,-0.382784,0.629315,-0.0983932,0.583789,-0.282783,0.311115,-0.674816,0.0120773,0,0,0,0,0,0,0,0.0372321,-0.213734,-0.302392,-1.67036,-0.0507225,1.40279,0.402296,0.299134,-0.105843,0.244172,-0.153464,-0.00495371,-0.333477,0.000269494,0.94379,-24.9373,3.18666,25.1102,1.30157,2.44256,-0.0026396,-1.40938,3.18887,0.0284089,-1.67384,-0.506711,1.20247,1.24447,-0.0175016,1.26985,-0.591458,0.641717,-0.799389,0.0132126,
0.040681,-0.212795,-0.301051,-1.67195,-0.0465087,-0.169391,-0.382737,0.659364,-0.0841541,0.617778,-0.286664,0.389695,-0.66547,0.0116131,0,0,0,0,0,0,0,0.0372321,-0.213734,-0.302392,-1.67036,-0.0507225,1.40279,0.402296,0.299134,-0.105843,0.244172,-0.153464,-0.00495371,-0.333477,0.000269494,0.94379,-24.9373,3.18666,25.1102,1.30157,2.44256,-0.0026396,-1.40938,3.18887,0.0284089,-1.67384,-0.506711,1.20247,1.24447,-0.0175016,1.26985,-0.591458,0.641717,-0.799389,0.0132126,
0.030931,-0.211175,-0.310008,-1.66778,-0.0508103,-0.158661,-0.382988,0.503494,-0.141363,0.439456,-0.280053,0.0743216,-0.647202,0.010431,0,0,0,0,0,0,0,0.0372321,-0.213734,-0.302392,-1.67036,-0.0507225,1.40279,0.402296,0.299134,-0.105843,0.244172,-0.153464,-0.00495371,-0.333477,0.000269494,0.94379,-24.9373,3.18666,25.1102,1.30157,2.44256,-0.0026396,-1.77256,2.91575,0.395601,-1.56802,-0.952891,1.02896,1.04131,-0.339096,1.12532,-0.366457,0.59612,-0.752469,0.0112643,
0.0428905,-0.215333,-0.297589,-1.67352,-0.0500727,-0.173282,-0.382946,0.53065,-0.128087,0.469127,-0.28884,0.115434,-0.4801,0.0120451,0,0,0,0,0,0,0,0.0372321,-0.213734,-0.302392,-1.67036,-0.0507225,1.40279,0.402296,0.299134,-0.105843,0.244172,-0.153464,-0.00495371,-0.333477,0.000269494,0.94379,-24.9373,3.18666,25.1102,1.30157,2.44256,-0.0026396,-3.66155,-0.747966,-0.555335,1.08253,-2.00478,-0.874832,-0.750565,-0.829544,-1.12882,-0.478643,0.217456,-0.732281,0.0185276,
0.0451941,-0.215792,-0.295502,-1.67472,-0.049301,-0.175287,-0.382901,0.575907,-0.114973,0.521802,-0.299638,0.192909,-0.501256,0.0112354,0,0,0,0,0,0,0,0.0372321,-0.213734,-0.302392,-1.67036,-0.0507225,1.40279,0.402296,0.299134,-0.105843,0.244172,-0.153464,-0.00495371,-0.333477,0.000269494,0.94379,-24.9373,3.18666,25.1102,1.30157,2.44256,-0.0026396,-3.66155,-0.747966,-0.555335,1.08253,-2.00478,-0.874832,-0.750565,-0.829544,-1.12882,-0.478643,0.217456,-0.732281,0.0185276,
0.0476503,-0.216194,-0.293239,-1.67594,-0.0482083,-0.177332,-0.382858,0.61405,-0.100396,0.565744,-0.3062,0.273182,-0.511198,0.010594,0,0,0,0,0,0,0,0.0481384,-0.21703,-0.292781,-1.67518,-0.0506174,1.39294,0.402305,0.365596,-0.116035,0.318576,-0.164924,-0.0108501,-0.290846,0.00224642,0.233646,-24.2867,2.68678,25.1855,1.98639,2.31713,0.00376909,-2.75771,-1.1067,-1.68532,1.51455,-0.889458,-0.895725,-0.728631,-0.0367921,-1.26041,-1.00649,0.235684,-0.725938,0.0168881,
0.0502366,-0.216537,-0.290828,-1.67719,-0.0467993,-0.179383,-0.382818,0.646558,-0.0857204,0.602856,-0.310306,0.352245,-0.512769,0.0100638,0,0,0,0,0,0,0,0.0481384,-0.21703,-0.292781,-1.67518,-0.0506174,1.39294,0.402305,0.365596,-0.116035,0.318576,-0.164924,-0.0108501,-0.290846,0.00224642,0.233646,-24.2867,2.68678,25.1855,1.98639,2.31713,0.00376909,-2.75771,-1.1067,-1.68532,1.51455,-0.889458,-0.895725,-0.728631,-0.0367921,-1.26041,-1.00649,0.235684,-0.725938,0.0168881,
0.0529346,-0.216823,-0.28829,-1.67844,-0.0450884,-0.181416,-0.38278,0.6745,-0.0716074,0.634519,-0.312814,0.427731,-0.508188,0.00959396,0,0,0,0,0,0,0,0.0481384,-0.21703,-0.292781,-1.67518,-0.0506174,1.39294,0.402305,0.365596,-0.116035,0.318576,-0.164924,-0.0108501,-0.290846,0.00224642,0.233646,-24.2867,2.68678,25.1855,1.98639,2.31713,0.00376909,-0.366619,1.67478,-1.36675,-0.410794,0.761709,0.675725,0.728737,0.871702,0.573789,-1.15341,0.587055,-0.698534,0.0102007,
0.0407679,-0.21482,-0.299466,-1.67237,-0.0505344,-0.171362,-0.382994,0.476088,-0.136845,0.405059,-0.269772,0.0473506,-0.444672,0.0130974,0,0,0,0,0,0,0,0.0481384,-0.21703,-0.292781,-1.67518,-0.0506174,1.39294,0.402305,0.365596,-0.116035,0.318576,-0.164924,-0.0108501,-0.290846,0.00224642,0.233646,-24.2867,2.68678,25.1855,1.98639,2.31713,0.00376909,-0.366619,1.67478,-1.36675,-0.410794,0.761709,0.675725,0.728737,0.871702,0.573789,-1.15341,0.587055,-0.698534,0.0102007,
0.0543123,-0.218599,-0.287372,-1.67833,-0.0494952,-0.182073,-0.38293,0.566007,-0.121956,0.510102,-0.282345,0.166212,-0.384735,0.0125017,0,0,0,0,0,0,0,0.0481384,-0.21703,-0.292781,-1.67518,-0.0506174,1.39294,0.402305,0.365596,-0.116035,0.318576,-0.164924,-0.0108501,-0.290846,0.00224642,0.233646,-24.2867,2.68678,25.1855,1.98639,2.31713,0.00376909,-2.2773,0.594793,-0.728789,0.194292,-0.974322,-0.0589128,0.0200598,-0.242524,-0.20581,-0.62935,0.421749,-0.646909,0.0139192,
0.0567358,-0.21903,-0.285147,-1.67949,-0.0485074,-0.183703,-0.382884,0.605889,-0.107676,0.556206,-0.290433,0.246946,-0.407451,0.011635,0,0,0,0,0,0,0,0.0481384,-0.21703,-0.292781,-1.67518,-0.0506174,1.39294,0.402305,0.365596,-0.116035,0.318576,-0.164924,-0.0108501,-0.290846,0.00224642,0.233646,-24.2867,2.68678,25.1855,1.98639,2.31713,0.00376909,-2.7699,-0.782875,-1.80045,1.18138,-0.946127,-0.719518,-0.581892,-0.0874141,-1.01722,-0.933188,0.207646,-0.610096,0.0113415,
0.0592948,-0.219402,-0.282767,-1.68067,-0.0471986,-0.185388,-0.38284,0.639731,-0.092931,0.595018,-0.295467,0.327208,-0.42126,0.0109206,0,0,0,0,0,0,0,0.060246,-0.220798,-0.281776,-1.68148,-0.0496127,1.38582,0.402317,0.385016,-0.111727,0.373904,-0.202226,0.0630602,-0.196741,0.00124102,1.4516,-23.763,3.71431,24.9832,1.65588,2.32995,-0.0227812,-2.7699,-0.782875,-1.80045,1.18138,-0.946127,-0.719518,-0.581892,-0.0874141,-1.01722,-0.933188,0.207646,-0.610096,0.0113415,
0.0619697,-0.219716,-0.280255,-1.68187,-0.0455813,-0.187098,-0.382798,0.668727,-0.078638,0.628028,-0.298785,0.404313,-0.42762,0.010416,0,0,0,0,0,0,0,0.060246,-0.220798,-0.281776,-1.68148,-0.0496127,1.38582,0.402317,0.385016,-0.111727,0.373904,-0.202226,0.0630602,-0.196741,0.00124102,1.4516,-23.763,3.71431,24.9832,1.65588,2.32995,-0.0227812,-0.684258,1.66031,-1.7483,-0.493418,0.599297,0.646002,0.706496,0.818047,0.555087,-1.16412,0.496116,-0.59996,0.00420646,
0.0647447,-0.219977,-0.27763,-1.68307,-0.0436744,-0.18881,-0.382758,0.693751,-0.0651824,0.656342,-0.300952,0.476742,-0.428021,0.0100083,0,0,0,0,0,0,0,0.060246,-0.220798,-0.281776,-1.68148,-0.0496127,1.38582,0.402317,0.385016,-0.111727,0.373904,-0.202226,0.0630602,-0.196741,0.00124102,1.4516,-23.763,3.71431,24.9832,1.65588,2.32995,-0.0227812,-0.684258,1.66031,-1.7483,-0.493418,0.599297,0.646002,0.706496,0.818047,0.555087,-1.16412,0.496116,-0.59996,0.00420646,
0.0676065,-0.220188,-0.274906,-1.68428,-0.0414995,-0.190505,-0.38272,0.715466,-0.0527155,0.680797,-0.302233,0.543717,-0.423741,0.00966456,0,0,0,0,0,0,0,0.060246,-0.220798,-0.281776,-1.68148,-0.0496127,1.38582,0.402317,0.385016,-0.111727,0.373904,-0.202226,0.0630602,-0.196741,0.00124102,1.4516,-23.763,3.71431,24.9832,1.65588,2.32995,-0.0227812,-0.368865,1.48274,-0.84751,-0.484888,0.533458,0.599598,0.606431,0.653844,0.56745,-0.881407,0.472725,-0.612559,0.00432413,
0.0520482,-0.218112,-0.289412,-1.6772,-0.0501601,-0.180534,-0.38298,0.518307,-0.13354,0.454664,-0.267727,0.0895477,-0.352715,0.013619,0,0,0,0,0,0,0,0.060246,-0.220798,-0.281776,-1.68148,-0.0496127,1.38582,0.402317,0.385016,-0.111727,0.373904,-0.202226,0.0630602,-0.196741,0.00124102,1.4516,-23.763,3.71431,24.9832,1.65588,2.32995,-0.0227812,-1.66208,-0.631826,-1.19789,0.951,-0.32064,-0.487013,-0.37705,0.171794,-0.734041,-0.818171,0.20186,-0.580955,0.0053113,
0.0667433,-0.222177,-0.27601,-1.68468,-0.0476832,-0.188275,-0.382913,0.589455,-0.105311,0.535556,-0.280113,0.229366,-0.31295,0.0129154,0,0,0,0,0,0,0,0.0731701,-0.224502,-0.270009,-1.68819,-0.0480887,1.38126,0.402319,0.423906,-0.0943291,0.401927,-0.195131,0.104486,-0.141521,-0.000588769,3.25275,-23.0885,5.08699,24.9832,1.94976,2.23748,0.0101778,-1.66208,-0.631826,-1.19789,0.951,-0.32064,-0.487013,-0.37705,0.171794,-0.734041,-0.818171,0.20186,-0.580955,0.0053113,
0.0692492,-0.222545,-0.273695,-1.68582,-0.0464636,-0.189631,-0.382865,0.626482,-0.0922101,0.578628,-0.285771,0.3049,-0.338947,0.0120588,0,0,0,0,0,0,0,0.0731701,-0.224502,-0.270009,-1.68819,-0.0480887,1.38126,0.402319,0.423906,-0.0943291,0.401927,-0.195131,0.104486,-0.141521,-0.000588769,3.25275,-23.0885,5.08699,24.9832,1.94976,2.23748,0.0101778,-1.59263,-1.1856,-1.41469,1.38196,-0.176608,-0.719794,-0.56959,0.267782,-1.05218,-0.907982,0.178367,-0.583117,0.00429459,
0.0718808,-0.222861,-0.271236,-1.68698,-0.0449441,-0.191055,-0.382819,0.6579,-0.0789936,0.614879,-0.289417,0.37987,-0.355955,0.0113891,0,0,0,0,0,0,0,0.0731701,-0.224502,-0.270009,-1.68819,-0.0480887,1.38126,0.402319,0.423906,-0.0943291,0.401927,-0.195131,0.104486,-0.141521,-0.000588769,3.25275,-23.0885,5.08699,24.9832,1.94976,2.23748,0.0101778,-1.59263,-1.1856,-1.41469,1.38196,-0.176608,-0.719794,-0.56959,0.267782,-1.05218,-0.907982,0.178367,-0.583117,0.00429459,
0.07462,-0.223127,-0.268653,-1.68815,-0.0431367,-0.192516,-0.382776,0.684799,-0.0662841,0.645684,-0.291875,0.451846,-0.365383,0.0108415,0,0,0,0,0,0,0,0.0731701,-0.224502,-0.270009,-1.68819,-0.0480887,1.38126,0.402319,0.423906,-0.0943291,0.401927,-0.195131,0.104486,-0.141521,-0.000588769,3.25275,-23.0885,5.08699,24.9832,1.94976,2.23748,0.0101778,-0.213338,1.43617,-0.281228,-0.448295,0.437535,0.612297,0.698665,0.499342,0.508942,-0.685672,0.53531,-0.60557,-0.000564427,
0.077452,-0.223344,-0.265965,-1.68932,-0.041059,-0.193991,-0.382734,0.707986,-0.0543425,0.672074,-0.29347,0.519434,-0.368653,0.0103829,0,0,0,0,0,0,0,0.0731701,-0.224502,-0.270009,-1.68819,-0.0480887,1.38126,0.402319,0.423906,-0.0943291,0.401927,-0.195131,0.104486,-0.141521,-0.000588769,3.25275,-23.0885,5.08699,24.9832,1.94976,2.23748,0.0101778,-0.0666701,0.651827,0.795198,-0.0275475,0.151133,0.25816,0.267107,0.15583,0.198366,-0.281559,0.454844,-0.587869,0.00238918,
0.0643855,-0.221755,-0.278152,-1.68356,-0.0486006,-0.187023,-0.382965,0.545197,-0.116765,0.483851,-0.270182,0.15731,-0.277358,0.0141165,0,0,0,0,0,0,0,0.0731701,-0.224502,-0.270009,-1.68819,-0.0480887,1.38126,0.402319,0.423906,-0.0943291,0.401927,-0.195131,0.104486,-0.141521,-0.000588769,3.25275,-23.0885,5.08699,24.9832,1.94976,2.23748,0.0101778,-0.0666701,0.651827,0.795198,-0.0275475,0.151133,0.25816,0.267107,0.15583,0.198366,-0.281559,0.454844,-0.587869,0.00238918,
0.0799408,-0.225708,-0.263939,-1.69131,-0.0456126,-0.192121,-0.382908,0.608912,-0.0923524,0.557323,-0.273165,0.273888,-0.254048,0.0133253,0,0,0,0,0,0,0,0.0866112,-0.227397,-0.257612,-1.69443,-0.045611,1.37828,0.402333,0.422643,-0.0861269,0.421844,-0.204379,0.0975371,-0.0704453,0.000377141,3.96289,-23.6638,5.53926,24.3127,1.1615,2.45629,-0.0301054,-1.81808,-0.141836,0.218355,0.425879,-0.94794,-0.25178,-0.180898,-0.379444,-0.382089,-0.288303,0.223638,-0.594136,0.00218721,
0.0825146,-0.22603,-0.261548,-1.69242,-0.0442252,-0.193248,-0.382858,0.643446,-0.0806258,0.597603,-0.278373,0.346867,-0.281756,0.0124454,0,0,0,0,0,0,0,0.0866112,-0.227397,-0.257612,-1.69443,-0.045611,1.37828,0.402333,0.422643,-0.0861269,0.421844,-0.204379,0.0975371,-0.0704453,0.000377141,3.96289,-23.6638,5.53926,24.3127,1.1615,2.45629,-0.0301054,-1.81808,-0.141836,0.218355,0.425879,-0.94794,-0.25178,-0.180898,-0.379444,-0.382089,-0.288303,0.223638,-0.594136,0.00218721,
0.0852056,-0.226305,-0.259022,-1.69355,-0.04255,-0.194451,-0.382811,0.672751,-0.0687233,0.631526,-0.281668,0.41879,-0.300673,0.0117381,0,0,0,0,0,0,0,0.0866112,-0.227397,-0.257612,-1.69443,-0.045611,1.37828,0.402333,0.422643,-0.0861269,0.421844,-0.204379,0.0975371,-0.0704453,0.000377141,3.96289,-23.6638,5.53926,24.3127,1.1615,2.45629,-0.0301054,-3.08855,0.60495,-0.349961,-0.00330505,-1.67695,-0.0163461,0.0959759,-0.670813,-0.139715,-0.409473,0.322656,-0.650923,0.000198345,
0.087997,-0.226534,-0.256381,-1.69468,-0.0405999,-0.195699,-0.382766,0.697841,-0.0572437,0.660361,-0.283862,0.48752,-0.31201,0.0111535,0,0,0,0,0,0,0,0.0866112,-0.227397,-0.257612,-1.69443,-0.045611,1.37828,0.402333,0.422643,-0.0861269,0.421844,-0.204379,0.0975371,-0.0704453,0.000377141,3.96289,-23.6638,5.53926,24.3127,1.1615,2.45629,-0.0301054,-3.08855,0.60495,-0.349961,-0.00330505,-1.67695,-0.0163461,0.0959759,-0.670813,-0.139715,-0.409473,0.322656,-0.650923,0.000198345,
0.0908748,-0.22672,-0.25364,-1.69582,-0.0383926,-0.196967,-0.382724,0.719466,-0.0464333,0.685066,-0.285265,0.551841,-0.317103,0.0106608,0,0,0,0,0,0,0,0.0866112,-0.227397,-0.257612,-1.69443,-0.045611,1.37828,0.402333,0.422643,-0.0861269,0.421844,-0.204379,0.0975371,-0.0704453,0.000377141,3.96289,-23.6638,5.53926,24.3127,1.1615,2.45629,-0.0301054,-1.53293,1.99377,-0.267374,-0.814851,-0.473974,0.74516,0.783585,0.0493347,0.727225,-0.637522,0.61854,-0.711947,-0.000674815,
0.0938277,-0.226865,-0.250815,-1.69697,-0.035948,-0.198236,-0.382683,0.738204,-0.0363898,0.706376,-0.286012,0.611142,-0.317155,0.0102398,0,0,0,0,0,0,0,0.100501,-0.22925,-0.244667,-1.69997,-0.0423421,1.37727,0.402338,0.4438,-0.0622627,0.414731,-0.166261,0.0755091,-0.0158998,-0.000199419,1.90784,-24.6874,3.46437,24.6857,1.12487,2.20452,0.0101778,-1.28199,0.137465,-0.730555,0.464837,-0.0822439,-0.070065,-0.00767865,0.285852,-0.243482,-0.815809,0.413468,-0.698961,0.0010644,
0.0775052,-0.225338,-0.266168,-1.69021,-0.0467082,-0.191105,-0.382961,0.567656,-0.102401,0.509008,-0.263752,0.203438,-0.217349,0.0144365,0,0,0,0,0,0,0,0.100501,-0.22925,-0.244667,-1.69997,-0.0423421,1.37727,0.402338,0.4438,-0.0622627,0.414731,-0.166261,0.0755091,-0.0158998,-0.000199419,1.90784,-24.6874,3.46437,24.6857,1.12487,2.20452,0.0101778,-1.28199,0.137465,-0.730555,0.464837,-0.0822439,-0.070065,-0.00767865,0.285852,-0.243482,-0.815809,0.413468,-0.698961,0.0010644,
0.107398,-0.230213,-0.238447,-1.70292,-0.0399996,-0.194764,-0.382882,0.61777,-0.0755122,0.567976,-0.26168,0.268212,-0.151156,0.013867,0,0,0,0,0,0,0,0.100501,-0.22925,-0.244667,-1.69997,-0.0423421,1.37727,0.402338,0.4438,-0.0622627,0.414731,-0.166261,0.0755091,-0.0158998,-0.000199419,1.90784,-24.6874,3.46437,24.6857,1.12487,2.20452,0.0101778,-3.42169,-1.98807,-1.33421,1.92285,-1.50465,-1.19314,-1.04721,-0.509617,-1.55901,-0.743117,0.161939,-0.672465,0.00395417,
0.110002,-0.230477,-0.236019,-1.70399,-0.0386223,-0.195518,-0.38283,0.651112,-0.0661259,0.60696,-0.267714,0.34431,-0.188411,0.012933,0,0,0,0,0,0,0,0.100501,-0.22925,-0.244667,-1.69997,-0.0423421,1.37727,0.402338,0.4438,-0.0622627,0.414731,-0.166261,0.0755091,-0.0158998,-0.000199419,1.90784,-24.6874,3.46437,24.6857,1.12487,2.20452,0.0101778,-3.42169,-1.98807,-1.33421,1.92285,-1.50465,-1.19314,-1.04721,-0.509617,-1.55901,-0.743117,0.161939,-0.672465,0.00395417,
0.11272,-0.230702,-0.23346,-1.70508,-0.0369492,-0.196381,-0.382781,0.679428,-0.0561797,0.639845,-0.271478,0.418291,-0.215785,0.0121752,0,0,0,0,0,0,0,0.100501,-0.22925,-0.244667,-1.69997,-0.0423421,1.37727,0.402338,0.4438,-0.0622627,0.414731,-0.166261,0.0755091,-0.0158998,-0.000199419,1.90784,-24.6874,3.46437,24.6857,1.12487,2.20452,0.0101778,-2.99131,-0.194042,-1.1707,0.732857,-1.24785,-0.332705,-0.22625,-0.332855,-0.557139,-0.756894,0.406607,-0.679025,0.00199323,
0.115535,-0.230888,-0.230789,-1.70617,-0.0349958,-0.197319,-0.382735,0.703684,-0.0463814,0.667831,-0.27399,0.488346,-0.234453,0.0115438,0,0,0,0,0,0,0,0.100501,-0.22925,-0.244667,-1.69997,-0.0423421,1.37727,0.402338,0.4438,-0.0622627,0.414731,-0.166261,0.0755091,-0.0158998,-0.000199419,1.90784,-24.6874,3.46437,24.6857,1.12487,2.20452,0.0101778,-2.99131,-0.194042,-1.1707,0.732857,-1.24785,-0.332705,-0.22625,-0.332855,-0.557139,-0.756894,0.406607,-0.679025,0.00199323,
0.118433,-0.231036,-0.228021,-1.70728,-0.0327819,-0.198302,-0.382691,0.724599,-0.0370297,0.691829,-0.275635,0.553484,-0.245848,0.0110075,0,0,0,0,0,0,0,0.120852,-0.231248,-0.225349,-1.70727,-0.036348,1.37733,0.402341,0.482495,-0.0565479,0.424564,-0.185351,0.102165,0.00135725,-7.95354e-05,1.67774,-24.5882,3.33742,24.5349,1.01501,1.93261,0.0239107,-0.380542,2.27253,-1.17437,-0.936526,0.781321,0.976483,0.976255,0.923215,0.966815,-1.11888,0.694542,-0.704585,-0.000623177,
0.121404,-0.231149,-0.225171,-1.70838,-0.0303289,-0.199307,-0.382649,0.742724,-0.0282552,0.712537,-0.276582,0.613251,-0.251305,0.0105492,0,0,0,0,0,0,0,0.120852,-0.231248,-0.225349,-1.70727,-0.036348,1.37733,0.402341,0.482495,-0.0565479,0.424564,-0.185351,0.102165,0.00135725,-7.95354e-05,1.67774,-24.5882,3.33742,24.5349,1.01501,1.93261,0.0239107,-0.534927,1.28496,-1.27552,-0.363542,0.705432,0.525372,0.546,0.867585,0.454433,-1.10932,0.499457,-0.683253,0.00282348,
0.104927,-0.229911,-0.240719,-1.70187,-0.0410724,-0.19416,-0.382937,0.577973,-0.082561,0.521316,-0.250528,0.193091,-0.104262,0.0150285,0,0,0,0,0,0,0,0.120852,-0.231248,-0.225349,-1.70727,-0.036348,1.37733,0.402341,0.482495,-0.0565479,0.424564,-0.185351,0.102165,0.00135725,-7.95354e-05,1.67774,-24.5882,3.33742,24.5349,1.01501,1.93261,0.0239107,-0.534927,1.28496,-1.27552,-0.363542,0.705432,0.525372,0.546,0.867585,0.454433,-1.10932,0.499457,-0.683253,0.00282348,
0.127929,-0.232054,-0.218926,-1.71024,-0.0336175,-0.194514,-0.382877,0.630223,-0.0622519,0.582737,-0.259603,0.299511,-0.132994,0.0140865,0,0,0,0,0,0,0,0.120852,-0.231248,-0.225349,-1.70727,-0.036348,1.37733,0.402341,0.482495,-0.0565479,0.424564,-0.185351,0.102165,0.00135725,-7.95354e-05,1.67774,-24.5882,3.33742,24.5349,1.01501,1.93261,0.0239107,-2.11682,0.0886711,-1.89437,0.408887,-0.263434,-0.0888273,0.0357062,0.374488,-0.302541,-1.14313,0.298934,-0.681956,0.000648905,
0.130577,-0.232269,-0.216447,-1.7113,-0.0321237,-0.195181,-0.382825,0.661955,-0.0537189,0.619947,-0.264478,0.373435,-0.166754,0.0131485,0,0,0,0,0,0,0,0.120852,-0.231248,-0.225349,-1.70727,-0.036348,1.37733,0.402341,0.482495,-0.0565479,0.424564,-0.185351,0.102165,0.00135725,-7.95354e-05,1.67774,-24.5882,3.33742,24.5349,1.01501,1.93261,0.0239107,-2.11682,0.0886711,-1.89437,0.408887,-0.263434,-0.0888273,0.0357062,0.374488,-0.302541,-1.14313,0.298934,-0.681956,0.000648905,
0.133332,-0.232448,-0.213841,-1.71237,-0.0303439,-0.195945,-0.382775,0.688934,-0.0447795,0.651369,-0.267511,0.444965,-0.191157,0.0123725,0,0,0,0,0,0,0,0.136777,-0.232456,-0.210163,-1.71273,-0.0306675,1.37761,0.402352,0.509295,-0.0286193,0.476604,-0.166306,0.144667,0.0378055,-0.000794293,-0.829586,-25.0603,1.06416,25.6061,1.10656,1.82641,0.017502,-3.22376,-1.33664,-1.92226,1.53621,-0.963773,-0.808753,-0.68298,-0.0457522,-1.14349,-1.14794,0.316182,-0.821536,0.00228192,
0.136181,-0.232592,-0.211129,-1.71345,-0.0282939,-0.196775,-0.382728,0.712054,-0.0359971,0.678126,-0.269475,0.512493,-0.207441,0.0117222,0,0,0,0,0,0,0,0.136777,-0.232456,-0.210163,-1.71273,-0.0306675,1.37761,0.402352,0.509295,-0.0286193,0.476604,-0.166306,0.144667,0.0378055,-0.000794293,-0.829586,-25.0603,1.06416,25.6061,1.10656,1.82641,0.017502,-3.22376,-1.33664,-1.92226,1.53621,-0.963773,-0.808753,-0.68298,-0.0457522,-1.14349,-1.14794,0.316182,-0.821536,0.00228192,
0.139109,-0.232703,-0.208324,-1.71453,-0.0259933,-0.197643,-0.382684,0.731986,-0.0276178,0.701076,-0.270671,0.575145,-0.216986,0.0111597,0,0,0,0,0,0,0,0.136777,-0.232456,-0.210163,-1.71273,-0.0306675,1.37761,0.402352,0.509295,-0.0286193,0.476604,-0.166306,0.144667,0.0378055,-0.000794293,-0.829586,-25.0603,1.06416,25.6061,1.10656,1.82641,0.017502,-1.68293,1.62484,-1.28415,-0.478614,0.00686104,0.632736,0.667651,0.551277,0.554156,-1.16586,0.670202,-0.860541,-0.00215097,
0.142106,-0.232782,-0.205441,-1.71561,-0.0234632,-0.198527,-0.382641,0.749256,-0.0197532,0.720883,-0.271238,0.632535,-0.221049,0.0106882,0,0,0,0,0,0,0,0.136777,-0.232456,-0.210163,-1.71273,-0.0306675,1.37761,0.402352,0.509295,-0.0286193,0.476604,-0.166306,0.144667,0.0378055,-0.000794293,-0.829586,-25.0603,1.06416,25.6061,1.10656,1.82641,0.017502,-1.81426,0.440391,-1.07027,0.14988,-0.265521,0.107775,0.154998,0.28936,-0.0130649,-0.9454,0.403331,-0.74819,-0.00205718,
0.125408,-0.231805,-0.221257,-1.7092,-0.0348155,-0.193982,-0.382934,0.592486,-0.0689993,0.538251,-0.250732,0.225918,-0.0896376,0.0151951,0,0,0,0,0,0,0,0.136777,-0.232456,-0.210163,-1.71273,-0.0306675,1.37761,0.402352,0.509295,-0.0286193,0.476604,-0.166306,0.144667,0.0378055,-0.000794293,-0.829586,-25.0603,1.06416,25.6061,1.10656,1.82641,0.017502,-1.81426,0.440391,-1.07027,0.14988,-0.265521,0.107775,0.154998,0.28936,-0.0130649,-0.9454,0.403331,-0.74819,-0.00205718,
0.144166,-0.23304,-0.20336,-1.7156,-0.027367,-0.193666,-0.382872,0.65226,-0.0462313,0.609141,-0.253432,0.347303,-0.0846887,0.0137453,0,0,0,0,0,0,0,0.136777,-0.232456,-0.210163,-1.71273,-0.0306675,1.37761,0.402352,0.509295,-0.0286193,0.476604,-0.166306,0.144667,0.0378055,-0.000794293,-0.829586,-25.0603,1.06416,25.6061,1.10656,1.82641,0.017502,-2.97691,-0.462183,-0.718477,0.669058,-1.36249,-0.326611,-0.213457,-0.450142,-0.516099,-0.593328,0.235869,-0.67181,0.000627988,
0.146889,-0.233197,-0.20079,-1.71663,-0.0256902,-0.194143,-0.38282,0.680844,-0.0394449,0.642563,-0.258551,0.41919,-0.119076,0.0128707,0,0,0,0,0,0,0,0.152988,-0.233156,-0.194626,-1.71806,-0.0247256,1.37818,0.402356,0.513814,-0.0140888,0.493123,-0.165573,0.245265,0.000381935,-0.000553098,2.16175,-25.0603,3.83729,25.0586,2.03491,1.95275,0.017502,-2.97691,-0.462183,-0.718477,0.669058,-1.36249,-0.326611,-0.213457,-0.450142,-0.516099,-0.593328,0.235869,-0.67181,0.000627988,
0.14971,-0.233325,-0.198106,-1.71768,-0.023739,-0.19472,-0.382772,0.705206,-0.0320137,0.670896,-0.261548,0.487791,-0.144461,0.0121381,0,0,0,0,0,0,0,0.152988,-0.233156,-0.194626,-1.71806,-0.0247256,1.37818,0.402356,0.513814,-0.0140888,0.493123,-0.165573,0.245265,0.000381935,-0.000553098,2.16175,-25.0603,3.83729,25.0586,2.03491,1.95275,0.017502,-2.63182,0.740016,-0.466582,-0.0784219,-1.19734,0.241389,0.332033,-0.347323,0.13292,-0.555464,0.444353,-0.669832,0.00141285,
0.152615,-0.233424,-0.195326,-1.71873,-0.0215313,-0.195368,-0.382725,0.726132,-0.0245785,0.695102,-0.26338,0.551926,-0.16187,0.0115321,0,0,0,0,0,0,0,0.152988,-0.233156,-0.194626,-1.71806,-0.0247256,1.37818,0.402356,0.513814,-0.0140888,0.493123,-0.165573,0.245265,0.000381935,-0.000553098,2.16175,-25.0603,3.83729,25.0586,2.03491,1.95275,0.017502,-1.41896,1.70144,-0.664865,-0.653641,-0.151809,0.706992,0.707628,0.330681,0.695453,-0.814678,0.634474,-0.700238,0.00242397,
0.155591,-0.233493,-0.192462,-1.71979,-0.0190873,-0.196058,-0.382682,0.74421,-0.0174151,0.715923,-0.264418,0.611005,-0.172595,0.010994,0,0,0,0,0,0,0,0.152988,-0.233156,-0.194626,-1.71806,-0.0247256,1.37818,0.402356,0.513814,-0.0140888,0.493123,-0.165573,0.245265,0.000381935,-0.000553098,2.16175,-25.0603,3.83729,25.0586,2.03491,1.95275,0.017502,-1.41896,1.70144,-0.664865,-0.653641,-0.151809,0.706992,0.707628,0.330681,0.695453,-0.814678,0.634474,-0.700238,0.00242397,
0.158631,-0.233536,-0.189527,-1.72085,-0.016428,-0.19677,-0.382639,0.759897,-0.0106492,0.733936,-0.26483,0.664826,-0.177853,0.0105391,0,0,0,0,0,0,0,0.152988,-0.233156,-0.194626,-1.71806,-0.0247256,1.37818,0.402356,0.513814,-0.0140888,0.493123,-0.165573,0.245265,0.000381935,-0.000553098,2.16175,-25.0603,3.83729,25.0586,2.03491,1.95275,0.017502,-2.17407,-0.627694,-0.911518,0.823431,-0.696049,-0.360819,-0.305283,-0.0779753,-0.537875,-0.717365,0.29993,-0.62983,0.00498104,
0.141557,-0.232855,-0.205797,-1.71459,-0.0287562,-0.193328,-0.382927,0.618317,-0.0507712,0.569375,-0.24354,0.27422,-0.0416243,0.0147899,0,0,0,0,0,0,0,0.169539,-0.233366,-0.178747,-1.72314,-0.0186032,1.37851,0.402368,0.512279,-0.000813559,0.524964,-0.148551,0.248787,-0.00454785,0.000690529,3.60584,-25.6871,4.23799,24.4635,1.44897,2.46911,-0.050247,-2.17407,-0.627694,-0.911518,0.823431,-0.696049,-0.360819,-0.305283,-0.0779753,-0.537875,-0.717365,0.29993,-0.62983,0.00498104,
0.17716,-0.233732,-0.171651,-1.72596,-0.0143364,-0.192821,-0.382856,0.669722,-0.0303328,0.630601,-0.25104,0.418486,-0.0777354,0.0135183,0,0,0,0,0,0,0,0.169539,-0.233366,-0.178747,-1.72314,-0.0186032,1.37851,0.402368,0.512279,-0.000813559,0.524964,-0.148551,0.248787,-0.00454785,0.000690529,3.60584,-25.6871,4.23799,24.4635,1.44897,2.46911,-0.050247,-2.70845,-2.20962,-1.48937,1.83461,-0.98819,-1.06628,-0.919939,-0.281882,-1.40536,-0.741517,0.0727699,-0.520607,0.00310253,
0.179945,-0.233832,-0.169004,-1.72699,-0.0124084,-0.193241,-0.382806,0.696375,-0.0248206,0.66188,-0.256094,0.482012,-0.105226,0.0126678,0,0,0,0,0,0,0,0.169539,-0.233366,-0.178747,-1.72314,-0.0186032,1.37851,0.402368,0.512279,-0.000813559,0.524964,-0.148551,0.248787,-0.00454785,0.000690529,3.60584,-25.6871,4.23799,24.4635,1.44897,2.46911,-0.050247,-2.70845,-2.20962,-1.48937,1.83461,-0.98819,-1.06628,-0.919939,-0.281882,-1.40536,-0.741517,0.0727699,-0.520607,0.00310253,
0.182821,-0.233906,-0.16625,-1.72802,-0.0102362,-0.193743,-0.382758,0.719028,-0.0184871,0.688348,-0.258713,0.54304,-0.125456,0.0119464,0,0,0,0,0,0,0,0.169539,-0.233366,-0.178747,-1.72314,-0.0186032,1.37851,0.402368,0.512279,-0.000813559,0.524964,-0.148551,0.248787,-0.00454785,0.000690529,3.60584,-25.6871,4.23799,24.4635,1.44897,2.46911,-0.050247,-2.16053,0.458275,-1.54877,0.10351,-0.525277,0.173585,0.261224,0.141814,0.0297983,-0.886026,0.432948,-0.535097,-0.00299266,
0.185775,-0.233954,-0.163407,-1.72906,-0.00783471,-0.194299,-0.382712,0.738434,-0.0120689,0.710916,-0.260091,0.600371,-0.138949,0.0113475,0,0,0,0,0,0,0,0.169539,-0.233366,-0.178747,-1.72314,-0.0186032,1.37851,0.402368,0.512279,-0.000813559,0.524964,-0.148551,0.248787,-0.00454785,0.000690529,3.60584,-25.6871,4.23799,24.4635,1.44897,2.46911,-0.050247,-2.23236,2.63803,-1.36024,-1.34931,-0.60645,1.18131,1.19196,0.221251,1.24186,-0.886839,0.696458,-0.573678,-0.00670003,
0.188796,-0.233977,-0.160485,-1.73011,-0.00522123,-0.194886,-0.382669,0.755158,-0.00586778,0.730287,-0.260684,0.65337,-0.1467,0.0108335,0,0,0,0,0,0,0,0.186121,-0.233274,-0.163023,-1.72782,-0.0106669,1.37887,0.402369,0.541325,0.00519573,0.499843,-0.145211,0.231106,0.0160951,0.000945056,1.12232,-26.4845,2.23848,24.4635,1.01501,2.13128,-0.0227812,-2.23236,2.63803,-1.36024,-1.34931,-0.60645,1.18131,1.19196,0.221251,1.24186,-0.886839,0.696458,-0.573678,-0.00670003,
0.191874,-0.233977,-0.157497,-1.73115,-0.00241413,-0.195485,-0.382627,0.769637,-1.44457e-05,0.747011,-0.260687,0.701775,-0.149725,0.0103832,0,0,0,0,0,0,0,0.186121,-0.233274,-0.163023,-1.72782,-0.0106669,1.37887,0.402369,0.541325,0.00519573,0.499843,-0.145211,0.231106,0.0160951,0.000945056,1.12232,-26.4845,2.23848,24.4635,1.01501,2.13128,-0.0227812,-2.14929,-0.400483,-1.71242,0.613718,-0.50367,-0.205649,-0.171621,0.115691,-0.346118,-0.878098,0.311892,-0.47528,-0.00218737,
0.174481,-0.233611,-0.174174,-1.72496,-0.0160103,-0.19251,-0.38291,0.637915,-0.0331256,0.59338,-0.240245,0.354504,-0.0443178,0.0145828,0,0,0,0,0,0,0,0.186121,-0.233274,-0.163023,-1.72782,-0.0106669,1.37887,0.402369,0.541325,0.00519573,0.499843,-0.145211,0.231106,0.0160951,0.000945056,1.12232,-26.4845,2.23848,24.4635,1.01501,2.13128,-0.0227812,-2.14929,-0.400483,-1.71242,0.613718,-0.50367,-0.205649,-0.171621,0.115691,-0.346118,-0.878098,0.311892,-0.47528,-0.00218737,
0.193732,-0.233561,-0.155939,-1.73058,-0.00649712,-0.192164,-0.382853,0.668523,-0.0241359,0.630275,-0.245336,0.411292,-0.0509467,0.0138842,0,0,0,0,0,0,0,0.186121,-0.233274,-0.163023,-1.72782,-0.0106669,1.37887,0.402369,0.541325,0.00519573,0.499843,-0.145211,0.231106,0.0160951,0.000945056,1.12232,-26.4845,2.23848,24.4635,1.01501,2.13128,-0.0227812,-2.34672,-0.705195,-1.72311,0.742204,-0.735571,-0.312705,-0.204659,-0.0582175,-0.511124,-0.772383,0.204188,-0.3905,-0.00234062,
0.196514,-0.233638,-0.153292,-1.73158,-0.00459598,-0.192472,-0.382801,0.695349,-0.0191372,0.661791,-0.250105,0.475284,-0.077146,0.0129913,0,0,0,0,0,0,0,0.186121,-0.233274,-0.163023,-1.72782,-0.0106669,1.37887,0.402369,0.541325,0.00519573,0.499843,-0.145211,0.231106,0.0160951,0.000945056,1.12232,-26.4845,2.23848,24.4635,1.01501,2.13128,-0.0227812,-2.34672,-0.705195,-1.72311,0.742204,-0.735571,-0.312705,-0.204659,-0.0582175,-0.511124,-0.772383,0.204188,-0.3905,-0.00234062,
0.199386,-0.233691,-0.150538,-1.73259,-0.00244925,-0.192858,-0.382752,0.718158,-0.0133137,0.688468,-0.252515,0.536684,-0.096431,0.0122424,0,0,0,0,0,0,0,0.186121,-0.233274,-0.163023,-1.72782,-0.0106669,1.37887,0.402369,0.541325,0.00519573,0.499843,-0.145211,0.231106,0.0160951,0.000945056,1.12232,-26.4845,2.23848,24.4635,1.01501,2.13128,-0.0227812,-2.51297,0.0436875,-1.73212,0.306253,-0.793573,0.0374433,0.124585,-0.0251806,-0.11064,-0.828798,0.366486,-0.445029,-0.00272112,
0.202337,-0.23372,-0.147694,-1.73361,-7.19123e-05,-0.193295,-0.382705,0.737697,-0.00737882,0.711215,-0.253727,0.594333,-0.109273,0.0116006,0,0,0,0,0,0,0,0.203654,-0.233322,-0.14584,-1.73316,-0.000703064,1.37919,0.40237,0.550175,0.000752167,0.520554,-0.165728,0.263802,0.0172708,0.000902612,0.00751081,-25.7625,1.28633,25.3323,1.58905,1.95275,-0.0163725,-2.4584,3.7552,-1.61038,-2.17212,-0.709657,1.75455,1.76587,0.297425,1.90089,-0.93032,0.782839,-0.510721,-0.00711391,
0.205348,-0.233727,-0.144767,-1.73463,0.0025213,-0.193761,-0.382661,0.752805,-0.00158539,0.73172,-0.254205,0.648303,-0.116602,0.0109949,0,0,0,0,0,0,0,0.203654,-0.233322,-0.14584,-1.73316,-0.000703064,1.37919,0.40237,0.550175,0.000752167,0.520554,-0.165728,0.263802,0.0172708,0.000902612,0.00751081,-25.7625,1.28633,25.3323,1.58905,1.95275,-0.0163725,-2.4584,3.7552,-1.61038,-2.17212,-0.709657,1.75455,1.76587,0.297425,1.90089,-0.93032,0.782839,-0.510721,-0.00711391,
0.2084,-0.233711,-0.141763,-1.73564,0.00531659,-0.194239,-0.38262,0.763009,0.00395993,0.750796,-0.254142,0.698822,-0.119398,0.0103911,0,0,0,0,0,0,0,0.203654,-0.233322,-0.14584,-1.73316,-0.000703064,1.37919,0.40237,0.550175,0.000752167,0.520554,-0.165728,0.263802,0.0172708,0.000902612,0.00751081,-25.7625,1.28633,25.3323,1.58905,1.95275,-0.0163725,-2.4584,3.7552,-1.61038,-2.17212,-0.709657,1.75455,1.76587,0.297425,1.90089,-0.93032,0.782839,-0.510721,-0.00711391,
0.191058,-0.233464,-0.158461,-1.7296,-0.00814228,-0.19196,-0.382908,0.636624,-0.0264775,0.592743,-0.235003,0.346652,-0.0191728,0.0149357,0,0,0,0,0,0,0,0.203654,-0.233322,-0.14584,-1.73316,-0.000703064,1.37919,0.40237,0.550175,0.000752167,0.520554,-0.165728,0.263802,0.0172708,0.000902612,0.00751081,-25.7625,1.28633,25.3323,1.58905,1.95275,-0.0163725,-2.14216,0.534916,-1.99493,-0.0941176,-0.339935,0.272956,0.289359,0.346664,0.215109,-1.04013,0.392964,-0.503157,0.000268949,
0.211382,-0.233549,-0.138608,-1.73593,0.00380902,-0.191828,-0.382853,0.676781,-0.017788,0.640906,-0.242823,0.43748,-0.0453915,0.0138408,0,0,0,0,0,0,0,0.203654,-0.233322,-0.14584,-1.73316,-0.000703064,1.37919,0.40237,0.550175,0.000752167,0.520554,-0.165728,0.263802,0.0172708,0.000902612,0.00751081,-25.7625,1.28633,25.3323,1.58905,1.95275,-0.0163725,-1.78558,-2.04381,-2.27041,1.56241,-0.0364573,-0.892486,-0.787031,0.34753,-1.18288,-1.07113,0.0700794,-0.442805,0.000666938,
0.214192,-0.233601,-0.135923,-1.73692,0.00580432,-0.192094,-0.382801,0.702541,-0.0127702,0.671208,-0.246533,0.498826,-0.0666565,0.012955,0,0,0,0,0,0,0,0.222539,-0.233258,-0.12738,-1.73876,0.00917966,1.38015,0.402369,0.555149,0.00201703,0.577887,-0.166632,0.343867,0.0216832,-0.00148129,2.18555,-26.2108,3.0359,25.4593,2.60254,1.6607,0.0303194,-1.78558,-2.04381,-2.27041,1.56241,-0.0364573,-0.892486,-0.787031,0.34753,-1.18288,-1.07113,0.0700794,-0.442805,0.000666938,
0.217083,-0.233629,-0.133132,-1.73791,0.00803742,-0.192421,-0.382752,0.722736,-0.00715342,0.697857,-0.248352,0.558276,-0.0817479,0.0121521,0,0,0,0,0,0,0,0.222539,-0.233258,-0.12738,-1.73876,0.00917966,1.38015,0.402369,0.555149,0.00201703,0.577887,-0.166632,0.343867,0.0216832,-0.00148129,2.18555,-26.2108,3.0359,25.4593,2.60254,1.6607,0.0303194,-1.10553,0.144907,-2.33781,0.189588,0.620194,0.0879444,0.167338,0.90678,-0.085856,-1.29351,0.416673,-0.520999,-0.00411418,
0.220031,-0.233635,-0.130244,-1.73891,0.0104984,-0.192786,-0.382707,0.737154,-0.00147309,0.721978,-0.249182,0.615246,-0.0912052,0.0113871,0,0,0,0,0,0,0,0.222539,-0.233258,-0.12738,-1.73876,0.00917966,1.38015,0.402369,0.555149,0.00201703,0.577887,-0.166632,0.343867,0.0216832,-0.00148129,2.18555,-26.2108,3.0359,25.4593,2.60254,1.6607,0.0303194,-1.10553,0.144907,-2.33781,0.189588,0.620194,0.0879444,0.167338,0.90678,-0.085856,-1.29351,0.416673,-0.520999,-0.00411418,
0.223025,-0.233619,-0.127273,-1.73991,0.0131719,-0.19317,-0.382664,0.748537,0.00398598,0.742669,-0.249343,0.668378,-0.0959173,0.010726,0,0,0,0,0,0,0,0.222539,-0.233258,-0.12738,-1.73876,0.00917966,1.38015,0.402369,0.555149,0.00201703,0.577887,-0.166632,0.343867,0.0216832,-0.00148129,2.18555,-26.2108,3.0359,25.4593,2.60254,1.6607,0.0303194,-2.49435,3.22872,-1.56899,-1.87484,-0.678113,1.57442,1.56975,0.33439,1.70752,-0.957413,0.735313,-0.55114,-0.0100703,
0.226055,-0.233583,-0.124232,-1.7409,0.0160408,-0.193557,-0.382623,0.757439,0.00910244,0.760483,-0.249008,0.717228,-0.0967245,0.0101702,0,0,0,0,0,0,0,0.222539,-0.233258,-0.12738,-1.73876,0.00917966,1.38015,0.402369,0.555149,0.00201703,0.577887,-0.166632,0.343867,0.0216832,-0.00148129,2.18555,-26.2108,3.0359,25.4593,2.60254,1.6607,0.0303194,-1.86363,0.132989,-1.44096,0.0995989,-0.392181,0.145481,0.187779,0.186714,0.0618288,-0.796918,0.313718,-0.439405,-0.00619569,
0.208674,-0.233478,-0.141172,-1.73496,0.00205909,-0.191646,-0.382908,0.646199,-0.0208288,0.604875,-0.234741,0.375324,-0.0187915,0.0148526,0,0,0,0,0,0,0,0.222539,-0.233258,-0.12738,-1.73876,0.00917966,1.38015,0.402369,0.555149,0.00201703,0.577887,-0.166632,0.343867,0.0216832,-0.00148129,2.18555,-26.2108,3.0359,25.4593,2.60254,1.6607,0.0303194,-1.86363,0.132989,-1.44096,0.0995989,-0.392181,0.145481,0.187779,0.186714,0.0618288,-0.796918,0.313718,-0.439405,-0.00619569,
0.23052,-0.23343,-0.119815,-1.74147,0.0144946,-0.190714,-0.38286,0.69398,-0.0127026,0.665095,-0.237046,0.499568,-0.0274746,0.0132456,0,0,0,0,0,0,0,0.240569,-0.23304,-0.109948,-1.74381,0.0185648,1.38122,0.402375,0.580089,0.00902995,0.574526,-0.161539,0.353335,0.0151155,-0.0012717,1.01917,-26.7821,1.38948,25.733,1.44256,2.14501,0.0239107,-1.40889,-2.55063,-0.989873,1.90642,-0.350977,-1.0962,-0.998537,-0.144554,-1.39123,-0.506715,0.0258489,-0.331458,-0.00310593,
0.233371,-0.233461,-0.117036,-1.74243,0.0167228,-0.190894,-0.382811,0.712862,-0.00758965,0.694649,-0.240554,0.557065,-0.0449875,0.0123069,0,0,0,0,0,0,0,0.240569,-0.23304,-0.109948,-1.74381,0.0185648,1.38122,0.402375,0.580089,0.00902995,0.574526,-0.161539,0.353335,0.0151155,-0.0012717,1.01917,-26.7821,1.38948,25.733,1.44256,2.14501,0.0239107,-1.40889,-2.55063,-0.989873,1.90642,-0.350977,-1.0962,-0.998537,-0.144554,-1.39123,-0.506715,0.0258489,-0.331458,-0.00310593,
0.236283,-0.233469,-0.114157,-1.7434,0.0191724,-0.191123,-0.382765,0.727863,-0.00206213,0.719729,-0.242244,0.612398,-0.0572286,0.0115075,0,0,0,0,0,0,0,0.240569,-0.23304,-0.109948,-1.74381,0.0185648,1.38122,0.402375,0.580089,0.00902995,0.574526,-0.161539,0.353335,0.0151155,-0.0012717,1.01917,-26.7821,1.38948,25.733,1.44256,2.14501,0.0239107,-1.75038,-0.423138,-1.09119,0.522114,-0.507381,-0.0957168,-0.0188405,-0.0233678,-0.246737,-0.590902,0.299483,-0.362994,-0.00712717,
0.239242,-0.233456,-0.111193,-1.74437,0.0218303,-0.191381,-0.382722,0.739738,0.00337151,0.741121,-0.24297,0.664467,-0.0645882,0.0108396,0,0,0,0,0,0,0,0.240569,-0.23304,-0.109948,-1.74381,0.0185648,1.38122,0.402375,0.580089,0.00902995,0.574526,-0.161539,0.353335,0.0151155,-0.0012717,1.01917,-26.7821,1.38948,25.733,1.44256,2.14501,0.0239107,-2.01043,2.77505,-1.4591,-1.62089,-0.464465,1.38254,1.37655,0.37594,1.49392,-0.831646,0.663865,-0.41531,-0.0112094,
0.242238,-0.233422,-0.108155,-1.74534,0.0246809,-0.191653,-0.382681,0.749071,0.0085089,0.75945,-0.24306,0.71265,-0.0678123,0.0102597,0,0,0,0,0,0,0,0.240569,-0.23304,-0.109948,-1.74381,0.0185648,1.38122,0.402375,0.580089,0.00902995,0.574526,-0.161539,0.353335,0.0151155,-0.0012717,1.01917,-26.7821,1.38948,25.733,1.44256,2.14501,0.0239107,-2.01043,2.77505,-1.4591,-1.62089,-0.464465,1.38254,1.37655,0.37594,1.49392,-0.831646,0.663865,-0.41531,-0.0112094,
0.245263,-0.233368,-0.105054,-1.74631,0.0277076,-0.191923,-0.382642,0.756285,0.0132672,0.775236,-0.242664,0.756681,-0.0676479,0.0097466,0,0,0,0,0,0,0,0.257915,-0.232532,-0.0925435,-1.74859,0.0293657,1.38175,0.402375,0.545869,0.0183627,0.52899,-0.142627,0.330218,0.0162096,-0.000752049,1.12232,-27.3097,1.41328,25.0348,0.868527,2.16424,0.0239107,-2.72414,0.921217,-1.39431,-0.459039,-1.1381,0.613008,0.648697,-0.183887,0.614656,-0.62229,0.392603,-0.342516,-0.00756514,
0.227744,-0.23338,-0.122475,-1.74052,0.0124963,-0.190604,-0.382913,0.668086,-0.0160846,0.631743,-0.22948,0.442171,-0.00551895,0.0142499,0,0,0,0,0,0,0,0.257915,-0.232532,-0.0925435,-1.74859,0.0293657,1.38175,0.402375,0.545869,0.0183627,0.52899,-0.142627,0.330218,0.0162096,-0.000752049,1.12232,-27.3097,1.41328,25.0348,0.868527,2.16424,0.0239107,-2.72414,0.921217,-1.39431,-0.459039,-1.1381,0.613008,0.648697,-0.183887,0.614656,-0.62229,0.392603,-0.342516,-0.00756514,
0.265591,-0.232606,-0.0852067,-1.7512,0.0344422,-0.188881,-0.382846,0.668443,-0.00597629,0.652308,-0.230947,0.477207,-0.00320917,0.01379,0,0,0,0,0,0,0,0.257915,-0.232532,-0.0925435,-1.74859,0.0293657,1.38175,0.402375,0.545869,0.0183627,0.52899,-0.142627,0.330218,0.0162096,-0.000752049,1.12232,-27.3097,1.41328,25.0348,0.868527,2.16424,0.0239107,-1.99235,-2.62097,-1.78332,1.876,-0.540993,-1.04456,-0.941667,-0.150459,-1.33222,-0.698308,0.0279586,-0.278655,-0.00155947,
0.268349,-0.232612,-0.0824681,-1.75214,0.0365763,-0.188956,-0.382795,0.689337,-0.0015581,0.68465,-0.234917,0.533538,-0.0185427,0.0127806,0,0,0,0,0,0,0,0.257915,-0.232532,-0.0925435,-1.74859,0.0293657,1.38175,0.402375,0.545869,0.0183627,0.52899,-0.142627,0.330218,0.0162096,-0.000752049,1.12232,-27.3097,1.41328,25.0348,0.868527,2.16424,0.0239107,-1.99235,-2.62097,-1.78332,1.876,-0.540993,-1.04456,-0.941667,-0.150459,-1.33222,-0.698308,0.0279586,-0.278655,-0.00155947,
0.271173,-0.232598,-0.0796205,-1.75308,0.0389307,-0.189074,-0.382748,0.706063,0.00343359,0.7119,-0.236742,0.588599,-0.0295235,0.011917,0,0,0,0,0,0,0,0.257915,-0.232532,-0.0925435,-1.74859,0.0293657,1.38175,0.402375,0.545869,0.0183627,0.52899,-0.142627,0.330218,0.0162096,-0.000752049,1.12232,-27.3097,1.41328,25.0348,0.868527,2.16424,0.0239107,-1.07178,-0.549141,-2.00957,0.517128,0.307745,-0.182527,-0.12116,0.547833,-0.344275,-0.943402,0.296564,-0.296462,-0.00459803,
0.274051,-0.232564,-0.0766804,-1.75403,0.0414948,-0.189219,-0.382703,0.719399,0.0083963,0.735013,-0.23748,0.641008,-0.0361891,0.011169,0,0,0,0,0,0,0,0.257915,-0.232532,-0.0925435,-1.74859,0.0293657,1.38175,0.402375,0.545869,0.0183627,0.52899,-0.142627,0.330218,0.0162096,-0.000752049,1.12232,-27.3097,1.41328,25.0348,0.868527,2.16424,0.0239107,-1.07178,-0.549141,-2.00957,0.517128,0.307745,-0.182527,-0.12116,0.547833,-0.344275,-0.943402,0.296564,-0.296462,-0.00459803,
0.27697,-0.232512,-0.0736615,-1.75498,0.0442545,-0.189375,-0.382661,0.729939,0.0130936,0.75474,-0.237541,0.689938,-0.0390813,0.0105157,0,0,0,0,0,0,0,0.282018,-0.231639,-0.067871,-1.7546,0.0452476,1.3823,0.402386,0.554334,0.0136879,0.550857,-0.13929,0.327219,0.0310967,0.00540949,0.741459,-27.3811,0.663466,24.884,1.00311,2.03881,-0.0365141,-1.05033,1.37429,-2.21309,-0.79923,0.460099,0.688057,0.694923,0.872943,0.688004,-1.09586,0.496588,-0.322296,-0.0078042,
0.262918,-0.232582,-0.0878159,-1.75027,0.0325334,-0.188869,-0.382902,0.64226,-0.00823893,0.613734,-0.221951,0.42173,0.014795,0.0149489,0,0,0,0,0,0,0,0.282018,-0.231639,-0.067871,-1.7546,0.0452476,1.3823,0.402386,0.554334,0.0136879,0.550857,-0.13929,0.327219,0.0310967,0.00540949,0.741459,-27.3811,0.663466,24.884,1.00311,2.03881,-0.0365141,-1.65837,1.10604,-2.40167,-0.751373,0.0154531,0.653879,0.692066,0.652628,0.652083,-1.0752,0.357648,-0.294897,-0.00983969,
0.289686,-0.231713,-0.060335,-1.75713,0.0504407,-0.188092,-0.382839,0.665416,-0.00500509,0.66613,-0.223505,0.489863,0.0201626,0.0134618,0,0,0,0,0,0,0,0.282018,-0.231639,-0.067871,-1.7546,0.0452476,1.3823,0.402386,0.554334,0.0136879,0.550857,-0.13929,0.327219,0.0310967,0.00540949,0.741459,-27.3811,0.663466,24.884,1.00311,2.03881,-0.0365141,-1.65837,1.10604,-2.40167,-0.751373,0.0154531,0.653879,0.692066,0.652628,0.652083,-1.0752,0.357648,-0.294897,-0.00983969,
0.292425,-0.231714,-0.0575492,-1.75804,0.0526281,-0.188064,-0.382789,0.684781,-0.000153741,0.696463,-0.227562,0.54684,0.00707625,0.0124941,0,0,0,0,0,0,0,0.282018,-0.231639,-0.067871,-1.7546,0.0452476,1.3823,0.402386,0.554334,0.0136879,0.550857,-0.13929,0.327219,0.0310967,0.00540949,0.741459,-27.3811,0.663466,24.884,1.00311,2.03881,-0.0365141,-1.46903,-1.83219,-2.19359,1.25752,-0.00416427,-0.682737,-0.581138,0.275423,-0.924036,-0.899495,0.101741,-0.249133,-0.00473137,
0.295226,-0.231694,-0.0546607,-1.75895,0.0550345,-0.188073,-0.382742,0.7003,0.00505584,0.722127,-0.229523,0.601616,-0.00229427,0.0116539,0,0,0,0,0,0,0,0.282018,-0.231639,-0.067871,-1.7546,0.0452476,1.3823,0.402386,0.554334,0.0136879,0.550857,-0.13929,0.327219,0.0310967,0.00540949,0.741459,-27.3811,0.663466,24.884,1.00311,2.03881,-0.0365141,-1.46903,-1.83219,-2.19359,1.25752,-0.00416427,-0.682737,-0.581138,0.275423,-0.924036,-0.899495,0.101741,-0.249133,-0.00473137,
0.298077,-0.231653,-0.0516848,-1.75988,0.0576472,-0.188104,-0.382698,0.712664,0.0100994,0.743971,-0.230393,0.653172,-0.00788792,0.0109218,0,0,0,0,0,0,0,0.30009,-0.231199,-0.0492293,-1.75928,0.0568525,1.38334,0.402385,0.555121,0.00996304,0.570957,-0.153402,0.294723,0.0565628,-0.000178078,-0.147213,-26.7583,-0.0625476,25.3323,1.53412,1.89965,0.017502,-1.0613,-0.0101874,-2.54063,0.0355246,0.543022,0.0848202,0.129842,0.846705,-0.0224863,-1.17718,0.342537,-0.309294,-0.00584173,
0.300967,-0.231594,-0.0486341,-1.7608,0.0604509,-0.188145,-0.382657,0.722413,0.0147854,0.762665,-0.230573,0.700924,-0.0101416,0.01028,0,0,0,0,0,0,0,0.30009,-0.231199,-0.0492293,-1.75928,0.0568525,1.38334,0.402385,0.555121,0.00996304,0.570957,-0.153402,0.294723,0.0565628,-0.000178078,-0.147213,-26.7583,-0.0625476,25.3323,1.53412,1.89965,0.017502,-1.0613,-0.0101874,-2.54063,0.0355246,0.543022,0.0848202,0.129842,0.846705,-0.0224863,-1.17718,0.342537,-0.309294,-0.00584173,
0.303887,-0.231518,-0.0455191,-1.76172,0.0634293,-0.188183,-0.382618,0.729977,0.0190493,0.778743,-0.230242,0.744608,-0.00959637,0.00971386,0,0,0,0,0,0,0,0.30009,-0.231199,-0.0492293,-1.75928,0.0568525,1.38334,0.402385,0.555121,0.00996304,0.570957,-0.153402,0.294723,0.0565628,-0.000178078,-0.147213,-26.7583,-0.0625476,25.3323,1.53412,1.89965,0.017502,-1.44093,0.353361,-2.29761,-0.202699,0.2053,0.29576,0.308103,0.679053,0.249441,-1.09186,0.390829,-0.342108,-0.00437074,
0.287025,-0.231693,-0.0629995,-1.75623,0.0484813,-0.188172,-0.382892,0.641264,-0.00807332,0.630102,-0.214641,0.432237,0.0352617,0.014552,0,0,0,0,0,0,0,0.30009,-0.231199,-0.0492293,-1.75928,0.0568525,1.38334,0.402385,0.555121,0.00996304,0.570957,-0.153402,0.294723,0.0565628,-0.000178078,-0.147213,-26.7583,-0.0625476,25.3323,1.53412,1.89965,0.017502,-1.39586,0.141152,-2.8064,-0.238288,0.328847,0.225829,0.295752,0.813692,0.147347,-1.22098,0.231653,-0.278025,-0.00510808,
0.30771,-0.231227,-0.0415417,-1.7618,0.0618784,-0.186839,-0.382846,0.659539,-0.000184449,0.676195,-0.220158,0.482219,0.0384814,0.0131888,0,0,0,0,0,0,0,0.30009,-0.231199,-0.0492293,-1.75928,0.0568525,1.38334,0.402385,0.555121,0.00996304,0.570957,-0.153402,0.294723,0.0565628,-0.000178078,-0.147213,-26.7583,-0.0625476,25.3323,1.53412,1.89965,0.017502,-1.39586,0.141152,-2.8064,-0.238288,0.328847,0.225829,0.295752,0.813692,0.147347,-1.22098,0.231653,-0.278025,-0.00510808,
0.310421,-0.231208,-0.0387226,-1.76269,0.0640494,-0.186731,-0.382797,0.677618,0.00460843,0.70478,-0.223522,0.542742,0.0268928,0.0122547,0,0,0,0,0,0,0,0.30009,-0.231199,-0.0492293,-1.75928,0.0568525,1.38334,0.402385,0.555121,0.00996304,0.570957,-0.153402,0.294723,0.0565628,-0.000178078,-0.147213,-26.7583,-0.0625476,25.3323,1.53412,1.89965,0.017502,-1.27224,-1.42247,-2.76511,0.851526,0.396946,-0.486545,-0.403499,0.6613,-0.683735,-1.18439,0.146312,-0.282416,-0.00312171,
0.31319,-0.23117,-0.0358062,-1.76359,0.0664483,-0.186656,-0.382751,0.69216,0.00953609,0.729107,-0.225123,0.599742,0.0188408,0.0114356,0,0,0,0,0,0,0,0.318085,-0.230852,-0.0301513,-1.76417,0.0694253,1.38542,0.402388,0.582758,0.0173269,0.610818,-0.152819,0.417006,0.07572,-0.000302247,0.25745,-26.6075,0.43733,25.5347,1.97998,1.83922,-0.00996382,-1.27224,-1.42247,-2.76511,0.851526,0.396946,-0.486545,-0.403499,0.6613,-0.683735,-1.18439,0.146312,-0.282416,-0.00312171,
0.316005,-0.231113,-0.0328065,-1.76449,0.0690588,-0.186599,-0.382708,0.703775,0.0142086,0.749916,-0.225761,0.652604,0.0142655,0.0107176,0,0,0,0,0,0,0,0.318085,-0.230852,-0.0301513,-1.76417,0.0694253,1.38542,0.402388,0.582758,0.0173269,0.610818,-0.152819,0.417006,0.07572,-0.000302247,0.25745,-26.6075,0.43733,25.5347,1.97998,1.83922,-0.00996382,-1.34488,0.706099,-2.82875,-0.508363,0.511218,0.456236,0.471402,0.996475,0.421471,-1.3281,0.467403,-0.352705,-0.00641525,
0.318856,-0.231039,-0.0297353,-1.7654,0.0718629,-0.186548,-0.382668,0.712947,0.018491,0.767799,-0.225764,0.701035,0.0127326,0.0100853,0,0,0,0,0,0,0,0.318085,-0.230852,-0.0301513,-1.76417,0.0694253,1.38542,0.402388,0.582758,0.0173269,0.610818,-0.152819,0.417006,0.07572,-0.000302247,0.25745,-26.6075,0.43733,25.5347,1.97998,1.83922,-0.00996382,-1.27802,1.38739,-2.29899,-0.932102,0.304531,0.753331,0.739278,0.843148,0.793652,-1.08129,0.501307,-0.283278,-0.00711509,
0.305072,-0.231226,-0.0442465,-1.76092,0.0599495,-0.186993,-0.382898,0.637107,-0.00376057,0.642471,-0.212911,0.419174,0.0524073,0.0142056,0,0,0,0,0,0,0,0.318085,-0.230852,-0.0301513,-1.76417,0.0694253,1.38542,0.402388,0.582758,0.0173269,0.610818,-0.152819,0.417006,0.07572,-0.000302247,0.25745,-26.6075,0.43733,25.5347,1.97998,1.83922,-0.00996382,-1.27802,1.38739,-2.29899,-0.932102,0.304531,0.753331,0.739278,0.843148,0.793652,-1.08129,0.501307,-0.283278,-0.00711509,
0.325884,-0.230793,-0.0220717,-1.76664,0.0756516,-0.184481,-0.382856,0.670676,0.00655192,0.70462,-0.215631,0.57112,0.0631467,0.0121986,0,0,0,0,0,0,0,0.318085,-0.230852,-0.0301513,-1.76417,0.0694253,1.38542,0.402388,0.582758,0.0173269,0.610818,-0.152819,0.417006,0.07572,-0.000302247,0.25745,-26.6075,0.43733,25.5347,1.97998,1.83922,-0.00996382,-1.20439,-0.299249,-1.96692,0.168999,0.0772136,0.0253832,0.0924965,0.42885,-0.0823994,-0.819222,0.247214,-0.183089,-0.00511731,
0.328627,-0.23075,-0.0191528,-1.76752,0.0781376,-0.184269,-0.38281,0.685786,0.010664,0.729743,-0.218674,0.62148,0.0529783,0.0113681,0,0,0,0,0,0,0,0.335831,-0.230445,-0.0109591,-1.76884,0.0809461,1.38786,0.402391,0.554911,0.0178535,0.620795,-0.143684,0.390197,0.0680845,0.000583686,1.04694,-26.8099,0.536512,26.0068,2.0166,2.17156,-0.0365141,-1.20439,-0.299249,-1.96692,0.168999,0.0772136,0.0253832,0.0924965,0.42885,-0.0823994,-0.819222,0.247214,-0.183089,-0.00511731,
0.331418,-0.230691,-0.0161484,-1.7684,0.0808142,-0.184085,-0.382768,0.697777,0.0149135,0.751092,-0.220044,0.669159,0.0459,0.0106368,0,0,0,0,0,0,0,0.335831,-0.230445,-0.0109591,-1.76884,0.0809461,1.38786,0.402391,0.554911,0.0178535,0.620795,-0.143684,0.390197,0.0680845,0.000583686,1.04694,-26.8099,0.536512,26.0068,2.0166,2.17156,-0.0365141,-0.926419,0.196611,-1.73224,-0.0818032,0.203318,0.201655,0.290967,0.487788,0.085466,-0.739113,0.344774,-0.152246,-0.006535,
0.334247,-0.230615,-0.0130711,-1.76928,0.0836684,-0.183917,-0.382728,0.707191,0.0189355,0.769326,-0.220502,0.713549,0.0419032,0.00999448,0,0,0,0,0,0,0,0.335831,-0.230445,-0.0109591,-1.76884,0.0809461,1.38786,0.402391,0.554911,0.0178535,0.620795,-0.143684,0.390197,0.0680845,0.000583686,1.04694,-26.8099,0.536512,26.0068,2.0166,2.17156,-0.0365141,-0.926419,0.196611,-1.73224,-0.0818032,0.203318,0.201655,0.290967,0.487788,0.085466,-0.739113,0.344774,-0.152246,-0.006535,
0.337105,-0.230525,-0.00993119,-1.77016,0.0866857,-0.183755,-0.38269,0.714456,0.0226045,0.784976,-0.220359,0.754329,0.0406174,0.00942858,0,0,0,0,0,0,0,0.335831,-0.230445,-0.0109591,-1.76884,0.0809461,1.38786,0.402391,0.554911,0.0178535,0.620795,-0.143684,0.390197,0.0680845,0.000583686,1.04694,-26.8099,0.536512,26.0068,2.0166,2.17156,-0.0365141,-0.351389,-0.334082,-1.60657,0.3874,0.666369,-0.149016,-0.130094,0.643085,-0.280318,-0.774046,0.440092,-0.194078,-0.00411533,
0.323201,-0.230819,-0.0248902,-1.76578,0.0733672,-0.184733,-0.382904,0.651731,0.00359379,0.674943,-0.208909,0.519015,0.0752161,0.0130891,0,0,0,0,0,0,0,0.335831,-0.230445,-0.0109591,-1.76884,0.0809461,1.38786,0.402391,0.554911,0.0178535,0.620795,-0.143684,0.390197,0.0680845,0.000583686,1.04694,-26.8099,0.536512,26.0068,2.0166,2.17156,-0.0365141,-1.0142,-0.244207,-1.44495,0.343108,0.117329,0.00729857,0.0326306,0.337065,-0.105333,-0.659808,0.454591,-0.198357,-0.00512367,
0.343449,-0.230383,-0.00288676,-1.77123,0.0869319,-0.181968,-0.382851,0.656063,0.00692672,0.703894,-0.210136,0.554294,0.0737367,0.0122254,0,0,0,0,0,0,0,0.335831,-0.230445,-0.0109591,-1.76884,0.0809461,1.38786,0.402391,0.554911,0.0178535,0.620795,-0.143684,0.390197,0.0680845,0.000583686,1.04694,-26.8099,0.536512,26.0068,2.0166,2.17156,-0.0365141,-1.0142,-0.244207,-1.44495,0.343108,0.117329,0.00729857,0.0326306,0.337065,-0.105333,-0.659808,0.454591,-0.198357,-0.00512367,
0.346135,-0.230338,2.99135e-05,-1.77209,0.0893593,-0.181703,-0.382806,0.671419,0.0111784,0.729168,-0.213275,0.606851,0.0664196,0.0113729,0,0,0,0,0,0,0,0.352584,-0.229748,0.00735884,-1.77287,0.091179,1.38998,0.402396,0.54901,0.0241756,0.623839,-0.126747,0.376494,0.06068,0.000875164,1.98322,-27.0598,1.26253,25.2847,1.52221,2.37023,-0.0365141,-0.919156,-0.665692,-1.93744,0.47582,0.281293,-0.169631,-0.0973456,0.461365,-0.326749,-0.79774,0.319707,-0.150293,-0.00663944,
0.34887,-0.230276,0.00303266,-1.77295,0.0919842,-0.181457,-0.382763,0.683659,0.0155049,0.750687,-0.214662,0.656237,0.0614405,0.0106209,0,0,0,0,0,0,0,0.352584,-0.229748,0.00735884,-1.77287,0.091179,1.38998,0.402396,0.54901,0.0241756,0.623839,-0.126747,0.376494,0.06068,0.000875164,1.98322,-27.0598,1.26253,25.2847,1.52221,2.37023,-0.0365141,-0.919156,-0.665692,-1.93744,0.47582,0.281293,-0.169631,-0.0973456,0.461365,-0.326749,-0.79774,0.319707,-0.150293,-0.00663944,
0.351643,-0.230198,0.00610904,-1.77381,0.0947921,-0.181221,-0.382723,0.693309,0.0195424,0.769094,-0.215108,0.701982,0.0589763,0.00996086,0,0,0,0,0,0,0,0.352584,-0.229748,0.00735884,-1.77287,0.091179,1.38998,0.402396,0.54901,0.0241756,0.623839,-0.126747,0.376494,0.06068,0.000875164,1.98322,-27.0598,1.26253,25.2847,1.52221,2.37023,-0.0365141,-1.20098,0.681091,-2.32189,-0.472443,0.31525,0.457807,0.493034,0.756127,0.410936,-1.01364,0.491486,-0.208192,-0.00939277,
0.354446,-0.230105,0.00924871,-1.77467,0.0977676,-0.180986,-0.382686,0.700775,0.0231773,0.784919,-0.214948,0.743863,0.0587892,0.00938326,0,0,0,0,0,0,0,0.352584,-0.229748,0.00735884,-1.77287,0.091179,1.38998,0.402396,0.54901,0.0241756,0.623839,-0.126747,0.376494,0.06068,0.000875164,1.98322,-27.0598,1.26253,25.2847,1.52221,2.37023,-0.0365141,-1.20098,0.681091,-2.32189,-0.472443,0.31525,0.457807,0.493034,0.756127,0.410936,-1.01364,0.491486,-0.208192,-0.00939277,
0.357271,-0.23,0.0124431,-1.77552,0.100895,-0.180744,-0.38265,0.706355,0.0263879,0.798608,-0.214348,0.78186,0.0605536,0.00887729,0,0,0,0,0,0,0,0.352584,-0.229748,0.00735884,-1.77287,0.091179,1.38998,0.402396,0.54901,0.0241756,0.623839,-0.126747,0.376494,0.06068,0.000875164,1.98322,-27.0598,1.26253,25.2847,1.52221,2.37023,-0.0365141,-1.25264,0.941253,-2.283,-0.62744,0.314152,0.571588,0.556309,0.795462,0.576918,-1.03112,0.566471,-0.236765,-0.00909404,
0.343449,-0.230383,-0.00288671,-1.77123,0.0869311,-0.181968,-0.382851,0.656069,0.00692515,0.703899,-0.210137,0.554204,0.0737655,0.0122249,0,0,0,0,0,0,0,0.370269,-0.228939,0.0266809,-1.77684,0.103666,1.39258,0.402396,0.53652,0.0230768,0.60373,-0.115997,0.385303,0.0899102,0.00132757,1.88404,-27.1352,1.06416,25.134,1.47918,2.24389,-0.0365141,-0.924582,-0.692218,-2.42631,0.405217,0.510129,-0.172779,-0.135856,0.697619,-0.303396,-1.02862,0.372631,-0.191883,-0.00791712,
0.377634,-0.228875,0.0346602,-1.77908,0.109562,-0.176817,-0.382845,0.636414,0.00651821,0.698147,-0.200043,0.544699,0.111942,0.0123536,0,0,0,0,0,0,0,0.370269,-0.228939,0.0266809,-1.77684,0.103666,1.39258,0.402396,0.53652,0.0230768,0.60373,-0.115997,0.385303,0.0899102,0.00132757,1.88404,-27.1352,1.06416,25.134,1.47918,2.24389,-0.0365141,-0.924582,-0.692218,-2.42631,0.405217,0.510129,-0.172779,-0.135856,0.697619,-0.303396,-1.02862,0.372631,-0.191883,-0.00791712,
0.380246,-0.228832,0.0375598,-1.7799,0.111945,-0.1764,-0.382799,0.653024,0.0108155,0.724895,-0.204261,0.595814,0.10419,0.0114635,0,0,0,0,0,0,0,0.370269,-0.228939,0.0266809,-1.77684,0.103666,1.39258,0.402396,0.53652,0.0230768,0.60373,-0.115997,0.385303,0.0899102,0.00132757,1.88404,-27.1352,1.06416,25.134,1.47918,2.24389,-0.0365141,-1.34038,-0.844983,-2.53253,0.4963,0.261038,-0.148093,-0.0828623,0.578317,-0.303199,-1.05077,0.384209,-0.212338,-0.00858281,
0.382911,-0.228771,0.0405503,-1.78072,0.114522,-0.176007,-0.382757,0.666277,0.015233,0.747617,-0.206339,0.644304,0.0981962,0.0106771,0,0,0,0,0,0,0,0.370269,-0.228939,0.0266809,-1.77684,0.103666,1.39258,0.402396,0.53652,0.0230768,0.60373,-0.115997,0.385303,0.0899102,0.00132757,1.88404,-27.1352,1.06416,25.134,1.47918,2.24389,-0.0365141,-1.34038,-0.844983,-2.53253,0.4963,0.261038,-0.148093,-0.0828623,0.578317,-0.303199,-1.05077,0.384209,-0.212338,-0.00858281,
0.385618,-0.228693,0.0436184,-1.78155,0.117281,-0.175629,-0.382717,0.676694,0.0193356,0.767031,-0.207301,0.689597,0.0944683,0.00999107,0,0,0,0,0,0,0,0.370269,-0.228939,0.0266809,-1.77684,0.103666,1.39258,0.402396,0.53652,0.0230768,0.60373,-0.115997,0.385303,0.0899102,0.00132757,1.88404,-27.1352,1.06416,25.134,1.47918,2.24389,-0.0365141,-1.69269,0.129807,-2.32087,-0.0248024,0.034531,0.324637,0.363707,0.547563,0.228992,-0.994929,0.615686,-0.238784,-0.00878186,
0.388364,-0.228601,0.0467523,-1.78238,0.12017,-0.175258,-0.382679,0.686343,0.0229987,0.783463,-0.207174,0.722219,0.0927951,0.00941264,0,0,0,0,0,0,0,0.370269,-0.228939,0.0266809,-1.77684,0.103666,1.39258,0.402396,0.53652,0.0230768,0.60373,-0.115997,0.385303,0.0899102,0.00132757,1.88404,-27.1352,1.06416,25.134,1.47918,2.24389,-0.0365141,-1.69269,0.129807,-2.32087,-0.0248024,0.034531,0.324637,0.363707,0.547563,0.228992,-0.994929,0.615686,-0.238784,-0.00878186,
0.391151,-0.228497,0.0499351,-1.78321,0.123126,-0.174887,-0.382644,0.696861,0.0261092,0.795699,-0.206237,0.739094,0.0928955,0.00884428,0,0,0,0,0,0,0,0.393424,-0.227694,0.0534914,-1.78163,0.120999,1.3965,0.402391,0.539421,0.022233,0.618174,-0.115351,0.378364,0.106297,-0.000640709,2.3125,-26.7107,1.48866,24.761,1.59546,2.01867,0.017502,-1.30852,0.792447,-2.68179,-0.596797,0.456682,0.530533,0.53948,0.952163,0.502373,-1.19185,0.627698,-0.246603,-0.00950007,
0.377635,-0.228875,0.0346608,-1.77908,0.109553,-0.176814,-0.382845,0.636488,0.00650162,0.698211,-0.200047,0.543617,0.112212,0.0123481,0,0,0,0,0,0,0,0.393424,-0.227694,0.0534914,-1.78163,0.120999,1.3965,0.402391,0.539421,0.022233,0.618174,-0.115351,0.378364,0.106297,-0.000640709,2.3125,-26.7107,1.48866,24.761,1.59546,2.01867,0.017502,-0.774572,-0.460731,-2.6885,0.149019,0.742562,-0.0842484,-0.0327218,0.924792,-0.211594,-1.16955,0.413639,-0.208199,-0.00665378,
0.400739,-0.227611,0.0616122,-1.78383,0.126915,-0.172674,-0.382856,0.630676,0.00852219,0.708075,-0.195278,0.548258,0.131654,0.0119569,0,0,0,0,0,0,0,0.393424,-0.227694,0.0534914,-1.78163,0.120999,1.3965,0.402391,0.539421,0.022233,0.618174,-0.115351,0.378364,0.106297,-0.000640709,2.3125,-26.7107,1.48866,24.761,1.59546,2.01867,0.017502,-0.774572,-0.460731,-2.6885,0.149019,0.742562,-0.0842484,-0.0327218,0.924792,-0.211594,-1.16955,0.413639,-0.208199,-0.00665378,
0.403324,-0.22756,0.0645463,-1.78462,0.129314,-0.172174,-0.382812,0.646165,0.0128198,0.733501,-0.199369,0.599883,0.12508,0.0111184,0,0,0,0,0,0,0,0.393424,-0.227694,0.0534914,-1.78163,0.120999,1.3965,0.402391,0.539421,0.022233,0.618174,-0.115351,0.378364,0.106297,-0.000640709,2.3125,-26.7107,1.48866,24.761,1.59546,2.01867,0.017502,-1.09649,-0.496969,-2.44956,0.24162,0.443543,-0.0247684,0.030435,0.714584,-0.157485,-1.05694,0.46157,-0.213878,-0.00789121,
0.405964,-0.227491,0.0675661,-1.78543,0.131871,-0.171695,-0.38277,0.66007,0.0171389,0.754958,-0.200992,0.639157,0.1198,0.0103934,0,0,0,0,0,0,0,0.393424,-0.227694,0.0534914,-1.78163,0.120999,1.3965,0.402391,0.539421,0.022233,0.618174,-0.115351,0.378364,0.106297,-0.000640709,2.3125,-26.7107,1.48866,24.761,1.59546,2.01867,0.017502,-1.09649,-0.496969,-2.44956,0.24162,0.443543,-0.0247684,0.030435,0.714584,-0.157485,-1.05694,0.46157,-0.213878,-0.00789121,
0.408661,-0.227407,0.0706517,-1.78623,0.134522,-0.17123,-0.382731,0.674175,0.0209936,0.771395,-0.201218,0.662778,0.116331,0.00969593,0,0,0,0,0,0,0,0.41065,-0.227021,0.0737346,-1.78557,0.133774,1.40051,0.402396,0.558534,0.0178974,0.612617,-0.122545,0.340963,0.145455,-0.000645189,-1.53973,-27.032,-2.38738,25.2847,1.08184,2.07177,0.00376909,-1.58275,1.13502,-2.5923,-0.814342,0.314462,0.743649,0.764388,0.946293,0.722174,-1.19706,0.738089,-0.295101,-0.00833098,
0.411403,-0.22731,0.0737917,-1.78704,0.13723,-0.170771,-0.382695,0.68566,0.0241879,0.785018,-0.200859,0.677058,0.114708,0.00906895,0,0,0,0,0,0,0,0.41065,-0.227021,0.0737346,-1.78557,0.133774,1.40051,0.402396,0.558534,0.0178974,0.612617,-0.122545,0.340963,0.145455,-0.000645189,-1.53973,-27.032,-2.38738,25.2847,1.08184,2.07177,0.00376909,-2.13336,1.08076,-2.55463,-0.830201,-0.117414,0.863264,0.86162,0.73262,0.886295,-1.15038,0.698979,-0.311437,-0.00977882,
0.414182,-0.227203,0.0769758,-1.78784,0.139972,-0.170312,-0.382661,0.694655,0.0267714,0.796004,-0.200185,0.685456,0.114675,0.00846071,0,0,0,0,0,0,0,0.41065,-0.227021,0.0737346,-1.78557,0.133774,1.40051,0.402396,0.558534,0.0178974,0.612617,-0.122545,0.340963,0.145455,-0.000645189,-1.53973,-27.032,-2.38738,25.2847,1.08184,2.07177,0.00376909,-2.13336,1.08076,-2.55463,-0.830201,-0.117414,0.863264,0.86162,0.73262,0.886295,-1.15038,0.698979,-0.311437,-0.00977882,
0.400747,-0.227612,0.0616179,-1.78383,0.126814,-0.172654,-0.382857,0.631462,0.00836209,0.708742,-0.195243,0.536698,0.133964,0.011899,0,0,0,0,0,0,0,0.41065,-0.227021,0.0737346,-1.78557,0.133774,1.40051,0.402396,0.558534,0.0178974,0.612617,-0.122545,0.340963,0.145455,-0.000645189,-1.53973,-27.032,-2.38738,25.2847,1.08184,2.07177,0.00376909,-1.71037,-0.356372,-2.50967,0.0394741,0.0374926,0.213415,0.266394,0.587498,0.124223,-1.08565,0.450543,-0.265845,-0.0093119,
0.417899,-0.226932,0.0819569,-1.78773,0.139337,-0.168323,-0.382857,0.624577,0.0098077,0.715219,-0.190315,0.515106,0.15917,0.0116344,0,0,0,0,0,0,0,0.41065,-0.227021,0.0737346,-1.78557,0.133774,1.40051,0.402396,0.558534,0.0178974,0.612617,-0.122545,0.340963,0.145455,-0.000645189,-1.53973,-27.032,-2.38738,25.2847,1.08184,2.07177,0.00376909,-1.71037,-0.356372,-2.50967,0.0394741,0.0374926,0.213415,0.266394,0.587498,0.124223,-1.08565,0.450543,-0.265845,-0.0093119,
0.420474,-0.226875,0.0849066,-1.7885,0.141523,-0.167715,-0.382814,0.643578,0.0140714,0.737426,-0.193323,0.546575,0.152001,0.0107973,0,0,0,0,0,0,0,0.42783,-0.22634,0.0942641,-1.78957,0.146546,1.40531,0.402399,0.540774,0.0177471,0.642677,-0.123917,0.405844,0.166031,0.000290409,0.360599,-26.3338,-0.586229,25.4315,1.93145,2.04522,-0.0163725,-1.0491,-0.468945,-2.51278,0.112043,0.5527,0.0133174,0.0690044,0.840614,-0.108461,-1.15352,0.468959,-0.277596,-0.00827393,
0.423111,-0.226803,0.0879302,-1.78928,0.143798,-0.16713,-0.382774,0.659207,0.0179956,0.755904,-0.194621,0.568682,0.146268,0.0100302,0,0,0,0,0,0,0,0.42783,-0.22634,0.0942641,-1.78957,0.146546,1.40531,0.402399,0.540774,0.0177471,0.642677,-0.123917,0.405844,0.166031,0.000290409,0.360599,-26.3338,-0.586229,25.4315,1.93145,2.04522,-0.0163725,-1.0491,-0.468945,-2.51278,0.112043,0.5527,0.0133174,0.0690044,0.840614,-0.108461,-1.15352,0.468959,-0.277596,-0.00827393,
0.425797,-0.226718,0.0910141,-1.79006,0.146137,-0.166561,-0.382736,0.671718,0.0213416,0.770983,-0.19511,0.584735,0.14233,0.00929619,0,0,0,0,0,0,0,0.42783,-0.22634,0.0942641,-1.78957,0.146546,1.40531,0.402399,0.540774,0.0177471,0.642677,-0.123917,0.405844,0.166031,0.000290409,0.360599,-26.3338,-0.586229,25.4315,1.93145,2.04522,-0.0163725,-1.42769,0.490934,-2.74504,-0.548014,0.464288,0.48001,0.493037,1.01491,0.447519,-1.28769,0.638979,-0.327374,-0.00796482,
0.428522,-0.226622,0.094146,-1.79084,0.14853,-0.166,-0.382701,0.681241,0.0240988,0.782964,-0.195211,0.598321,0.140132,0.00874542,0,0,0,0,0,0,0,0.42783,-0.22634,0.0942641,-1.78957,0.146546,1.40531,0.402399,0.540774,0.0177471,0.642677,-0.123917,0.405844,0.166031,0.000290409,0.360599,-26.3338,-0.586229,25.4315,1.93145,2.04522,-0.0163725,-1.60188,0.149869,-2.67169,-0.348059,0.280924,0.398299,0.395118,0.864121,0.374801,-1.23677,0.586016,-0.327636,-0.00608672,
0.431278,-0.226516,0.0973154,-1.79162,0.150954,-0.165443,-0.382669,0.688854,0.0263795,0.792361,-0.194766,0.605894,0.139351,0.00816372,0,0,0,0,0,0,0,0.42783,-0.22634,0.0942641,-1.78957,0.146546,1.40531,0.402399,0.540774,0.0177471,0.642677,-0.123917,0.405844,0.166031,0.000290409,0.360599,-26.3338,-0.586229,25.4315,1.93145,2.04522,-0.0163725,-1.60188,0.149869,-2.67169,-0.348059,0.280924,0.398299,0.395118,0.864121,0.374801,-1.23677,0.586016,-0.327636,-0.00608672,
0.417962,-0.22694,0.0819993,-1.78772,0.138559,-0.16823,-0.382862,0.630529,0.00874164,0.720236,-0.189295,0.425457,0.170052,0.0111729,0,0,0,0,0,0,0,0.42783,-0.22634,0.0942641,-1.78957,0.146546,1.40531,0.402399,0.540774,0.0177471,0.642677,-0.123917,0.405844,0.166031,0.000290409,0.360599,-26.3338,-0.586229,25.4315,1.93145,2.04522,-0.0163725,-1.19737,-0.581777,-2.06596,0.196244,0.218652,0.0381458,0.0955412,0.557987,-0.0709788,-0.93334,0.397318,-0.242736,-0.0041387,
0.435171,-0.226235,0.102654,-1.79165,0.151527,-0.163197,-0.382864,0.635236,0.0105314,0.726993,-0.183099,0.416221,0.189792,0.0106982,0,0,0,0,0,0,0,0.444999,-0.22563,0.114659,-1.79326,0.157783,1.41094,0.402402,0.544323,0.0247544,0.654257,-0.116124,0.363713,0.169072,0.00120791,0.717655,-26.2584,-0.610033,25.5823,1.83349,2.20452,-0.0429228,-1.19737,-0.581777,-2.06596,0.196244,0.218652,0.0381458,0.0955412,0.557987,-0.0709788,-0.93334,0.397318,-0.242736,-0.0041387,
0.43778,-0.22618,0.105646,-1.7924,0.153194,-0.162456,-0.382824,0.652263,0.0138889,0.747985,-0.18628,0.416722,0.185165,0.00983448,0,0,0,0,0,0,0,0.444999,-0.22563,0.114659,-1.79326,0.157783,1.41094,0.402402,0.544323,0.0247544,0.654257,-0.116124,0.363713,0.169072,0.00120791,0.717655,-26.2584,-0.610033,25.5823,1.83349,2.20452,-0.0429228,0.0639297,-0.697237,-1.92496,0.27838,1.04121,-0.334953,-0.265495,0.900285,-0.493552,-0.928909,0.343535,-0.190461,-0.00280691,
0.440441,-0.226112,0.108704,-1.79315,0.154871,-0.161732,-0.382788,0.665279,0.0170435,0.764518,-0.188064,0.419393,0.181139,0.00917237,0,0,0,0,0,0,0,0.444999,-0.22563,0.114659,-1.79326,0.157783,1.41094,0.402402,0.544323,0.0247544,0.654257,-0.116124,0.363713,0.169072,0.00120791,0.717655,-26.2584,-0.610033,25.5823,1.83349,2.20452,-0.0429228,0.0639297,-0.697237,-1.92496,0.27838,1.04121,-0.334953,-0.265495,0.900285,-0.493552,-0.928909,0.343535,-0.190461,-0.00280691,
0.443144,-0.226032,0.111814,-1.79391,0.156549,-0.161019,-0.382754,0.675604,0.019838,0.777424,-0.188835,0.419505,0.178133,0.00850208,0,0,0,0,0,0,0,0.444999,-0.22563,0.114659,-1.79326,0.157783,1.41094,0.402402,0.544323,0.0247544,0.654257,-0.116124,0.363713,0.169072,0.00120791,0.717655,-26.2584,-0.610033,25.5823,1.83349,2.20452,-0.0429228,-0.054219,0.152003,-2.06091,-0.273759,1.11186,0.00656487,0.0306428,1.11358,-0.0799243,-1.03238,0.518351,-0.227733,-0.00347414,
0.445876,-0.225944,0.114963,-1.79466,0.15823,-0.160314,-0.382722,0.683055,0.022162,0.787315,-0.189165,0.420084,0.176385,0.0079587,0,0,0,0,0,0,0,0.444999,-0.22563,0.114659,-1.79326,0.157783,1.41094,0.402402,0.544323,0.0247544,0.654257,-0.116124,0.363713,0.169072,0.00120791,0.717655,-26.2584,-0.610033,25.5823,1.83349,2.20452,-0.0429228,-1.77774,0.0440864,-1.88204,-0.155984,-0.192059,0.446832,0.445737,0.421216,0.425774,-0.850453,0.549574,-0.259225,-0.00614344,
0.435391,-0.226255,0.1028,-1.79158,0.148648,-0.163043,-0.382881,0.655583,0.0074988,0.744049,-0.177201,0.0883726,0.207865,0.00931391,0,0,0,0,0,0,0,0.461831,-0.224831,0.134731,-1.7965,0.167034,1.41624,0.402398,0.536669,0.0335085,0.650567,-0.0969558,0.265023,0.170507,0.000408377,1.50318,-27.2066,-0.387865,25.4315,1.52221,2.10473,-0.00996382,-1.77774,0.0440864,-1.88204,-0.155984,-0.192059,0.446832,0.445737,0.421216,0.425774,-0.850453,0.549574,-0.259225,-0.00614344,
0.469305,-0.22467,0.143236,-1.79841,0.167804,-0.151853,-0.382879,0.645854,0.0118156,0.738627,-0.172222,-0.00884402,0.230787,0.00953457,0,0,0,0,0,0,0,0.461831,-0.224831,0.134731,-1.7965,0.167034,1.41624,0.402398,0.536669,0.0335085,0.650567,-0.0969558,0.265023,0.170507,0.000408377,1.50318,-27.2066,-0.387865,25.4315,1.52221,2.10473,-0.00996382,-1.22863,-0.611291,-1.86254,0.21061,0.079086,0.0701178,0.119071,0.434542,-0.0232444,-0.818954,0.378894,-0.207632,-0.00490529,
0.47195,-0.224617,0.146272,-1.79912,0.167568,-0.15094,-0.382844,0.66117,0.0132514,0.759108,-0.177034,-0.0590668,0.228232,0.00880186,0,0,0,0,0,0,0,0.461831,-0.224831,0.134731,-1.7965,0.167034,1.41624,0.402398,0.536669,0.0335085,0.650567,-0.0969558,0.265023,0.170507,0.000408377,1.50318,-27.2066,-0.387865,25.4315,1.52221,2.10473,-0.00996382,-1.22863,-0.611291,-1.86254,0.21061,0.079086,0.0701178,0.119071,0.434542,-0.0232444,-0.818954,0.378894,-0.207632,-0.00490529,
0.474638,-0.224557,0.149369,-1.79984,0.167185,-0.150043,-0.382811,0.671962,0.0150223,0.774203,-0.180005,-0.095628,0.22437,0.00820448,0,0,0,0,0,0,0,0.461831,-0.224831,0.134731,-1.7965,0.167034,1.41624,0.402398,0.536669,0.0335085,0.650567,-0.0969558,0.265023,0.170507,0.000408377,1.50318,-27.2066,-0.387865,25.4315,1.52221,2.10473,-0.00996382,-1.50624,0.523973,-2.08375,-0.64867,-0.02328,0.590893,0.644804,0.64381,0.57562,-0.924632,0.436953,-0.221725,-0.00673825,
0.477357,-0.224489,0.15251,-1.80057,0.166682,-0.149161,-0.38278,0.679749,0.0168095,0.78515,-0.181723,-0.125805,0.220356,0.0077276,0,0,0,0,0,0,0,0.461831,-0.224831,0.134731,-1.7965,0.167034,1.41624,0.402398,0.536669,0.0335085,0.650567,-0.0969558,0.265023,0.170507,0.000408377,1.50318,-27.2066,-0.387865,25.4315,1.52221,2.10473,-0.00996382,-0.197387,-0.63132,-1.9402,0.128626,0.851596,-0.223728,-0.202931,0.852641,-0.31352,-0.948093,0.339977,-0.223886,-0.00154424,
0.480097,-0.224416,0.155681,-1.8013,0.166075,-0.148294,-0.382751,0.685011,0.0184219,0.792911,-0.182682,-0.151622,0.216806,0.00732013,0,0,0,0,0,0,0,0.461831,-0.224831,0.134731,-1.7965,0.167034,1.41624,0.402398,0.536669,0.0335085,0.650567,-0.0969558,0.265023,0.170507,0.000408377,1.50318,-27.2066,-0.387865,25.4315,1.52221,2.10473,-0.00996382,-0.197387,-0.63132,-1.9402,0.128626,0.851596,-0.223728,-0.202931,0.852641,-0.31352,-0.948093,0.339977,-0.223886,-0.00154424,
0.482849,-0.224337,0.158874,-1.80203,0.165381,-0.147438,-0.382723,0.688129,0.0197948,0.798095,-0.183168,-0.17354,0.213985,0.00691636,0,0,0,0,0,0,0,0.479405,-0.22395,0.155571,-1.79953,0.172686,1.4222,0.402399,0.554967,0.0280964,0.680003,-0.0802213,0.0280721,0.200757,0.000502245,0.106693,-26.8852,-1.51061,25.2847,0.971981,2.00493,-0.0163725,-1.00246,-1.02793,-2.27701,0.213669,0.32226,-0.106655,-0.073495,0.641966,-0.174933,-1.04285,0.230312,-0.266089,-0.000976875,
0.469434,-0.224802,0.143245,-1.7984,0.162903,-0.151152,-0.382895,0.652116,-0.00332016,0.738943,-0.171212,-0.570551,0.304966,0.00866898,0,0,0,0,0,0,0,0.479405,-0.22395,0.155571,-1.79953,0.172686,1.4222,0.402399,0.554967,0.0280964,0.680003,-0.0802213,0.0280721,0.200757,0.000502245,0.106693,-26.8852,-1.51061,25.2847,0.971981,2.00493,-0.0163725,-1.00246,-1.02793,-2.27701,0.213669,0.32226,-0.106655,-0.073495,0.641966,-0.174933,-1.04285,0.230312,-0.266089,-0.000976875,
0.486977,-0.223995,0.164171,-1.80136,0.167346,-0.145025,-0.382889,0.641403,-0.00920368,0.736602,-0.168445,-0.599204,0.3157,0.00885798,0,0,0,0,0,0,0,0.479405,-0.22395,0.155571,-1.79953,0.172686,1.4222,0.402399,0.554967,0.0280964,0.680003,-0.0802213,0.0280721,0.200757,0.000502245,0.106693,-26.8852,-1.51061,25.2847,0.971981,2.00493,-0.0163725,-0.945306,-0.922383,-2.39277,-0.0263729,0.223982,-0.0485596,0.00538758,0.63477,-0.0848965,-1.03276,0.0312932,-0.207848,-0.00274362,
0.489554,-0.224034,0.167154,-1.80206,0.164582,-0.14375,-0.382855,0.644346,-0.00963366,0.745539,-0.175561,-0.691113,0.318911,0.00850452,0,0,0,0,0,0,0,0.479405,-0.22395,0.155571,-1.79953,0.172686,1.4222,0.402399,0.554967,0.0280964,0.680003,-0.0802213,0.0280721,0.200757,0.000502245,0.106693,-26.8852,-1.51061,25.2847,0.971981,2.00493,-0.0163725,-0.945306,-0.922383,-2.39277,-0.0263729,0.223982,-0.0485596,0.00538758,0.63477,-0.0848965,-1.03276,0.0312932,-0.207848,-0.00274362,
0.492132,-0.224069,0.170152,-1.80278,0.161558,-0.142477,-0.382822,0.644281,-0.00875473,0.749467,-0.179993,-0.756002,0.318174,0.00824573,0,0,0,0,0,0,0,0.479405,-0.22395,0.155571,-1.79953,0.172686,1.4222,0.402399,0.554967,0.0280964,0.680003,-0.0802213,0.0280721,0.200757,0.000502245,0.106693,-26.8852,-1.51061,25.2847,0.971981,2.00493,-0.0163725,-1.58699,0.929807,-2.91388,-1.49131,-0.0584803,0.832737,0.852554,0.978403,0.974468,-1.25349,0.100612,-0.232006,-0.00805127,
0.4947,-0.224098,0.173152,-1.80351,0.15835,-0.141214,-0.382791,0.642081,-0.0072981,0.750021,-0.182917,-0.801766,0.315691,0.00782455,0,0,0,0,0,0,0,0.497781,-0.222959,0.17769,-1.8022,0.171562,1.42946,0.402395,0.571445,0.0239213,0.654956,-0.0829179,-0.133597,0.23721,-0.00103231,-1.05969,-26.7821,-2.71269,25.856,0.727535,2.17156,0.00376909,-1.58699,0.929807,-2.91388,-1.49131,-0.0584803,0.832737,0.852554,0.978403,0.974468,-1.25349,0.100612,-0.232006,-0.00805127,
0.497254,-0.22412,0.176145,-1.80425,0.155014,-0.139964,-0.382759,0.638454,-0.00560316,0.748289,-0.184842,-0.834106,0.312529,0.00799758,0,0,0,0,0,0,0,0.497781,-0.222959,0.17769,-1.8022,0.171562,1.42946,0.402395,0.571445,0.0239213,0.654956,-0.0829179,-0.133597,0.23721,-0.00103231,-1.05969,-26.7821,-2.71269,25.856,0.727535,2.17156,0.00376909,-0.87531,0.276784,-2.97181,-1.12745,0.425707,0.380164,0.384248,1.12877,0.489859,-1.32338,0.00843072,-0.240191,-0.0034284,
